rsonawane2002/My_IMU/logs_2/traj_321/imu_400hz_321.csv
time,j1,j2,j3,j4,j5,j6,j7,gripper1,gripper2,imu_ax,imu_ay,imu_az,imu_gx,imu_gy,imu_gz
0.0,0.00016700293,-0.785875,4.0107683e-05,-2.3551247,9.29385e-05,1.570997,0.786,0.04,0.04,-9.558481,0.0151149155572056,0.06162643,4.9517656e-08,-0.0011641276068985,3.0274993e-08
0.0025,0.0001670042905,-0.785857774,4.01072138e-05,-2.35513919,9.294493200000001e-05,1.570996565,0.786,0.04,0.04,-9.599869300000037,0.012942248294709994,0.05374556537499284,8.103316660002867e-08,-0.0013251987285912965,2.9993185405024527e-07
0.005,0.000167005651,-0.785840548,4.0106744600000003e-05,-2.3551536800000004,9.295136400000001e-05,1.57099613,0.786,0.04,0.04,-9.641257600000076,0.010769581032214388,0.045864700749985665,1.1254867720005734e-07,-0.001486269850284093,5.695887151004905e-07
0.0075,0.0001670070115,-0.7858233219999999,4.01062754e-05,-2.3551681700000002,9.295779600000002e-05,1.570995695,0.786,0.04,0.04,-9.682645900000113,0.008596913769718783,0.03798383612497849,1.4406418780008602e-07,-0.0016473409719768896,8.392455761507356e-07
0.01,0.000167008372,-0.785806096,4.01058062e-05,-2.35518266,9.296422800000002e-05,1.5709952600000001,0.786,0.04,0.04,-9.724034200000151,0.006424246507223176,0.030102971499971327,1.7557969840011468e-07,-0.0018084120936696863,1.108902437200981e-06
0.0125,0.0001670097325,-0.78578887,4.0105337e-05,-2.3551971500000004,9.297066000000003e-05,1.570994825,0.786,0.04,0.04,-9.765422500000188,0.00425157924472757,0.022222106874964155,2.0709520900014334e-07,-0.001969483215362483,1.3785592982512261e-06
0.015,0.000167011093,-0.785771644,4.01048678e-05,-2.3552116400000003,9.297709200000003e-05,1.57099439,0.786,0.04,0.04,-9.806810800000227,0.0020789119822319634,0.01434124224995699,2.3861071960017203e-07,-0.0021305543370552793,1.6482161593014713e-06
0.0175,0.00016701459200000004,-0.7857548619999999,4.010091064999993e-05,-2.3552257350000003,9.298591525000009e-05,1.57099396,0.786,0.04,0.04,-9.834300149999997,0.00062889534456181,0.00901346902499859,4.072261320028195e-07,-0.002287134656217795,2.137436930005911e-06
0.02,0.00016702236800000003,-0.7857389679999999,4.0089977599999916e-05,-2.3552390400000003,9.29995210000001e-05,1.5709935400000001,0.786,0.04,0.04,-9.833991599999997,0.0006241799565031257,0.008791878599998387,8.500413480032219e-07,-0.002434733370319994,3.0657855200067546e-06
0.0225,0.00016703014400000005,-0.7857230739999999,4.0079044549999906e-05,-2.3552523450000002,9.301312675000012e-05,1.57099312,0.786,0.04,0.04,-9.833683049999998,0.0006194645684444415,0.008570288174998187,1.2928565640036244e-06,-0.0025823320844221933,3.994134110007599e-06
0.025,0.00016703792000000007,-0.7857071799999998,4.0068111499999897e-05,-2.35526565,9.302673250000012e-05,1.5709927,0.786,0.04,0.04,-9.833374499999996,0.0006147491803857572,0.008348697749997984,1.7356717800040275e-06,-0.0027299307985243926,4.9224827000084435e-06
0.0275,0.00016704569600000006,-0.7856912859999998,4.005717844999989e-05,-2.355278955,9.304033825000014e-05,1.57099228,0.786,0.04,0.04,-9.833065949999996,0.0006100337923270728,0.008127107324997784,2.1784869960044302e-06,-0.002877529512626592,5.8508312900092875e-06
0.03,0.00016705347200000008,-0.7856753919999998,4.004624539999988e-05,-2.35529226,9.305394400000015e-05,1.57099186,0.786,0.04,0.04,-9.832757399999997,0.0006053184042683886,0.007905516899997581,2.6213022120048325e-06,-0.003025128226728791,6.7791798800101315e-06
0.0325,0.00016706124800000007,-0.7856594979999998,4.003531234999987e-05,-2.355305565,9.306754975000017e-05,1.57099144,0.786,0.04,0.04,-9.832448849999995,0.0006006030162097043,0.007683926474997381,3.0641174280052356e-06,-0.00317272694083099,7.707528470010976e-06
0.035,0.0001670801560000003,-0.7856444399999998,4.0006007499999505e-05,-2.3553181,9.309424450000043e-05,1.57099101,0.786,0.04,0.04,-9.832147699999995,0.0005933783075305221,0.0074790795599974985,4.059120700016187e-06,-0.003311710036361385,9.575418800029768e-06
0.0375,0.00016710463000000033,-0.7856297999999998,3.996751674999947e-05,-2.35533025,9.312748375000046e-05,1.570990575,0.786,0.04,0.04,-9.831850249999995,0.0005848989385411593,0.00728260439999732,5.33021800001734e-06,-0.003446385322606112,1.191308000003189e-05
0.04,0.00016712910400000034,-0.7856151599999998,3.992902599999944e-05,-2.3553424,9.316072300000048e-05,1.57099014,0.786,0.04,0.04,-9.831552799999995,0.0005764195695517967,0.007086129239997141,6.601315300018497e-06,-0.00358106060885084,1.4250741200034018e-05
0.0425,0.00016715357800000036,-0.7856005199999998,3.98905352499994e-05,-2.35535455,9.319396225000052e-05,1.5709897050000001,0.786,0.04,0.04,-9.831255349999996,0.0005679402005624339,0.0068896540799969624,7.872412600019653e-06,-0.0037157358950955675,1.658840240003615e-05
0.045,0.0001671780520000004,-0.7855858799999997,3.9852044499999365e-05,-2.3553667000000003,9.322720150000054e-05,1.57098927,0.786,0.04,0.04,-9.830957899999994,0.0005594608315730713,0.006693178919996784,9.143509900020807e-06,-0.0038504111813402945,1.892606360003827e-05
0.0475,0.00016720252600000042,-0.7855712399999998,3.981355374999933e-05,-2.35537885,9.326044075000057e-05,1.570988835,0.786,0.04,0.04,-9.830660449999995,0.0005509814625837085,0.006496703759996605,1.0414607200021964e-05,-0.003985086467585022,2.1263724800040396e-05
0.05,0.000167227000000001,-0.7855565999999998,3.977506299999835e-05,-2.355391,9.329368000000128e-05,1.5709884,0.786,0.04,0.04,-9.830362999999995,0.0005425020935942877,0.006300228599996837,1.1685704500042929e-05,-0.0041197617538295105,2.3601386000079264e-05
0.0525,0.00016728275350000107,-0.7855430999999998,3.9684543549998266e-05,-2.35540216,9.336439750000135e-05,1.57098798,0.786,0.04,0.04,-9.830061349999994,0.0005308341002089272,0.006126323249996679,1.404562412504507e-05,-0.004241306823680601,2.7958711550083217e-05
0.055,0.00016733850700000112,-0.7855295999999997,3.959402409999819e-05,-2.3554133200000003,9.343511500000141e-05,1.57098756,0.786,0.04,0.04,-9.829759699999995,0.0005191661068235665,0.005952417899996521,1.640554375004722e-05,-0.004362851893531691,3.231603710008718e-05
0.0575,0.00016739426050000117,-0.7855160999999997,3.9503504649998105e-05,-2.3554244800000004,9.350583250000148e-05,1.57098714,0.786,0.04,0.04,-9.829458049999994,0.000507498113438206,0.005778512549996362,1.876546337504937e-05,-0.004484396963382782,3.6673362650091156e-05
0.06,0.00016745001400000122,-0.7855025999999997,3.941298519999803e-05,-2.35543564,9.357655000000154e-05,1.57098672,0.786,0.04,0.04,-9.829156399999993,0.0004958301200528453,0.005604607199996205,2.1125383000051513e-05,-0.004605942033233873,4.103068820009511e-05
0.0625,0.00016750576750000127,-0.7854890999999997,3.932246574999794e-05,-2.3554468,9.364726750000161e-05,1.5709863,0.786,0.04,0.04,-9.828854749999994,0.0004841621266674847,0.005430701849996046,2.348530262505366e-05,-0.004727487103084963,4.5388013750099075e-05
0.065,0.00016756152100000132,-0.7854755999999997,3.923194629999786e-05,-2.3554579600000003,9.371798500000167e-05,1.57098588,0.786,0.04,0.04,-9.828553099999993,0.0004724941332821241,0.005256796499995888,2.584522225005581e-05,-0.004849032172936054,4.974533930010305e-05
0.0675,0.0001676338470000026,-0.7854624369999997,3.911369184999573e-05,-2.3554687800000003,9.380878050000322e-05,1.570985455,0.786,0.04,0.04,-9.828257449999994,0.00046003164461540995,0.005088823319996167,2.8721518800096e-05,-0.004966423148291959,5.4959033850170104e-05
0.07,0.0001677393180000027,-0.7854499479999997,3.8939967399995574e-05,-2.3554789200000004,9.393973200000333e-05,1.57098502,0.786,0.04,0.04,-9.827973799999993,0.00044598016538616213,0.004932714479996024,3.263056920009956e-05,-0.0050755059346583985,6.188546640017641e-05
0.0725,0.00016784478900000278,-0.7854374589999997,3.876624294999542e-05,-2.35548906,9.407068350000345e-05,1.570984585,0.786,0.04,0.04,-9.827690149999993,0.0004319286861569144,0.004776605639995883,3.6539619600103094e-05,-0.005184588721024837,6.881189895018267e-05
0.075,0.00016795026000000288,-0.7854249699999997,3.8592518499995264e-05,-2.3554992,9.420163500000358e-05,1.57098415,0.786,0.04,0.04,-9.827406499999993,0.0004178772069276666,0.004620496799995741,4.0448670000106654e-05,-0.005293671507391276,7.573833150018898e-05
0.0775,0.00016805573100000298,-0.7854124809999996,3.84187940499951e-05,-2.3555093400000002,9.433258650000369e-05,1.5709837150000001,0.786,0.04,0.04,-9.827122849999991,0.00040382572769841885,0.004464387959995599,4.435772040011021e-05,-0.005402754293757715,8.266476405019528e-05
0.08,0.00016816120200000307,-0.7853999919999997,3.824506959999494e-05,-2.3555194800000003,9.44635380000038e-05,1.57098328,0.786,0.04,0.04,-9.826839199999991,0.0003897742484691711,0.004308279119995456,4.8266770800113774e-05,-0.005511837080124155,8.959119660020159e-05
0.0825,0.00016826667300000317,-0.7853875029999996,3.807134514999478e-05,-2.35552962,9.459448950000392e-05,1.570982845,0.786,0.04,0.04,-9.826555549999991,0.00037572276923992327,0.004152170279995314,5.217582120011733e-05,-0.005620919866490594,9.651762915020788e-05
0.085,0.0001684198710000055,-0.7853756559999996,3.78173844999909e-05,-2.35553952,9.478350500000674e-05,1.57098241,0.78600019,0.04,0.04,-9.826266799999992,0.00036005415022318047,0.004004905579995582,5.733904380017906e-05,-0.005721584009009543,0.00010548596600030892
0.08750000000000001,0.00016859693250000565,-0.7853641299999996,3.752330574999064e-05,-2.3555493000000003,9.500155250000693e-05,1.570981975,0.786000475,0.04,0.04,-9.825975499999991,0.00034357696131280047,0.0038620629499954524,6.312935250018434e-05,-0.00581803882960532,0.00011547525500031801
0.09,0.0001687739940000058,-0.7853526039999996,3.722922699999037e-05,-2.3555590800000004,9.521960000000714e-05,1.57098154,0.7860007600000001,0.04,0.04,-9.82568419999999,0.0003270997724024205,0.0037192203199953233,6.891966120018958e-05,-0.005914493650201098,0.00012546454400032706
0.0925,0.00016895105550000596,-0.7853410779999996,3.69351482499901e-05,-2.3555688600000004,9.543764750000733e-05,1.570981105,0.786001045,0.04,0.04,-9.82539289999999,0.00031062258349204053,0.0035763776899951933,7.470996990019485e-05,-0.006010948470796876,0.00013545383300033614
0.095,0.00016912811700000612,-0.7853295519999997,3.664106949998984e-05,-2.3555786400000005,9.565569500000753e-05,1.57098067,0.78600133,0.04,0.04,-9.825101599999991,0.00029414539458166053,0.0034335350599950633,8.050027860020013e-05,-0.006107403291392654,0.00014544312200034525
0.0975,0.00016930517850000627,-0.7853180259999996,3.634699074998957e-05,-2.3555884200000006,9.587374250000773e-05,1.570980235,0.786001615,0.04,0.04,-9.82481029999999,0.00027766820567128053,0.0032906924299949333,8.629058730020539e-05,-0.006203858111988431,0.00015543241100035435
0.1,0.00016948224000000995,-0.7853064999999996,3.605291199998338e-05,-2.3555982000000006,9.609179000001222e-05,1.5709798,0.7860019,0.04,0.04,-9.824518999999993,0.00026119101676088513,0.003147849799995467,9.208089600024157e-05,-0.006300312932583851,0.0001654217000004911
0.10250000000000001,0.0001697558730000102,-0.7852957749999996,3.559596399998296e-05,-2.3556070200000003,9.642777875001253e-05,1.57097938,0.7860021850000001,0.04,0.04,-9.824309599999992,0.00024429055483707974,0.0030232531549953534,9.872066910024761e-05,-0.006386935501362615,0.00017891956550050337
0.105,0.00017002950600001045,-0.7852850499999996,3.5139015999982545e-05,-2.3556158400000005,9.676376750001283e-05,1.57097896,0.78600247,0.04,0.04,-9.824100199999993,0.00022739009291327444,0.002898656509995241,0.00010536044220025362,-0.006473558070141379,0.0001924174310005156
0.1075,0.0001703031390000107,-0.7852743249999996,3.468206799998213e-05,-2.3556246600000006,9.709975625001313e-05,1.57097854,0.786002755,0.04,0.04,-9.823890799999992,0.00021048963098946905,0.0027740598649951273,0.00011200021530025966,-0.006560180638920142,0.0002059152965005279
0.11,0.00017057677200001096,-0.7852635999999996,3.422511999998172e-05,-2.3556334800000003,9.743574500001344e-05,1.57097812,0.7860030400000001,0.04,0.04,-9.823681399999993,0.00019358916906566368,0.002649463219995014,0.0001186399884002657,-0.006646803207698906,0.00021941316200054016
0.1125,0.0001708504050000112,-0.7852528749999996,3.37681719999813e-05,-2.3556423000000004,9.777173375001375e-05,1.5709777,0.786003325,0.04,0.04,-9.823471999999992,0.0001766887071418583,0.0025248665749949004,0.00012527976150027175,-0.00673342577647767,0.00023291102750055243
0.115,0.00017112403800001146,-0.7852421499999995,3.3311223999980884e-05,-2.35565112,9.810772250001405e-05,1.5709772800000001,0.7860036100000001,0.04,0.04,-9.823262599999993,0.0001597882452180529,0.002400269929994787,0.0001319195346002778,-0.006820048345256434,0.0002464088930005647
0.11750000000000001,0.000171439113500017,-0.7852316549999996,3.278420754997148e-05,-2.3556598650000002,9.849451475002087e-05,1.570976855,0.786003945,0.04,0.04,-9.823026799999989,0.000142750574740733,0.0022771024949948568,0.00013941632650039373,-0.006902498821731033,0.00026120615650074367
0.12,0.0001718370740000174,-0.7852216199999996,3.211705419997088e-05,-2.3556684600000004,9.898291400002132e-05,1.57097642,0.7860043800000001,0.04,0.04,-9.822738199999987,0.00012543848715643665,0.002156793479994748,0.00014862715600040207,-0.0069766051135988945,0.0002786022160007594
0.1225,0.00017223503450001774,-0.7852115849999995,3.144990084997027e-05,-2.355677055,9.947131325002176e-05,1.570975985,0.786004815,0.04,0.04,-9.822449599999988,0.00010812639957214019,0.0020364844649946386,0.00015783798550041047,-0.007050711405466758,0.00029599827550077525
0.125,0.0001726329950000181,-0.7852015499999996,3.078274749996966e-05,-2.3556856500000003,9.995971250002221e-05,1.57097555,0.78600525,0.04,0.04,-9.822160999999987,9.081431198784372e-05,0.0019161754499945288,0.00016704881500041887,-0.00712481769733462,0.0003133943350007911
0.1275,0.00017303095550001845,-0.7851915149999996,3.0115594149969054e-05,-2.355694245,0.00010044811175002264,1.570975115,0.786005685,0.04,0.04,-9.821872399999988,7.350222440354726e-05,0.0017958664349944195,0.00017625964450042724,-0.007198923989202482,0.00033079039450080694
0.13,0.00017342891600001883,-0.7851814799999995,2.9448440799968446e-05,-2.35570284,0.0001009365110000231,1.57097468,0.78600612,0.04,0.04,-9.821583799999987,5.619013681925081e-05,0.00167555741999431,0.00018547047400043563,-0.007273030281070345,0.0003481864540008228
0.1325,0.00017382687650001918,-0.7851714449999996,2.878128744996784e-05,-2.3557114350000004,0.00010142491025002355,1.570974245,0.7860065549999999,0.04,0.04,-9.821295199999986,3.8878049234954346e-05,0.0015552484049942005,0.00019468130350044403,-0.007347136572938208,0.00036558251350083857
0.135,0.00017432786100002713,-0.7851618299999996,2.7939630999954376e-05,-2.35571943,0.0001020397570000333,1.5709738199999999,0.78600708,0.04,0.04,-9.82106159999999,2.2193317999259214e-05,0.001441727775994591,0.00020535166200055994,-0.007414940977472216,0.0003858134200010633
0.1375,0.00017488035750002763,-0.7851524249999996,2.701072299995353e-05,-2.355727125,0.00010271782750003392,1.5709734,0.78600765,0.04,0.04,-9.82085549999999,5.822264937796273e-06,0.0013316013399944906,0.00021675178500057032,-0.007479594438339985,0.000407461750001083
0.14,0.00017543285400002813,-0.7851430199999995,2.6081814999952684e-05,-2.3557348200000003,0.00010339589800003453,1.57097298,0.7860082199999999,0.04,0.04,-9.82064939999999,-1.0548788123666672e-05,0.0012214749039943904,0.0002281519080005807,-0.007544247899207753,0.0004291100800011027
0.14250000000000002,0.00017598535050002864,-0.7851336149999995,2.5152906999951838e-05,-2.355742515,0.00010407396850003515,1.57097256,0.78600879,0.04,0.04,-9.820443299999988,-2.6919841185129613e-05,0.0011113484679942903,0.0002395520310005911,-0.007608901360075522,0.0004507584100011224
0.145,0.00017653784700002914,-0.7851242099999994,2.4223998999951002e-05,-2.35575021,0.00010475203900003576,1.57097214,0.78600936,0.04,0.04,-9.820237199999989,-4.329089424659237e-05,0.0010012220319941911,0.0002509521540006013,-0.007673554820943291,0.00047240674000114183
0.1475,0.00017709034350002964,-0.7851148049999994,2.3295090999950156e-05,-2.3557579050000004,0.00010543010950003638,1.57097172,0.78600993,0.04,0.04,-9.820031099999989,-5.966194730805532e-05,0.0008910955959940909,0.0002623522770006117,-0.007738208281811059,0.0004940550700011615
0.15,0.00017764284000004035,-0.7851053999999995,2.2366182999932007e-05,-2.3557656000000002,0.00010610818000004954,1.5709713,0.7860105,0.04,0.04,-9.819824999999984,-7.60330003693574e-05,0.0007809691599945924,0.00027375240000075874,-0.007802861742678129,0.0005157034000014302
0.1525,0.000178382220000041,-0.7850965499999994,2.1120162399930873e-05,-2.3557731750000004,0.00010701617125005036,1.570970865,0.786011355,0.04,0.04,-9.819525449999983,-8.945618174112087e-05,0.0006818700234945021,0.0002876567430007714,-0.007854706607761872,0.000541912625501454
0.155,0.0001791216000000417,-0.7850876999999995,1.987414179992974e-05,-2.3557807500000005,0.0001079241625000512,1.57097043,0.78601221,0.04,0.04,-9.819225899999983,-0.00010287936311288435,0.000582770886994412,0.00030156108600078407,-0.007906551472845613,0.0005681218510014778
0.1575,0.00017986098000004235,-0.7850788499999994,1.8628121199928605e-05,-2.3557883250000002,0.00010883215375005203,1.570969995,0.786013065,0.04,0.04,-9.818926349999982,-0.00011630254448464784,0.00048367175049432177,0.0003154654290007967,-0.007958396337929356,0.0005943310765015018
0.16,0.00018060036000004304,-0.7850699999999995,1.738210059992747e-05,-2.3557959000000004,0.00010974014500005285,1.57096956,0.78601392,0.04,0.04,-9.818626799999983,-0.00012972572585641132,0.00038457261399423156,0.00032936977200080935,-0.008010241203013099,0.0006205403020015256
0.1625,0.0001813397400000437,-0.7850611499999995,1.6136079999926337e-05,-2.3558034750000005,0.00011064813625005368,1.570969125,0.786014775,0.04,0.04,-9.818327249999983,-0.0001431489072281748,0.0002854734774941414,0.000343274115000822,-0.00806208606809684,0.0006467495275015495
0.165,0.00018207912000004438,-0.7850522999999995,1.4890059399925203e-05,-2.3558110500000007,0.0001115561275000545,1.57096869,0.7860156300000001,0.04,0.04,-9.818027699999982,-0.0001565720885999383,0.00018637434099405114,0.0003571784580008347,-0.008113930933180583,0.0006729587530015734
0.1675,0.00018289223150005853,-0.7850435924999996,1.3518777124901168e-05,-2.3558185800000007,0.00011255495575007193,1.570968255,0.7860165620000001,0.04,0.04,-9.817765249999988,-0.00016950818535470898,8.934968499434014e-05,0.0003718015400009787,-0.008162780897694458,0.000700780574501892
0.17,0.0001838528060000594,-0.7850351699999996,1.1896971499899691e-05,-2.3558260200000007,0.00011373545800007301,1.57096782,0.7860176480000001,0.04,0.04,-9.81757699999999,-0.00018147011287575985,-3.5260100057444356e-06,0.0003878621000009933,-0.008205641061070232,0.0007318275880019203
0.17250000000000001,0.0001848133805000603,-0.7850267474999995,1.0275165874898214e-05,-2.3558334600000004,0.00011491596025007408,1.5709673849999999,0.7860187340000001,0.04,0.04,-9.817388749999989,-0.00019343204039681073,-9.640170500582899e-05,0.000403922660001008,-0.008248501224446005,0.0007628746015019486
0.17500000000000002,0.00018577395500006115,-0.7850183249999995,8.653360249896737e-06,-2.3558409000000005,0.00011609646250007517,1.5709669499999999,0.7860198200000001,0.04,0.04,-9.817200499999988,-0.00020539396791786164,-0.0001892774000059136,0.0004199832200010226,-0.008291361387821779,0.0007939216150019768
0.1775,0.00018673452950006202,-0.7850099024999995,7.031554624895279e-06,-2.3558483400000005,0.00011727696475007622,1.570966515,0.7860209060000001,0.04,0.04,-9.817012249999989,-0.00021735589543891239,-0.0002821530950059971,0.000436043780001037,-0.008334221551197552,0.0008249686285020047
0.18,0.00018769510400006289,-0.7850014799999995,5.409748999893803e-06,-2.35585578,0.0001184574670000773,1.57096608,0.7860219920000001,0.04,0.04,-9.816823999999988,-0.0002293178229599633,-0.00037502879000608167,0.00045210434000105167,-0.008377081714573326,0.000856015642002033
0.1825,0.00018865567850006375,-0.7849930574999995,3.787943374892326e-06,-2.3558632200000003,0.00011963796925007837,1.570965645,0.786023078,0.04,0.04,-9.816635749999987,-0.00024127975048101417,-0.00046790448500616625,0.00046816490000106627,-0.008419941877949099,0.0008870626555020614
0.185,0.00018978770800008195,-0.7849848749999995,1.8745596498614142e-06,-2.3558702300000003,0.00012102921700010072,1.57096522,0.7860243100000001,0.0399999995,0.04,-9.816436499999986,-0.0002510591177274747,-0.0005598781050061597,0.00048606040800126615,-0.008456439524891222,0.0009214397540024257
0.1875,0.00019100546500008307,-0.7849768124999995,-1.8461312514046047e-07,-2.3558770250000003,0.00012252583750010208,1.5709648,0.7860256150000001,0.03999999875,0.04,-9.816231749999986,-0.00025974720483696765,-0.000651400687506243,0.0005048733900012833,-0.008489755913617471,0.0009574818950024586
0.19,0.00019222322200008416,-0.7849687499999994,-2.2437859001423355e-06,-2.3558838200000003,0.00012402245800010345,1.57096438,0.7860269200000001,0.039999998,0.04,-9.816026999999986,-0.0002684352919464605,-0.0007429232700063263,0.0005236863720013004,-0.008523072302343723,0.0009935240360024913
0.1925,0.00019344097900008528,-0.7849606874999995,-4.30295867514421e-06,-2.3558906150000003,0.00012551907850010482,1.57096396,0.7860282250000001,0.03999999725,0.04,-9.815822249999986,-0.00027712337905595345,-0.0008344458525064096,0.0005424993540013175,-0.008556388691069974,0.0010295661770025242
0.195,0.0001946587360000864,-0.7849526249999994,-6.362131450146084e-06,-2.3558974100000003,0.00012701569900010616,1.57096354,0.7860295300000001,0.0399999965,0.04,-9.815617499999986,-0.0002858114661654464,-0.000925968435006493,0.0005613123360013346,-0.008589705079796223,0.001065608318002557
0.1975,0.0001958764930000875,-0.7849445624999994,-8.421304225147959e-06,-2.3559042050000003,0.00012851231950010753,1.5709631199999998,0.786030835,0.03999999575,0.04,-9.815412749999986,-0.00029449955327493925,-0.0010174910175065762,0.0005801253180013518,-0.008623021468522474,0.0011016504590025899
0.2,0.00019709425000011006,-0.7849364999999995,-1.0480477000186325e-05,-2.3559110000000003,0.00013000894000013535,1.5709627,0.7860321400000001,0.039999995,0.04,-9.81520799999998,-0.0003031876403840006,-0.0011090136000063305,0.0005989383000015885,-0.008656337857247858,0.0011376926000030102
0.2025,0.00019860663850011144,-0.7849286924999994,-1.3041163600188656e-05,-2.3559175400000005,0.00013186917550013705,1.570962265,0.7860337945000001,0.039999994250000004,0.03999999925,-9.81493274999998,-0.0003059448150453831,-0.0011960136600064097,0.0006207680100016083,-0.008677754877136647,0.001179062360003048
0.20500000000000002,0.0002001190270001128,-0.7849208849999995,-1.5601850200190986e-05,-2.3559240800000003,0.00013372941100013873,1.57096183,0.7860354490000001,0.039999993500000004,0.0399999985,-9.81465749999998,-0.00030870198970676564,-0.0012830137200064888,0.0006425977200016282,-0.008699171897025437,0.0012204321200030856
0.20750000000000002,0.00020163141550011418,-0.7849130774999994,-1.816253680019332e-05,-2.3559306200000005,0.00013558964650014043,1.5709613949999999,0.7860371035000001,0.039999992750000005,0.03999999775,-9.81438224999998,-0.00031145916436814815,-0.0013700137800065682,0.0006644274300016481,-0.008720588916914226,0.0012618018800031232
0.21,0.00020314380400011554,-0.7849052699999994,-2.072322340019562e-05,-2.3559371600000003,0.0001374498820001421,1.5709609599999999,0.7860387580000001,0.039999992,0.039999997,-9.814106999999979,-0.0003142163390295306,-0.0014570138400066463,0.0006862571400016677,-0.008742005936803016,0.0013031716400031604
0.2125,0.00020465619250011692,-0.7848974624999994,-2.328391000019795e-05,-2.3559437000000005,0.0001393101175001438,1.570960525,0.7860404125000001,0.03999999125,0.03999999625,-9.813831749999979,-0.0003169735136909131,-0.0015440139000067255,0.0007080868500016875,-0.008763422956691806,0.0013445414000031982
0.215,0.0002061685810001183,-0.7848896549999993,-2.5844596600200285e-05,-2.3559502400000003,0.0001411703530001455,1.57096009,0.7860420670000001,0.0399999905,0.0399999955,-9.81355649999998,-0.00031973068835229563,-0.0016310139600068047,0.0007299165600017074,-0.008784839976580595,0.0013859111600032358
0.2175,0.00020779208300014605,-0.7848819049999993,-2.859457375024755e-05,-2.3559567700000006,0.00014316780500017978,1.57095966,0.7860438365000002,0.03999999,0.039999995,-9.813297199999983,-0.00032044490799275317,-0.0017166218000065534,0.000752646851501941,-0.008802836993710064,0.0014291176300037095
0.22,0.00020963781200014772,-0.7848742699999993,-3.17231320002504e-05,-2.3559632800000005,0.00014543969000018183,1.5709592399999999,0.7860458360000002,0.03999999,0.039999995,-9.813069799999981,-0.0003170732175928101,-0.0017994452000066289,0.0007771783060019635,-0.008813994005323313,0.001475997520003752
0.2225,0.0002114835410001494,-0.7848666349999993,-3.4851690250253245e-05,-2.3559697900000005,0.0001477115750001839,1.57095882,0.7860478355000002,0.03999999,0.039999995,-9.812842399999981,-0.00031370152719286705,-0.0018822686000067041,0.0008017097605019858,-0.008825151016936563,0.0015228774100037948
0.225,0.0002133292700001511,-0.7848589999999993,-3.798024850025609e-05,-2.3559763000000005,0.000149983460000186,1.5709583999999999,0.7860498350000001,0.03999999,0.039999995,-9.812614999999981,-0.000310329836792924,-0.0019650920000067796,0.0008262412150020081,-0.008836308028549813,0.0015697573000038375
0.2275,0.00021517499900015275,-0.7848513649999993,-4.1108806750258937e-05,-2.3559828100000004,0.00015225534500018804,1.57095798,0.7860518345000002,0.03999999,0.039999995,-9.812387599999981,-0.00030695814639298093,-0.002047915400006855,0.0008507726695020304,-0.008847465040163064,0.00161663719000388
0.23,0.00021702072800015444,-0.7848437299999993,-4.423736500026179e-05,-2.3559893200000004,0.00015452723000019012,1.5709575599999999,0.7860538340000002,0.03999999,0.039999995,-9.812160199999981,-0.0003035864559930379,-0.00213073880000693,0.0008753041240020528,-0.008858622051776314,0.0016635170800039227
0.2325,0.0002188664570001561,-0.7848360949999993,-4.7365923250264635e-05,-2.355995830000001,0.00015679911500019218,1.57095714,0.7860558335000002,0.03999999,0.039999995,-9.811932799999981,-0.0003002147655930948,-0.0022135622000070054,0.0008998355785020751,-0.008869779063389564,0.0017103969700039655
0.23500000000000001,0.0002209609420001897,-0.7848285449999993,-5.0918540400321865e-05,-2.3560023400000007,0.0001593784580002337,1.5709567,0.7860580600000002,0.039999989799999996,0.0399999943,-9.811721099999982,-0.0002919199177985804,-0.002297227430007189,0.0009263955370023576,-0.008874695189297264,0.0017611094800044995
0.23750000000000002,0.00022317980500019172,-0.7848210374999993,-5.46831870003253e-05,-2.3560088500000007,0.00016211153000023616,1.5709562499999998,0.7860604000000002,0.0399999895,0.039999993250000004,-9.811517249999982,-0.0002811634913077206,-0.0023813135750072657,0.0009539697475023827,-0.00887649087235338,0.0018137383000045475
0.24,0.00022539866800019373,-0.7848135299999993,-5.844783360032868e-05,-2.3560153600000007,0.00016484460200023862,1.5709558,0.7860627400000002,0.0399999892,0.0399999922,-9.811313399999982,-0.0002704070648168609,-0.002465399720007341,0.0009815439580024075,-0.008878286555409497,0.0018663671200045949
0.2425,0.00022761753100019574,-0.7848060224999993,-6.221248020033211e-05,-2.3560218700000006,0.00016757767400024112,1.57095535,0.7860650800000003,0.0399999889,0.039999991150000004,-9.811109549999982,-0.0002596506383260011,-0.002549485865007418,0.0010091181685024325,-0.008880082238465615,0.0019189959400046429
0.245,0.00022983639400019776,-0.7847985149999993,-6.597712680033554e-05,-2.3560283800000006,0.00017031074600024358,1.5709548999999998,0.7860674200000003,0.0399999886,0.0399999901,-9.810905699999982,-0.00024889421183514127,-0.0026335720100074947,0.0010366923790024578,-0.00888187792152173,0.0019716247600046906
0.2475,0.0002320552570001998,-0.7847910074999993,-6.974177340033897e-05,-2.3560348900000005,0.00017304381800024607,1.57095445,0.7860697600000003,0.0399999883,0.039999989050000004,-9.810701849999983,-0.0002381377853442815,-0.002717658155007571,0.0010642665895024828,-0.008883673604577848,0.002024253580004739
0.25,0.00023427412000023945,-0.7847834999999993,-7.350642000040659e-05,-2.3560414000000005,0.00017577689000029508,1.570954,0.7860721000000003,0.039999988,0.039999988,-9.810497999999983,-0.00022738135885275404,-0.002801744300007326,0.0010918408000028118,-0.008885469287633119,0.002076882400005298
0.2525,0.00023690685250024184,-0.7847760299999993,-7.797696600041066e-05,-2.3560479100000005,0.00017902155650029804,1.57095355,0.7860749200000003,0.0399999874,0.0399999874,-9.810293699999981,-0.00020928386947897755,-0.0028822900550073993,0.0011227555450028398,-0.008877981454133217,0.002135133040005351
0.255,0.00023953958500024425,-0.7847685599999993,-8.244751200041473e-05,-2.356054420000001,0.000182266223000301,1.5709530999999999,0.7860777400000003,0.0399999868,0.0399999868,-9.810089399999981,-0.0001911863801052011,-0.002962835810007472,0.001153670290002868,-0.008870493620633316,0.002193383680005404
0.2575,0.00024217231750024663,-0.7847610899999993,-8.691805800041881e-05,-2.356060930000001,0.00018551088950030396,1.57095265,0.7860805600000003,0.039999986200000004,0.039999986200000004,-9.809885099999981,-0.0001730888907314246,-0.0030433815650075455,0.0011845850350028961,-0.008863005787133414,0.002251634320005457
0.26,0.000244805050000249,-0.7847536199999993,-9.138860400042288e-05,-2.356067440000001,0.00018875555600030692,1.5709522,0.7860833800000003,0.0399999856,0.0399999856,-9.809680799999981,-0.00015499140135764812,-0.003123927320007619,0.0012154997800029243,-0.008855517953633511,0.0023098849600055103
0.2625,0.0002474377825002514,-0.7847461499999993,-9.585915000042695e-05,-2.3560739500000007,0.00019200022250030985,1.5709517499999999,0.7860862000000003,0.039999985,0.039999985,-9.809476499999981,-0.00013689391198387166,-0.003204473075007692,0.0012464145250029523,-0.00884803012013361,0.002368135600005563
0.265,0.00025007051500025384,-0.7847386799999992,-0.00010032969600043102,-2.3560804600000007,0.0001952448890003128,1.5709513,0.7860890200000004,0.0399999844,0.0399999844,-9.809272199999981,-0.00011879642261009519,-0.0032850188300077654,0.0012773292700029805,-0.008840542286633708,0.002426386240005616
0.2675,0.0002528550285003005,-0.7847311899999992,-0.00010505925750051071,-2.356087080000001,0.00019867729000037058,1.5709508399999998,0.7860920000000003,0.03999998365,0.03999998365,-9.80906549999998,-9.761210530722178e-05,-0.0033672650000083353,0.0013091960550032865,-0.008829792868344288,0.0024865897650062393
0.27,0.00025594310400030334,-0.7847236599999993,-0.00011030685000051549,-2.3560939200000006,0.00020248516000037406,1.5709503599999999,0.7860953000000004,0.039999982600000004,0.039999982600000004,-9.80885399999998,-7.02541321488498e-05,-0.0034529120000084132,0.0013429669200033174,-0.008812520280478683,0.0025506990600062977
0.2725,0.0002590311795003062,-0.7847161299999992,-0.00011555444250052026,-2.356100760000001,0.0002062930300003775,1.57094988,0.7860986000000003,0.03999998155,0.03999998155,-9.80864249999998,-4.2896158990477824e-05,-0.003538559000008491,0.0013767377850033482,-0.008795247692613077,0.002614808355006356
0.275,0.00026211925500030896,-0.7847085999999992,-0.00012080203500052503,-2.356107600000001,0.00021010090000038098,1.5709494,0.7861019000000004,0.0399999805,0.0399999805,-9.80843099999998,-1.5538185832105847e-05,-0.003624206000008569,0.0014105086500033788,-0.008777975104747471,0.0026789176500064144
0.2775,0.0002652073305003118,-0.7847010699999992,-0.00012604962750052982,-2.3561144400000007,0.00021390877000038446,1.57094892,0.7861052000000004,0.03999997945,0.03999997945,-9.808219499999979,1.181978732626613e-05,-0.003709853000008647,0.0014442795150034096,-0.008760702516881866,0.002743026945006473
0.28,0.0002682954060003146,-0.7846935399999992,-0.0001312972200005346,-2.356121280000001,0.00021771664000038793,1.5709484399999998,0.7861085000000003,0.0399999784,0.0399999784,-9.80800799999998,3.917776048463811e-05,-0.003795500000008725,0.0014780503800034405,-0.00874342992901626,0.002807136240006531
0.28250000000000003,0.0002713834815003174,-0.7846860099999992,-0.00013654481250053937,-2.3561281200000006,0.00022152451000039138,1.5709479599999998,0.7861118000000004,0.03999997735,0.03999997735,-9.807796499999979,6.653573364301007e-05,-0.003881147000008803,0.001511821245003471,-0.008726157341150655,0.0028712455350065895
0.28500000000000003,0.00027480316400037177,-0.7846783939999992,-0.0001423585830006322,-2.3561353300000007,0.00022574274400045867,1.57094743,0.7861154600000004,0.0399999763,0.0399999763,-9.807615899999984,0.00010103806853689054,-0.003968882940009206,0.0015477470500038372,-0.008703726995733766,0.0029393197300072644
0.28750000000000003,0.00027838865000037505,-0.7846707349999992,-0.00014845544250063778,-2.3561427250000007,0.0002301661600004627,1.5709468749999997,0.7861193000000004,0.03999997525,0.03999997525,-9.807450749999983,0.00013911258429686812,-0.004057663350009287,0.0015847503250038708,-0.008678717771542433,0.0030093763750073284
0.29,0.0002819741360003782,-0.7846630759999992,-0.00015455230200064318,-2.356150120000001,0.00023458957600046664,1.5709463199999998,0.7861231400000004,0.0399999742,0.0399999742,-9.807285599999982,0.00017718710005684487,-0.004146443760009366,0.0016217536000039036,-0.008653708547351101,0.0030794330200073906
0.2925,0.0002855596220003815,-0.7846554169999992,-0.00016064916150064872,-2.356157515000001,0.00023901299200047068,1.5709457649999998,0.7861269800000004,0.03999997315,0.03999997315,-9.807120449999983,0.00021526161581682246,-0.004235224170009447,0.0016587568750039373,-0.008628699323159768,0.003149489665007454
0.295,0.00028914510800038477,-0.7846477579999992,-0.0001667460210006543,-2.356164910000001,0.00024343640800047472,1.5709452099999999,0.7861308200000003,0.0399999721,0.0399999721,-9.806955299999983,0.0002533361315768001,-0.004324004580009528,0.001695760150003971,-0.008603690098968437,0.003219546310007518
0.2975,0.000292730594000388,-0.7846400989999992,-0.00017284288050065983,-2.356172305000001,0.00024785982400047876,1.570944655,0.7861346600000004,0.03999997105,0.03999997105,-9.806790149999982,0.0002914106473367777,-0.0044127849900096085,0.0017327634250040047,-0.008578680874777103,0.0032896029550075817
0.3,0.0002963160800004502,-0.7846324399999991,-0.00017893974000076604,-2.356179700000001,0.00025228324000055573,1.5709441,0.7861385000000004,0.03999997,0.03999997,-9.806624999999984,0.000329485163098034,-0.004501565400010653,0.001769766700004378,-0.008553671650585012,0.003359659600008302
0.3025,0.000300441596000454,-0.7846245814999991,-0.00018595891050077242,-2.356187170000001,0.00025737512350056037,1.5709430949999998,0.7861429100000005,0.0399999694,0.0399999694,-9.806481749999984,0.00037927695084908936,-0.004599175440010742,0.0018098816500044144,-0.008521710056808037,0.0034357319050083712
0.305,0.00030456711200045774,-0.7846167229999991,-0.00019297808100077882,-2.356194640000001,0.000262467007000565,1.57094209,0.7861473200000004,0.0399999688,0.0399999688,-9.806338499999985,0.0004290687386001447,-0.004696785480010831,0.0018499966000044509,-0.008489748463031063,0.0035118042100084406
0.3075,0.0003086926280004615,-0.7846088644999991,-0.0001999972515007852,-2.356202110000001,0.00026755889050056965,1.5709410849999998,0.7861517300000005,0.0399999682,0.0399999682,-9.806195249999984,0.00047886052635120004,-0.00479439552001092,0.0018901115500044876,-0.00845778686925409,0.0035878765150085096
0.31,0.0003128181440004653,-0.784601005999999,-0.0002070164220007916,-2.3562095800000007,0.0002726507740005743,1.57094008,0.7861561400000004,0.0399999676,0.0399999676,-9.806051999999983,0.0005286523141022554,-0.004892005560011008,0.001930226500004524,-0.008425825275477116,0.003663948820008579
0.3125,0.000316943660000469,-0.7845931474999991,-0.000214035592500798,-2.356217050000001,0.00027774265750057887,1.5709390749999999,0.7861605500000005,0.039999967,0.039999967,-9.805908749999983,0.0005784441018533107,-0.004989615600011097,0.0019703414500045605,-0.008393863681700142,0.0037400211250086485
0.315,0.00032106917600047277,-0.784585288999999,-0.00022105476300080437,-2.356224520000001,0.0002828345410005835,1.57093807,0.7861649600000006,0.039999966399999996,0.039999966399999996,-9.805765499999984,0.0006282358896043661,-0.0050872256400111854,0.002010456400004597,-0.008361902087923168,0.0038160934300087174
0.3175,0.00032538901700054386,-0.7845773474999991,-0.00022840595700092582,-2.356232040000001,0.00028816708850067156,1.5709370649999999,0.7861695750000006,0.0399999656,0.0399999654,-9.805602449999975,0.0006825104006638448,-0.0051852502200114186,0.002051637480005003,-0.008327393745998897,0.0038942313100095026
0.32,0.00033009750800054816,-0.7845692399999991,-0.00023642119800093312,-2.356239660000001,0.00029398096400067687,1.57093606,0.7861746000000006,0.0399999644,0.0399999636,-9.805399799999975,0.0007457503583355223,-0.005284103880011508,0.0020949508200050425,-0.008287791907782671,0.003976500340009578
0.3225,0.00033480599900055245,-0.784561132499999,-0.0002444364390009404,-2.3562472800000007,0.0002997948395006821,1.5709350549999999,0.7861796250000006,0.0399999632,0.0399999618,-9.805197149999975,0.0008089903160071999,-0.005382957540011599,0.002138264160005082,-0.008248190069566444,0.0040587693700096525
0.325,0.00033951449000055675,-0.784553024999999,-0.0002524516800009477,-2.356254900000001,0.0003056087150006874,1.5709340499999997,0.7861846500000006,0.039999962,0.039999959999999994,-9.804994499999976,0.0008722302736788774,-0.005481811200011688,0.002181577500005121,-0.008208588231350218,0.004141038400009727
0.3275,0.00034422298100056104,-0.784544917499999,-0.000260466921000955,-2.356262520000001,0.0003114225905006927,1.5709330449999999,0.7861896750000006,0.0399999608,0.0399999582,-9.804791849999976,0.000935470231350555,-0.005580664860011779,0.0022248908400051607,-0.008168986393133992,0.004223307430009802
0.33,0.0003489314720005653,-0.784536809999999,-0.0002684821620009623,-2.356270140000001,0.00031723646600069803,1.5709320399999998,0.7861947000000007,0.0399999596,0.039999956399999995,-9.804589199999976,0.0009987101890222326,-0.005679518520011868,0.0022682041800052,-0.008129384554917766,0.004305576460009877
0.3325,0.0003536399630005696,-0.784528702499999,-0.0002764974030009696,-2.3562777600000007,0.00032305034150070333,1.5709310349999999,0.7861997250000007,0.0399999584,0.0399999546,-9.804386549999975,0.0010619501466939101,-0.005778372180011959,0.0023115175200052393,-0.00808978271670154,0.0043878454900099515
0.335,0.0003587659390006502,-0.784520365999999,-0.00028522614500110734,-2.356285690000001,0.0003293811700008031,1.5709300199999998,0.7862052100000008,0.039999957600000004,0.039999954,-9.804183899999975,0.0011325355852113007,-0.005887857630013992,0.0023570484400056843,-0.008044015523040238,0.004474009650010739
0.3375,0.00036410065750065506,-0.784511914999999,-0.0002943116375011156,-2.356293775000001,0.00033597047500080914,1.5709289999999998,0.7862109250000008,0.039999957,0.039999954,-9.803981249999975,0.0012067937641495432,-0.0060026589750140965,0.0024036881500057268,-0.007995165651658077,0.004562121375010819
0.34,0.0003694353760006599,-0.7845034639999989,-0.0003033971300011239,-2.3563018600000007,0.0003425597800008151,1.5709279799999998,0.7862166400000007,0.0399999564,0.039999954,-9.803778599999974,0.0012810519430877859,-0.006117460320014201,0.0024503278600057693,-0.007946315780275917,0.004650233100010899
0.3425,0.0003747700945006648,-0.7844950129999989,-0.0003124826225011322,-2.356309945000001,0.0003491490850008211,1.5709269599999998,0.7862223550000007,0.0399999558,0.039999954,-9.803575949999974,0.0013553101220260284,-0.006232261665014305,0.0024969675700058118,-0.007897465908893758,0.00473834482501098
0.34500000000000003,0.00038010481300066964,-0.7844865619999989,-0.00032156811500114044,-2.356318030000001,0.0003557383900008271,1.5709259399999997,0.7862280700000007,0.0399999552,0.039999954,-9.803373299999974,0.001429568300964271,-0.0063470630100144095,0.0025436072800058543,-0.007848616037511599,0.00482645655001106
0.34750000000000003,0.0003854395315006745,-0.7844781109999989,-0.0003306536075011487,-2.356326115000001,0.0003623276950008331,1.5709249199999997,0.7862337850000007,0.0399999546,0.039999954,-9.803170649999974,0.0015038264799025138,-0.006461864355014515,0.0025902469900058967,-0.007799766166129439,0.00491456827501114
0.35000000000000003,0.0003907742500007646,-0.7844696599999988,-0.00033973910000130274,-2.3563342000000014,0.0003689170000009448,1.5709238999999997,0.7862395000000008,0.039999954,0.039999954,-9.802967999999979,0.001578084658843183,-0.006576665700016072,0.0026368867000063365,-0.007750916294746224,0.005002680000012033
0.3525,0.00039677856250076995,-0.7844608309999989,-0.0003499693280013118,-2.356342930000001,0.0003763360450009514,1.5709228499999999,0.7862459290000008,0.039999954,0.039999953399999996,-9.802794149999977,0.0016713983612254108,-0.006702874950016184,0.002686646740006381,-0.007693775882937093,0.0050971713900121165
0.355,0.0004027828750007754,-0.7844520019999989,-0.00036019955600132117,-2.356351660000001,0.00038375509000095813,1.5709217999999998,0.7862523580000008,0.039999954,0.039999952799999995,-9.802620299999978,0.0017647120636076407,-0.006829084200016299,0.002736406780006426,-0.007636635471127961,0.005191662780012202
0.3575,0.0004087871875007809,-0.7844431729999988,-0.00037042978400133046,-2.356360390000001,0.0003911741350009649,1.5709207499999998,0.7862587870000008,0.039999954,0.0399999522,-9.802446449999978,0.0018580257659898706,-0.0069552934500164134,0.0027861668200064712,-0.007579495059318829,0.0052861541700122885
0.36,0.00041479150000078635,-0.7844343439999988,-0.00038066001200133976,-2.356369120000001,0.00039859318000097163,1.5709197,0.7862652160000008,0.039999954,0.0399999516,-9.802272599999977,0.0019513394683721005,-0.007081502700016529,0.002835926860006517,-0.007522354647509697,0.005380645560012375
0.3625,0.0004207958125007918,-0.7844255149999988,-0.00039089024000134906,-2.356377850000001,0.0004060122250009784,1.5709186499999999,0.7862716450000008,0.039999954,0.039999951,-9.802098749999978,0.0020446531707543304,-0.007207711950016644,0.002885686900006562,-0.0074652142357005645,0.00547513695001246
0.365,0.0004268001250007973,-0.7844166859999988,-0.0004011204680013584,-2.356386580000001,0.00041343127000098513,1.5709175999999998,0.7862780740000008,0.039999954,0.0399999504,-9.801924899999978,0.0021379668731365603,-0.0073339212000167586,0.0029354469400066073,-0.007408073823891433,0.005569628340012547
0.3675,0.00043304211500089804,-0.7844076949999987,-0.0004117571340015307,-2.356395345000001,0.00042114479400110996,1.5709165299999999,0.7862847590000009,0.039999954,0.0399999502,-9.80175849999998,0.002235191920786169,-0.007463021965018034,0.002986302335007092,-0.00734848773571731,0.005666077170013418
0.37,0.0004397594600009042,-0.7843983799999987,-0.0004232066760015411,-2.356404180000001,0.00042944727600111753,1.57091542,0.7862919560000009,0.039999954,0.039999950799999996,-9.80160699999998,0.00234023965896584,-0.007597905760018156,0.0030393484400071404,-0.007284010294816142,0.005766440880013509
0.3725,0.0004464768050009103,-0.7843890649999987,-0.00043465621800155155,-2.356413015000001,0.0004377497580011251,1.5709143099999998,0.786299153000001,0.039999954,0.0399999514,-9.80145549999998,0.0024452873971455105,-0.007732789555018279,0.0030923945450071883,-0.0072195328539149724,0.0058668045900136
0.375,0.0004531941500009164,-0.7843797499999987,-0.000446105760001562,-2.356421850000001,0.00044605224000113263,1.5709132,0.7863063500000009,0.039999954,0.039999952,-9.801303999999979,0.002550335135325181,-0.007867673350018402,0.0031454406500072366,-0.007155055413013804,0.005967168300013692
0.3775,0.00045991149500092254,-0.7843704349999987,-0.0004575553020015724,-2.356430685000001,0.0004543547220011402,1.5709120899999998,0.786313547000001,0.039999954,0.0399999526,-9.80115249999998,0.0026553828735048518,-0.008002557145018524,0.003198486755007285,-0.007090577972112635,0.006067532010013784
0.38,0.00046662884000092864,-0.7843611199999987,-0.00046900484400158284,-2.3564395200000012,0.0004626572040011478,1.5709109799999998,0.786320744000001,0.039999954,0.0399999532,-9.801000999999978,0.0027604306116845224,-0.008137440940018647,0.0032515328600073333,-0.007026100531211467,0.0061678957200138745
0.3825,0.00047334618500093474,-0.7843518049999987,-0.00048045438600159327,-2.356448355000001,0.0004709596860011553,1.5709098699999997,0.786327941000001,0.039999954,0.039999953799999995,-9.800849499999979,0.002865478349864193,-0.008272324735018769,0.0033045789650073816,-0.0069616230903102976,0.006268259430013966
0.385,0.0004805678600010468,-0.7843421499999986,-0.0004927665660017849,-2.356457870000001,0.00047988728500129423,1.5709084499999997,0.7863356810000012,0.0399999546,0.0399999546,-9.80065279999997,0.002983369911106942,-0.008415466500020627,0.003359762350007879,-0.0068907090928301065,0.006372790970014933
0.3875,0.00048804170000105363,-0.7843323249999986,-0.0005055100650017965,-2.3564677250000012,0.0004891274425013026,1.5709068749999997,0.7863436925000011,0.039999955499999996,0.039999955499999996,-9.800433499999968,0.0031076833838772004,-0.008562737250020762,0.0034160143750079303,-0.006816576817062424,0.00647940642501503
0.39,0.0004955155400010604,-0.7843224999999986,-0.0005182535640018081,-2.3564775800000013,0.0004983676000013111,1.5709052999999997,0.7863517040000012,0.0399999564,0.0399999564,-9.800214199999969,0.0032319968566474587,-0.008710008000020896,0.0034722664000079815,-0.006742444541294742,0.006586021880015127
0.3925,0.0005029893800010672,-0.7843126749999986,-0.0005309970630018198,-2.3564874350000014,0.0005076077575013195,1.5709037249999998,0.7863597155000012,0.0399999573,0.0399999573,-9.799994899999968,0.0033563103294177166,-0.008857278750021031,0.0035285184250080327,-0.0066683122655270596,0.006692637335015224
0.395,0.0005104632200010741,-0.7843028499999986,-0.0005437405620018314,-2.3564972900000014,0.0005168479150013279,1.5709021499999998,0.7863677270000012,0.0399999582,0.0399999582,-9.799775599999968,0.003480623802187975,-0.009004549500021164,0.003584770450008084,-0.006594179989759376,0.006799252790015321
0.3975,0.0005179370600010808,-0.7842930249999985,-0.0005564840610018429,-2.3565071450000015,0.0005260880725013363,1.5709005749999998,0.7863757385000012,0.0399999591,0.0399999591,-9.799556299999967,0.003604937274958233,-0.009151820250021299,0.003641022475008135,-0.006520047713991694,0.0069058682450154184
0.4,0.000525410900001204,-0.7842831999999984,-0.0005692275600020537,-2.3565170000000015,0.000535328230001489,1.5708989999999998,0.7863837500000014,0.03999996,0.03999996,-9.799336999999985,0.0037292507477316695,-0.00929909100002215,0.0036972745000086516,-0.0064459154382234445,0.007012483700016423
0.4025,0.0005336845850012116,-0.7842727959999984,-0.0005833394160020666,-2.3565271250000017,0.0005455600255014983,1.5708974099999997,0.7863926225000013,0.039999959700000004,0.0399999591,-9.799242949999986,0.0038754035486121825,-0.009451292850022289,0.0037567227250087055,-0.006367886066425323,0.007125338495016526
0.405,0.0005419582700012191,-0.7842623919999985,-0.0005974512720020793,-2.3565372500000015,0.0005557918210015077,1.5708958199999998,0.7864014950000013,0.0399999594,0.0399999582,-9.799148899999986,0.004021556349492695,-0.009603494700022428,0.00381617095000876,-0.006289856694627202,0.007238193290016629
0.40750000000000003,0.0005502319550012266,-0.7842519879999985,-0.0006115631280020922,-2.3565473750000017,0.000566023616501517,1.5708942299999997,0.7864103675000013,0.0399999591,0.0399999573,-9.799054849999985,0.004167709150373208,-0.009755696550022565,0.0038756191750088137,-0.006211827322829081,0.007351048085016731
0.41000000000000003,0.0005585056400012342,-0.7842415839999984,-0.0006256749840021051,-2.3565575000000014,0.0005762554120015263,1.5708926399999998,0.7864192400000013,0.0399999588,0.0399999564,-9.798960799999985,0.004313861951253722,-0.009907898400022704,0.003935067400008868,-0.0061337979510309604,0.007463902880016834
0.41250000000000003,0.0005667793250012417,-0.7842311799999985,-0.0006397868400021179,-2.3565676250000016,0.0005864872075015356,1.5708910499999997,0.7864281125000013,0.0399999585,0.039999955499999996,-9.798866749999986,0.004460014752134235,-0.010060100250022843,0.003994515625008922,-0.006055768579232839,0.007576757675016937
0.41500000000000004,0.0005750530100012492,-0.7842207759999985,-0.0006538986960021307,-2.3565777500000014,0.0005967190030015449,1.5708894599999998,0.7864369850000013,0.039999958200000005,0.0399999546,-9.798772699999986,0.004606167553014748,-0.01021230210002298,0.004053963850008976,-0.005977739207434718,0.00768961247001704
0.4175,0.0005836077085013846,-0.7842101579999984,-0.0006684914200023624,-2.3565881850000014,0.0006072992050017127,1.5708878599999998,0.7864461550000015,0.039999958,0.039999954,-9.798638299999967,0.00475645158442281,-0.010372840500026915,0.004114493470009521,-0.005896549508893529,0.0078044511500180444
0.42,0.000592724434001393,-0.7841991119999984,-0.0006840458800023765,-2.3565992400000018,0.000618576220001723,1.5708862399999999,0.7864559200000014,0.039999958,0.039999954,-9.798423199999966,0.004914998076880344,-0.010550052000027076,0.004177185880009578,-0.005809039156870509,0.007923257600018153
0.4225,0.0006018411595014012,-0.7841880659999984,-0.0006996003400023907,-2.3566102950000016,0.0006298532350017332,1.5708846199999997,0.7864656850000015,0.039999958,0.039999954,-9.798208099999966,0.005073544569337878,-0.010727263500027237,0.004239878290009635,-0.00572152880484749,0.00804206405001826
0.425,0.0006109578850014096,-0.7841770199999983,-0.0007151548000024049,-2.3566213500000015,0.0006411302500017435,1.5708829999999998,0.7864754500000015,0.039999958,0.039999954,-9.797992999999966,0.005232091061795413,-0.010904475000027399,0.004302570700009693,-0.00563401845282447,0.00816087050001837
0.4275,0.0006200746105014178,-0.7841659739999983,-0.0007307092600024191,-2.356632405000002,0.0006524072650017538,1.5708813799999997,0.7864852150000015,0.039999958,0.039999954,-9.797777899999966,0.005390637554252947,-0.01108168650002756,0.00436526311000975,-0.005546508100801451,0.008279676950018477
0.43,0.0006291913360014262,-0.7841549279999982,-0.0007462637200024333,-2.3566434600000017,0.0006636842800017641,1.5708797599999997,0.7864949800000015,0.039999958,0.039999954,-9.797562799999966,0.005549184046710481,-0.011258898000027722,0.004427955520009807,-0.005458997748778431,0.008398483400018584
0.4325,0.0006383080615014345,-0.7841438819999982,-0.0007618181800024473,-2.3566545150000016,0.0006749612950017743,1.5708781399999998,0.7865047450000016,0.039999958,0.039999954,-9.797347699999966,0.005707730539168015,-0.011436109500027884,0.004490647930009864,-0.005371487396755411,0.008517289850018693
0.435,0.0006480154730015829,-0.7841323899999981,-0.0007783835340027015,-2.356666210000002,0.0006869707940019584,1.5708764399999997,0.7865151550000017,0.039999958200000005,0.039999954399999996,-9.79718759999998,0.005882177315681214,-0.011621859900030071,0.004555471840010427,-0.005279539851456838,0.008640125400019757
0.4375,0.0006580182275015921,-0.784120674999998,-0.0007954543350027171,-2.356678225000002,0.0006993465350019697,1.5708746999999998,0.7865258875000017,0.0399999585,0.039999955,-9.797054999999979,0.006064574234216606,-0.011811879750030244,0.004621361500010487,-0.005185373709522063,0.008764975500019872
0.44,0.0006680209820016012,-0.7841089599999981,-0.0008125251360027325,-2.356690240000002,0.000711722276001981,1.5708729599999998,0.7865366200000017,0.0399999588,0.0399999556,-9.796922399999978,0.006246971152751996,-0.012001899600030418,0.004687251160010547,-0.005091207567587287,0.008889825600019986
0.4425,0.0006780237365016103,-0.7840972449999981,-0.0008295959370027481,-2.356702255000002,0.0007240980170019923,1.5708712199999997,0.7865473525000017,0.0399999591,0.0399999562,-9.79678979999998,0.006429368071287388,-0.01219191945003059,0.004753140820010607,-0.004997041425652511,0.009014675700020099
0.445,0.0006880264910016194,-0.784085529999998,-0.0008466667380027637,-2.356714270000002,0.0007364737580020036,1.5708694799999998,0.7865580850000018,0.0399999594,0.0399999568,-9.796657199999979,0.0066117649898227784,-0.012381939300030762,0.004819030480010667,-0.004902875283717735,0.009139525800020212
0.4475,0.0006980292455016285,-0.7840738149999981,-0.0008637375390027792,-2.356726285000002,0.0007488494990020148,1.5708677399999997,0.7865688175000017,0.039999959700000004,0.0399999574,-9.796524599999978,0.00679416190835817,-0.012571959150030936,0.004884920140010727,-0.00480870914178296,0.009264375900020326
0.45,0.0007080320000017896,-0.784062099999998,-0.000880808340003055,-2.356738300000002,0.0007612252400022146,1.5708659999999997,0.7865795500000019,0.03999996,0.039999958,-9.79639199999998,0.006976558826896991,-0.01276197900003401,0.004950809800011303,-0.004714542999847136,0.009389226000021423
0.4525,0.0007189634855017997,-0.7840495989999979,-0.000899468859003072,-2.356750675000002,0.000774752759002227,1.5708638549999998,0.786591280000002,0.0399999609,0.0399999583,-9.796261349999979,0.007179909106377391,-0.0129697224000342,0.005019852430011366,-0.004613977274840875,0.009520074900021542
0.455,0.0007298949710018096,-0.7840370979999979,-0.000918129378003089,-2.356763050000002,0.0007882802780022393,1.5708617099999997,0.786603010000002,0.0399999618,0.0399999586,-9.79613069999998,0.0073832593858577916,-0.013177465800034389,0.0050888950600114285,-0.004513411549834613,0.00965092380002166
0.4575,0.0007408264565018195,-0.7840245969999979,-0.000936789897003106,-2.356775425000002,0.0008018077970022516,1.5708595649999997,0.786614740000002,0.0399999627,0.0399999589,-9.796000049999979,0.007586609665338191,-0.013385209200034578,0.005157937690011492,-0.004412845824828352,0.00978177270002178
0.46,0.0007517579420018294,-0.7840120959999979,-0.000955450416003123,-2.356787800000002,0.0008153353160022639,1.5708574199999996,0.786626470000002,0.0399999636,0.039999959200000004,-9.79586939999998,0.007789959944818591,-0.013592952600034767,0.005226980320011555,-0.00431228009982209,0.009912621600021898
0.4625,0.0007626894275018394,-0.7839995949999979,-0.0009741109350031399,-2.356800175000002,0.0008288628350022763,1.5708552749999996,0.7866382000000021,0.0399999645,0.0399999595,-9.795738749999979,0.00799331022429899,-0.013800696000034956,0.005296022950011617,-0.004211714374815829,0.010043470500022017
0.465,0.0007736209130018493,-0.7839870939999979,-0.000992771454003157,-2.356812550000002,0.0008423903540022886,1.5708531299999997,0.786649930000002,0.0399999654,0.0399999598,-9.79560809999998,0.008196660503779391,-0.014008439400035145,0.005365065580011681,-0.004111148649809567,0.010174319400022136
0.4675,0.0007848760885020244,-0.7839743269999977,-0.0010119861400034566,-2.356825260000002,0.0008563193750025057,1.5708509799999997,0.7866620060000022,0.03999996635,0.0399999605,-9.795455049999967,0.008407680364364055,-0.014221042850037814,0.005435158800012279,-0.004008060763571578,0.010307149350023267
0.47000000000000003,0.0007967786440020352,-0.7839610279999978,-0.0010323091600034752,-2.356838640000002,0.0008710514000025191,1.5708488199999997,0.7866747740000022,0.039999967399999996,0.039999962,-9.795257199999966,0.008634039387145527,-0.014443366400038016,0.005507353200012345,-0.00389992855487399,0.010443941400023391
0.47250000000000003,0.0008086811995020461,-0.7839477289999978,-0.0010526321800034938,-2.3568520200000025,0.0008857834250025325,1.5708466599999995,0.7866875420000022,0.03999996845,0.0399999635,-9.795059349999967,0.008860398409926997,-0.014665689950038219,0.005579547600012411,-0.0037917963461764014,0.010580733450023515
0.47500000000000003,0.0008205837550020569,-0.7839344299999977,-0.0010729552000035122,-2.3568654000000024,0.0009005154500025459,1.5708444999999995,0.7867003100000022,0.0399999695,0.039999965000000005,-9.794861499999966,0.009086757432708469,-0.01488801350003842,0.0056517420000124765,-0.0036836641374788127,0.01071752550002364
0.47750000000000004,0.0008324863105020678,-0.7839211309999977,-0.0010932782200035308,-2.3568787800000024,0.0009152474750025593,1.5708423399999996,0.7867130780000022,0.03999997055,0.039999966500000005,-9.794663649999967,0.00931311645548994,-0.015110337050038624,0.005723936400012542,-0.0035755319287812245,0.010854317550023765
0.48,0.0008443888660020784,-0.7839078319999977,-0.0011136012400035488,-2.3568921600000023,0.0009299795000025724,1.5708401799999996,0.7867258460000022,0.0399999716,0.039999968000000004,-9.794465799999966,0.009539475478271406,-0.015332660600038822,0.0057961308000126065,-0.0034673997200836385,0.010991109600023885
0.4825,0.0008562914215020892,-0.7838945329999977,-0.0011339242600035674,-2.3569055400000023,0.0009447115250025859,1.5708380199999996,0.7867386140000022,0.03999997265,0.0399999695,-9.794267949999966,0.009765834501052877,-0.015554984150039024,0.005868325200012672,-0.00335926751138605,0.011127901650024011
0.485,0.0008688693660022788,-0.7838806549999975,-0.0011554036600038918,-2.3569196500000027,0.000960281350002821,1.5708357799999997,0.7867521230000024,0.039999973700000004,0.039999970700000005,-9.794113199999977,0.010007554106458304,-0.015792855600043343,0.005942618450013293,-0.0032466348958930104,0.011268616700025174
0.4875,0.0008817850050022905,-0.7838664874999975,-0.001177461250003912,-2.3569341250000027,0.0009762700750028355,1.5708334999999995,0.7867660025000024,0.03999997475,0.03999997175,-9.793979999999976,0.01025695400316963,-0.016038501000043566,0.006017961125013362,-0.003131752077004026,0.011411293250025304
0.49,0.0008947006440023023,-0.7838523199999975,-0.001199518840003932,-2.3569486000000026,0.0009922588000028502,1.5708312199999996,0.7867798820000025,0.0399999758,0.0399999728,-9.793846799999976,0.010506353899880957,-0.01628414640004379,0.00609330380001343,-0.003016869258115041,0.011553969800025432
0.4925,0.000907616283002314,-0.7838381524999974,-0.001221576430003952,-2.3569630750000026,0.0010082475250028646,1.5708289399999995,0.7867937615000025,0.03999997685,0.03999997385,-9.793713599999977,0.010755753796592285,-0.016529791800044012,0.006168646475013499,-0.0029019864392260566,0.011696646350025562
0.495,0.0009205319220023259,-0.7838239849999974,-0.0012436340200039722,-2.3569775500000025,0.0010242362500028793,1.5708266599999996,0.7868076410000024,0.0399999779,0.0399999749,-9.793580399999977,0.01100515369330361,-0.016775437200044235,0.006243989150013568,-0.002787103620337072,0.011839322900025692
0.4975,0.0009334475610023376,-0.7838098174999975,-0.0012656916100039922,-2.3569920250000025,0.001040224975002894,1.5708243799999997,0.7868215205000024,0.03999997895,0.03999997595,-9.793447199999976,0.011254553590014938,-0.01702108260004446,0.0063193318250136365,-0.0026722208014480875,0.011981999450025822
0.5,0.0009463632000025412,-0.7837956499999972,-0.0012877492000043407,-2.3570065000000024,0.0010562137000031465,1.5708220999999996,0.7868354000000027,0.03999998,0.039999977,-9.79331399999998,0.011503953486730853,-0.017266728000048696,0.006394674500014254,-0.002557337982558058,0.01212467600002701
0.5025000000000001,0.0009603334650025542,-0.7837805974999972,-0.001311612820004363,-2.357022070000003,0.0010735109500031625,1.5708193849999996,0.7868503850000027,0.0399999806,0.03999997745,-9.79319939999998,0.011778574250688609,-0.017534440050048946,0.006473036435014327,-0.0024367128265800507,0.012273168575027148
0.505,0.0009743037300025666,-0.7837655449999972,-0.0013354764400043842,-2.357037640000003,0.0010908082000031778,1.5708166699999995,0.7868653700000027,0.0399999812,0.0399999779,-9.79308479999998,0.012053195014646353,-0.017802152100049182,0.006551398370014397,-0.002316087670602049,0.012421661150027281
0.5075000000000001,0.0009882739950025797,-0.7837504924999972,-0.0013593400600044065,-2.357053210000003,0.001108105450003194,1.5708139549999995,0.7868803550000028,0.0399999818,0.03999997835,-9.79297019999998,0.012327815778604109,-0.018069864150049433,0.00662976030501447,-0.0021954625146240413,0.012570153725027419
0.51,0.001002244260002592,-0.7837354399999972,-0.0013832036800044277,-2.3570687800000028,0.0011254027000032094,1.5708112399999996,0.7868953400000027,0.0399999824,0.039999978799999995,-9.79285559999998,0.012602436542561853,-0.01833757620004967,0.006708122240014539,-0.002074837358646039,0.012718646300027552
0.5125,0.0010162145250026044,-0.7837203874999972,-0.001407067300004449,-2.3570843500000027,0.0011426999500032248,1.5708085249999995,0.7869103250000028,0.039999983,0.03999997925,-9.792740999999978,0.012877057306519599,-0.01860528825004991,0.0067864841750146085,-0.001954212202668037,0.012867138875027684
0.515,0.0010301847900026173,-0.7837053349999972,-0.0014309309200044712,-2.3570999200000027,0.0011599972000032408,1.5708058099999995,0.7869253100000028,0.039999983600000004,0.0399999797,-9.792626399999978,0.013151678070477353,-0.018873000300050156,0.006864846110014682,-0.0018335870466900295,0.013015631450027822
0.5175,0.0010445202950028361,-0.783689967499997,-0.0014554200500048456,-2.357115865000003,0.0011777476050035122,1.5708030799999995,0.7869406950000031,0.039999984200000005,0.0399999802,-9.792508599999977,0.013434864208158676,-0.019144586250052584,0.0069442528800153416,-0.0017113279667446597,0.013166038075029035
0.52,0.00105958628000285,-0.7836739699999969,-0.0014811602000048697,-2.3571325600000033,0.0011964043200035296,1.5708003199999996,0.7869568800000031,0.0399999848,0.0399999808,-9.792384399999976,0.013735181093272675,-0.019423920000052844,0.007025749320015417,-0.0015858010388673125,0.01332027280002918
0.5225,0.0010746522650028636,-0.7836579724999969,-0.0015069003500048925,-2.357149255000003,0.001215061035003546,1.5707975599999995,0.7869730650000031,0.0399999854,0.0399999814,-9.792260199999976,0.01403549797838666,-0.019703253750053093,0.00710724576001549,-0.001460274110989971,0.013474507525029315
0.525,0.0010897182500028775,-0.7836419749999969,-0.0015326405000049164,-2.3571659500000033,0.0012337177500035634,1.5707947999999996,0.7869892500000031,0.039999986,0.039999982,-9.792135999999976,0.014335814863500662,-0.019982587500053352,0.0071887422000155654,-0.0013347471831126239,0.01362874225002946
0.5275,0.001104784235002891,-0.783625977499997,-0.0015583806500049392,-2.357182645000003,0.00125237446500358,1.5707920399999995,0.7870054350000032,0.0399999866,0.0399999826,-9.792011799999976,0.014636131748614648,-0.0202619212500536,0.007270238640015638,-0.0012092202552352826,0.013782976975029596
0.53,0.001119850220002905,-0.7836099799999969,-0.0015841208000049634,-2.3571993400000033,0.0012710311800035975,1.5707892799999994,0.7870216200000032,0.0399999872,0.0399999832,-9.791887599999976,0.014936448633728647,-0.02054125500005386,0.007351735080015714,-0.0010836933273579354,0.01393721170002974
0.5325,0.0011349162050029184,-0.7835939824999969,-0.0016098609500049862,-2.357216035000003,0.001289687895003614,1.5707865199999995,0.7870378050000032,0.0399999878,0.0399999838,-9.791763399999976,0.015236765518842635,-0.02082058875005411,0.007433231520015787,-0.000958166399480594,0.014091446425029876
0.535,0.0011507397500031536,-0.7835772749999966,-0.001636898660005389,-2.3572334300000035,0.0013092845800039058,1.5707836799999995,0.7870548060000034,0.039999988,0.039999984,-9.791638399999975,0.015554458461765338,-0.02112211970006085,0.00751673900001645,-0.0008283649359979614,0.014249455500031122
0.5375,0.001166942075003168,-0.7835602124999966,-0.0016645851500054136,-2.3572511750000036,0.0013293512500039237,1.5707807999999994,0.7870722150000035,0.039999988,0.039999984,-9.791512999999975,0.015880839433584794,-0.02143474925006113,0.007601252000016525,-0.000696426204714558,0.014409351750031264
0.54,0.001183144400003183,-0.7835431499999966,-0.0016922716400054395,-2.357268920000003,0.0013494179200039423,1.5707779199999994,0.7870896240000035,0.039999988,0.039999984,-9.791387599999975,0.01620722040540426,-0.02174737880006142,0.007685765000016604,-0.0005644874734311489,0.014569248000031414
0.5425,0.0011993467250031975,-0.7835260874999966,-0.001719958130005464,-2.3572866650000033,0.0013694845900039602,1.5707750399999993,0.7871070330000035,0.039999988,0.039999984,-9.791262199999975,0.016533601377223716,-0.022060008350061697,0.00777027800001668,-0.0004325487421477455,0.014729144250031556
0.545,0.0012155490500032127,-0.7835090249999966,-0.00174764462000549,-2.3573044100000033,0.001389551260003979,1.5707721599999993,0.7871244420000035,0.039999988,0.039999984,-9.791136799999975,0.016859982349043186,-0.02237263790006199,0.007854791000016757,-0.0003006100108643363,0.014889040500031704
0.5475,0.0012317513750032272,-0.7834919624999965,-0.0017753311100055145,-2.3573221550000034,0.0014096179300039967,1.5707692799999993,0.7871418510000034,0.039999988,0.039999984,-9.791011399999975,0.01718636332086264,-0.022685267450062267,0.007939304000016833,-0.00016867127958093296,0.015048936750031846
0.55,0.0012479537000034775,-0.7834748999999963,-0.0018030176000059434,-2.3573399000000035,0.0014296846000043076,1.5707663999999992,0.7871592600000038,0.039999988,0.039999984,-9.790885999999974,0.0175127442926878,-0.02299789700006839,0.008023817000017497,-3.673254829622161e-05,0.01520883300003311
0.5525,0.001265332325003493,-0.7834568399999964,-0.0018327191600059699,-2.3573582450000035,0.0014512111600043268,1.5707630999999993,0.7871779410000038,0.039999988,0.039999984,-9.790748749999972,0.01786755975342964,-0.02333965745006869,0.008111254100017576,0.00010171357610542519,0.015374300550033257
0.555,0.0012827109500035093,-0.7834387799999963,-0.0018624207200059976,-2.357376590000004,0.001472737720004347,1.5707597999999992,0.7871966220000037,0.039999988,0.039999984,-9.790611499999972,0.018222375214171495,-0.023681417900069012,0.008198691200017656,0.00024015970050707811,0.015539768100033411
0.5575,0.0013000895750035248,-0.7834207199999963,-0.001892122280006024,-2.357394935000004,0.001494264280004366,1.5707564999999992,0.7872153030000038,0.039999988,0.039999984,-9.790474249999972,0.018577190674913337,-0.024023178350069316,0.008286128300017733,0.00037860582490872494,0.01570523565003356
0.56,0.0013174682000035409,-0.7834026599999963,-0.0019218238400060517,-2.357413280000004,0.001515790840004386,1.5707531999999993,0.7872339840000038,0.039999988,0.039999984,-9.790336999999973,0.018932006135655193,-0.024364938800069635,0.008373565400017815,0.0005170519493103778,0.01587070320003371
0.5625,0.0013348468250035563,-0.7833845999999962,-0.0019515254000060781,-2.357431625000004,0.001537317400004405,1.5707498999999991,0.7872526650000038,0.039999988,0.039999984,-9.790199749999971,0.01928682159639703,-0.02470669925006994,0.008461002500017892,0.0006554980737120247,0.01603617075003386
0.5650000000000001,0.0013522254500035725,-0.7833665399999963,-0.001981226960006106,-2.357449970000004,0.0015588439600044252,1.5707465999999992,0.7872713460000038,0.039999988,0.039999984,-9.790062499999971,0.019641637057138887,-0.025048459700070257,0.008548439600017974,0.0007939441981136776,0.016201638300034012
0.5675,0.001370009355003839,-0.783348119999996,-0.0020116228650065623,-2.357468755000004,0.001580873520004756,1.5707432849999992,0.7872904600000041,0.0399999878,0.03999998365,-9.78990494999996,0.020005952287544457,-0.025391846100071568,0.008636866250018664,0.0009349028958541794,0.01636897680003532
0.5700000000000001,0.0013886038200038562,-0.783328979999996,-0.002043407460006592,-2.357488420000004,0.0016039090800047775,1.5707399399999993,0.7873104400000042,0.0399999872,0.039999982600000004,-9.789706799999959,0.020389267057259877,-0.02573848440007189,0.008727272000018748,0.0010808867402677357,0.016540057200035478
0.5725,0.0014071982850038728,-0.7833098399999959,-0.00207519205500662,-2.357508085000004,0.0016269446400047978,1.5707365949999992,0.7873304200000042,0.0399999866,0.03999998155,-9.78950864999996,0.020772581826975275,-0.026085122700072197,0.00881767775001883,0.0012268705846812853,0.01671113760003563
0.5750000000000001,0.00142579275000389,-0.7832906999999959,-0.0021069766500066496,-2.357527750000004,0.0016499802000048192,1.5707332499999993,0.7873504000000042,0.039999986,0.0399999805,-9.789310499999958,0.021155896596690694,-0.026431761000072523,0.008908083500018914,0.0013728544290948414,0.01688221800003579
0.5775,0.0014443872150039067,-0.783271559999996,-0.002138761245006678,-2.357547415000004,0.0016730157600048398,1.5707299049999992,0.7873703800000043,0.0399999854,0.03999997945,-9.789112349999959,0.021539211366406092,-0.02677839930007283,0.008998489250018993,0.001518838273508391,0.017053298400035943
0.58,0.001462981680003923,-0.783252419999996,-0.002170545840006706,-2.3575670800000044,0.0016960513200048604,1.5707265599999993,0.7873903600000043,0.0399999848,0.0399999784,-9.788914199999958,0.021922526136121494,-0.027125037600073138,0.009088895000019075,0.0016648221179219407,0.017224378800036095
0.5825,0.0014815761450039406,-0.7832332799999959,-0.0022023304350067357,-2.3575867450000043,0.0017190868800048818,1.5707232149999992,0.7874103400000043,0.039999984200000005,0.03999997735,-9.788716049999959,0.02230584090583691,-0.02747167590007346,0.00917930075001916,0.0018108059623354968,0.017395459200036253
0.585,0.001501007140004224,-0.7832133499999956,-0.0022355482700072214,-2.3576073400000044,0.0017431606300052336,1.5707196799999992,0.7874312200000045,0.039999984,0.039999977,-9.788580049999979,0.0227078881115596,-0.027843205100081713,0.00927165220001986,0.001960641471701346,0.017570044400037527
0.5875,0.0015208564000042425,-0.7831930249999957,-0.002269482725007253,-2.3576284000000043,0.0017677534750052564,1.5707160499999993,0.7874525500000046,0.039999984,0.039999977,-9.788475124999978,0.02311930153527701,-0.02822717975008207,0.009364976500019946,0.0021124028135415126,0.01774638200003769
0.59,0.0015407056600042603,-0.7831726999999956,-0.0023034171800072833,-2.3576494600000046,0.0017923463200052784,1.5707124199999993,0.7874738800000046,0.039999984,0.039999977,-9.788370199999978,0.0235307149589944,-0.02861115440008241,0.00945830080002003,0.0022641641553816723,0.017922719600037846
0.5925,0.0015605549200042787,-0.7831523749999956,-0.002337351635007315,-2.3576705200000045,0.0018169391650053011,1.5707087899999992,0.7874952100000047,0.039999984,0.039999977,-9.788265274999977,0.023942128382711807,-0.02899512905008277,0.009551625100020117,0.002415925497221839,0.018099057200038012
0.595,0.0015804041800042963,-0.7831320499999955,-0.002371286090007345,-2.3576915800000044,0.001841532010005323,1.5707051599999993,0.7875165400000046,0.039999984,0.039999977,-9.788160349999979,0.0243535418064292,-0.029379103700083113,0.009644949400020201,0.0025676868390619987,0.018275394800038168
0.5975,0.001600253440004315,-0.7831117249999956,-0.002405220545007377,-2.3577126400000044,0.0018661248550053459,1.5707015299999993,0.7875378700000046,0.039999984,0.039999977,-9.788055424999978,0.02476495523014661,-0.029763078350083468,0.009738273700020287,0.0027194481809021654,0.018451732400038334
0.6,0.0016201027000046148,-0.7830913999999953,-0.0024391550000078905,-2.3577337000000047,0.001890717700005718,1.5706978999999992,0.787559200000005,0.039999984,0.039999977,-9.787950499999978,0.025176368653870962,-0.030147053000089366,0.009831598000020998,0.002871209522743346,0.018628070000039642
0.6025,0.0016412450050046345,-0.7830698749999953,-0.0024753049700079245,-2.357756095000005,0.0019169154550057427,1.5706939999999991,0.787581920500005,0.03999998295,0.03999997595,-9.787846474999977,0.02561968583623346,-0.030556483850089747,0.009927793900021086,0.0030276485602713818,0.018809696000039813
0.605,0.0016623873100046532,-0.7830483499999953,-0.0025114549400079562,-2.3577784900000047,0.0019431132100057658,1.5706900999999993,0.787604641000005,0.0399999819,0.0399999749,-9.787742449999978,0.02606300301859594,-0.03096591470009011,0.010023989800021171,0.0031840875977994106,0.018991322000039973
0.6075,0.0016835296150046729,-0.7830268249999952,-0.00254760491000799,-2.357800885000005,0.0019693109650057903,1.5706861999999993,0.787627361500005,0.03999998085,0.03999997385,-9.787638424999978,0.026506320200958437,-0.03137534555009049,0.010120185700021262,0.0033405266353274464,0.019172948000040144
0.61,0.0017046719200046916,-0.7830052999999952,-0.002583754880008022,-2.357823280000005,0.0019955087200058137,1.5706822999999992,0.787650082000005,0.0399999798,0.0399999728,-9.787534399999977,0.02694963738332092,-0.03178477640009086,0.010216381600021347,0.0034969656728554756,0.019354574000040304
0.6125,0.0017258142250047115,-0.7829837749999953,-0.002619904850008056,-2.357845675000005,0.0020217064750058383,1.5706783999999991,0.787672802500005,0.03999997875,0.03999997175,-9.787430374999976,0.027392954565683417,-0.03219420725009124,0.010312577500021437,0.0036534047103835114,0.019536200000040475
0.615,0.0017469565300047302,-0.7829622499999952,-0.002656054820008088,-2.357868070000005,0.0020479042300058613,1.570674499999999,0.787695523000005,0.0399999777,0.039999970700000005,-9.787326349999978,0.027836271748045895,-0.032603638100091606,0.010408773400021522,0.0038098437479115402,0.019717826000040635
0.6175,0.001768542405005049,-0.782940294999995,-0.0026929648500086337,-2.3578908650000057,0.002074652545006257,1.570670554999999,0.7877187265000054,0.039999977,0.03999997,-9.787220674999976,0.02828979715715563,-0.033022978900098664,0.010505910300022245,0.003967916080764377,0.019901181500041974
0.62,0.0017910154200050689,-0.7829174799999948,-0.002731395000008668,-2.3579144600000053,0.0021025019800062815,1.5706665199999992,0.7877428960000055,0.039999977,0.03999997,-9.787111699999976,0.0287637390197392,-0.033462139600099056,0.010604929200022335,0.004129255004263511,0.020087996000042137
0.6225,0.0018134884350050897,-0.7828946649999948,-0.002769825150008704,-2.3579380550000053,0.0021303514150063075,1.570662484999999,0.7877670655000054,0.039999977,0.03999997,-9.787002724999976,0.02923768088232279,-0.03390130030009947,0.010703948100022426,0.004290593927762651,0.02027481050004231
0.625,0.0018359614500051097,-0.7828718499999948,-0.002808255300008738,-2.3579616500000053,0.0021582008500063326,1.5706584499999992,0.7877912350000055,0.039999977,0.03999997,-9.786893749999976,0.029711622744906362,-0.03434046100009985,0.010802967000022515,0.004451932851261785,0.020461625000042477
0.6275000000000001,0.0018584344650051307,-0.7828490349999948,-0.002846685450008774,-2.3579852450000054,0.0021860502850063585,1.570654414999999,0.7878154045000055,0.039999977,0.03999997,-9.786784774999974,0.030185564607489952,-0.034779621700100266,0.010901985900022606,0.004613271774760925,0.02064843950004265
0.63,0.0018809074800051507,-0.7828262199999948,-0.002885115600008808,-2.3580088400000054,0.002213899720006383,1.5706503799999991,0.7878395740000055,0.039999977,0.03999997,-9.786675799999975,0.030659506470073525,-0.03521878240010066,0.011001004800022696,0.004774610698260059,0.020835254000042817
0.6325000000000001,0.0019033804950051715,-0.7828034049999948,-0.0029235457500088437,-2.3580324350000055,0.002241749155006409,1.5706463449999992,0.7878637435000055,0.039999977,0.03999997,-9.786566824999975,0.031133448332657115,-0.035657943100101064,0.011100023700022787,0.004935949621759199,0.02102206850004299
0.635,0.0019267652300055075,-0.7827797399999945,-0.0029635385000094197,-2.3580568700000057,0.002270730510006826,1.570642029999999,0.787888886000006,0.039999977299999996,0.03999997,-9.786448149999972,0.031629515439388994,-0.03611832700010881,0.01120087560002351,0.0051011965610472864,0.02121235440004436
0.6375000000000001,0.0019506058250055298,-0.7827556499999945,-0.0030043125500094576,-2.3580817250000057,0.0023002778250068535,1.570637574999999,0.787914515000006,0.03999997775,0.03999997,-9.78632462499997,0.03213664516818358,-0.036589322500109246,0.011302644000023605,0.005268397508227832,0.02140437600004454
0.64,0.001974446420005551,-0.7827315599999944,-0.0030450866000094937,-2.3581065800000056,0.0023298251400068796,1.570633119999999,0.787940144000006,0.0399999782,0.03999997,-9.786201099999971,0.03264377489697814,-0.037060318000109664,0.011404412400023696,0.0054355984554083706,0.021596397600044708
0.6425,0.001998287015005572,-0.7827074699999944,-0.00308586065000953,-2.3581314350000055,0.002359372455006906,1.570628664999999,0.787965773000006,0.03999997865,0.03999997,-9.786077574999972,0.0331509046257727,-0.03753131350011008,0.011506180800023786,0.005602799402588909,0.02178841920004488
0.645,0.0020221276100055945,-0.7826833799999944,-0.0031266347000095678,-2.358156290000006,0.0023889197700069334,1.570624209999999,0.7879914020000061,0.0399999791,0.03999997,-9.78595404999997,0.03365803435456728,-0.03800230900011052,0.01160794920002388,0.005770000349769455,0.02198044080004506
0.6475,0.002045968205005616,-0.7826592899999943,-0.003167408750009604,-2.358181145000006,0.0024184670850069595,1.570619754999999,0.7880170310000061,0.039999979549999995,0.03999997,-9.785830524999971,0.03416516408336184,-0.03847330450011094,0.011709717600023971,0.005937201296949994,0.02217246240004523
0.65,0.0020698088000059697,-0.782635199999994,-0.003208182800010211,-2.3582060000000062,0.0024480144000073993,1.570615299999999,0.7880426600000064,0.03999998,0.03999997,-9.785706999999974,0.03467229381216476,-0.038944300000117046,0.011811486000024712,0.006104402244131752,0.022364484000046522
0.6525,0.002095053335005992,-0.782609827499994,-0.0032513630300102492,-2.3582321450000063,0.002479304535007427,1.570610724999999,0.7880697860000064,0.0399999806,0.03999997105,-9.785590899999972,0.03521465938551185,-0.039439247500117486,0.011915990250024806,0.0062767317286169955,0.022561216500046697
0.655,0.0021202978700060157,-0.782584454999994,-0.00329454326001029,-2.3582582900000064,0.0025105946700074563,1.570606149999999,0.7880969120000064,0.0399999812,0.0399999721,-9.785474799999973,0.03575702495885896,-0.039934195000117946,0.012020494500024903,0.006449061213102246,0.022757949000046882
0.6575,0.002145542405006038,-0.782559082499994,-0.0033377234900103282,-2.358284435000006,0.002541884805007484,1.5706015749999989,0.7881240380000065,0.0399999818,0.03999997315,-9.785358699999973,0.03629939053220606,-0.040429142500118385,0.012124998750024995,0.006621390697587489,0.022954681500047057
0.66,0.0021707869400060618,-0.7825337099999939,-0.0033809037200103684,-2.358310580000006,0.0025731749400075134,1.570596999999999,0.7881511640000065,0.0399999824,0.0399999742,-9.785242599999973,0.036841756105553174,-0.040924090000118846,0.012229503000025094,0.00679372018207274,0.02315141400004724
0.6625,0.002196031475006084,-0.7825083374999939,-0.003424083950010407,-2.3583367250000062,0.002604465075007541,1.570592424999999,0.7881782900000065,0.039999983,0.03999997525,-9.785126499999972,0.03738412167890026,-0.041419037500119285,0.012334007250025186,0.006966049666557983,0.023348146500047413
0.665,0.002221276010006108,-0.7824829649999939,-0.003467264180010447,-2.3583628700000063,0.0026357552100075704,1.570587849999999,0.7882054160000065,0.039999983600000004,0.0399999763,-9.785010399999972,0.03792648725224738,-0.04191398500011975,0.012438511500025284,0.007138379151043234,0.023544879000047595
0.6675,0.0022470004250064795,-0.7824571424999935,-0.0035112669300110845,-2.3583894900000066,0.002667641150008032,1.5705831499999987,0.788233067000007,0.039999984200000005,0.039999977,-9.784883599999965,0.038478297367830525,-0.042417862400126696,0.012543943350026052,0.007312865066385442,0.023743314600049012
0.67,0.0022736846000065043,-0.7824304199999935,-0.003556914720011127,-2.3584170600000065,0.0027007187000080628,1.5705781999999988,0.7882617680000069,0.0399999848,0.039999977,-9.784735399999963,0.039048996567865195,-0.04293959960012718,0.012651230400026152,0.0074916638434368845,0.0239451564000492
0.6725,0.0023003687750065283,-0.7824036974999935,-0.0036025625100111675,-2.358444630000007,0.002733796250008092,1.5705732499999987,0.788290469000007,0.0399999854,0.039999977,-9.784587199999963,0.03961969576789984,-0.04346133680012764,0.012758517450026248,0.007670462620488318,0.02414699820004938
0.675,0.002327052950006553,-0.7823769749999935,-0.00364821030001121,-2.3584722000000067,0.002766873800008123,1.5705682999999988,0.788319170000007,0.039999986,0.039999977,-9.784438999999963,0.0401903949679345,-0.04398307400012813,0.012865804500026348,0.00784926139753976,0.024348840000049568
0.6775,0.0023537371250065765,-0.7823502524999935,-0.0036938580900112506,-2.358499770000007,0.0027999513500081524,1.570563349999999,0.788347871000007,0.0399999866,0.039999977,-9.784290799999964,0.04076109416796914,-0.04450481120012859,0.012973091550026444,0.008028060174591192,0.02455068180004975
0.68,0.0023804213000066018,-0.7823235299999934,-0.003739505880011293,-2.358527340000007,0.0028330289000081835,1.5705583999999988,0.7883765720000071,0.0399999872,0.039999977,-9.784142599999964,0.041331793368003814,-0.045026548400129075,0.013080378600026544,0.008206858951642635,0.02475252360004994
0.6825,0.0024071054750066253,-0.7822968074999934,-0.0037851536700113336,-2.358554910000007,0.0028661064500082128,1.570553449999999,0.7884052730000071,0.0399999878,0.039999977,-9.783994399999962,0.041902492568038456,-0.045548285600129544,0.01318766565002664,0.008385657728694068,0.024954365400050117
0.685,0.0024347726200070175,-0.782269139999993,-0.0038324864400120064,-2.3585834900000076,0.0029004043900087,1.5705483699999987,0.7884350220000075,0.0399999876,0.0399999766,-9.783873499999972,0.04249755963698254,-0.04609049120013768,0.01329663690002737,0.008567428961441881,0.025159281400051456
0.6875,0.0024629312500070426,-0.782240999999993,-0.003880661700012049,-2.3586125750000075,0.0029353125250087308,1.5705432249999987,0.7884652950000075,0.039999987,0.039999976,-9.783766249999973,0.04310481064036768,-0.04664293100013817,0.013406450250027466,0.008750686422036209,0.025365734500051636
0.6900000000000001,0.002491089880007069,-0.7822128599999929,-0.003928836960012094,-2.3586416600000075,0.0029702206600087633,1.5705380799999988,0.7884955680000075,0.0399999864,0.0399999754,-9.783658999999972,0.043712061643752846,-0.047195370800138685,0.013516263600027568,0.008933943882630545,0.02557218760005183
0.6925,0.002519248510007094,-0.782184719999993,-0.003977012220012137,-2.3586707450000075,0.0030051287950087946,1.5705329349999988,0.7885258410000076,0.0399999858,0.0399999748,-9.783551749999972,0.04431931264713798,-0.047747810600139176,0.013626076950027667,0.009117201343224872,0.025778640700052015
0.6950000000000001,0.0025474071400071203,-0.7821565799999929,-0.004025187480012182,-2.3586998300000075,0.003040036930008827,1.5705277899999988,0.7885561140000076,0.039999985200000004,0.0399999742,-9.783444499999973,0.04492656365052315,-0.04830025040013969,0.013735890300027769,0.009300458803819208,0.025985093800052206
0.6975,0.0025755657700071454,-0.7821284399999928,-0.004073362740012225,-2.3587289150000075,0.003074945065008858,1.5705226449999987,0.7885863870000076,0.0399999846,0.0399999736,-9.783337249999972,0.04553381465390829,-0.04885269020014018,0.013845703650027866,0.009483716264413536,0.02619154690005239
0.7000000000000001,0.002603724400007556,-0.7821002999999924,-0.004121538000012928,-2.358758000000008,0.0031098532000093677,1.5705174999999987,0.7886166600000081,0.039999984,0.039999973,-9.783229999999973,0.04614106565730272,-0.04940513000015012,0.013955517000028653,0.009666973725009154,0.02639800000005376
0.7025,0.002633391640007582,-0.7820707349999925,-0.004172299545012973,-2.358788675000008,0.0031466345200094003,1.5705120399999986,0.7886485560000082,0.039999984,0.039999973,-9.783126049999973,0.04678468853251691,-0.049994568050150644,0.014068019550028753,0.009855262003887066,0.026609074600053947
0.705,0.0026630588800076087,-0.7820411699999924,-0.004223061090013018,-2.3588193500000076,0.003183415840009433,1.5705065799999987,0.7886804520000081,0.039999984,0.039999973,-9.783022099999974,0.0474283114077311,-0.050584006100151166,0.014180522100028852,0.010043550282764978,0.026820149200054134
0.7075,0.002692726120007636,-0.7820116049999923,-0.004273822635013066,-2.3588500250000077,0.003220197160009467,1.5705011199999985,0.7887123480000082,0.039999984,0.039999973,-9.782918149999972,0.048071934282945324,-0.051173444150151716,0.014293024650028957,0.010231838561642899,0.02703122380005433
0.71,0.0027223933600076626,-0.7819820399999924,-0.0043245841800131106,-2.358880700000008,0.0032569784800095,1.5704956599999986,0.7887442440000082,0.039999984,0.039999973,-9.782814199999972,0.04871555715815952,-0.05176288220015224,0.014405527200029057,0.010420126840520811,0.02724229840005452
0.7125,0.0027520606000076904,-0.7819524749999923,-0.004375345725013158,-2.358911375000008,0.003293759800009534,1.5704901999999987,0.7887761400000082,0.039999984,0.039999973,-9.782710249999973,0.04935918003337374,-0.05235232025015279,0.014518029750029162,0.010608415119398732,0.027453373000054713
0.715,0.0027817278400077165,-0.7819229099999924,-0.004426107270013203,-2.358942050000008,0.0033305411200095668,1.5704847399999986,0.7888080360000083,0.039999984,0.039999973,-9.782606299999973,0.05000280290858793,-0.05294175830015331,0.014630532300029262,0.010796703398276644,0.0276644476000549
0.7175,0.0028119091350081466,-0.7818928449999919,-0.00447774995001394,-2.3589732050000083,0.003367960685010101,1.5704791949999986,0.7888404920000087,0.039999984200000005,0.039999973200000004,-9.782504199999973,0.050658590160487765,-0.053540663150161275,0.014743873850030023,0.010986404772898131,0.027877023500056275
0.72,0.0028431185400081744,-0.7818617799999918,-0.004531154900013988,-2.3590053200000085,0.0034066567400101353,1.5704734799999986,0.7888740680000088,0.0399999848,0.0399999738,-9.782405799999975,0.05133870616573024,-0.05415850160016182,0.014858893400030125,0.011178932339003427,0.028092602000056466
0.7225,0.0028743279450082035,-0.7818307149999919,-0.004584559850014038,-2.3590374350000087,0.0034453527950101715,1.5704677649999985,0.7889076440000088,0.0399999854,0.0399999744,-9.782307399999974,0.05201882217097275,-0.0547763400501624,0.014973912950030234,0.011371459905108731,0.02830818050005667
0.725,0.0029055373500082313,-0.7817996499999919,-0.004637964800014085,-2.3590695500000085,0.003484048850010206,1.5704620499999986,0.7889412200000089,0.039999986,0.039999975,-9.782208999999973,0.05269893817621523,-0.05539417850016295,0.015088932500030336,0.011563987471214027,0.02852375900005686
0.7275,0.0029367467550082604,-0.7817685849999918,-0.004691369750014135,-2.3591016650000087,0.0035227449050102416,1.5704563349999985,0.7889747960000089,0.0399999866,0.0399999756,-9.782110599999974,0.05337905418145774,-0.05601201695016353,0.015203952050030443,0.011756515037319332,0.02873933750005706
0.73,0.002967956160008288,-0.7817375199999917,-0.004744774700014182,-2.3591337800000085,0.003561440960010276,1.5704506199999986,0.789008372000009,0.0399999872,0.0399999762,-9.782012199999974,0.05405917018670022,-0.056629855400164075,0.015318971600030545,0.011949042603424628,0.02895491600005725
0.7325,0.0029991655650083173,-0.7817064549999917,-0.004798179650014232,-2.3591658950000087,0.0036001370150103122,1.5704449049999984,0.7890419480000089,0.0399999878,0.039999976799999996,-9.781913799999973,0.05473928619194273,-0.05724769385016465,0.015433991150030652,0.012141570169529933,0.029170494500057452
0.735,0.003031424930008766,-0.7816743799999913,-0.004853384770015002,-2.359199090000009,0.00364013686001087,1.5704389899999984,0.7890766460000095,0.0399999882,0.039999977299999996,-9.781803199999969,0.05544388405997846,-0.05789230860017594,0.015550638900031409,0.012337586842530168,0.029388990600058815
0.7375,0.0030642092750087966,-0.7816417999999913,-0.004909489975015054,-2.359232825000009,0.0036807886000109077,1.5704329749999983,0.7891119050000095,0.0399999885,0.03999997775,-9.781686499999969,0.05616072285939615,-0.058550311500176554,0.015668100750031517,0.012535348068975789,0.02960894550005902
0.74,0.0030969936200088257,-0.7816092199999912,-0.004965595180015104,-2.3592665600000093,0.003721440340010944,1.5704269599999985,0.7891471640000095,0.0399999888,0.0399999782,-9.78156979999997,0.0568775616588138,-0.05920831440017714,0.01578556260003162,0.012733109295421399,0.029828900400059213
0.7425,0.0031297779650088565,-0.7815766399999912,-0.0050217003850151565,-2.359300295000009,0.0037620920800109816,1.5704209449999984,0.7891824230000095,0.0399999891,0.03999997865,-9.781453099999968,0.05759440045823149,-0.05986631730017775,0.015903024450031732,0.012930870521867019,0.030048855300059418
0.745,0.0031625623100088856,-0.7815440599999911,-0.005077805590015206,-2.359334030000009,0.0038027438200110178,1.5704149299999983,0.7892176820000095,0.0399999894,0.0399999791,-9.781336399999969,0.058311239257649146,-0.06052432020017834,0.016020486300031837,0.013128631748312629,0.030268810200059615
0.7475,0.003195346655008916,-0.7815114799999912,-0.005133910795015259,-2.3593677650000093,0.0038433955600110556,1.5704089149999982,0.7892529410000096,0.0399999897,0.039999979549999995,-9.781219699999967,0.059028078057066835,-0.06118232310017895,0.016137948150031948,0.01332639297475825,0.03048876510005982
0.75,0.0032281310000093835,-0.7814788999999907,-0.0051900160000160605,-2.35940150000001,0.003884047300011636,1.5704028999999982,0.7892882000000101,0.03999999,0.03999998,-9.781102999999973,0.059744916856494995,-0.06184032600018763,0.016255410000032725,0.013524154201204985,0.030708720000061175
0.7525000000000001,0.0032625221900094157,-0.7814448049999907,-0.005248876060016115,-2.3594368250000097,0.003926694355011676,1.5703965999999983,0.7893251825000102,0.03999999075,0.0399999806,-9.781006549999974,0.060500258207527954,-0.06252797910018827,0.01637534535003284,0.013726037647630378,0.030932931000061385
0.755,0.003296913380009446,-0.7814107099999906,-0.0053077361200161675,-2.35947215000001,0.003969341410011713,1.5703902999999984,0.7893621650000101,0.0399999915,0.0399999812,-9.780910099999973,0.06125559955856088,-0.06321563220018887,0.016495280700032942,0.013927921094055763,0.031157142000061585
0.7575000000000001,0.003331304570009478,-0.7813766149999906,-0.005366596180016222,-2.35950747500001,0.004011988465011753,1.5703839999999982,0.7893991475000102,0.03999999225,0.0399999818,-9.780813649999974,0.06201094090959384,-0.06390328530018952,0.016615216050033056,0.014129804540481156,0.03138135300006179
0.76,0.0033656957600095086,-0.7813425199999906,-0.005425456240016275,-2.35954280000001,0.0040546355200117914,1.5703776999999983,0.7894361300000102,0.039999993000000005,0.0399999824,-9.780717199999973,0.06276628226062676,-0.06459093840019013,0.016735151400033163,0.01433168798690654,0.031605564000061995
0.7625000000000001,0.0034000869500095407,-0.7813084249999905,-0.005484316300016329,-2.35957812500001,0.004097282575011831,1.5703713999999982,0.7894731125000102,0.039999993750000004,0.039999983,-9.780620749999972,0.06352162361165972,-0.06527859150019077,0.016855086750033273,0.014533571433331933,0.031829775000062205
0.765,0.0034344781400095716,-0.7812743299999906,-0.005543176360016382,-2.35961345000001,0.004139929630011869,1.5703650999999983,0.7895100950000102,0.039999994500000004,0.039999983600000004,-9.780524299999973,0.06427696496269264,-0.06596624460019138,0.01697502210003338,0.014735454879757318,0.0320539860000624
0.7675000000000001,0.003469415340010061,-0.78123970999999,-0.00560297260001722,-2.3596492900000103,0.004183254685012476,1.570358699999998,0.7895476690000107,0.03999999525,0.039999984200000005,-9.780422824999969,0.06504476368449409,-0.06666551800020176,0.017095771650034175,0.014938975125608966,0.03227956815006376
0.77,0.003505444560010093,-0.78120403999999,-0.005664641200017275,-2.3596861600000105,0.004227935740012516,1.5703520999999983,0.7895864260000108,0.039999996,0.0399999848,-9.780311299999969,0.06583747714780122,-0.0673880320002024,0.01721814960003428,0.01514576897030901,0.03250789260006397
0.7725,0.003541473780010125,-0.78116836999999,-0.00572630980001733,-2.3597230300000103,0.004272616795012557,1.5703454999999982,0.7896251830000108,0.03999999675,0.0399999854,-9.780199774999968,0.06663019061110835,-0.06811054600020304,0.01734052755003439,0.015352562815009053,0.032736217050064166
0.775,0.003577503000010158,-0.7811326999999899,-0.005787978400017387,-2.3597599000000105,0.004317297850012598,1.570338899999998,0.7896639400000108,0.0399999975,0.039999986,-9.780088249999968,0.06742290407441551,-0.06883306000020371,0.017462905500034504,0.015559356659709107,0.03296454150006438
0.7775,0.00361353222001019,-0.7810970299999899,-0.005849647000017442,-2.35979677000001,0.004361978905012638,1.570332299999998,0.789702697000011,0.03999999825,0.0399999866,-9.779976724999967,0.06821561753772264,-0.06955557400020436,0.017585283450034614,0.01576615050440915,0.033192865950064585
0.78,0.003649561440010224,-0.7810613599999898,-0.0059113156000174995,-2.3598336400000104,0.004406659960012679,1.5703256999999982,0.789741454000011,0.039999999,0.0399999872,-9.779865199999968,0.0690083310010298,-0.07027808800020503,0.017707661400034727,0.015972944349109203,0.0334211904000648
0.7825,0.003685590660010256,-0.7810256899999898,-0.005972984200017554,-2.35987051000001,0.0044513410150127195,1.570319099999998,0.789780211000011,0.03999999975,0.0399999878,-9.779753674999968,0.06980104446433691,-0.07100060200020568,0.017830039350034837,0.01617973819380925,0.033649514850064996
0.785,0.003722732210010766,-0.7809889439999893,-0.006036560290018429,-2.359908520000011,0.004497403330013352,1.5703122999999979,0.7898201730000115,0.04,0.0399999887,-9.779641349999967,0.07061868906044819,-0.07174813200021707,0.01795397850003562,0.016389759816289783,0.03388025530006625
0.7875,0.0037604299250107993,-0.7809516599999893,-0.006101090125018486,-2.359947100000011,0.004544156275013394,1.5703053999999979,0.7898607375000116,0.04,0.03999998975,-9.779528624999967,0.07144879922294549,-0.07250817000021774,0.01807869825003573,0.01660139532765848,0.034112203750066454
0.79,0.003798127640010835,-0.7809143759999893,-0.006165619960018546,-2.359985680000011,0.004590909220013438,1.5702984999999978,0.7899013020000116,0.04,0.0399999908,-9.779415899999966,0.07227890938544282,-0.07326820800021845,0.018203418000035845,0.016813030839027188,0.03434415220006667
0.7925,0.003835825355010868,-0.7808770919999892,-0.006230149795018604,-2.360024260000011,0.004637662165013479,1.570291599999998,0.7899418665000116,0.04,0.03999999185,-9.779303174999967,0.07310901954794012,-0.07402824600021912,0.018328137750035958,0.017024666350395887,0.034576100650066874
0.795,0.003873523070010903,-0.7808398079999892,-0.006294679630018664,-2.360062840000011,0.0046844151100135225,1.570284699999998,0.7899824310000118,0.04,0.0399999929,-9.779190449999966,0.07393912971043747,-0.07478828400021983,0.018452857500036075,0.017236301861764593,0.03480804910006709
0.7975,0.0039112207850109364,-0.7808025239999892,-0.006359209465018722,-2.360101420000011,0.004731168055013564,1.570277799999998,0.7900229955000118,0.04,0.03999999395,-9.779077724999967,0.07476923987293477,-0.0755483220002205,0.018577577250036184,0.017447937373133292,0.035039997550067294
0.8,0.003948918500011466,-0.7807652399999887,-0.006423739300019629,-2.3601400000000115,0.004777921000014222,1.570270899999998,0.7900635600000123,0.04,0.039999995,-9.778964999999971,0.07559935003544582,-0.07630836000023156,0.01870229700003695,0.017659572884503164,0.035271946000068874
0.8025,0.003988314365011501,-0.7807263089999886,-0.006491181055019689,-2.3601803950000115,0.004826783650014265,1.570263669999998,0.7901059410000124,0.04,0.03999999395,-9.778870049999972,0.07647656314100595,-0.07710389100023225,0.01882924305003706,0.01787520991644596,0.035508584500069086
0.805,0.004027710230011538,-0.7806873779999886,-0.006558622810019752,-2.3602207900000116,0.004875646300014311,1.5702564399999979,0.7901483220000124,0.04,0.0399999929,-9.778775099999972,0.07735377624656613,-0.077899422000233,0.018956189100037178,0.018090846948388768,0.035745223000069305
0.8075,0.004067106095011573,-0.7806484469999886,-0.006626064565019812,-2.3602611850000117,0.004924508950014354,1.5702492099999978,0.7901907030000125,0.04,0.03999999185,-9.778680149999973,0.07823098935212626,-0.0786949530002337,0.019083135150037293,0.018306483980331564,0.03598186150006952
0.81,0.0041065019600116095,-0.7806095159999885,-0.006693506320019874,-2.360301580000012,0.0049733716000144,1.5702419799999978,0.7902330840000125,0.04,0.0399999908,-9.778585199999972,0.07910820245768643,-0.07949048400023444,0.01921008120003741,0.018522121012274368,0.03621850000006974
0.8125,0.004145897825011645,-0.7805705849999884,-0.006760948075019935,-2.360341975000012,0.005022234250014444,1.5702347499999978,0.7902754650000126,0.04,0.03999998975,-9.778490249999972,0.07998541556324656,-0.08028601500023515,0.019337027250037525,0.018737758044217165,0.03645513850006995
0.8150000000000001,0.004185293690011681,-0.7805316539999885,-0.006828389830019998,-2.360382370000012,0.005071096900014489,1.5702275199999978,0.7903178460000126,0.04,0.0399999887,-9.778395299999973,0.08086262866880674,-0.08108154600023589,0.019463973300037643,0.018953395076159972,0.03669177700007017
0.8175,0.00422526537001223,-0.7804921649999879,-0.006896818900020939,-2.3604233350000126,0.00512067466501517,1.5702201999999978,0.7903608450000132,0.03999999975,0.0399999886,-9.778302099999975,0.08174961693611876,-0.08188994450024807,0.01959168580003844,0.019170321431076214,0.0369293342000712
0.8200000000000001,0.004266388680012268,-0.7804515599999878,-0.006967222600021004,-2.3604654400000125,0.005171682660015217,1.5702126999999977,0.7904050800000132,0.039999999,0.0399999904,-9.778212399999974,0.08265615552690844,-0.08272407800024885,0.01972093120003856,0.01938982643193591,0.037168728800071424
0.8225,0.004307511990012305,-0.7804109549999878,-0.007037626300021067,-2.360507545000013,0.005222690655015263,1.5702051999999977,0.7904493150000133,0.03999999825,0.0399999922,-9.778122699999974,0.08356269411769808,-0.0835582115002496,0.019850176600038676,0.01960933143279559,0.03740812340007164
0.8250000000000001,0.004348635300012343,-0.7803703499999878,-0.007108030000021132,-2.3605496500000127,0.00527369865001531,1.5701976999999978,0.7904935500000133,0.0399999975,0.039999994000000004,-9.778032999999974,0.08446923270848776,-0.08439234500025038,0.019979422000038796,0.019828836433655288,0.03764751800007186
0.8275,0.00438975861001238,-0.7803297449999878,-0.007178433700021195,-2.3605917550000126,0.005324706645015356,1.5701901999999979,0.7905377850000134,0.03999999675,0.0399999958,-9.777943299999974,0.0853757712992774,-0.08522647850025111,0.02010866740003891,0.020048341434514973,0.03788691260007207
0.8300000000000001,0.004430881920012418,-0.7802891399999877,-0.007248837400021261,-2.3606338600000125,0.005375714640015403,1.5701826999999977,0.7905820200000134,0.039999996,0.039999997600000003,-9.777853599999974,0.08628230989006708,-0.08606061200025189,0.02023791280003903,0.020267846435374666,0.03812630720007229
0.8325,0.004472005230012455,-0.7802485349999877,-0.0073192411000213235,-2.360675965000013,0.005426722635015448,1.5701751999999978,0.7906262550000135,0.03999999525,0.0399999994,-9.777763899999973,0.08718884848085671,-0.08689474550025264,0.020367158200039145,0.02048735143623435,0.0383657018000725
0.835,0.004514298630013024,-0.7802068059999872,-0.0073916516000223,-2.3607192700000135,0.005479183470016156,1.5701674499999978,0.790671760000014,0.039999995,0.039999999,-9.777670199999971,0.08812943995028012,-0.08775507800026532,0.02049789290003994,0.020709554664858458,0.038607959800074025
0.8375,0.004557177075013064,-0.7801645149999871,-0.007465065500022369,-2.3607631750000135,0.005532370725016205,1.5701595749999977,0.7907179000000141,0.039999995,0.0399999975,-9.777574499999972,0.08908705785899723,-0.08862851000026613,0.02062937225004006,0.02093310700736294,0.03885164950007425
0.84,0.0046000555200131025,-0.7801222239999871,-0.007538479400022434,-2.3608070800000136,0.005585557980016253,1.5701516999999976,0.7907640400000141,0.039999995,0.039999996,-9.77747879999997,0.09004467576771429,-0.0895019420002669,0.020760851600040178,0.021156659349867414,0.039095339200074464
