rsonawane2002/My_IMU/logs_2/traj_380/clean_380.csv
time,j1,j2,j3,j4,j5,j6,j7,gripper1,gripper2,imu_ax,imu_ay,imu_az,imu_gx,imu_gy,imu_gz,quat_x,quat_y,quat_z,quat_w
1426.4833333323647,0.00016700293,-0.785875,4.0107683e-05,-2.3551247,9.29385e-05,1.570997,0.786,0.04,0.04,0.0,-0.0,0.0,2.875329272945135e-08,-0.0011641195053377316,4.421952117202833e-08,0.9999995971961153,0.00020320632366974898,0.0008736418299892524,3.263050917662294e-05
1426.4999999990314,0.00016701366,-0.78576016,4.0107047e-05,-2.3552213,9.2970746e-05,1.5709941,0.786,0.04,0.04,-0.2919984595581404,-3.261026147007365e-05,0.020128408581299162,4.669748983950703e-07,-0.0022378867890945828,2.0486999378157036e-07,0.9999996850590008,0.00020320593272770172,0.0007665025184096934,3.260578712520912e-05
1426.516666665698,0.0001670789,-0.7856542,4.0053754e-05,-2.35531,9.2977614e-05,1.5709913,0.786,0.04,0.04,0.023196978156736492,2.0733063181815458e-05,-0.0016027145868457993,3.120423141011506e-06,-0.0032293092863869407,1.072321016920853e-06,0.999999755887713,0.00020319652660525064,0.0006677376460350136,3.2590213509532114e-05
1426.5333333323647,0.0001672872,-0.7855566,3.9862105e-05,-2.355391,9.2922026e-05,1.5709884,0.786,0.04,0.04,0.022263122392218726,5.1869465353952164e-05,-0.0014234138409952024,1.0270470310420715e-05,-0.004144634646097501,3.2971469760412347e-06,0.9999998123724206,0.00020316417710947222,0.0005769895835461525,3.2595418174508275e-05
1426.5499999990313,0.00016776512,-0.7854667,3.9409457e-05,-2.355465,9.275095e-05,1.5709856,0.786,0.04,0.04,0.02059481476317515,9.649422054926627e-05,-0.001183459527176467,2.427099902612796e-05,-0.004989679224827222,7.4640053514957545e-06,0.9999998570082861,0.00020308900635971882,0.0004936324782344077,3.2638004880306664e-05
1426.566666665698,0.00016867297,-0.7853835,3.8539518e-05,-2.3555317,9.240666e-05,1.5709827,0.7860019,0.04,0.039999995,0.01967128751230174,0.0001470067719176022,-0.0006988237798433161,4.781507090434576e-05,-0.005769502852748182,1.4857463760782401e-05,0.9999998916279335,0.0002038998208367378,0.0004172490580732791,3.2744586009211104e-05
1426.5833333323646,0.00017020167,-0.7853067,3.7066187e-05,-2.3555927,9.179811e-05,1.5709827,0.7860038,0.04,0.039999995,0.017619704004823156,0.0002235842112367531,0.001072912541211224,7.378639140504837e-05,-0.006491242491597114,2.4373695508226707e-05,0.9999999178622326,0.00020461340363636806,0.0003483161845492009,3.29350647678217e-05
1426.5999999990313,0.00017256945,-0.7852354,3.4776447e-05,-2.35565,9.0833164e-05,1.5709832,0.78600574,0.04,0.039999995,0.012763760500522636,0.0003032746276541195,-0.0011095217436807303,0.000113768859959445,-0.007149120767666639,3.72478630820641e-05,0.9999999379814953,0.00020519601590900577,0.00028430064945209494,3.3237645529577695e-05
1426.616666665698,0.00017601885,-0.7851689,3.1433392e-05,-2.3557005,8.940907e-05,1.5709838,0.78600955,0.04,0.039999995,0.01665555300078836,0.00039127643236529924,0.0003496143874404112,0.0001698027810196998,-0.007769912799885291,5.3859046139939e-05,0.9999999525452897,0.0002065637515725335,0.00022606667405972527,3.368521653281737e-05
1426.6333333323646,0.00018081412,-0.7851066,2.6778609e-05,-2.3557446,8.740291e-05,1.5709846,0.7860153,0.04,0.04,0.015694394584131466,0.0004961082856673286,0.0006419580323324681,0.00023574845709160933,-0.0083450693142856,7.377427211783345e-05,0.9999999626245979,0.00020867589305670432,0.00017328641626441934,3.430732128840183e-05
1426.6499999990313,0.00018723837,-0.78504795,2.0534635e-05,-2.3557866,8.471723e-05,1.5709854,0.7860229,0.04,0.039999995,0.007666329656497162,0.0005841323064690966,-0.0011153962693466468,0.0003137334866563572,-0.008878744336817705,9.961517788091261e-05,0.9999999694049474,0.000211489136624654,0.00012339684780896234,3.515205997148759e-05
1426.666666665698,0.00019559226,-0.7849927,1.2407771e-05,-2.3558218,8.120277e-05,1.5709864,0.78603244,0.04,0.04,0.01513829418500201,0.0007094275173877848,0.0011414264303732935,0.000406203981033105,-0.009395755476257487,0.00012850143463921052,0.9999999731505181,0.00021495690082989994,7.860331385803753e-05,3.624931530107618e-05
1426.6833333323646,0.0002061907,-0.78493977,2.0894258e-06,-2.3558517,7.673723e-05,1.5709873,0.78604436,0.04,0.04,0.011888181999819558,0.0008171452313338219,0.0011301321204859605,0.0005153660246434276,-0.009877666877361371,0.00016304295043435618,0.9999999745406928,0.00021926934657996166,3.771367056676425e-05,3.764633232549554e-05
1426.6999999990312,0.00021936187,-0.78488886,-1.0741828e-05,-2.3558784,7.1181836e-05,1.5709918,0.7860596,0.04,0.04,0.008602055896789196,0.0009372869708981161,0.0028090032024419287,0.0006415399911366398,-0.010334788403653554,0.0002026231801381065,0.999999973944257,0.00022485302699188834,1.1152770869741597e-06,3.9387279441672595e-05
1426.7166666656979,0.00023544507,-0.7848395,-2.6418138e-05,-2.3558984,6.438813e-05,1.5709964,0.78607816,0.04,0.04,0.01313151368882437,0.0010653553661185808,0.0022867831362516355,0.000782337284180986,-0.010764493452526296,0.00024690192158165913,0.9999999718246461,0.000231625880642503,-3.12515385155042e-05,4.1515054642933426e-05
1426.7333333323645,0.0002547888,-0.78479123,-4.528156e-05,-2.355914,5.6218647e-05,1.5710012,0.7861003,0.04,0.04,0.00851477504983933,0.0011868885099625105,0.0014009857172370133,0.0009406064843372733,-0.01116765721015037,0.0002975714560684821,0.9999999684441432,0.00023971353494278718,-6.087699072079965e-05,4.408089956503076e-05
1426.7499999990312,0.00027775008,-0.78474355,-6.76818e-05,-2.3559256,4.6526733e-05,1.5710094,0.78612655,0.04,0.039999995,0.009044162549276535,0.001314276718039208,0.0041602298971765705,0.00111648008058194,-0.011561200500643723,0.0003539643660583516,0.9999999640948732,0.0002492699574971678,-8.633069196291113e-05,4.7135465046962055e-05
1426.7666666656978,0.00030469272,-0.7846959,-9.397487e-05,-2.3559308,3.5129466e-05,1.571018,0.7861576,0.039999995,0.039999995,0.0107097225925612,0.0014694182429107728,0.003011827637289244,0.0013106848194108691,-0.011931364242776087,0.0004145718581332685,0.9999999588673721,0.0002606266126903008,-0.00010847706485470545,5.071241819857043e-05
1426.7833333323645,0.0003359855,-0.78464794,-0.00012452282,-2.3559318,2.1889275e-05,1.5710266,0.7861934,0.03999999,0.03999999,0.006893606413704845,0.0015922575464505828,0.002126984689176936,0.0015216988357646495,-0.012286605974850704,0.00048126502495005334,0.9999999527712732,0.0002736677058035288,-0.00012865739561707896,5.486996425553802e-05
1426.7999999990311,0.00037200167,-0.78459895,-0.00015969167,-2.355928,6.6470334e-06,1.5710388,0.7862346,0.039999988,0.039999988,0.008148140220143318,0.0017302452493895182,0.0054676089022320795,0.0017522506771346742,-0.012640484653177705,0.0005538914647304624,0.9999999460107356,0.00028872381893041166,-0.00014511359045602998,5.965842905122149e-05
1426.8166666656978,0.00041311813,-0.78454876,-0.00019985075,-2.355918,-1.0757006e-05,1.5710512,0.7862818,0.039999984,0.039999984,0.009247764276354431,0.0018699214152145393,0.003547217844657169,0.002000892835638693,-0.012977500005704837,0.0006322908380472952,0.9999999384268173,0.00030597573670601363,-0.00015900822776468646,6.512751711390649e-05
1426.8333333323644,0.00045971363,-0.784497,-0.00024537183,-2.3559027,-3.048291e-05,1.5710673,0.7863353,0.03999998,0.039999977,0.008362886943347192,0.0020095220598577196,0.005988182971483624,0.00226759738032616,-0.013309669434532463,0.0007173699515086846,0.9999999301602035,0.00032551503124421936,-0.00016920916139595357,7.132890069719152e-05
1426.849999999031,0.0005121686,-0.78444314,-0.00029662787,-2.3558824,-5.269295e-05,1.5710835,0.78639555,0.039999977,0.039999973,0.006165285233339368,0.002151376934633976,0.003554271393202413,0.0025531578917726582,-0.013626094618322487,0.0008074053484942141,0.9999999207093471,0.0003475518739748583,-0.00017792217990176418,7.83115079861115e-05
1426.8666666656977,0.0005708643,-0.7843869,-0.00035399268,-2.3558557,-7.754861e-05,1.5711036,0.7864629,0.039999973,0.03999997,0.009500444282273257,0.002292255279851506,0.007087435431540889,0.0028567655450534917,-0.013948543120629518,0.000903297480391377,0.9999999103425219,0.0003721776382405927,-0.00018270397954720812,8.612786773635422e-05
1426.8833333323644,0.0006361815,-0.78432775,-0.00041783988,-2.3558228,-0.000105211264,1.5711253,0.78653795,0.03999997,0.039999966,0.007886997483907976,0.0024339538586478707,0.005652409088985344,0.003179512501043374,-0.014254386942155957,0.0010050168852401163,0.9999998985408657,0.00039963260600044755,-0.00018498565686319776,9.48279764454353e-05
1426.899999999031,0.0007085002,-0.7842653,-0.0004885425,-2.355784,-0.0001358422,1.5711491,0.7866209,0.039999966,0.03999996,0.007103369242211777,0.002575458995962639,0.006172061879183843,0.0035206071788866297,-0.014558873475764539,0.0011125546659128854,0.9999998850113472,0.00042997867022714496,-0.00018488708833827106,0.00010446243436259791
1426.9166666656977,0.0007881998,-0.78419954,-0.00056647224,-2.3557389,-0.00016960205,1.5711766,0.78671247,0.03999996,0.039999958,0.00806244266429168,0.0027159126305565913,0.00740219381250018,0.003880633828102946,-0.014863143573531296,0.0012258960678853553,0.9999998694997222,0.0004634864141915303,-0.00018148519849789618,0.00011508260178617724
1426.9333333323643,0.00087565643,-0.78412986,-0.0006519984,-2.3556876,-0.00020665005,1.5712059,0.78681296,0.039999958,0.03999995,0.006693053614137412,0.0028563089338057746,0.0062645720714904485,0.004258533773120672,-0.015158616441273295,0.0013458494292546688,0.9999998513202434,0.0005002780195123617,-0.00017612199341363003,0.00012673767328463565
1426.949999999031,0.00097124494,-0.78405577,-0.0007454888,-2.3556297,-0.00024714612,1.5712373,0.78692275,0.039999954,0.039999947,0.007161254571741438,0.002997234469906563,0.007194937138677027,0.00465493614210603,-0.015459680945301197,0.0014706536375002433,0.9999998300195128,0.0005404763000393356,-0.00016850048199797853,0.00013947724689774703
1426.9666666656976,0.001075337,-0.7839772,-0.000847308,-2.3555653,-0.00029124727,1.5712726,0.78704226,0.03999995,0.039999943,0.007177054107221359,0.003135169727849724,0.008278810856054974,0.00506962428809675,-0.015763802245102543,0.0016011327566812302,0.9999998050953622,0.000584234343281143,-0.00015799599534698088,0.00015335167202848362
1426.9833333323643,0.0011882999,-0.78389364,-0.00095781696,-2.3554935,-0.00033910948,1.5713109,0.787172,0.039999947,0.03999994,0.007935792076274595,0.003274140142419408,0.008391507875371573,0.005502667348640543,-0.01606422773835288,0.0017372180453584236,0.9999997757687586,0.0006317659818621829,-0.00014481849498529365,0.00016840956044698548
1426.999999999031,0.0013104988,-0.78380513,-0.0010773736,-2.3554146,-0.00039088746,1.5713521,0.7873124,0.039999943,0.039999936,0.007591923559413516,0.0034108669039001034,0.008253421753634527,0.005953348407929487,-0.016365287133711864,0.001878850366518912,0.9999997412367361,0.0006831957298590004,-0.00012905889035208962,0.00018469937345368023
1427.0166666656976,0.001442294,-0.78371114,-0.0012063314,-2.355328,-0.00044673376,1.5713965,0.7874637,0.03999994,0.039999932,0.007841154921162108,0.0035464185617445332,0.008863221665600385,0.006422018138800089,-0.016668035135396487,0.0020259537301850405,0.9999997006161172,0.0007386493805987568,-0.000110689062070356,0.0002022688806069004
1427.0333333323642,0.0015840415,-0.7836115,-0.0013450396,-2.355234,-0.0005067996,1.571444,0.7876265,0.039999936,0.03999993,0.007675159946596288,0.0036806974053983296,0.009056677558505477,0.006908509196277817,-0.016972159731946143,0.0021784583173602213,0.999999652864455,0.0007983129835590648,-8.974070238597819e-05,0.00022116499758381865
1427.049999999031,0.0017360919,-0.7835058,-0.0014938433,-2.3551316,-0.0005712333,1.5714949,0.78780115,0.039999932,0.03999992,0.008120896111574183,0.003814869184736113,0.009565997521310265,0.007412115999958176,-0.017279346800064262,0.0023371386411597857,0.9999995968510772,0.0008623445749511761,-6.609669795687861e-05,0.00024143476026961222
1427.0666666656975,0.0018987921,-0.7833934,-0.001653082,-2.3550217,-0.0006401826,1.5715497,0.78798807,0.03999993,0.039999917,0.006662606228924339,0.003944348091763125,0.010116176072627603,0.007932950807294212,-0.017587087822931884,0.0025001782752445507,0.9999995312892835,0.0009309019649480634,-4.011699350445255e-05,0.0002631223511026903
1427.0833333323642,0.0020724833,-0.78327465,-0.0018230906,-2.3549037,-0.00071379135,1.5716082,0.7881877,0.039999925,0.039999913,0.007926722050144441,0.004074734304061168,0.010098805419112011,0.008470596683298987,-0.017901264981866394,0.002668374299840055,0.9999994548056769,0.0010041446570170185,-1.1357113199582244e-05,0.00028627412204802993
1427.0999999990308,0.0022575,-0.7831491,-0.0020041983,-2.3547769,-0.00079220254,1.5716705,0.7884003,0.03999992,0.03999991,0.008605610054757129,0.0042050933239014395,0.010695183129727504,0.00902460439379809,-0.018218319619300163,0.002841600857439782,0.9999993659031333,0.0010821743977529835,2.0299362513037157e-05,0.0003109338193140147
1427.1166666656975,0.0024541738,-0.7830165,-0.0021967296,-2.3546412,-0.0008755556,1.571737,0.78862625,0.039999917,0.039999906,0.008379330765051485,0.004330430244604247,0.011135898151204415,0.009595126460742606,-0.018535990170856463,0.0030197977615907578,0.9999992629048038,0.0011651228369239824,5.4879173495512825e-05,0.00033714522116120167
1427.1333333323641,0.0026628291,-0.7828763,-0.002401003,-2.354496,-0.0009639882,1.5718079,0.78886604,0.039999913,0.039999902,0.009094106938500879,0.004455683313624127,0.011822150053308889,0.010182295403825998,-0.018854869956456837,0.0032028290236737634,0.9999991438878489,0.0012531829635558703,9.255777369284911e-05,0.0003649508014492888
1427.1499999990308,0.0028837838,-0.78272843,-0.0026173308,-2.354342,-0.0010576347,1.5718828,0.78911996,0.03999991,0.039999895,0.007697156071118094,0.004577778754223357,0.011485980824454955,0.010784895767742173,-0.01917525342569498,0.0033914616807858046,0.9999990069256156,0.0013464593815344383,0.00013285470386599146,0.00039439135892194047
1427.1666666656974,0.0031173488,-0.7825727,-0.0028460203,-2.3541791,-0.0011566286,1.571962,0.78938836,0.039999906,0.03999989,0.007486478774110239,0.00470130804135706,0.011594379567836377,0.011403602061510542,-0.019500375430950262,0.0035838707017574216,0.9999988498997952,0.0014450885161040625,0.00017567662136445535,0.00042550674780439103
1427.183333332364,0.0033638321,-0.78240895,-0.0030873711,-2.3540075,-0.0012610998,1.5720452,0.78967166,0.039999902,0.039999887,0.007302961797295282,0.004817272132749033,0.011580777487973926,0.01203747761277735,-0.01983149267513181,0.0037807901185606466,0.9999986704991887,0.001549235754342041,0.0002209000494400501,0.00045833568543030467
1427.1999999990308,0.0036235328,-0.7822373,-0.0033416785,-2.353825,-0.0013711742,1.5721328,0.7899701,0.0399999,0.039999884,0.01070997604462054,0.004941945270036004,0.01267829135516152,0.012686694876957831,-0.020170559259748165,0.003982148593144006,0.9999984660378357,0.0016589822239882976,0.0002696827068954413,0.0004929210827078686
1427.2166666656974,0.003896744,-0.7820571,-0.0036092305,-2.353633,-0.0014869766,1.5722249,0.7902841,0.039999895,0.03999988,0.0084126866405132,0.0050543961393217755,0.012596619203919523,0.013350808528243194,-0.02050726161174834,0.00418777383748287,0.9999982339015521,0.001774496939753193,0.0003212447916176605,0.0005292978099895199
1427.233333332364,0.004183754,-0.781868,-0.003890308,-2.3534317,-0.0016086285,1.5723219,0.79061395,0.039999887,0.03999987,0.0069062635238648085,0.005161557255687482,0.01296568580080315,0.014029492165735558,-0.02084941529503148,0.004398436938595011,0.9999979713404288,0.0018958897822923379,0.00037531281071445714,0.0005675008849129272
1427.2499999990307,0.0044848416,-0.78167003,-0.004185187,-2.3532193,-0.0017362497,1.5724237,0.79095995,0.03999988,0.03999986,0.010592412660992423,0.005284886871271188,0.013694124857877021,0.014722616435372276,-0.021198937441923225,0.0046123186572908405,0.9999976749044174,0.0020232765047255605,0.0004328943898048753,0.000607569248401926
1427.2666666656974,0.0048002824,-0.78146315,-0.004494138,-2.3529968,-0.0018699551,1.5725303,0.7913224,0.039999872,0.039999854,0.008414422953006984,0.005389514366787641,0.013237218479145163,0.015430361526308573,-0.021548094082930222,0.004830156004494366,0.999997341533366,0.0021567699043233074,0.0004933278518473919,0.0006495363044885191
1427.283333332364,0.0051303413,-0.78124696,-0.0048174215,-2.3527634,-0.0020098593,1.5726418,0.79170173,0.03999987,0.03999985,0.009694107975555255,0.005502357165553897,0.014057465930905622,0.016151735325987317,-0.0219008626144399,0.005051781423737783,0.99999696736662,0.0022965471765386087,0.0005570239738548924,0.0006934355929103592
1427.2999999990307,0.0054752803,-0.78102124,-0.005155294,-2.3525193,-0.0021560707,1.5727583,0.7920982,0.03999987,0.03999985,0.008964334494709902,0.0056046284782373165,0.014009280507853994,0.01688669947192749,-0.022256191891372977,0.005277121986086033,0.9999965487730326,0.002442724749430369,0.0006236778999795527,0.0007392994655231067
1427.3166666656973,0.0058353525,-0.7807858,-0.005508005,-2.3522651,-0.0023086981,1.57288,0.7925121,0.039999872,0.03999985,0.007639777851342622,0.0057058649522977525,0.014069341405509306,0.017634576474395286,-0.022616165695542752,0.005506859659725886,0.9999960820225658,0.0025953910387914894,0.0006930141955969925,0.0007871570353561813
1427.333333332364,0.0062108063,-0.7805404,-0.005875796,-2.3519988,-0.0024678474,1.573007,0.7929437,0.03999988,0.039999858,0.010998858273358891,0.0058173017407569735,0.015181577007727931,0.018395573832662278,-0.022983113119933007,0.0057391923010563315,0.9999955622097306,0.0027546685019870336,0.0007659788579191655,0.0008370416226290004
1427.3499999990306,0.006601881,-0.7802852,-0.0062589045,-2.3517222,-0.002633618,1.5731392,0.7933932,0.039999887,0.039999865,0.007861724596525121,0.005908550010403279,0.014272556779237888,0.019169041544327796,-0.023350294350192834,0.005974858794560636,0.9999949856371079,0.0029206174976638254,0.0008416697657294414,0.0008889803586612546
1427.3666666656973,0.007008811,-0.7800198,-0.006657559,-2.351433,-0.00280611,1.5732769,0.793861,0.039999887,0.039999865,0.011633375226538512,0.0060195229910365786,0.015704476875932905,0.019955701726739855,-0.023724576485787068,0.006213723816055493,0.9999943463750776,0.0030934242639311616,0.0009212405927006094,0.0009430058193387002
1427.383333332364,0.007431822,-0.77974415,-0.0070719807,-2.3511338,-0.002985419,1.5734199,0.79434735,0.039999895,0.03999987,0.006907247049525722,0.006097463265825401,0.014557364827583186,0.020754011472576807,-0.024093964296217175,0.006456452570366715,0.9999936406654995,0.0032732093446082157,0.0010032220470150436,0.0009991369629571939
1427.3999999990306,0.007871133,-0.77945805,-0.0075023877,-2.3508215,-0.0031716384,1.5735682,0.79485244,0.039999902,0.039999876,0.011977495516202197,0.006216875894267827,0.015943519307182186,0.021563757216148623,-0.02447486887247428,0.006701301324122083,0.9999928620628232,0.0034600165679856587,0.0010890352166769606,0.0010574077026776754
1427.4166666656972,0.008326956,-0.7791611,-0.007948988,-2.3504977,-0.0033648582,1.5737225,0.7953764,0.03999991,0.039999884,0.008870137320249327,0.006295963118664203,0.015983225819460323,0.022385296053188827,-0.02485374852942037,0.006948937826668779,0.9999920058252063,0.0036539124943329206,0.0011779848044311202,0.001117837629001969
1427.4333333323639,0.008799499,-0.77885365,-0.008411982,-2.3501623,-0.0035651657,1.5738822,0.7959196,0.039999913,0.039999884,0.009487842342381647,0.0063850473186555755,0.01555025106021457,0.023218808892374047,-0.025236726743269433,0.007200109445657608,0.999991066017217,0.003855024806822088,0.0012701199981895275,0.0011804510489673398
1427.4499999990305,0.009288961,-0.77853525,-0.008891576,-2.3498142,-0.0037726462,1.5740477,0.7964822,0.039999917,0.039999887,0.010619807036360562,0.0064932692879369515,0.016446598895569764,0.024063708971208752,-0.025622863881117466,0.007452945048505747,0.9999900360484283,0.004063461475619739,0.0013657875175482714,0.001245274731201499
1427.4666666656972,0.009795536,-0.7782057,-0.009387948,-2.3494544,-0.00398738,1.5742189,0.79706454,0.039999917,0.039999887,0.008760899722082272,0.00655507767205717,0.01614194676564651,0.024919556516259753,-0.02600943460047425,0.007708151872996578,0.9999889101828514,0.004279348702547378,0.001464409787283378,0.0013123223574834138
1427.4833333323638,0.010319406,-0.777865,-0.009901283,-2.3490822,-0.0042094435,1.574396,0.79766685,0.03999992,0.03999989,0.010014765480304,0.006654290689700731,0.016661499640169275,0.025785526821281865,-0.026401638820308666,0.007965649888998953,0.9999876810133451,0.004502796636405288,0.0015664517487837867,0.0013816196735862963
1427.4999999990305,0.01086075,-0.77751285,-0.010431755,-2.3486967,-0.004438917,1.5745791,0.7982892,0.039999925,0.03999989,0.011264817152079054,0.0067445268983512725,0.017281186674855675,0.026661785730491536,-0.02679659064054149,0.008226165630152838,0.9999863413166539,0.004733823690824145,0.0016722290206167855,0.0014531839179702613
1427.5166666656971,0.011419746,-0.77714944,-0.010979536,-2.3482995,-0.004675872,1.574768,0.79893184,0.03999993,0.039999895,0.00850557870355484,0.006807077111092678,0.01627780411401769,0.027548180738219154,-0.027189342123192933,0.008487778751161428,0.9999848850548073,0.0049725614279189905,0.00178086445264913,0.0015270286738154335
1427.5333333323638,0.011996555,-0.7767746,-0.011544786,-2.3478894,-0.004920377,1.574963,0.799595,0.03999993,0.03999989,0.01044300715342672,0.006898698522775186,0.017292884813913112,0.028444417951982714,-0.027589093950576266,0.008752146042998857,0.9999833034033871,0.0052190948639200575,0.0018930897587424581,0.001603176352149803
1427.5499999990304,0.012591336,-0.776388,-0.012127669,-2.3474658,-0.005172503,1.5751641,0.8002787,0.039999932,0.039999895,0.011243858382958827,0.0069952604560729464,0.017719945224348166,0.02935018399167285,-0.027989338147344146,0.00901744255553273,0.9999815884153404,0.0054734509897674645,0.0020090402121151997,0.0016816426557432985
1427.566666665697,0.013204237,-0.7759899,-0.012728326,-2.34703,-0.0054323087,1.5753711,0.8009837,0.03999994,0.039999902,0.008989451173446739,0.007047020599808881,0.016880994635748436,0.030265767011180868,-0.028387083237051865,0.009284248469766778,0.9999797317030552,0.005735975560924276,0.002128045406641329,0.0017624387074445236
1427.5833333323637,0.013835411,-0.77558005,-0.013346902,-2.3465812,-0.005699861,1.5755848,0.8017095,0.03999994,0.039999902,0.010081922973270707,0.007126083564184312,0.017808124782603407,0.031188472324719253,-0.028791065470963613,0.00955264279770966,0.9999777256124235,0.006006396223090038,0.0022506275530020502,0.0018455782382282794
1427.5999999990304,0.014484993,-0.7751581,-0.013983537,-2.346119,-0.0059752157,1.5758044,0.80245626,0.039999943,0.039999902,0.010657742280106852,0.007211129992006331,0.01791775126949169,0.03212098795232866,-0.029194254772680645,0.009823082158739425,0.9999755611867001,0.006284863558339545,0.0023766519933215683,0.0019310734579720777
1427.616666665697,0.015153114,-0.77472407,-0.01463836,-2.345643,-0.0062584276,1.5760301,0.8032245,0.039999943,0.039999902,0.010680883804603525,0.007282412796535704,0.01812428935552557,0.03306282848117991,-0.02959795278237468,0.010093890271495709,0.999973228141698,0.006571586323645049,0.0025062218582745863,0.0020189366160200616
1427.6333333323637,0.0158399,-0.7742782,-0.0153114945,-2.3451545,-0.0065495535,1.5762625,0.80401427,0.039999947,0.039999906,0.009450197735350052,0.0073408702937707675,0.017823182486687017,0.03401226057675261,-0.0300019689754908,0.010365777490639213,0.9999707176150823,0.006866590132341568,0.002639171878972462,0.0021091761720925684
1427.6499999990303,0.016545473,-0.7738201,-0.016003055,-2.3446522,-0.0068486407,1.5765011,0.80482554,0.03999995,0.039999906,0.010813452247426802,0.007417588765188613,0.018483306641026154,0.034969597955697845,-0.03040830823975651,0.010639458522107643,0.9999680196047959,0.007169881298378806,0.0027757238068030795,0.002201800894304637
1427.666666665697,0.017269941,-0.7733495,-0.016713154,-2.3441367,-0.0071557392,1.5767457,0.80565846,0.039999954,0.03999991,0.009221094462796842,0.007473177446096213,0.018033001666317716,0.03593488623050999,-0.030813036930390662,0.010912979080873474,0.9999651258604082,0.007481520111196375,0.002915234604614077,0.0022968080032391364
1427.6833333323636,0.01801342,-0.7728668,-0.0174419,-2.3436072,-0.0074708927,1.576997,0.8065132,0.039999966,0.03999992,0.011348661643229008,0.007554233939168452,0.018852454932960505,0.03690844100091945,-0.03122235369632787,0.011187310259607227,0.9999620228826845,0.007801604919257642,0.003058669686648396,0.0023942207085609177
1427.6999999990303,0.018775998,-0.7723716,-0.018189384,-2.3430638,-0.0077941446,1.5772551,0.8073899,0.039999973,0.03999993,0.010584913481315184,0.007609121636643814,0.019039724702052396,0.037889458621725464,-0.03162867373931559,0.011462160950008748,0.9999587001131197,0.008130232837641773,0.003205802232553259,0.0024940357117078154
1427.716666665697,0.019557774,-0.771864,-0.018955702,-2.3425071,-0.0081255315,1.5775197,0.80828875,0.039999977,0.03999993,0.0096602216486108,0.007662072249107251,0.018561891713875234,0.03887741846761901,-0.03203257789014899,0.011738117717758317,0.9999551475831815,0.008467468689245231,0.003356225997577413,0.002596255562835369
1427.7333333323636,0.020358833,-0.7713438,-0.019740945,-2.341937,-0.008465092,1.5777903,0.8092098,0.039999977,0.03999993,0.009277913504868174,0.00772790120957198,0.01843535919121564,0.039872123787006684,-0.03243710146775512,0.01201344288017395,0.9999513547397286,0.008813384440892568,0.0035096535453509495,0.002700877796223289
1427.7499999990303,0.021179263,-0.7708113,-0.02054518,-2.3413532,-0.0088128615,1.5780678,0.81015307,0.03999998,0.039999932,0.01055962489229234,0.0077733939190269795,0.019167503670658448,0.04087334876487538,-0.032846321383831326,0.012288980043978576,0.9999473078533597,0.009167956818202845,0.0036668402158285492,0.002807911577944632
1427.766666665697,0.022019127,-0.7702661,-0.021368494,-2.3407552,-0.009168873,1.578352,0.8111187,0.039999984,0.039999932,0.010417629734260636,0.007855410918942811,0.01934057459265226,0.04188118328790483,-0.0332524783520975,0.012565355417134483,0.9999429945663365,0.009531328968781526,0.003827586834462753,0.0029173557926844055
1427.7833333323636,0.022878507,-0.7697082,-0.022210944,-2.340143,-0.009533151,1.5786428,0.81210685,0.039999988,0.039999936,0.010753015311770753,0.007889835781451845,0.019485550296494125,0.04289490714998426,-0.033655805053664015,0.012840699897267476,0.9999384020113696,0.00990353818601259,0.003991992054667972,0.0030292100921043745
1427.7999999990302,0.023757452,-0.76913774,-0.023072604,-2.3395166,-0.009905728,1.57894,0.81311744,0.039999988,0.039999936,0.010292185587790215,0.00796975047047746,0.01908432566577467,0.04391423618589911,-0.03405703204469489,0.013115794541134027,0.9999335185458272,0.010284608539207275,0.004159796500874419,0.003143470825115451
1427.8166666656969,0.024656026,-0.7685544,-0.023953522,-2.338877,-0.010286622,1.5792438,0.8141506,0.03999999,0.03999994,0.008738766601745773,0.007977432224465057,0.019155966207073938,0.0449394603106776,-0.034457201789910095,0.01339043514291418,0.9999283329142188,0.010674577295965099,0.004330591503732983,0.003260124563809592
1427.8333333323635,0.025574278,-0.7679584,-0.024853738,-2.3382235,-0.010675855,1.5795543,0.81520647,0.04,0.039999947,0.00982116821308665,0.008028139924489905,0.019448857091419747,0.045970410799671534,-0.03485919956277643,0.013665281580651854,0.999922828747059,0.011073582316573124,0.004504831709661326,0.003379173926474405
1427.8499999990302,0.026512254,-0.7673496,-0.025773315,-2.3375552,-0.011073449,1.5798719,0.816285,0.039999995,0.03999994,0.011244725453973814,0.008119102052340198,0.020195901385045012,0.047005870136008585,-0.035260890303234885,0.013938332568239238,0.9999169905668184,0.01148159800156637,0.004683001497115198,0.0035006256734505274
1427.8666666656968,0.027469996,-0.7667278,-0.026712282,-2.336873,-0.011479419,1.5801959,0.8173862,0.04,0.039999947,0.009143264699362774,0.00812302659850793,0.019476121060102436,0.048046641208942205,-0.03565476371921363,0.01421125937862058,0.999910808663063,0.011898633771727982,0.004864214391575197,0.0036244518893977055
1427.8833333323635,0.028447533,-0.7660934,-0.02767067,-2.3361769,-0.011893775,1.5805264,0.8185102,0.04,0.039999947,0.009872281807443706,0.008179499285445625,0.019418619910660517,0.04909214959901446,-0.03604980471246777,0.014483105145379468,0.999904266752244,0.012324775545722585,0.0050487450855784466,0.0037506548049091068
1427.8999999990301,0.02944488,-0.76544595,-0.028648516,-2.3354666,-0.01231653,1.5808636,0.81965697,0.04,0.03999994,0.009500136051432406,0.008235207981074043,0.01993640643251915,0.0501423488320764,-0.03644442663899626,0.014753732603672517,0.9998973497949404,0.012760087143014553,0.005236570166381969,0.0038792244134556045
1427.9166666656968,0.030462079,-0.76478577,-0.029645829,-2.334742,-0.012747697,1.5812075,0.82082665,0.04,0.03999994,0.010053603867410388,0.008255861699448669,0.019860986429476313,0.05119664835492681,-0.03683706747302504,0.015023000915341277,0.9998900416630333,0.013204612346015814,0.005427844708691451,0.004010149337274116
1427.9333333323634,0.031499125,-0.7641126,-0.030662624,-2.3340034,-0.013187279,1.5815583,0.8220191,0.04,0.039999943,0.009367613811850362,0.008299431100090675,0.020116732326536102,0.05225455337524964,-0.03722495837699724,0.015291365526312679,0.999882328350324,0.0136583269906936,0.00562242584729613,0.004143414551047129
1427.94999999903,0.032556042,-0.76342654,-0.031698924,-2.3332508,-0.0136352815,1.5819156,0.82323456,0.04,0.039999943,0.009259082595636237,0.008337989592402222,0.019741054903565924,0.05331666185849609,-0.037611008004057866,0.015558108629267518,0.9998741936737865,0.014121375215873899,0.005820109802392722,0.0042790079569624655
1427.9666666656967,0.033632834,-0.7627276,-0.032754727,-2.3324838,-0.014091704,1.5822797,0.8244727,0.04,0.039999947,0.009693046390935045,0.008372015999754887,0.02015974734668191,0.05438160373828363,-0.03799622204406869,0.01582311799473526,0.9998656219752978,0.014593639360870108,0.006021170531448048,0.0044169206000300365
1427.9833333323634,0.034729477,-0.7620157,-0.033830017,-2.3317025,-0.014556549,1.5826504,0.8257338,0.04,0.039999943,0.009428325275506744,0.008409062684121976,0.020189059929442976,0.055450418591403705,-0.038377047440628906,0.016086538586124206,0.9998565963112542,0.015075244896481944,0.006225463942063479,0.004557126604661269
1427.99999999903,0.035845987,-0.7612909,-0.03492481,-2.3309069,-0.015029812,1.583028,0.8270177,0.04,0.039999947,0.00950947676943148,0.008442974507519817,0.020257220977248913,0.05652225413784166,-0.03875589672428617,0.016347380270018613,0.9998470991871742,0.015566221250174064,0.006433083595801444,0.0046996210946303645
1428.0166666656967,0.03698234,-0.76055324,-0.036039073,-2.3300972,-0.015511487,1.5834123,0.82832444,0.04,0.039999936,0.009009200686471708,0.00845407053687297,0.020200916286139403,0.05759662480322605,-0.039129930788017714,0.016607369495109055,0.9998371152640824,0.016066540542611658,0.006643885470544092,0.004844378313568746
1428.0333333323633,0.038138527,-0.75980276,-0.0371728,-2.3292735,-0.016001565,1.5838037,0.82965404,0.04,0.039999932,0.009059635080532757,0.008476982067687731,0.02039312909500879,0.05867379984087642,-0.039500349533103524,0.01686452871969663,0.9998266252043175,0.01657629405641973,0.006857992370532001,0.0049913874369677
1428.04999999903,0.039314527,-0.7590394,-0.038325977,-2.3284361,-0.016500037,1.5842013,0.8310064,0.04,0.039999936,0.007846213820461578,0.008491613942891371,0.019738096479060552,0.05975324560668953,-0.039865240166884114,0.01711978715409615,0.9998156167110909,0.017095454373390523,0.007074753137155009,0.0051406116792134466
1428.0666666656966,0.0405103,-0.7582632,-0.039498568,-2.3275845,-0.017006893,1.5846058,0.8323814,0.04,0.039999943,0.009126540838666486,0.008548812170732986,0.020459339054323955,0.0608348810842486,-0.04023266386127205,0.01737227024494391,0.9998040684603717,0.01762401107435591,0.007294737859914805,0.005292043394999375
1428.0833333323633,0.041725833,-0.75747406,-0.040690526,-2.3267188,-0.017522112,1.585017,0.8337793,0.04,0.039999936,0.008581742319768715,0.008515295288026234,0.02031766133836488,0.061919007064626747,-0.040593505396173124,0.017622167405082538,0.9997919621078605,0.01816207389757575,0.007517741289977496,0.0054456535099565205
1428.09999999903,0.042961057,-0.7566722,-0.041901845,-2.3258393,-0.018045682,1.5854347,0.8351996,0.04,0.039999936,0.008169694763893176,0.00860101340819687,0.02010618488301752,0.06300436110086174,-0.040951256087961234,0.017869450595751225,0.9997792826951429,0.01870952515685934,0.007743618433702431,0.005601422635690086
1428.1166666656966,0.04421594,-0.7558576,-0.043132458,-2.3249454,-0.018577587,1.5858592,0.8366424,0.04,0.039999932,0.00896324591308506,0.008595440986953681,0.020546181321301482,0.0640921183540492,-0.0413057377458856,0.01811451353996763,0.9997660086813436,0.019266397200362054,0.00797270064141223,0.005759328847710014
1428.1333333323632,0.04549044,-0.7550304,-0.044382323,-2.3240378,-0.019117795,1.5862901,0.8381078,0.04,0.039999932,0.008132920069803262,0.008588936587587692,0.020018630041840346,0.06518148918634892,-0.04165458664396415,0.018356574122602973,0.9997521217257285,0.019832812240101062,0.008204632789782123,0.005919346614113345
1428.14999999903,0.0467845,-0.7541904,-0.045651384,-2.323115,-0.01966629,1.5867277,0.839596,0.04,0.039999932,0.00987430134897771,0.008653176495153,0.020915348776306963,0.0662718751910758,-0.041998866834117604,0.018595045147089297,0.9997375960747621,0.02040885830878167,0.008439983848162469,0.00608146115919341
1428.1666666656965,0.048098058,-0.7533376,-0.0469396,-2.3221793,-0.020223048,1.5871723,0.8411064,0.04,0.039999932,0.006653491497754516,0.008605742689119997,0.020268507687215553,0.0673615595538495,-0.04233547271388127,0.01883069859938094,0.9997224228770407,0.0209943571388195,0.008677924076225833,0.006245622380039864
1428.1833333323632,0.049431045,-0.7524722,-0.04824688,-2.3212297,-0.020788036,1.5876232,0.84263945,0.04,0.03999993,0.007753062735016414,0.008611559957830486,0.020215222093278307,0.06845292587055607,-0.042670192732428884,0.019063408300633845,0.9997065773956667,0.02158949736074712,0.008918604873179288,0.0064118018269650814
1428.1999999990298,0.050783392,-0.75159454,-0.049573164,-2.3202665,-0.021361236,1.5880809,0.84419465,0.04,0.03999993,0.007728984915678083,0.008638224396453204,0.02012904566748297,0.06954315541917563,-0.043000624384763486,0.019292742044390916,0.9996900417208547,0.022194116904025358,0.009162179096900635,0.0065799797266186165
1428.2166666656965,0.05215503,-0.7507039,-0.0509184,-2.3192897,-0.021942602,1.5885448,0.8457721,0.04,0.03999993,0.006679838166001595,0.008631511838649852,0.020343378690412806,0.0706343760098147,-0.043325863223271754,0.019518146274190587,0.9996727992964602,0.022808296880960834,0.009408083905132937,0.006750103510542253
1428.2333333323631,0.05354587,-0.7498009,-0.052282486,-2.3182988,-0.022532118,1.5890152,0.8473716,0.04,0.03999993,0.008253110303368949,0.008669873420055069,0.020272200354187753,0.07172493494694329,-0.043649596832610486,0.01974040669038169,0.9996548247635111,0.023431994236814854,0.009656948405704623,0.006922161556143704
1428.2499999990298,0.05495584,-0.74888563,-0.05366535,-2.3172936,-0.023129737,1.5894922,0.84899306,0.04,0.03999993,0.008524947170385211,0.008678127532557936,0.020555000444733018,0.07281536781004065,-0.04396547659831129,0.01995861448772692,0.9996360954592609,0.024065230747266037,0.009908894536014758,0.007096135083160102
1428.2666666656964,0.056384835,-0.747958,-0.055066925,-2.3162754,-0.023735423,1.5899755,0.8506365,0.04,0.039999932,0.006295558781488353,0.008653015798987251,0.01990876076176651,0.07390526839025531,-0.04427401878803353,0.020172520077834454,0.9996165974898146,0.024708020597585336,0.010163181244570114,0.007271965898244467
1428.283333332363,0.05783278,-0.74701804,-0.056487076,-2.315244,-0.024349127,1.590465,0.8523016,0.04,0.03999993,0.006149131691235432,0.00857105333615174,0.019876021014253453,0.07499370706195266,-0.044578479764175505,0.020383326478266656,0.9995963132619672,0.025360268947281033,0.01041972421990697,0.007449605304032358
1428.2999999990298,0.05929956,-0.7460658,-0.057925742,-2.3141994,-0.024970826,1.5909611,0.8539885,0.04,0.03999993,0.0062651480615461,0.008640346865703558,0.02024770380819607,0.0760821253499612,-0.044881817253855684,0.02058998412900883,0.9995752156477103,0.02602210868143822,0.010678764347581832,0.007629031040282814
1428.3166666656964,0.06078509,-0.74510133,-0.05938282,-2.3131413,-0.025600465,1.5914637,0.8556969,0.04,0.03999993,0.0069629697381889954,0.008623091444355524,0.020300935487460592,0.0771684525971827,-0.045178806975568156,0.020792100106133506,0.9995532851209349,0.02669340435188683,0.010940425368583766,0.0078102151576095995
1428.333333332363,0.062289253,-0.74412495,-0.060858194,-2.3120692,-0.026237994,1.5919725,0.8574268,0.04,0.039999917,0.00793808105108429,0.008658550076236227,0.02021028949774628,0.07825353172281925,-0.045469851507718595,0.020990671272570677,0.9995304945265387,0.02737424662048142,0.011204948650439875,0.007993138259469462
1428.3499999990297,0.06381193,-0.74313635,-0.062351763,-2.3109846,-0.026883377,1.5924875,0.859178,0.04,0.039999925,0.004621188405140586,0.008558102449179525,0.019710260189587103,0.07933659205054071,-0.04575130307724863,0.02118401598966385,0.9995068358213862,0.028064548868851985,0.01147132808513876,0.008177705978530537
1428.3666666656964,0.065353036,-0.74213576,-0.06386341,-2.3098867,-0.027536558,1.5930088,0.8609504,0.04,0.03999992,0.006462975724197406,0.008560692895833583,0.020129510267641315,0.08041768522658503,-0.046032743665274156,0.02137352611427276,0.999482279078997,0.028764329212267903,0.011740192687909025,0.008363913418558981
1428.383333332363,0.06691242,-0.74112344,-0.065393046,-2.308776,-0.028197482,1.5935363,0.86274385,0.04,0.039999925,0.005771837276524749,0.008593103767751131,0.019742701302183363,0.08149654838272946,-0.04630718833295372,0.02155720525206052,0.9994568047091594,0.029473568656760735,0.012011338530376467,0.00855172601883716
1428.3999999990297,0.068489976,-0.74009925,-0.0669405,-2.3076515,-0.02886611,1.5940698,0.8645582,0.04,0.03999992,0.00671335354507363,0.00855263154812859,0.020093821805255985,0.08257249339075087,-0.04657519751677762,0.021737675385770462,0.999430388163723,0.030192247830358412,0.012284980867720154,0.008741088658744412
1428.4166666656963,0.07008555,-0.73906326,-0.06850569,-2.3065147,-0.029542377,1.5946096,0.8663933,0.04,0.03999992,0.004665814604676299,0.008522690307775915,0.01967646276412882,0.08364600735269472,-0.04683491810666288,0.021912517811032983,0.9994030141010255,0.030920337265782197,0.01256058910029238,0.008931951108774141
1428.433333332363,0.07169905,-0.7380156,-0.07008846,-2.3053656,-0.030226232,1.5951555,0.8682488,0.04,0.039999932,0.004656490087517895,0.008423800491540179,0.019571607816004644,0.08471610122818747,-0.04709145259369443,0.022082580639728108,0.9993746651896797,0.031657678227879425,0.012838141098803931,0.009124259935082254
1428.4499999990296,0.07333031,-0.7369564,-0.07168869,-2.3042028,-0.030917624,1.5957074,0.8701249,0.04,0.039999932,0.0068022293813641,0.008555216855118952,0.020037131571748468,0.08578440826044496,-0.04734502432281752,0.02224813179086798,0.9993453036653521,0.032404460189792275,0.013118296196371204,0.009318009804549254
1428.4666666656963,0.07497921,-0.7358858,-0.07330621,-2.3030283,-0.031616464,1.5962652,0.8720213,0.04,0.039999925,0.003411859414592655,0.008313654035137577,0.019043112344618862,0.08684820278054448,-0.04758638503769827,0.0224081317538211,0.999314923492217,0.033160589920407844,0.013399990921492435,0.009513107020262496
1428.483333332363,0.0766456,-0.7348038,-0.07494093,-2.3018417,-0.03232272,1.5968287,0.8739378,0.04,0.039999913,0.004147599250048373,0.00839412467631001,0.01918086102807859,0.08790853389539878,-0.04782750930526819,0.022563850004439445,0.9992835025025463,0.033925966556015076,0.013683411491195435,0.00970951437746643
1428.4999999990296,0.078329295,-0.7337107,-0.07659267,-2.3006418,-0.033036325,1.5973984,0.8758742,0.04,0.039999917,0.006600728425443236,0.00847369942691134,0.019921822294821645,0.08896502516389719,-0.048064307155894395,0.022713473376852755,0.999251001561223,0.034700649759537204,0.013969517504875467,0.009907238053034157
1428.5166666656962,0.0800302,-0.7326064,-0.07826131,-2.29943,-0.03375721,1.5979737,0.8778304,0.04,0.03999993,0.0036946319072139744,0.008288241487630632,0.01898219020948222,0.0900167216784585,-0.048287358348573936,0.02285808820051219,0.9992174164832942,0.035484525448908934,0.014257216740117684,0.010106177365465114
1428.5333333323629,0.081748135,-0.7314909,-0.07994666,-2.298206,-0.034485303,1.5985548,0.8798063,0.04,0.03999993,0.003671536991634028,0.008236780141446243,0.019206343677069526,0.09106455522136647,-0.048508161375409586,0.022996670725878625,0.9991827203911277,0.03627765233082692,0.01454660810154859,0.01030627992484094
1428.5499999990295,0.08348292,-0.7303645,-0.0816486,-2.2969701,-0.03522054,1.5991418,0.8818015,0.04,0.03999993,0.004323742691481058,0.008296206918077115,0.01917857886661878,0.0921072929595333,-0.04872438612728946,0.0231307257741155,0.9991468902984803,0.037079901128264925,0.014837938674979194,0.010507526591566473
1428.5666666656962,0.08523442,-0.7292272,-0.08336694,-2.2957225,-0.035962865,1.5997344,0.8838159,0.04,0.039999925,0.0033227005786784503,0.00814556844061648,0.018843896433051732,0.09314522262294465,-0.04893417919183538,0.02325835919917718,0.9991099099561475,0.037891229969016005,0.015130833812054026,0.010709826656209965
1428.5833333323628,0.08700244,-0.72807926,-0.085101545,-2.2944624,-0.036712196,1.6003327,0.8858493,0.04,0.03999993,0.004837969337145864,0.008252296911196583,0.019108827227753977,0.09417835560133131,-0.0491379945899289,0.023381190694068944,0.9990717462943807,0.03871164711236681,0.015425837021550783,0.010913188641680376
1428.5999999990295,0.08878684,-0.7269207,-0.08685222,-2.293191,-0.037468445,1.6009363,0.8879014,0.04,0.03999993,0.0029378621207776234,0.008047881957932296,0.018389153458375773,0.09520539250413121,-0.049331648482398224,0.023498102526396128,0.9990323924255818,0.0395410122857609,0.015722218167723543,0.011117512658949514
1428.6166666656961,0.0905874,-0.7257516,-0.08861881,-2.291908,-0.03823156,1.6015457,0.88997227,0.04,0.03999993,0.003039064518439716,0.0080668441819233,0.018871565919953426,0.09622800872493614,-0.04952092196696792,0.023608452521905382,0.9989918168108954,0.04037940724287979,0.016020257024812676,0.011322754984491992
1428.6333333323628,0.092403986,-0.72457194,-0.090401135,-2.2906137,-0.039001457,1.6021602,0.8920616,0.04,0.039999925,0.002835527886091427,0.007986148826500533,0.01831981084272627,0.0972438316935235,-0.04970375621938107,0.023713202341089507,0.9989500039120668,0.04122674683037669,0.01631963872146131,0.011528851715020076
1428.6499999990294,0.09423641,-0.72338206,-0.09219903,-2.2893083,-0.039778057,1.6027801,0.89416903,0.04,0.039999925,0.0022811082598828136,0.007900006849430319,0.018185052542807334,0.09825332402875728,-0.04988219948988642,0.02381222414143832,0.9989069354739981,0.042082898528776856,0.016620347791528038,0.011735755308077703
1428.666666665696,0.09608448,-0.72218215,-0.09401233,-2.2879913,-0.0405613,1.6034054,0.8962946,0.04,0.039999925,0.0036962008917562628,0.007982343609552744,0.01839264271346064,0.09925698713594605,-0.050055748457122365,0.023905506778888135,0.9988625757207585,0.04294794823723667,0.0169228420630384,0.011943449385033663
1428.6833333323627,0.097948,-0.7209721,-0.09584078,-2.286663,-0.04135108,1.6040355,0.898438,0.04,0.039999932,0.002482985478025057,0.0077872482263978415,0.017947994144895674,0.10025316886745282,-0.05021953660959487,0.023992331208729407,0.9988169155040503,0.0438217698848353,0.01722657543186337,0.012151826448148387
1428.6999999990294,0.09982678,-0.7197521,-0.09768428,-2.2853248,-0.04214732,1.604671,0.9005988,0.04,0.039999932,0.0006344556312321004,0.007697301928525496,0.01774848456763678,0.10124240613841666,-0.050379118252643865,0.024073335092745528,0.9987699420092735,0.04470423380282602,0.017531235395875408,0.012360833482785752
1428.716666665696,0.10172064,-0.7185223,-0.09954258,-2.2839756,-0.042949952,1.6053116,0.9027769,0.04,0.039999936,0.002462554108628723,0.007695913595614362,0.017843725232991048,0.10222485709893953,-0.05053596950846808,0.024147909133911537,0.9987216253233836,0.04559527895907692,0.01783731566734961,0.012570434274373366
1428.7333333323627,0.10362935,-0.717283,-0.1014155,-2.282616,-0.04375888,1.6059573,0.90497196,0.04,0.03999993,0.001723947503151635,0.007618787470178162,0.01747589440199704,0.10320067097700299,-0.050684269235300325,0.024216324900452536,0.9986719484282485,0.04649483931894919,0.018144595517505753,0.012780570908094827
1428.7499999990293,0.10555276,-0.7160341,-0.10330285,-2.2812448,-0.04457403,1.6066079,0.90718395,0.04,0.039999932,0.0032066930926610837,0.007616127972780856,0.01796463112588853,0.10416919057846824,-0.0508275510368634,0.024278510927871366,0.9986208774553857,0.04740294823137894,0.018453507961032692,0.012991214459803955
1428.766666665696,0.10749062,-0.7147757,-0.10520442,-2.2798648,-0.045395292,1.6072634,0.9094129,0.04,0.039999936,-0.001365911186557156,0.007299748787917976,0.01673586873804922,0.10512945667038937,-0.05096017663340881,0.024334684233609225,0.9985684128586224,0.048319635568777726,0.018762706006950736,0.013202216586957041
1428.7833333323626,0.109442726,-0.71350795,-0.10712001,-2.2784739,-0.046222616,1.6079239,0.911658,0.04,0.039999936,0.0025310664368394242,0.0075000366030947285,0.017554062379487867,0.10608060035855627,-0.051093698079355925,0.024384202235531026,0.9985145239861165,0.04924456729727221,0.019073371809780075,0.013413592668983601
1428.7999999990293,0.11140891,-0.7122309,-0.109049425,-2.277072,-0.047055878,1.608589,0.91391927,0.04,0.039999932,0.0024077286568502387,0.007367261834346356,0.017500225363442645,0.10702424788339182,-0.05121823932207749,0.024427493883924956,0.9984591832087338,0.050177839347567935,0.0193854332739803,0.013625302981503442
1428.816666665696,0.11338893,-0.710945,-0.11099246,-2.2756615,-0.047894996,1.6092589,0.9161967,0.04,0.03999994,-0.001322437256101594,0.007104931175288404,0.016151941580622164,0.10795868616367307,-0.05133259189800559,0.024463516948352165,0.9984023894271067,0.051119420071172414,0.019697842810907574,0.013837220328801258
1428.8333333323626,0.11538255,-0.7096504,-0.1129489,-2.2742412,-0.04873989,1.6099331,0.9184897,0.04,0.03999994,0.0007881653222074902,0.007203316144634847,0.016411581516773133,0.10888377280925782,-0.05144630959644658,0.024494134149336044,0.9983441181376439,0.05206910603468523,0.02001116013532846,0.014049321932287723
1428.8499999990293,0.1173896,-0.7083471,-0.11491852,-2.2728114,-0.04959046,1.6106123,0.9207981,0.04,0.039999936,0.0004696992518926635,0.007011546903978871,0.016686458787917857,0.10980008814530992,-0.05155476285374547,0.024517197273021554,0.99828434539198,0.05302685899739467,0.02032549784598176,0.014261560485772661
1428.866666665696,0.11940983,-0.70703524,-0.11690111,-2.2713723,-0.050446626,1.6112957,0.92312187,0.04,0.039999943,-5.925070034606961e-06,0.006954863321432386,0.016062374985081895,0.11070723650496096,-0.05165597637222121,0.024534996147355943,0.99822305533002,0.053992668720684166,0.02064052421470268,0.014473848560798124
1428.8833333323626,0.121443026,-0.705715,-0.11889647,-2.2699234,-0.051308263,1.6119835,0.9254604,0.04,0.039999936,0.0009289936460099568,0.00695759256455139,0.016305943314387505,0.11160396999980725,-0.051752183834188205,0.024545568480802943,0.9981602266828574,0.05496634702299273,0.02095659045078,0.014686179899919735
1428.8999999990292,0.12348895,-0.7043863,-0.120904356,-2.2684662,-0.052175295,1.6126757,0.9278136,0.04,0.03999994,-0.001717470681672495,0.006682211346278888,0.01566042797780387,0.11249111783260009,-0.051839986416947495,0.024549233305011457,0.998095857761565,0.05594783434829167,0.021272896168173322,0.01489840392659586
1428.9166666656959,0.12554735,-0.70304954,-0.122924544,-2.267,-0.053047616,1.6133718,0.9301812,0.04,0.039999943,-0.000126353035234672,0.006729383190128696,0.015556108735559349,0.11336849940419895,-0.051927262304045416,0.02454719090936474,0.9980299179309557,0.056937089578192136,0.02158988218128191,0.015110517280782281
1428.9333333323625,0.12761806,-0.70170486,-0.12495681,-2.2655244,-0.053925145,1.6140723,0.93256295,0.04,0.039999943,0.00045131381631868805,0.006617941579589032,0.01578159694826109,0.11423491817120963,-0.052007298167365816,0.024537384241951385,0.9979623841644717,0.057933994167971146,0.02190784458897736,0.015322482108789101
1428.9499999990292,0.12970078,-0.7003524,-0.1270009,-2.2640402,-0.054807767,1.614777,0.93495846,0.04,0.039999947,-0.0007355849885204435,0.006482499300396877,0.01532521598424097,0.11509088802891697,-0.05207845060953666,0.024522185237306385,0.9978932493323559,0.058938417726675456,0.022226430068266214,0.015534209320367856
1428.9666666656958,0.13179535,-0.69899213,-0.1290567,-2.2625477,-0.055695385,1.6154857,0.9373677,0.04,0.03999995,-0.0011904096212767001,0.00644746746264746,0.015119884926084737,0.11593624202739113,-0.05214496611587777,0.02449965200912138,0.9978224925600014,0.059950383977494054,0.022545483371147666,0.0157456654942875
1428.9833333323625,0.13390142,-0.69762427,-0.13112375,-2.2610471,-0.056587912,1.6161982,0.93979007,0.04,0.039999958,-0.0015605660204087712,0.006133579446886833,0.014775004617373355,0.11676998195673027,-0.05220600585570308,0.0244699694710273,0.9977501133289136,0.06096961758348202,0.02286484680636606,0.01595668713691918
1428.9999999990291,0.1360188,-0.69624907,-0.13320199,-2.2595382,-0.05748523,1.6169146,0.9422256,0.04,0.039999943,-0.0008196509403202157,0.006275873625220807,0.014795228196784471,0.11759288120762726,-0.05226274399061295,0.024435003770630605,0.9976760760932875,0.06199619488588518,0.023184835369917917,0.016167325679957968
1429.0166666656958,0.1381473,-0.6948668,-0.1352912,-2.2580216,-0.05838724,1.6176348,0.9446738,0.04,0.039999947,-0.0019000861692042292,0.006084641048484385,0.014177593901076868,0.11840384330414935,-0.052312581594856494,0.024392380891632502,0.9976003797764655,0.06302991417788888,0.023505096728846233,0.016377503361238718
1429.0333333323624,0.14028658,-0.6934774,-0.13739103,-2.2564971,-0.059293836,1.6183585,0.9471345,0.04,0.039999947,-0.0015551382869460895,0.005940519112367787,0.01419632915322655,0.11920327338108605,-0.05235812342625404,0.0243444088680519,0.9975230046774498,0.06407072974936381,0.02382570418060096,0.016587119971677385
1429.049999999029,0.14243652,-0.69208133,-0.13950136,-2.254965,-0.060204897,1.619086,0.94960725,0.04,0.039999954,-0.0014322831736635067,0.005867547885413105,0.014019621053473763,0.11999004710560594,-0.052398719499917,0.02429010108458733,0.9974439360548646,0.06511843787646601,0.024146861510372365,0.016796206568958284
1429.0666666656957,0.14459677,-0.69067836,-0.1416218,-2.253426,-0.061120342,1.6198171,0.95209205,0.04,0.03999996,-0.003060091146878108,0.005563678321614252,0.01368678475015539,0.12076519729126559,-0.05243216823875655,0.024226952382596728,0.9973631686909413,0.06617304201512166,0.02446799664098761,0.01700456966836859
1429.0833333323624,0.14676712,-0.6892688,-0.14375217,-2.2518797,-0.06204006,1.6205516,0.9545884,0.04,0.03999998,-0.0019279803673555307,0.0056111850378376404,0.01350032120654987,0.12152796616640935,-0.0524626598855115,0.024158422082006803,0.9972806845520711,0.06723437315645606,0.024789408728824604,0.01721221951074662
1429.099999999029,0.14894727,-0.687853,-0.14589226,-2.2503262,-0.06296394,1.6212887,0.95709604,0.04,0.039999977,-0.002336409216097124,0.005605870774245958,0.01272545959787319,0.12227773689464266,-0.052486997338881805,0.02408315993108802,0.9971964775103028,0.06830235107393084,0.025110750428629067,0.01741907838344674
1429.1166666656957,0.15113698,-0.686431,-0.14804175,-2.2487657,-0.06389186,1.6220294,0.95961475,0.04,0.03999998,-0.002164101974022614,0.005323867043291464,0.013290351180783588,0.123014756852277,-0.05251033120306105,0.02400107407448602,0.9971105195875613,0.06937688600585734,0.0254325382853703,0.017625135809892348
1429.1333333323623,0.15333602,-0.68500274,-0.15020044,-2.247199,-0.06482371,1.622774,0.9621441,0.04,0.039999977,-0.003536308289797674,0.00512929762205433,0.013144122481234533,0.12373820994562844,-0.052524360731802035,0.023913556918657153,0.9970228148407261,0.07045776422549899,0.025754431338848215,0.01783029483300498
1429.149999999029,0.1555441,-0.68356854,-0.15236807,-2.2456255,-0.065759435,1.6235206,0.9646839,0.04,0.039999977,-0.002591390356698753,0.00524288333120515,0.011959514795689685,0.12444868593427943,-0.05253411457182587,0.023818892865941146,0.9969333538462303,0.07154499326049112,0.026076056754225398,0.01803444461062837
1429.1666666656956,0.15776096,-0.68212867,-0.15454437,-2.2440457,-0.06669888,1.624271,0.96723384,0.04,0.039999977,-0.002836171479669858,0.004978468106939249,0.012754378606261163,0.12514494473325097,-0.052542441572546644,0.02371796478071333,0.9968421083900794,0.07263841664063816,0.026398108540845004,0.01823763235258705
1429.1833333323623,0.15998638,-0.6806833,-0.15672913,-2.2424605,-0.0676419,1.6250234,0.9697937,0.04,0.039999977,-0.004556879877837261,0.0047929927994641575,0.010943038759148038,0.12582763994947943,-0.052543234521561136,0.023611648284988636,0.9967491018415089,0.07373791298039603,0.026719383012350214,0.018439705498743283
1429.199999999029,0.16222002,-0.67923254,-0.15892199,-2.240869,-0.068588436,1.6257794,0.97236294,0.04,0.039999977,-0.0025951680052926918,0.0047196460710483,0.012495853097260756,0.12649585589504317,-0.052546547922320566,0.023497643631786948,0.9966542923471078,0.0748433094524814,0.02704118215222516,0.018640682500814007
1429.2166666656956,0.16446167,-0.6777766,-0.16112275,-2.2392719,-0.06953838,1.6265376,0.97494143,0.04,0.039999977,-0.003700857758248688,0.004614380035847243,0.01100782017757762,0.1271499725814969,-0.05253865719442698,0.023377644284764708,0.9965576922090442,0.07595452795216937,0.02736262823203874,0.0188404447607356
1429.2333333323622,0.16671105,-0.6763156,-0.16333117,-2.237669,-0.07049159,1.6272986,0.9775288,0.04,0.039999984,-0.003222341932085371,0.004513137610678841,0.011396185987089247,0.12778985087997122,-0.052530146540510816,0.02325188292553873,0.9964592791084383,0.07707144436127461,0.027684183471040017,0.019039000191717823
1429.249999999029,0.16896799,-0.67485,-0.16554694,-2.2360613,-0.07144794,1.6280624,0.9801247,0.04,0.03999999,-0.0044670100566523985,0.004079868904066641,0.01066415517472219,0.12841464718076806,-0.052514680064347175,0.023119303326793343,0.9963590645974335,0.07819380656207717,0.028005511015970107,0.019236277254035702
1429.2666666656955,0.17123201,-0.67337954,-0.1677698,-2.234448,-0.07240734,1.6288284,0.98272896,0.04,0.03999999,-0.003202831543980267,0.004396828121838725,0.010808751346957912,0.12902541667646072,-0.05249613761962335,0.022980922213696305,0.996257019762629,0.0793217078826816,0.028326784697387357,0.019432202679237877
1429.2833333323622,0.17350295,-0.67190444,-0.16999955,-2.2328293,-0.07336968,1.6295968,0.98534113,0.04,0.03999999,-0.003764809172812633,0.00415027223974046,0.010564834144921598,0.12962023824133528,-0.05247168278592274,0.022836965686565867,0.9961531469418752,0.08045492459469641,0.02864793379078823,0.019626737777302183
1429.2999999990288,0.17578055,-0.6704251,-0.1722358,-2.2312067,-0.074334815,1.6303673,0.98796105,0.04,0.039999988,-0.005405529259006059,0.0036626572576609062,0.00950594875395172,0.1301993203198447,-0.05244345173259117,0.022686132679936695,0.9960474601232193,0.08159328724717381,0.028968423500125746,0.019819765341730963
1429.3166666656955,0.17806455,-0.6689416,-0.17447838,-2.229579,-0.07530265,1.6311399,0.99058837,0.04,0.04,-0.003636781848470605,0.003834692813149687,0.009942621619019043,0.13076338864378098,-0.05241448403612448,0.022530171885012294,0.9959399309690866,0.0827367236454071,0.029288833323504557,0.02001131440616446
1429.3333333323621,0.18035464,-0.6674541,-0.17672704,-2.2279472,-0.076273054,1.6319145,0.9932227,0.04,0.039999995,-0.0050924032263033325,0.0036363480462264786,0.009303456738596338,0.1313112809697349,-0.05237974980270617,0.02236913465052158,0.9958305696703416,0.08388507711772916,0.029608744137133106,0.02020130237428618
1429.3499999990288,0.18265057,-0.66596276,-0.17898142,-2.2263112,-0.077245936,1.6326911,0.9958636,0.04,0.04,-0.004489776092908571,0.003411709474032687,0.009304137711474425,0.1318429915393757,-0.05234384592157927,0.022200544580522834,0.9957193764535668,0.08503809705780578,0.029928368843631942,0.020389657723142662
1429.3666666656954,0.184952,-0.6644679,-0.18124126,-2.2246716,-0.078221165,1.6334696,0.99851096,0.04,0.03999999,-0.00534081070409087,0.003256542695131981,0.008562702820191781,0.13235956816005545,-0.05230311063077469,0.02202748597646042,0.9956063484917346,0.08619574473242542,0.0302474345833046,0.020576324601490795
1429.383333332362,0.1872587,-0.66296965,-0.1835064,-2.2230277,-0.07919862,1.6342499,1.0011643,0.04,0.039999995,-0.0038226100313121236,0.00340839978302393,0.00881209081684542,0.1328592556491937,-0.05226080944096624,0.02184945381284479,0.9954914629270266,0.08735791154253748,0.03056646079311732,0.02076135845549184
1429.3999999990288,0.1895704,-0.66146797,-0.18577646,-2.2213805,-0.08017818,1.6350319,1.0038234,0.04,0.039999995,-0.005656280007571013,0.002912529954725296,0.008273592989316292,0.13334259662150033,-0.0522111140059113,0.021664975318901464,0.9953747458560666,0.08852438238989517,0.03088483960724337,0.020944586816013282
1429.4166666656954,0.19188677,-0.6599633,-0.18805113,-2.2197294,-0.08115973,1.6358159,1.0064878,0.04,0.039999995,-0.004096809157116965,0.0029344725613944522,0.008305904544148035,0.1338089355165147,-0.052160431190284684,0.02147550047721318,0.9952561739421268,0.08969503420027135,0.031203188938787572,0.021126051925084394
1429.433333332362,0.19420758,-0.6584558,-0.19033022,-2.2180758,-0.082143165,1.6366011,1.0091575,0.04,0.04,-0.006203298093199194,0.0026450940618191754,0.007255994835375645,0.1342589629656182,-0.05210381063501387,0.021280136754684695,0.9951357688683629,0.09086977932456672,0.0315207076883509,0.02130562627810496
1429.4499999990287,0.19653253,-0.6569456,-0.19261342,-2.2164187,-0.083128326,1.6373876,1.0118319,0.04,0.04,-0.004682896917440615,0.002627989715679735,0.007405363617118965,0.1346913185312145,-0.052045280343983695,0.02108043305694437,0.9950135236459137,0.09204837949979068,0.03183787079619774,0.021483332524775134
1429.4666666656954,0.19886129,-0.6554328,-0.19490042,-2.2147593,-0.084115125,1.6381755,1.0145104,0.04,0.04,-0.006130452137531606,0.0023758044086677477,0.006875667219774506,0.1351068184536518,-0.05198384299466116,0.020875201201064605,0.994889462780722,0.0932305910596133,0.03215430704633875,0.021659046076209262
1429.483333332362,0.20119362,-0.65391773,-0.19719096,-2.2130973,-0.085103415,1.6389648,1.0171933,0.04,0.04,-0.005316503844765563,0.0022218654913419567,0.006871380414463779,0.13550652196734755,-0.05192050805538671,0.020664953265542685,0.9947635512306051,0.09441654186185933,0.032470333244988527,0.021832801581162426
1429.4999999990287,0.20352925,-0.65240043,-0.19948478,-2.2114332,-0.08609309,1.639755,1.0198802,0.04,0.04,-0.006118836651358706,0.0020624030268340254,0.006204932425069032,0.1358873748177504,-0.051852473185193315,0.020450247917571808,0.994635813313549,0.09560599872578313,0.03278557115659977,0.022004504213360407
1429.5166666656953,0.20586787,-0.65088123,-0.20178159,-2.2097666,-0.08708404,1.6405464,1.0225701,0.04,0.04,-0.005168834136304312,0.002015402669865163,0.006236509738632989,0.13625012101043193,-0.05178513747495118,0.020230460776747228,0.9945062596763183,0.09679858812437561,0.03310044513466532,0.022174159141528125
1429.533333332362,0.20820923,-0.6493604,-0.2040811,-2.208099,-0.08807614,1.6413383,1.0252633,0.04,0.04,-0.007061740585090348,0.001646300258230371,0.004975864179890266,0.13659582347547583,-0.05171103783483641,0.02000643253707729,0.9943749086325493,0.09799430564466168,0.033414187833813294,0.0223416470887115
1429.5499999990286,0.210553,-0.64783794,-0.20638305,-2.2064285,-0.08906927,1.6421314,1.0279595,0.04,0.04,-0.004314682017270144,0.0018183966292217857,0.006087230039231173,0.13692436926909127,-0.05163944234107329,0.01977765135045565,0.9942417121455583,0.09919315075551756,0.033727867850515916,0.022507056744945603
1429.5666666656953,0.2128989,-0.64631397,-0.20868716,-2.204757,-0.09006328,1.6429251,1.0306579,0.04,0.04,-0.006722162680894428,0.0014389818819265932,0.00487846639485312,0.13723345982830973,-0.051561280828568284,0.019544073774068187,0.9941067330101182,0.10039472174710737,0.034040612126502015,0.022670243830260464
1429.583333332362,0.21524663,-0.6447889,-0.21099308,-2.2030835,-0.09105809,1.6437196,1.0333585,0.04,0.04,-0.004811901532431051,0.0014086017245118487,0.004949056497616233,0.13752476767460628,-0.0514818781707931,0.01930779344827934,0.993969943018929,0.10159897826704925,0.034353075551603725,0.0228312546782774
1429.5999999990286,0.21759593,-0.6432627,-0.2133006,-2.2014093,-0.09205354,1.6445146,1.0360609,0.04,0.04,-0.007010824814290828,0.0010647200838112547,0.004376937153716121,0.1377981889123724,-0.05139672188974523,0.019065835851398434,0.9938313734786286,0.1028057810427092,0.034664588937478896,0.022989970586686295
1429.6166666656952,0.21994649,-0.6417358,-0.21560946,-2.1997342,-0.09304952,1.6453099,1.038765,0.04,0.04,-0.00592159896637412,0.001130997661674682,0.0039025345824894586,0.1380521411185275,-0.051311427167295476,0.018820066945036094,0.9936910185153842,0.10401500079618407,0.034975446798151885,0.02314643498463448
1429.6333333323619,0.22229809,-0.6402081,-0.21791938,-2.198059,-0.09404594,1.6461055,1.04147,0.04,0.04,-0.00768904237600232,0.0006919958385309677,0.003437861640365192,0.13828686452445066,-0.05122359886659009,0.01856998703237548,0.9935489259014137,0.10522632661807646,0.03528511089208998,0.023300493040826917
1429.6499999990285,0.22465034,-0.63868016,-0.22023003,-2.1963828,-0.09504263,1.6469012,1.0441759,0.04,0.04,-0.004945273946743711,0.0009008577167984866,0.0034817197455128124,0.13850429402903275,-0.051137513121462856,0.018317542572749083,0.9934050656000686,0.10643968754514911,0.0355943788978392,0.023452265269939085
1429.6666666656952,0.22700298,-0.63715184,-0.22254108,-2.194706,-0.096039504,1.6476971,1.0468823,0.04,0.04,-0.006159318233844857,0.0005265485627514721,0.003156620445632363,0.13870273598250366,-0.051045704486342866,0.01806053971656655,0.9932594576090505,0.10765497342398883,0.03590291801217767,0.02360163226274901
1429.6833333323618,0.22935577,-0.63562346,-0.22485228,-2.1930292,-0.09703642,1.6484929,1.0495888,0.04,0.04,-0.006558492854402687,0.00029560971809144965,0.0026172717605188467,0.1388811484190737,-0.050952025043797096,0.017799718660694186,0.993112129256804,0.10887192069862102,0.03621061796673999,0.02374857370194889
1429.6999999990285,0.23170838,-0.6340951,-0.22716337,-2.1913524,-0.09803325,1.6492888,1.0522951,0.04,0.04,-0.006385197935587783,0.0002465010498470255,0.002511496364676624,0.13904101884620268,-0.050855788966369615,0.017536140592502518,0.992963087927572,0.11009039712877923,0.03651754895404872,0.023893076230508223
1429.7166666656951,0.23406053,-0.6325669,-0.22947411,-2.1896758,-0.09902989,1.6500845,1.0550008,0.04,0.04,-0.0064400255324503775,0.0001439153539464777,0.0021066603233865777,0.1391818989288964,-0.050758276874414233,0.017268855649741573,0.9928123495029281,0.11131023180329046,0.03682369237936809,0.024035112854393137
1429.7333333323618,0.23641194,-0.6310395,-0.23178414,-2.1880007,-0.10002621,1.6508801,1.0577056,0.04,0.04,-0.007774889455847145,-0.00033160296351308904,0.0012236452828995326,0.13930345118851462,-0.05065721195154778,0.016999068636099256,0.9926599475167986,0.11253120783657003,0.037128738129179224,0.02417462851263837
1429.7499999990284,0.23876232,-0.62951255,-0.23409319,-2.1863258,-0.10102209,1.6516753,1.0604093,0.04,0.04,-0.005987847869537433,-0.00017777970817978161,0.0016460359575365402,0.13940652013656088,-0.050558015544925006,0.01672636622729292,0.9925058723833046,0.11375325041852442,0.037433084920207554,0.024311632138392568
1429.766666665695,0.24111132,-0.6279865,-0.23640102,-2.1846519,-0.10201738,1.6524702,1.0631113,0.04,0.04,-0.006586968488653255,-0.0003241643451917797,0.0009976784126841665,0.13948963749113055,-0.05045427808626905,0.016450775666067653,0.9923501527559951,0.11497612280181273,0.03773662316517629,0.02444611999285758
1429.7833333323617,0.24345876,-0.6264616,-0.2387074,-2.1829786,-0.10301198,1.6532645,1.0658115,0.04,0.04,-0.005768246400528199,-0.0004166073927835967,0.0006753868646347527,0.139553715632241,-0.05034956762454686,0.016172895508855617,0.9921927867520707,0.11619975751541362,0.03803953138948631,0.024578126905592017
1429.7999999990284,0.24580428,-0.6249377,-0.24101183,-2.1813073,-0.1040058,1.6540582,1.0685096,0.04,0.04,-0.007982710312370855,-0.00103493197810417,0.00024364347599448166,0.13959771082295638,-0.05024121042186663,0.015891333964797943,0.9920338355649951,0.11742387346523689,0.038341183823553615,0.02470742110444916
1429.816666665695,0.24814762,-0.6234152,-0.2433142,-2.1796377,-0.10499869,1.654851,1.0712053,0.04,0.04,-0.007078495671208884,-0.000872171839924607,-0.0002489863159649275,0.13962256627791653,-0.050133269402394515,0.0156083379353011,0.9918732962200617,0.11864842011147952,0.038641745797115115,0.02483409213864201
1429.8333333323617,0.25048843,-0.62189436,-0.24561422,-2.1779697,-0.10599052,1.6556427,1.073898,0.04,0.04,-0.006479175769102952,-0.0009210183950877915,-0.0005627937993635257,0.13962732226183755,-0.05002635352518451,0.01532285060254785,0.9917111911878224,0.11987312993746442,0.038941437543419395,0.024958173688754685
1429.8499999990283,0.25282645,-0.6203753,-0.24791157,-2.1763039,-0.10698119,1.656434,1.0765874,0.04,0.04,-0.006998000399960347,-0.0012131685044172724,-0.0004943844683635845,0.13961196312988344,-0.04991626146494337,0.015035790731496482,0.9915475384031323,0.12109784962701668,0.03924030948987416,0.02507963344110697
1429.866666665695,0.2551615,-0.61885846,-0.250206,-2.1746404,-0.10797054,1.6572242,1.0792736,0.04,0.04,-0.006853942646634081,-0.0014548997709709632,-0.0015226665582401822,0.1395773506868835,-0.04980531682288486,0.014746999817287318,0.9913823603834415,0.12232245803480321,0.03953818479424437,0.025198486542964485
1429.8833333323616,0.2574932,-0.6173438,-0.25249717,-2.1729786,-0.10895848,1.658013,1.0819559,0.04,0.04,-0.005660348720537556,-0.0013853682740733175,-0.0013085562615477997,0.13952259901359995,-0.049692072786319985,0.014455491428484492,0.9912156678741639,0.12354678995991951,0.0398353546741308,0.02531471843337291
1429.8999999990283,0.25982124,-0.61583126,-0.25478488,-2.17132,-0.10994487,1.6588006,1.084634,0.04,0.04,-0.007988952068682664,-0.0017070042506756034,-0.0019130056191141165,0.13944769024923662,-0.04957534496659802,0.014162215703429744,0.9910475228862692,0.12477058117595993,0.04013122214814514,0.025428221780127463
1429.916666665695,0.26214534,-0.6143214,-0.2570688,-2.1696641,-0.11092961,1.659587,1.0873076,0.04,0.04,-0.0067219631660897505,-0.001783729270500578,-0.002236464702631835,0.13935292924017675,-0.049461282402879524,0.013868889383085295,0.9908779187588848,0.12599375937673252,0.040426204537660694,0.025539081832716675
1429.9333333323616,0.26446527,-0.61281425,-0.2593487,-2.168011,-0.11191257,1.6603719,1.0899763,0.04,0.04,-0.006299647322194346,-0.0019042101952998491,-0.002463110579697947,0.13923823448018816,-0.049344117643233876,0.013572776112666073,0.990706890295321,0.12721608728155778,0.040720291602563644,0.025647271003917758
1429.9499999990283,0.26678073,-0.61130995,-0.2616242,-2.166361,-0.11289364,1.6611553,1.0926399,0.04,0.04,-0.007108907698105682,-0.002238516618019437,-0.0028795842964113305,0.13910293189693587,-0.04922499740805593,0.013276024023035883,0.9905344713533031,0.12843739325514922,0.04101332865101106,0.025752746409242955
1429.966666665695,0.26909143,-0.60980874,-0.2638951,-2.164714,-0.11387269,1.6619374,1.095298,0.04,0.04,-0.0058345881434274105,-0.0020995394459488725,-0.0029126533916734587,0.1389489470318391,-0.04910495646836921,0.012979023385861627,0.9903606626008238,0.12965756834380948,0.041305700429075325,0.025855600091492806
1429.9833333323616,0.27139708,-0.60831094,-0.2661611,-2.1630714,-0.11484962,1.6627175,1.0979503,0.04,0.04,-0.007968177014605615,-0.002558363786220319,-0.0041338625300868515,0.1387735795553121,-0.048979999074714814,0.012680236021377453,0.9901855410591438,0.1308763288268257,0.041596664863104676,0.02595569884417586
1429.9999999990282,0.27369747,-0.6068165,-0.26842204,-2.1614316,-0.11582426,1.6634959,1.1005967,0.04,0.04,-0.005320463528146746,-0.00235193134193179,-0.0033925146691871078,0.1385793688905535,-0.04885752284041679,0.012380929621289144,0.9900090684425693,0.13209371786860644,0.04188704396356344,0.02605320803892406
1430.0166666656949,0.27599227,-0.60532576,-0.27067733,-2.1597962,-0.11679655,1.6642722,1.1032364,0.04,0.04,-0.007645397252087349,-0.003136945465512242,-0.0047977472195093185,0.13836374584670819,-0.048730935430344985,0.012081537826344364,0.989831356989292,0.13330922999754663,0.04217606638242049,0.02614791277910344
1430.0333333323615,0.27828118,-0.60383874,-0.27292696,-2.1581655,-0.11776633,1.6650467,1.1058694,0.04,0.04,-0.007494353327519576,-0.0028936549281960433,-0.004590359784284459,0.13812951300101123,-0.04860402377368302,0.011782152717441673,0.9896524033228028,0.13452287886383998,0.04246389936150477,0.02623991064392084
1430.0499999990282,0.2805639,-0.60235554,-0.27517065,-2.1565382,-0.11873352,1.665819,1.1084954,0.04,0.04,-0.0056534645269223915,-0.0026879876233593114,-0.004599265567994948,0.13787567420294744,-0.048477495056734904,0.011481964403068874,0.9894722036776354,0.13573461675825038,0.042750938486605175,0.02632924650135746
1430.0666666656948,0.28284013,-0.6008764,-0.27740812,-2.154917,-0.11969797,1.6665891,1.1111139,0.04,0.04,-0.009383210662461394,-0.0034437492804156866,-0.005936296539532648,0.1376004604686093,-0.04834816431391067,0.011181706925907406,0.9892908644949595,0.13694409772554836,0.043036122651021295,0.026415746669690713
1430.0833333323615,0.28510964,-0.59940183,-0.279639,-2.1532996,-0.12065959,1.6673571,1.113725,0.04,0.04,-0.004698335888742022,-0.003071647883245987,-0.005370413096628113,0.13730603613984108,-0.04822462819151827,0.010882332650484744,0.9891083216600217,0.13815135784016205,0.04332085506081322,0.026499695594752626
1430.0999999990281,0.28737223,-0.5979317,-0.28186315,-2.151687,-0.12161826,1.6681229,1.1163276,0.04,0.04,-0.00646794168983611,-0.003415623531510814,-0.005728746179234356,0.13699068287726254,-0.04809378063440008,0.010582711771774805,0.9889246749838866,0.13935592781678602,0.04360463200993696,0.02658098300693393
1430.1166666656948,0.28962773,-0.5964664,-0.28408018,-2.1500797,-0.12257386,1.6688861,1.1189222,0.04,0.04,-0.007075493196539995,-0.003951530187237817,-0.006755866054986015,0.136656264068373,-0.04796037535433164,0.01028379939737805,0.9887399541000897,0.1405577763107086,0.04388713866291662,0.026659590107936632
1430.1333333323614,0.29187566,-0.595006,-0.2862899,-2.148478,-0.12352623,1.6696465,1.121508,0.04,0.04,-0.007056871379651497,-0.0036900773597248193,-0.006909575286728753,0.13630247373004742,-0.04782751903597466,0.00998477463648529,0.9885542028421536,0.1417566880860093,0.04416833250666867,0.02673551625797598
1430.149999999028,0.29411584,-0.59355044,-0.28849205,-2.1468813,-0.12447534,1.6704047,1.124085,0.04,0.04,-0.005792846697527665,-0.0037707030386080476,-0.006475231604108345,0.1359288609519516,-0.047694043452544084,0.009686719290309911,0.9883674089096399,0.1429526479246399,0.04444875545661248,0.026808834270380895
1430.1666666656947,0.2963479,-0.5921001,-0.29068634,-2.145291,-0.12542103,1.6711596,1.1266524,0.04,0.04,-0.008091138750598859,-0.004094658740946833,-0.008054836283766242,0.13553499951086045,-0.04755696232497574,0.009389762471068479,0.9881796921772534,0.14414524413794794,0.044727434672383534,0.026879381475541846
1430.1833333323614,0.2985716,-0.5906552,-0.2928725,-2.1437063,-0.12636322,1.6719121,1.1292105,0.04,0.04,-0.0055819066157258845,-0.004007804564321038,-0.007410517400519012,0.13512286561536596,-0.047424722303010966,0.009093964672564757,0.9879909930618018,0.14533462658363785,0.04500535870284298,0.0269473863774874
1430.199999999028,0.30078664,-0.58921605,-0.2950503,-2.1421282,-0.12730172,1.6726615,1.1317586,0.04,0.04,-0.007379696275666703,-0.004297286728285887,-0.008500402417954689,0.13468970095260444,-0.04728638206188737,0.008798653503610962,0.9878014154497748,0.14652039562945948,0.04528186312398142,0.027012777939873417
1430.2166666656947,0.30299282,-0.5877826,-0.29721943,-2.1405559,-0.1282365,1.6734082,1.1342964,0.04,0.04,-0.005473261117927564,-0.004262989652631388,-0.008087320141170196,0.13423728149788616,-0.047150085590939576,0.00850485778488131,0.9876109598597744,0.14770245308991012,0.045557527102926286,0.027075617081496688
1430.2333333323613,0.30519,-0.5863551,-0.2993796,-2.1389902,-0.12916742,1.6741512,1.136824,0.04,0.04,-0.006997585743651058,-0.004862099248514884,-0.009181761377208275,0.13376542731188684,-0.047009710090431284,0.00821208187677356,0.987419699159593,0.14888064016322536,0.04583165966876058,0.027135800488911774
1430.249999999028,0.30737782,-0.5849336,-0.3015307,-2.1374311,-0.1300944,1.6748918,1.1393405,0.04,0.04,-0.006252658869065897,-0.004574990294328729,-0.008506556160270407,0.13327413145036018,-0.04687029448383646,0.007922051398301953,0.9872276567345005,0.15005466550523197,0.04610493443409574,0.027193494800186045
1430.2666666656946,0.30955598,-0.58351827,-0.3036724,-2.135879,-0.13101724,1.6756289,1.1418461,0.04,0.04,-0.006699984903280054,-0.0047951354321729145,-0.009660084086049459,0.13276420906444403,-0.04672702947475943,0.007632995583079928,0.9870348737275625,0.15122455176347763,0.0463767727739895,0.027248631830236555
1430.2833333323613,0.3117243,-0.58210933,-0.3058044,-2.134334,-0.13193585,1.6763624,1.14434,0.04,0.04,-0.006683056622502903,-0.005162103944100771,-0.009949260876163102,0.13223455746680832,-0.04658401502963643,0.007345636876268172,0.986841424579296,0.1523899134353034,0.04664719458451352,0.027301213432390253
1430.299999999028,0.31388247,-0.580707,-0.30792654,-2.1327963,-0.1328502,1.6770927,1.1468225,0.04,0.04,-0.006085916178610873,-0.00491677337581542,-0.009938541313925242,0.1316879254118177,-0.046442328417078654,0.007060505256618714,0.9866472973040694,0.15355082481306687,0.04691651763139659,0.027351330774663587
1430.3166666656946,0.31603023,-0.57931155,-0.31003842,-2.1312659,-0.13376015,1.6778195,1.1492933,0.04,0.04,-0.006061034417959021,-0.005291611051838618,-0.010444873040271752,0.13112108448191595,-0.046298014390512406,0.0067776406111986695,0.9864525256919076,0.15470719757379295,0.047184666840930124,0.027398992500282205
1430.3333333323612,0.31816736,-0.5779228,-0.31214,-2.1297429,-0.13466556,1.6785426,1.1517518,0.04,0.04,-0.006193507501661699,-0.00517670513418278,-0.010615028251392822,0.1305332302485221,-0.04615101858916669,0.006496480640694163,0.9862571871569663,0.15585869102339436,0.04745149598801616,0.027444211451639094
1430.349999999028,0.32029358,-0.5765412,-0.3142309,-2.128228,-0.1355664,1.679262,1.1541978,0.04,0.04,-0.006763073348947657,-0.005499584050611128,-0.01123237146753997,0.12992781846489096,-0.04600337251804394,0.006217609769458503,0.9860613223800846,0.1570052083150611,0.04771687607855916,0.027486957003029805
1430.3666666656945,0.32240865,-0.57516694,-0.316311,-2.1267211,-0.13646251,1.6799777,1.1566311,0.04,0.04,-0.006277421262401717,-0.00538898338695859,-0.011590509518755177,0.129303445874204,-0.04585542203278218,0.005941182400837061,0.9858649631802721,0.1581466166559484,0.047980903414374,0.02752734860784458
1430.3833333323612,0.3245124,-0.57379997,-0.3183799,-2.1252222,-0.13735376,1.6806893,1.1590511,0.04,0.04,-0.005831588784266373,-0.0058425674423739915,-0.01156678094444974,0.1286593905910358,-0.045707367257168216,0.0056684910291048135,0.9856681887653589,0.15928252807346982,0.04824364194958802,0.02756535720757351
1430.3999999990278,0.3266045,-0.57244045,-0.32043737,-2.1237311,-0.13824014,1.6813972,1.1614579,0.04,0.04,-0.0053735108466845816,-0.005723648158303951,-0.011685374035397267,0.12799859548678913,-0.045557615044994955,0.005398363158675715,0.9854709843573789,0.16041309540384477,0.048505271227432305,0.027601023093516655
1430.4166666656945,0.3286848,-0.5710886,-0.32248342,-2.1222484,-0.13912146,1.6821011,1.1638508,0.04,0.04,-0.005847730762820191,-0.005723649779906803,-0.012191254782889516,0.12731919114438767,-0.04540564212462134,0.0051302365246725865,0.9852734397521501,0.16153792448768362,0.048765611545910505,0.027634453165044606
1430.4333333323611,0.3307529,-0.56974477,-0.32451758,-2.1207743,-0.13999763,1.6828009,1.1662298,0.04,0.04,-0.005711094268701089,-0.005876381459785085,-0.012761074439948672,0.1266217186692108,-0.045251150331450087,0.004866608497983184,0.9850755725051169,0.16265704835698586,0.04902462810759432,0.027665626911771955
1430.4499999990278,0.33280876,-0.56840897,-0.32653967,-2.1193104,-0.14086859,1.6834965,1.1685946,0.04,0.04,-0.00839958046636724,-0.006631529525838453,-0.0135549707240612,0.12590557777016592,-0.04509416355821609,0.004604014647810913,0.98487751748915,0.16377002679396668,0.04928157512244093,0.027694407770589773
1430.4666666656944,0.33485192,-0.56708115,-0.32854953,-2.1178544,-0.14173421,1.6841878,1.170945,0.04,0.04,-0.004200120062947121,-0.005638135027527524,-0.012693096501670276,0.12517447654435723,-0.04494161488701827,0.0043451329908894415,0.9846791832289927,0.16487716849299666,0.049537542004082995,0.027721063424937374
1430.483333332361,0.3368825,-0.56576157,-0.33054686,-2.1164072,-0.14259447,1.6848748,1.1732808,0.04,0.04,-0.00534973541705952,-0.006568285432101417,-0.01327581787122778,0.12442230974841283,-0.04478439071446988,0.004089215464360425,0.9844806864192109,0.1659780051576991,0.049792223862480285,0.027745527824474293
1430.4999999990278,0.33889988,-0.5644505,-0.33253154,-2.1149697,-0.14344922,1.6855574,1.1756016,0.04,0.04,-0.00654357292151353,-0.006105638408235303,-0.014092025184364587,0.1236543007617646,-0.0446253143356556,0.003837451490994237,0.9842820667570726,0.16707253975858088,0.05004525272989847,0.027767826674835603
1430.5166666656944,0.34090418,-0.56314814,-0.33450314,-2.113541,-0.14429829,1.6862358,1.1779069,0.04,0.04,-0.003873161481138254,-0.006724710704686387,-0.013559640089155778,0.12286770566079946,-0.044466008416086555,0.0035899412913723075,0.9840833700498041,0.16816035598205917,0.050297447259494546,0.027788167744307396
1430.533333332361,0.3428949,-0.5618545,-0.33646145,-2.1121228,-0.14514169,1.6869092,1.1801969,0.04,0.04,-0.007801143751384743,-0.0069456356242197925,-0.01516411690356545,0.12206662259576143,-0.044301013649318335,0.003345199786886889,0.9838846872882915,0.16924153174555312,0.05054740778166243,0.027806215466944454
1430.5499999990277,0.34487197,-0.56057,-0.33840638,-2.1107132,-0.14597932,1.6875781,1.1824712,0.04,0.04,-0.003086977229038723,-0.00627536878716195,-0.014283894815148024,0.12124771307333275,-0.0441404147832966,0.003104024653007409,0.983685965404199,0.17031599199309666,0.05079662223405361,0.027822428143989816
1430.5666666656944,0.34683514,-0.5592943,-0.34033775,-2.109315,-0.14681102,1.6882423,1.1847291,0.04,0.04,-0.008131613883843869,-0.007203014271139896,-0.015280533699968402,0.12041130841037165,-0.043971619886447905,0.002866062369832653,0.9834873969404894,0.17138325737940402,0.05104361547606329,0.027836459336222086
1430.583333332361,0.34878427,-0.5580278,-0.3422553,-2.1079254,-0.14763677,1.688902,1.1869713,0.04,0.04,-0.003082152193067955,-0.006635232905941035,-0.014551632779946644,0.11956069644769775,-0.04380706506189613,0.0026326540122344963,0.9832888493881862,0.1724437342770444,0.051289828751618305,0.02784870991760213
1430.5999999990277,0.350719,-0.5567707,-0.3441589,-2.106547,-0.14845642,1.6895565,1.1891974,0.04,0.04,-0.007253680883945179,-0.007040177643283241,-0.016237557808929104,0.11869140226446312,-0.04363540320389955,0.0024017267110780505,0.9830904711689721,0.1734971725420118,0.05153383575780608,0.02785893732329154
1430.6166666656943,0.3526393,-0.55552286,-0.3460482,-2.1051788,-0.14926997,1.6902063,1.1914064,0.04,0.04,-0.0048001370806183274,-0.007162263002905012,-0.01531385313477962,0.11780435312485549,-0.04346862938700274,0.002175431551618208,0.9828923367926057,0.17454300301315034,0.05177653458780623,0.027867271836335146
1430.633333332361,0.3545448,-0.5542847,-0.34792313,-2.1038208,-0.15007725,1.6908512,1.1935983,0.04,0.04,-0.0047005420368062545,-0.006946136906160749,-0.015902733893735643,0.11690370059992752,-0.04329716833677716,0.0019538561155931014,0.9826944483926447,0.17558135762850202,0.05201785568255122,0.027873834357640247
1430.6499999990276,0.35643533,-0.5530562,-0.3497834,-2.1024733,-0.1508782,1.6914907,1.1957729,0.04,0.04,-0.005172125820829265,-0.007210570880078482,-0.01648406478056419,0.11598681448896375,-0.04312239185820296,0.0017362985161614858,0.982496885693366,0.1766120534655965,0.05225743037203792,0.02787854272399914
1430.6666666656943,0.35831073,-0.55183756,-0.3516289,-2.1011374,-0.15167275,1.6921253,1.1979302,0.04,0.04,-0.006537978421050639,-0.007452524579504294,-0.01670261016735175,0.11505482315548522,-0.042946877433576953,0.001522937220720763,0.9822996890434462,0.1776350316795192,0.05249514622627909,0.027881464237851154
1430.683333332361,0.36017075,-0.55062884,-0.35345936,-2.099811,-0.1524608,1.6927547,1.2000701,0.04,0.04,-0.0027679553549209146,-0.006977392065296573,-0.016195579174760333,0.11410793957351933,-0.04277333566528416,0.001314305224473504,0.9821028201856942,0.17865036730597583,0.05273183715360656,0.027882793890707323
1430.6999999990276,0.36201537,-0.54943013,-0.3552746,-2.098497,-0.15324223,1.6933789,1.2021924,0.04,0.04,-0.0070591362587357764,-0.008052549284676136,-0.017424781373986953,0.11314359980742837,-0.04259063505388076,0.001109081373451986,0.9819064463731443,0.1796576633645754,0.052966311332906774,0.027882331843483137
1430.7166666656942,0.36384442,-0.5482417,-0.35707438,-2.097193,-0.15401702,1.6939979,1.2042965,0.04,0.04,-0.0032312856742322538,-0.007547836936511176,-0.016821105103015377,0.1121651881431737,-0.042413477373641595,0.0009083507432454639,0.9817105632164166,0.18065673726298573,0.053199621667818865,0.027880344423979662
1430.7333333323609,0.36565742,-0.54706335,-0.3588587,-2.0959015,-0.15478508,1.6946111,1.206382,0.04,0.04,-0.007251315883749498,-0.007548025662520996,-0.018099173299090943,0.111173179478681,-0.04222840013366026,0.0007122417980888127,0.9815152873265041,0.1816475255265932,0.053430465060765577,0.027876560365761558
1430.7499999990275,0.36745432,-0.54589546,-0.3606273,-2.0946207,-0.15554632,1.6952193,1.2084491,0.04,0.04,-0.0034538746462864367,-0.007439649685478389,-0.017116338486755645,0.11016729862159526,-0.042049157100108085,0.0005209527940771425,0.9813205617392947,0.1826300403119237,0.05366013911282361,0.027871364403854713
1430.7666666656942,0.369235,-0.5447383,-0.36237994,-2.0933518,-0.15630072,1.6958218,1.2104977,0.04,0.04,-0.005277514703649899,-0.007864551037781164,-0.018363277938449052,0.1091466875123855,-0.04186412146301552,0.0003344184952805869,0.9811264852071813,0.18360413730837413,0.05388787936018981,0.027864623563075112
1430.7833333323608,0.37099928,-0.54359174,-0.36411646,-2.0920947,-0.15704815,1.6964186,1.2125276,0.04,0.04,-0.004821138447264062,-0.007885011927788454,-0.01816334061635061,0.10811142936333767,-0.04167739654230157,0.00015213141731774613,0.9809330914138684,0.18456972971536106,0.054113820576437086,0.02785640796389716
1430.7999999990275,0.37274694,-0.54245585,-0.36583674,-2.090849,-0.15778859,1.6970098,1.2145377,0.04,0.04,-0.004245937312941095,-0.007717060774978246,-0.018237448414648583,0.10706263579201203,-0.04149061441539255,-2.5599957797238504e-05,0.9807404927011882,0.18552632880790804,0.054338075379752,0.027846738755461987
1430.8166666656941,0.37447792,-0.541331,-0.36754066,-2.0896153,-0.15852189,1.6975954,1.2165285,0.04,0.04,-0.004849640843707093,-0.007999194794774955,-0.01873313065610116,0.10600269629370451,-0.041299487064860155,-0.00019825533460291617,0.9805486913282516,0.18647409151061922,0.05456050166596745,0.027835746580614624
1430.8333333323608,0.3761919,-0.5402172,-0.36922783,-2.0883942,-0.15924801,1.6981752,1.2185,0.04,0.04,-0.005017060568590637,-0.008253153670953473,-0.019026981821301803,0.10493066980220664,-0.04110827758514267,-0.00036632409008330313,0.9803577323397388,0.18741296084304038,0.05478099901235828,0.02782338758918564
1430.8499999990274,0.37788886,-0.5391145,-0.37089828,-2.0871847,-0.15996689,1.6987492,1.2204522,0.04,0.04,-0.003819254183312637,-0.00793442980945025,-0.018802717278365577,0.10384561144381307,-0.04091604962864422,-0.0005292209375910989,0.9801676093052923,0.18834302114293042,0.0549998152437278,0.027809789259490666
1430.866666665694,0.37956858,-0.53802294,-0.37255186,-2.0859876,-0.16067848,1.6993176,1.2223841,0.04,0.04,-0.004608595555977146,-0.008106064395793644,-0.019106679497760126,0.10274682040442432,-0.040719577076922024,-0.0006888118878801072,0.9799784554431561,0.18926375678132792,0.0552168260394603,0.027794952030765124
1430.8833333323607,0.38123086,-0.5369426,-0.3741885,-2.0848036,-0.1613827,1.6998799,1.2242962,0.04,0.04,-0.00595997288881378,-0.008134525820410743,-0.0198022201852055,0.10163706692867613,-0.040521675319162356,-0.0008428474271025242,0.9797902869130329,0.19017540742988762,0.05543145103136859,0.027778810563263694
1430.8999999990274,0.38287568,-0.5358738,-0.37580782,-2.0836318,-0.16207947,1.7004367,1.226188,0.04,0.04,-0.0034150442865588104,-0.008470283969544412,-0.019199088555166277,0.10051459625422318,-0.040325590602552745,-0.000991844404315486,0.9796031490593858,0.1910775771900974,0.05564460519358136,0.027761623888881076
1430.916666665694,0.38450277,-0.5348163,-0.3774098,-2.0824723,-0.16276877,1.7009873,1.2280599,0.04,0.04,-0.004209583106096204,-0.008133675933999496,-0.0197877079755715,0.09938220432766898,-0.04012487140203301,-0.0011367143450720825,0.9794170254211552,0.1919706557220857,0.05585577044681804,0.027743297651885306
1430.9333333323607,0.38611203,-0.5337705,-0.37899426,-2.0813255,-0.16345051,1.7015318,1.229911,0.04,0.04,-0.004181099850342207,-0.008299328195157663,-0.020079364079639284,0.09823576646871193,-0.03992170582408359,-0.001275362778505467,0.9792320543044164,0.19285406547326323,0.05606495272095981,0.02772389456016827
1430.9499999990273,0.38770342,-0.5327363,-0.38056105,-2.0801919,-0.16412461,1.7020701,1.2317414,0.04,0.04,-0.004833316738039883,-0.00870023033421874,-0.020228213719653,0.09707941984484385,-0.03971724541377547,-0.0014109439484870645,0.9790482690570411,0.19372782523406684,0.05627198674081742,0.02770343110034835
1430.966666665694,0.38927656,-0.5317139,-0.38211018,-2.0790706,-0.16479105,1.7026023,1.2335511,0.04,0.04,-0.003314731248682534,-0.007875517537639376,-0.02020130679476484,0.09591376083507053,-0.03951301787143299,-0.0015403505725755037,0.9788656405073775,0.19459209578739708,0.05647723060412961,0.027682061238968023
1430.9833333323606,0.39083156,-0.53070337,-0.3836414,-2.0779624,-0.16544975,1.7031283,1.2353399,0.04,0.04,-0.0042868285725194966,-0.008647790039412184,-0.02046290626065428,0.09473559631763707,-0.03930406668143305,-0.0016656945988243188,0.9786842765897926,0.19544654425828512,0.0566804430282609,0.027659762680264675
1430.9999999990273,0.39236814,-0.5297047,-0.38515463,-2.0768676,-0.16610073,1.7036484,1.2371074,0.04,0.04,-0.004569111020336081,-0.008399481347204363,-0.020541123447981313,0.09354865529466048,-0.039094376079234536,-0.0017861979446496257,0.9785042163171297,0.19629112710714589,0.05688157674006543,0.027636539149652993
1431.016666665694,0.39388633,-0.528718,-0.3866497,-2.0757859,-0.16674387,1.7041622,1.238854,0.04,0.04,-0.003990807698706078,-0.00871320671064213,-0.020779408166138325,0.0923516814344825,-0.038882009449192095,-0.0019014219373765448,0.9783254695889487,0.1971259228921038,0.057080626160252265,0.027612464479885863
1431.0333333323606,0.3953859,-0.52774334,-0.38812658,-2.0747173,-0.16737913,1.7046698,1.240579,0.04,0.04,-0.0037972868149882544,-0.008370947023600417,-0.02079248158548541,0.09114462204347952,-0.03866978226705196,-0.0020124372809317663,0.9781481173613732,0.19795063052354403,0.05727767227411076,0.027587617450445877
1431.0499999990272,0.3968667,-0.5267807,-0.3895851,-2.073662,-0.16800646,1.7051709,1.2422825,0.04,0.04,-0.0042329001939567235,-0.008539161146181584,-0.02117699687449459,0.08992900940256703,-0.038453612216290234,-0.0021184093297720342,0.9779721912236952,0.19876531623956262,0.05747244128523921,0.027561943799841653
1431.066666665694,0.39832878,-0.5258306,-0.39102516,-2.0726202,-0.16862588,1.7056657,1.2439642,0.04,0.04,-0.003341125718892002,-0.00860798569426724,-0.021247960612580385,0.08870446327327347,-0.0382373602065557,-0.002218917784392451,0.9777977390787229,0.19956974133202168,0.05766531353279254,0.02753563894977506
1431.0833333323606,0.39977193,-0.5248926,-0.39244664,-2.071592,-0.16923721,1.706154,1.2456243,0.04,0.04,-0.004790370515062037,-0.008820997409333953,-0.0214788856246928,0.08747275269389394,-0.0380167102139988,-0.002315813192391814,0.9776248015461577,0.20036402664058028,0.05785570114492982,0.027508581847075712
1431.0999999990272,0.4011961,-0.5239671,-0.39384943,-2.070577,-0.16984053,1.7066357,1.2472628,0.04,0.04,-0.0025297379575128787,-0.008462204364609316,-0.021324014447610118,0.08623211249650219,-0.037798878510671007,-0.0024071575848182113,0.9774533545927329,0.20114821389847756,0.05804422126205717,0.027480975582153077
1431.1166666656939,0.4026012,-0.5230539,-0.39523348,-2.0695755,-0.17043574,1.707111,1.2488793,0.04,0.04,-0.004238663843114665,-0.008853283507928578,-0.021593035522426973,0.08498227681959669,-0.03757501228425077,-0.0024944172087351356,0.9772835183942281,0.20192198804806083,0.058230423436633566,0.02745274492847085
1431.1333333323605,0.40398717,-0.52215326,-0.39659876,-2.0685883,-0.17102282,1.70758,1.2504737,0.04,0.04,-0.0042223451898859565,-0.008735819565930392,-0.021797284090885327,0.08372687223756435,-0.03735203168070893,-0.0025770267237621818,0.977115311545798,0.2026853653973999,0.05841434241140571,0.02742398944580224
1431.1499999990272,0.40535378,-0.5212651,-0.3979451,-2.0676143,-0.17160174,1.7080424,1.252046,0.04,0.04,-0.0031099511577981076,-0.008492452364139425,-0.02162372351157682,0.08246360645195386,-0.03712633730976389,-0.0026553106503402167,0.9769487453762329,0.20343835975664248,0.05859616712676798,0.027394741929490693
1431.1666666656938,0.40670106,-0.52038944,-0.3992724,-2.0666544,-0.17217246,1.7084984,1.2535957,0.04,0.04,-0.004141186169981381,-0.008928530410112767,-0.02189330270514489,0.08119325101027601,-0.03689919075565419,-0.0027291131876298856,0.9767839229995896,0.20418067788598546,0.058775642659085435,0.027364984516033055
1431.1833333323605,0.40802893,-0.51952636,-0.40058067,-2.065708,-0.17273495,1.7089477,1.2551234,0.04,0.04,-0.002847732298771888,-0.008571472411719738,-0.021815210321984857,0.07991851650362662,-0.036670282832473686,-0.002797815404449497,0.9766207875333618,0.20491263276920935,0.058953001381457384,0.027334848041009573
1431.199999999027,0.40933728,-0.518676,-0.4018697,-2.0647757,-0.17328916,1.7093903,1.2566288,0.04,0.04,-0.004247644573274201,-0.008970296285196189,-0.022325663052269462,0.07863583622213052,-0.03643828865089355,-0.002862370918505979,0.9764594366852237,0.20563400164216636,0.05912785118003633,0.02730426874751766
1431.2166666656938,0.41062614,-0.51783836,-0.40313956,-2.0638578,-0.17383507,1.7098262,1.2581111,0.04,0.04,-0.004129802306529484,-0.00896117778244332,-0.022369290814672205,0.0773477705707045,-0.0362075509219991,-0.002922481382352394,0.9762999690972186,0.206344427101001,0.05930020596402232,0.027273307789009167
1431.2333333323604,0.4118953,-0.51701325,-0.40439016,-2.0629535,-0.17437272,1.7102557,1.2595705,0.04,0.04,-0.003023683144665057,-0.00851803717748234,-0.02178735694857714,0.07605719553822339,-0.035976910656773886,-0.002977984373792271,0.9761423609247046,0.2070440340930006,0.05947043179626151,0.027242006108329855
1431.249999999027,0.4131449,-0.51620114,-0.40562153,-2.0620632,-0.174902,1.7106786,1.2610075,0.04,0.04,-0.0032842258372856037,-0.008717382753328784,-0.022454174166219865,0.07476366263357924,-0.035742067324411333,-0.003028431588351515,0.9759865887412967,0.20773308331436424,0.0596383414468462,0.02721052964026327
1431.2666666656937,0.41437465,-0.5154019,-0.40683353,-2.0611873,-0.17542292,1.7110945,1.2624221,0.04,0.04,-0.0038600850975623047,-0.008689643384302004,-0.022692167990467915,0.0734631102560788,-0.0355051194243486,-0.003075203586548045,0.9758327152492778,0.20841148296907755,0.05980367190575275,0.02717878662561701
1431.2833333323604,0.41558465,-0.5146155,-0.40802598,-2.060325,-0.17593548,1.7115039,1.2638137,0.04,0.04,-0.0024210751167874633,-0.00884200063416829,-0.022093775285081385,0.0721583485389645,-0.035270072929486425,-0.003118258920610361,0.9756807802043173,0.20907900234636112,0.05996692961162016,0.027146883259413796
1431.299999999027,0.41677478,-0.51384175,-0.40919906,-2.0594766,-0.17643964,1.7119066,1.265183,0.04,0.04,-0.0034968946454494443,-0.008545792921010875,-0.022333532507157194,0.07085113683492947,-0.03503084794826238,-0.0031567716834027433,0.9755307617358053,0.2097359658940186,0.060127739382691336,0.02711480175825864
1431.3166666656937,0.41794524,-0.51308095,-0.41035262,-2.0586421,-0.17693539,1.7123026,1.2665292,0.04,0.04,-0.0026571998609448144,-0.008970825003140614,-0.022353188573331906,0.0695373913051834,-0.03479023866406208,-0.003191486880342667,0.9753827622846654,0.2103819300222761,0.06028632067745072,0.027082653068222082
1431.3333333323603,0.41909572,-0.51233315,-0.41148677,-2.0578225,-0.17742278,1.7126917,1.2678527,0.04,0.04,-0.004363204732316106,-0.008537014370349483,-0.023019809753588305,0.0682220745813759,-0.034546474181682905,-0.0032215232351615573,0.9752367944867842,0.21101712120048188,0.06044211213450526,0.02705032939028247
1431.349999999027,0.42022637,-0.51159817,-0.4126013,-2.057017,-0.17790173,1.7130741,1.2691532,0.04,0.04,-0.003533366447427966,-0.009052724171712545,-0.022519140598054044,0.06690436348824592,-0.03430589197072471,-0.0032497372016757897,0.9750929026132389,0.21164135426055453,0.060595393296027714,0.02701789687127295
1431.3666666656936,0.42133704,-0.5108762,-0.41369626,-2.0562263,-0.17837219,1.7134497,1.270431,0.04,0.04,-0.003759102966505168,-0.008763090459848466,-0.022847801369252352,0.06558465201314051,-0.03406472761501815,-0.0032708200225624318,0.9749510867233198,0.2122547615798019,0.060746034717965317,0.026985439588102036
1431.3833333323603,0.4224279,-0.510167,-0.41477162,-2.0554497,-0.17883421,1.7138188,1.2716857,0.04,0.04,-0.0034229252100725915,-0.009013499336008035,-0.022439543007735097,0.06426267271264977,-0.03382355452240998,-0.0032892913721546714,0.9748114163630491,0.21285708181314072,0.06089419975563319,0.026952953203332755
1431.399999999027,0.42349878,-0.5094708,-0.41582742,-2.0546873,-0.17928782,1.7141813,1.2729175,0.04,0.04,-0.0027509292491956217,-0.008521445501380454,-0.022484394361366178,0.06294180326916175,-0.033582701170781507,-0.0033041721585017596,0.9746738501066656,0.21344854460245277,0.0610400547185874,0.02692055804205405
1431.4166666656936,0.42454973,-0.50878775,-0.41686356,-2.0539382,-0.17973301,1.714537,1.2741264,0.04,0.04,-0.001347468245382899,-0.008467289634164765,-0.02241974349270759,0.06161913214491546,-0.033337008412081336,-0.0033175326108819247,0.9745383918082843,0.21402913906976329,0.06118387563589625,0.026888359618055635
1431.4333333323602,0.42558077,-0.5081176,-0.41788012,-2.0532024,-0.18016976,1.7148858,1.2753124,0.04,0.04,-0.0016393182619367508,-0.00840130832055197,-0.022387573801596616,0.06029502685985069,-0.03308869178054929,-0.003323867369120298,0.9744050681197551,0.214598886674204,0.06132550769418627,0.026856343138590602
1431.4499999990269,0.42659184,-0.50746036,-0.41887712,-2.0524814,-0.18059805,1.7152278,1.2764757,0.04,0.04,-0.004172264340818188,-0.00875506982609131,-0.022887819384553865,0.058969853116172505,-0.03283565018529866,-0.003328823525019375,0.9742739507970049,0.21515776302705963,0.06146428657779433,0.02682437852159427
1431.4666666656935,0.4275831,-0.5068161,-0.41985455,-2.0517745,-0.18101792,1.7155633,1.277616,0.04,0.04,-0.0026112244342790802,-0.00872283422267972,-0.022468192438362955,0.05764447575452124,-0.03258479487067054,-0.0033304350612484712,0.9741450445188644,0.21570567842389976,0.06160071158800147,0.02679262709919614
1431.4833333323602,0.42855445,-0.5061846,-0.4208125,-2.0510817,-0.18142936,1.715892,1.2787333,0.04,0.04,-0.003036368531006417,-0.00848628556381903,-0.02250181056224765,0.05632084139101623,-0.03233253509110338,-0.0033287023713780613,0.9740183939753414,0.2162425969548181,0.061734552351531705,0.026761025875120543
1431.4999999990268,0.42950606,-0.50556594,-0.42175078,-2.0504036,-0.18183237,1.716214,1.2798281,0.04,0.04,-0.00400119565160395,-0.009194349660648915,-0.022764106985828647,0.054998264542656335,-0.03207934917794284,-0.0033227741236696064,0.9738940057244344,0.21676864852075842,0.06186557403548613,0.0267295600741747
1431.5166666656935,0.43043774,-0.50496024,-0.42266968,-2.0497398,-0.182227,1.716529,1.2808998,0.04,0.04,-0.0032466059996405505,-0.008244884370509076,-0.022809196706186086,0.05367772879010209,-0.031829372204874945,-0.0033135573143989495,0.9737719139582296,0.21728372836314638,0.06199388505706886,0.026698299389058842
1431.5333333323601,0.43134955,-0.50436735,-0.42356902,-2.0490906,-0.18261325,1.7168376,1.2819489,0.04,0.04,-0.0035454914636190438,-0.00868993923901773,-0.022489235375156014,0.0523598817842089,-0.031579439895432604,-0.003302188753699949,0.9736520952355947,0.21778800591353478,0.062119556462101135,0.02666725761105707
1431.5499999990268,0.43224174,-0.50378734,-0.424449,-2.0484557,-0.18299113,1.7171395,1.2829752,0.04,0.04,-0.0032387349718110414,-0.008682701993814601,-0.02263015671795099,0.0510435698136761,-0.03133106631651329,-0.003287789920294862,0.973534617700496,0.21828127375601375,0.06224251942181822,0.02663648704739517
1431.5666666656934,0.4331142,-0.5032202,-0.4253097,-2.0478342,-0.18336065,1.7174348,1.2839789,0.04,0.04,-0.0014697981699729468,-0.008005748346825992,-0.022084441411007738,0.04973159484221794,-0.031082977763368713,-0.0032705462655866907,0.9734193815792472,0.21876388080508696,0.062363315403872556,0.026606181853299
1431.58333333236,0.43396714,-0.50266576,-0.42615107,-2.0472267,-0.18372184,1.7177233,1.2849602,0.04,0.04,-0.0030359868814944235,-0.008629090428002861,-0.02239895491884525,0.048421699136925886,-0.030831168039675165,-0.0032529952961510185,0.9733064832036555,0.21923564790436023,0.06248141544552583,0.026576176655252807
1431.5999999990267,0.4348004,-0.5021239,-0.4269732,-2.046633,-0.18407483,1.7180053,1.285919,0.039999995,0.04,-0.002630883460685851,-0.008105934916091684,-0.022002642108476245,0.047115910739866824,-0.030581547332479538,-0.0032281886914432446,0.9731958833073229,0.2196967577982215,0.06259705750711914,0.026546482216659364
1431.6166666656934,0.4356143,-0.5015948,-0.42777622,-2.0460534,-0.1844195,1.7182807,1.286855,0.04,0.04,-0.002946283734583943,-0.008510942003234212,-0.022326053113252975,0.0458135676484812,-0.03033082613825692,-0.003205499187965394,0.97308767677528,0.22014691154020016,0.06271003629736545,0.026517201869403845
1431.63333333236,0.43640867,-0.50107837,-0.42856,-2.0454876,-0.18475592,1.7185495,1.2877688,0.04,0.04,-0.0024775249627850826,-0.008344648419880696,-0.022130943653264623,0.044517189068311556,-0.030081128080107142,-0.00317582243817212,0.9729817963853126,0.22058643436636785,0.06282051478644435,0.026488333248970968
