rsonawane2002/My_IMU/logs_2/traj_408/imu_400hz_408.csv
time,j1,j2,j3,j4,j5,j6,j7,gripper1,gripper2,imu_ax,imu_ay,imu_az,imu_gx,imu_gy,imu_gz
0.0,0.00016700293,-0.785875,4.0107683e-05,-2.3551247,9.29385e-05,1.570997,0.786,0.04,0.04,-9.523468,0.0583438202738761,0.07738071,1.3258348e-08,-0.0011641276068985,-3.566855e-07
0.0025,0.00016700194750000002,-0.7858577740000002,4.0109244799999985e-05,-2.35513919,9.294337724999994e-05,1.570996565,0.786,0.04,0.04,-9.570120999999405,0.049686038197361185,0.06713330520013049,5.8399532799425225e-08,-0.0013251612894215996,-2.0212084250196805e-07
0.005,0.00016700096500000001,-0.7858405480000005,4.011080659999996e-05,-2.35515368,9.294825449999988e-05,1.57099613,0.786,0.04,0.04,-9.616773999998811,0.041028256120846276,0.056885900400260966,1.0354071759885046e-07,-0.0014861949719446993,-4.7556185003936124e-08
0.0075,0.00016699998250000004,-0.7858233220000007,4.0112368399999944e-05,-2.35516817,9.295313174999982e-05,1.5709956950000001,0.786,0.04,0.04,-9.663426999998217,0.03237047404433137,0.04663849560039145,1.4868190239827566e-07,-0.001647228654467799,1.0700847249409578e-07
0.01,0.00016699900000000006,-0.785806096000001,4.011393019999992e-05,-2.3551826599999997,9.295800899999975e-05,1.5709952600000001,0.786,0.04,0.04,-9.710079999997625,0.023712691967816453,0.03639109080052193,1.938230871977009e-07,-0.0018082623369908984,2.6157312999212773e-07
0.0125,0.00016699801750000008,-0.7857888700000011,4.01154919999999e-05,-2.355197149999999,9.296288624999969e-05,1.570994825,0.786,0.04,0.04,-9.75673299999703,0.015054909891301538,0.026143686000652408,2.389642719971261e-07,-0.001969296019513998,4.161377874901597e-07
0.015,0.00016699703500000008,-0.7857716440000013,4.011705379999988e-05,-2.355211639999999,9.296776349999963e-05,1.57099439,0.786,0.04,0.04,-9.803385999996436,0.0063971278147866295,0.01589628120078289,2.841054567965513e-07,-0.0021303297020370975,5.707024449881915e-07
0.0175,0.0001669928260000009,-0.7857548570000014,4.011978974999957e-05,-2.355225734999999,9.297146074999988e-05,1.57099396,0.786,0.04,0.04,-9.834380350000028,0.0006235062202908184,0.008993612900018032,4.653470359616468e-07,-0.00228692799572505,5.85858442522301e-07
0.02,0.0001669821640000009,-0.7857389480000013,4.0124873999999575e-05,-2.355239039999999,9.297279799999989e-05,1.5709935400000001,0.786,0.04,0.04,-9.834057400000027,0.0006182055920366235,0.008780417600017838,9.18789403962059e-07,-0.0024346555117393193,3.221971200220614e-07
0.0225,0.0001669715020000009,-0.7857230390000014,4.0129958249999574e-05,-2.355252344999999,9.297413524999989e-05,1.57099312,0.786,0.04,0.04,-9.833734450000026,0.0006129049637824287,0.008567222300017645,1.3722317719624712e-06,-0.0025823830277535887,5.8535797521821735e-08
0.025,0.00016696084000000089,-0.7857071300000014,4.013504249999958e-05,-2.355265649999999,9.297547249999988e-05,1.5709927000000001,0.786,0.04,0.04,-9.833411500000027,0.0006076043355282339,0.008354027000017451,1.8256741399628838e-06,-0.002730110543767858,-2.0512552497841835e-07
0.0275,0.00016695017800000085,-0.7856912210000013,4.014012674999959e-05,-2.355278954999999,9.29768097499999e-05,1.57099228,0.786,0.04,0.04,-9.833088550000026,0.000602303707274039,0.008140831700017257,2.279116507963296e-06,-0.0028778380597821273,-4.687868474786579e-07
0.03,0.00016693951600000085,-0.7856753120000013,4.014521099999959e-05,-2.355292259999999,9.297814699999989e-05,1.5709918600000001,0.786,0.04,0.04,-9.832765600000027,0.0005970030790198443,0.007927636400017063,2.7325588759637082e-06,-0.0030255655757963967,-7.324481699788976e-07
0.0325,0.00016692885400000084,-0.7856594030000013,4.015029524999959e-05,-2.3553055649999988,9.29794842499999e-05,1.57099144,0.786,0.04,0.04,-9.832442650000026,0.0005917024507656495,0.00771444110001687,3.186001243964121e-06,-0.003173293091810666,-9.961094924791375e-07
0.035,0.00016690110100000283,-0.7856443450000011,4.0161645599998866e-05,-2.355318099999999,9.297600900000046e-05,1.57099101,0.786,0.04,0.0399999995,-9.83216790000002,0.0005829431582249804,0.007508567660015816,4.124411329907636e-06,-0.0033127278322247584,-1.5467951399457032e-06
0.0375,0.0001668648025000028,-0.7856297125000011,4.017612899999888e-05,-2.355330249999999,9.297012750000045e-05,1.570990575,0.786,0.04,0.03999999875,-9.83191725000002,0.0005724545335404609,0.007306355150015633,5.305305274908708e-06,-0.0034480161848372912,-2.240992949946333e-06
0.04,0.00016682850400000278,-0.7856150800000011,4.019061239999889e-05,-2.355342399999999,9.296424600000045e-05,1.5709901400000001,0.786,0.04,0.039999998,-9.83166660000002,0.0005619659088559413,0.0071041426400154485,6.486199219909783e-06,-0.0035833045374498245,-2.9351907599469645e-06
0.0425,0.00016679220550000273,-0.7856004475000011,4.020509579999891e-05,-2.355354549999999,9.295836450000044e-05,1.5709897050000001,0.786,0.04,0.03999999725,-9.83141595000002,0.0005514772841714217,0.006901930130015265,7.667093164910858e-06,-0.0037185928900623577,-3.6293885699475964e-06
0.045,0.0001667559070000027,-0.7855858150000011,4.021957919999892e-05,-2.355366699999999,9.295248300000044e-05,1.57098927,0.786,0.04,0.0399999965,-9.83116530000002,0.0005409886594869022,0.006699717620015081,8.84798710991193e-06,-0.00385388124267489,-4.3235863799482265e-06
0.0475,0.00016671960850000268,-0.7855711825000011,4.023406259999893e-05,-2.3553788499999992,9.294660150000043e-05,1.570988835,0.786,0.04,0.03999999575,-9.830914650000018,0.0005305000348023827,0.006497505110014897,1.0028881054913007e-05,-0.003989169595287423,-5.017784189948859e-06
0.05,0.00016668331000000263,-0.7855565500000011,4.024854599999894e-05,-2.355390999999999,9.294072000000043e-05,1.5709884,0.786,0.04,0.039999995,-9.830664000000018,0.0005200114101178632,0.006295292600014713,1.1209774999914081e-05,-0.004124457947899956,-5.711981999949489e-06
0.0525,0.0001665985735000061,-0.785543032000001,4.028088809999768e-05,-2.355402129999999,9.291677100000172e-05,1.5709879800000002,0.786,0.04,0.03999999575,-9.830372100000021,0.0005025641643454286,0.006132581660011691,1.3496360149835708e-05,-0.0042471449123607,-7.511218499870723e-06
0.055,0.000166513837000006,-0.785529514000001,4.031323019999771e-05,-2.3554132599999993,9.28928220000017e-05,1.57098756,0.786,0.04,0.0399999965,-9.83008020000002,0.0004851169185724877,0.005969870720011543,1.578294529983779e-05,-0.004369831876820527,-9.310454999872361e-06
0.0575,0.00016642910050000594,-0.785515996000001,4.034557229999774e-05,-2.355424389999999,9.286887300000167e-05,1.57098714,0.786,0.04,0.03999999725,-9.82978830000002,0.00046766967279954685,0.005807159780011395,1.806953044983987e-05,-0.004492518841280354,-1.1109691499873999e-05
0.06,0.00016634436400000586,-0.785502478000001,4.037791439999777e-05,-2.355435519999999,9.284492400000166e-05,1.57098672,0.786,0.04,0.039999998,-9.829496400000021,0.000450222427026606,0.005644448840011247,2.0356115599841948e-05,-0.00461520580574018,-1.2908927999875631e-05
0.0625,0.0001662596275000058,-0.785488960000001,4.04102564999978e-05,-2.3554466499999993,9.282097500000163e-05,1.5709863,0.786,0.04,0.03999999875,-9.82920450000002,0.0004327751812536651,0.005481737900011099,2.2642700749844027e-05,-0.004737892770200007,-1.4708164499877269e-05
0.065,0.0001661748910000057,-0.785475442000001,4.044259859999783e-05,-2.355457779999999,9.27970260000016e-05,1.57098588,0.786,0.04,0.0399999995,-9.82891260000002,0.0004153279354807242,0.00531902696001095,2.492928589984611e-05,-0.004860579734659833,-1.6507400999878908e-05
0.0675,0.0001660642910000108,-0.7854622535000009,4.048445414999596e-05,-2.355468539999999,9.276468080000325e-05,1.570985455,0.786,0.04,0.04,-9.828640650000017,0.0003973881597642964,0.005157325950010601,2.767342189975706e-05,-0.0049792413366884615,-1.8531763399835706e-05
0.07,0.00016590196400001063,-0.7854497240000009,4.0545336599996017e-05,-2.3554785599999994,9.271554320000322e-05,1.57098502,0.786,0.04,0.04,-9.828408600000015,0.0003784633241605992,0.004997644800010456,3.1332659599760395e-05,-0.005089852213852278,-2.1006377599837962e-05
0.0725,0.0001657396370000105,-0.7854371945000008,4.060621904999607e-05,-2.3554885799999994,9.266640560000317e-05,1.570984585,0.786,0.04,0.04,-9.828176550000014,0.0003595384885569021,0.004837963650010312,3.4991897299763704e-05,-0.005200463091016093,-2.3480991799840198e-05
0.075,0.00016557731000001034,-0.7854246650000009,4.066710149999612e-05,-2.3554985999999993,9.261726800000313e-05,1.5709841500000001,0.786,0.04,0.04,-9.827944500000015,0.0003406136529532048,0.004678282500010166,3.8651134999767034e-05,-0.005311073968179908,-2.5955605999842454e-05
0.0775,0.0001654149830000102,-0.7854121355000008,4.072798394999618e-05,-2.3555086199999993,9.256813040000308e-05,1.5709837150000001,0.786,0.04,0.04,-9.827712450000014,0.0003216888173495076,0.004518601350010021,4.231037269977037e-05,-0.005421684845343723,-2.8430220199844707e-05
0.08,0.00016525265600001005,-0.7853996060000008,4.078886639999623e-05,-2.3555186399999997,9.251899280000304e-05,1.57098328,0.786,0.04,0.04,-9.827480400000015,0.0003027639817458104,0.0043589202000098755,4.59696103997737e-05,-0.0055322957225075395,-3.090483439984696e-05
0.0825,0.00016509032900000991,-0.7853870765000007,4.084974884999629e-05,-2.3555286599999996,9.246985520000299e-05,1.570982845,0.786,0.04,0.04,-9.827248350000014,0.00028383914614211315,0.00419923905000973,4.962884809977703e-05,-0.005642906599671356,-3.337944859984921e-05
0.085,0.0001648531780000165,-0.7853751500000007,4.0938168899993865e-05,-2.3555382199999997,9.239620840000515e-05,1.57098241,0.786,0.04,0.04,-9.826993500000016,0.00026112470659574714,0.004058196850007907,5.436223359968365e-05,-0.00574552752076987,-3.669932159977536e-05
0.08750000000000001,0.00016457861500001624,-0.7853635250000007,4.1040357749993956e-05,-2.35554755,9.231030700000508e-05,1.570981975,0.786,0.04,0.04,-9.826727250000015,0.00023651546507752973,0.003926474125007786,5.9632692999688444e-05,-0.005844153463834645,-4.044182399977877e-05
0.09,0.000164304052000016,-0.7853519000000007,4.1142546599994054e-05,-2.3555568799999995,9.2224405600005e-05,1.57098154,0.786,0.04,0.04,-9.826461000000016,0.00021190622355931246,0.0037947514000076675,6.49031523996932e-05,-0.005942779406899419,-4.418432639978216e-05
0.0925,0.00016402948900001574,-0.7853402750000007,4.1244735449994145e-05,-2.3555662099999997,9.213850420000493e-05,1.570981105,0.786,0.04,0.04,-9.826194750000015,0.00018729698204109505,0.0036630286750075477,7.017361179969801e-05,-0.006041405349964194,-4.792682879978556e-05
0.095,0.0001637549260000155,-0.7853286500000007,4.1346924299994236e-05,-2.35557554,9.205260280000484e-05,1.57098067,0.786,0.04,0.04,-9.825928500000014,0.00016268774052287767,0.003531305950007428,7.544407119970281e-05,-0.006140031293028969,-5.166933119978897e-05
0.0975,0.00016348036300001525,-0.7853170250000007,4.1449113149994334e-05,-2.3555848699999995,9.196670140000476e-05,1.570980235,0.786,0.04,0.04,-9.825662250000015,0.00013807849900466027,0.0033995832250073078,8.07145305997076e-05,-0.006238657236093743,-5.541183359979237e-05
0.1,0.000163205800000015,-0.7853054000000007,4.1551301999994425e-05,-2.3555941999999996,9.188080000000469e-05,1.5709798,0.786,0.04,0.04,-9.825396000000014,0.00011346925748644286,0.003267860500007188,8.59849899997124e-05,-0.006337283179158518,-5.9154335999795786e-05
0.10250000000000001,0.0001627792855000229,-0.7852945610000006,4.1709357149991524e-05,-2.3556028549999994,9.174533950000726e-05,1.570979365,0.786,0.04,0.04,-9.82521960000001,8.433780458444614e-05,0.0031408115200068174,9.316345149961482e-05,-0.006425678171212667,-6.423616859972733e-05
0.105,0.0001623527710000225,-0.7852837220000006,4.1867412299991664e-05,-2.3556115099999997,9.160987900000715e-05,1.5709789299999999,0.786,0.04,0.04,-9.825043200000009,5.520635168220281e-05,0.0030137625400067022,0.00010034191299962132,-0.006514073163266257,-6.931800119973193e-05
0.1075,0.00016192625650002213,-0.7852728830000005,4.2025467449991805e-05,-2.3556201649999995,9.147441850000703e-05,1.570978495,0.786,0.04,0.04,-9.82486680000001,2.607489877995932e-05,0.0028867135600065866,0.00010752037449962784,-0.0066024681553198475,-7.439983379973655e-05
0.11,0.00016149974200002173,-0.7852620440000005,4.2183522599991946e-05,-2.3556288199999993,9.13389580000069e-05,1.57097806,0.786,0.04,0.04,-9.824690400000009,-3.0565541222841557e-06,0.002759664580006471,0.00011469883599963439,-0.006690863147373438,-7.948166639974117e-05
0.1125,0.00016107322750002134,-0.7852512050000006,4.2341577749992094e-05,-2.3556374749999995,9.120349750000678e-05,1.570977625,0.786,0.04,0.04,-9.82451400000001,-3.218800702452766e-05,0.002632615600006355,0.00012187729749964091,-0.006779258139427029,-8.45634989997458e-05
0.115,0.00016064671300002094,-0.7852403660000006,4.2499632899992235e-05,-2.3556461299999993,9.106803700000666e-05,1.57097719,0.786,0.04,0.04,-9.824337600000009,-6.131945992677115e-05,0.0025055666200062394,0.00012905575899964746,-0.006867653131480619,-8.964533159975042e-05
0.11750000000000001,0.00016015482300003002,-0.7852297530000005,4.268171994998891e-05,-2.3556544349999995,9.09113540000096e-05,1.57097675,0.786,0.04,0.04,-9.82415260000001,-9.122421033528483e-05,0.0023862033350050124,0.00013693396999955282,-0.006952691287729815,-9.522386099968323e-05
0.12,0.00015953218200002946,-0.7852195920000005,4.291187079998911e-05,-2.3556620399999995,9.071222600000942e-05,1.5709763,0.786,0.04,0.04,-9.82395040000001,-0.00012267555575667632,0.002282211440004918,0.0001462116799995612,-0.007031015772368756,-0.00010179578399968918
0.1225,0.0001589095410000289,-0.7852094310000005,4.3142021649989325e-05,-2.3556696449999994,9.051309800000924e-05,1.57097585,0.786,0.04,0.04,-9.82374820000001,-0.000154126901178068,0.0021782195450048237,0.00015548938999956964,-0.007109340257007697,-0.00010836770699969516
0.125,0.00015828690000002833,-0.7851992700000004,4.337217249998953e-05,-2.3556772499999994,9.031397000000905e-05,1.5709754,0.786,0.04,0.04,-9.82354600000001,-0.00018557824659945965,0.002074227650004729,0.00016476709999957808,-0.007187664741646638,-0.00011493962999970113
0.1275,0.00015766425900002776,-0.7851891090000005,4.360232334998974e-05,-2.3556848549999994,9.011484200000887e-05,1.57097495,0.786,0.04,0.04,-9.823343800000009,-0.00021702959202085133,0.001970235755004634,0.00017404480999958654,-0.00726598922628558,-0.00012151155299970713
0.13,0.00015704161800002717,-0.7851789480000004,4.3832474199989954e-05,-2.3556924599999993,8.991571400000869e-05,1.5709745,0.786,0.04,0.04,-9.823141600000008,-0.000248480937442243,0.0018662438600045397,0.00018332251999959498,-0.007344313710924521,-0.0001280834759997131
0.1325,0.0001564189770000266,-0.7851687870000005,4.4062625049990166e-05,-2.3557000649999997,8.971658600000851e-05,1.57097405,0.786,0.04,0.04,-9.822939400000008,-0.00027993228286363463,0.0017622519650044451,0.00019260022999960342,-0.007422638195563463,-0.00013465539899971908
0.135,0.00015563348400003628,-0.7851590100000004,4.435263239998662e-05,-2.3557073699999997,8.946464760001164e-05,1.57097358,0.786,0.04,0.04,-9.822725600000009,-0.0003154937585333664,0.0016577349200043831,0.0002034186869995152,-0.007493002945554433,-0.00014231010299965713
0.1375,0.00015476656500003547,-0.7851494250000004,4.467256799998691e-05,-2.355714525,8.918630400001139e-05,1.5709731,0.786,0.04,0.04,-9.82250600000001,-0.00035311029932766065,0.0015529553000042879,0.00021500751749952576,-0.007559387828220659,-0.00015050619749966458
0.14,0.0001538996460000347,-0.7851398400000004,4.49925035999872e-05,-2.35572168,8.890796040001114e-05,1.57097262,0.786,0.04,0.04,-9.822286400000008,-0.0003907268401219549,0.0014481756800041924,0.0002265963479995363,-0.0076257727108868835,-0.00015870229199967204
0.14250000000000002,0.0001530327270000339,-0.7851302550000003,4.531243919998749e-05,-2.355728835,8.862961680001088e-05,1.57097214,0.786,0.04,0.04,-9.822066800000009,-0.00042834338091624915,0.0013433960600040971,0.00023818517849954685,-0.007692157593553109,-0.0001668983864996795
0.145,0.00015216580800003312,-0.7851206700000004,4.563237479998778e-05,-2.3557359899999994,8.835127320001064e-05,1.5709716599999999,0.786,0.04,0.04,-9.821847200000008,-0.0004659599217105429,0.001238616440004003,0.00024977400899955725,-0.007758542476219333,-0.00017509448099968687
0.1475,0.00015129888900003232,-0.7851110850000004,4.595231039998807e-05,-2.3557431449999995,8.807292960001038e-05,1.57097118,0.786,0.04,0.04,-9.821627600000008,-0.0005035764625048372,0.0011338368200039075,0.00026136283949956785,-0.007824927358885559,-0.00018329057549969436
0.15,0.00015043197000003155,-0.7851015000000003,4.627224599998836e-05,-2.3557502999999995,8.779458600001012e-05,1.5709707,0.786,0.04,0.04,-9.821408000000007,-0.0005411930032991314,0.001029057200003812,0.0002729516699995784,-0.007891312241551785,-0.0001914866699997018
0.1525,0.0001492690935000571,-0.7850923650000005,4.670091359997894e-05,-2.3557567349999995,8.742030510001838e-05,1.57096983,0.786,0.04,0.04,-9.821256050000008,-0.0005796709156109952,0.0009445512710041504,0.0002870429504993079,-0.007949106022712666,-0.00020142227249951203
0.155,0.00014810621700007192,-0.7850832300000006,4.7129581199973486e-05,-2.3557631699999995,8.704602420002315e-05,1.57096896,0.786,0.04,0.04,-9.821104100000008,-0.0006181488279228903,0.0008600453420052264,0.0003011342309991285,-0.008006899803873235,-0.00021135787499938552
0.1575,0.00014694334050008672,-0.7850740950000007,4.755824879996803e-05,-2.3557696049999994,8.667174330002792e-05,1.57096809,0.786,0.04,0.04,-9.82095215000001,-0.0006566267402347854,0.0007755394130063023,0.0003152255114989491,-0.008064693585033806,-0.00022129347749925903
0.16,0.00014578046400010153,-0.7850649600000008,4.798691639996257e-05,-2.3557760399999994,8.629746240003267e-05,1.5709672200000002,0.786,0.04,0.04,-9.820800200000013,-0.0006951046525466805,0.0006910334840073782,0.0003293167919987697,-0.008122487366194375,-0.00023122907999913254
0.1625,0.00014461758750011633,-0.7850558250000009,4.8415583999957114e-05,-2.3557824749999994,8.592318150003744e-05,1.5709663500000002,0.786,0.04,0.04,-9.820648250000016,-0.0007335825648585756,0.0006065275550084542,0.00034340807249859026,-0.008180281147354944,-0.00024116468249900602
0.165,0.00014345471100013114,-0.785046690000001,4.8844251599951656e-05,-2.3557889099999993,8.55489006000422e-05,1.5709654800000001,0.786,0.04,0.04,-9.820496300000016,-0.0007720604771704706,0.0005220216260095301,0.00035749935299841083,-0.008238074928515512,-0.0002511002849988795
0.1675,0.0001421749250001762,-0.785037670000001,4.93158672499351e-05,-2.355795074999999,8.51367378000568e-05,1.5709645700000001,0.786,0.04,0.04,-9.820342450000018,-0.000813106042909644,0.0004397755628590482,0.0003724556614980575,-0.008293050434434552,-0.0002616504804986287
0.17,0.00014066132000015418,-0.7850288800000008,4.987337899994321e-05,-2.355800699999999,8.46488112000497e-05,1.5709635800000001,0.786,0.04,0.04,-9.820184800000016,-0.0008592869155061761,0.00036204923140791706,0.00038914202599830034,-0.008342389389867455,-0.0002734298619988002
0.17250000000000001,0.00013914771500013215,-0.7850200900000007,5.043089074995133e-05,-2.355806324999999,8.41608846000426e-05,1.5709625900000002,0.786,0.04,0.04,-9.820027150000014,-0.0009054677881027082,0.00028432289995678595,0.0004058283904985432,-0.008391728345300357,-0.0002852092434989716
0.17500000000000002,0.00013763411000011013,-0.7850113000000006,5.098840249995944e-05,-2.3558119499999997,8.36729580000355e-05,1.5709616000000002,0.786,0.04,0.04,-9.81986950000001,-0.0009516486606992401,0.0002065965685056548,0.000422514754998786,-0.008441067300733261,-0.000296988624999143
0.1775,0.0001361205050000881,-0.7850025100000004,5.154591424996755e-05,-2.3558175749999997,8.318503140002841e-05,1.5709606100000002,0.786,0.04,0.04,-9.819711850000008,-0.0009978295332957717,0.0001288702370545245,0.0004392011194990287,-0.008490406256166164,-0.00030876800649931433
0.18,0.00013460690000006607,-0.7849937200000003,5.2103425999975664e-05,-2.3558231999999997,8.26971048000213e-05,1.57095962,0.786,0.04,0.04,-9.819554200000006,-0.0010440104058923039,5.114390560339335e-05,0.0004558874839992715,-0.008539745211599066,-0.00032054738799948575
0.1825,0.00013309329500004404,-0.7849849300000002,5.266093774998377e-05,-2.3558288249999997,8.22091782000142e-05,1.57095863,0.786,0.04,0.04,-9.819396550000004,-0.0010901912784888358,-2.6582425847737753e-05,0.00047257384849951436,-0.008589084167031968,-0.00033232676949965717
0.185,0.00013130754200004545,-0.7849763200000002,5.331842299998327e-05,-2.3558341499999997,8.16320344000147e-05,1.5709576,0.78600019,0.0399999995,0.04,-9.819219700000003,-0.0011362623190495818,-0.0001025057426982259,0.0004911495829995384,-0.008631946425883993,-0.00034547665299967283
0.1875,0.0001293857150000437,-0.7849678000000001,5.402589499998391e-05,-2.355839325,8.101028200001415e-05,1.57095655,0.786000475,0.03999999875,0.04,-9.819033250000004,-0.0011822784435924288,-0.00017752755224829418,0.0005106700024995562,-0.008671570336445224,-0.00035931178749968543
0.19,0.00012746388800004196,-0.7849592800000001,5.473336699998456e-05,-2.3558445,8.038852960001357e-05,1.5709555,0.7860007600000001,0.039999998,0.04,-9.818846800000003,-0.0012282945681352756,-0.00025254936179836245,0.0005301904219995739,-0.008711194247006455,-0.00037314692199969803
0.1925,0.0001255420610000402,-0.7849507600000002,5.544083899998521e-05,-2.355849675,7.9766777200013e-05,1.57095445,0.786001045,0.03999999725,0.04,-9.818660350000004,-0.0012743106926781226,-0.00032757117134843075,0.0005497108414995917,-0.008750818157567687,-0.00038698205649971063
0.195,0.00012362023400003843,-0.7849422400000001,5.614831099998585e-05,-2.35585485,7.914502480001244e-05,1.5709534,0.78600133,0.0399999965,0.04,-9.818473900000004,-0.0013203268172209694,-0.00040259298089849905,0.0005692312609996094,-0.008790442068128918,-0.00040081719099972323
0.1975,0.0001216984070000367,-0.7849337200000002,5.6855782999986494e-05,-2.355860025,7.852327240001187e-05,1.57095235,0.786001615,0.03999999575,0.04,-9.818287450000003,-0.0013663429417638162,-0.00047761479044856734,0.0005887516804996272,-0.00883006597869015,-0.00041465232549973583
0.2,0.00011977658000003495,-0.7849252000000001,5.7563254999987134e-05,-2.3558652,7.79015200000113e-05,1.5709513,0.7860019,0.039999995,0.04,-9.818101000000004,-0.0014123590663066633,-0.0005526365999986356,0.000608272099999645,-0.008869689889251381,-0.00042848745999974844
0.2025,0.00011738663300004129,-0.7849168450000001,5.844261214998481e-05,-2.3558695650000003,7.712814700001336e-05,1.570950025,0.7860021850000001,0.039999994250000004,0.0399999985,-9.817976500000002,-0.0014647788600986595,-0.000627192734998712,0.0006293309599996362,-0.008900544373317942,-0.00044407411599973074
0.20500000000000002,0.00011499668600003912,-0.7849084900000002,5.932196929998561e-05,-2.35587393,7.635477400001265e-05,1.57094875,0.78600247,0.039999993500000004,0.039999997,-9.817852000000002,-0.0015171986538907722,-0.0007017488699987799,0.0006503898199996553,-0.008931398857384346,-0.0004596607719997449
0.20750000000000002,0.00011260673900003693,-0.7849001350000001,6.0201326449986416e-05,-2.355878295,7.558140100001194e-05,1.570947475,0.786002755,0.039999992750000005,0.0399999955,-9.817727500000002,-0.001569618447682885,-0.0007763050049988477,0.0006714486799996746,-0.00896225334145075,-0.0004752474279997591
0.21,0.00011021679200003479,-0.7848917800000001,6.108068359998721e-05,-2.3558826600000002,7.480802800001125e-05,1.5709462,0.78600304,0.039999992,0.039999994,-9.817603000000002,-0.001622038241474997,-0.0008508611399989149,0.0006925075399996935,-0.008993107825517151,-0.0004908340839997732
0.2125,0.00010782684500003261,-0.7848834250000001,6.1960040749988e-05,-2.355887025,7.403465500001056e-05,1.570944925,0.786003325,0.03999999125,0.0399999925,-9.817478500000002,-0.0016744580352671097,-0.0009254172749989827,0.0007135663999997126,-0.009023962309583555,-0.0005064207399997873
0.215,0.00010543689800003044,-0.7848750700000001,6.283939789998881e-05,-2.35589139,7.326128200000985e-05,1.57094365,0.7860036100000001,0.0399999905,0.039999991,-9.817354000000002,-0.0017268778290592225,-0.0009999734099990505,0.0007346252599997318,-0.009054816793649959,-0.0005220073959998015
0.2175,0.00010287027200003453,-0.7848667370000001,6.37836334499873e-05,-2.355895635,7.243062700001118e-05,1.570942265,0.7860038970000001,0.0399999899,0.0399999899,-9.817212650000002,-0.0017798523418598256,-0.0010710945099992402,0.0007567059899997147,-0.009082593955099295,-0.0005383309499997895
0.22,9.995028800003187e-05,-0.784858448,6.485762579998828e-05,-2.35589964,7.148540800001032e-05,1.57094066,0.786004188,0.0399999896,0.0399999896,-9.8170376,-0.0018339362926774697,-0.0011353455399992986,0.0007808304599997367,-0.009104216471314165,-0.0005561282999998057
0.2225,9.703030400002921e-05,-0.7848501590000001,6.593161814998926e-05,-2.355903645,7.054018900000946e-05,1.5709390550000002,0.786004479,0.0399999893,0.0399999893,-9.816862550000002,-0.001888020243495114,-0.0011995965699993572,0.0008049549299997587,-0.009125838987529033,-0.000573925649999822
0.225,9.411032000002655e-05,-0.78484187,6.700561049999023e-05,-2.35590765,6.95949700000086e-05,1.5709374500000002,0.78600477,0.039999989,0.039999989,-9.8166875,-0.0019421041943127582,-0.0012638475999994156,0.0008290793999997806,-0.009147461503743903,-0.0005917229999998382
0.2275,9.119033600002389e-05,-0.7848335810000001,6.807960284999121e-05,-2.355911655,6.864975100000775e-05,1.5709358450000002,0.786005061,0.0399999887,0.0399999887,-9.816512450000001,-0.0019961881451304024,-0.0013280986299994742,0.0008532038699998026,-0.009169084019958773,-0.0006095203499998544
0.23,8.827035200002123e-05,-0.7848252920000001,6.915359519999219e-05,-2.35591566,6.770453200000687e-05,1.5709342400000001,0.786005352,0.0399999884,0.0399999884,-9.8163374,-0.002050272095948047,-0.0013923496599995326,0.0008773283399998247,-0.009190706536173644,-0.0006273176999998706
0.2325,8.535036800001857e-05,-0.784817003,7.022758754999316e-05,-2.355919665,6.675931300000602e-05,1.5709326350000001,0.786005643,0.0399999881,0.0399999881,-9.81616235,-0.002104356046765691,-0.001456600689999591,0.0009014528099998466,-0.009212329052388512,-0.0006451150499998868
0.23500000000000001,8.203456720001915e-05,-0.784808696,7.144690549999296e-05,-2.3559231499999997,6.568588200000621e-05,1.5709309200000001,0.78600593,0.0399999876,0.0399999872,-9.816036949999999,-0.002161759953014218,-0.0015191967599996632,0.0009276711599998514,-0.00922943521291007,-0.0006642511799998921
0.23750000000000002,7.852085800001595e-05,-0.7848003800000001,7.273888624999413e-05,-2.3559263749999997,6.454834500000517e-05,1.57092915,0.786006215,0.039999987,0.039999986,-9.815936375,-0.0022208238369782318,-0.0015809653499997195,0.0009549364499998762,-0.009244283195584908,-0.0006840566999999101
0.24,7.50071488000128e-05,-0.784792064,7.40308669999953e-05,-2.3559296,6.341080800000415e-05,1.57092738,0.7860065,0.0399999864,0.0399999848,-9.8158358,-0.0022798877209422447,-0.001642733939999775,0.0009822017399999008,-0.009259131178259746,-0.0007038622199999279
0.2425,7.14934396000096e-05,-0.7847837480000001,7.532284774999647e-05,-2.355932825,6.227327100000311e-05,1.57092561,0.786006785,0.0399999858,0.0399999836,-9.815735225,-0.0023389516049062585,-0.0017045025299998312,0.0010094670299999255,-0.009273979160934585,-0.0007236677399999459
0.245,6.79797304000064e-05,-0.784775432,7.661482849999765e-05,-2.35593605,6.113573400000207e-05,1.57092384,0.78600707,0.039999985200000004,0.0399999824,-9.81563465,-0.0023980154888702723,-0.0017662711199998874,0.0010367323199999504,-0.009288827143609424,-0.000743473259999964
0.2475,6.446602120000321e-05,-0.784767116,7.790680924999882e-05,-2.355939275,5.999819700000104e-05,1.57092207,0.786007355,0.0399999846,0.0399999812,-9.815534074999999,-0.002457079372834286,-0.0018280397099999439,0.0010639976099999751,-0.009303675126284262,-0.000763278779999982
0.25,6.0952312e-05,-0.7847588,7.919879e-05,-2.3559425,5.886066e-05,1.5709203,0.78600764,0.039999984,0.03999998,-9.8154335,-0.0025161432567983,-0.0018898083,0.0010912629,-0.0093185231089591,-0.0007830843
0.2525,5.67797280999962e-05,-0.784750325,8.07326750000014e-05,-2.3559453649999997,5.750960039999877e-05,1.57091814,0.7860079265,0.03999998295,0.03999997895,-9.815279825,-0.002584276045672582,-0.00195538608000006,0.0011217325050000278,-0.009323808597400696,-0.0008052062400000201
0.255,5.260714419999241e-05,-0.78474185,8.226656000000279e-05,-2.35594823,5.6158540799997544e-05,1.57091598,0.786008213,0.0399999819,0.0399999779,-9.81512615,-0.002652408834546864,-0.0020209638600001195,0.0011522021100000555,-0.00932909408584229,-0.0008273281800000403
0.2575,4.8434560299988607e-05,-0.784733375,8.380044500000419e-05,-2.355951095,5.480748119999631e-05,1.5709138200000001,0.7860084995,0.03999998085,0.03999997685,-9.814972475,-0.0027205416234211462,-0.002086541640000179,0.0011826717150000832,-0.009334379574283885,-0.0008494501200000604
0.26,4.4261976399984806e-05,-0.7847249,8.533433000000559e-05,-2.35595396,5.345642159999508e-05,1.5709116600000002,0.786008786,0.0399999798,0.0399999758,-9.8148188,-0.0027886744122954284,-0.0021521194200002387,0.001213141320000111,-0.00933966506272548,-0.0008715720600000806
0.2625,4.0089392499981005e-05,-0.7847164249999999,8.686821500000698e-05,-2.3559568250000003,5.2105361999993854e-05,1.5709095,0.7860090725,0.03999997875,0.03999997475,-9.814665125,-0.00285680720116971,-0.0022176972000002987,0.0012436109250001388,-0.009344950551167075,-0.0008936940000001007
0.265,3.591680859997721e-05,-0.7847079499999999,8.840210000000838e-05,-2.35595969,5.075430239999262e-05,1.57090734,0.7860093589999999,0.0399999777,0.039999973700000004,-9.81451145,-0.002924939990043992,-0.0022832749800003583,0.0012740805300001665,-0.009350236039608668,-0.0009158159400001209
0.2675,3.150246647496879e-05,-0.7846994119999999,9.002473400001146e-05,-2.355962315,4.93249525499899e-05,1.570905,0.7860096455,0.03999997665,0.03999997235,-9.814376874999999,-0.002992012712639224,-0.0023484600300004103,0.0013056498000002153,-0.009353438392281454,-0.0009386367950001543
0.27,2.660460789996433e-05,-0.7846907479999999,9.182486600001311e-05,-2.35596446,4.7739022199988455e-05,1.5709023,0.7860099319999999,0.0399999756,0.0399999704,-9.814280499999999,-0.003056965302676413,-0.002412859620000469,0.001339418400000246,-0.009352474473416732,-0.0009628554800001764
0.2725,2.170674932495987e-05,-0.7846820839999998,9.362499800001475e-05,-2.355966605,4.6153091849987004e-05,1.5708996,0.7860102185,0.03999997455,0.03999996845,-9.814184124999999,-0.0031219178927136024,-0.0024772592100005277,0.0013731870000002766,-0.009351510554552012,-0.0009870741650001985
0.275,1.6808890749955413e-05,-0.7846734199999998,9.542513000001638e-05,-2.35596875,4.456716149998556e-05,1.5708969,0.786010505,0.0399999735,0.0399999665,-9.814087749999999,-0.0031868704827507912,-0.002541658800000586,0.0014069556000003073,-0.00935054663568729,-0.0010112928500002204
0.2775,1.1911032174950951e-05,-0.7846647559999999,9.722526200001803e-05,-2.355970895,4.2981231149984116e-05,1.5708942,0.7860107915,0.039999972450000004,0.03999996455,-9.813991374999999,-0.0032518230727879805,-0.002606058390000645,0.0014407242000003381,-0.00934958271682257,-0.0010355115350002425
0.28,7.013173599946493e-06,-0.7846560919999999,9.902539400001966e-05,-2.35597304,4.139530079998267e-05,1.5708914999999999,0.786011078,0.0399999714,0.0399999626,-9.813894999999999,-0.00331677566282517,-0.0026704579800007036,0.001474492800000369,-0.00934861879795785,-0.0010597302200002646
0.28250000000000003,2.1153150249420346e-06,-0.7846474279999999,0.0001008255260000213,-2.3559751849999997,3.980937044998123e-05,1.5708888,0.7860113645,0.039999970350000004,0.03999996065,-9.813798624999999,-0.0033817282528623587,-0.002734857570000762,0.0015082614000003997,-0.009347654879093129,-0.0010839489050002865
0.28500000000000003,-3.310980550072528e-06,-0.7846385659999998,0.00010281965100002665,-2.35597706,3.8052214699976514e-05,1.57088599,0.78601165,0.03999997,0.03999996,-9.813685449999998,-0.003456003498286956,-0.0027960281100007593,0.0015442583300004729,-0.009341906197368965,-0.001109758980000339
0.28750000000000003,-9.001494625077708e-06,-0.7846296049999998,0.00010491077250002856,-2.3559788,3.620944624997484e-05,1.570883125,0.786011935,0.03999997,0.03999996,-9.813563874999998,-0.003534940071405003,-0.0028555841250008135,0.0015813694250005068,-0.009333765134215214,-0.0011363647500003632
0.29,-1.4692008700082763e-05,-0.7846206439999999,0.00010700189400003042,-2.35598054,3.43666777999732e-05,1.57088026,0.78601222,0.03999997,0.03999996,-9.813442299999998,-0.003613876644523048,-0.0029151401400008665,0.0016184805200005399,-0.009325624071061462,-0.0011629705200003869
0.2925,-2.0382522775087944e-05,-0.7846116829999998,0.00010909301550003232,-2.35598228,3.2523909349971523e-05,1.570877395,0.786012505,0.03999997,0.03999996,-9.813320724999999,-0.003692813217641095,-0.0029746961550009207,0.0016555916150005736,-0.009317483007907709,-0.0011895762900004112
0.295,-2.6073036850093126e-05,-0.7846027219999998,0.00011118413700003423,-2.3559840199999997,3.0681140899969846e-05,1.57087453,0.78601279,0.03999997,0.03999996,-9.813199149999997,-0.0037717497907591418,-0.0030342521700009745,0.0016927027100006073,-0.009309341944753956,-0.0012161820600004353
0.2975,-3.176355092509831e-05,-0.7845937609999998,0.00011327525850003613,-2.35598576,2.8838372449968166e-05,1.5708716649999999,0.786013075,0.03999997,0.03999996,-9.813077574999998,-0.0038506863638771887,-0.0030938081850010292,0.0017298138050006412,-0.009301200881600203,-0.0012427878300004596
0.3,-3.745406500011914e-05,-0.7845847999999997,0.00011536638000004378,-2.3559875,2.699560399996142e-05,1.5708688,0.78601336,0.03999997,0.03999996,-9.812955999999998,-0.003929622936995161,-0.0031533642000013545,0.0017669249000007371,-0.00929305981844631,-0.0012693936000005253
0.3025,-4.4005422250214485e-05,-0.7845754249999997,0.00011777352450007881,-2.355988625,2.4874026499930545e-05,1.5708654699999998,0.7860137815,0.03999997,0.03999996,-9.812852124999996,-0.0040044411318400745,-0.0032278475400024384,0.001807452560001327,-0.00927715739235226,-0.0012982834050009457
0.305,-5.055677950030982e-05,-0.7845660499999996,0.00012018066900011384,-2.35598975,2.2752448999899667e-05,1.5708621399999998,0.786014203,0.03999997,0.03999996,-9.812748249999995,-0.004079259326684988,-0.0033023308800035223,0.0018479802200019168,-0.009261254966258207,-0.0013271732100013662
0.3075,-5.710813675040516e-05,-0.7845566749999994,0.00012258781350014887,-2.3559908750000003,2.0630871499868793e-05,1.5708588099999998,0.7860146245,0.03999997,0.03999996,-9.812644374999994,-0.0041540775215299025,-0.0033768142200046062,0.0018885078800025066,-0.009245352540164157,-0.0013560630150017865
0.31,-6.365949400050051e-05,-0.7845472999999993,0.00012499495800018392,-2.355992,1.8509293999837918e-05,1.5708554799999999,0.786015046,0.03999997,0.03999996,-9.812540499999992,-0.004228895716374816,-0.00345129756000569,0.0019290355400030962,-0.009229450114070106,-0.001384952820002207
0.3125,-7.021085125059584e-05,-0.7845379249999992,0.00012740210250021894,-2.355993125,1.6387716499807043e-05,1.5708521499999997,0.7860154675000001,0.03999997,0.03999996,-9.812436624999991,-0.00430371391121973,-0.003525780900006774,0.001969563200003686,-0.009213547687976054,-0.0014138426250026276
0.315,-7.676220850069118e-05,-0.784528549999999,0.00012980924700025398,-2.35599425,1.4266138999776169e-05,1.5708488199999997,0.7860158890000001,0.03999997,0.03999996,-9.812332749999989,-0.004378532106064644,-0.0036002642400078584,0.002010090860004276,-0.009197645261882003,-0.0014427324300030479
0.3175,-8.36234495008301e-05,-0.7845190249999989,0.00013233013800030498,-2.3559952,1.2044208439731184e-05,1.5708453049999997,0.7860163615000001,0.03999997015,0.0399999603,-9.812229074999989,-0.004457873781221423,-0.003674300590008116,0.0020515744550048155,-0.009179469104853673,-0.0014723888400034607
0.32,-9.110445800073485e-05,-0.784509199999999,0.00013507852200026998,-2.3559958,9.621571759762028e-06,1.5708414199999996,0.7860169360000001,0.039999970600000004,0.0399999612,-9.81212579999999,-0.004546262416997243,-0.0037474429600071846,0.002094969920004263,-0.009156745485959149,-0.0015035784600030636
0.3225,-9.85854665006396e-05,-0.7844993749999991,0.00013782690600023498,-2.3559964,7.198935079792874e-06,1.5708375349999997,0.7860175105000001,0.03999997105,0.0399999621,-9.81202252499999,-0.004634651052773062,-0.0038205853300062533,0.00213836538500371,-0.009134021867064622,-0.0015347680800026665
0.325,-0.00010606647500054435,-0.7844895499999993,0.0001405752900002,-2.3559970000000003,4.7762983998237185e-06,1.5708336499999997,0.786018085,0.0399999715,0.039999963,-9.811919249999992,-0.004723039688548882,-0.003893727700005322,0.0021817608500031577,-0.009111298248170096,-0.0015659577000022695
0.3275,-0.0001135474835004491,-0.7844797249999994,0.000143323674000165,-2.3559976000000002,2.3536617198545645e-06,1.5708297649999998,0.7860186595,0.039999971950000004,0.0399999639,-9.811815974999993,-0.004811428324324701,-0.00396687007000439,0.0022251563150026054,-0.009088574629275571,-0.0015971473200018724
0.33,-0.00012102849200035386,-0.7844698999999995,0.00014607205800013,-2.3559982,-6.897496011459118e-08,1.57082588,0.7860192340000001,0.0399999724,0.039999964799999996,-9.811712699999994,-0.004899816960100521,-0.00404001244000346,0.0022685517800020527,-0.009065851010381045,-0.0016283369400014753
0.3325,-0.0001285095005002586,-0.7844600749999996,0.000148820442000095,-2.3559988,-2.491611640083747e-06,1.570821995,0.7860198085000001,0.03999997285,0.0399999657,-9.811609424999997,-0.00498820559587634,-0.004113154810002528,0.0023119472450015,-0.009043127391486518,-0.0016595265600010782
0.335,-0.00013665641000026228,-0.7844498799999996,0.00015181325700009635,-2.355999,-5.12991988008494e-06,1.57081779,0.7860203800000001,0.039999973,0.039999966,-9.811510049999997,-0.005074294796216117,-0.004188708840002374,0.002357211820001429,-0.009016087744384046,-0.0016922581600010364
0.3375,-0.00014513627000027003,-0.7844394999999996,0.0001549282875000992,-2.355999,-7.87606390008744e-06,1.5708134249999999,0.78602095,0.039999973,0.039999966,-9.811412624999997,-0.0051592342788380294,-0.004265468700002444,0.002403410950001471,-0.008986890083177894,-0.001725760750001067
0.34,-0.00015361613000027774,-0.7844291199999996,0.00015804331800010202,-2.355999,-1.0622207920089941e-05,1.57080906,0.78602152,0.039999973,0.039999966,-9.811315199999996,-0.0052441737614599415,-0.004342228560002514,0.0024496100800015133,-0.008957692421971744,-0.0017592633400010972
0.3425,-0.00016209599000028546,-0.7844187399999996,0.00016115834850010486,-2.355999,-1.336835194009244e-05,1.5708046949999999,0.7860220900000001,0.039999973,0.039999966,-9.811217774999996,-0.0053291132440818545,-0.0044189884200025835,0.002495809210001555,-0.008928494760765592,-0.0017927659300011277
0.34500000000000003,-0.00017057585000029317,-0.7844083599999996,0.00016427337900010768,-2.355999,-1.611449596009494e-05,1.5708003299999997,0.7860226600000001,0.039999973,0.039999966,-9.811120349999996,-0.0054140527267037665,-0.004495748280002654,0.0025420083400015973,-0.008899297099559441,-0.0018262685200011583
0.34750000000000003,-0.0001790557100003009,-0.7843979799999996,0.00016738840950011053,-2.355999,-1.886063998009744e-05,1.5707959649999998,0.7860232300000001,0.039999973,0.039999966,-9.811022924999996,-0.0054989922093256795,-0.004572508140002723,0.002588207470001639,-0.008870099438353289,-0.0018597711100011888
0.35000000000000003,-0.0001875355700003475,-0.7843875999999995,0.00017050344000012763,-2.355999,-2.1606784000112527e-05,1.5707915999999997,0.7860238,0.039999973,0.039999966,-9.810925499999996,-0.005583931691948165,-0.0046492680000029965,0.0026344066000018092,-0.008840901777146883,-0.0018932737000012991
0.3525,-0.000197083754000356,-0.7843765449999995,0.00017401062600013074,-2.35599846,-2.4698771800115273e-05,1.5707867699999998,0.78602437,0.03999997255,0.039999964799999996,-9.810823499999996,-0.005684635927904329,-0.00473161287000307,0.0026841207100018532,-0.008804704947395716,-0.0019289688850013308
0.355,-0.00020663193800036467,-0.7843654899999996,0.00017751781200013394,-2.35599792,-2.779075960011809e-05,1.5707819399999998,0.7860249400000001,0.0399999721,0.0399999636,-9.810721499999996,-0.005785340163860496,-0.0048139577400031445,0.0027338348200018985,-0.008768508117644548,-0.0019646640700013633
0.3575,-0.00021618012200037335,-0.7843544349999996,0.00018102499800013713,-2.35599738,-3.08827474001209e-05,1.5707771099999999,0.7860255100000001,0.03999997165,0.0399999624,-9.810619499999996,-0.005886044399816663,-0.00489630261000322,0.0027835489300019438,-0.008732311287893379,-0.0020003592550013956
0.36,-0.00022572830600038206,-0.7843433799999996,0.00018453218400014032,-2.35599684,-3.397473520012372e-05,1.57077228,0.7860260800000001,0.039999971200000005,0.0399999612,-9.810517499999996,-0.005986748635772829,-0.004978647480003295,0.002833263040001989,-0.008696114458142211,-0.0020360544400014283
0.3625,-0.00023527649000039074,-0.7843323249999995,0.00018803937000014354,-2.3559962999999997,-3.706672300012653e-05,1.5707674499999997,0.78602665,0.03999997075,0.03999996,-9.810415499999996,-0.006087452871728996,-0.00506099235000337,0.0028829771500020343,-0.008659917628391044,-0.0020717496250014606
0.365,-0.0002448246740003994,-0.7843212699999995,0.00019154655600014673,-2.35599576,-4.0158710800129344e-05,1.5707626199999998,0.78602722,0.0399999703,0.0399999588,-9.810313499999996,-0.006188157107685163,-0.005143337220003445,0.0029326912600020796,-0.008623720798639876,-0.0021074448100014934
0.3675,-0.00025475217100045676,-0.7843099819999995,0.00019519297300016778,-2.3559950549999997,-4.3373546450147914e-05,1.5707576149999998,0.7860278030000001,0.03999997,0.039999958,-9.810217024999996,-0.0062877672724466595,-0.005231103210004215,0.002983606065002279,-0.008585390588266765,-0.0021439565300016305
0.37,-0.0002654382940004665,-0.7842982279999995,0.00019911785200017135,-2.35599402,-4.6834077800151066e-05,1.57075226,0.7860284120000001,0.03999997,0.039999958,-9.810131599999997,-0.006385189294819234,-0.005329711440004305,0.0030369222600023275,-0.008542793616650581,-0.002182101320001665
0.3725,-0.00027612441700047624,-0.7842864739999995,0.0002030427310001749,-2.355992985,-5.029460915015422e-05,1.5707469049999998,0.786029021,0.03999997,0.039999958,-9.810046174999997,-0.006482611317191807,-0.005428319670004395,0.003090238455002376,-0.008500196645034397,-0.0022202461100017
0.375,-0.000286810540000486,-0.7842747199999994,0.00020696761000017847,-2.35599195,-5.375514050015737e-05,1.5707415499999997,0.78602963,0.03999997,0.039999958,-9.809960749999997,-0.006580033339564381,-0.005526927900004484,0.0031435546500024245,-0.008457599673418213,-0.0022583909000017345
0.3775,-0.0002974966630004957,-0.7842629659999995,0.00021089248900018205,-2.355990915,-5.721567185016052e-05,1.5707361949999998,0.786030239,0.03999997,0.039999958,-9.809875324999997,-0.006677455361936954,-0.005625536130004574,0.003196870845002473,-0.00841500270180203,-0.0022965356900017694
0.38,-0.0003081827860005054,-0.7842512119999994,0.00021481736800018562,-2.35598988,-6.067620320016367e-05,1.5707308399999997,0.786030848,0.03999997,0.039999958,-9.809789899999997,-0.006774877384309528,-0.005724144360004664,0.0032501870400025216,-0.008372405730185845,-0.002334680480001804
0.3825,-0.00031886890900051514,-0.7842394579999994,0.0002187422470001892,-2.355988845,-6.413673455016682e-05,1.5707254849999999,0.7860314570000001,0.03999997,0.039999958,-9.809704474999995,-0.006872299406682101,-0.005822752590004754,0.00330350323500257,-0.008329808758569661,-0.002372825270001839
0.385,-0.00033036003500058417,-0.7842271559999994,0.00022296262000021455,-2.35598738,-6.785792250018918e-05,1.5707196999999997,0.7860322340000001,0.0399999703,0.039999958200000005,-9.809621999999996,-0.006981227081274583,-0.005920476440004778,0.0033590836300027853,-0.008283133339134417,-0.0024125152800019874
0.3875,-0.000342253662500595,-0.7842145799999993,0.00022733074000021853,-2.3559857,-7.170943875019269e-05,1.5707136999999998,0.7860330950000001,0.03999997075,0.0399999585,-9.809540999999996,-0.007095907581975762,-0.006017758100004867,0.003415796125002837,-0.008234418695790087,-0.002452977900002024
0.39,-0.00035414729000060585,-0.7842020039999993,0.0002316988600002225,-2.35598402,-7.556095500019618e-05,1.5707076999999998,0.786033956,0.039999971200000005,0.0399999588,-9.809459999999996,-0.007210588082676941,-0.006115039760004956,0.003472508620002889,-0.008185704052445758,-0.002493440520002061
0.3925,-0.00036604091750061665,-0.7841894279999994,0.00023606698000022648,-2.35598234,-7.941247125019969e-05,1.5707016999999996,0.7860348170000001,0.03999997165,0.0399999591,-9.809378999999996,-0.007325268583378121,-0.006212321420005044,0.0035292211150029403,-0.008136989409101429,-0.002533903140002098
0.395,-0.0003779345450006275,-0.7841768519999993,0.00024043510000023045,-2.35598066,-8.32639875002032e-05,1.5706956999999997,0.7860356780000001,0.0399999721,0.0399999594,-9.809297999999997,-0.0074399490840793,-0.006309603080005132,0.003585933610002992,-0.0080882747657571,-0.002574365760002135
0.3975,-0.00038982817250063833,-0.7841642759999993,0.00024480322000023443,-2.35597898,-8.71155037502067e-05,1.5706896999999997,0.786036539,0.03999997255,0.039999959700000004,-9.809216999999997,-0.0075546295847804795,-0.006406884740005221,0.003642646105003044,-0.00803956012241277,-0.0026148283800021717
0.4,-0.00040172180000071884,-0.7841516999999992,0.000249171340000264,-2.3559773,-9.096702000023278e-05,1.5706836999999996,0.7860374,0.039999973,0.03999996,-9.809135999999995,-0.007669310085481373,-0.006504166400006272,0.003699358600003231,-0.007990845479068105,-0.0026552910000023347
0.4025,-0.0004148924000007308,-0.7841382674999993,0.0002540081890002684,-2.355975155,-9.523194300023665e-05,1.5706770699999997,0.786038255,0.039999973,0.03999996,-9.809050949999996,-0.0077787518967003325,-0.006619089215006377,0.003758556550003285,-0.00793595330323715,-0.0026980617150023736
0.405,-0.00042806300000074285,-0.7841248349999993,0.0002588450380002728,-2.35597301,-9.949686600024054e-05,1.5706704399999996,0.78603911,0.039999973,0.03999996,-9.808965899999995,-0.007888193707919293,-0.006734012030006482,0.0038177545000033387,-0.007881061127406195,-0.0027408324300024125
0.40750000000000003,-0.00044123360000075483,-0.7841114024999992,0.0002636818870002772,-2.355970865,-0.00010376178900024442,1.5706638099999997,0.7860399650000001,0.039999973,0.03999996,-9.808880849999996,-0.007997635519138253,-0.0068489348450065865,0.0038769524500033925,-0.007826168951575238,-0.0027836031450024514
0.41000000000000003,-0.0004544042000007668,-0.7840979699999993,0.0002685187360002816,-2.35596872,-0.00010802671200024831,1.5706571799999995,0.7860408200000001,0.039999973,0.03999996,-9.808795799999995,-0.008107077330357211,-0.006963857660006691,0.003936150400003446,-0.0077712767757442845,-0.0028263738600024903
0.41250000000000003,-0.00046757480000077884,-0.7840845374999992,0.00027335558500028603,-2.355966575,-0.0001122916350002522,1.5706505499999996,0.786041675,0.039999973,0.03999996,-9.808710749999996,-0.008216519141576171,-0.007078780475006796,0.0039953483500035,-0.007716384599913329,-0.0028691445750025292
0.41500000000000004,-0.0004807454000007908,-0.7840711049999992,0.0002781924340002904,-2.3559644299999998,-0.00011655655800025608,1.5706439199999995,0.78604253,0.039999973,0.03999996,-9.808625699999995,-0.008325960952795131,-0.0071937032900069005,0.004054546300003554,-0.007661492424082374,-0.002911915290002568
0.4175,-0.0004943647100008185,-0.7840573574999992,0.00028319399750030056,-2.35596208,-0.00012096673950026504,1.5706370549999995,0.786043385,0.039999973,0.0399999599,-9.808544099999995,-0.008441614033661522,-0.007308722375006496,0.00411493939500354,-0.007604707963761185,-0.002955408610002534
0.42,-0.0005088814400006337,-0.7840429799999994,0.0002885249900002327,-2.3559593199999997,-0.00012566743800020518,1.5706297199999997,0.7860442400000001,0.039999973,0.0399999596,-9.808469399999996,-0.008569689653819391,-0.007423934000005029,0.00417772278000274,-0.007544138934460556,-0.0030003471400019614
0.4225,-0.0005233981700004488,-0.7840286024999996,0.0002938559825001648,-2.35595656,-0.00013036813650014534,1.5706223849999998,0.786045095,0.039999973,0.0399999593,-9.808394699999997,-0.00869776527397726,-0.007539145625003562,0.004240506165001941,-0.007483569905159927,-0.0030452856700013894
0.425,-0.000537914900000264,-0.7840142249999997,0.00029918697500009694,-2.3559538,-0.00013506883500008547,1.5706150499999998,0.78604595,0.039999973,0.039999959,-9.808319999999998,-0.00882584089413513,-0.007654357250002095,0.004303289550001142,-0.007423000875859298,-0.003090224200000817
0.4275,-0.0005524316300000792,-0.7839998475,0.00030451796750002907,-2.35595104,-0.00013976953350002563,1.570607715,0.786046805,0.039999973,0.039999958700000005,-9.8082453,-0.008953916514293,-0.0077695688750006285,0.004366072935000342,-0.0073624318465586695,-0.003135162730000245
0.43,-0.0005669483599998943,-0.7839854700000001,0.0003098489599999612,-2.35594828,-0.0001444702319999658,1.5706003800000001,0.78604766,0.039999973,0.0399999584,-9.8081706,-0.009081992134450868,-0.007884780499999161,0.0044288563199995435,-0.007301862817258041,-0.0031801012599996727
0.4325,-0.0005814650899997095,-0.7839710925000003,0.00031517995249989337,-2.35594552,-0.00014917093049990595,1.5705930450000003,0.786048515,0.039999973,0.0399999581,-9.808095900000001,-0.009210067754608737,-0.007999992124997694,0.004491639704998744,-0.007241293787957412,-0.0032250397899991007
0.435,-0.0005969251499997681,-0.7839560200000002,0.00032085720099991487,-2.35594241,-0.00015417708499992493,1.57058526,0.786049566,0.0399999734,0.039999958200000005,-9.8080238,-0.009335786197332649,-0.008130024699998,0.004556830189999033,-0.007177032344044182,-0.0032715853899993107
0.4375,-0.0006128568749999999,-0.7839406,0.0003267075775,-2.355939125,-0.00015933596750000002,1.57057725,0.786050715,0.039999974,0.0399999585,-9.807953,-0.00946032605133945,-0.00826746775,0.004623224225,-0.00711092469282445,-0.003318934525
0.44,-0.0006287886000002318,-0.7839251799999998,0.00033255795400008513,-2.35593584,-0.00016449485000007507,1.57056924,0.786051864,0.0399999746,0.0399999588,-9.807882199999998,-0.009584865905346253,-0.008404910800002,0.0046896182600009665,-0.007044817041604718,-0.003366283660000689
0.4425,-0.0006447203250004636,-0.7839097599999996,0.00033840833050017026,-2.355932555,-0.00016965373250015016,1.5705612299999998,0.786053013,0.0399999752,0.0399999591,-9.807811399999999,-0.009709405759353055,-0.008542353850004,0.004756012295001932,-0.006978709390384986,-0.003413632795001378
0.445,-0.0006606520500006955,-0.7838943399999994,0.00034425870700025544,-2.35592927,-0.00017481261500022524,1.5705532199999996,0.786054162,0.0399999758,0.0399999594,-9.807740599999997,-0.009833945613359856,-0.008679796900006,0.004822406330002899,-0.006912601739165253,-0.0034609819300020672
0.4475,-0.0006765837750009274,-0.7838789199999991,0.00035010908350034057,-2.355925985,-0.0001799714975003003,1.5705452099999995,0.786055311,0.0399999764,0.039999959700000004,-9.807669799999996,-0.009958485467366659,-0.008817239950008,0.004888800365003864,-0.006846494087945521,-0.003508331065002756
0.45,-0.0006925155000012672,-0.7838634999999988,0.00035595946000046533,-2.3559226999999994,-0.00018513038000041033,1.5705371999999993,0.7860564600000001,0.039999977,0.03999996,-9.807598999999994,-0.010083025321374986,-0.008954683000010318,0.004955194400004999,-0.006780386436725399,-0.0035556802000036095
0.4525,-0.000709930620001283,-0.7838469399999988,0.0003623543500004711,-2.3559187999999995,-0.00019076951150041546,1.5705285149999992,0.7860576060000001,0.039999977,0.03999996,-9.807532999999996,-0.010228514764468644,-0.009096480250010447,0.005023907915005062,-0.006708908779541319,-0.003605288470003655
0.455,-0.0007273457400012989,-0.7838303799999988,0.00036874924000047693,-2.3559148999999997,-0.0001964086430004206,1.5705198299999994,0.7860587520000001,0.039999977,0.03999996,-9.807466999999995,-0.0103740042075623,-0.009238277500010576,0.005092621430005125,-0.006637431122357239,-0.0036548967400037
0.4575,-0.0007447608600013148,-0.7838138199999988,0.00037514413000048276,-2.355911,-0.00020204777450042572,1.5705111449999993,0.7860598980000001,0.039999977,0.03999996,-9.807400999999995,-0.010519493650655957,-0.009380074750010705,0.005161334945005187,-0.006565953465173159,-0.003704505010003745
0.46,-0.0007621759800013305,-0.7837972599999987,0.0003815390200004886,-2.3559070999999996,-0.00020768690600043085,1.5705024599999993,0.7860610440000001,0.039999977,0.03999996,-9.807334999999995,-0.010664983093749615,-0.009521872000010834,0.00523004846000525,-0.006494475807989079,-0.0037541132800037904
0.4625,-0.0007795911000013464,-0.7837806999999987,0.0003879339100004944,-2.3559031999999998,-0.00021332603750043598,1.5704937749999992,0.7860621900000001,0.039999977,0.03999996,-9.807268999999994,-0.010810472536843273,-0.009663669250010963,0.0052987619750053125,-0.006422998150804999,-0.003803721550003836
0.465,-0.0007970062200013622,-0.7837641399999987,0.00039432880000050025,-2.3558993,-0.0002189651690004411,1.5704850899999991,0.7860633360000001,0.039999977,0.03999996,-9.807202999999996,-0.01095596197993693,-0.009805466500011092,0.005367475490005375,-0.006351520493620919,-0.0038533298200038807
0.4675,-0.0008149384080015009,-0.7837471949999986,0.00040091349950055114,-2.355895215,-0.000224771656500486,1.5704761349999992,0.7860644800000002,0.039999977,0.0399999599,-9.807137249999995,-0.011098893452446551,-0.009956368300013382,0.005437391675005723,-0.006278203567483797,-0.003903641950004093
0.47000000000000003,-0.0008339047320015181,-0.7837294799999985,0.0004078778180005575,-2.35589076,-0.00023091285600049157,1.5704666399999991,0.7860656200000001,0.039999977,0.0399999596,-9.807071999999994,-0.011236708983789912,-0.010125479200013537,0.005509713200005789,-0.006201208103441897,-0.00395536180000414
0.47250000000000003,-0.0008528710560015354,-0.7837117649999985,0.0004148421365005638,-2.355886305,-0.00023705405550049718,1.570457144999999,0.7860667600000001,0.039999977,0.0399999593,-9.807006749999996,-0.011374524515133272,-0.010294590100013691,0.005582034725005855,-0.006124212639399997,-0.004007081650004188
0.47500000000000003,-0.0008718373800015527,-0.7836940499999985,0.00042180645500057015,-2.35588185,-0.00024319525500050276,1.570447649999999,0.7860679000000002,0.039999977,0.039999959,-9.806941499999995,-0.011512340046476633,-0.010463701000013845,0.005654356250005921,-0.006047217175358097,-0.004058801500004234
0.47750000000000004,-0.00089080370400157,-0.7836763349999986,0.0004287707735005765,-2.355877395,-0.00024933645450050837,1.5704381549999993,0.7860690400000001,0.039999977,0.039999958700000005,-9.806876249999995,-0.011650155577819994,-0.010632811900013998,0.005726677775005987,-0.005970221711316196,-0.004110521350004281
0.48,-0.0009097700280015868,-0.7836586199999985,0.0004357350920005827,-2.35587294,-0.00025547765400051384,1.5704286599999993,0.7860701800000002,0.039999977,0.0399999584,-9.806810999999996,-0.011787971109163351,-0.010801922800014149,0.005798999300006051,-0.005893226247274298,-0.004162241200004328
0.4825,-0.0009287363520016041,-0.7836409049999985,0.000442699410500589,-2.355868485,-0.0002616188535005194,1.5704191649999992,0.7860713200000001,0.039999977,0.0399999581,-9.806745749999996,-0.011925786640506711,-0.010971033700014302,0.0058713208250061166,-0.005816230783232398,-0.004213961050004374
0.485,-0.0009487816240017598,-0.7836224099999983,0.0004500598150006461,-2.3558635999999997,-0.0002681094840005698,1.570409109999999,0.7860726550000001,0.039999977299999996,0.039999958200000005,-9.806680699999996,-0.012075659818960638,-0.011142375700014742,0.00594603704000649,-0.005735796969376837,-0.004267249840004623
0.4875,-0.0009693663700017785,-0.7836035249999983,0.000457618262500653,-2.3558584999999996,-0.0002747748300005759,1.570398774999999,0.7860740875000002,0.03999997775,0.0399999585,-9.806615749999995,-0.012231561820967546,-0.0113148332500149,0.006021950600006559,-0.005653643980615102,-0.004321323100004672
0.49,-0.0009899511160017973,-0.7835846399999983,0.0004651767100006599,-2.3558533999999995,-0.00028144017600058194,1.5703884399999992,0.7860755200000001,0.0399999782,0.0399999588,-9.806550799999995,-0.012387463822974452,-0.011487290800015057,0.006097864160006628,-0.005571490991853368,-0.0043753963600047215
0.4925,-0.001010535862001816,-0.7835657549999983,0.0004727351575006668,-2.3558482999999995,-0.000288105522000588,1.5703781049999992,0.7860769525000001,0.03999997865,0.0399999591,-9.806485849999994,-0.012543365824981358,-0.011659748350015214,0.006173777720006698,-0.005489338003091633,-0.00442946962000477
0.495,-0.0010311206080018348,-0.7835468699999982,0.00048029360500067365,-2.3558431999999994,-0.0002947708680005941,1.5703677699999992,0.7860783850000002,0.0399999791,0.0399999594,-9.806420899999994,-0.012699267826988266,-0.011832205900015371,0.006249691280006766,-0.005407185014329898,-0.004483542880004819
0.4975,-0.0010517053540018534,-0.7835279849999982,0.00048785205250068055,-2.3558380999999997,-0.00030143621400060015,1.5703574349999991,0.7860798175000001,0.039999979549999995,0.039999959700000004,-9.806355949999995,-0.012855169828995172,-0.012004663450015529,0.006325604840006835,-0.0053250320255681625,-0.004537616140004868
0.5,-0.0010722901000020256,-0.7835090999999981,0.0004954105000007437,-2.3558329999999996,-0.00030810156000065584,1.5703470999999989,0.7860812500000001,0.03999998,0.03999996,-9.806290999999995,-0.013011071831003529,-0.012177121000016116,0.006401518400007112,-0.005242879036805972,-0.004591689400005127
0.5025000000000001,-0.0010945598950020462,-0.7834889354999981,0.0005035874950007513,-2.3558273149999995,-0.00031531238850066257,1.570335954999999,0.7860826825000001,0.03999998,0.03999996,-9.806225449999994,-0.01318291425706532,-0.012354313600016282,0.006479706395007184,-0.005155717651351662,-0.004648062100005179
0.505,-0.001116829690002066,-0.7834687709999981,0.0005117644900007586,-2.3558216299999994,-0.00032252321700066897,1.570324809999999,0.7860841150000001,0.03999998,0.03999996,-9.806159899999994,-0.013354756683127102,-0.012531506200016439,0.006557894390007254,-0.005068556265897354,-0.004704434800005229
0.5075000000000001,-0.0011390994850020869,-0.7834486064999981,0.0005199414850007662,-2.3558159449999994,-0.00032973404550067564,1.570313664999999,0.7860855475000001,0.03999998,0.03999996,-9.806094349999993,-0.013526599109188893,-0.012708698800016604,0.006636082385007327,-0.004981394880443042,-0.004760807500005282
0.51,-0.0011613692800021066,-0.7834284419999981,0.0005281184800007735,-2.3558102599999993,-0.0003369448740006821,1.570302519999999,0.7860869800000001,0.03999998,0.03999996,-9.806028799999995,-0.013698441535250676,-0.012885891400016761,0.006714270380007396,-0.004894233494988735,-0.004817180200005332
0.5125,-0.0011836390750021263,-0.7834082774999981,0.0005362954750007807,-2.3558045749999996,-0.00034415570250068844,1.570291374999999,0.7860884125000001,0.03999998,0.03999996,-9.805963249999994,-0.013870283961312457,-0.013063084000016918,0.0067924583750074655,-0.004807072109534428,-0.0048735529000053825
0.515,-0.001205908870002147,-0.7833881129999981,0.0005444724700007883,-2.3557988899999995,-0.00035136653100069517,1.570280229999999,0.7860898450000001,0.03999998,0.03999996,-9.805897699999994,-0.01404212638737425,-0.013240276600017083,0.006870646370007539,-0.004719910724080117,-0.004929925600005434
0.5175,-0.0012287622650023371,-0.7833674814999979,0.0005528637120008581,-2.3557929799999995,-0.00035876626750075673,1.5702687999999987,0.7860913180000001,0.0399999802,0.0399999605,-9.805833749999994,-0.014211681811155008,-0.01342890322502058,0.006950034700007958,-0.004630949674165159,-0.0049870195650056955
0.52,-0.0012527828600023595,-0.7833459159999979,0.0005616834480008663,-2.3557866199999995,-0.000366543820000764,1.5702567999999988,0.7860928720000001,0.0399999808,0.039999962,-9.805772999999993,-0.014376663230375727,-0.013640397900020775,0.007031823700008035,-0.004538389295330468,-0.00504555606000575
0.5225,-0.0012768034550023808,-0.7833243504999978,0.0005705031840008742,-2.3557802599999995,-0.0003743213725007709,1.5702447999999987,0.7860944260000001,0.0399999814,0.0399999635,-9.805712249999994,-0.014541644649596439,-0.013851892575020964,0.007113612700008107,-0.004445828916495781,-0.005104092555005802
0.525,-0.0013008240500024032,-0.7833027849999978,0.0005793229200008824,-2.3557738999999995,-0.00038209892500077816,1.5702327999999988,0.7860959800000001,0.039999982,0.039999965000000005,-9.805651499999994,-0.014706626068817157,-0.01406338725002116,0.007195401700008183,-0.004353268537661089,-0.005162629050005856
0.5275,-0.0013248446450024247,-0.7832812194999978,0.0005881426560008903,-2.3557675399999995,-0.00038987647750078505,1.5702207999999989,0.7860975340000002,0.0399999826,0.039999966500000005,-9.805590749999993,-0.014871607488037869,-0.014274881925021349,0.007277190700008256,-0.004260708158826402,-0.005221165545005909
0.53,-0.001348865240002447,-0.7832596539999978,0.0005969623920008985,-2.3557611799999996,-0.0003976540300007923,1.5702087999999987,0.7860990880000002,0.0399999832,0.039999968000000004,-9.805529999999994,-0.015036588907258588,-0.014486376600021545,0.007358979700008332,-0.004168147779991711,-0.005279702040005964
0.5325,-0.0013728858350024683,-0.7832380884999978,0.0006057821280009063,-2.3557548199999996,-0.0004054315825007992,1.5701967999999988,0.7861006420000001,0.0399999838,0.0399999695,-9.805469249999993,-0.0152015703264793,-0.014697871275021734,0.007440768700008405,-0.004075587401157023,-0.0053382385350060155
0.535,-0.001398117030002679,-0.7832155699999975,0.0006150462460009836,-2.355748029999999,-0.0004136009100008674,1.5701841899999986,0.7861023040000001,0.039999984,0.039999969600000004,-9.805406999999994,-0.015382881369461348,-0.014912148050022363,0.007524525530008787,-0.003979809372675721,-0.005397999670006261
0.5375,-0.001423953525002702,-0.7831925749999976,0.0006245325550009921,-2.3557410249999995,-0.00042196612500087485,1.5701712749999988,0.7861040200000001,0.039999984,0.039999969,-9.805343999999993,-0.015572357224320266,-0.015127815875022555,0.007609266275008862,-0.003882422519371865,-0.005458373125006314
0.54,-0.001449790020002726,-0.7831695799999976,0.0006340188640010009,-2.3557340199999994,-0.00043033134000088264,1.5701583599999986,0.7861057360000002,0.039999984,0.0399999684,-9.805280999999992,-0.015761833079179194,-0.015343483700022757,0.007694007020008942,-0.003785035666068004,-0.005518746580006371
0.5425,-0.001475626515002749,-0.7831465849999976,0.0006435051730010093,-2.3557270149999994,-0.00043869655500089006,1.5701454449999985,0.7861074520000002,0.039999984,0.0399999678,-9.805217999999993,-0.01595130893403811,-0.015559151525022947,0.007778747765009017,-0.0036876488127641476,-0.005579120035006424
0.545,-0.0015014630100027733,-0.7831235899999975,0.0006529914820010182,-2.3557200099999993,-0.0004470617700008979,1.5701325299999986,0.7861091680000002,0.039999984,0.0399999672,-9.805154999999992,-0.01614078478889704,-0.01577481935002315,0.007863488510009096,-0.003590261959460287,-0.0056394934900064805
0.5475,-0.0015272995050027963,-0.7831005949999975,0.0006624777910010266,-2.3557130049999992,-0.0004554269850009053,1.5701196149999985,0.7861108840000002,0.039999984,0.0399999666,-9.805091999999993,-0.016330260643755957,-0.01599048717502334,0.007948229255009171,-0.0034928751061564303,-0.005699866945006534
0.55,-0.0015531360000030255,-0.7830775999999974,0.0006719641000011108,-2.355705999999999,-0.00046379220000097957,1.5701066999999984,0.7861126000000003,0.039999984,0.039999966,-9.805028999999994,-0.016519736498614247,-0.016206155000026874,0.008032970000009555,-0.0033954882528520578,-0.005760240400006833
0.5525,-0.0015808524450030502,-0.7830531049999974,0.0006821406355011199,-2.3556983799999993,-0.00047276604000098755,1.5700928549999984,0.7861143550000003,0.039999984,0.039999966,-9.804977099999993,-0.01670338176192867,-0.016452354350027093,0.008120503775009632,-0.003293413366179772,-0.005822837290006888
0.555,-0.001608568890003076,-0.7830286099999973,0.0006923171710011294,-2.3556907599999994,-0.0004817398800009959,1.5700790099999984,0.7861161100000003,0.039999984,0.039999966,-9.804925199999994,-0.0168870270252431,-0.016698553700027322,0.008208037550009714,-0.0031913384795074816,-0.005885434180006947
0.5575,-0.0016362853350031007,-0.7830041149999972,0.0007024937065011384,-2.355683139999999,-0.0004907137200010038,1.5700651649999984,0.7861178650000002,0.039999984,0.039999966,-9.804873299999993,-0.017070672288557524,-0.01694475305002754,0.008295571325009791,-0.003089263592835196,-0.005948031070007002
0.56,-0.0016640017800031263,-0.7829796199999972,0.000712670242001148,-2.3556755199999992,-0.0004996875600010122,1.5700513199999984,0.7861196200000002,0.039999984,0.039999966,-9.804821399999994,-0.017254317551871953,-0.01719095240002777,0.008383105100009874,-0.002987188706162906,-0.006010627960007061
0.5625,-0.0016917182250031511,-0.7829551249999972,0.000722846777501157,-2.3556678999999994,-0.0005086614000010202,1.5700374749999984,0.7861213750000002,0.039999984,0.039999966,-9.804769499999994,-0.017437962815186378,-0.01743715175002799,0.00847063887500995,-0.0028851138194906202,-0.006073224850007116
0.5650000000000001,-0.0017194346700031768,-0.7829306299999972,0.0007330233130011664,-2.3556602799999995,-0.0005176352400010286,1.5700236299999983,0.7861231300000002,0.039999984,0.039999966,-9.804717599999995,-0.017621608078500807,-0.01768335110002822,0.008558172650010033,-0.0027830389328183302,-0.006135821740007175
0.5675,-0.0017477988650035608,-0.7829056299999968,0.0007434376415013074,-2.3556524199999993,-0.0005268187450011529,1.5700094699999982,0.7861249650000003,0.039999984200000005,0.0399999662,-9.804665199999993,-0.01781474724414511,-0.01793072200002998,0.008646829875010913,-0.002679504954708935,-0.0061990999400077604
0.5700000000000001,-0.001777458560003993,-0.7828796199999964,0.0007543275560014662,-2.355644079999999,-0.0005364215800012929,1.569994679999998,0.7861269600000003,0.0399999848,0.0399999668,-9.804611799999993,-0.018026874214439336,-0.01818043600003362,0.008737734000012239,-0.0025730527937268283,-0.006263740760008702
0.5725,-0.001807118255004424,-0.7828536099999961,0.0007652174705016244,-2.355635739999999,-0.0005460244150014324,1.5699798899999977,0.7861289550000002,0.0399999854,0.0399999674,-9.804558399999992,-0.018239001184733556,-0.018430150000037247,0.008828638125013558,-0.0024666006327447266,-0.006328381580009641
0.5750000000000001,-0.0018367779500048564,-0.7828275999999957,0.0007761073850017831,-2.3556273999999986,-0.0005556272500015723,1.5699650999999977,0.7861309500000003,0.039999986,0.039999968000000004,-9.804504999999992,-0.018451128155027783,-0.01867986400004089,0.008919542250014885,-0.00236014847176262,-0.006393022400010584
0.5775,-0.0018664376450052873,-0.7828015899999953,0.0007869972995019414,-2.3556190599999987,-0.0005652300850017118,1.5699503099999974,0.7861329450000003,0.0399999866,0.0399999686,-9.804451599999991,-0.018663255125322,-0.018929578000044515,0.009010446375016206,-0.002253696310780518,-0.006457663220011523
0.58,-0.0018960973400057183,-0.7827755799999949,0.0007978872140020996,-2.3556107199999987,-0.0005748329200018514,1.5699355199999971,0.7861349400000004,0.0399999872,0.0399999692,-9.80439819999999,-0.018875382095616216,-0.019179292000048146,0.009101350500017525,-0.0021472441497984163,-0.006522304040012462
0.5825,-0.0019257570350061505,-0.7827495699999946,0.0008087771285022583,-2.3556023799999983,-0.0005844357550019914,1.5699207299999969,0.7861369350000004,0.0399999878,0.0399999698,-9.80434479999999,-0.019087509065910443,-0.019429006000051784,0.009192254625018851,-0.0020407919888163098,-0.006586944860013404
0.585,-0.0019567538000064507,-0.7827224749999944,0.0008201579100023685,-2.3555935999999984,-0.0005944714800020885,1.5699052499999968,0.7861389330000004,0.039999988,0.039999971,-9.80429249999999,-0.019295219332021593,-0.019700090600057403,0.009284743400019002,-0.0019311203853931106,-0.006653273460013684
0.5875,-0.001988419100006048,-0.7826948374999947,0.0008317841250022207,-2.3555845999999985,-0.0006047236500019582,1.569889424999997,0.7861409325000004,0.039999988,0.0399999725,-9.804240749999991,-0.019500721246043327,-0.01998186050005382,0.009378024500017818,-0.001819839060750895,-0.00672044595001283
0.59,-0.002020084400005644,-0.782667199999995,0.0008434103400020723,-2.3555755999999985,-0.0006149758200018274,1.569873599999997,0.7861429320000004,0.039999988,0.039999974,-9.80418899999999,-0.01970622316006505,-0.020263630400050227,0.009471305600016628,-0.0017085577361086843,-0.0067876184400119735
0.5925,-0.002051749700005242,-0.7826395624999953,0.0008550365550019246,-2.3555665999999986,-0.0006252279900016972,1.5698577749999973,0.7861449315000003,0.039999988,0.0399999755,-9.804137249999991,-0.019911725074086783,-0.020545400300046646,0.009564586700015441,-0.0015972764114664687,-0.00685479093001112
0.595,-0.002083415000004838,-0.7826119249999958,0.0008666627700017763,-2.3555575999999987,-0.0006354801600015664,1.5698419499999976,0.7861469310000003,0.039999988,0.039999977,-9.804085499999992,-0.020117226988108507,-0.02082717020004305,0.009657867800014252,-0.001485995086824258,-0.006921963420010262
0.5975,-0.0021150803000044354,-0.7825842874999961,0.0008782889850016285,-2.3555485999999988,-0.0006457323300014361,1.5698261249999979,0.7861489305000003,0.039999988,0.0399999785,-9.804033749999993,-0.02032272890213024,-0.02110894010003947,0.009751148900013065,-0.0013747137621820424,-0.0069891359100094095
0.6,-0.0021467456000042948,-0.7825566499999962,0.0008899152000015768,-2.355539599999999,-0.0006559845000013904,1.5698102999999979,0.7861509300000004,0.039999988,0.03999998,-9.803981999999992,-0.020528230816155388,-0.021390710000036638,0.009844430000012309,-0.0012634324375392972,-0.0070563084000087655
0.6025,-0.0021804776150043262,-0.7825273474999962,0.0009023002200015884,-2.355529864999999,-0.0006669047850014005,1.569793409999998,0.7861531650000003,0.039999988,0.039999982249999996,-9.803926649999992,-0.02076061908158654,-0.021678461900036906,0.0099411159500124,-0.0011479528358756446,-0.00712515631500883
0.605,-0.002214209630004356,-0.7824980449999962,0.0009146852400015994,-2.3555201299999986,-0.0006778250700014102,1.569776519999998,0.7861554000000003,0.039999988,0.0399999845,-9.803871299999992,-0.020993007347017683,-0.02196621380003716,0.010037801900012485,-0.001032473234211997,-0.007194004230008891
0.6075,-0.0022479416450043874,-0.7824687424999962,0.000927070260001611,-2.3555103949999987,-0.0006887453550014205,1.5697596299999979,0.7861576350000002,0.039999988,0.03999998675,-9.803815949999994,-0.021225395612448832,-0.02225396570003743,0.010134487850012575,-0.0009169936325483442,-0.0072628521450089556
0.61,-0.0022816736600044176,-0.7824394399999962,0.000939455280001622,-2.355500659999999,-0.0006996656400014301,1.569742739999998,0.7861598700000003,0.039999988,0.039999989,-9.803760599999993,-0.021457783877879975,-0.022541717600037686,0.010231173800012662,-0.0008015140308846966,-0.007331700060009017
0.6125,-0.002315405675004449,-0.7824101374999961,0.0009518403000016335,-2.3554909249999985,-0.0007105859250014403,1.5697258499999978,0.7861621050000003,0.039999988,0.039999991250000005,-9.803705249999993,-0.021690172143311127,-0.022829469500037954,0.010327859750012752,-0.0006860344292210439,-0.007400547975009081
0.615,-0.0023491376900044787,-0.7823808349999961,0.0009642253200016445,-2.3554811899999986,-0.00072150621000145,1.5697089599999978,0.7861643400000002,0.039999988,0.039999993500000004,-9.803649899999993,-0.021922560408742266,-0.02311722140003821,0.010424545700012838,-0.0005705548275573962,-0.007469395890009142
0.6175,-0.0023835787500047947,-0.7823509599999959,0.0009768706750017606,-2.3554712099999984,-0.0007326563050015524,1.5696917299999977,0.7861665935000003,0.039999988,0.039999995,-9.803599349999995,-0.022151734121173584,-0.023416879850043256,0.010522014250013242,-0.0004536973894413309,-0.007538802925009431
0.62,-0.0024194379000048267,-0.7823199399999958,0.0009900367000017722,-2.3554607399999985,-0.0007442660200015626,1.5696738199999978,0.7861688840000003,0.039999988,0.039999995,-9.803558399999995,-0.022374478727609084,-0.02374035140004354,0.01062104800001333,-0.0003340842784220996,-0.007609328200009493
0.6225,-0.00245529705000486,-0.7822889199999958,0.0010032027250017844,-2.3554502699999986,-0.0007558757350015735,1.5696559099999976,0.7861711745000003,0.039999988,0.039999995,-9.803517449999994,-0.02259722333404459,-0.024063822950043844,0.010720081750013422,-0.0002144711674028631,-0.007679853475009559
0.625,-0.002491156200004892,-0.7822578999999957,0.001016368750001796,-2.3554397999999983,-0.0007674854500015838,1.5696379999999976,0.7861734650000003,0.039999988,0.039999995,-9.803476499999995,-0.02281996794048009,-0.024387294500044128,0.01081911550001351,-9.485805638363189e-05,-0.007750378750009622
0.6275000000000001,-0.0025270153500049253,-0.7822268799999957,0.0010295347750018083,-2.3554293299999984,-0.0007790951650015947,1.5696200899999977,0.7861757555000003,0.039999988,0.039999995,-9.803435549999994,-0.023042712546915596,-0.02471076605004443,0.010918149250013604,2.4755054635604637e-05,-0.007820904025009687
0.63,-0.0025628745000049573,-0.7821958599999957,0.0010427008000018201,-2.3554188599999986,-0.0007907048800016049,1.5696021799999975,0.7861780460000003,0.039999988,0.039999995,-9.803394599999995,-0.023265457153351096,-0.025034237600044716,0.011017183000013692,0.00014436816565483596,-0.00789142930000975
0.6325000000000001,-0.0025987336500049906,-0.7821648399999956,0.0010558668250018324,-2.3554083899999982,-0.0008023145950016158,1.5695842699999976,0.7861803365000003,0.039999988,0.039999995,-9.803353649999995,-0.023488201759786602,-0.025357709150045017,0.011116216750013784,0.0002639812766740725,-0.007961954575009816
0.635,-0.002636050360005329,-0.7821326099999953,0.0010695679800019565,-2.3553974599999985,-0.0008143961600017253,1.5695656199999974,0.7861827700000004,0.039999988,0.039999995,-9.803296999999992,-0.02373432964090142,-0.02568576530004627,0.01121737990001432,0.0003866737068338906,-0.008033729400010141
0.6375000000000001,-0.0026740958500053643,-0.7820997749999954,0.0010835367000019695,-2.3553862999999984,-0.0008267136500017368,1.5695465999999973,0.7861852750000003,0.039999988,0.039999995,-9.803232499999991,-0.023992149159348577,-0.026016113750046577,0.011319607750014414,0.0005109057965630415,-0.008106129000010209
0.64,-0.002712141340005398,-0.7820669399999953,0.001097505420001982,-2.3553751399999983,-0.0008390311400017477,1.5695275799999973,0.7861877800000003,0.039999988,0.039999995,-9.80316799999999,-0.024249968677795723,-0.026346462200046872,0.011421835600014505,0.0006351378862921868,-0.008178528600010273
0.6425,-0.002750186830005432,-0.7820341049999953,0.0011114741400019943,-2.3553639799999986,-0.0008513486300017586,1.5695085599999974,0.7861902850000003,0.039999988,0.039999995,-9.803103499999992,-0.024507788196242865,-0.026676810650047164,0.011524063450014596,0.0007593699760213322,-0.008250928200010338
0.645,-0.0027882323200054673,-0.7820012699999952,0.0011254428600020073,-2.3553528199999985,-0.0008636661200017702,1.5694895399999973,0.7861927900000003,0.039999988,0.039999995,-9.803038999999991,-0.02476560771469002,-0.027007159100047473,0.011626291300014692,0.000883602065750483,-0.008323327800010405
0.6475,-0.002826277810005501,-0.7819684349999952,0.0011394115800020198,-2.3553416599999983,-0.0008759836100017811,1.5694705199999972,0.7861952950000003,0.039999988,0.039999995,-9.80297449999999,-0.025023427233137167,-0.027337507550047768,0.011728519150014782,0.0010078341554796283,-0.00839572740001047
0.65,-0.0028643233000058633,-0.781935599999995,0.0011533803000021528,-2.355330499999998,-0.0008883011000018983,1.5694514999999971,0.7861978000000003,0.039999988,0.039999995,-9.802909999999997,-0.025281246751582304,-0.027667856000053847,0.011830747000015218,0.0011320662452092931,-0.008468127000010732
0.6525,-0.002904613255005899,-0.7819009349999949,0.001168173135002166,-2.3553185749999983,-0.0009013455005019099,1.569431369999997,0.7862003950000003,0.0399999883,0.0399999923,-9.802880299999996,-0.025525195896661173,-0.028037848550054173,0.011935313350015311,0.0012598305999021817,-0.008541861000010796
0.655,-0.0029449032100059367,-0.7818662699999949,0.0011829659700021797,-2.3553066499999984,-0.0009143899010019221,1.569411239999997,0.7862029900000004,0.0399999886,0.0399999896,-9.802850599999996,-0.025769145041740056,-0.02840784110005452,0.012039879700015408,0.001387594954595076,-0.008615595000010865
0.6575,-0.0029851931650059726,-0.7818316049999948,0.0011977588050021929,-2.355294724999998,-0.0009274343015019336,1.569391109999997,0.7862055850000004,0.0399999889,0.0399999869,-9.802820899999995,-0.02601309418681893,-0.028777833650054846,0.012144446050015502,0.0015153593092879644,-0.00868932900001093
0.66,-0.00302548312000601,-0.7817969399999948,0.0012125516400022067,-2.355282799999998,-0.0009404787020019458,1.569370979999997,0.7862081800000004,0.0399999892,0.0399999842,-9.802791199999996,-0.02625704333189781,-0.029147826200055193,0.012249012400015599,0.0016431236639808586,-0.008763063000010998
0.6625,-0.003065773075006046,-0.7817622749999948,0.0012273444750022199,-2.355270874999998,-0.0009535231025019574,1.569350849999997,0.7862107750000004,0.0399999895,0.0399999815,-9.802761499999995,-0.02650099247697668,-0.02951781875005552,0.012353578750015692,0.001770888018673747,-0.008836797000011064
0.665,-0.0031060630300060836,-0.7817276099999948,0.0012421373100022337,-2.3552589499999983,-0.0009665675030019696,1.569330719999997,0.7862133700000004,0.039999989799999996,0.0399999788,-9.802731799999995,-0.026744941622055565,-0.029887811300055862,0.01245814510001579,0.0018986523733666412,-0.008910531000011133
0.6675,-0.0031471201900064687,-0.7816923199999944,0.0012572118100023751,-2.355246759999998,-0.0009798600465020942,1.569310214999997,0.7862160350000004,0.03999999025,0.03999997715,-9.802694349999992,-0.027002736087931755,-0.030259059850056766,0.012563685450016326,0.002027799130903025,-0.008985023150011543
0.67,-0.0031897117600065087,-0.7816557799999945,0.0012728496400023896,-2.3552340399999983,-0.0009936488760021072,1.5692889599999968,0.7862188400000004,0.039999991,0.0399999776,-9.802641399999992,-0.027288221195383707,-0.030632820400057114,0.012671173800016425,0.0021597106941245174,-0.009061031600011614
0.6725,-0.0032323033300065466,-0.7816192399999944,0.0012884874700024036,-2.3552213199999983,-0.0010074377055021193,1.5692677049999968,0.7862216450000004,0.03999999175,0.039999978049999996,-9.802588449999991,-0.027573706302835645,-0.031006580950057448,0.012778662150016521,0.002291622257346005,-0.009137040050011681
0.675,-0.003274894900006586,-0.7815826999999944,0.0013041253000024183,-2.3552085999999983,-0.001021226535002132,1.5692464499999967,0.7862244500000004,0.039999992500000005,0.0399999785,-9.80253549999999,-0.027859191410287594,-0.03138034150005779,0.01288615050001662,0.002423533820567498,-0.009213048500011752
0.6775,-0.003317486470006624,-0.7815461599999943,0.001319763130002432,-2.3551958799999984,-0.0010350153645021444,1.5692251949999967,0.7862272550000005,0.039999993250000004,0.03999997895,-9.802482549999992,-0.028144676517739536,-0.03175410205005813,0.012993638850016717,0.002555445383788985,-0.00928905695001182
0.68,-0.0033600780400066636,-0.7815096199999944,0.0013354009600024467,-2.3551831599999984,-0.0010488041940021572,1.5692039399999966,0.7862300600000004,0.039999994000000004,0.039999979399999996,-9.802429599999991,-0.028430161625191484,-0.032127862600058475,0.013101127200016818,0.002687356947010478,-0.00936506540001189
0.6825,-0.0034026696100067015,-0.7814730799999943,0.0013510387900024605,-2.355170439999998,-0.0010625930235021695,1.5691826849999966,0.7862328650000004,0.039999994750000004,0.03999997985,-9.80237664999999,-0.028715646732643423,-0.03250162315005881,0.013208615550016912,0.002819268510231965,-0.00944107385001196
0.685,-0.0034468327800071144,-0.7814352299999939,0.0013672537000026122,-2.355157259999998,-0.001076889990002303,1.5691606399999964,0.7862357500000005,0.039999995,0.0399999815,-9.802328999999991,-0.028992071189029293,-0.03290202900006548,0.013317665800017383,0.002953943167834604,-0.009518404000012344
0.6875,-0.0034917817500071543,-0.7813967249999939,0.0013837571500026269,-2.355143849999998,-0.001091441025002316,1.5691381999999963,0.7862386750000004,0.039999995,0.03999998375,-9.802283999999991,-0.029263965319885326,-0.03331575750006585,0.01342749700001748,0.00308999937262683,-0.009596395000012413
0.6900000000000001,-0.0035367307200071963,-0.7813582199999939,0.0014002606000026421,-2.355130439999998,-0.0011059920600023296,1.5691157599999963,0.7862416000000004,0.039999995,0.039999986,-9.802238999999993,-0.02953585945074137,-0.03372948600006624,0.013537328200017584,0.0032260555774190616,-0.009674386000012485
0.6925,-0.003581679690007236,-0.7813197149999939,0.0014167640500026568,-2.355117029999998,-0.0011205430950023425,1.5690933199999963,0.7862445250000005,0.039999995,0.03999998825,-9.802193999999993,-0.0298077535815974,-0.034143214500066604,0.013647159400017681,0.0033621117822112876,-0.009752377000012556
0.6950000000000001,-0.003626628660007278,-0.7812812099999937,0.001433267500002672,-2.3551036199999977,-0.001135094130002356,1.5690708799999964,0.7862474500000005,0.039999995,0.0399999905,-9.802148999999993,-0.030079647712453444,-0.034556943000066995,0.013756990600017784,0.0034981679870035197,-0.009830368000012628
0.6975,-0.003671577630007318,-0.7812427049999937,0.0014497709500026867,-2.355090209999998,-0.001149645165002369,1.5690484399999964,0.7862503750000005,0.039999995,0.039999992750000005,-9.802103999999993,-0.030351541843309477,-0.03497067150006736,0.013866821800017881,0.0036342241917957452,-0.009908359000012697
0.7000000000000001,-0.003716526600007755,-0.7812041999999934,0.0014662744000028473,-2.3550767999999977,-0.00116419620000251,1.5690259999999963,0.7862533000000006,0.039999995,0.039999995,-9.802058999999993,-0.030623435974171026,-0.03538440000006907,0.013976653000018421,0.0037702803965885263,-0.009986350000012984
0.7025,-0.0037638875550077967,-0.7811637194999933,0.0014836635700028627,-2.3550625799999976,-0.0011795256150025236,1.5690023749999962,0.7862563990000005,0.03999999575,0.03999999575,-9.802019549999994,-0.030928955785980365,-0.035806225050069446,0.014089162900018522,0.003909689222951,-0.010065656125013055
0.705,-0.003811248510007839,-0.7811232389999934,0.001501052740002878,-2.355048359999998,-0.0011948550300025372,1.568978749999996,0.7862594980000006,0.0399999965,0.0399999965,-9.801980099999993,-0.031234475597789708,-0.03622805010006982,0.014201672800018621,0.0040490980493134736,-0.010144962250013125
0.7075,-0.003858609465007883,-0.7810827584999933,0.0015184419100028944,-2.3550341399999977,-0.0012101844450025515,1.568955124999996,0.7862625970000006,0.03999999725,0.03999999725,-9.801940649999993,-0.031539995409599064,-0.03664987515007021,0.014314182700018727,0.004188506875675954,-0.0102242683750132
0.71,-0.003905970420007925,-0.7810422779999933,0.0015358310800029098,-2.3550199199999975,-0.0012255138600025652,1.5689314999999961,0.7862656960000005,0.039999998,0.039999998,-9.801901199999993,-0.0318455152214084,-0.037071700200070584,0.014426692600018826,0.004327915702038428,-0.01030357450001327
0.7125,-0.003953331375007969,-0.7810017974999932,0.001553220250002926,-2.3550056999999978,-0.0012408432750025795,1.568907874999996,0.7862687950000006,0.03999999875,0.03999999875,-9.801861749999993,-0.032151035033217756,-0.03749352525007098,0.014539202500018932,0.004467324528400908,-0.010382880625013344
0.715,-0.0040006923300080115,-0.7809613169999932,0.0015706094200029414,-2.3549914799999976,-0.001256172690002593,1.568884249999996,0.7862718940000005,0.0399999995,0.0399999995,-9.801822299999992,-0.032456554845027095,-0.03791535030007136,0.01465171240001903,0.004606733354763382,-0.010462186750013414
0.7175,-0.004048875335008475,-0.7809201634999928,0.0015883004100031117,-2.3549769749999974,-0.0012717683300027432,1.5688602149999957,0.7862750420000006,0.04,0.04,-9.801783749999993,-0.03275929875676914,-0.03835073500007866,0.014765025900019546,0.004747412563325945,-0.010542122225013809
0.72,-0.004098702440008519,-0.7808776639999927,0.001606595040003128,-2.3549618999999975,-0.0012878964200027574,1.5688353599999958,0.7862782880000005,0.04,0.04,-9.801746999999994,-0.03305649086838077,-0.038813239000079075,0.014879946600019648,0.0048906325362867275,-0.010623316400013882
0.7225,-0.004148529545008566,-0.7808351644999927,0.001624889670003145,-2.3549468249999976,-0.0013040245100027724,1.5688105049999959,0.7862815340000006,0.04,0.04,-9.801710249999994,-0.033353682979992416,-0.03927574300007951,0.014994867300019756,0.005033852509247516,-0.010704510575013957
0.725,-0.00419835665000861,-0.7807926649999927,0.0016431843000031612,-2.3549317499999973,-0.0013201526000027868,1.5687856499999957,0.7862847800000006,0.04,0.04,-9.801673499999993,-0.033650875091604054,-0.03973824700007992,0.015109788000019858,0.005177072482208298,-0.01078570475001403
0.7275,-0.004248183755008656,-0.7807501654999927,0.0016614789300031783,-2.3549166749999975,-0.0013362806900028019,1.5687607949999958,0.7862880260000006,0.04,0.04,-9.801636749999993,-0.0339480672032157,-0.04020075100008035,0.015224708700019966,0.005320292455169086,-0.010866898925014105
0.73,-0.0042980108600087,-0.7807076659999925,0.0016797735600031945,-2.354901599999997,-0.0013524087800028163,1.5687359399999956,0.7862912720000006,0.04,0.04,-9.801599999999993,-0.03424525931482734,-0.040663255000080764,0.015339629400020068,0.005463512428129869,-0.010948093100014178
0.7325,-0.004347837965008747,-0.7806651664999925,0.0016980681900032116,-2.3548865249999973,-0.0013685368700028313,1.5687110849999957,0.7862945180000006,0.04,0.04,-9.801563249999994,-0.03454245142643898,-0.04112575900008119,0.015454550100020175,0.005606732401090657,-0.011029287275014253
0.735,-0.004399343800008759,-0.7806212399999926,0.0017169792300032161,-2.354870919999997,-0.001385207690002835,1.5686853699999956,0.7862978760000006,0.04,0.04,-9.801520799999992,-0.03485586047177924,-0.04159913110008012,0.015571156300019654,0.005752469226742528,-0.01111145060001383
0.7375,-0.004451689000008094,-0.7805765999999931,0.0017361984750029718,-2.354855049999997,-0.0014021498750026197,1.568659224999996,0.7863012900000005,0.04,0.04,-9.801475499999993,-0.035177377983977416,-0.04207793725007404,0.015688605250018164,0.005899464478738955,-0.01119409850001278
0.74,-0.004504034200007426,-0.7805319599999937,0.0017554177200027267,-2.3548391799999977,-0.0014190920600024037,1.5686330799999963,0.7863047040000005,0.04,0.04,-9.801430199999993,-0.035498895496175575,-0.04255674340006793,0.015806054200016663,0.0060464597307353755,-0.011276746400011726
0.7425,-0.004556379400006761,-0.7804873199999942,0.0017746369650024824,-2.354823309999998,-0.0014360342450021883,1.5686069349999967,0.7863081180000004,0.04,0.04,-9.801384899999995,-0.03582041300837375,-0.04303554955006185,0.015923503150015172,0.006193454982731802,-0.011359394300010676
0.745,-0.004608724600006094,-0.7804426799999947,0.0017938562100022373,-2.354807439999998,-0.0014529764300019723,1.568580789999997,0.7863115320000004,0.04,0.04,-9.801339599999995,-0.03614193052057191,-0.04351435570005574,0.016040952100013675,0.006340450234728222,-0.011442042200009621
0.7475,-0.0046610698000054285,-0.7803980399999954,0.001813075455001993,-2.354791569999998,-0.001469918615001757,1.5685546449999972,0.7863149460000003,0.04,0.04,-9.801294299999995,-0.03646344803277008,-0.04399316185004965,0.01615840105001218,0.006487445486724649,-0.011524690100008571
0.75,-0.004713415000004995,-0.7803533999999958,0.0018322947000018338,-2.3547756999999985,-0.0014868608000016166,1.5685284999999975,0.7863183600000003,0.04,0.04,-9.801248999999997,-0.03678496554497073,-0.044471968000045076,0.016275850000010892,0.006634440738721363,-0.011607338000007655
0.7525000000000001,-0.004768329400005795,-0.7803066524999951,0.0018524575950021277,-2.3547591399999983,-0.0015046341950018757,1.5685010949999971,0.7863219450000004,0.04,0.04,-9.801201149999995,-0.03713385667655569,-0.044967566800052296,0.01639560775001264,0.006784668122434003,-0.011691513050008883
0.755,-0.004823243800006593,-0.7802599049999943,0.0018726204900024206,-2.354742579999998,-0.0015224075900021339,1.5684736899999967,0.7863255300000004,0.04,0.04,-9.801153299999994,-0.03748274780814065,-0.0454631656000595,0.016515365500014378,0.006934895506146636,-0.011775688100010106
0.7575000000000001,-0.004878158200007393,-0.7802131574999936,0.0018927833850027145,-2.3547260199999975,-0.001540180985002393,1.5684462849999963,0.7863291150000005,0.04,0.04,-9.801105449999993,-0.03783163893972561,-0.04595876440006672,0.016635123250016124,0.007085122889859275,-0.011859863150011331
0.76,-0.004933072600008191,-0.780166409999993,0.0019129462800030075,-2.3547094599999974,-0.0015579543800026512,1.5684188799999959,0.7863327000000006,0.04,0.04,-9.801057599999993,-0.03818053007131056,-0.04645436320007392,0.016754881000017863,0.007235350273571908,-0.011944038200012556
0.7625000000000001,-0.004987987000008991,-0.7801196624999923,0.0019331091750033015,-2.354692899999997,-0.0015757277750029102,1.5683914749999954,0.7863362850000005,0.04,0.04,-9.801009749999992,-0.03852942120289553,-0.04694996200008115,0.01687463875001961,0.007385577657284548,-0.012028213250013782
0.765,-0.00504290140000979,-0.7800729149999917,0.0019532720700035943,-2.354676339999997,-0.0015935011700031684,1.568364069999995,0.7863398700000006,0.04,0.04,-9.80096189999999,-0.038878312334480476,-0.04744556080008835,0.01699439650002135,0.00753580504099718,-0.012112388300015006
0.7675000000000001,-0.0050986889500108335,-0.7800254394999908,0.001973755565003978,-2.354659459999997,-0.0016115574600035064,1.5683362349999945,0.7863435150000007,0.04,0.04,-9.800926099999996,-0.039223252609435585,-0.04795638900010192,0.01711493370002299,0.007686952827527082,-0.012197093550016148
0.77,-0.005156222800010884,-0.7799765079999907,0.0019948802600039963,-2.354641939999997,-0.001630179540003523,1.5683075399999944,0.7863472800000006,0.04,0.04,-9.800914399999998,-0.039560291171137664,-0.0484976760001024,0.017237029800023097,0.007839941419689942,-0.012282859200016224
0.7725,-0.005213756650010936,-0.7799275764999907,0.002016004955004015,-2.354624419999997,-0.0016488016200035395,1.5682788449999945,0.7863510450000006,0.04,0.04,-9.800902699999998,-0.039897329732839736,-0.04903896300010288,0.017359125900023205,0.007992930011852804,-0.012368624850016302
0.775,-0.00527129050001099,-0.7798786449999906,0.002037129650004035,-2.3546068999999967,-0.001667423700003557,1.5682501499999943,0.7863548100000006,0.04,0.04,-9.800890999999998,-0.04023436829454182,-0.04958025000010339,0.01748122200002332,0.008145918604015671,-0.012454390500016382
0.7775,-0.00532882435001104,-0.7798297134999906,0.0020582543450040534,-2.3545893799999966,-0.0016860457800035734,1.5682214549999944,0.7863585750000007,0.04,0.04,-9.800879299999998,-0.0405714068562439,-0.05012153700010387,0.017603318100023427,0.008298907196178533,-0.012540156150016458
0.78,-0.0053863582000110944,-0.7797807819999906,0.002079379040004073,-2.3545718599999965,-0.001704667860003591,1.5681927599999943,0.7863623400000007,0.04,0.04,-9.800867599999998,-0.040908445417945985,-0.05066282400010437,0.01772541420002354,0.0084518957883414,-0.012625921800016537
0.7825,-0.005443892050011145,-0.7797318504999905,0.002100503735004092,-2.3545543399999964,-0.0017232899400036073,1.5681640649999944,0.7863661050000007,0.04,0.04,-9.800855899999998,-0.041245483979648064,-0.05120411100010485,0.01784751030002365,0.00860488438050426,-0.012711687450016614
0.785,-0.0055032046200117184,-0.77968144599999,0.002122281670004302,-2.354536189999996,-0.0017424877500037928,1.568134459999994,0.7863699700000008,0.04,0.04,-9.800809899999988,-0.04160855226226019,-0.051750361000106805,0.0179711017000242,0.008760438673228687,-0.012798314300016945
0.7875,-0.005563406550011772,-0.77963030499999,0.002144386225004322,-2.3545177249999965,-0.0017619734250038102,1.568104399999994,0.7863738850000007,0.04,0.04,-9.800746749999988,-0.04198463540531596,-0.052299092500107294,0.01809544075002431,0.008917275816232768,-0.012885371750017022
0.79,-0.005623608480011828,-0.7795791639999899,0.0021664907800043424,-2.3544992599999963,-0.0017814591000038283,1.568074339999994,0.7863778000000008,0.04,0.04,-9.800683599999989,-0.04236071854837175,-0.052847824000107804,0.018219779800024427,0.009074112959236854,-0.012972429200017104
0.7925,-0.005683810410011881,-0.7795280229999899,0.002188595335004362,-2.354480794999996,-0.0018009447750038455,1.568044279999994,0.7863817150000008,0.04,0.04,-9.800620449999988,-0.04273680169142752,-0.05339655550010829,0.018344118850024536,0.009230950102240933,-0.013059486650017181
0.795,-0.005744012340011938,-0.7794768819999899,0.0022106998900043827,-2.354462329999996,-0.0018204304500038637,1.568014219999994,0.7863856300000007,0.04,0.04,-9.800557299999987,-0.043112884834483306,-0.0539452870001088,0.018468457900024653,0.009387787245245019,-0.013146544100017263
0.7975,-0.0058042142700119904,-0.7794257409999898,0.0022328044450044024,-2.354443864999996,-0.001839916125003881,1.567984159999994,0.7863895450000008,0.04,0.04,-9.800494149999988,-0.043488967977539074,-0.05449401850010929,0.018592796950024765,0.009544624388249098,-0.01323360155001734
0.8,-0.005864416200012591,-0.7793745999999894,0.002254909000004623,-2.354425399999996,-0.001859401800004075,1.5679540999999937,0.7863934600000008,0.04,0.04,-9.80043099999999,-0.043865051120592635,-0.055042750000118885,0.018717136000025333,0.009701461531253895,-0.013320659000017719
0.8025,-0.005927333910012646,-0.7793212059999893,0.002278010950004643,-2.354406199999996,-0.001879766430004093,1.5679227199999937,0.7863975760000008,0.0399999985,0.03999999925,-9.800390799999992,-0.04423002097763003,-0.05563686550011941,0.018843742600025446,0.009861846454473727,-0.013409206550017799
0.805,-0.005990251620012705,-0.7792678119999892,0.0023011129000046647,-2.354386999999996,-0.0019001310600041121,1.5678913399999936,0.7864016920000008,0.039999997,0.0399999985,-9.800350599999991,-0.044594990834667426,-0.056230981000119966,0.018970349200025566,0.010022231377693567,-0.01349775410001788
0.8075,-0.006053169330012761,-0.7792144179999891,0.0023242148500046854,-2.354367799999996,-0.0019204956900041301,1.5678599599999936,0.7864058080000008,0.0399999955,0.03999999775,-9.800310399999992,-0.04495996069170482,-0.05682509650012049,0.019096955800025676,0.010182616300913399,-0.01358630165001796
0.81,-0.006116087040012819,-0.7791610239999891,0.002347316800004707,-2.3543485999999962,-0.0019408603200041492,1.5678285799999936,0.7864099240000009,0.039999994,0.039999997,-9.800270199999991,-0.045324930548742225,-0.057419212000121046,0.019223562400025797,0.010343001224133239,-0.013674849200018041
0.8125,-0.006179004750012875,-0.7791076299999891,0.0023704187500047276,-2.354329399999996,-0.0019612249500041675,1.5677971999999936,0.7864140400000008,0.0399999925,0.03999999625,-9.800229999999992,-0.04568990040577961,-0.05801332750012157,0.01935016900002591,0.01050338614735307,-0.01376339675001812
0.8150000000000001,-0.006241922460012934,-0.779054235999989,0.002393520700004749,-2.354310199999996,-0.0019815895800041864,1.5677658199999935,0.7864181560000009,0.039999991,0.0399999955,-9.800189799999991,-0.046054870262817016,-0.05860744300012213,0.019476775600026027,0.010663771070572911,-0.013851944300018203
0.8175,-0.00630576090001356,-0.7790000579999885,0.002416960790004979,-2.354290734999996,-0.0020022528550043893,1.5677339649999933,0.7864223265000009,0.03999999,0.03999999525,-9.800151999999994,-0.04643378965565015,-0.05920358170012391,0.01960408205002657,0.010825058305669712,-0.01394092455001855
0.8200000000000001,-0.006371440800013621,-0.7789443119999884,0.0024410771600050013,-2.354270739999996,-0.002023513420004409,1.5677011599999933,0.7864266060000009,0.03999999,0.039999996,-9.800118999999993,-0.04684060812004891,-0.05980376680012447,0.019732788200026694,0.010988150164518784,-0.014030770200018633
0.8225,-0.006437120700013679,-0.7788885659999883,0.002465193530005023,-2.354250744999996,-0.002044773985004428,1.5676683549999932,0.7864308855000008,0.03999999,0.03999999675,-9.800085999999993,-0.04724742658444765,-0.060403951900125,0.019861494350026807,0.011151242023367848,-0.014120615850018713
0.8250000000000001,-0.0065028006000137405,-0.7788328199999883,0.002489309900005045,-2.354230749999996,-0.002066034550004448,1.5676355499999932,0.7864351650000009,0.03999999,0.0399999975,-9.800052999999993,-0.04765424504884641,-0.06100413700012556,0.01999020050002693,0.01131433388221692,-0.014210461500018798
0.8275,-0.006568480500013799,-0.7787770739999883,0.002513426270005067,-2.354210754999996,-0.0020872951150044667,1.5676027449999932,0.7864394445000009,0.03999999,0.03999999825,-9.800019999999993,-0.04806106351324515,-0.06160432210012609,0.02011890665002704,0.011477425741065986,-0.014300307150018877
0.8300000000000001,-0.006634160400013861,-0.7787213279999882,0.002537542640005089,-2.354190759999996,-0.0021085556800044866,1.5675699399999932,0.786443724000001,0.03999999,0.039999999,-9.799986999999993,-0.04846788197764391,-0.06220450720012666,0.02024761280002716,0.011640517599915058,-0.01439015280001896
0.8325,-0.0066998403000139185,-0.7786655819999881,0.002561659010005111,-2.354170764999996,-0.0021298162450045055,1.5675371349999931,0.7864480035000009,0.03999999,0.03999999975,-9.799953999999994,-0.04887470044204265,-0.06280469230012718,0.020376318950027276,0.011803609458764122,-0.01447999845001904
0.835,-0.006767391690014574,-0.7786082899999877,0.0025864626100053517,-2.3541500899999956,-0.002151682750004718,1.5675034199999929,0.786452407000001,0.03999999,0.04,-9.799934499999997,-0.04927174001940481,-0.06344221160013964,0.020506412000027834,0.01196824423972305,-0.014570587100019357
0.8375,-0.006835878825014638,-0.7785502249999876,0.0026116098250053748,-2.3541290749999955,-0.0021738522250047384,1.5674692499999927,0.786456872500001,0.03999999,0.04,-9.799921749999998,-0.049663890153253364,-0.06409839800014025,0.020637198500027956,0.01213365048173618,-0.014661547250019441
0.84,-0.006904365960014699,-0.7784921599999876,0.0026367570400053974,-2.3541080599999957,-0.002196021700004758,1.5674350799999928,0.786461338000001,0.03999999,0.04,-9.799908999999998,-0.05005604028710191,-0.06475458440014084,0.02076798500002807,0.012299056723749301,-0.014752507400019522
0.8425,-0.006972853095014763,-0.7784340949999875,0.0026619042550054205,-2.3540870449999955,-0.002218191175004779,1.5674009099999928,0.786465803500001,0.03999999,0.04,-9.799896249999998,-0.05044819042095046,-0.06541077080014145,0.020898771500028192,0.012464462965762431,-0.014843467550019607
0.845,-0.007041340230014823,-0.7783760299999875,0.002687051470005443,-2.3540660299999954,-0.0022403606500047985,1.5673667399999927,0.786470269000001,0.03999999,0.04,-9.799883499999998,-0.050840340554799,-0.06606695720014202,0.02102955800002831,0.012629869207775552,-0.014934427700019688
0.8475,-0.007109827365014887,-0.7783179649999874,0.0027121986850054663,-2.354045014999995,-0.0022625301250048194,1.5673325699999927,0.786474734500001,0.03999999,0.04,-9.799870749999998,-0.051232490688647554,-0.06672314360014264,0.021160344500028433,0.012795275449788682,-0.015025387850019773
0.85,-0.0071783145000155705,-0.7782598999999868,0.0027373459000057175,-2.354023999999995,-0.0022846996000050403,1.5672983999999923,0.786479200000001,0.03999999,0.04,-9.799857999999986,-0.0516246408225061,-0.06737933000014328,0.021291131000029006,0.01296068169180259,-0.015116348000020116
0.8525,-0.007249652535015637,-0.7781994349999868,0.0027635402800057418,-2.354002024999995,-0.002307790810005062,1.5672628049999924,0.7864838725000011,0.03999999,0.04,-9.799793049999986,-0.05206262208530959,-0.0680357690001439,0.02142401765002913,0.013129695784337538,-0.015208509350020202
