rsonawane2002/My_IMU/log_temp/traj_301/imu_301.csv
time,j1,j2,j3,j4,j5,j6,j7,gripper1,gripper2,imu_ax,imu_ay,imu_az,imu_gx,imu_gy,imu_gz
553.5333333331586,0.00016700293,-0.785875,4.0107683e-05,-2.3551247,9.29385e-05,1.570997,0.786,0.04,0.04,-9.527608,0.015391453169286251,0.08596422,1.10834044e-07,-0.0011641276068985462,7.264245e-08
553.5499999998252,0.00016701267,-0.78576016,4.0115137e-05,-2.3552213,9.296931e-05,1.5709941,0.786,0.04,0.04,-9.834392,0.0006441472796723247,0.009081224,-2.6414162e-07,-0.0022370859514921904,6.9886846e-07
553.5666666664919,0.00016707099,-0.7856541,4.012589e-05,-2.35531,9.296495e-05,1.5709913,0.786,0.04,0.04,-9.832439,0.0006814440712332726,0.0076177623,-6.452768e-07,-0.003222203813493252,-8.841427e-07
553.5833333331585,0.00016725886,-0.7855565,4.0146442e-05,-2.355391,9.287271e-05,1.5709884,0.786,0.04,0.04,-9.83058,0.0007585731218568981,0.0063172807,-1.9634335e-06,-0.004120906349271536,-5.8189526e-06
553.5999999998252,0.00016769295,-0.7854663,4.0186296e-05,-2.3554652,9.261665e-05,1.5709856,0.786,0.04,0.04,-9.828785,0.0008671988034620881,0.0051740226,-3.657054e-06,-0.004932729993015528,-1.5537551e-05
553.6166666664918,0.00016852238,-0.78538275,4.0257662e-05,-2.355532,9.21018e-05,1.5709827,0.786,0.04,0.04,-9.8271265,0.0010097750928252935,0.0041528996,-6.0445573e-06,-0.00566172506660223,-3.133913e-05
553.6333333331585,0.00016992516,-0.785305,4.0375042e-05,-2.3555934,9.121428e-05,1.5709797,0.7860019,0.04,0.04,-9.825446,0.0011684112250804901,0.0032210802,-8.411955e-06,-0.0063048796728253365,-5.4363205e-05
553.6499999998251,0.0001721049,-0.7852324,4.055517e-05,-2.3556511,8.982214e-05,1.5709765,0.7860038,0.04,0.04,-9.824116,0.0013538420898839831,0.0024034642,-1.9470055e-05,-0.006873959209769964,-8.5660555e-05
553.6666666664918,0.0001752886,-0.7851642,4.0816594e-05,-2.3557017,8.779169e-05,1.5709726,0.7860071,0.04,0.039999995,-9.822957,0.0015568549279123545,0.0016531113,-2.9375668e-05,-0.007372802123427391,-0.00012537306
553.6833333331584,0.00017972372,-0.7850996,4.117978e-05,-2.3557477,8.494293e-05,1.5709659,0.7860109,0.04,0.04,-9.821459,0.001765579916536808,0.000981417,-4.404392e-05,-0.007790202274918556,-0.00017668208
553.6999999998251,0.00018567574,-0.7850382,4.1666437e-05,-2.3557901,8.1125814e-05,1.5709589,0.78601664,0.04,0.039999995,-9.820357,0.00199170783162117,0.00041645626,-5.8808488e-05,-0.008145767264068127,-0.00023716307
553.7166666664917,0.00019342646,-0.78497875,4.229983e-05,-2.355826,7.6149205e-05,1.5709484,0.7860242,0.04,0.039999995,-9.819365,0.002209082478657365,-0.0001743806,-7.876612e-05,-0.00843309611082077,-0.00030983487
553.7333333331584,0.00020327154,-0.7849208,4.3104144e-05,-2.3558602,6.982448e-05,1.5709375,0.7860333,0.04,0.039999995,-9.818093,0.0024362129624933004,-0.0006740056,-0.00010312166,-0.008652491495013237,-0.00039445393
553.749999999825,0.00021551913,-0.78486353,4.4105018e-05,-2.355888,6.1939856e-05,1.5709231,0.7860446,0.04,0.04,-9.817426,0.0026404540985822678,-0.0012242493,-0.00012849947,-0.008812889456748962,-0.00049296045
553.7666666664917,0.00023048739,-0.7848064,4.5328383e-05,-2.3559115,5.2306357e-05,1.570906,0.78605795,0.04,0.04,-9.816256,0.002873901044949889,-0.0017172995,-0.0001577305,-0.008905822411179543,-0.0006029219
553.7833333331583,0.000248504,-0.7847486,4.6801226e-05,-2.3559308,4.071987e-05,1.5708867,0.78607386,0.04,0.04,-9.815392,0.0030810043681412935,-0.0022171715,-0.00018834705,-0.008937370032072067,-0.0007252574
553.799999999825,0.0002699041,-0.7846896,4.8551014e-05,-2.355945,2.6969592e-05,1.5708638,0.78609294,0.04,0.039999995,-9.81456,0.0032744973432272673,-0.002734868,-0.00022190758,-0.00890552531927824,-0.00086118624
553.8166666664916,0.00029502923,-0.7846287,5.060608e-05,-2.3559566,1.0827688e-05,1.570837,0.7861153,0.04,0.039999995,-9.813667,0.003448176896199584,-0.0032343867,-0.0002590688,-0.008812958374619484,-0.0010117403
553.8333333331583,0.00032422616,-0.7845653,5.2994834e-05,-2.3559625,-7.928584e-06,1.5708057,0.7861412,0.04,0.039999995,-9.8131075,0.0035945919808000326,-0.003773784,-0.00029985083,-0.008670753799378872,-0.0011763271
553.849999999825,0.00035784574,-0.78449863,5.5746274e-05,-2.355966,-2.953327e-05,1.5707693,0.786171,0.04,0.04,-9.812232,0.003723520552739501,-0.0043420587,-0.0003436925,-0.008468146435916424,-0.0013558822
553.8666666664916,0.00039624184,-0.7844281,5.888948e-05,-2.355963,-5.4201813e-05,1.5707278,0.7862052,0.04,0.04,-9.8118305,0.003833866212517023,-0.0049580387,-0.00039077125,-0.008223213255405426,-0.0015489758
553.8833333331582,0.00043977067,-0.7843533,6.245379e-05,-2.3559558,-8.2154e-05,1.5706815,0.78624403,0.04,0.039999995,-9.810907,0.0039056171663105488,-0.0056469254,-0.00044202243,-0.007917037233710289,-0.0017557691
553.8999999998249,0.0004887897,-0.7842735,6.646862e-05,-2.3559444,-0.000113646405,1.5706289,0.7862876,0.04,0.04,-9.810332,0.003931903280317783,-0.006386959,-0.0004972672,-0.007558434270322323,-0.001979425
553.9166666664916,0.0005436569,-0.7841882,7.096331e-05,-2.3559284,-0.00014887028,1.5705706,0.7863365,0.04,0.039999995,-9.809769,0.003946587909013033,-0.007183957,-0.0005551476,-0.007152446545660496,-0.0022145333
553.9333333331582,0.0006047303,-0.78409684,7.596743e-05,-2.3559084,-0.00018807438,1.5705055,0.7863909,0.04,0.039999995,-9.809234,0.0038983479607850313,-0.008077414,-0.00061731174,-0.006696689873933792,-0.0024658593
553.9499999998249,0.0006723675,-0.7839987,8.151067e-05,-2.3558826,-0.00023150537,1.5704335,0.78645116,0.039999995,0.04,-9.808779,0.003804258070886135,-0.009036805,-0.00068287295,-0.006197301670908928,-0.0027333228
553.9666666664915,0.0007469243,-0.7838938,8.7622175e-05,-2.3558521,-0.00027938062,1.5703542,0.7865175,0.03999999,0.04,-9.80819,0.0036766566336154938,-0.010123922,-0.00075174606,-0.0056486488319933414,-0.0030145345
553.9833333331582,0.0008287546,-0.783781,9.4331066e-05,-2.3558168,-0.00033192532,1.5702674,0.7865904,0.039999988,0.04,-9.807663,0.003500022692605853,-0.011258002,-0.0008238151,-0.005052277352660894,-0.0033103102
553.9999999998248,0.0009182108,-0.78365993,0.000101666184,-2.355776,-0.00038935864,1.5701727,0.7866699,0.039999984,0.04,-9.807264,0.0032397666946053505,-0.012570177,-0.00090002926,-0.004413720685988665,-0.003620619
554.0166666664915,0.0010156413,-0.7835298,0.00010965648,-2.35573,-0.0004519034,1.5700694,0.7867566,0.03999998,0.039999995,-9.806789,0.002984830178320408,-0.013950104,-0.0009785594,-0.0037314658984541893,-0.0039445194
554.0333333331581,0.0011213928,-0.7833902,0.00011833036,-2.3556783,-0.0005197816,1.5699573,0.78685063,0.039999977,0.03999999,-9.806391,0.002640398219227791,-0.015486856,-0.0010605828,-0.0030087351333349943,-0.0042828093
554.0499999998248,0.0012358077,-0.78324103,0.00012771593,-2.3556213,-0.0005932129,1.569836,0.78695244,0.039999973,0.03999999,-9.805932,0.0022287527099251747,-0.017150607,-0.0011461449,-0.002244127681478858,-0.00463626
554.0666666664914,0.0013592243,-0.7830817,0.00013784123,-2.3555586,-0.0006724135,1.5697054,0.7870622,0.03999997,0.039999988,-9.80559,0.0017615980468690395,-0.018939696,-0.0012349956,-0.0014408598653972149,-0.0050030723
554.0833333331581,0.0014919774,-0.7829121,0.00014873366,-2.3554897,-0.0007575978,1.5695648,0.7871803,0.03999997,0.039999988,-9.80522,0.001223770435899496,-0.02086791,-0.001327165,-0.0005986550822854042,-0.0053839935
554.0999999998247,0.0016343963,-0.7827312,0.00016042052,-2.355415,-0.000848977,1.5694143,0.78730696,0.03999997,0.039999988,-9.80478,0.0006223972886800766,-0.022914808,-0.0014223505,0.0002846923307515681,-0.005778929
554.1166666664914,0.0017868074,-0.7825384,0.00017292853,-2.3553345,-0.00094675994,1.5692532,0.78744256,0.03999997,0.03999999,-9.804449,-5.760602653026581e-05,-0.025168445,-0.0015202865,0.0012050187215209007,-0.0061886385
554.133333333158,0.0019495307,-0.7823338,0.00018628387,-2.3552473,-0.0010511513,1.5690811,0.78758734,0.03999997,0.03999999,-9.8041525,-0.0008036606013774872,-0.027593464,-0.0016217369,0.002159787341952324,-0.0066112843
554.1499999998247,0.0021228814,-0.7821168,0.00020051276,-2.3551538,-0.0011623532,1.5688978,0.78774154,0.03999997,0.03999999,-9.803771,-0.0016287583857774734,-0.030152308,-0.0017263832,0.003150853095576167,-0.007047615
554.1666666664913,0.0023071703,-0.7818868,0.00021564079,-2.3550534,-0.0012805646,1.568703,0.78790545,0.039999966,0.03999999,-9.803494,-0.0025370121002197266,-0.03289381,-0.0018336297,0.004175480920821428,-0.0074983616
554.183333333158,0.0025027005,-0.7816436,0.00023169281,-2.3549461,-0.0014059794,1.5684963,0.7880794,0.03999996,0.039999988,-9.803118,-0.003515792079269886,-0.03582567,-0.0019436736,0.005235667340457439,-0.007961714
554.1999999998246,0.0027097736,-0.7813867,0.0002486937,-2.3548324,-0.0015387905,1.5682775,0.7882635,0.039999954,0.03999998,-9.80284,-0.004585311748087406,-0.03893485,-0.0020564217,0.0063275485299527645,-0.008438412
554.2166666664913,0.0029286817,-0.7811156,0.00026666757,-2.354712,-0.0016791853,1.5680461,0.7884582,0.03999995,0.03999998,-9.802575,-0.005745620466768742,-0.042246938,-0.002171849,0.00745019456371665,-0.00892916
554.2333333331579,0.0031597125,-0.78083026,0.0002856379,-2.3545847,-0.0018273479,1.5678018,0.78866374,0.039999947,0.039999977,-9.802353,-0.006982352584600449,-0.04575579,-0.0022900545,0.008601434528827667,-0.009432159
554.2499999998246,0.0034031481,-0.78053004,0.00030562805,-2.3544502,-0.0019834593,1.5675448,0.7888803,0.039999943,0.039999977,-9.802128,-0.008364357985556126,-0.04948763,-0.0024109918,0.009781433269381523,-0.0099490015
554.2666666664912,0.003659264,-0.78021437,0.0003266608,-2.3543081,-0.0021476953,1.5672741,0.78910804,0.03999994,0.039999973,-9.8018265,-0.009742788039147854,-0.05338513,-0.0025342526,0.010991615243256092,-0.010477859
554.2833333331579,0.0039283284,-0.7798834,0.00034875819,-2.3541589,-0.0023202284,1.5669897,0.7893474,0.039999936,0.03999997,-9.801598,-0.01126022543758154,-0.057530455,-0.0026597169,0.012227406725287437,-0.011019471
554.2999999998245,0.004210608,-0.7795365,0.00037194195,-2.3540018,-0.0025012295,1.5666918,0.7895984,0.039999932,0.03999997,-9.801363,-0.012883661314845085,-0.061872322,-0.0027881654,0.013490080833435059,-0.011574593
554.3166666664912,0.004506358,-0.77917343,0.0003962332,-2.3538365,-0.0026908596,1.5663793,0.7898614,0.039999932,0.03999997,-9.801116,-0.01459590345621109,-0.066454805,-0.002918278,0.014780547469854355,-0.012141382
554.3333333331578,0.004815828,-0.7787936,0.00042165277,-2.3536634,-0.0028892825,1.5660523,0.7901366,0.039999936,0.039999977,-9.8007965,-0.01642138883471489,-0.0712424,-0.0030505504,0.016097871586680412,-0.012721459
554.3499999998245,0.0051392647,-0.778397,0.00044822055,-2.3534818,-0.0030966531,1.5657107,0.7904243,0.039999943,0.039999984,-9.80062,-0.018333572894334793,-0.076288216,-0.0031848478,0.017437191680073738,-0.01331304
554.3666666664911,0.005476905,-0.7779834,0.00047595627,-2.3532915,-0.0033131242,1.5653539,0.7907246,0.039999947,0.039999988,-9.800268,-0.02036088891327381,-0.08154674,-0.003321857,0.018804751336574554,-0.013916829
554.3833333331578,0.0058289827,-0.7775523,0.00050487916,-2.3530934,-0.0035388456,1.5649818,0.7910377,0.03999995,0.039999995,-9.800023,-0.022499993443489075,-0.087024674,-0.0034606196,0.020195508375763893,-0.014533619
554.3999999998244,0.0061957217,-0.77710336,0.0005350077,-2.3528867,-0.00377396,1.5645944,0.7913637,0.039999954,0.04,-9.79982,-0.024740982800722122,-0.09276924,-0.0036010244,0.021607356145977974,-0.015161595
554.4166666664911,0.006577344,-0.77663654,0.0005663598,-2.3526714,-0.0040186094,1.5641912,0.79170305,0.039999954,0.04,-9.799572,-0.027096379548311234,-0.09876548,-0.0037429172,0.0230407752096653,-0.015801527
554.4333333331577,0.006974061,-0.7761514,0.0005989534,-2.352448,-0.0042729303,1.5637722,0.79205596,0.039999943,0.03999999,-9.799362,-0.02956809476017952,-0.10498774,-0.0038866815,0.024494357407093048,-0.016454168
554.4499999998244,0.0073860777,-0.77564776,0.0006328051,-2.352216,-0.004537055,1.5633368,0.7924222,0.039999936,0.039999984,-9.799177,-0.032148122787475586,-0.11147991,-0.0040330654,0.025966497138142586,-0.017117731
554.466666666491,0.007813594,-0.7751253,0.0006679315,-2.3519752,-0.0048111086,1.5628853,0.79280216,0.039999932,0.039999984,-9.798962,-0.034852106124162674,-0.118230745,-0.0041793967,0.027456160634756088,-0.017793868
554.4833333331577,0.008256806,-0.7745836,0.0007043489,-2.3517244,-0.005095218,1.562417,0.7931962,0.03999993,0.03999998,-9.798742,-0.037671081721782684,-0.12524381,-0.0043269764,0.02896396443247795,-0.018480746
554.4999999998244,0.008715899,-0.7740229,0.00074207195,-2.351465,-0.005389503,1.5619323,0.79360443,0.039999925,0.03999998,-9.798435,-0.040672652423381805,-0.13256691,-0.0044767344,0.030492164194583893,-0.019180043
554.516666666491,0.009191054,-0.77344245,0.000781116,-2.3511963,-0.00569408,1.5614301,0.7940269,0.039999925,0.03999998,-9.798158,-0.0436755008995533,-0.14004834,-0.0046280166,0.03203820809721947,-0.01988997
554.5333333331577,0.009682445,-0.7728423,0.00082149537,-2.3509192,-0.0060090586,1.560911,0.7944639,0.03999992,0.03999998,-9.797947,-0.04687394201755524,-0.14784683,-0.0047803745,0.033596429973840714,-0.020612108
554.5499999998243,0.010190242,-0.7722222,0.0008632241,-2.3506327,-0.006334547,1.5603749,0.7949153,0.039999913,0.039999973,-9.797826,-0.0501863919198513,-0.15593885,-0.0049342113,0.03516674414277077,-0.021344755
554.566666666491,0.010714605,-0.771582,0.00090631517,-2.3503356,-0.0066706473,1.5598211,0.79538155,0.03999991,0.03999997,-9.797511,-0.05363068729639053,-0.16429585,-0.0050885547,0.036753084510564804,-0.022088688
554.5833333331576,0.011255688,-0.77092147,0.0009507815,-2.3500295,-0.007017461,1.5592496,0.79586256,0.039999906,0.03999997,-9.797113,-0.05721207708120346,-0.1729222,-0.0052439263,0.038357965648174286,-0.022844698
554.5999999998243,0.011813645,-0.77024037,0.0009966352,-2.3497148,-0.007375086,1.5586604,0.79635864,0.039999902,0.039999966,-9.7969,-0.06091921776533127,-0.18181539,-0.0054000877,0.03997289389371872,-0.02361198
554.6166666664909,0.01238861,-0.7695387,0.0010438884,-2.3493893,-0.007743611,1.5580534,0.7968699,0.039999902,0.039999973,-9.796776,-0.06476728618144989,-0.19101816,-0.005557143,0.04159454256296158,-0.024391087
554.6333333331576,0.012980728,-0.7688161,0.0010925514,-2.349054,-0.008123123,1.5574281,0.7973963,0.0399999,0.039999988,-9.796314,-0.06876309961080551,-0.20047395,-0.005715221,0.043233755975961685,-0.02518463
554.6499999998242,0.013590126,-0.7680724,0.0011426364,-2.3487096,-0.008513703,1.5567847,0.7979381,0.039999895,0.039999995,-9.79599,-0.07285483926534653,-0.21022767,-0.005873666,0.044883761554956436,-0.025984785
554.6666666664909,0.014216929,-0.7673075,0.001194153,-2.348355,-0.008915436,1.5561229,0.79849535,0.03999989,0.039999995,-9.795763,-0.07711265981197357,-0.22026989,-0.0060326313,0.046540357172489166,-0.026796151
554.6833333331575,0.014861253,-0.7665213,0.0012471102,-2.3479903,-0.009328389,1.5554426,0.7990682,0.03999989,0.039999995,-9.795421,-0.0814991444349289,-0.23059854,-0.006191803,0.04820624738931656,-0.0276175
554.6999999998242,0.015523215,-0.7657135,0.0013015181,-2.347616,-0.009752635,1.5547433,0.7996567,0.039999887,0.039999995,-9.79504,-0.08604716509580612,-0.24121825,-0.006351831,0.04988126456737518,-0.02845059
554.7166666664908,0.016202914,-0.76488405,0.0013573853,-2.3472314,-0.010188241,1.5540252,0.800261,0.039999887,0.039999995,-9.794754,-0.09072542935609818,-0.25212163,-0.0065115034,0.051559753715991974,-0.029293628
554.7333333331575,0.01690046,-0.7640329,0.00141472,-2.3468366,-0.010635278,1.5532887,0.80088115,0.039999884,0.039999995,-9.794359,-0.09555891156196594,-0.2633328,-0.0066720773,0.05324479565024376,-0.030148292
554.7499999998241,0.017615935,-0.76316005,0.0014735294,-2.3464315,-0.011093811,1.5525334,0.80151725,0.039999884,0.039999995,-9.793956,-0.10059865564107895,-0.274889,-0.0068320152,0.054939448833465576,-0.031012831
554.7666666664908,0.018349431,-0.76226526,0.0015338216,-2.3460166,-0.01156387,1.551759,0.8021693,0.039999887,0.04,-9.793465,-0.10565787553787231,-0.2866144,-0.0069924146,0.05664145573973656,-0.03188809
554.7833333331574,0.019101035,-0.7613483,0.0015956027,-2.3455906,-0.012045527,1.5509653,0.80283755,0.039999884,0.04,-9.79311,-0.11094377189874649,-0.29869512,-0.0071524847,0.058344461023807526,-0.03277487
554.7999999998241,0.019870814,-0.7604092,0.0016588792,-2.345155,-0.012538822,1.5501528,0.803522,0.039999884,0.04,-9.792501,-0.11636628210544586,-0.3110737,-0.0073127686,0.0600549653172493,-0.03367155
554.8166666664907,0.020658849,-0.75944775,0.0017236568,-2.344709,-0.013043799,1.5493206,0.80422246,0.039999884,0.04,-9.792124,-0.12195944041013718,-0.32375863,-0.0074728136,0.06176682934165001,-0.034579493
554.8333333331574,0.021465192,-0.75846416,0.0017899412,-2.3442523,-0.013560512,1.5484691,0.80493915,0.03999988,0.04,-9.791599,-0.1277117282152176,-0.33672687,-0.007631655,0.06347925961017609,-0.03549886
554.849999999824,0.02228991,-0.75745815,0.0018577368,-2.3437855,-0.014088987,1.5475982,0.8056725,0.039999876,0.04,-9.7910185,-0.13359932601451874,-0.34997606,-0.007790111,0.06519556045532227,-0.03642777
554.8666666664907,0.023133058,-0.7564296,0.0019270487,-2.3433084,-0.014629284,1.5467081,0.8064218,0.039999865,0.04,-9.790491,-0.13967294991016388,-0.36355639,-0.007949301,0.06691151857376099,-0.03736878
554.8833333331573,0.023994679,-0.75537837,0.0019978797,-2.3428206,-0.015181439,1.5457984,0.80718803,0.039999854,0.04,-9.789882,-0.14588868618011475,-0.37743104,-0.008105933,0.06862851232290268,-0.03832003
554.899999999824,0.024874818,-0.75430465,0.0020702344,-2.3423226,-0.015745461,1.5448691,0.80797046,0.039999846,0.04,-9.789253,-0.15227000415325165,-0.39160934,-0.008263998,0.07034464180469513,-0.039280713
554.9166666664906,0.025773503,-0.7532082,0.0021441146,-2.341814,-0.016321369,1.5439202,0.80876935,0.039999843,0.04,-9.788587,-0.1588127166032791,-0.4060634,-0.008420084,0.07205916941165924,-0.040250823
554.9333333331573,0.026690776,-0.7520892,0.0022195235,-2.3412948,-0.016909162,1.5429518,0.8095849,0.039999835,0.04,-9.7879095,-0.16552594304084778,-0.4208316,-0.008575205,0.07377106696367264,-0.04123118
554.949999999824,0.027626654,-0.7509474,0.0022964636,-2.3407648,-0.017508892,1.5419632,0.81041694,0.039999828,0.04,-9.78711,-0.17241758108139038,-0.43588904,-0.008730368,0.07548331469297409,-0.04222334
554.9666666664906,0.02858116,-0.74978304,0.0023749357,-2.3402243,-0.018120566,1.5409553,0.81126547,0.039999828,0.04,-9.786326,-0.17945869266986847,-0.4512387,-0.008883836,0.07719069719314575,-0.043224767
554.9833333331572,0.029554311,-0.74859583,0.0024549414,-2.3396733,-0.018744169,1.5399278,0.81213063,0.039999828,0.04,-9.7855015,-0.18667425215244293,-0.46688974,-0.009035762,0.0788956731557846,-0.044234585
554.9999999998239,0.030546112,-0.7473859,0.002536482,-2.3391118,-0.019379713,1.5388805,0.81301236,0.03999982,0.04,-9.78467,-0.19415044784545898,-0.48290095,-0.0091869095,0.08059690147638321,-0.045256063
555.0166666664906,0.03155656,-0.7461534,0.0026195562,-2.3385398,-0.020027217,1.5378137,0.81391066,0.039999817,0.04,-9.783719,-0.20164312422275543,-0.49908286,-0.009336875,0.08229212462902069,-0.046287425
555.0333333331572,0.032585673,-0.7448981,0.002704166,-2.3379574,-0.020686666,1.5367273,0.8148255,0.039999817,0.04,-9.782769,-0.20938138663768768,-0.51561755,-0.009485164,0.08398324996232986,-0.047327876
555.0499999998239,0.033633422,-0.74362004,0.0027903104,-2.3373644,-0.02135806,1.5356208,0.815757,0.039999813,0.04,-9.781769,-0.21730093657970428,-0.53246015,-0.009631481,0.08566801249980927,-0.04837813
555.0666666664905,0.034699805,-0.7423191,0.0028779865,-2.3367605,-0.022041393,1.5344949,0.8167049,0.039999805,0.04,-9.780695,-0.22540101408958435,-0.5495724,-0.00977666,0.0873451679944992,-0.04943892
555.0833333331572,0.035784822,-0.7409955,0.0029671951,-2.3361464,-0.022736661,1.5333495,0.81766945,0.0399998,0.04,-9.779581,-0.23367108404636383,-0.567003,-0.009919888,0.08901549130678177,-0.05050844
555.0999999998238,0.036888413,-0.7396493,0.003057934,-2.3355212,-0.023443853,1.5321842,0.8186506,0.039999794,0.04,-9.778414,-0.24214132130146027,-0.5847047,-0.010061238,0.0906791239976883,-0.05158994
555.1166666664905,0.038010582,-0.73828053,0.0031502005,-2.3348863,-0.02416294,1.5309993,0.8196482,0.039999794,0.04,-9.777132,-0.25076544284820557,-0.6026884,-0.010201407,0.09233472496271133,-0.052678436
555.1333333331571,0.03915128,-0.736889,0.0032439923,-2.3342404,-0.02489389,1.529795,0.8206623,0.039999783,0.04,-9.775926,-0.25959843397140503,-0.620957,-0.010339228,0.09397856146097183,-0.05377725
555.1499999998238,0.0403105,-0.7354748,0.0033393058,-2.333584,-0.02563672,1.5285712,0.8216928,0.03999978,0.04,-9.774554,-0.2686123251914978,-0.6395391,-0.010475361,0.0956147089600563,-0.05488594
555.1666666664904,0.041488163,-0.7340383,0.0034361382,-2.3329172,-0.026391363,1.5273278,0.8227396,0.039999772,0.04,-9.773098,-0.27779972553253174,-0.6583819,-0.010608721,0.09724149107933044,-0.05600307
555.1833333331571,0.04268423,-0.73257935,0.0035344856,-2.3322399,-0.027157804,1.5260649,0.8238028,0.03999977,0.04,-9.771665,-0.2871822118759155,-0.67749786,-0.010739171,0.09885572642087936,-0.05712923
555.1999999998237,0.04389867,-0.7310979,0.0036343432,-2.3315525,-0.027936006,1.5247828,0.8248823,0.03999976,0.04,-9.770066,-0.29675838351249695,-0.6968941,-0.010868054,0.10046062618494034,-0.058265217
555.2166666664904,0.04513141,-0.72959405,0.003735708,-2.3308542,-0.02872594,1.5234812,0.8259783,0.039999757,0.04,-9.768517,-0.3065132796764374,-0.71659976,-0.010994044,0.10205201804637909,-0.059408404
555.233333333157,0.046382405,-0.728068,0.0038385743,-2.3301456,-0.029527547,1.5221606,0.82709044,0.039999757,0.04,-9.766759,-0.31646907329559326,-0.7365401,-0.01111858,0.10363306105136871,-0.060560316
555.2499999998237,0.047651567,-0.7265198,0.0039429357,-2.3294272,-0.030340804,1.5208207,0.8282186,0.03999975,0.04,-9.765059,-0.3266960382461548,-0.756823,-0.011240437,0.10520056635141373,-0.061722618
555.2666666664903,0.04893884,-0.72494936,0.004048787,-2.328698,-0.03116567,1.5194614,0.829363,0.039999742,0.04,-9.763222,-0.33696290850639343,-0.7772692,-0.011358479,0.10675317794084549,-0.06289235
555.283333333157,0.05024415,-0.723357,0.0041561234,-2.3279588,-0.032002088,1.518083,0.83052343,0.039999742,0.04,-9.761243,-0.34750932455062866,-0.79804206,-0.011475013,0.10829261690378189,-0.06407298
555.2999999998236,0.051567424,-0.7217429,0.004264938,-2.3272102,-0.032850035,1.5166856,0.8316997,0.03999974,0.04,-9.759309,-0.35828331112861633,-0.81906384,-0.011588417,0.10981514304876328,-0.06526654
555.3166666664903,0.05290857,-0.7201071,0.0043752226,-2.3264506,-0.033709414,1.5152693,0.8328919,0.039999735,0.04,-9.757296,-0.3691679835319519,-0.84035033,-0.011698313,0.11132027208805084,-0.06645984
555.3333333331569,0.0542675,-0.7184496,0.004486971,-2.325681,-0.0345802,1.5138342,0.83409995,0.039999727,0.04,-9.754988,-0.38029539585113525,-0.86189973,-0.011804982,0.1128147691488266,-0.0676621
555.3499999998236,0.05564412,-0.71677005,0.0046001775,-2.3249018,-0.035462346,1.5123801,0.8353237,0.039999723,0.04,-9.752754,-0.391631543636322,-0.8837172,-0.011909313,0.11429294943809509,-0.068872
555.3666666664902,0.057038344,-0.7150691,0.004714831,-2.3241122,-0.036355726,1.5109075,0.83656305,0.039999716,0.04,-9.75051,-0.40316542983055115,-0.9058056,-0.012010095,0.11574883759021759,-0.07008907
555.3833333331569,0.058450073,-0.71334684,0.004830925,-2.3233125,-0.037260346,1.5094179,0.8378179,0.03999971,0.04,-9.748009,-0.41490069031715393,-0.92812604,-0.012107104,0.117189921438694,-0.07131391
555.3999999998235,0.059879195,-0.7116035,0.00494845,-2.3225033,-0.038176086,1.5079094,0.8390884,0.039999697,0.04,-9.745409,-0.42684054374694824,-0.9507177,-0.012201005,0.11862156540155411,-0.07254675
555.4166666664902,0.061325606,-0.709839,0.005067397,-2.3216844,-0.03910292,1.506382,0.8403741,0.039999694,0.04,-9.7428465,-0.4389820098876953,-0.9734943,-0.012291855,0.12003149837255478,-0.07378657
555.4333333331568,0.06278919,-0.7080535,0.005187759,-2.3208551,-0.040040776,1.504837,0.84167516,0.039999682,0.04,-9.740126,-0.4513339400291443,-0.99652475,-0.012378622,0.12141942977905273,-0.075033784
555.4499999998235,0.06426985,-0.7062472,0.0053095245,-2.3200169,-0.04098954,1.5032738,0.84299135,0.039999682,0.04,-9.7372,-0.4638631343841553,-1.019827,-0.012462263,0.12279464304447174,-0.07628465
555.4666666664901,0.0657674,-0.7044201,0.005432686,-2.3191688,-0.04194916,1.501693,0.84432256,0.03999967,0.04,-9.734358,-0.4766522943973541,-1.0433434,-0.012541848,0.12414595484733582,-0.07754499
555.4833333331568,0.067281775,-0.7025725,0.0055572297,-2.3183112,-0.042919565,1.5000943,0.84566873,0.03999966,0.04,-9.731305,-0.4896092116832733,-1.0671027,-0.01261775,0.1254790723323822,-0.078810655
555.4999999998234,0.068812855,-0.70070463,0.0056831473,-2.317444,-0.043900665,1.4984779,0.84702975,0.039999656,0.04,-9.728175,-0.5028479099273682,-1.0911057,-0.0126898,0.12679119408130646,-0.080080576
555.5166666664901,0.07036048,-0.6988166,0.005810427,-2.3165677,-0.044892356,1.4968437,0.8484054,0.039999645,0.04,-9.724859,-0.5161672234535217,-1.1152625,-0.012757934,0.1280842274427414,-0.08135727
555.5333333331567,0.07192453,-0.6969086,0.005939059,-2.3156824,-0.045894586,1.4951926,0.84979576,0.03999964,0.04,-9.721511,-0.5297666192054749,-1.1396625,-0.0128217675,0.12935355305671692,-0.082640834
555.5499999998234,0.07350486,-0.69498056,0.00606903,-2.314787,-0.04690724,1.4935242,0.85120064,0.039999638,0.04,-9.718076,-0.5435670018196106,-1.1643014,-0.01288195,0.13060176372528076,-0.083927915
555.56666666649,0.07510129,-0.6930331,0.0062003275,-2.313883,-0.047930203,1.4918387,0.85261965,0.03999963,0.04,-9.714313,-0.55757737159729,-1.1891483,-0.012938268,0.13183237612247467,-0.085220374
555.5833333331567,0.07671375,-0.691066,0.0063329423,-2.31297,-0.04896342,1.4901364,0.8540529,0.039999623,0.04,-9.71069,-0.5718087553977966,-1.2141727,-0.012989365,0.1330377757549286,-0.08651821
555.5999999998234,0.078342035,-0.6890794,0.006466861,-2.3120477,-0.05000681,1.4884171,0.85550046,0.039999608,0.04,-9.706806,-0.5862507820129395,-1.2394309,-0.013036369,0.13422146439552307,-0.0878204
555.61666666649,0.07998603,-0.68707395,0.006602072,-2.3111167,-0.05106023,1.4866816,0.85696185,0.039999597,0.04,-9.702871,-0.600898802280426,-1.2649004,-0.013080143,0.13538005948066711,-0.08912678
555.6333333331567,0.08164554,-0.68504953,0.006738561,-2.3101768,-0.052123625,1.4849297,0.85843676,0.03999959,0.04,-9.698718,-0.6157528758049011,-1.2905148,-0.013118523,0.13651883602142334,-0.09043633
555.6499999998233,0.083320394,-0.6830061,0.0068763164,-2.3092287,-0.053196855,1.4831613,0.8599253,0.039999582,0.04,-9.694462,-0.6308349967002869,-1.3163452,-0.013151472,0.13763485848903656,-0.09175015
555.66666666649,0.08501047,-0.68094397,0.0070153233,-2.308271,-0.05427983,1.4813771,0.8614275,0.03999957,0.04,-9.690206,-0.6461282968521118,-1.3423774,-0.013179865,0.13872182369232178,-0.09306729
555.6833333331566,0.08671559,-0.6788637,0.0071555693,-2.3073049,-0.055372465,1.479577,0.86294323,0.039999563,0.04,-9.6855955,-0.6616313457489014,-1.36859,-0.013203948,0.13978959619998932,-0.09438828
555.6999999998233,0.08843556,-0.6767653,0.0072970386,-2.306331,-0.05647461,1.4777609,0.86447227,0.039999552,0.04,-9.680954,-0.6773396134376526,-1.3949361,-0.013224543,0.14083297550678253,-0.09571054
555.7166666664899,0.09017024,-0.67464894,0.0074397186,-2.3053486,-0.057586182,1.4759296,0.86601424,0.03999954,0.04,-9.676249,-0.6932792663574219,-1.4214813,-0.013240479,0.1418485790491104,-0.09703589
555.7333333331566,0.091919445,-0.6725149,0.0075835935,-2.3043585,-0.058707066,1.4740831,0.8675692,0.039999533,0.04,-9.671345,-0.7094279527664185,-1.4482076,-0.013250879,0.1428401619195938,-0.09836326
555.7499999998232,0.093682945,-0.67036325,0.007728648,-2.3033597,-0.05983714,1.4722213,0.8691368,0.039999526,0.04,-9.666343,-0.7258646488189697,-1.4751079,-0.013256787,0.1438048779964447,-0.09969289
555.7666666664899,0.09546064,-0.6681945,0.007874869,-2.3023531,-0.060976293,1.4703444,0.8707171,0.03999952,0.04,-9.661107,-0.7423558831214905,-1.5021156,-0.013257681,0.144744873046875,-0.101023324
555.7833333331565,0.09725228,-0.66600853,0.008022239,-2.3013384,-0.06212438,1.4684528,0.8723098,0.03999951,0.04,-9.655744,-0.7591386437416077,-1.5292754,-0.013253989,0.14565949141979218,-0.102354094
555.7999999998232,0.09905774,-0.6638058,0.008170745,-2.300316,-0.0632813,1.4665469,0.8739147,0.039999504,0.04,-9.650278,-0.776149570941925,-1.5566132,-0.013245173,0.14654724299907684,-0.10368716
555.8166666664898,0.10087676,-0.66158646,0.008320372,-2.2992864,-0.06444694,1.4646264,0.8755317,0.039999496,0.04,-9.644628,-0.7933703064918518,-1.5840906,-0.013231178,0.14741002023220062,-0.105020516
555.8333333331565,0.1027092,-0.6593508,0.008471097,-2.2982485,-0.065621175,1.4626918,0.8771606,0.039999485,0.04,-9.638906,-0.810788094997406,-1.6116959,-0.013211731,0.14824306964874268,-0.10635292
555.8499999998231,0.104554825,-0.65709907,0.008622916,-2.297203,-0.066803865,1.4607433,0.8788012,0.039999474,0.04,-9.632867,-0.8284218311309814,-1.6394255,-0.013187703,0.14905311167240143,-0.107685134
555.8666666664898,0.10641343,-0.6548316,0.008775804,-2.2961502,-0.06799488,1.458781,0.8804534,0.039999466,0.04,-9.626764,-0.8462706208229065,-1.66729,-0.01315801,0.14983662962913513,-0.10901606
555.8833333331564,0.10828484,-0.65254855,0.008929745,-2.29509,-0.06919409,1.4568053,0.88211703,0.039999455,0.04,-9.62051,-0.864330530166626,-1.6952496,-0.013123724,0.1505928486585617,-0.11034721
555.8999999998231,0.110168844,-0.65024996,0.009084722,-2.2940233,-0.07040141,1.4548162,0.8837917,0.039999448,0.04,-9.61407,-0.8826040029525757,-1.7233547,-0.01308436,0.15132403373718262,-0.11167653
555.9166666664897,0.11206524,-0.6479363,0.00924072,-2.2929494,-0.07161661,1.4528142,0.8854774,0.03999944,0.04,-9.607616,-0.9011011123657227,-1.7515806,-0.013038624,0.15202219784259796,-0.11300317
555.9333333331564,0.113973804,-0.6456078,0.00939772,-2.2918684,-0.07283966,1.4507992,0.88717395,0.03999943,0.04,-9.600856,-0.9198031425476074,-1.7799071,-0.012988085,0.15269488096237183,-0.11432952
555.949999999823,0.11589432,-0.64326453,0.009555706,-2.290781,-0.07407036,1.4487717,0.88888115,0.039999418,0.04,-9.593913,-0.9386835694313049,-1.8082929,-0.012932262,0.1533409208059311,-0.11565156
555.9666666664897,0.11782661,-0.64090705,0.009714658,-2.2896862,-0.07530861,1.4467316,0.89059883,0.039999403,0.04,-9.586914,-0.9578083753585815,-1.8368449,-0.012871032,0.15395721793174744,-0.11697125
555.9833333331563,0.11977041,-0.63853556,0.00987456,-2.2885847,-0.076554224,1.4446795,0.89232683,0.0399994,0.04,-9.579614,-0.977110743522644,-1.8654207,-0.012804997,0.15454785525798798,-0.11828602
555.999999999823,0.12172553,-0.63615024,0.010035397,-2.2874773,-0.07780712,1.4426154,0.8940646,0.039999384,0.04,-9.572199,-0.9967116713523865,-1.8941195,-0.012733777,0.15511155128479004,-0.11960016
556.0166666664896,0.12369174,-0.63375115,0.010197146,-2.2863638,-0.079067126,1.4405397,0.8958125,0.03999938,0.04,-9.564699,-1.0163671970367432,-1.9228565,-0.012655988,0.15564535558223724,-0.12090716
556.0333333331563,0.1256688,-0.6313392,0.010359789,-2.285244,-0.080334105,1.4384525,0.8975698,0.03999937,0.04,-9.557012,-1.036337971687317,-1.9517267,-0.012573708,0.15614895522594452,-0.12221324
556.049999999823,0.12765647,-0.6289139,0.010523308,-2.2841182,-0.08160786,1.4363539,0.8993366,0.039999373,0.04,-9.54908,-1.0564407110214233,-1.9805889,-0.012484878,0.1566261649131775,-0.12351129
556.0666666664896,0.12965457,-0.6264761,0.010687686,-2.2829864,-0.08288832,1.4342445,0.90111256,0.039999366,0.04,-9.541038,-1.0768154859542847,-2.0095854,-0.012390693,0.1570725440979004,-0.124808095
556.0833333331562,0.13166285,-0.6240258,0.010852901,-2.2818487,-0.08417531,1.4321244,0.9028977,0.039999362,0.04,-9.532775,-1.097306728363037,-2.0385902,-0.012291295,0.1574927717447281,-0.12609242
556.0999999998229,0.13368109,-0.6215634,0.011018938,-2.2807055,-0.08546866,1.4299937,0.9046917,0.039999347,0.04,-9.524339,-1.118046760559082,-2.0676618,-0.012186975,0.15788428485393524,-0.12737225
556.1166666664896,0.13570905,-0.61908907,0.011185776,-2.2795572,-0.08676824,1.4278526,0.9064944,0.039999336,0.04,-9.515751,-1.1389834880828857,-2.0967722,-0.012077139,0.15824799239635468,-0.12864536
556.1333333331562,0.13774645,-0.6166034,0.011353394,-2.2784038,-0.08807389,1.4257019,0.9083054,0.03999933,0.04,-9.5070915,-1.1601206064224243,-2.1259496,-0.011961671,0.15857836604118347,-0.12990916
556.1499999998229,0.13979311,-0.6141063,0.011521773,-2.2772446,-0.08938545,1.4235413,0.9101245,0.03999931,0.04,-9.498134,-1.1814501285552979,-2.1551368,-0.011840623,0.15888188779354095,-0.13116753
556.1666666664895,0.14184882,-0.61159813,0.011690894,-2.2760801,-0.09070278,1.4213712,0.91195184,0.0399993,0.04,-9.488969,-1.2029457092285156,-2.1843576,-0.011713772,0.159158393740654,-0.13241637
556.1833333331562,0.14391321,-0.60907936,0.011860736,-2.2749114,-0.09202574,1.4191921,0.9137868,0.03999928,0.04,-9.479659,-1.2246659994125366,-2.2135937,-0.011582403,0.15940645337104797,-0.13365714
556.1999999998228,0.14598611,-0.6065501,0.012031279,-2.2737372,-0.09335418,1.4170039,0.91562945,0.03999927,0.04,-9.470256,-1.2465565204620361,-2.2428625,-0.011445428,0.15962406992912292,-0.13488853
556.2166666664895,0.14806731,-0.6040108,0.012202503,-2.2725587,-0.09468791,1.4148065,0.91747934,0.03999926,0.04,-9.460531,-1.268631935119629,-2.2721398,-0.011303408,0.15981566905975342,-0.13611072
556.2333333331561,0.1501565,-0.6014619,0.012374389,-2.2713754,-0.0960268,1.4126009,0.9193364,0.039999258,0.04,-9.450784,-1.2909079790115356,-2.3014019,-0.0111556165,0.15997397899627686,-0.13732281
556.2499999998228,0.15225345,-0.5989033,0.012546917,-2.2701876,-0.097370654,1.410387,0.9212003,0.03999925,0.04,-9.440695,-1.313382863998413,-2.3306725,-0.0110029,0.16010735929012299,-0.1385226
556.2666666664894,0.15435795,-0.59633553,0.012720065,-2.2689962,-0.098719336,1.4081655,0.9230709,0.03999923,0.04,-9.430527,-1.335972547531128,-2.3599586,-0.010844913,0.1602119654417038,-0.13971382
556.2833333331561,0.1564697,-0.593759,0.012893813,-2.2678,-0.1000727,1.4059361,0.9249481,0.03999922,0.04,-9.420256,-1.358782410621643,-2.3892343,-0.010681342,0.16028492152690887,-0.14089148
556.2999999998227,0.1585885,-0.59117395,0.013068138,-2.2666004,-0.101430535,1.4036995,0.92683136,0.03999921,0.04,-9.409611,-1.3817510604858398,-2.4184635,-0.01051368,0.16033346951007843,-0.14205854
556.3166666664894,0.16071405,-0.5885804,0.013243022,-2.2653966,-0.10279271,1.4014555,0.9287206,0.039999194,0.04,-9.398951,-1.4049166440963745,-2.4476912,-0.010339904,0.16035199165344238,-0.143213
556.333333333156,0.16284607,-0.5859788,0.013418442,-2.264189,-0.10415909,1.3992051,0.93061566,0.039999194,0.04,-9.388031,-1.4282282590866089,-2.4768991,-0.010160869,0.16034160554409027,-0.144353
556.3499999998227,0.16498442,-0.5833698,0.013594378,-2.2629776,-0.105529465,1.3969477,0.93251646,0.039999176,0.04,-9.376904,-1.4517347812652588,-2.5060778,-0.009977333,0.1603056937456131,-0.14548297
556.3666666664893,0.16712871,-0.58075356,0.01377081,-2.261763,-0.10690369,1.3946841,0.9344223,0.03999916,0.04,-9.36563,-1.4753801822662354,-2.5351698,-0.009789615,0.1602420061826706,-0.14659767
556.383333333156,0.16927876,-0.5781301,0.013947714,-2.2605455,-0.10828159,1.3924145,0.93633324,0.039999146,0.04,-9.354206,-1.4991931915283203,-2.564248,-0.009595915,0.16015009582042694,-0.14769806
556.3999999998226,0.17143424,-0.5755001,0.014125073,-2.259324,-0.109663025,1.390139,0.93824923,0.03999913,0.04,-9.342609,-1.5231859683990479,-2.5933075,-0.0093968585,0.16002987325191498,-0.14878461
556.4166666664893,0.17359497,-0.5728638,0.014302855,-2.2581003,-0.111047804,1.3878579,0.9401698,0.039999116,0.04,-9.330752,-1.5472967624664307,-2.6222599,-0.009194883,0.1598837822675705,-0.14985523
556.4333333331559,0.17576066,-0.5702215,0.014481055,-2.2568738,-0.112435766,1.3855717,0.9420947,0.039999105,0.04,-9.318828,-1.5715924501419067,-2.651175,-0.008987647,0.1597089320421219,-0.15090948
556.4499999998226,0.17793103,-0.56757325,0.014659637,-2.2556443,-0.11382674,1.3832806,0.94402385,0.039999086,0.04,-9.306696,-1.5960580110549927,-2.6800306,-0.008774972,0.159506157040596,-0.1519503
556.4666666664892,0.18010579,-0.5649198,0.014838587,-2.2544127,-0.115220554,1.3809848,0.9459568,0.03999908,0.04,-9.294327,-1.620611548423767,-2.7088358,-0.008558484,0.15927782654762268,-0.15297088
556.4833333331559,0.18228473,-0.5622612,0.015017879,-2.2531788,-0.116617024,1.3786843,0.9478935,0.039999064,0.04,-9.281827,-1.6453591585159302,-2.7375188,-0.008337617,0.15902268886566162,-0.15397777
556.4999999998225,0.18446757,-0.55959785,0.015197494,-2.2519424,-0.11801602,1.3763798,0.94983363,0.039999053,0.04,-9.269191,-1.6702808141708374,-2.7661583,-0.008111796,0.15873733162879944,-0.15496622
556.5166666664892,0.18665403,-0.55693024,0.015377408,-2.250704,-0.11941734,1.3740716,0.951777,0.03999905,0.04,-9.256306,-1.6952329874038696,-2.794708,-0.007881935,0.15842841565608978,-0.15593506
556.5333333331558,0.18884385,-0.55425835,0.0155576,-2.249464,-0.12082077,1.37176,0.9537234,0.039999034,0.04,-9.243294,-1.7203848361968994,-2.8231459,-0.007647837,0.15809330344200134,-0.15688719
556.5499999998225,0.19103682,-0.55158263,0.01573805,-2.248222,-0.12222624,1.3694451,0.95567244,0.039999016,0.04,-9.230107,-1.7456837892532349,-2.8515317,-0.007410136,0.15773241221904755,-0.15782286
556.5666666664891,0.19323255,-0.54890364,0.01591873,-2.2469785,-0.12363354,1.3671273,0.9576241,0.039999004,0.04,-9.216747,-1.7710742950439453,-2.8797915,-0.0071676695,0.15734520554542542,-0.15873544
556.5833333331558,0.19543086,-0.54622155,0.016099624,-2.245733,-0.12504245,1.3648068,0.959578,0.039998986,0.04,-9.203189,-1.796612024307251,-2.9079385,-0.006922068,0.15693402290344238,-0.15963177
556.5999999998224,0.19763148,-0.5435366,0.016280707,-2.2444868,-0.12645286,1.3624839,0.96153384,0.039998975,0.04,-9.189439,-1.8222507238388062,-2.9359682,-0.0066726846,0.15649943053722382,-0.16050766
556.6166666664891,0.19983411,-0.54084927,0.016461955,-2.2432399,-0.12786454,1.3601589,0.96349156,0.039998967,0.04,-9.175627,-1.8480156660079956,-2.9639156,-0.006419189,0.1560373455286026,-0.16136068
556.6333333331557,0.20203848,-0.53815955,0.016643351,-2.2419913,-0.12927738,1.3578321,0.9654509,0.03999895,0.04,-9.161653,-1.8739229440689087,-2.9917293,-0.0061620534,0.15554897487163544,-0.16219473
556.6499999998224,0.20424435,-0.53546804,0.016824871,-2.2407417,-0.1306912,1.3555037,0.9674114,0.039998926,0.04,-9.147377,-1.8999109268188477,-3.0194256,-0.005902234,0.15503856539726257,-0.16300929
556.666666666489,0.2064514,-0.53277534,0.017006489,-2.2394915,-0.13210574,1.353174,0.96937305,0.039998915,0.04,-9.132996,-1.9259825944900513,-3.046986,-0.0056383903,0.15450480580329895,-0.16379885
556.6833333331557,0.20865946,-0.5300813,0.017188182,-2.2382412,-0.13352092,1.3508431,0.9713356,0.039998904,0.04,-9.118458,-1.952183723449707,-3.0743878,-0.005372209,0.1539488136768341,-0.16456851
556.6999999998224,0.21086812,-0.5273864,0.017369935,-2.2369902,-0.13493648,1.3485116,0.9732986,0.03999888,0.04,-9.103868,-1.9785137176513672,-3.1016977,-0.005102367,0.15336425602436066,-0.16531655
556.716666666489,0.21307719,-0.52469105,0.017551718,-2.2357392,-0.13635236,1.3461797,0.975262,0.03999887,0.04,-9.088999,-2.004876136779785,-3.1288447,-0.004829372,0.1527586132287979,-0.1660398
556.7333333331557,0.21528634,-0.5219956,0.017733514,-2.234488,-0.1377683,1.3438478,0.97722536,0.039998863,0.04,-9.074047,-2.0313758850097656,-3.155856,-0.004553492,0.15212859213352203,-0.16674057
556.7499999998223,0.21749538,-0.5193005,0.017915303,-2.233237,-0.13918413,1.3415161,0.9791887,0.039998844,0.04,-9.058841,-2.0579569339752197,-3.1826775,-0.004274362,0.15147745609283447,-0.16741978
556.766666666489,0.21970397,-0.5166057,0.018097056,-2.231986,-0.14059968,1.3391849,0.98115164,0.03999883,0.04,-9.043577,-2.084580183029175,-3.2093892,-0.0039934623,0.15080583095550537,-0.16807346
556.7833333331556,0.22191194,-0.5139117,0.018278748,-2.230736,-0.14201486,1.3368543,0.9831139,0.039998826,0.04,-9.028132,-2.111298084259033,-3.2359483,-0.0037104457,0.15011169016361237,-0.16870171
556.7999999998223,0.22411895,-0.5112191,0.018460363,-2.2294865,-0.1434294,1.3345248,0.9850755,0.03999881,0.04,-9.012637,-2.13811993598938,-3.262329,-0.0034236999,0.14939267933368683,-0.16930549
556.8166666664889,0.22632469,-0.5085281,0.018641891,-2.2282374,-0.1448431,1.3321966,0.9870358,0.03999878,0.04,-8.996881,-2.1649959087371826,-3.2885358,-0.0031360688,0.14865368604660034,-0.1698869
556.8333333331556,0.22852896,-0.5058387,0.018823292,-2.2269888,-0.14625585,1.32987,0.9889947,0.039998766,0.04,-8.98097,-2.1919102668762207,-3.314568,-0.0028458934,0.14789630472660065,-0.17044175
556.8499999998222,0.23073149,-0.50315136,0.019004542,-2.225741,-0.14766747,1.3275454,0.9909522,0.039998755,0.04,-8.964965,-2.2189111709594727,-3.340453,-0.002553428,0.1471177339553833,-0.17097156
556.8666666664889,0.23293194,-0.5004667,0.019185623,-2.2244942,-0.14907783,1.325223,0.9929078,0.03999874,0.04,-8.948773,-2.2459442615509033,-3.3661494,-0.002259816,0.14632155001163483,-0.1714747
556.8833333331555,0.23513007,-0.4977848,0.019366516,-2.2232492,-0.15048674,1.3229029,0.9948613,0.039998714,0.04,-8.932523,-2.2730624675750732,-3.3916402,-0.0019648918,0.14550484716892242,-0.17195456
556.8999999998222,0.23732562,-0.49510607,0.019547198,-2.2220058,-0.15189399,1.3205855,0.99681246,0.039998714,0.04,-8.916163,-2.300189256668091,-3.4169896,-0.0016677311,0.14466743171215057,-0.17240362
556.9166666664888,0.23951833,-0.49243078,0.01972765,-2.2207637,-0.15329936,1.3182712,0.99876106,0.0399987,0.04,-8.899665,-2.327402353286743,-3.4421358,-0.0013690508,0.1438092440366745,-0.17282848
556.9333333331555,0.24170794,-0.4897594,0.019907838,-2.2195234,-0.15470275,1.3159602,1.0007069,0.039998677,0.04,-8.882957,-2.3546299934387207,-3.4670813,-0.0010694055,0.142934650182724,-0.17322753
556.9499999998221,0.24389416,-0.4870921,0.020087752,-2.218285,-0.156104,1.3136526,1.0026497,0.03999866,0.04,-8.866176,-2.3818776607513428,-3.491832,-0.00076925993,0.14204281568527222,-0.17359814
556.9666666664888,0.24607675,-0.4844293,0.020267366,-2.2170494,-0.15750286,1.3113489,1.0045893,0.03999866,0.04,-8.849326,-2.409165620803833,-3.5164099,-0.00046663365,0.1411312222480774,-0.17393865
556.9833333331554,0.24825539,-0.4817712,0.020446658,-2.215815,-0.1588992,1.3090495,1.0065255,0.03999864,0.04,-8.832367,-2.4365074634552,-3.5407834,-0.00016443378,0.14019934833049774,-0.1742537
556.9999999998221,0.25042984,-0.4791183,0.020625602,-2.2145839,-0.16029286,1.3067546,1.0084579,0.03999862,0.04,-8.815127,-2.463819980621338,-3.5649102,0.00013722817,0.13925452530384064,-0.17454006
557.0166666664887,0.2525999,-0.47647077,0.020804182,-2.213355,-0.16168375,1.3044645,1.0103862,0.039998595,0.04,-8.798015,-2.491199493408203,-3.588913,0.0004407289,0.13829050958156586,-0.17479979
557.0333333331554,0.25476518,-0.4738291,0.02098238,-2.2121286,-0.16307163,1.3021792,1.0123106,0.039998587,0.04,-8.780655,-2.5185444355010986,-3.6126714,0.0007447745,0.13731145858764648,-0.17502888
557.049999999822,0.2569255,-0.47119337,0.021160165,-2.2109056,-0.16445631,1.2998992,1.0142303,0.039998576,0.04,-8.763216,-2.545907497406006,-3.6361976,0.0010472176,0.13631671667099,-0.17522983
557.0666666664887,0.2590806,-0.46856415,0.02133752,-2.2096846,-0.16583759,1.2976248,1.0161452,0.039998557,0.04,-8.745712,-2.5732803344726562,-3.6595464,0.0013512429,0.13530513644218445,-0.17540184
557.0833333331553,0.26123017,-0.4659417,0.021514427,-2.2084677,-0.16721533,1.2953564,1.0180554,0.03999854,0.04,-8.728015,-2.6006340980529785,-3.6826375,0.0016551872,0.13428133726119995,-0.17554542
557.099999999822,0.263374,-0.46332625,0.021690862,-2.2072535,-0.16858944,1.293094,1.0199606,0.03999852,0.04,-8.710396,-2.62801456451416,-3.7055693,0.001958209,0.13323982059955597,-0.17565909
557.1166666664886,0.26551184,-0.46071813,0.021866791,-2.2060428,-0.16995971,1.2908378,1.0218602,0.0399985,0.04,-8.692497,-2.6553256511688232,-3.728231,0.0022596284,0.13218750059604645,-0.17574328
557.1333333331553,0.26764345,-0.45811766,0.022042213,-2.2048357,-0.17132592,1.2885884,1.0237545,0.039998483,0.04,-8.6746645,-2.682671546936035,-3.7506857,0.0025619913,0.13111765682697296,-0.1757975
557.149999999822,0.2697685,-0.45552516,0.022217095,-2.2036324,-0.17268799,1.2863458,1.0256426,0.039998468,0.04,-8.656674,-2.7099766731262207,-3.7729352,0.0028625512,0.13003680109977722,-0.1758219
557.1666666664886,0.27188674,-0.45294103,0.022391414,-2.2024326,-0.1740457,1.2841105,1.0275247,0.039998446,0.04,-8.638619,-2.7372565269470215,-3.7949386,0.003163655,0.12894201278686523,-0.17581673
557.1833333331552,0.273998,-0.45036554,0.022565167,-2.2012372,-0.17539893,1.2818823,1.0294007,0.039998434,0.04,-8.620472,-2.7644717693328857,-3.816718,0.0034629887,0.1278366595506668,-0.17578034
557.1999999998219,0.276102,-0.447799,0.022738315,-2.2000453,-0.17674744,1.2796617,1.03127,0.03999841,0.04,-8.602334,-2.7917168140411377,-3.838267,0.0037602729,0.12671515345573425,-0.1757157
557.2166666664885,0.2781983,-0.4452416,0.022910843,-2.1988585,-0.17809112,1.2774495,1.0331329,0.03999839,0.04,-8.584001,-2.818863868713379,-3.8595824,0.0040572663,0.1255844384431839,-0.17562018
557.2333333331552,0.2802869,-0.44269368,0.023082726,-2.1976752,-0.17942975,1.2752454,1.0349888,0.03999838,0.04,-8.565771,-2.8459999561309814,-3.8807235,0.0043512643,0.12444030493497849,-0.17549428
557.2499999998219,0.28236738,-0.44015554,0.02325395,-2.1964972,-0.18076332,1.2730501,1.0368373,0.039998356,0.04,-8.547227,-2.8730335235595703,-3.901517,0.00464295,0.12328949570655823,-0.17533983
557.2666666664885,0.2844397,-0.4376276,0.023424488,-2.1953244,-0.18209155,1.2708633,1.0386783,0.039998338,0.04,-8.528958,-2.900092124938965,-3.9222212,0.0049344734,0.1221240758895874,-0.17515206
557.2833333331552,0.28650346,-0.43511012,0.023594327,-2.1941552,-0.18341431,1.2686852,1.0405117,0.03999832,0.04,-8.510503,-2.927079200744629,-3.9426167,0.0052252635,0.12094724923372269,-0.1749347
557.2999999998218,0.2885585,-0.43260333,0.023763448,-2.1929913,-0.18473142,1.2665166,1.0423375,0.0399983,0.04,-8.491845,-2.953920602798462,-3.9627478,0.0055126017,0.11976369470357895,-0.17468654
557.3166666664885,0.29060447,-0.43010756,0.023931818,-2.191833,-0.18604279,1.2643576,1.0441552,0.039998285,0.04,-8.473276,-2.980759620666504,-3.982674,0.0057970835,0.11857163161039352,-0.17440821
557.3333333331551,0.29264116,-0.42762318,0.024099434,-2.1906798,-0.18734819,1.2622085,1.0459648,0.039998267,0.04,-8.454749,-3.0075325965881348,-4.00238,0.006079532,0.11736766248941422,-0.17409925
557.3499999998218,0.2946684,-0.4251503,0.024266262,-2.1895318,-0.1886475,1.2600697,1.0477659,0.039998256,0.04,-8.436074,-3.0341861248016357,-4.0218287,0.0063582174,0.1161573976278305,-0.17375845
557.3666666664884,0.29668584,-0.4226894,0.024432294,-2.1883893,-0.18994054,1.2579408,1.0495584,0.039998237,0.04,-8.417399,-3.0607943534851074,-4.0410457,0.0066348338,0.1149393692612648,-0.17338833
557.3833333331551,0.29869336,-0.42024073,0.024597503,-2.1872525,-0.19122723,1.2558227,1.0513422,0.03999821,0.04,-8.398682,-3.087284564971924,-4.0599895,0.006907601,0.1137128472328186,-0.17298831
557.3999999998217,0.30069077,-0.41780445,0.02476187,-2.1861215,-0.19250737,1.2537152,1.0531164,0.0399982,0.04,-8.379951,-3.1136903762817383,-4.0787234,0.0071764393,0.11248108744621277,-0.1725568
557.4166666664884,0.3026777,-0.41538084,0.02492538,-2.1849961,-0.19378075,1.2516185,1.0548816,0.039998177,0.04,-8.361237,-3.140028715133667,-4.097209,0.0074445773,0.111240454018116,-0.17209528
557.433333333155,0.30465388,-0.41297027,0.02508801,-2.183877,-0.19504735,1.2495334,1.0566372,0.03999816,0.04,-8.342465,-3.166229248046875,-4.1154504,0.007708823,0.10999337583780289,-0.17160244
557.4499999998217,0.3066193,-0.41057304,0.025249744,-2.1827638,-0.19630696,1.24746,1.0583832,0.039998148,0.04,-8.323718,-3.192336082458496,-4.1334743,0.0079687685,0.10874099284410477,-0.17108001
557.4666666664883,0.30857357,-0.40818945,0.025410559,-2.1816578,-0.19755942,1.2453983,1.0601194,0.03999812,0.04,-8.3049135,-3.2183477878570557,-4.1512303,0.008225077,0.1074848622083664,-0.17052826
557.483333333155,0.31051648,-0.40581968,0.025570445,-2.1805577,-0.19880466,1.2433486,1.0618452,0.039998107,0.04,-8.286245,-3.2442381381988525,-4.1687603,0.00847759,0.10621938109397888,-0.16994391
557.4999999998216,0.31244785,-0.40346402,0.025729373,-2.1794643,-0.2000425,1.2413107,1.0635608,0.03999808,0.04,-8.267415,-3.269965410232544,-4.1859984,0.008727631,0.10495106130838394,-0.16933115
557.5166666664883,0.3143675,-0.40112266,0.025887346,-2.1783772,-0.20127277,1.2392857,1.0652661,0.03999806,0.04,-8.248716,-3.2956511974334717,-4.203079,0.008972804,0.10367581248283386,-0.16868716
557.5333333331549,0.31627518,-0.39879602,0.02604432,-2.1772974,-0.20249528,1.2372732,1.0669606,0.03999805,0.04,-8.229893,-3.3211581707000732,-4.2198796,0.009212652,0.10240112990140915,-0.1680132
557.5499999998216,0.31817073,-0.3964843,0.026200304,-2.1762242,-0.20370999,1.2352737,1.0686443,0.03999803,0.04,-8.211263,-3.346580743789673,-4.236448,0.00945041,0.10111834108829498,-0.16731013
557.5666666664882,0.32005376,-0.39418772,0.026355254,-2.175158,-0.20491672,1.2332872,1.0703171,0.03999801,0.04,-8.192508,-3.371840715408325,-4.2527575,0.009682362,0.09983481466770172,-0.16657887
557.5833333331549,0.3219242,-0.39190656,0.026509166,-2.1740987,-0.20611548,1.2313142,1.0719787,0.039997995,0.04,-8.17384,-3.39693021774292,-4.2688456,0.009909049,0.09854714572429657,-0.16581655
557.5999999998215,0.32378188,-0.38964105,0.026662027,-2.173047,-0.20730594,1.2293547,1.0736288,0.03999798,0.04,-8.15517,-3.4219021797180176,-4.2846775,0.0101309335,0.09725857526063919,-0.165025
557.6166666664882,0.32562643,-0.38739145,0.02681382,-2.172003,-0.20848809,1.227409,1.0752671,0.039997954,0.04,-8.13658,-3.446765184402466,-4.300282,0.010348655,0.09596613794565201,-0.16420597
557.6333333331548,0.3274578,-0.38515806,0.026964517,-2.170966,-0.20966172,1.2254773,1.0768936,0.03999794,0.04,-8.118063,-3.471428632736206,-4.3156676,0.010562888,0.09467010945081711,-0.16335507
557.6499999998215,0.3292758,-0.382941,0.027114112,-2.1699367,-0.21082672,1.2235597,1.078508,0.039997917,0.04,-8.099439,-3.4959354400634766,-4.330763,0.010771082,0.09337568283081055,-0.1624784
557.6666666664881,0.33108023,-0.3807406,0.027262582,-2.1689153,-0.211983,1.2216564,1.0801103,0.039997898,0.04,-8.080984,-3.520312547683716,-4.3456697,0.010975561,0.09207870066165924,-0.16157252
557.6833333331548,0.3328708,-0.37855718,0.027409919,-2.1679015,-0.21313041,1.2197678,1.0817006,0.039997876,0.04,-8.062562,-3.5445213317871094,-4.3603287,0.011175218,0.09078000485897064,-0.16063792
557.6999999998214,0.33464742,-0.37639067,0.0275561,-2.1668959,-0.21426882,1.217894,1.083279,0.039997872,0.04,-8.044169,-3.5685336589813232,-4.3747454,0.011368299,0.0894814059138298,-0.1596745
557.7166666664881,0.3364098,-0.37424153,0.027701113,-2.1658983,-0.21539819,1.216035,1.0848433,0.03999785,0.04,-8.025873,-3.592430591583252,-4.3889494,0.011553365,0.08818116039037704,-0.15868522
557.7333333331547,0.33815798,-0.37210998,0.027844945,-2.1649091,-0.21651833,1.2141912,1.0863954,0.039997827,0.04,-8.0076275,-3.6161208152770996,-4.402906,0.011739507,0.08688070625066757,-0.15766782
557.7499999998214,0.33989137,-0.3699961,0.027987579,-2.163928,-0.21762915,1.2123629,1.0879354,0.039997816,0.04,-7.9894443,-3.6395812034606934,-4.416591,0.011918646,0.08557897806167603,-0.15662143
557.766666666488,0.34161034,-0.36790037,0.028128995,-2.1629553,-0.21873043,1.2105503,1.0894612,0.039997794,0.04,-7.9713397,-3.6629533767700195,-4.4301553,0.012087043,0.08427826315164566,-0.15554717
557.7833333331547,0.3433142,-0.3658228,0.028269188,-2.161991,-0.21982223,1.2087533,1.0909746,0.03999777,0.04,-7.9532547,-3.6861345767974854,-4.443399,0.012255693,0.08298152685165405,-0.15444875
557.7999999998214,0.34500313,-0.36376354,0.02840814,-2.1610348,-0.22090441,1.2069724,1.0924741,0.039997745,0.04,-7.935306,-3.70908784866333,-4.4564457,0.012413907,0.08168484270572662,-0.15332486
557.816666666488,0.3466768,-0.36172298,0.02854583,-2.160088,-0.22197677,1.2052077,1.0939599,0.039997723,0.04,-7.9174266,-3.7318742275238037,-4.4692717,0.012569407,0.0803900733590126,-0.15217438
557.8333333331547,0.34833503,-0.35970122,0.028682264,-2.1591492,-0.22303922,1.2034591,1.0954325,0.039997716,0.04,-7.8996835,-3.754452705383301,-4.4818735,0.01271938,0.0790962427854538,-0.15099582
557.8499999998213,0.34997773,-0.35769853,0.02881741,-2.1582205,-0.22409168,1.2017269,1.0968908,0.039997697,0.04,-7.8819036,-3.7768235206604004,-4.494229,0.012860563,0.07780683785676956,-0.14979495
557.866666666488,0.35160473,-0.35571498,0.028951265,-2.1573,-0.22513409,1.2000114,1.0983353,0.03999767,0.04,-7.864447,-3.799062728881836,-4.506405,0.012998938,0.07651405036449432,-0.14856802
557.8833333331546,0.35321578,-0.35375077,0.029083816,-2.1563888,-0.22616632,1.1983124,1.0997658,0.03999765,0.04,-7.846883,-3.8210244178771973,-4.518335,0.01313055,0.07522619515657425,-0.14731723
557.8999999998213,0.35481092,-0.3518062,0.029215047,-2.155486,-0.22718826,1.1966307,1.1011821,0.03999763,0.04,-7.829506,-3.842806577682495,-4.5300555,0.013255037,0.07393978536128998,-0.14604104
557.9166666664879,0.35638994,-0.34988135,0.029344944,-2.1545928,-0.22819985,1.1949658,1.1025839,0.039997615,0.04,-7.812155,-3.864367961883545,-4.541547,0.013372961,0.07265990227460861,-0.14474256
557.9333333331546,0.35795256,-0.34797648,0.029473497,-2.1537087,-0.22920097,1.1933182,1.103971,0.039997596,0.04,-7.7949905,-3.8857343196868896,-4.5528274,0.013485714,0.07138250768184662,-0.14342101
557.9499999998212,0.35949886,-0.34609163,0.029600697,-2.1528337,-0.23019153,1.1916882,1.1053435,0.03999757,0.04,-7.7779307,-3.9068820476531982,-4.5638986,0.013592686,0.0701083168387413,-0.14207754
557.9666666664879,0.36102846,-0.34422705,0.02972653,-2.1519682,-0.23117143,1.1900755,1.1067011,0.03999756,0.04,-7.7609816,-3.927811622619629,-4.574772,0.013693679,0.06883879005908966,-0.14070958
557.9833333331545,0.36254132,-0.34238285,0.02985098,-2.1511126,-0.23214062,1.1884804,1.1080438,0.03999754,0.04,-7.7441387,-3.9485130310058594,-4.58542,0.013788733,0.06757380813360214,-0.13932145
557.9999999998212,0.36403742,-0.3405593,0.029974047,-2.150266,-0.23309894,1.1869032,1.1093715,0.03999753,0.04,-7.727512,-3.968921661376953,-4.5958495,0.013878014,0.06630932539701462,-0.13790862
558.0166666664878,0.3655166,-0.33875638,0.030095717,-2.149429,-0.23404641,1.1853442,1.1106844,0.039997507,0.04,-7.710883,-3.9892687797546387,-4.6061134,0.013961142,0.06505303084850311,-0.13647836
558.0333333331545,0.3669786,-0.33697444,0.030215979,-2.148602,-0.23498295,1.1838032,1.111982,0.039997492,0.04,-7.6944413,-4.009304523468018,-4.6161704,0.01403675,0.06380245834589005,-0.13502571
558.0499999998211,0.36842337,-0.33521342,0.030334823,-2.147785,-0.2359084,1.1822798,1.1132644,0.03999747,0.04,-7.678181,-4.0291314125061035,-4.62601,0.014106397,0.06255543977022171,-0.13355483
558.0666666664878,0.36985084,-0.3334735,0.03045224,-2.1469774,-0.23682271,1.1807753,1.1145315,0.039997462,0.04,-7.6620812,-4.048699378967285,-4.6356587,0.014169566,0.061309270560741425,-0.13205992
558.0833333331544,0.37126094,-0.3317549,0.030568223,-2.1461797,-0.23772587,1.1792893,1.115783,0.03999744,0.04,-7.6460032,-4.068048477172852,-4.645119,0.014225725,0.060072317719459534,-0.13054934
558.0999999998211,0.3726535,-0.3300578,0.030682763,-2.1453922,-0.23861781,1.1778209,1.1170187,0.039997425,0.04,-7.6301084,-4.08715295791626,-4.654366,0.014276477,0.058843065053224564,-0.12901974
558.1166666664877,0.3740284,-0.32838222,0.03079585,-2.1446145,-0.23949842,1.1763716,1.1182388,0.03999741,0.04,-7.6144595,-4.106029987335205,-4.663406,0.014322346,0.05761408060789108,-0.12746973
558.1333333331544,0.37538558,-0.32672837,0.030907473,-2.143847,-0.24036764,1.1749414,1.1194429,0.039997395,0.04,-7.5988855,-4.1246562004089355,-4.672284,0.014360665,0.05639252811670303,-0.12590227
558.149999999821,0.37672493,-0.32509622,0.031017631,-2.1430895,-0.24122542,1.1735305,1.1206315,0.039997377,0.04,-7.5834517,-4.14306116104126,-4.6809764,0.014394161,0.0551796592772007,-0.124320306
558.1666666664877,0.3780463,-0.32348597,0.031126315,-2.1423419,-0.24207172,1.1721383,1.1218039,0.039997365,0.04,-7.568219,-4.161208629608154,-4.689492,0.0144207105,0.05397358909249306,-0.12272006
558.1833333331543,0.37934977,-0.32189772,0.031233525,-2.1416047,-0.24290647,1.1707649,1.1229603,0.039997343,0.04,-7.553065,-4.179095268249512,-4.6977863,0.014440894,0.052776724100112915,-0.12110634
558.199999999821,0.38063508,-0.32033145,0.031339243,-2.1408775,-0.2437296,1.1694107,1.1241008,0.039997328,0.04,-7.5382166,-4.196771621704102,-4.705918,0.014456075,0.05158258602023125,-0.11947456
558.2166666664876,0.38190216,-0.3187875,0.03144345,-2.1401608,-0.24454111,1.1680756,1.1252251,0.039997313,0.04,-7.5234146,-4.214148044586182,-4.7138677,0.01446428,0.05039771646261215,-0.11782634
558.2333333331543,0.38315114,-0.31726566,0.031546164,-2.1394541,-0.24534088,1.1667596,1.1263331,0.03999729,0.04,-7.508861,-4.231314659118652,-4.7216425,0.014466534,0.04921798035502434,-0.11616561
558.249999999821,0.38438183,-0.31576616,0.031647373,-2.1387584,-0.24612895,1.1654627,1.1274253,0.039997276,0.04,-7.49442,-4.248135566711426,-4.7291913,0.014463222,0.04804597049951553,-0.114491194
558.2666666664876,0.38559416,-0.31428912,0.031747073,-2.1380727,-0.24690525,1.1641852,1.1285008,0.039997257,0.04,-7.4802656,-4.26492977142334,-4.736682,0.014453278,0.04687756299972534,-0.11280223
558.2833333331542,0.386788,-0.3128346,0.031845257,-2.137397,-0.24766971,1.1629273,1.12956,0.039997246,0.04,-7.466173,-4.281296730041504,-4.74392,0.014438212,0.045717641711235046,-0.11109897
558.2999999998209,0.3879634,-0.31140253,0.03194192,-2.1367328,-0.2484224,1.1616888,1.130603,0.03999722,0.04,-7.452221,-4.297451496124268,-4.7509995,0.014417169,0.04456912353634834,-0.109389134
558.3166666664875,0.38912034,-0.30999303,0.032037064,-2.1360781,-0.24916314,1.1604698,1.1316291,0.039997213,0.04,-7.4386487,-4.313371658325195,-4.7579618,0.014390219,0.04342290386557579,-0.10766173
558.3333333331542,0.39025867,-0.30860618,0.03213068,-2.1354344,-0.24989203,1.1592704,1.1326388,0.039997194,0.04,-7.4250355,-4.329002380371094,-4.7646933,0.014359141,0.04228794947266579,-0.10592772
558.3499999998209,0.39137852,-0.30724207,0.032222755,-2.1348011,-0.25060898,1.1580907,1.1336321,0.039997183,0.04,-7.4117675,-4.34439754486084,-4.7713094,0.014322824,0.04115888848900795,-0.10418184
558.3666666664875,0.39247963,-0.30590063,0.032313295,-2.1341789,-0.25131404,1.1569307,1.1346086,0.03999717,0.04,-7.3986235,-4.359537124633789,-4.7777514,0.014280749,0.040038447827100754,-0.10242638
558.3833333331542,0.39356214,-0.30458197,0.032402307,-2.1335669,-0.2520071,1.1557906,1.1355689,0.03999716,0.04,-7.3857307,-4.374415874481201,-4.7840505,0.014234472,0.03892407566308975,-0.100661114
558.3999999998208,0.39462584,-0.30328608,0.032489784,-2.1329653,-0.2526882,1.1546699,1.1365123,0.03999714,0.04,-7.372932,-4.389026641845703,-4.790176,0.014181815,0.03782062232494354,-0.09888943
558.4166666664875,0.39567095,-0.30201304,0.032575715,-2.1323748,-0.2533573,1.1535691,1.1374393,0.039997134,0.04,-7.360373,-4.403364181518555,-4.7961535,0.01412445,0.0367242693901062,-0.097109124
558.4333333331541,0.39669734,-0.30076277,0.03266011,-2.1317942,-0.2540144,1.152488,1.1383497,0.039997123,0.04,-7.3480644,-4.417484283447266,-4.801996,0.014061977,0.03563547134399414,-0.095321134
558.4499999998208,0.39770502,-0.29953542,0.03274297,-2.1312249,-0.25465953,1.1514267,1.1392434,0.039997112,0.04,-7.3358006,-4.4312825202941895,-4.8076596,0.0139941275,0.034558381885290146,-0.09352788
558.4666666664874,0.3986939,-0.2983308,0.032824293,-2.1306653,-0.25529262,1.1503849,1.1401205,0.039997093,0.04,-7.3239317,-4.444906711578369,-4.813212,0.013922607,0.03348655626177788,-0.09172947
558.4833333331541,0.3996642,-0.2971491,0.032904077,-2.1301172,-0.25591365,1.1493629,1.140981,0.039997082,0.04,-7.3120866,-4.458164691925049,-4.81858,0.013844596,0.03242595121264458,-0.08992572
558.4999999998207,0.40061557,-0.29599002,0.03298232,-2.1295793,-0.2565228,1.1483607,1.141825,0.039997075,0.04,-7.3006053,-4.471153259277344,-4.82382,0.013764227,0.03137166053056717,-0.088115394
558.5166666664874,0.40154833,-0.29485387,0.03305901,-2.1290517,-0.25711998,1.1473782,1.1426519,0.039997064,0.04,-7.289245,-4.484034061431885,-4.828982,0.0136785805,0.030325647443532944,-0.08630123
558.533333333154,0.40246245,-0.29374042,0.033134177,-2.1285348,-0.25770512,1.1464156,1.1434625,0.03999705,0.04,-7.27802,-4.496545314788818,-4.833938,0.013589241,0.029291907325387,-0.084486455
558.5499999998207,0.40335783,-0.29264987,0.033207808,-2.1280284,-0.2582783,1.1454724,1.1442565,0.03999703,0.04,-7.2670984,-4.508847713470459,-4.8387866,0.013495617,0.02826661989092827,-0.08267023
558.5666666664873,0.40423456,-0.2915819,0.033279907,-2.1275337,-0.25883967,1.1445488,1.145034,0.039997023,0.04,-7.256365,-4.520823955535889,-4.8434753,0.0133983595,0.027249900624155998,-0.08085068
558.583333333154,0.40509272,-0.29053652,0.033350475,-2.1270483,-0.25938907,1.143645,1.145795,0.03999701,0.04,-7.245933,-4.532610893249512,-4.8480988,0.013297977,0.026238298043608665,-0.07902736
558.5999999998206,0.4059324,-0.2895139,0.033419516,-2.1265728,-0.2599266,1.1427609,1.1465396,0.039997,0.04,-7.235492,-4.544078350067139,-4.8525357,0.013192546,0.025240952149033546,-0.07720802
558.6166666664873,0.4067535,-0.28851378,0.03348703,-2.126109,-0.26045227,1.141896,1.1472673,0.039996993,0.04,-7.225338,-4.555285930633545,-4.8568344,0.013083399,0.024255089461803436,-0.075388774
558.6333333331539,0.40755612,-0.2875362,0.03355303,-2.1256545,-0.26096603,1.1410508,1.1479793,0.03999698,0.04,-7.215516,-4.566287994384766,-4.861055,0.01297277,0.02327505499124527,-0.07356975
558.6499999998206,0.40834036,-0.28658095,0.033617526,-2.125212,-0.261468,1.1402248,1.1486745,0.03999697,0.04,-7.205724,-4.576961517333984,-4.8651085,0.01285595,0.022308824583888054,-0.071755186
558.6666666664872,0.40910622,-0.285648,0.03368051,-2.1247787,-0.26195824,1.1394182,1.1493536,0.03999696,0.04,-7.1963935,-4.58748197555542,-4.8691063,0.012739501,0.02134529873728752,-0.06993946
558.6833333331539,0.40985382,-0.28473717,0.033741992,-2.1243563,-0.2624368,1.138631,1.1500165,0.03999695,0.04,-7.187033,-4.597645282745361,-4.8729434,0.01261873,0.020395522937178612,-0.06812903
558.6999999998205,0.4105832,-0.28384867,0.033801984,-2.123944,-0.26290378,1.1378629,1.1506633,0.03999694,0.04,-7.1779838,-4.607606410980225,-4.8766847,0.01249474,0.01945495791733265,-0.06632302
558.7166666664872,0.41129446,-0.28298214,0.033860482,-2.1235414,-0.2633591,1.1371139,1.151294,0.039996937,0.04,-7.169137,-4.6172776222229,-4.8802834,0.012368579,0.01852455735206604,-0.06452051
558.7333333331538,0.41198766,-0.28213766,0.03391749,-2.1231496,-0.26380292,1.1363838,1.1519088,0.03999693,0.04,-7.1604047,-4.626681327819824,-4.8837667,0.012238976,0.017607431858778,-0.06272576
558.7499999998205,0.41266292,-0.28131494,0.03397304,-2.122768,-0.2642352,1.1356726,1.1525074,0.03999692,0.04,-7.1520786,-4.635800838470459,-4.8871384,0.012107965,0.016696220263838768,-0.0609358
558.7666666664871,0.4133204,-0.28051388,0.03402713,-2.1223958,-0.26465613,1.1349798,1.1530906,0.039996907,0.04,-7.143821,-4.644814968109131,-4.8904524,0.011975023,0.015796346589922905,-0.059152707
558.7833333331538,0.4139601,-0.27973434,0.034079753,-2.1220343,-0.26506576,1.1343062,1.153658,0.03999689,0.04,-7.1357527,-4.653485298156738,-4.893608,0.011838262,0.014908010140061378,-0.05737966
558.7999999998204,0.41458216,-0.27897638,0.034130935,-2.1216826,-0.2654642,1.1336503,1.15421,0.039996885,0.04,-7.128034,-4.6619439125061035,-4.8967166,0.011700772,0.014028451405465603,-0.055612322
558.8166666664871,0.41518676,-0.2782396,0.034180682,-2.12134,-0.26585144,1.1330132,1.1547462,0.039996874,0.04,-7.120428,-4.670115947723389,-4.89965,0.011560987,0.013156764209270477,-0.053854655
558.8333333331537,0.41577396,-0.27752405,0.034229003,-2.1210082,-0.26622748,1.1323946,1.1552671,0.039996855,0.04,-7.112929,-4.678032875061035,-4.9025154,0.011419499,0.0123012475669384,-0.05210956
558.8499999998204,0.4163439,-0.2768294,0.03427591,-2.1206863,-0.26659253,1.1317939,1.1557726,0.039996848,0.04,-7.105819,-4.685754776000977,-4.9052954,0.011276565,0.011454543098807335,-0.050374717
558.866666666487,0.4168967,-0.2761556,0.034321412,-2.120373,-0.26694667,1.1312115,1.1562631,0.039996848,0.04,-7.098911,-4.693234920501709,-4.907993,0.011134483,0.010615184903144836,-0.048648935
558.8833333331537,0.41743255,-0.27550238,0.03436552,-2.12007,-0.26728994,1.130647,1.1567384,0.03999684,0.04,-7.091995,-4.700387954711914,-4.9105353,0.010988561,0.00979366060346365,-0.046940137
558.8999999998204,0.4179515,-0.27486965,0.034408245,-2.119776,-0.2676225,1.1301001,1.1571989,0.039996833,0.04,-7.085518,-4.707405090332031,-4.913037,0.010843965,0.008979362435638905,-0.045242395
558.916666666487,0.41845384,-0.2742571,0.034449615,-2.1194918,-0.26794448,1.1295706,1.1576447,0.039996833,0.04,-7.07908,-4.714092254638672,-4.915416,0.010697036,0.008179782889783382,-0.043559603
558.9333333331537,0.41893968,-0.2736646,0.03448962,-2.1192167,-0.26825583,1.1290587,1.1580759,0.039996833,0.04,-7.072974,-4.720632076263428,-4.91773,0.010549991,0.007388387341052294,-0.041890305
558.9499999998203,0.41940925,-0.27309194,0.03452829,-2.118951,-0.26855677,1.1285638,1.1584928,0.039996825,0.04,-7.066989,-4.726906776428223,-4.919945,0.010402527,0.006610115524381399,-0.040238507
558.966666666487,0.41986263,-0.2725389,0.034565628,-2.1186943,-0.26884738,1.1280857,1.1588953,0.039996814,0.04,-7.0612407,-4.732965469360352,-4.9220657,0.01025466,0.0058419471606612206,-0.038603615
558.9833333331536,0.42030007,-0.27200523,0.034601655,-2.1184468,-0.26912782,1.1276243,1.1592838,0.039996807,0.04,-7.0556345,-4.738755226135254,-4.924093,0.010107289,0.005086805205792189,-0.03698586
558.9999999998203,0.4207217,-0.27149072,0.03463639,-2.1182077,-0.26939824,1.1271795,1.1596581,0.0399968,0.04,-7.050325,-4.7442803382873535,-4.926046,0.009959438,0.004340729676187038,-0.035385206
559.0166666664869,0.42112774,-0.27099517,0.034669854,-2.1179774,-0.26965868,1.1267512,1.1600188,0.0399968,0.04,-7.045055,-4.749693393707275,-4.927927,0.009812173,0.0036102524027228355,-0.033804104
559.0333333331536,0.42151842,-0.27051827,0.03470206,-2.117756,-0.26990935,1.126339,1.160366,0.0399968,0.04,-7.0400753,-4.754848480224609,-4.9297285,0.009664838,0.0028919256292283535,-0.03224251
559.0499999998202,0.4218939,-0.27005976,0.03473302,-2.1175432,-0.2701502,1.125943,1.1606996,0.0399968,0.04,-7.035288,-4.75978946685791,-4.931445,0.009517713,0.0021849784534424543,-0.03070207
559.0666666664869,0.42225438,-0.2696194,0.034762766,-2.117339,-0.27038163,1.1255624,1.1610202,0.039996795,0.04,-7.0306706,-4.764515399932861,-4.9330997,0.009372381,0.0014911676989868283,-0.029184032
559.0833333331535,0.42260015,-0.26919675,0.034791294,-2.1171427,-0.27060372,1.1251972,1.1613277,0.039996784,0.04,-7.026237,-4.769021511077881,-4.934667,0.009227475,0.0008094615768641233,-0.027688803
559.0999999998202,0.42293143,-0.26879176,0.034818646,-2.1169548,-0.2708165,1.1248469,1.1616224,0.03999678,0.04,-7.021997,-4.77331018447876,-4.9361753,0.009083106,0.0001395747676724568,-0.026214281
559.1166666664868,0.42324844,-0.26840404,0.034844827,-2.1167748,-0.27102035,1.1245118,1.1619046,0.039996777,0.04,-7.017911,-4.777397632598877,-4.937578,0.008940674,-0.0005175816477276385,-0.024764713
559.1333333331535,0.4235516,-0.26803324,0.034869872,-2.1166031,-0.27121514,1.1241913,1.1621743,0.039996777,0.04,-7.013996,-4.781273365020752,-4.938937,0.008798434,-0.0011602427111938596,-0.02333925
559.1499999998201,0.4238409,-0.26767915,0.03489378,-2.1164393,-0.27140132,1.1238853,1.1624321,0.039996773,0.04,-7.0103197,-4.78501033782959,-4.9402356,0.008659539,-0.0017920342506840825,-0.021939
559.1666666664868,0.42411685,-0.26734138,0.03491661,-2.1162832,-0.27157876,1.1235937,1.1626776,0.039996766,0.04,-7.0067782,-4.788519859313965,-4.9414663,0.008521773,-0.0024106549099087715,-0.020564955
559.1833333331534,0.4243795,-0.2670196,0.03493834,-2.116134,-0.27174792,1.1233153,1.1629117,0.039996766,0.04,-7.003346,-4.791818618774414,-4.9426227,0.008387502,-0.0030128785874694586,-0.019218784
559.1999999998201,0.42462924,-0.26671353,0.03495901,-2.1159916,-0.27190873,1.1230507,1.1631343,0.039996766,0.04,-7.0001063,-4.7949066162109375,-4.9436936,0.00825338,-0.00360289728268981,-0.017899884
559.2166666664867,0.42486632,-0.26642272,0.034978654,-2.115856,-0.27206156,1.1227994,1.163346,0.039996766,0.04,-6.997015,-4.797835350036621,-4.944716,0.008121419,-0.004176762420684099,-0.01661109
559.2333333331534,0.42509103,-0.26614684,0.034997277,-2.1157272,-0.2722065,1.122561,1.1635469,0.039996766,0.04,-6.9940314,-4.800564289093018,-4.945675,0.007990169,-0.004732950124889612,-0.015353807
559.24999999982,0.42530373,-0.26588547,0.035014935,-2.1156054,-0.27234375,1.1223351,1.1637369,0.039996766,0.04,-6.9913006,-4.80307149887085,-4.94656,0.007861223,-0.005275477189570665,-0.0141268065
559.2666666664867,0.42550468,-0.2656384,0.035031617,-2.1154907,-0.27247357,1.1221218,1.1639168,0.03999676,0.04,-6.988683,-4.805548191070557,-4.947425,0.007735579,-0.005803325213491917,-0.012931891
559.2833333331533,0.42569426,-0.2654052,0.035047363,-2.1153824,-0.27259615,1.1219203,1.1640866,0.03999676,0.04,-6.9862947,-4.807814121246338,-4.9482465,0.007613033,-0.006316664163023233,-0.011767709
559.29999999982,0.4258727,-0.2651854,0.035062205,-2.1152809,-0.27271166,1.1217303,1.1642466,0.03999676,0.04,-6.983966,-4.809876918792725,-4.9489756,0.0074930517,-0.006814890541136265,-0.01063671
559.3166666664866,0.4260404,-0.2649786,0.035076167,-2.115185,-0.2728204,1.1215515,1.164397,0.03999676,0.04,-6.981865,-4.811823844909668,-4.9496746,0.007377429,-0.007301260717213154,-0.009537914
559.3333333331533,0.42619774,-0.2647844,0.03508928,-2.1150944,-0.27292243,1.1213837,1.164538,0.039996758,0.04,-6.9797597,-4.813555717468262,-4.9503064,0.0072643296,-0.007769362535327673,-0.00847482
559.3499999998199,0.426345,-0.26460236,0.035101566,-2.1150098,-0.2730181,1.1212267,1.1646712,0.03999675,0.04,-6.977784,-4.815157413482666,-4.9508796,0.0071549453,-0.00821908563375473,-0.0074501955
559.3666666664866,0.42648244,-0.26443207,0.035113066,-2.1149309,-0.27310756,1.1210796,1.1647955,0.039996743,0.04,-6.9760275,-4.816634178161621,-4.9514327,0.0070447703,-0.008652206510305405,-0.0064615887
559.3833333331532,0.4266106,-0.26427305,0.035123806,-2.1148567,-0.27319112,1.1209421,1.1649101,0.03999674,0.04,-6.974365,-4.817943572998047,-4.951936,0.006939678,-0.009069533087313175,-0.0055094985
559.3999999998199,0.42672977,-0.26412487,0.035133805,-2.1147878,-0.27326894,1.1208142,1.1650169,0.039996736,0.04,-6.9727893,-4.819117069244385,-4.9523845,0.006844745,-0.00946943461894989,-0.004596309
559.4166666664865,0.42684036,-0.2639871,0.035143096,-2.114724,-0.27334142,1.120695,1.1651161,0.039996736,0.04,-6.9713926,-4.820181369781494,-4.952811,0.006753792,-0.009852557443082333,-0.0037215922
559.4333333331532,0.4269427,-0.2638591,0.03515173,-2.114664,-0.27340865,1.1205846,1.1652095,0.039996736,0.04,-6.970051,-4.82108736038208,-4.953173,0.006666891,-0.010218722745776176,-0.0028862422
559.4499999998199,0.42703727,-0.26374057,0.035159715,-2.1146088,-0.27347103,1.1204823,1.1652963,0.03999674,0.04,-6.9687986,-4.821892738342285,-4.9535184,0.0065766857,-0.010565068572759628,-0.0020927317
559.4666666664865,0.4271244,-0.26363105,0.035167087,-2.114559,-0.27352867,1.1203877,1.165376,0.03999674,0.04,-6.9676433,-4.822564601898193,-4.9537997,0.006489705,-0.010892189107835293,-0.0013407391
559.4833333331532,0.42720455,-0.26352993,0.035173927,-2.1145115,-0.27358177,1.1203003,1.1654497,0.03999674,0.04,-6.96677,-4.823214054107666,-4.9540987,0.0064118956,-0.011206934228539467,-0.0006288303
559.4999999998198,0.42727807,-0.2634367,0.035180192,-2.1144693,-0.27363077,1.1202197,1.1655174,0.03999674,0.04,-6.965657,-4.823586463928223,-4.9542737,0.0063349097,-0.011496827937662601,3.5789748e-05
559.5166666664865,0.42734545,-0.26335084,0.035185978,-2.1144285,-0.2736759,1.1201454,1.1655802,0.039996743,0.04,-6.964965,-4.824065208435059,-4.95453,0.006266313,-0.011774671263992786,0.0006599551
559.5333333331531,0.42740715,-0.2632718,0.035191294,-2.1143913,-0.27371734,1.120077,1.1656377,0.039996743,0.04,-6.9639564,-4.824249744415283,-4.9546432,0.0061983364,-0.012024354189634323,0.0012346269
559.5499999998198,0.42746368,-0.26319915,0.035196196,-2.1143582,-0.2737556,1.1200144,1.1656901,0.039996743,0.04,-6.963285,-4.824474811553955,-4.954794,0.0061361273,-0.012256722897291183,0.0017639771
559.5666666664864,0.4275153,-0.2631322,0.0352007,-2.1143262,-0.27379072,1.1199567,1.1657386,0.039996743,0.04,-6.962728,-4.8246917724609375,-4.954962,0.0060821106,-0.012473050504922867,0.0022523222
559.5833333331531,0.42756256,-0.26307064,0.03520485,-2.1142979,-0.27382296,1.1199036,1.1657833,0.039996743,0.04,-6.9619837,-4.824765682220459,-4.9550514,0.0060282187,-0.012667984701693058,0.0026986012
559.5999999998197,0.4276058,-0.263014,0.035208676,-2.1142724,-0.2738528,1.1198547,1.1658243,0.039996747,0.04,-6.961543,-4.824957847595215,-4.9551897,0.0059787286,-0.012852415442466736,0.0031103573
559.6166666664864,0.42764524,-0.26296186,0.035212174,-2.1142473,-0.27388012,1.1198096,1.1658622,0.039996747,0.04,-6.9610815,-4.8251051902771,-4.9553194,0.005933251,-0.013024392537772655,0.0034904426
559.633333333153,0.42768145,-0.2629139,0.035215408,-2.1142244,-0.2739053,1.1197683,1.1658974,0.039996747,0.04,-6.9604497,-4.825148582458496,-4.9553714,0.0058878767,-0.01317784283310175,0.0038357093
559.6499999998197,0.42771444,-0.26286975,0.03521836,-2.1142051,-0.27392855,1.11973,1.1659297,0.039996747,0.04,-6.9600406,-4.825272560119629,-4.9554534,0.005844417,-0.013319360092282295,0.004153369
559.6666666664863,0.4277446,-0.26282915,0.03522108,-2.1141872,-0.27394995,1.1196948,1.1659594,0.039996747,0.04,-6.9598303,-4.825451850891113,-4.955587,0.0058056866,-0.01345814112573862,0.004449539
559.683333333153,0.42777225,-0.26279184,0.0352236,-2.1141694,-0.27396953,1.1196624,1.1659867,0.039996747,0.04,-6.9594307,-4.82553243637085,-4.955658,0.0057692253,-0.013585323467850685,0.004721045
559.6999999998196,0.42779753,-0.2627575,0.035225905,-2.1141522,-0.27398753,1.1196332,1.1660116,0.039996747,0.04,-6.95893,-4.825570106506348,-4.95568,0.005733789,-0.01369729544967413,0.0049672783
559.7166666664863,0.42782065,-0.26272598,0.035228014,-2.114137,-0.27400416,1.1196055,1.1660346,0.039996747,0.04,-6.958542,-4.825626850128174,-4.9557343,0.0057008425,-0.013795318081974983,0.0051906495
559.7333333331529,0.42784178,-0.26269683,0.035229962,-2.1141236,-0.27401945,1.1195805,1.1660557,0.039996747,0.04,-6.958339,-4.825719356536865,-4.9557753,0.0056700897,-0.013890920206904411,0.005398529
559.7499999998196,0.42786112,-0.2626701,0.035231765,-2.1141129,-0.27403346,1.1195573,1.1660752,0.039996747,0.04,-6.95815,-4.825829029083252,-4.9558663,0.0056425724,-0.013980763964354992,0.0055905315
559.7666666664862,0.42787877,-0.26264542,0.035233412,-2.1141026,-0.27404648,1.119536,1.1660931,0.039996747,0.04,-6.958055,-4.825971603393555,-4.9559426,0.005618089,-0.014070375822484493,0.0057702013
559.7833333331529,0.4278949,-0.2626227,0.035234924,-2.1140924,-0.27405846,1.1195163,1.1661096,0.039996747,0.04,-6.9577703,-4.826014518737793,-4.955994,0.005594924,-0.014151044189929962,0.0059347693
559.7999999998195,0.42790967,-0.26260188,0.035236314,-2.1140823,-0.27406946,1.1194986,1.1661249,0.03999675,0.04,-6.9574695,-4.8260273933410645,-4.9560103,0.0055722347,-0.014223393984138966,0.0060850517
559.8166666664862,0.4279231,-0.26258272,0.03523759,-2.1140726,-0.27407956,1.1194817,1.166139,0.03999675,0.04,-6.9572034,-4.826069355010986,-4.956035,0.0055493675,-0.014285366050899029,0.006220276
559.8333333331528,0.42793542,-0.2625651,0.035238765,-2.1140628,-0.27408886,1.119467,1.1661516,0.03999675,0.04,-6.956987,-4.826085567474365,-4.9560304,0.005527638,-0.014343393966555595,0.006344229
559.8499999998195,0.42794672,-0.2625489,0.035239853,-2.1140542,-0.27409732,1.1194532,1.1661634,0.03999675,0.04,-6.9567423,-4.826110363006592,-4.95605,0.0055078203,-0.014389865100383759,0.0064548315
559.8666666664861,0.42795706,-0.2625339,0.035240855,-2.1140466,-0.2741052,1.11944,1.1661748,0.03999675,0.04,-6.956664,-4.8261823654174805,-4.956072,0.005489384,-0.014436058700084686,0.0065575624
559.8833333331528,0.42796645,-0.26252013,0.03524177,-2.1140401,-0.2741124,1.1194277,1.1661849,0.03999675,0.04,-6.9565806,-4.826238632202148,-4.956089,0.005470288,-0.014482020400464535,0.006654137
559.8999999998194,0.42797503,-0.26250747,0.035242617,-2.114035,-0.27411902,1.1194172,1.1661938,0.03999675,0.04,-6.9565234,-4.826295375823975,-4.9561234,0.0054543945,-0.014527159743010998,0.0067438106
559.9166666664861,0.42798287,-0.26249585,0.035243392,-2.1140306,-0.27412513,1.1194073,1.1662021,0.03999675,0.04,-6.9564595,-4.826375484466553,-4.9561815,0.0054421313,-0.014568268321454525,0.0068262327
559.9333333331527,0.42799005,-0.26248512,0.035244107,-2.1140273,-0.27413073,1.1193979,1.1662099,0.03999675,0.04,-6.9563985,-4.826421737670898,-4.9562087,0.005431073,-0.014609030447900295,0.006903465
559.9499999998194,0.4279966,-0.26247528,0.035244763,-2.1140242,-0.27413592,1.1193888,1.1662176,0.03999675,0.04,-6.721436,-4.599154949188232,-4.6956615,0.0,-0.0,0.0
559.966666666486,0.4279966,-0.26247528,0.035244763,-2.1140242,-0.27413592,1.1193888,1.1662176,0.03999675,0.04,-6.9562664,-4.825485706329346,-4.955921,0.0,-0.0,0.0
559.9833333331527,0.4279966,-0.26247528,0.035244763,-2.1140242,-0.27413592,1.1193888,1.1662176,0.03999675,0.04,-6.9562664,-4.825485706329346,-4.955921,0.0,-0.0,0.0
559.9999999998194,0.4279966,-0.26247528,0.035244763,-2.1140242,-0.27413592,1.1193888,1.1662176,0.03999675,0.04,-6.9562664,-4.825485706329346,-4.955921,0.0,-0.0,0.0
560.016666666486,0.4279966,-0.26247528,0.035244763,-2.1140242,-0.27413592,1.1193888,1.1662176,0.03999675,0.04,-6.9562664,-4.825485706329346,-4.955921,0.0,-0.0,0.0
560.0333333331527,0.4279966,-0.26247528,0.035244763,-2.1140242,-0.27413592,1.1193888,1.1662176,0.03999675,0.04,-6.9562664,-4.825485706329346,-4.955921,0.0,-0.0,0.0
560.0499999998193,0.4279966,-0.26247528,0.035244763,-2.1140242,-0.27413592,1.1193888,1.1662176,0.03999675,0.04,-6.9562664,-4.825485706329346,-4.955921,0.0,-0.0,0.0
560.066666666486,0.4279966,-0.26247528,0.035244763,-2.1140242,-0.27413592,1.1193888,1.1662176,0.03999675,0.04,-6.9562664,-4.825485706329346,-4.955921,0.0,-0.0,0.0
560.0833333331526,0.4279966,-0.26247528,0.035244763,-2.1140242,-0.27413592,1.1193888,1.1662176,0.03999675,0.04,-6.9562664,-4.825485706329346,-4.955921,0.0,-0.0,0.0
560.0999999998193,0.4279966,-0.26247528,0.035244763,-2.1140242,-0.27413592,1.1193888,1.1662176,0.03999675,0.04,-6.9562664,-4.825485706329346,-4.955921,0.0,-0.0,0.0
560.1166666664859,0.4279966,-0.26247528,0.035244763,-2.1140242,-0.27413592,1.1193888,1.1662176,0.03999675,0.04,-6.9562664,-4.825485706329346,-4.955921,0.0,-0.0,0.0
560.1333333331526,0.4279966,-0.26247528,0.035244763,-2.1140242,-0.27413592,1.1193888,1.1662176,0.03999675,0.04,-6.9562664,-4.825485706329346,-4.955921,0.0,-0.0,0.0
560.1499999998192,0.4279966,-0.26247528,0.035244763,-2.1140242,-0.27413592,1.1193888,1.1662176,0.03999675,0.04,-6.9562664,-4.825485706329346,-4.955921,0.0,-0.0,0.0
560.1666666664859,0.4279966,-0.26247528,0.035244763,-2.1140242,-0.27413592,1.1193888,1.1662176,0.03999675,0.04,-6.9562664,-4.825485706329346,-4.955921,0.0,-0.0,0.0
560.1833333331525,0.4279966,-0.26247528,0.035244763,-2.1140242,-0.27413592,1.1193888,1.1662176,0.03999675,0.04,-6.9562664,-4.825485706329346,-4.955921,0.0,-0.0,0.0
560.1999999998192,0.4279966,-0.26247528,0.035244763,-2.1140242,-0.27413592,1.1193888,1.1662176,0.03999675,0.04,-6.9562664,-4.825485706329346,-4.955921,0.0,-0.0,0.0
560.2166666664858,0.4279966,-0.26247528,0.035244763,-2.1140242,-0.27413592,1.1193888,1.1662176,0.03999675,0.04,-6.9562664,-4.825485706329346,-4.955921,0.0,-0.0,0.0
560.2333333331525,0.4279966,-0.26247528,0.035244763,-2.1140242,-0.27413592,1.1193888,1.1662176,0.03999675,0.04,-6.9562664,-4.825485706329346,-4.955921,0.0,-0.0,0.0
560.2499999998191,0.4279966,-0.26247528,0.035244763,-2.1140242,-0.27413592,1.1193888,1.1662176,0.03999675,0.04,-6.9562664,-4.825485706329346,-4.955921,0.0,-0.0,0.0
560.2666666664858,0.4279966,-0.26247528,0.035244763,-2.1140242,-0.27413592,1.1193888,1.1662176,0.03999675,0.04,-6.9562664,-4.825485706329346,-4.955921,0.0,-0.0,0.0
560.2833333331524,0.4279966,-0.26247528,0.035244763,-2.1140242,-0.27413592,1.1193888,1.1662176,0.03999675,0.04,-6.9562664,-4.825485706329346,-4.955921,0.0,-0.0,0.0
560.2999999998191,0.4279966,-0.26247528,0.035244763,-2.1140242,-0.27413592,1.1193888,1.1662176,0.03999675,0.04,-6.9562664,-4.825485706329346,-4.955921,0.0,-0.0,0.0
560.3166666664857,0.4279966,-0.26247528,0.035244763,-2.1140242,-0.27413592,1.1193888,1.1662176,0.03999675,0.04,-6.9562664,-4.825485706329346,-4.955921,0.0,-0.0,0.0
560.3333333331524,0.4279966,-0.26247528,0.035244763,-2.1140242,-0.27413592,1.1193888,1.1662176,0.03999675,0.04,-6.9562664,-4.825485706329346,-4.955921,0.0,-0.0,0.0
560.349999999819,0.4279966,-0.26247528,0.035244763,-2.1140242,-0.27413592,1.1193888,1.1662176,0.03999675,0.04,-6.9562664,-4.825485706329346,-4.955921,0.0,-0.0,0.0
560.3666666664857,0.4279966,-0.26247528,0.035244763,-2.1140242,-0.27413592,1.1193888,1.1662176,0.03999675,0.04,-6.9562664,-4.825485706329346,-4.955921,0.0,-0.0,0.0
560.3833333331523,0.4279966,-0.26247528,0.035244763,-2.1140242,-0.27413592,1.1193888,1.1662176,0.03999675,0.04,-6.9562664,-4.825485706329346,-4.955921,0.0,-0.0,0.0
560.399999999819,0.4279966,-0.26247528,0.035244763,-2.1140242,-0.27413592,1.1193888,1.1662176,0.03999675,0.04,-6.9562664,-4.825485706329346,-4.955921,0.0,-0.0,0.0
560.4166666664856,0.4279966,-0.26247528,0.035244763,-2.1140242,-0.27413592,1.1193888,1.1662176,0.03999675,0.04,-6.9562664,-4.825485706329346,-4.955921,0.0,-0.0,0.0
560.4333333331523,0.4279966,-0.26247528,0.035244763,-2.1140242,-0.27413592,1.1193888,1.1662176,0.03999675,0.04,-6.9562664,-4.825485706329346,-4.955921,0.0,-0.0,0.0
560.4499999998189,0.4279966,-0.26247528,0.035244763,-2.1140242,-0.27413592,1.1193888,1.1662176,0.03999675,0.04,-6.9562664,-4.825485706329346,-4.955921,0.0,-0.0,0.0
560.4666666664856,0.4279966,-0.26247528,0.035244763,-2.1140242,-0.27413592,1.1193888,1.1662176,0.03999675,0.04,-6.9562664,-4.825485706329346,-4.955921,0.0,-0.0,0.0
560.4833333331522,0.4279966,-0.26247528,0.035244763,-2.1140242,-0.27413592,1.1193888,1.1662176,0.03999675,0.04,-6.9562664,-4.825485706329346,-4.955921,0.0,-0.0,0.0
560.4999999998189,0.4279966,-0.26247528,0.035244763,-2.1140242,-0.27413592,1.1193888,1.1662176,0.03999675,0.04,-6.9562664,-4.825485706329346,-4.955921,0.0,-0.0,0.0
560.5166666664855,0.4279966,-0.26247528,0.035244763,-2.1140242,-0.27413592,1.1193888,1.1662176,0.03999675,0.04,-6.9562664,-4.825485706329346,-4.955921,0.0,-0.0,0.0
560.5333333331522,0.4279966,-0.26247528,0.035244763,-2.1140242,-0.27413592,1.1193888,1.1662176,0.03999675,0.04,-6.9562664,-4.825485706329346,-4.955921,0.0,-0.0,0.0
560.5499999998189,0.4279966,-0.26247528,0.035244763,-2.1140242,-0.27413592,1.1193888,1.1662176,0.03999675,0.04,-6.9562664,-4.825485706329346,-4.955921,0.0,-0.0,0.0
560.5666666664855,0.4279966,-0.26247528,0.035244763,-2.1140242,-0.27413592,1.1193888,1.1662176,0.03999675,0.04,-6.9562664,-4.825485706329346,-4.955921,0.0,-0.0,0.0
560.5833333331522,0.4279966,-0.26247528,0.035244763,-2.1140242,-0.27413592,1.1193888,1.1662176,0.03999675,0.04,-6.9562664,-4.825485706329346,-4.955921,0.0,-0.0,0.0
560.5999999998188,0.4279966,-0.26247528,0.035244763,-2.1140242,-0.27413592,1.1193888,1.1662176,0.03999675,0.04,-6.9562664,-4.825485706329346,-4.955921,0.0,-0.0,0.0
560.6166666664855,0.4279966,-0.26247528,0.035244763,-2.1140242,-0.27413592,1.1193888,1.1662176,0.03999675,0.04,-6.9562664,-4.825485706329346,-4.955921,0.0,-0.0,0.0
560.6333333331521,0.4279966,-0.26247528,0.035244763,-2.1140242,-0.27413592,1.1193888,1.1662176,0.03999675,0.04,-6.9562664,-4.825485706329346,-4.955921,0.0,-0.0,0.0
560.6499999998188,0.4279966,-0.26247528,0.035244763,-2.1140242,-0.27413592,1.1193888,1.1662176,0.03999675,0.04,-6.9562664,-4.825485706329346,-4.955921,0.0,-0.0,0.0
560.6666666664854,0.4279966,-0.26247528,0.035244763,-2.1140242,-0.27413592,1.1193888,1.1662176,0.03999675,0.04,-6.9562664,-4.825485706329346,-4.955921,0.0,-0.0,0.0
560.6833333331521,0.4279966,-0.26247528,0.035244763,-2.1140242,-0.27413592,1.1193888,1.1662176,0.03999675,0.04,-6.9562664,-4.825485706329346,-4.955921,0.0,-0.0,0.0
560.6999999998187,0.4279966,-0.26247528,0.035244763,-2.1140242,-0.27413592,1.1193888,1.1662176,0.03999675,0.04,-6.9562664,-4.825485706329346,-4.955921,0.0,-0.0,0.0
560.7166666664854,0.4279966,-0.26247528,0.035244763,-2.1140242,-0.27413592,1.1193888,1.1662176,0.03999675,0.04,-6.9562664,-4.825485706329346,-4.955921,0.0,-0.0,0.0
560.733333333152,0.4279966,-0.26247528,0.035244763,-2.1140242,-0.27413592,1.1193888,1.1662176,0.03999675,0.04,-6.9562664,-4.825485706329346,-4.955921,0.0,-0.0,0.0
560.7499999998187,0.4279966,-0.26247528,0.035244763,-2.1140242,-0.27413592,1.1193888,1.1662176,0.03999675,0.04,-6.9562664,-4.825485706329346,-4.955921,0.0,-0.0,0.0
560.7666666664853,0.4279966,-0.26247528,0.035244763,-2.1140242,-0.27413592,1.1193888,1.1662176,0.03999675,0.04,-6.9562664,-4.825485706329346,-4.955921,0.0,-0.0,0.0
560.783333333152,0.4279966,-0.26247528,0.035244763,-2.1140242,-0.27413592,1.1193888,1.1662176,0.03999675,0.04,-6.9562664,-4.825485706329346,-4.955921,0.0,-0.0,0.0
560.7999999998186,0.4279966,-0.26247528,0.035244763,-2.1140242,-0.27413592,1.1193888,1.1662176,0.03999675,0.04,-6.9562664,-4.825485706329346,-4.955921,0.0,-0.0,0.0
560.8166666664853,0.4279966,-0.26247528,0.035244763,-2.1140242,-0.27413592,1.1193888,1.1662176,0.03999675,0.04,-6.9562664,-4.825485706329346,-4.955921,0.0,-0.0,0.0
560.8333333331519,0.4279966,-0.26247528,0.035244763,-2.1140242,-0.27413592,1.1193888,1.1662176,0.03999675,0.04,-6.9562664,-4.825485706329346,-4.955921,0.0,-0.0,0.0
560.8499999998186,0.4279966,-0.26247528,0.035244763,-2.1140242,-0.27413592,1.1193888,1.1662176,0.03999675,0.04,-6.9562664,-4.825485706329346,-4.955921,0.0,-0.0,0.0
560.8666666664852,0.4279966,-0.26247528,0.035244763,-2.1140242,-0.27413592,1.1193888,1.1662176,0.03999675,0.04,-6.9562664,-4.825485706329346,-4.955921,0.0,-0.0,0.0
560.8833333331519,0.4279966,-0.26247528,0.035244763,-2.1140242,-0.27413592,1.1193888,1.1662176,0.03999675,0.04,-6.9562664,-4.825485706329346,-4.955921,0.0,-0.0,0.0
560.8999999998185,0.4279966,-0.26247528,0.035244763,-2.1140242,-0.27413592,1.1193888,1.1662176,0.03999675,0.04,-6.9562664,-4.825485706329346,-4.955921,0.0,-0.0,0.0
560.9166666664852,0.4279966,-0.26247528,0.035244763,-2.1140242,-0.27413592,1.1193888,1.1662176,0.03999675,0.04,-6.9562664,-4.825485706329346,-4.955921,0.0,-0.0,0.0
560.9333333331518,0.4279966,-0.26247528,0.035244763,-2.1140242,-0.27413592,1.1193888,1.1662176,0.03999675,0.04,-6.9562664,-4.825485706329346,-4.955921,0.0,-0.0,0.0
560.9499999998185,0.4279966,-0.26247528,0.035244763,-2.1140242,-0.27413592,1.1193888,1.1662176,0.03999675,0.04,-6.9562664,-4.825485706329346,-4.955921,0.0,-0.0,0.0
560.9666666664851,0.4279966,-0.26247528,0.035244763,-2.1140242,-0.27413592,1.1193888,1.1662176,0.03999675,0.04,-6.9562664,-4.825485706329346,-4.955921,0.0,-0.0,0.0
560.9833333331518,0.4279966,-0.26247528,0.035244763,-2.1140242,-0.27413592,1.1193888,1.1662176,0.03999675,0.04,-6.9562664,-4.825485706329346,-4.955921,0.0,-0.0,0.0
560.9999999998184,0.4279966,-0.26247528,0.035244763,-2.1140242,-0.27413592,1.1193888,1.1662176,0.03999675,0.04,-6.9562664,-4.825485706329346,-4.955921,0.0,-0.0,0.0
561.0166666664851,0.4279966,-0.26247528,0.035244763,-2.1140242,-0.27413592,1.1193888,1.1662176,0.03999675,0.04,-6.9562664,-4.825485706329346,-4.955921,0.0,-0.0,0.0
561.0333333331517,0.4279966,-0.26247528,0.035244763,-2.1140242,-0.27413592,1.1193888,1.1662176,0.03999675,0.04,-6.9562664,-4.825485706329346,-4.955921,0.0,-0.0,0.0
561.0499999998184,0.4279966,-0.26247528,0.035244763,-2.1140242,-0.27413592,1.1193888,1.1662176,0.03999675,0.04,-6.9562664,-4.825485706329346,-4.955921,0.0,-0.0,0.0
561.066666666485,0.4279966,-0.26247528,0.035244763,-2.1140242,-0.27413592,1.1193888,1.1662176,0.03999675,0.04,-6.9562664,-4.825485706329346,-4.955921,0.0,-0.0,0.0
561.0833333331517,0.4279966,-0.26247528,0.035244763,-2.1140242,-0.27413592,1.1193888,1.1662176,0.03999675,0.04,-6.9562664,-4.825485706329346,-4.955921,0.0,-0.0,0.0
561.0999999998184,0.4279966,-0.26247528,0.035244763,-2.1140242,-0.27413592,1.1193888,1.1662176,0.03999675,0.04,-6.9562664,-4.825485706329346,-4.955921,0.0,-0.0,0.0
561.116666666485,0.4279966,-0.26247528,0.035244763,-2.1140242,-0.27413592,1.1193888,1.1662176,0.03999675,0.04,-6.9562664,-4.825485706329346,-4.955921,0.0,-0.0,0.0
561.1333333331517,0.4279966,-0.26247528,0.035244763,-2.1140242,-0.27413592,1.1193888,1.1662176,0.03999675,0.04,-6.9562664,-4.825485706329346,-4.955921,0.0,-0.0,0.0
561.1499999998183,0.4279966,-0.26247528,0.035244763,-2.1140242,-0.27413592,1.1193888,1.1662176,0.03999675,0.04,-6.9562664,-4.825485706329346,-4.955921,0.0,-0.0,0.0
561.166666666485,0.4279966,-0.26247528,0.035244763,-2.1140242,-0.27413592,1.1193888,1.1662176,0.03999675,0.04,-6.9562664,-4.825485706329346,-4.955921,0.0,-0.0,0.0
561.1833333331516,0.4279966,-0.26247528,0.035244763,-2.1140242,-0.27413592,1.1193888,1.1662176,0.03999675,0.04,-6.9562664,-4.825485706329346,-4.955921,0.0,-0.0,0.0
561.1999999998183,0.4279966,-0.26247528,0.035244763,-2.1140242,-0.27413592,1.1193888,1.1662176,0.03999675,0.04,-6.9562664,-4.825485706329346,-4.955921,0.0,-0.0,0.0
561.2166666664849,0.4279966,-0.26247528,0.035244763,-2.1140242,-0.27413592,1.1193888,1.1662176,0.03999675,0.04,-6.9562664,-4.825485706329346,-4.955921,0.0,-0.0,0.0
561.2333333331516,0.4279966,-0.26247528,0.035244763,-2.1140242,-0.27413592,1.1193888,1.1662176,0.03999675,0.04,-6.9562664,-4.825485706329346,-4.955921,0.0,-0.0,0.0
561.2499999998182,0.4279966,-0.26247528,0.035244763,-2.1140242,-0.27413592,1.1193888,1.1662176,0.03999675,0.04,-6.9562664,-4.825485706329346,-4.955921,0.0,-0.0,0.0
561.2666666664849,0.4279966,-0.26247528,0.035244763,-2.1140242,-0.27413592,1.1193888,1.1662176,0.03999675,0.04,-6.9562664,-4.825485706329346,-4.955921,0.0,-0.0,0.0
561.2833333331515,0.4279966,-0.26247528,0.035244763,-2.1140242,-0.27413592,1.1193888,1.1662176,0.03999675,0.04,-6.9562664,-4.825485706329346,-4.955921,0.0,-0.0,0.0
561.2999999998182,0.4279966,-0.26247528,0.035244763,-2.1140242,-0.27413592,1.1193888,1.1662176,0.03999675,0.04,-6.9562664,-4.825485706329346,-4.955921,0.0,-0.0,0.0
561.3166666664848,0.4279966,-0.26247528,0.035244763,-2.1140242,-0.27413592,1.1193888,1.1662176,0.03999675,0.04,-6.9562664,-4.825485706329346,-4.955921,0.0,-0.0,0.0
561.3333333331515,0.4279966,-0.26247528,0.035244763,-2.1140242,-0.27413592,1.1193888,1.1662176,0.03999675,0.04,-6.9562664,-4.825485706329346,-4.955921,0.0,-0.0,0.0
561.3499999998181,0.4279966,-0.26247528,0.035244763,-2.1140242,-0.27413592,1.1193888,1.1662176,0.03999675,0.04,-6.9562664,-4.825485706329346,-4.955921,0.0,-0.0,0.0
561.3666666664848,0.4279966,-0.26247528,0.035244763,-2.1140242,-0.27413592,1.1193888,1.1662176,0.03999675,0.04,-6.9562664,-4.825485706329346,-4.955921,0.0,-0.0,0.0
561.3833333331514,0.4279966,-0.26247528,0.035244763,-2.1140242,-0.27413592,1.1193888,1.1662176,0.03999675,0.04,-6.9562664,-4.825485706329346,-4.955921,0.0,-0.0,0.0
561.3999999998181,0.4279966,-0.26247528,0.035244763,-2.1140242,-0.27413592,1.1193888,1.1662176,0.03999675,0.04,-6.9562664,-4.825485706329346,-4.955921,0.0,-0.0,0.0
561.4166666664847,0.4279966,-0.26247528,0.035244763,-2.1140242,-0.27413592,1.1193888,1.1662176,0.03999675,0.04,-6.9562664,-4.825485706329346,-4.955921,0.0,-0.0,0.0
561.4333333331514,0.4279966,-0.26247528,0.035244763,-2.1140242,-0.27413592,1.1193888,1.1662176,0.03999675,0.04,-6.9562664,-4.825485706329346,-4.955921,0.0,-0.0,0.0
561.449999999818,0.4279966,-0.26247528,0.035244763,-2.1140242,-0.27413592,1.1193888,1.1662176,0.03999675,0.04,-6.9562664,-4.825485706329346,-4.955921,0.0,-0.0,0.0
561.4666666664847,0.4279966,-0.26247528,0.035244763,-2.1140242,-0.27413592,1.1193888,1.1662176,0.03999675,0.04,-6.9562664,-4.825485706329346,-4.955921,0.0,-0.0,0.0
561.4833333331513,0.4279966,-0.26247528,0.035244763,-2.1140242,-0.27413592,1.1193888,1.1662176,0.03999675,0.04,-6.9562664,-4.825485706329346,-4.955921,0.0,-0.0,0.0
561.499999999818,0.4279966,-0.26247528,0.035244763,-2.1140242,-0.27413592,1.1193888,1.1662176,0.03999675,0.04,-6.9562664,-4.825485706329346,-4.955921,0.0,-0.0,0.0
561.5166666664846,0.4279966,-0.26247528,0.035244763,-2.1140242,-0.27413592,1.1193888,1.1662176,0.03999675,0.04,-6.9562664,-4.825485706329346,-4.955921,0.0,-0.0,0.0
561.5333333331513,0.4279966,-0.26247528,0.035244763,-2.1140242,-0.27413592,1.1193888,1.1662176,0.03999675,0.04,-6.9562664,-4.825485706329346,-4.955921,0.0,-0.0,0.0
561.5499999998179,0.4279966,-0.26247528,0.035244763,-2.1140242,-0.27413592,1.1193888,1.1662176,0.03999675,0.04,-6.9562664,-4.825485706329346,-4.955921,0.0,-0.0,0.0
