rsonawane2002/My_IMU/logs_2/traj_348/clean_348.csv
time,j1,j2,j3,j4,j5,j6,j7,gripper1,gripper2,imu_ax,imu_ay,imu_az,imu_gx,imu_gy,imu_gz,quat_x,quat_y,quat_z,quat_w
1072.8833333326863,0.00016700293,-0.785875,4.0107683e-05,-2.3551247,9.29385e-05,1.570997,0.786,0.04,0.04,0.0,-0.0,0.0,2.875329272945135e-08,-0.0011641195053377316,4.421952117202833e-08,0.9999995971961153,0.00020320632366974898,0.0008736418299892524,3.263050917662294e-05
1072.899999999353,0.00016699689,-0.78576016,4.011724e-05,-2.3552213,9.297081e-05,1.5709941,0.786,0.04,0.04,-0.29199846039627,-2.6193236327761056e-05,0.020128410767350502,7.409154798075415e-07,-0.0022390231224646857,-2.1065870307429439e-07,0.9999996850581457,0.00020321070916440502,0.0007665025198872125,3.260221091290611e-05
1072.9166666660196,0.00016692984,-0.7856543,4.014455e-05,-2.35531,9.297815e-05,1.5709913,0.786,0.04,0.04,0.023328722660442835,6.48416130994854e-05,-0.0016704180001214652,6.621006097976168e-06,-0.003229424406565154,-2.2044589747480337e-06,0.9999997558403194,0.00020323894474986158,0.000667797263825328,3.25583667631582e-05
1072.9333333326863,0.00016670095,-0.78555703,4.0219333e-05,-2.355391,9.293369e-05,1.5709884,0.786,0.04,0.039999995,0.02246074014158328,0.0001611036122660522,-0.0015248504884768366,2.1540386432154736e-05,-0.004145652463178226,-6.770234832323695e-06,0.9999998122220266,0.00020333094265008748,0.0005771982496261393,3.247491173681377e-05
1072.949999999353,0.00016616598,-0.7854677,4.038444e-05,-2.3554654,9.2761715e-05,1.5709856,0.786,0.04,0.04,0.020113700782120603,0.0003263497703616153,-0.0015654489093019919,5.052659606304935e-05,-0.004992344273490165,-1.829286237322854e-05,0.9999998567943504,0.000203543717621223,0.0004939008393604982,3.2298521531298814e-05
1072.9666666660196,0.00016514077,-0.7853857,4.0693732e-05,-2.355533,9.241073e-05,1.5709856,0.786,0.04,0.04,0.020833037625811457,0.0005041515744612173,0.0009877946868463994,9.75734363555179e-05,-0.005776272877285886,-3.3816400162249036e-05,0.9999998908319236,0.00020395033406590338,0.0004191865537128587,3.198492304147411e-05
1072.9833333326862,0.000163406,-0.78531104,4.1211828e-05,-2.3555982,9.179866e-05,1.5709862,0.7860019,0.04,0.04,0.011876380282815902,0.0007322625200694962,-0.00275441028965151,0.00016622389623682579,-0.006489206355070369,-5.720777122524091e-05,0.9999999173031121,0.00020559136687295872,0.00034947911285539726,3.146916448494799e-05
1072.999999999353,0.00016071051,-0.7852428,4.2012398e-05,-2.3556573,9.083433e-05,1.570987,0.7860038,0.04,0.04,0.017728644069392452,0.0009901954750908255,-0.0007280608456117221,0.00025134543368956244,-0.007164723720714063,-8.887832251825386e-05,0.999999937020069,0.00020761253970693553,0.0002862090900729793,3.067976933247928e-05
1073.0166666660195,0.00015677478,-0.7851811,4.31773e-05,-2.3557148,8.941753e-05,1.5709879,0.78600764,0.04,0.04,0.010123244271653675,0.0012777101484577418,-0.002904954939797477,0.0003657495131121853,-0.007791879535844175,-0.0001297649970952326,0.9999999514969076,0.00021107843017658558,0.000227111514225905,2.9537078310336472e-05
1073.0333333326862,0.00015129412,-0.78512555,4.479581e-05,-2.3557663,8.743775e-05,1.5709889,0.78601146,0.04,0.04,0.016917263608373645,0.0015907789740505205,-0.000830900522186262,0.0005034560763616608,-0.008390625951705463,-0.00018070198915720272,0.9999999613140781,0.00021515598385618464,0.00017406399716639006,2.7954783902329652e-05
1073.0499999993528,0.0001439415,-0.7850759,4.6963676e-05,-2.3558168,8.477609e-05,1.5709935,0.7860172,0.04,0.04,0.009316086668698098,0.001927944305079904,-0.00017943483938687166,0.0006767272845499893,-0.008947957734820931,-0.00024242596096447862,0.9999999672866223,0.0002209286837972715,0.00012629168976729518,2.583950332434202e-05
1073.0666666660195,0.00013437028,-0.7850319,4.9782535e-05,-2.355867,8.130684e-05,1.5709983,0.7860248,0.04,0.04,0.007108092960228518,0.0022851970134291967,-0.0029196293978461796,0.0008793280634062485,-0.009470245588312203,-0.00031559365306987647,0.9999999702862642,0.00022853383084031417,8.164886683133847e-05,2.309158721214831e-05
1073.0833333326862,0.00012221647,-0.78499347,5.3358966e-05,-2.3559165,7.688607e-05,1.5710065,0.78603435,0.039999995,0.04,0.008033987322808578,0.0026684584524279365,-0.00036232362770061144,0.0011145145234200931,-0.009979967802032278,-0.00040157653490482687,0.9999999705870202,0.0002381156905532949,4.1744898118848055e-05,1.9602042758080835e-05
1073.0999999993528,0.00010710114,-0.78496057,5.7803893e-05,-2.3559635,7.138721e-05,1.5710151,0.7860459,0.03999999,0.03999999,0.010697726945485542,0.003050666190085262,-0.0017071422315773077,0.001384617721441617,-0.010461810275618388,-0.0004983456870103484,0.9999999686438212,0.0002498839567840541,6.1029843132455235e-06,1.5268211339954824e-05
1073.1166666660195,8.863243e-05,-0.78493315,6.3232095e-05,-2.3560102,6.466727e-05,1.5710274,0.7860607,0.039999988,0.039999988,0.007637621619749346,0.0034547295921338547,-0.0002526116971601766,0.0016915975364446359,-0.010923398054892492,-0.0006089178351817768,0.9999999646380124,0.0002645900405804621,-2.4829806893326158e-05,9.978227216803915e-06
1073.133333332686,6.6407105e-05,-0.7849112,6.976137e-05,-2.356058,5.65804e-05,1.5710412,0.7860781,0.039999984,0.03999998,0.004931920738204809,0.003870326084906121,-0.0023846708351982215,0.0020329441051031606,-0.01136118592621686,-0.0007319474792710476,0.9999999588146125,0.0002820958073994677,-5.272235949232421e-05,3.6168638583002935e-06
1073.1499999993528,4.001297e-05,-0.7848946,7.751261e-05,-2.3561075,4.697578e-05,1.5710574,0.786099,0.039999977,0.039999973,0.0033779583726190054,0.004295548610670964,-0.0020883778114821894,0.002412922590185701,-0.011790275937991656,-0.0008694673834598549,0.9999999510637653,0.0003030115914654625,-7.772364843598367e-05,-3.934079803587163e-06
1073.1666666660194,9.029673e-06,-0.78488356,8.660874e-05,-2.3561575,3.570219e-05,1.5710775,0.7861234,0.03999997,0.03999996,0.006590922344495986,0.004727307996216156,-0.0005478973365002915,0.002830241051855138,-0.012216054376331447,-0.0010200224276172348,0.999999941471571,0.0003274741544385302,-9.82541132376483e-05,-1.2793046405379696e-05
1073.183333332686,-2.6969246e-05,-0.78487813,9.717482e-05,-2.3562083,2.2603383e-05,1.5711013,0.7861516,0.039999966,0.039999958,0.0061855034142688226,0.005167399190731804,-0.0006537611454193737,0.0032868367909046244,-0.012622498380263684,-0.0011855474599226444,0.9999999298782226,0.00035583121837501786,-0.00011443292927349014,-2.308243069555886e-05
1073.1999999993527,-6.8415466e-05,-0.7848784,0.000109337045,-2.3562617,7.5232456e-06,1.571129,0.7861843,0.03999997,0.03999996,0.003010226209099187,0.00561200309377956,-0.0015431652172104293,0.0037834824934525543,-0.01301248893530595,-0.0013653581885865154,0.9999999157927614,0.0003886115529705541,-0.00012718393151234415,-3.492532888793454e-05
1073.2166666660194,-0.00011574429,-0.78488433,0.00012322297,-2.3563194,-9.696462e-06,1.5711604,0.7862215,0.039999973,0.039999966,0.00024012883941271213,0.006060511272320624,-0.002326279945874532,0.004318432170650306,-0.013396188393125353,-0.0015595913844388206,0.9999998986791864,0.00042595780678468336,-0.00013731175802195305,-4.8446310697926795e-05
1073.233333332686,-0.00016939388,-0.784896,0.0001389608,-2.3563783,-2.9214361e-05,1.5711957,0.7862637,0.039999973,0.03999996,0.005506509036545815,0.0065110304360170915,-0.000934191398438422,0.004894001135387461,-0.013782561929047967,-0.001767481887231863,0.9999998780461004,0.0004683117573126889,-0.00014326665977884014,-6.376947885168094e-05
1073.2499999993527,-0.000229804,-0.7849137,0.00015667919,-2.3564436,-5.1191026e-05,1.5712354,0.7863112,0.03999997,0.039999958,-0.0028881305087491427,0.006965260160407764,-0.0030150237766424226,0.005509164826507283,-0.014157996990207417,-0.0019908211974777475,0.9999998527539451,0.0005159967339419359,-0.00014722418610375645,-8.102158876598983e-05
1073.2666666660193,-0.00029741522,-0.7849374,0.0001765074,-2.3565104,-7.578602e-05,1.5712806,0.7863644,0.039999973,0.03999996,0.005893002414047999,0.007417630613381662,6.71409517982724e-05,0.006164504729362691,-0.01454283560664034,-0.002228770912356553,0.9999998221950375,0.0005693658359029007,-0.00014617428704802974,-0.00010032704579968919
1073.283333332686,-0.0003726679,-0.7849674,0.00019857417,-2.3565838,-0.000103158935,1.5713309,0.7864235,0.039999973,0.03999996,-0.0026718776323431115,0.007871641579083223,-0.0027929300030704596,0.006859738365041644,-0.01491066228969324,-0.002481351576515879,0.9999997847391444,0.0006287426600241642,-0.00014270975830404941,-0.00012181238554608406
1073.2999999993526,-0.00045600184,-0.78500384,0.0002230083,-2.3566642,-0.00013346908,1.5713867,0.78648895,0.039999973,0.039999958,-0.0029640477298586987,0.008324008115360616,-0.002635010962626083,0.007595097690470373,-0.015286624734047384,-0.0027476885214594133,0.9999997388953892,0.0006944801090216179,-0.00013677099414043307,-0.0001456029769093573
1073.3166666660193,-0.0005478549,-0.7850468,0.00024993808,-2.3567472,-0.00016687662,1.5714481,0.7865611,0.039999977,0.03999996,0.0045635512636810205,0.008774922744737793,-0.0007197773916889361,0.008370510256393371,-0.015671903284454596,-0.003029446282782166,0.9999996832012245,0.0007669303492844624,-0.00012606322218527822,-0.00017182361357586247
1073.333333332686,-0.00064866245,-0.7850965,0.00027949107,-2.3568368,-0.00020353937,1.5715157,0.7866402,0.039999977,0.03999996,-0.0019375071391269927,0.009223089383188417,-0.0022001579889963097,0.009185588372869098,-0.016045583917630987,-0.003325700515980044,0.9999996153484888,0.0008464444630393453,-0.00011222558484191295,-0.00020059926087037186
1073.3499999993526,-0.00075885764,-0.7851532,0.00031179414,-2.3569338,-0.00024361393,1.5715892,0.7867268,0.039999977,0.03999996,-0.0029651882237580196,0.009668256461048061,-0.002836410266660039,0.01003991901598323,-0.01642287897085604,-0.003636386006615994,0.9999995329118956,0.0009333727846578059,-9.561573372923199e-05,-0.00023205358662891666
1073.3666666660192,-0.0008788699,-0.78521675,0.00034697296,-2.3570383,-0.00028725603,1.5716695,0.78682095,0.03999998,0.03999996,-0.0028707548688222673,0.01011010939001451,-0.0022387018798752933,0.010933087869394656,-0.016809542996778296,-0.003960545779241639,0.9999994332599456,0.0010280043758855353,-7.593569465993478e-05,-0.0002663091458788403
1073.3833333326859,-0.0010091248,-0.78528774,0.00038515253,-2.3571503,-0.0003346215,1.5717568,0.7869233,0.03999998,0.03999996,-0.0024664453769362993,0.010548224301971335,-0.002330314053322624,0.011865203692151556,-0.017201603500610865,-0.0042997881020936934,0.9999993132280831,0.0011307756844801755,-5.2768257293232733e-05,-0.00030348842589714994
1073.3999999993525,-0.001150044,-0.7853661,0.00042645592,-2.35727,-0.00038586193,1.5718515,0.7870339,0.03999998,0.039999958,-0.0024948338794850144,0.010981294500857445,-0.0022112657197315144,0.012835190600924803,-0.01759838561608204,-0.004652326679968956,0.9999991694165263,0.0012419132319652444,-2.608371078261782e-05,-0.0003437112475875751
1073.4166666660192,-0.001302044,-0.7854522,0.0004710053,-2.3573976,-0.00044112897,1.5719538,0.7871532,0.039999984,0.03999996,-0.002457632149988065,0.011409470398972277,-0.002224195172439991,0.013843374506406419,-0.017999877064480075,-0.005019504346524444,0.9999989978723305,0.0013617604017841256,4.326485650308456e-06,-0.0003870971767951143
1073.4333333326858,-0.0014655361,-0.78554606,0.0005189215,-2.3575335,-0.0005005739,1.5720636,0.7872815,0.039999984,0.039999966,-0.0031743352974178407,0.011833117489442584,-0.002599217224652506,0.014889047261360665,-0.018403087913692582,-0.005402360286340662,0.9999987941167383,0.0014906883045906236,3.822383890212519e-05,-0.00043376535809775134
1073.4499999993525,-0.0016409262,-0.78564787,0.00057032297,-2.3576777,-0.0005643407,1.5721812,0.78741914,0.039999984,0.03999996,-0.0029295958652975074,0.012248263447373932,-0.0024049603620568405,0.015971611403891632,-0.01881410683658159,-0.005796255702447445,0.9999985532941188,0.0016289767113919851,7.584664205877665e-05,-0.00048383037317474586
1073.4666666660191,-0.0018286151,-0.7857582,0.00062532746,-2.3578308,-0.0006325759,1.572307,0.78756654,0.039999988,0.039999966,-0.0030061540580827995,0.012659755030870789,-0.002783701036079833,0.017090502425840627,-0.01922853715478412,-0.006204298136004054,0.9999982698025034,0.0017770222503972746,0.00011737362407850764,-0.0005374079955190057
1073.4833333326858,-0.0020289964,-0.785877,0.00068405044,-2.3579955,-0.0007054248,1.5724416,0.7877238,0.039999988,0.039999977,-0.007708862956778972,0.013066396289110587,-0.0035103882582765422,0.018244637336608666,-0.01964721137495222,-0.00662923130525808,0.9999979380103249,0.0019350097901054053,0.00016170189129642175,-0.0005946130749048842
1073.4999999993524,-0.002242459,-0.7860044,0.00074660534,-2.3581698,-0.0007830241,1.5725849,0.78789127,0.03999999,0.039999966,-0.0039023746324362563,0.013462230809960065,-0.002741575325360124,0.01943436354634444,-0.020080913204382725,-0.007059429440163267,0.9999975511456588,0.0021033017946038715,0.00020993398993327585,-0.0006555547012413579
1073.516666666019,-0.002469384,-0.7861405,0.0008131045,-2.3583531,-0.00086551526,1.5727371,0.7880693,0.03999999,0.039999995,-0.003016536367694833,0.013854860538747762,-0.0023567725353279556,0.02065887362482532,-0.0205203699232353,-0.007513553975649019,0.9999971019013971,0.002282197353392025,0.0002624273610531293,-0.0007203443115079253
1073.5333333326857,-0.0027101461,-0.78628564,0.00088365754,-2.3585482,-0.0009530288,1.5728987,0.78825825,0.03999999,0.039999995,-0.006863187213346222,0.014235113916573599,-0.0034251171606936026,0.02191756374610029,-0.02096154984514662,-0.007972800104711568,0.9999965825533518,0.0024720227106587735,0.0003183175517864696,-0.0007890876197578342
1073.5499999993524,-0.0029651138,-0.78643996,0.000958372,-2.3587534,-0.0010457123,1.5730698,0.78845835,0.03999999,0.039999988,-0.00430018376167407,0.014623515500944862,-0.0028575378455464318,0.023209501255158263,-0.02141443533063568,-0.00844534485277461,0.9999959843942188,0.002673042699448423,0.00037837917660218294,-0.0008618975362443964
1073.566666666019,-0.003234648,-0.7866037,0.0010373542,-2.3589697,-0.0011436862,1.5732508,0.7886698,0.039999984,0.039999958,-0.005102052473904273,0.01498475912739574,-0.002968230489996948,0.024534130482073917,-0.02187176728326945,-0.008925160502618568,0.999995298186983,0.0028855181811180807,0.0004426119560422913,-0.0009388734789862356
1073.5833333326857,-0.003519103,-0.78677714,0.001120708,-2.359198,-0.0012470785,1.5734419,0.78889304,0.039999988,0.039999958,-0.006724775015842788,0.015347211568732255,-0.003505625316035932,0.025890903150588854,-0.022334901733833186,-0.00942125954412428,0.9999945139369194,0.003109767440709122,0.0005106878168007147,-0.0010201178768053107
1073.5999999993523,-0.0038188251,-0.7869604,0.0012085343,-2.3594384,-0.0013560172,1.5736433,0.7891282,0.039999995,0.039999977,-0.006112865820928626,0.015703640187620885,-0.0032992317801738835,0.02727876701525453,-0.0228070297701709,-0.009932493148416629,0.9999936208572751,0.0033460160560314367,0.0005829044252188137,-0.0011057322191215112
1073.616666666019,-0.004134152,-0.7871538,0.0013009334,-2.359691,-0.0014706231,1.5738552,0.78937584,0.04,0.04,-0.006255822241829634,0.016045821763796802,-0.0035530306830677816,0.02869789244687146,-0.023286173663653216,-0.010455358024433554,0.999992606760079,0.0035946943956782127,0.0006592616326137271,-0.001195814150949901
1073.6333333326857,-0.0044654193,-0.7873574,0.0013980019,-2.3599553,-0.0015910044,1.5740774,0.7896358,0.04,0.04,-0.005653793302129451,0.016379928030905554,-0.003559400610653185,0.030145583056937972,-0.023772914013468906,-0.010987179194942465,0.9999914598942863,0.0038558157057374896,0.0007399673983383705,-0.0012904541785403877
1073.6499999993523,-0.004812948,-0.7875713,0.0014998347,-2.3602333,-0.0017173042,1.5743107,0.7899084,0.04,0.04,-0.00820014631577326,0.01672769597734899,-0.0038257159989951717,0.031623840351471644,-0.024265671060072776,-0.011530975811561553,0.9999901670073553,0.004129713532061209,0.0008245743750973884,-0.001389759635547737
1073.666666666019,-0.005177057,-0.7877958,0.0016065257,-2.3605232,-0.0018496206,1.5745549,0.79019403,0.04,0.04,-0.005137107206421021,0.017038441603385406,-0.0033122405993957216,0.03313066055172016,-0.024768433120741153,-0.012085117103019207,0.9999887130661334,0.0044166621905835785,0.0009139762221755925,-0.001493814880795131
1073.6833333326856,-0.005558051,-0.7880311,0.0017181645,-2.3608263,-0.001988067,1.5748106,0.7904929,0.04,0.04,-0.006685028902442269,0.01735142581468273,-0.0036775343196682186,0.03466575823042571,-0.025274641034314933,-0.012649468402393792,0.9999870830075648,0.004716899855922348,0.0010079638534616444,-0.0016027110285818417
1073.6999999993523,-0.0059562353,-0.7882774,0.00183484,-2.361143,-0.0021327634,1.575078,0.79080534,0.04,0.04,-0.007695540378738208,0.017669076542675775,-0.0039062111255594445,0.03622816616223634,-0.025786850590936904,-0.013226227388826166,0.999985260525799,0.005030724216720379,0.0011063580532618784,-0.0017165421239347075
1073.716666666019,-0.0063719023,-0.7885344,0.001956638,-2.361474,-0.0022838179,1.5753572,0.79113144,0.03999999,0.04,-0.00832787461311213,0.017969907896212348,-0.003808951294370644,0.037816419860490794,-0.026305701795846563,-0.013811483394609057,0.9999832291288009,0.005358279013166494,0.0012089793313659598,-0.0018353953605342182
1073.7333333326856,-0.0068053347,-0.78880274,0.0020836422,-2.3618188,-0.0024413404,1.5756483,0.79147154,0.04,0.03999999,-0.007227502070228375,0.018259565194981512,-0.003967205508903504,0.03943069581828643,-0.02683554767397628,-0.0144059524130563,0.9999809697847202,0.0056998532013254975,0.0013163040701208437,-0.001959358438106318
1073.7499999993522,-0.0072568143,-0.7890826,0.002215934,-2.3621778,-0.0026054094,1.5759517,0.79182565,0.04,0.04,-0.00772908595745303,0.0185297464447654,-0.0040364444728657745,0.0410697719073225,-0.02736904899742825,-0.01501252535758812,0.9999784638554251,0.006055556617244242,0.0014283612327201398,-0.0020885027144491946
1073.7666666660189,-0.0077266083,-0.789374,0.0023535925,-2.3625515,-0.002776134,1.576267,0.7921941,0.039999995,0.039999988,-0.008184753409423706,0.018807457220690153,-0.004464916295288113,0.04273391566066036,-0.02790910161117337,-0.015626329421820604,0.9999756910708167,0.006425671913725913,0.0015448820790245944,-0.0022229141371886535
1073.7833333326855,-0.0082149785,-0.789677,0.0024966937,-2.3629396,-0.0029536015,1.576595,0.7925772,0.04,0.03999998,-0.007892529638242607,0.01906932522259333,-0.003988611232497163,0.044421600534775466,-0.028459483435995338,-0.01624692096957614,0.9999726294233433,0.006810419311423263,0.0016662533750921769,-0.0023626664295669083
1073.7999999993522,-0.008722179,-0.7899918,0.0026453133,-2.3633425,-0.0031379103,1.5769356,0.79297507,0.04,0.039999984,-0.008130351581381312,0.019329140700704954,-0.004098109441197373,0.04613180920244869,-0.029012945698938225,-0.016881478262674346,0.9999692564687326,0.007209985772535721,0.0017924743601040692,-0.0025078393485655956
1073.8166666660188,-0.009248457,-0.79031855,0.0027995228,-2.3637602,-0.0033291474,1.5772891,0.79338795,0.039999995,0.03999997,-0.007868940064348351,0.019577619193868884,-0.0042569263590142015,0.04786436100607963,-0.029574104521920573,-0.017521681536881006,0.9999655481765486,0.007624586927871178,0.0019236635141433626,-0.0026585057529357916
1073.8333333326855,-0.009794053,-0.7906575,0.002959393,-2.3641934,-0.0035273966,1.5776553,0.793816,0.039999995,0.03999994,-0.008825771530407422,0.0198148442754802,-0.004739119342356268,0.04961796506307965,-0.030139890229009737,-0.018164292085596265,0.9999614804740276,0.00805437448709653,0.0020595815002627175,-0.0028147369071337257
1073.8499999993521,-0.010359194,-0.7910087,0.0031249898,-2.364642,-0.0037327467,1.5780348,0.7942593,0.04,0.039999947,-0.00826937347597756,0.02005128948774585,-0.00430440558236711,0.051392123887151954,-0.03071203565622893,-0.018823903519737187,0.9999570267384097,0.008499525084379919,0.00220058506071612,-0.0029766046445567386
1073.8666666660188,-0.010944098,-0.7913724,0.0032963804,-2.3651059,-0.0039452775,1.5784277,0.79471815,0.04,0.039999958,-0.00827231730056166,0.020265104151990024,-0.004430188856363593,0.05318630316929615,-0.031289498305413346,-0.01949346311975537,0.9999521594626882,0.008960209831505148,0.002346822287031517,-0.0031441772906566517
1073.8833333326854,-0.011548988,-0.7917485,0.0034736262,-2.3655853,-0.0041650627,1.578834,0.7951927,0.04,0.039999947,-0.008405858244664444,0.020488132057226195,-0.004393512350131523,0.054999947509653174,-0.0318711055409283,-0.020165722215008654,0.9999468500107698,0.009436634074653219,0.0024982326944153763,-0.0033175177896523724
1073.899999999352,-0.012174062,-0.7921373,0.0036567887,-2.3660803,-0.0043921834,1.5792538,0.7956831,0.04,0.039999947,-0.008117380878669422,0.020688696529061468,-0.004680261605272129,0.05683177028914592,-0.03245636685037357,-0.020848256643720028,0.9999410690106872,0.009928903293849926,0.002654904504804582,-0.003496693754922328
1073.9166666660187,-0.012819529,-0.7925388,0.0038459261,-2.3665912,-0.0046267062,1.5796872,0.7961895,0.04,0.03999995,-0.008817514685799388,0.020892198029009643,-0.004661950205475662,0.05868134174022885,-0.03304525983725238,-0.02153811512381864,0.9999347853383896,0.010437214696033367,0.0028167771545080634,-0.0036817639956091565
1073.9333333326854,-0.013485571,-0.7929532,0.0040410943,-2.3671188,-0.0048687044,1.5801346,0.79671204,0.04,0.039999954,-0.009765342747236616,0.021078810919119076,-0.004941225694610196,0.060547730238014484,-0.03363871801566135,-0.022237021696854164,0.9999279675232247,0.010961696558153175,0.0029837004534653475,-0.00387279034340679
1073.949999999352,-0.014172375,-0.7933806,0.004242347,-2.3676634,-0.005118244,1.5805961,0.7972508,0.04,0.03999996,-0.00993925173125021,0.021260667916636264,-0.005095493080675695,0.0624304241264093,-0.03423849907393128,-0.022942850806218926,0.9999205827019768,0.011502447863678773,0.003155702836431043,-0.004069830671015439
1073.9666666660187,-0.014880123,-0.7938211,0.0044497363,-2.3682241,-0.005375387,1.5810714,0.797806,0.04,0.039999973,-0.008799432091177728,0.021438725261717015,-0.004986827162611895,0.06432891126954457,-0.03484342283068481,-0.023656335577150776,0.9999125949867365,0.012059657446090132,0.003333021646177573,-0.004272939957396846
1073.9833333326853,-0.015608976,-0.7942748,0.00466331,-2.368801,-0.005640193,1.5815609,0.7983778,0.04,0.039999958,-0.008489918643106442,0.0215977650937553,-0.004858745612046356,0.0662421320003001,-0.03545288804393421,-0.02436940961888988,0.9999039676447153,0.012633444334853933,0.003515923776889117,-0.004482170522124845
1073.999999999352,-0.01635909,-0.79474187,0.004883117,-2.3693955,-0.005912729,1.5820646,0.7989662,0.04,0.04,-0.010356107333486797,0.021755412710478678,-0.0054138060092912,0.0681695030957265,-0.03606491729734333,-0.025102678605284492,0.9998946655835551,0.013223894068091368,0.0037039308804870685,-0.004697580149270945
1074.0166666660186,-0.01713063,-0.7952223,0.005109201,-2.3700066,-0.0061930395,1.5825828,0.79957163,0.04,0.04,-0.009101044772208411,0.021907845664038278,-0.005043367699864021,0.07011070892072141,-0.03668173535174304,-0.02583251608931764,0.9998846472409598,0.013831246409133784,0.003897459294903948,-0.0049192118917456345
1074.0333333326853,-0.017923731,-0.7957161,0.005341605,-2.3706346,-0.0064811776,1.5831155,0.80019385,0.04,0.039999954,-0.009445145256314902,0.02204098985485771,-0.005226176231176716,0.07206362794103596,-0.03730282248063769,-0.02656058544154203,0.9998738751582356,0.0144554609512056,0.004096417442350695,-0.005147114616903825
1074.049999999352,-0.018738534,-0.79622364,0.00558037,-2.3712792,-0.0067772013,1.5836629,0.80083305,0.04,0.03999996,-0.00859750224753153,0.022179588535468225,-0.005062497440255775,0.07402936157561346,-0.03792599001343803,-0.027303677796444742,0.9998623059086558,0.015096676922056915,0.004301250937145224,-0.005381338988781738
1074.0666666660186,-0.019575177,-0.79674476,0.005825536,-2.3719418,-0.0070811547,1.5842248,0.8014893,0.04,0.04,-0.010843891676604045,0.02230850363943819,-0.005756116341770756,0.07600631173357056,-0.038548038959949134,-0.028058915662006696,0.9998499007199062,0.015754973217589664,0.004511183147194779,-0.0056219281318080115
1074.0833333326852,-0.020433776,-0.79727954,0.0060771354,-2.3726218,-0.0073930817,1.5848016,0.80216295,0.04,0.04,-0.009891129978067958,0.022423950894865513,-0.005443322058695799,0.0779943975339249,-0.039177278323923065,-0.028811797537276057,0.9998366123393725,0.016430569939712664,0.004726600549989277,-0.005868921913288511
1074.099999999352,-0.021314442,-0.7978281,0.006335202,-2.3733194,-0.007713024,1.585393,0.80285376,0.04,0.04,-0.010209376946845872,0.022524957840913337,-0.005753230097527151,0.07999137571539792,-0.03981057096177615,-0.02956885995649526,0.9998223991154649,0.017123385651223597,0.004947381250754268,-0.006122361439457796
1074.1166666660185,-0.02221729,-0.79839057,0.0065997695,-2.3740344,-0.008041019,1.5859993,0.8035621,0.04,0.04,-0.009532082421581656,0.022630007665321375,-0.005616932135010799,0.08199869375820769,-0.0404467009488488,-0.030332429510732725,0.9998072109291153,0.017833638966392583,0.005173852025235646,-0.0063822841194022375
1074.1333333326852,-0.023142422,-0.79896694,0.0068708663,-2.374767,-0.008377104,1.5866206,0.80428785,0.04,0.04,-0.009970155509386736,0.02272714387448506,-0.00565336635645064,0.0840136010378566,-0.041084765937110614,-0.03110060443718295,0.9997910023904207,0.018561303284649368,0.005405920950910112,-0.0066487275628783985
1074.1499999993518,-0.024089923,-0.7995573,0.0071485215,-2.3755174,-0.008721317,1.5872569,0.80503076,0.04,0.04,-0.009842957250261186,0.0228049689103383,-0.005770989309028529,0.08603699074494345,-0.04172587622570418,-0.03186643785438751,0.9997737275150195,0.019306286761290932,0.005643644563467938,-0.006921729426655636
1074.1666666660185,-0.025059884,-0.80016166,0.007432759,-2.3762856,-0.009073681,1.5879084,0.8057916,0.04,0.04,-0.010281532616684963,0.02288396318891918,-0.005810261247529702,0.08806931486207369,-0.04236721465164823,-0.03264709664228893,0.9997553301102291,0.020069005409493294,0.005886933777464836,-0.007201315765914357
1074.1833333326852,-0.026052387,-0.8007799,0.0077236025,-2.3770716,-0.009434234,1.5885749,0.8065702,0.04,0.04,-0.010390196599097123,0.02296271750593694,-0.005920289638927656,0.09010691012074956,-0.043011424868661545,-0.033426904451952295,0.9997357621842667,0.02084936546874655,0.006135696063710299,-0.007487523169096
1074.1999999993518,-0.027067497,-0.80141234,0.0080210725,-2.3778753,-0.009802997,1.5892564,0.80736643,0.04,0.04,-0.009593672495422645,0.0230094597480357,-0.006065767647167597,0.0921501397745549,-0.043658439028370674,-0.034212210118824055,0.9997149700590419,0.021647386658020247,0.006390227041573609,-0.007780378466644465
1074.2166666660185,-0.02810529,-0.8020591,0.0083251875,-2.3786967,-0.010179996,1.5899533,0.80818063,0.04,0.04,-0.00941580474289605,0.023081788924143518,-0.005890679568332224,0.09419905962142253,-0.04430634868119599,-0.034994308795418316,0.9996928963210111,0.022463210994298863,0.006650733728832006,-0.008079909529309315
1074.233333332685,-0.029165817,-0.8027202,0.008635968,-2.3795357,-0.010565247,1.5906657,0.80901265,0.04,0.04,-0.009381082370119032,0.023115391433515403,-0.005859982612355097,0.09625188049155098,-0.04495295367025656,-0.03578463165310401,0.9996694871869444,0.02329678840289925,0.00691727277148199,-0.008386141836805078
1074.2499999993518,-0.030249128,-0.80339533,0.00895343,-2.3803933,-0.010958776,1.5913932,0.80986243,0.04,0.039999995,-0.011396699544286015,0.0231567928360904,-0.006484017282093468,0.09830869079023237,-0.045596509279023555,-0.0365706932237508,0.9996446929912745,0.024148099948586136,0.0071890664635252295,-0.008699101484450081
1074.2666666660184,-0.03135527,-0.8040847,0.009277581,-2.3812692,-0.011360594,1.5921363,0.81073016,0.04,0.039999995,-0.010680578831556709,0.023196340056357706,-0.006271020748482847,0.10036906072892024,-0.046245706501912794,-0.03736627636986945,0.9996184521539406,0.025017246161343994,0.007466500273719015,-0.009018807101008865
1074.283333332685,-0.03248429,-0.80478835,0.009608436,-2.3821626,-0.011770716,1.5928946,0.8116159,0.04,0.04,-0.009130851649374883,0.02322736318972618,-0.006078346685178815,0.10243234597811712,-0.046894728798726144,-0.03817144661113873,0.9995907028215169,0.025904269377925955,0.007749929321967828,-0.009345279893431433
1074.2999999993517,-0.0336362,-0.80550635,0.009946004,-2.3830745,-0.012189152,1.5936681,0.81251967,0.04,0.04,-0.011046371455347703,0.023223841368922443,-0.006745655376683146,0.10449708269218463,-0.047542290504767284,-0.03897222094818981,0.9995613890738645,0.026809193135739113,0.008038814769479968,-0.009678537763482086
1074.3166666660184,-0.03481104,-0.8062386,0.010290288,-2.3840046,-0.0126159135,1.594457,0.8134413,0.04,0.04,-0.010327128217979542,0.023252715584484718,-0.006440829987153229,0.10656301709478136,-0.04819322814511155,-0.03977552673281919,0.999530451673148,0.027731903025248757,0.008333390967003688,-0.010018599086805852
1074.333333332685,-0.03600881,-0.80698496,0.010641295,-2.3849528,-0.013051005,1.5952613,0.81438094,0.04,0.04,-0.010463451623143882,0.023246409536301083,-0.006440548733532836,0.10863027042882456,-0.048843155854855644,-0.040583490221525936,0.9994978264575934,0.028672509944897454,0.008633596585491952,-0.010365475869687179
1074.3499999993517,-0.037229538,-0.8077459,0.010999031,-2.385919,-0.013494428,1.5960811,0.8153386,0.04,0.04,-0.009971547615017506,0.02324781510071594,-0.00664825734104646,0.11069753924567949,-0.049494281944573996,-0.041394139460657925,0.9994634488523096,0.029630986245273945,0.008939696457973703,-0.010719183253314621
1074.3666666660183,-0.038473222,-0.808521,0.011363495,-2.3869038,-0.013946189,1.5969163,0.81631416,0.04,0.04,-0.01081796286770409,0.02323941509719818,-0.006715745182761523,0.11276451320675222,-0.05014280913773912,-0.04220070658337969,0.9994272600448678,0.030607258921264074,0.009251329305075667,-0.011079733147681988
1074.383333332685,-0.039739866,-0.80931056,0.011734688,-2.3879066,-0.014406283,1.597767,0.81730783,0.04,0.04,-0.010048570796850065,0.02322063703715377,-0.006751709307240006,0.11483098551381535,-0.050792534387351776,-0.04301475195158047,0.9993891883590483,0.03160143915511732,0.009568821063276741,-0.011447134917830936
1074.3999999993516,-0.041029457,-0.81011444,0.012112604,-2.388928,-0.01487471,1.5986329,0.8183195,0.04,0.04,-0.011147935409594467,0.02319611591976717,-0.007115676454860775,0.11689541316156254,-0.051440227314512914,-0.04382932549090321,0.9993491738091838,0.03261345219373309,0.00989172092120821,-0.01182139586199374
1074.4166666660183,-0.042341985,-0.8109327,0.0124972435,-2.389967,-0.015351463,1.5995145,0.8193491,0.04,0.04,-0.009333680438339265,0.02317077583750965,-0.006522745378423345,0.11895746492787976,-0.05208963689396627,-0.0446502315266393,0.9993071435314711,0.03364325142568432,0.010220710654540577,-0.01220252409118762
1074.433333332685,-0.043677423,-0.8117651,0.012888597,-2.391024,-0.015836539,1.6004114,0.8203968,0.04,0.04,-0.010498218332455345,0.023132936980599372,-0.006856459241766366,0.12101675752370486,-0.05273474802816447,-0.045466112978072154,0.9992630321451966,0.034690873620748186,0.010555310918316666,-0.012590523691838867
1074.4499999993516,-0.045035757,-0.81261176,0.01328666,-2.3920991,-0.016329922,1.6013237,0.82146233,0.04,0.04,-0.009898892046256158,0.023091339940024824,-0.006918931034505249,0.12307268472494397,-0.05337851224924905,-0.04628192614247913,0.999216771182856,0.03575621332691227,0.010895725758509792,-0.012985397784569445
1074.4666666660182,-0.04641693,-0.8134726,0.013691422,-2.3931923,-0.016831601,1.6022512,0.8225459,0.04,0.04,-0.010524721423776917,0.023016486855812618,-0.007210574602600772,0.12512495623639763,-0.05401957908966773,-0.047097547210847794,0.9991682920866637,0.03683929423782765,0.011241654666533877,-0.013387146411269393
1074.4833333326849,-0.047820915,-0.8143476,0.014102869,-2.3943036,-0.017341565,1.6031939,0.8236474,0.04,0.04,-0.010557008220213326,0.022975887322102678,-0.007165181025703404,0.1271721820801796,-0.05466126476213118,-0.04791160347566163,0.9991175245662439,0.03794006198180161,0.011593123542717519,-0.013795770654852484
1074.4999999993515,-0.049247667,-0.81523687,0.014520988,-2.395433,-0.017859789,1.6041522,0.82476646,0.04,0.04,-0.010313811784223859,0.022914175009667442,-0.00704151700288147,0.12921430033103282,-0.05530195017553428,-0.04872378312507438,0.9990644009841487,0.03905830748088797,0.01195036468934614,-0.014211266189332357
1074.5166666660182,-0.05069714,-0.8161404,0.014945764,-2.3965807,-0.018386263,1.6051259,0.82590353,0.04,0.04,-0.010744751174796008,0.022849008744670746,-0.007434325181465695,0.13125209277881783,-0.055938096331491084,-0.049537709677778444,0.9990088429455416,0.04019420822917498,0.012313168776638992,-0.0146336330457557
1074.5333333326848,-0.052169282,-0.817058,0.015377181,-2.397746,-0.018920962,1.6061149,0.8270585,0.04,0.04,-0.009822593646657829,0.022776342517010634,-0.00714518153983601,0.13328245074265815,-0.05657395763848531,-0.05035745341896865,0.9989507768215482,0.04134767108366063,0.012681710160642833,-0.015062861978534297
1074.5499999993515,-0.053664003,-0.8179898,0.015815223,-2.3989294,-0.019463865,1.6071185,0.82823104,0.04,0.04,-0.010309048134349297,0.022647739460462946,-0.007832763193249548,0.13530577860265997,-0.057204972609486544,-0.051178645807151285,0.998890139301338,0.04251849873117959,0.013055625535495835,-0.015498952031582343
1074.5666666660181,-0.055181246,-0.81893563,0.016259866,-2.4001307,-0.020014945,1.6081374,0.8294213,0.04,0.04,-0.010722745891200702,0.022592200211531827,-0.007483981653599869,0.13732242572166686,-0.05783460492588984,-0.051997716044471946,0.998826852031769,0.043706710463383286,0.013435001301564541,-0.015941890126436074
1074.5833333326848,-0.056720946,-0.8198955,0.01671109,-2.4013495,-0.02057418,1.6091713,0.8306291,0.04,0.04,-0.009513182849674173,0.022499664806137354,-0.00744598572539612,0.13933112597249991,-0.05846329162428577,-0.052818706018201655,0.9987608379554755,0.04491220904523254,0.013820100852431105,-0.016391670371938494
1074.5999999993514,-0.05828303,-0.82086945,0.017168868,-2.4025862,-0.021141538,1.6102203,0.8318546,0.04,0.04,-0.010301495608544542,0.022412059288509645,-0.007654494501441178,0.14133169592078756,-0.05908753432210535,-0.05363794723546925,0.9986920215239027,0.046134980945487875,0.014210741935670446,-0.016848278585598037
1074.616666666018,-0.059867393,-0.82185715,0.01763318,-2.4038405,-0.021716982,1.6112843,0.8330975,0.04,0.04,-0.010304762661572653,0.022276355972000728,-0.007639201068121437,0.14332281500589517,-0.05970752387212374,-0.05445615376130275,0.9986203325261399,0.047374875253867674,0.01460677041685725,-0.017311698878260885
1074.6333333326847,-0.061473943,-0.8228585,0.018103994,-2.405112,-0.022300493,1.612363,0.8343578,0.04,0.04,-0.009660240167397305,0.02217787140531141,-0.007527068282864313,0.14530466740599607,-0.06032627103725992,-0.055265985315738106,0.9985456944301515,0.04863178228996028,0.0150083004953991,-0.01778192347717852
1074.6499999993514,-0.06310259,-0.82387364,0.018581288,-2.4064014,-0.022892013,1.6134567,0.83563536,0.04,0.04,-0.010690553630143818,0.02204577099746141,-0.007821043337963296,0.147277084236002,-0.06094089289478482,-0.05607335991675349,0.998468033668516,0.04990561620620271,0.015415148762348379,-0.018258926634420167
1074.666666666018,-0.06475324,-0.8249028,0.019065028,-2.407708,-0.023491528,1.6145651,0.8369303,0.04,0.04,-0.009324833140245126,0.021939412425811544,-0.007969046584022088,0.14923908179007486,-0.0615521795343418,-0.05688615713995915,0.9983872646034464,0.05119636473285065,0.015827609542971022,-0.018742702365030114
1074.6833333326847,-0.06642577,-0.8259455,0.01955518,-2.4090319,-0.024098992,1.6156884,0.83824235,0.04,0.04,-0.010118832263095179,0.021799876553504904,-0.0077583176884887806,0.15118993178009804,-0.06215900045855092,-0.057693176327858725,0.9983033168406631,0.05250386053345712,0.01624546880644364,-0.019233225347632325
1074.6999999993513,-0.0681201,-0.8270017,0.020051716,-2.4103737,-0.024714356,1.6168263,0.83957136,0.04,0.04,-0.01120260551983332,0.021686069304729938,-0.008257840361713953,0.15312946484987705,-0.06276142084941226,-0.05849644246641375,0.9982161243424534,0.05382794052150771,0.016668243028397898,-0.0197304737979291
1074.716666666018,-0.069836095,-0.8280716,0.0205546,-2.411732,-0.025337577,1.6179787,0.84091747,0.04,0.04,-0.008479873727607057,0.021519668230285394,-0.007814620015489382,0.155057551545082,-0.06336230165913934,-0.059306300993602,0.9981255889340641,0.055168627208487975,0.017096764220627295,-0.020234424630880897
1074.7333333326847,-0.0715736,-0.8291548,0.021063799,-2.4131076,-0.025968617,1.6191455,0.8422805,0.04,0.04,-0.010631207353850591,0.021350984902292203,-0.00819336775466084,0.15697279308954293,-0.06395380659340962,-0.06011561111592583,0.9980316489687596,0.05652574197443231,0.017530281921534566,-0.02074505643978309
1074.7499999993513,-0.07333251,-0.83025134,0.02157927,-2.4144998,-0.026607424,1.6203266,0.8436604,0.04,0.04,-0.008966822212741477,0.02121969835258558,-0.00796201248232098,0.15887503225547547,-0.06454549573936699,-0.060916495764155545,0.9979342170908405,0.057899203182374445,0.017969238057337005,-0.02126234027043762
1074.766666666018,-0.07511269,-0.8313611,0.022100968,-2.4159093,-0.027253952,1.6215221,0.84505695,0.04,0.04,-0.010754156453951502,0.021071214296335128,-0.008415544325401925,0.16076388815892348,-0.06512890266246654,-0.06171653739715492,0.9978332293401699,0.05928881758644063,0.01841308954456772,-0.021786249498101096
1074.7833333326846,-0.07691401,-0.83248407,0.022628864,-2.4173353,-0.02790815,1.6227318,0.84647,0.04,0.04,-0.009177986147479444,0.020903694048823862,-0.008031060996027684,0.1626389739256427,-0.06571107967105656,-0.06251318354438393,0.9977286004913596,0.06069445182162044,0.018862277695239807,-0.022316759616341185
1074.7999999993513,-0.07873632,-0.83362025,0.02316291,-2.4187777,-0.028569968,1.6239557,0.8478995,0.04,0.04,-0.009161762875353752,0.020728846162891557,-0.008231669600555769,0.1645001738572905,-0.06628700849741068,-0.06330868413258803,0.9976202518846152,0.062116000158831605,0.01931676775913613,-0.022853840755651916
1074.816666666018,-0.08057948,-0.83476937,0.023703065,-2.4202363,-0.029239349,1.6251935,0.84934545,0.04,0.04,-0.009205255651734134,0.02056746819033145,-0.008309686521679183,0.16634677060863343,-0.06685535137121827,-0.06410000262557827,0.9975081059486469,0.06355339223120261,0.019776346796519365,-0.02339745734120541
1074.8333333326846,-0.082443334,-0.8359313,0.024249284,-2.421712,-0.029916251,1.6264454,0.850808,0.04,0.04,-0.010458660041212653,0.020401421187109248,-0.008392972183446368,0.16817773731613606,-0.06741955027751538,-0.0648868357586253,0.9973920811262416,0.06500662218113237,0.02024077445778318,-0.023947580850962373
1074.8499999993512,-0.08432773,-0.83710617,0.024801519,-2.4232037,-0.0306006,1.6277108,0.8522862,0.04,0.04,-0.00934678176196524,0.02018823222421362,-0.008734075642524708,0.16999135979585983,-0.06797917213547797,-0.06566788234287124,0.997272127282148,0.06647511845699669,0.020710093906953705,-0.024504178881016987
1074.8666666660179,-0.08623247,-0.8382937,0.025359716,-2.4247122,-0.031292345,1.62899,0.85378027,0.04,0.04,-0.01038309441665497,0.02000304977809869,-0.008612920229622567,0.17179139440038815,-0.06853334440105785,-0.06645369192865257,0.9971481625231109,0.06795889179396908,0.021184095216660915,-0.025067211906605134
1074.8833333326845,-0.088157415,-0.8394937,0.025923839,-2.4262362,-0.031991415,1.6302829,0.85529006,0.04,0.04,-0.008537278232956247,0.01981137999328003,-0.008261693892008815,0.1735753587001653,-0.06908503110510424,-0.06722615516454548,0.9970201009556283,0.06945780824389106,0.021663189330304877,-0.02563664159797295
1074.8999999993512,-0.0901024,-0.8407063,0.026493832,-2.4277754,-0.03269775,1.631589,0.85681576,0.04,0.04,-0.00814932688710801,0.019607579951924636,-0.008438624261364325,0.17534290711893136,-0.06962807849307,-0.06799951194379163,0.9968878544775449,0.07097187279844552,0.022147403950290703,-0.026212427680417736
1074.9166666660178,-0.09206725,-0.8419313,0.027069643,-2.4293303,-0.033411283,1.6329087,0.858357,0.04,0.04,-0.009138236989514326,0.019432859822347825,-0.008556970973794265,0.1770925890738025,-0.07016271497069636,-0.06877109656929067,0.9967513607847693,0.07250081701654541,0.022636461814860544,-0.0267945311985151
1074.9333333326845,-0.094051756,-0.84316844,0.027651215,-2.4309006,-0.034131985,1.6342416,0.8599138,0.04,0.04,-0.008659793494891765,0.019215058893717885,-0.008466632298853582,0.17882463310140784,-0.07069127527174891,-0.06953802679940155,0.9966105405325717,0.07404453076185463,0.02313035911356506,-0.02738292261445838
1074.9499999993511,-0.09605575,-0.8444179,0.028238507,-2.4324865,-0.034859758,1.6355873,0.8614861,0.04,0.04,-0.009429693860951716,0.018967638102063145,-0.009116264011677089,0.18053811599799025,-0.07121126067776512,-0.07029856447194316,0.9964653250811986,0.07560287112587631,0.023628762006079395,-0.027977551615633502
1074.9666666660178,-0.09807906,-0.8456794,0.028831448,-2.434088,-0.035594504,1.6369462,0.8630734,0.04,0.04,-0.009331175945725967,0.018783804438796126,-0.008726366657074713,0.18223228736368569,-0.07172873894886934,-0.0710518189167208,0.9963156476983481,0.07717556519126466,0.024131720690660843,-0.028578354489680973
1074.9833333326844,-0.100121476,-0.8469527,0.02942999,-2.4357047,-0.036336217,1.638318,0.8646757,0.04,0.04,-0.009201361280508635,0.01858186685009533,-0.008777139726623417,0.1839078174747329,-0.07223910380888054,-0.07180476430625703,0.9961614364588833,0.07876244317205179,0.02463913996945358,-0.029185318900249165
1074.999999999351,-0.10218278,-0.8482379,0.030034073,-2.4373367,-0.037084788,1.6397023,0.8662927,0.04,0.04,-0.00916724195134666,0.01830642452840675,-0.009086376065958746,0.1855644659302491,-0.07274296823659758,-0.07255204968010122,0.9960026246579435,0.08036328574983759,0.025150952595863803,-0.029798381860400954
1075.0166666660177,-0.10426284,-0.8495347,0.030643638,-2.438984,-0.037840135,1.6410991,0.8679246,0.04,0.04,-0.00958579238226065,0.018129210048441202,-0.009186147900952513,0.18720202474900532,-0.07324315567171288,-0.07329219871413707,0.9958391350403646,0.08197807326445938,0.02566688726535287,-0.030417487141660506
1075.0333333326844,-0.10636137,-0.850843,0.031258624,-2.440645,-0.038602214,1.6425084,0.8695709,0.04,0.04,-0.007189298130017008,0.01786053683651284,-0.008452863874452987,0.1888187771858177,-0.07373715383201618,-0.07403531002777317,0.9956708886721799,0.08360649090561399,0.026187650266429472,-0.03104260141683459
1075.049999999351,-0.10847821,-0.8521628,0.031878967,-2.4423206,-0.039370947,1.6439301,0.87123144,0.04,0.04,-0.008550807206697542,0.01767147948116693,-0.00891564979743631,0.19041572509184235,-0.07422134697311,-0.0747711169429779,0.9954978312158332,0.08524830495055882,0.026712785101271248,-0.031673674554150925
1075.0666666660177,-0.110613115,-0.8534939,0.032504607,-2.4440107,-0.040146217,1.6453639,0.87290615,0.04,0.04,-0.008711686670448415,0.017349002814459613,-0.009124117309289304,0.1919921699183973,-0.07469802114617427,-0.07549463983443594,0.9953198931778174,0.0869033888702586,0.027242139220621093,-0.03231063444203604
1075.0833333326843,-0.11276591,-0.85483634,0.033135485,-2.445715,-0.04092795,1.6468095,0.87459517,0.04,0.04,-0.008189041354422777,0.01713628716848714,-0.009266764158222252,0.1935478174155836,-0.07516936858095123,-0.07621283853345305,0.9951369932182362,0.08857171977838273,0.02777565030188143,-0.03295342826437388
1075.099999999351,-0.114936315,-0.85618955,0.03377153,-2.4474332,-0.041716095,1.6482666,0.8762978,0.04,0.04,-0.008757025418204556,0.01687550546105865,-0.009176110643327462,0.1950805775442811,-0.07563270345595319,-0.07692708874289399,0.9949490995649086,0.09025279799672854,0.028313005708553263,-0.033602015363466596
1075.1166666660176,-0.11712414,-0.85755384,0.03441268,-2.449165,-0.042510517,1.6497352,0.8780141,0.04,0.04,-0.007614513622034025,0.016595605887315124,-0.009178379129126668,0.1965925696875774,-0.0760917573790633,-0.07763431982528882,0.99475612190619,0.09194658982927247,0.028854589907998867,-0.03425631606238454
1075.1333333326843,-0.11932918,-0.85892856,0.03505886,-2.4509108,-0.043311182,1.6512152,0.87974393,0.04,0.04,-0.008833763764082292,0.016427221924467106,-0.009201064284880545,0.1980825476430127,-0.07654101479870969,-0.07833802666679499,0.9945580115220031,0.09365289342828603,0.029399829789690878,-0.03491628958303677
1075.149999999351,-0.12155115,-0.8603134,0.03571001,-2.4526696,-0.044118013,1.6527069,0.88148695,0.04,0.04,-0.0077867860935221245,0.01615112714620226,-0.00852464537279829,0.19954968598941034,-0.07698768838045686,-0.07903616301423427,0.9943547057567763,0.09537137957577936,0.02994910316870593,-0.03558188185801536
1075.1666666660176,-0.12378983,-0.8617094,0.036366064,-2.4544423,-0.044930905,1.6542101,0.8832432,0.04,0.04,-0.007995026988649734,0.015817744185664395,-0.009519467441920781,0.20099501638796186,-0.0774239005329295,-0.07972613167010267,0.9941461264516425,0.09710197978027371,0.03050249586967616,-0.03625303476491938
1075.1833333326842,-0.12604499,-0.8631157,0.037026938,-2.4562283,-0.045749754,1.6557244,0.8850122,0.04,0.04,-0.008246920543864,0.015578971660337726,-0.0092866755267762,0.2024167495131068,-0.07785160252186508,-0.08040946623840992,0.9939322406326299,0.09884433764245668,0.031059578893792135,-0.036929669724550127
1075.199999999351,-0.1283164,-0.864532,0.03769257,-2.4580262,-0.046574507,1.6572499,0.88679415,0.04,0.04,-0.006093501027160109,0.015377531579321979,-0.008429558445066654,0.20381623552389547,-0.07827212468637819,-0.08108910376147477,0.9937129514830673,0.10059842413639919,0.03162094704790614,-0.03761173784708329
1075.2166666660175,-0.13060383,-0.86595803,0.03836288,-2.459837,-0.04740507,1.6587869,0.88858855,0.04,0.04,-0.007878140828099234,0.01514044243822732,-0.008670351048323255,0.20519174397035067,-0.07867895110560336,-0.08176614492582776,0.9934882300464337,0.10236387248480348,0.03218614078082154,-0.0382991737607574
1075.2333333326842,-0.13290699,-0.8673939,0.039037813,-2.4616604,-0.04824137,1.6603339,0.89039546,0.04,0.04,-0.007924613287979554,0.01472760725341471,-0.009676407694114708,0.20654354389972115,-0.07907660717522719,-0.08243532486490388,0.9932580252719472,0.10414058672751719,0.03275459307335288,-0.03899192302925804
1075.2499999993508,-0.13522568,-0.8688395,0.039717287,-2.463496,-0.049083274,1.6618912,0.8922143,0.04,0.04,-0.007100255727365834,0.014531413696514117,-0.00920469776959365,0.20787009033763948,-0.07947015211162171,-0.08309078915750105,0.9930222895582977,0.10592817592899623,0.03332664478533564,-0.03968990718185257
1075.2666666660175,-0.1375596,-0.87029475,0.04040122,-2.4653435,-0.049930666,1.663459,0.8940452,0.04,0.04,-0.0067577638259264106,0.014161088103847863,-0.009110109075316508,0.2091732544143597,-0.07985440609856277,-0.08374080279222926,0.9927809546213123,0.10772653754125637,0.03390238552047488,-0.04039303784798848
1075.2833333326842,-0.1399085,-0.8717593,0.041089535,-2.4672031,-0.050783508,1.6650363,0.8958878,0.04,0.04,-0.00783053946424861,0.013942473660324972,-0.00962127576409344,0.21045151244169852,-0.08022885367434848,-0.08438443305746103,0.9925339932200365,0.10953541880118106,0.03448115042895181,-0.041101272435709435
1075.2999999993508,-0.1422721,-0.87323296,0.041782152,-2.469074,-0.051641673,1.6666241,0.8977419,0.04,0.04,-0.006099004447279732,0.013653758736381638,-0.008624512979782395,0.21170448599212532,-0.08059734757344889,-0.08501912019997776,0.992281335871256,0.11135454449849762,0.03506367625497095,-0.041814525090864196
1075.3166666660175,-0.14465018,-0.8747157,0.042479005,-2.470957,-0.052505087,1.6682212,0.8996074,0.04,0.04,-0.008197329682846366,0.013350557490945936,-0.00977735315250694,0.2129328183333871,-0.08095301496444104,-0.08564872376880944,0.9920229612726791,0.11318374924055856,0.03564897439980054,-0.04253273844789911
1075.333333332684,-0.14704242,-0.87620705,0.043180022,-2.4728508,-0.053373657,1.6698278,0.90148395,0.04,0.04,-0.006143427666582824,0.013041341268318907,-0.008953724535998298,0.21413505826732238,-0.08130606644395173,-0.08626970695266006,0.9917588168674041,0.11502270063452658,0.03623754149310942,-0.04325584458824135
1075.3499999993508,-0.14944856,-0.87770724,0.043885116,-2.4747555,-0.05424724,1.6714442,0.9033714,0.04,0.04,-0.006250199599477924,0.012715892213013835,-0.008938239028322137,0.21531214126727685,-0.081648444352425,-0.08688153957583697,0.9914888499701593,0.11687119723743164,0.03682952097303407,-0.04398374729416605
1075.3666666660174,-0.15186836,-0.8792161,0.04459419,-2.476671,-0.055125754,1.6730694,0.9052696,0.04,0.04,-0.006384622923150118,0.012451397144241927,-0.009480500045611073,0.21646361633836972,-0.08197858171824787,-0.08748613245454573,0.9912130237045592,0.11872909246629156,0.03742446019436046,-0.044716373061288374
1075.383333332684,-0.15430146,-0.880733,0.04530719,-2.478597,-0.056009136,1.6747034,0.90717846,0.04,0.04,-0.006550411488026597,0.012104694978615216,-0.009136830392475481,0.217588416022316,-0.08230082475844396,-0.0880856721293998,0.9909313075317832,0.12059610220766116,0.038022205960869554,-0.0454536658536921
1075.3999999993507,-0.15674764,-0.88225824,0.04602402,-2.4805336,-0.056897245,1.6763464,0.9090974,0.04,0.04,-0.006702816650316912,0.011821309348553077,-0.00920880016921366,0.21868606304199573,-0.08261608361412452,-0.08867262838000609,0.990643678027198,0.12247184318972916,0.03862283193790336,-0.0461955372687908
1075.4166666660174,-0.15920666,-0.8837915,0.046744604,-2.4824803,-0.05779001,1.6779981,0.9110265,0.04,0.04,-0.005884487524854265,0.011583910838877665,-0.009153513089299459,0.2197587689096621,-0.08292098443057176,-0.08925760021823005,0.9903500736119876,0.1243562718403633,0.03922633748270776,-0.046941919415264
1075.433333332684,-0.16167825,-0.8853324,0.047468845,-2.484437,-0.058687385,1.6796578,0.9129654,0.04,0.04,-0.006517401547845303,0.011342541308465015,-0.009337895262828688,0.2208044981423287,-0.08321572788743452,-0.08983956475989097,0.9900504838471212,0.12624908384733186,0.039832265533968084,-0.04769275504961034
1075.4499999993507,-0.16416205,-0.88688093,0.04819667,-2.4864035,-0.059589155,1.681326,0.91491383,0.04,0.04,-0.0059814187928664,0.010871250203647875,-0.008980662898339098,0.22182134567577694,-0.08350414753777885,-0.09040130264821036,0.9897448827328039,0.12814991065632736,0.04044090541042289,-0.04844791711300642
1075.4666666660173,-0.16665776,-0.888437,0.048928,-2.488379,-0.06049522,1.6830024,0.91687167,0.04,0.04,-0.0049903512874038825,0.010527945704769115,-0.008876379098943232,0.22281203109608272,-0.08378455455656524,-0.09095526181833384,0.9894332249296803,0.13005858294210168,0.0410523734195863,-0.049207327147123246
1075.483333332684,-0.16916515,-0.8900004,0.049662735,-2.490364,-0.061405536,1.6846865,0.9188387,0.04,0.04,-0.006055944636162991,0.010337376975497192,-0.0092595241973914,0.2237755701441299,-0.0840514709069218,-0.09150189064367945,0.9891154946593854,0.13197487879604172,0.041666243654911304,-0.049970928860481045
1075.4999999993506,-0.17168392,-0.8915707,0.0504008,-2.4923575,-0.062319964,1.6863782,0.92081463,0.04,0.04,-0.004671783368959126,0.009996014539279119,-0.008724435415907728,0.22471121001312805,-0.08430961593975882,-0.09204064250692995,0.9887916623820904,0.13389853376918576,0.04228265848006787,-0.050738622862495274
1075.5166666660173,-0.1742137,-0.89314806,0.051142097,-2.4943604,-0.0632384,1.6880774,0.92279917,0.04,0.04,-0.0065345592756838045,0.009592283687653858,-0.009407112995973854,0.22562085018530256,-0.08455358209649022,-0.09259154552091886,0.9884617387212404,0.13582919527815246,0.042901132875550634,-0.05151032510347819
1075.533333332684,-0.17675427,-0.8947321,0.051886555,-2.496372,-0.064160734,1.6897837,0.92479223,0.04,0.04,-0.005486513338848198,0.009316918466653612,-0.009133521560666935,0.2265009664305188,-0.08479401558828832,-0.09311031282065282,0.9881256864547426,0.137766718730383,0.043521693187029004,-0.052285956056491764
1075.5499999993506,-0.17930532,-0.89632267,0.052634086,-2.4983914,-0.06508688,1.6914971,0.9267935,0.04,0.04,-0.004376483997003966,0.0090380409920654,-0.008654397730056829,0.22735293105332052,-0.08502598596575156,-0.09362147535245977,0.987783476727823,0.1397108143687893,0.04414465792023639,-0.05306543723563792
1075.5666666660172,-0.18186651,-0.8979195,0.05338458,-2.5004191,-0.06601668,1.6932173,0.9288028,0.04,0.04,-0.005624920155655744,0.008665294970816584,-0.00902803171221045,0.2281761007045216,-0.08524768090160438,-0.09411937809595738,0.987435120546286,0.14166121132441994,0.04476948584553581,-0.05384864951849746
1075.5833333326839,-0.1844376,-0.89952254,0.054137968,-2.5024545,-0.06695002,1.6949439,0.9308198,0.04,0.04,-0.004505633952733845,0.008334688709998872,-0.008968431736855464,0.22896994374324514,-0.08546226374127733,-0.0946020904513468,0.9870805920958343,0.1436176762076349,0.045396347687837554,-0.054635514137429626
1075.5999999993505,-0.18701826,-0.90113163,0.054894138,-2.5044975,-0.06788684,1.696677,0.9328442,0.04,0.04,-0.004768290909717976,0.008054678071797716,-0.008871483569561356,0.22973572436249456,-0.08566606282929509,-0.09507928251913783,0.98671989552255,0.14557987488591692,0.0460251150147288,-0.055425955977769434
1075.6166666660172,-0.18960816,-0.9027465,0.05565301,-2.5065477,-0.068827026,1.6984165,0.9348759,0.04,0.04,-0.004186825796459459,0.007722200238657884,-0.00854201894477935,0.23047461767244548,-0.08585700862476164,-0.0955618141387751,0.9863530103367555,0.1475475835127172,0.04665590428719815,-0.056219891447082754
1075.6333333326838,-0.192207,-0.90436685,0.056414507,-2.5086052,-0.06977044,1.7001616,0.9369146,0.04,0.04,-0.005261812520895859,0.00733300374717305,-0.009107914497596958,0.2311827336964197,-0.0860402726166932,-0.0960126268034108,0.9859799607204133,0.14952055712528364,0.047288025205889074,-0.057017214302737665
1075.6499999993505,-0.19481444,-0.9059925,0.05717853,-2.5106702,-0.070716955,1.7019128,0.9389601,0.04,0.04,-0.0052835398999917516,0.007029581698037024,-0.00868666778828242,0.23186238377426727,-0.08621618444944146,-0.0964624436007454,0.9856007453932548,0.1514984770637341,0.04792161900244929,-0.05781782216422412
1075.6666666660171,-0.19743024,-0.9076234,0.05794499,-2.5127409,-0.07166648,1.7036694,0.941012,0.04,0.04,-0.0026192340692343663,0.006711452504448712,-0.008314005005449765,0.23251253191593013,-0.08638413269862738,-0.09689795476225968,0.9852153312138813,0.15348111942970835,0.048557184649236404,-0.05862164223787805
1075.6833333326838,-0.20005397,-0.9092594,0.058713786,-2.5148182,-0.07261889,1.7054315,0.94307023,0.04,0.04,-0.004562793723450476,0.006296494694735255,-0.008741389415911627,0.23313461572428545,-0.08653750469700941,-0.09732989109269416,0.9848237573369751,0.15546817551122868,0.04919409397954299,-0.05942856640896275
1075.6999999993504,-0.20268545,-0.91090024,0.05948483,-2.5169008,-0.0735741,1.7071985,0.94513464,0.04,0.04,-0.0023544106994011216,0.00607877218356534,-0.008262378587509112,0.23372812503599644,-0.08668099346325768,-0.09775805069850665,0.9844259801345316,0.1574595282850498,0.0498327901889631,-0.0602385226445587
1075.716666666017,-0.20532426,-0.91254544,0.06025802,-2.5189893,-0.07453206,1.7089709,0.9472048,0.04,0.04,-0.004066759735565917,0.005783772109921315,-0.008079835991070539,0.23429302937079588,-0.08680731037125433,-0.09818688038412844,0.9840220509693339,0.15945476071437426,0.05047281821313803,-0.061051430067204426
1075.7333333326837,-0.20797011,-0.9141952,0.061033286,-2.521084,-0.07549256,1.7107478,0.9492805,0.04,0.04,-0.004642848212288442,0.005300209672354228,-0.008843173320616238,0.2348255204832157,-0.08693028747817066,-0.09857919344668213,0.9836120031681949,0.16145360992340935,0.051113724971772426,-0.06186716565077567
1075.7499999993504,-0.21062273,-0.91584903,0.061810523,-2.5231836,-0.0764555,1.7125292,0.95136136,0.04,0.04,-0.002595032309438139,0.00506035187635423,-0.008065904022291903,0.23532944686018795,-0.0870456120722561,-0.09896472121124716,0.9831958258827231,0.16345580574593552,0.05175594866401471,-0.06268563880686527
1075.766666666017,-0.2132817,-0.91750693,0.06258962,-2.5252879,-0.07742073,1.7143148,0.9534473,0.04,0.04,-0.002718851588268123,0.00461399640784288,-0.00808643043546109,0.23580367678480701,-0.08714903844162963,-0.09933824153793873,0.9827735345505118,0.16546111033008373,0.05239940145865623,-0.06350671997674226
1075.7833333326837,-0.21594675,-0.9191686,0.0633705,-2.5273976,-0.07838821,1.7161047,0.955538,0.04,0.04,-0.004315209306682277,0.0043845424578525805,-0.008280285119965924,0.23624863696332593,-0.08724142613077643,-0.09970590336520126,0.9823451756814756,0.16746922225363872,0.053043570039191565,-0.06433035901181942
1075.7999999993503,-0.21861759,-0.9208339,0.06415306,-2.5295115,-0.07935772,1.7178986,0.9576332,0.04,0.04,-0.0020491974417335967,0.00401442376308514,-0.007785917002922638,0.236664352376252,-0.0873236201668347,-0.10006188676127747,0.9819107379673231,0.16947992404076337,0.053688924946162495,-0.06515640682027747
1075.816666666017,-0.2212939,-0.9225025,0.06493721,-2.5316305,-0.080329195,1.719696,0.9597326,0.04,0.04,-0.004643025413342272,0.0036976569589730612,-0.008439722014652595,0.23704988529194448,-0.08739492708318729,-0.10040581182002883,0.9814703032395953,0.17149288628029982,0.05433453606331798,-0.06598478616175933
1075.8333333326837,-0.22397532,-0.9241743,0.065722845,-2.533753,-0.081302494,1.7214968,0.9618359,0.04,0.04,-0.001532103439916277,0.0033137991396176014,-0.007595893278167232,0.23740531812008592,-0.0874603135633081,-0.10074023541574625,0.9810238562246921,0.17350784239703626,0.05498114449182953,-0.06681538666451282
1075.8499999993503,-0.22666143,-0.925849,0.066509865,-2.5358796,-0.082277514,1.7233009,0.96394306,0.04,0.04,-0.003499843830345739,0.0029194772352636456,-0.007887293324859712,0.2377314397664802,-0.08751312977735506,-0.10106305518036955,0.9805714561575172,0.175524532683521,0.05562815843453646,-0.06764810259379012
1075.866666666017,-0.22935212,-0.9275267,0.06729822,-2.5380096,-0.08325416,1.7251081,0.9660537,0.04,0.04,-0.0018345094555449748,0.0027330009093329277,-0.0076391487605631525,0.23802812600074857,-0.08755727481000856,-0.10137671591404032,0.9801130957840326,0.1775427624725657,0.05627595191248184,-0.06848287525063451
1075.8833333326836,-0.2320469,-0.92920685,0.068087764,-2.5401428,-0.0842323,1.7269177,0.9681677,0.04,0.04,-0.002271409339815733,0.002274606781577093,-0.007725671828873182,0.23829427872293668,-0.08758924384626143,-0.10167727973619031,0.979648840418469,0.1795622526290544,0.05692402433482516,-0.06931956687009111
1075.8999999993503,-0.23474547,-0.9308895,0.06887843,-2.5422785,-0.08521182,1.72873,0.9702847,0.04,0.04,-0.0012709361261409313,0.0019346230323735725,-0.007318044780357802,0.23852971506615295,-0.08761308532102066,-0.10196677024809689,0.97917871302583,0.18158267513043183,0.05757275413618962,-0.07015809312352404
1075.916666666017,-0.23744747,-0.9325742,0.06967009,-2.5444174,-0.086192556,1.7305446,0.9724044,0.04,0.04,-0.0026776772285463935,0.0015852846187769387,-0.007473307063388113,0.2387350974224804,-0.08762540503049455,-0.10224142747343107,0.9787027881244358,0.1836037598006766,0.058221575173841786,-0.07099831046432041
1075.9333333326836,-0.24015264,-0.9342608,0.07046267,-2.5465586,-0.08717444,1.7323612,0.9745265,0.04,0.04,-0.0017971565751562224,0.0013346658063739802,-0.007255838950470661,0.23891047381313546,-0.08762845571792965,-0.10250670377920339,0.9782211039923032,0.1856252245558986,0.05887053772153899,-0.0718401524290455
1075.9499999993502,-0.24286067,-0.9359491,0.07125606,-2.548702,-0.08815735,1.7341799,0.9766509,0.04,0.04,-0.001506584190802407,0.0010290992119965647,-0.007047584634678472,0.23905596222142622,-0.08762115049638525,-0.1027599867946173,0.9777336872512465,0.18764687358281512,0.05951970238382278,-0.07268351035013251
1075.9666666660169,-0.24557115,-0.93763906,0.07205018,-2.5508478,-0.089141145,1.7360002,0.9787772,0.04,0.04,-0.0021541329927821096,0.0005495999411075925,-0.007304925438744725,0.23917145231419396,-0.08760318733738146,-0.10300219698961478,0.9772406151002598,0.1896683831485118,0.060168741211006134,-0.0735282749245345
1075.9833333326835,-0.24828374,-0.93933034,0.07284491,-2.5529957,-0.09012571,1.7378219,0.9809052,0.04,0.04,-0.0022125922640059414,0.0002520194784361163,-0.007151768750213172,0.23925657966124092,-0.08757616137785745,-0.10323260868665263,0.976741957429104,0.19168944346926478,0.06081747011883606,-0.07437433151531887
1075.9999999993502,-0.25099817,-0.94102275,0.07364017,-2.5551443,-0.091110945,1.7396449,0.98303443,0.04,0.04,6.3744848999292e-05,-5.094121284798803e-05,-0.006514845187322038,0.23931222932094848,-0.08754167516796675,-0.10345044487504482,0.9762377328991908,0.1937097901678746,0.061466389254144466,-0.07522159961755731
1076.0166666660168,-0.25371405,-0.9427159,0.07443585,-2.557294,-0.09209669,1.7414688,0.985165,0.04,0.04,-0.0009163472045159438,-0.000425742226123349,-0.006535516970807009,0.23933791325142417,-0.08749452196722751,-0.10365746477400307,0.9757280051114812,0.19572926330281812,0.062115062732935954,-0.0760699317062179
1076.0333333326835,-0.25643113,-0.94440997,0.07523188,-2.5594444,-0.09308284,1.7432935,0.9872963,0.04,0.04,-0.0007207465326564133,-0.0007357054286782905,-0.006673763718656467,0.23933354572791904,-0.08743777065604676,-0.10384953222408116,0.9752128513363654,0.19774746703813995,0.06276353221087315,-0.07691926217021612
1076.0499999993501,-0.259149,-0.9461046,0.076028146,-2.5615957,-0.09406928,1.745119,0.9894285,0.04,0.04,-0.0007922036522778342,-0.0011193880554483115,-0.006374013355325836,0.23929936405000707,-0.08737025483392716,-0.10402994395430343,0.9746923020906874,0.19976433052593975,0.06341167048346953,-0.07776945763714194
1076.0666666660168,-0.26186728,-0.9477995,0.07682453,-2.5637474,-0.09505588,1.7469445,0.991561,0.04,0.04,-0.0008685293800159144,-0.001466004005190591,-0.006506141395234977,0.23923354423452758,-0.08729151590220792,-0.10419693977606409,0.9741664800721399,0.2017793945638178,0.0640591623636485,-0.07862040924965927
1076.0833333326834,-0.26458564,-0.9494945,0.07762096,-2.5658991,-0.0960425,1.7487701,0.99369353,0.04,0.04,-0.00032303479970963167,-0.0018778774143191068,-0.006162664444153698,0.23913970646496366,-0.08720377349831591,-0.10435355284754204,0.9736354464536547,0.2037923987010031,0.064706072042042,-0.07947200690541183
1076.09999999935,-0.26730388,-0.95118916,0.078417316,-2.5680504,-0.09702907,1.7505957,0.9958259,0.04,0.04,0.0001532690566463657,-0.00196991641114308,-0.005757365977965279,0.23901623530381444,-0.08710729367906214,-0.10449797867916802,0.9730992483452041,0.20580315704562444,0.06535245318774864,-0.08032415752683637
1076.1166666660167,-0.27002162,-0.9528836,0.079213515,-2.5702016,-0.098015465,1.752421,0.9979579,0.04,0.04,-0.0007514439574585197,-0.0023976979004247667,-0.006078388502328558,0.23886287790439764,-0.08699816190605192,-0.10463003377311338,0.9725579732859343,0.2078114253785149,0.06599798351770518,-0.08117675930771535
1076.1333333326834,-0.27273852,-0.9545775,0.080009475,-2.5723524,-0.09900154,1.7542458,1.0000892,0.04,0.04,-0.00036652024195671373,-0.0027615509090972434,-0.005882405943746782,0.23867935134764434,-0.08688115986635551,-0.10474796319111777,0.9720117102383787,0.20981690048639742,0.06664257059453914,-0.08202969714862557
1076.14999999935,-0.2754542,-0.9562706,0.08080508,-2.5745022,-0.09998718,1.7560695,1.0022194,0.04,0.04,2.266100207481969e-05,-0.003130985829902233,-0.00568066223260999,0.23846608782651385,-0.08675578692856464,-0.10485456119072631,0.9714605489434013,0.21181929040531472,0.0672861269402391,-0.08288285214781314
1076.1666666660167,-0.27816838,-0.9579628,0.08160021,-2.5766516,-0.10097224,1.7578923,1.0043485,0.04,0.04,-0.0009012083781234637,-0.003399049304170232,-0.005921377101847369,0.23822336183264908,-0.08662169908705106,-0.10494770855188999,0.9709045720916719,0.2138184160970621,0.06792835632755566,-0.08373610473306983
1076.1833333326833,-0.28088066,-0.95965385,0.08239481,-2.5787983,-0.10195664,1.7597138,1.0064762,0.04,0.04,0.0025431509965923027,-0.0038175600387879705,-0.004707080905053118,0.23795107399380416,-0.08648146636125631,-0.10502886438474414,0.9703438099315282,0.21581397145369247,0.06857009678402236,-0.08458937332774624
1076.19999999935,-0.2835908,-0.96134365,0.08318876,-2.5809436,-0.102940194,1.7615339,1.0086019,0.04,0.04,0.0002098818660867252,-0.00408241496208106,-0.005341521910384728,0.2376495717942967,-0.08632662473115023,-0.10509488889136516,0.9697784107091657,0.21780565632975385,0.06921059364242929,-0.08544251822618877
1076.2166666660166,-0.28629836,-0.9630318,0.08398196,-2.5830867,-0.103922844,1.7633522,1.0107256,0.04,0.04,0.0009762842752225609,-0.004451724962262205,-0.004983655591805913,0.237319875361553,-0.08616142331713761,-0.1051487887601696,0.9692084515384036,0.21979324252693683,0.06984985841716769,-0.08629545344412132
1076.2333333326833,-0.28900304,-0.9647183,0.0847743,-2.5852284,-0.10490444,1.7651685,1.0128474,0.04,0.04,-0.0005082601947314913,-0.004761668485459003,-0.005260211454616304,0.23696057384594704,-0.0859879341213177,-0.10518905072636554,0.9686340128282359,0.22177667064936962,0.07048743396627272,-0.08714803038967803
1076.24999999935,-0.29170462,-0.9664027,0.08556572,-2.5873668,-0.10588489,1.7669829,1.0149667,0.04,0.04,0.0025732771615549765,-0.0049929117216684915,-0.004224943019037752,0.23657076519724485,-0.0858082078663502,-0.1052194570834857,0.9680551559563544,0.22375556407000194,0.07112404602697561,-0.08800018551563506
1076.2666666660166,-0.2944026,-0.96808475,0.08635611,-2.5895026,-0.10686406,1.7687949,1.0170828,0.04,0.04,0.0007436196986176924,-0.00545428572137352,-0.004514458935678256,0.23615230187936198,-0.08561427279157564,-0.10523559497967842,0.9674720955155078,0.2257293774525335,0.07175897235251458,-0.08885180043552815
1076.2833333326832,-0.2970967,-0.9697646,0.08714535,-2.5916357,-0.1078418,1.7706043,1.0191963,0.04,0.04,0.0008166453243640959,-0.005769177172437745,-0.004659005263185634,0.23570750757732878,-0.0854133304034001,-0.10523883039209862,0.9668848219883432,0.22769832851784372,0.07239222080734163,-0.08970272328826623
1076.29999999935,-0.2997867,-0.97144175,0.08793336,-2.5937645,-0.108818024,1.7724109,1.0213063,0.04,0.04,0.003286823772152836,-0.0059617376915677145,-0.0036571453241762697,0.2352314326853196,-0.08520384748824919,-0.10522853030615663,0.9662934491087573,0.22966191617617615,0.07302430044547285,-0.09055289068957452
1076.3166666660165,-0.3024721,-0.97311604,0.08872004,-2.5958908,-0.109792605,1.7742143,1.023413,0.04,0.04,-0.00014057479980067455,-0.0064033996607149035,-0.004564375045523761,0.23472773313171996,-0.08498061979931787,-0.10520392701996373,0.9656981306942577,0.23162004064720285,0.07365407920598037,-0.09140215402562356
1076.3333333326832,-0.30515268,-0.9747875,0.089505285,-2.598013,-0.110765435,1.7760146,1.0255157,0.04,0.04,0.002495814549030584,-0.006689636862206028,-0.0036857866638762005,0.2341945543525739,-0.08475432577747968,-0.10516883694501099,0.9650989460535774,0.23357229910195024,0.07428231582833886,-0.09225043617068836
1076.3499999993498,-0.3078281,-0.9764555,0.09028905,-2.6001308,-0.1117364,1.7778112,1.0276145,0.04,0.04,0.002107036030052356,-0.007002874875283727,-0.0036379736133573815,0.23363386264588287,-0.08451710170585189,-0.10512007077737265,0.9644959990537721,0.2355185850724467,0.07490858130545398,-0.09309762801244197
1076.3666666660165,-0.3104981,-0.97812027,0.09107118,-2.6022437,-0.112705365,1.7796042,1.0297091,0.04,0.04,0.0035695384724032664,-0.0072404464251163425,-0.003163520746762849,0.2330444584949643,-0.08426997039542508,-0.10505766371214863,0.9638893476197461,0.23745870773694408,0.07553335276728575,-0.09394360161721234
1076.3833333326832,-0.31316227,-0.9797813,0.09185161,-2.6043527,-0.1136722,1.7813932,1.031799,0.04,0.04,0.0007520783110281926,-0.00761474746143187,-0.0037448120598471135,0.2324255234851531,-0.08401242576464674,-0.1049768827339885,0.963279228074065,0.23939223949185315,0.07615558387336938,-0.09478824545804765
1076.3999999993498,-0.31582025,-0.9814385,0.09263022,-2.6064572,-0.11463675,1.7831781,1.0338842,0.04,0.04,0.0018493621172455121,-0.007986545837418424,-0.0031756704534036118,0.2317787391678165,-0.0837507011548248,-0.10488404304468152,0.9626656952790607,0.24131909040995225,0.07677556810850511,-0.09563141679496452
1076.4166666660165,-0.31847173,-0.9830918,0.09340694,-2.6085565,-0.11559895,1.7849586,1.0359641,0.04,0.04,0.002932524764620581,-0.008284514736173199,-0.0029315594268108924,0.2311041905425395,-0.08348046711372291,-0.10477945094988025,0.9620488818679073,0.24323888362589552,0.07739344203017547,-0.09647305074402578
1076.433333332683,-0.32111645,-0.9847408,0.09418168,-2.61065,-0.11655871,1.7867347,1.0380386,0.04,0.04,0.00348264214826699,-0.008500984874937334,-0.0024632011166758616,0.23040332513169354,-0.08319950341793517,-0.10466408492089131,0.9614288893776709,0.24515139812794523,0.07800929848361644,-0.09731306189831951
1076.4499999993498,-0.3237541,-0.9863853,0.09495431,-2.6127374,-0.117515884,1.7885064,1.0401077,0.04,0.04,0.004026496894704579,-0.00873518091065173,-0.001989534211377375,0.2296762148870465,-0.08290786939758318,-0.10453533138912832,0.960805780181189,0.24705659460976903,0.07862325034020315,-0.0981512930948069
1076.4666666660164,-0.3263843,-0.9880251,0.09572478,-2.6148193,-0.11847036,1.7902726,1.042171,0.04,0.04,0.002134470741754768,-0.009210605762938195,-0.0028526196125255865,0.22892102178071894,-0.08260631596565347,-0.10439218044888109,0.9601797717593454,0.24895414896709467,0.07923434819591389,-0.09898765419086218
1076.483333332683,-0.32900694,-0.9896601,0.096492946,-2.6168957,-0.11942202,1.7920338,1.0442282,0.04,0.04,0.002073029244265001,-0.009211355331695259,-0.002363739021316036,0.22813850574180106,-0.0822977421692031,-0.10423622971926158,0.9595509569012607,0.2508439102830459,0.07984270779688195,-0.09982202059389356
1076.4999999993497,-0.3316213,-0.9912903,0.09725875,-2.618965,-0.12037075,1.7937895,1.0462791,0.04,0.04,0.005032507924784824,-0.009998254261511796,-0.0016473161504881872,0.22732799479955068,-0.08198406495498901,-0.10406820918140797,0.9589194413997377,0.25272548874905004,0.08044900979989264,-0.10065430474840847
1076.5166666660164,-0.33422735,-0.99291515,0.09802211,-2.6210277,-0.1213165,1.7955396,1.0483233,0.04,0.04,0.003111247647513693,-0.009901313414661939,-0.0018225926777803991,0.22649156288887426,-0.08165784081012405,-0.10388641625907902,0.9582853834404624,0.25459873767625996,0.08105255851953008,-0.10148442942372388
1076.533333332683,-0.33682474,-0.99453455,0.09878291,-2.6230836,-0.12225905,1.7972839,1.0503606,0.04,0.04,0.0036709663087330924,-0.010302086241736896,-0.0015041287665384928,0.2256298721749252,-0.08132525900548478,-0.10369055095049587,0.9576489128622416,0.2564634301706794,0.08165339712299176,-0.10231222515970805
1076.5499999993497,-0.33941317,-0.99614835,0.099541076,-2.625132,-0.12319829,1.7990223,1.0523907,0.04,0.04,0.004407703221209758,-0.010582661424723971,-0.0010739717331453846,0.2247411441876784,-0.08098407583976897,-0.1034794891271623,0.9570101395032211,0.25831934727110695,0.08225171121115764,-0.10313759603699854
1076.5666666660163,-0.34199226,-0.9977562,0.100296505,-2.6271732,-0.1241342,1.8007544,1.0544137,0.04,0.04,0.003832024021499514,-0.010859056731316041,-0.0011070795732148753,0.22382714900549855,-0.08063329902526761,-0.1032578909765792,0.9563691944766175,0.260166378164021,0.08284710977374096,-0.10396045368936753
1076.583333332683,-0.34456164,-0.99935806,0.101049155,-2.6292067,-0.12506661,1.8024801,1.0564291,0.04,0.04,0.004200484019212247,-0.011303178977695172,-0.0008677431069692432,0.22288705661673286,-0.08027424626588278,-0.10302194857607386,0.9557262272499369,0.26200421298231785,0.08343965934051806,-0.10478069562308032
1076.5999999993496,-0.3471213,-1.000954,0.10179886,-2.6312325,-0.12599547,1.804199,1.0584368,0.04,0.04,0.004107519255924785,-0.011227027296334402,-0.0011137339600564289,0.2219216963365194,-0.07990913012650246,-0.10277304250101515,0.9550813435780816,0.2638327736825896,0.08402919817304705,-0.10559824115217425
1076.6166666660163,-0.34967065,-1.0025437,0.10254557,-2.6332505,-0.12692055,1.8059112,1.0604365,0.04,0.04,0.004131014818620216,-0.011830366029857986,-0.0004647178845740285,0.22092986002248535,-0.07953500367154248,-0.1025105528877831,0.9544346962050623,0.26565180641550473,0.08461573596668849,-0.10641290173162891
1076.633333332683,-0.35220942,-1.0041262,0.103289194,-2.63526,-0.12784186,1.8076162,1.0624281,0.04,0.04,0.003936224459577531,-0.011947734218775707,-0.00010556294318675441,0.2199126515797866,-0.0791539964578022,-0.10223552527136284,0.9537864494883368,0.26746110573868104,0.08519886817984526,-0.10722461727769228
1076.6499999993496,-0.35473743,-1.0057021,0.10402964,-2.6372612,-0.12875924,1.8093139,1.0644112,0.04,0.04,0.004874679064803544,-0.012231428654069232,-0.0002527124915330248,0.21887003222470247,-0.07876687830914088,-0.10194785422351801,0.9531367146147194,0.26926045750446864,0.08577888071858306,-0.10803329533347661
1076.6666666660162,-0.3572542,-1.0072713,0.10476681,-2.6392536,-0.12967251,1.811004,1.0663855,0.04,0.04,0.004556510847031348,-0.012680435036993565,-7.604078966494399e-06,0.21780234305007584,-0.07837373107556991,-0.10164748605261267,0.9524856527482026,0.2710496388425182,0.0863556231520329,-0.108838784181904
1076.6833333326829,-0.35975963,-1.0088333,0.10550066,-2.6412368,-0.13058168,1.8126867,1.0683508,0.04,0.04,0.0054983049193602085,-0.012720475584121482,0.0005814614198129675,0.21670908553640134,-0.07797446490727354,-0.10132859110310444,0.9518333804646535,0.2728284393905293,0.08692926761775932,-0.10964105492195175
1076.6999999993495,-0.3622534,-1.0103879,0.106231056,-2.6432106,-0.13148652,1.8143613,1.0703068,0.039999988,0.04,0.005020806402633582,-0.01301840228772888,0.0005188499178299111,0.215593472737665,-0.07756666334766243,-0.10100006921818361,0.9511800632137084,0.274596707465703,0.08749947188011832,-0.11043992943886323
1076.7166666660162,-0.36473516,-1.011935,0.10695794,-2.6451755,-0.13238704,1.8160278,1.0722537,0.03999997,0.04,0.004360152069593504,-0.013310018876255825,0.0004683791500648127,0.21445388197473497,-0.07715048918544196,-0.10066081584211689,0.9505258056082271,0.27635443541609345,0.08806597939950322,-0.11123534587121771
1076.7333333326828,-0.36720467,-1.0134742,0.10768124,-2.6471305,-0.13328318,1.8176862,1.0741907,0.039999966,0.04,0.005401339182919962,-0.013428341061305638,0.0012594841877433538,0.21328836018289293,-0.07673014387591681,-0.10030952930528667,0.9498708036708745,0.2781011341302238,0.08862906197467998,-0.1120272507143626
1076.7499999993495,-0.36966148,-1.0150057,0.10840083,-2.649075,-0.13417472,1.819336,1.0761179,0.039999954,0.04,0.006555501863347857,-0.013979280588105603,0.0014094907667017154,0.21210118443449277,-0.07630258125349453,-0.0999457104292186,0.9492151652250259,0.2798367092060302,0.08918887376705134,-0.11281547360061656
1076.7666666660161,-0.37210545,-1.0165294,0.10911665,-2.6510098,-0.13506164,1.8209773,1.0780354,0.039999947,0.04,0.005243888019812459,-0.014044109480210176,0.0011703698784115701,0.21089129526185335,-0.07586585052278338,-0.09956745163364507,0.9485589769206214,0.281561251227494,0.08974508794212849,-0.11359994850690609
1076.7833333326828,-0.37453628,-1.0180452,0.1098286,-2.6529343,-0.13594377,1.8226099,1.0799421,0.03999994,0.04,0.005802170262647621,-0.01431245562196759,0.0015994296663102148,0.20965636287457645,-0.075423211325017,-0.09917809163552577,0.9479024970110562,0.2832741785408721,0.09029773079674991,-0.11438057415993468
1076.7999999993494,-0.3769537,-1.0195525,0.11053663,-2.6548474,-0.13682108,1.8242333,1.0818383,0.039999936,0.04,0.007291256887453912,-0.01454654548326273,0.0022165336504231803,0.20840011089184604,-0.07497356481019352,-0.09877445765989373,0.9472458032847941,0.284975473848515,0.0908469543820084,-0.11515727655546876
1076.816666666016,-0.3793575,-1.021051,0.111240625,-2.6567504,-0.13769339,1.8258475,1.0837237,0.03999992,0.04,0.004392744413017624,-0.014670170128583404,0.0017489417260430073,0.20712221685543586,-0.07451398263273842,-0.09835692064068868,0.9465890968501215,0.28666505458548175,0.09139194447948469,-0.11592989557587291
1076.8333333326827,-0.38174728,-1.0225412,0.111940525,-2.6586418,-0.13856068,1.8274525,1.0855982,0.039999913,0.04,0.007714176760775793,-0.015052249761765557,0.0027001232855594637,0.20582151710673674,-0.07405381333467084,-0.09792978161281224,0.9459324252633298,0.28834273265940724,0.09193367308002835,-0.1166983937848133
1076.8499999993494,-0.3841228,-1.024022,0.11263626,-2.6605222,-0.13942279,1.8290478,1.0874614,0.0399999,0.04,0.005251439945896941,-0.01525922562846116,0.0024422270038293448,0.20449851580153056,-0.07358229714965175,-0.0974865948270508,0.9452760915894457,0.2900081765656973,0.09247106977229419,-0.1174626300130759
1076.866666666016,-0.38648382,-1.0254941,0.11332776,-2.662391,-0.1402796,1.8306333,1.0893133,0.039999884,0.04,0.007177957736392848,-0.015538329171838061,0.0027412900207801627,0.20315577787077216,-0.0731087197416504,-0.0970343260641255,0.9446200920480817,0.29166148089360044,0.09300482025232283,-0.11822252607628804
1076.8833333326827,-0.38883007,-1.0269569,0.114014894,-2.6642485,-0.14113112,1.8322088,1.0911536,0.03999986,0.04,0.005579249875498071,-0.015642247245084562,0.002723327910980622,0.20178919251677857,-0.07262895881296837,-0.09656320800142097,0.9439646591577858,0.2933023999514442,0.09353428188575108,-0.11897799189751516
1076.8999999993493,-0.39116126,-1.0284108,0.11469763,-2.6660933,-0.14197719,1.8337746,1.0929824,0.039999843,0.04,0.008731189343524903,-0.015960246037033388,0.0037484885295757664,0.200401620576236,-0.0721452534280016,-0.0960837961566891,0.9433098053499283,0.29493084470051906,0.09406054598192498,-0.11972895082017991
1076.916666666016,-0.39347726,-1.0298543,0.11537589,-2.6679256,-0.14281774,1.8353295,1.0947989,0.03999983,0.04,0.006717452975468774,-0.015996324250200367,0.003601910942108155,0.19899396319021107,-0.07164837495197854,-0.09559194101227535,0.9426558585891998,0.29654649858113336,0.09458229593739541,-0.12047529100167967
1076.9333333326827,-0.39577758,-1.0312892,0.11604958,-2.6697464,-0.14365265,1.8368745,1.0966034,0.03999982,0.04,0.006728109820075545,-0.016552293487048786,0.0031903159110502344,0.19756677784498736,-0.07114858598918532,-0.09508979395227013,0.9420028458904969,0.2981493366393166,0.0951002854475932,-0.12121694231223001
1076.9499999993493,-0.3980621,-1.032713,0.11671866,-2.6715546,-0.14448182,1.8384086,1.0983955,0.03999981,0.04,0.005955987380090733,-0.016415998594176973,0.004260091736973948,0.19611858214739503,-0.07064179091358233,-0.09457323667417741,0.9413510468282247,0.29973914823635855,0.09561346018856924,-0.12195374484088908
1076.966666666016,-0.4003306,-1.0341285,0.11738302,-2.6733496,-0.14530516,1.8399315,1.1001749,0.0399998,0.04,0.009509686801223438,-0.01705134547033693,0.003460060121418529,0.1946509060448881,-0.07013380347174691,-0.09404969680754252,0.940700407818029,0.3013159109770048,0.09612324149789234,-0.1226857243815649
1076.9833333326826,-0.40258273,-1.035533,0.1180426,-2.6751323,-0.14612263,1.8414431,1.1019416,0.03999979,0.04,0.005298078113025184,-0.016888188963781747,0.0041967427463207585,0.19316369560678653,-0.06961476886518503,-0.09350981641774818,0.9400512953929723,0.30287937824289296,0.0966278893263546,-0.1234127030314429
1076.9999999993493,-0.40481836,-1.0369265,0.11869738,-2.676902,-0.1469341,1.842944,1.1036954,0.039999783,0.04,0.00672548683784413,-0.017028474880065314,0.004998350443941035,0.19165663310682407,-0.06909634245155222,-0.09296169176843008,0.9394037719726215,0.3044294362609831,0.09712812590962684,-0.12413459912012723
1077.016666666016,-0.40703723,-1.0383093,0.11934722,-2.6786582,-0.1477395,1.8444351,1.105436,0.039999764,0.04,0.008485134766011981,-0.017115014834517828,0.005949214354150634,0.1901302334612165,-0.06857682774092956,-0.09240153271143586,0.9387579384082118,0.30596583410775124,0.097624723647283,-0.12485133065812279
1077.0333333326826,-0.40923917,-1.0396824,0.11999204,-2.680401,-0.14853865,1.8459136,1.1071631,0.039999757,0.04,0.007848869317683693,-0.017718510140296573,0.003916915210377958,0.18858777145736416,-0.06804575510095037,-0.09182974401978401,0.9381139527978455,0.3074886858364129,0.09811674762400382,-0.1255628268409285
1077.0499999993492,-0.41142377,-1.0410448,0.12063182,-2.6821299,-0.1493316,1.8473805,1.1088766,0.03999975,0.04,0.008691215989697909,-0.01784439398069826,0.005375048117395309,0.18702596011208206,-0.0675103936921719,-0.09124700555482106,0.9374719717568357,0.30899767886636326,0.09860458401511372,-0.12626904860953414
1077.0666666660159,-0.41359088,-1.0423961,0.1212665,-2.683845,-0.15011813,1.8488356,1.1105765,0.039999723,0.04,0.007110093459194999,-0.017943319174984484,0.005441675531581147,0.18544461737276072,-0.06697249781724032,-0.0906430054574683,0.9368321694649276,0.31049281308081683,0.09908766825303393,-0.1269698124790884
1077.0833333326825,-0.41574043,-1.043736,0.12189594,-2.685546,-0.15089826,1.850279,1.1122626,0.039999705,0.04,0.008376110448837792,-0.017830286809017437,0.0059897391502694575,0.18384756414645703,-0.06642987306343379,-0.09003772619910035,0.936194631274087,0.31197400517114954,0.09956635673165345,-0.12766508167166568
1077.0999999993492,-0.417872,-1.0450649,0.12252015,-2.6872327,-0.15167192,1.8517107,1.1139345,0.03999969,0.04,0.008296179457412123,-0.018299244274627702,0.006034250666742125,0.18223285847001364,-0.06588055358187146,-0.0894223580095688,0.9355595456668255,0.31344095272865213,0.10004072288192,-0.12835481848961025
1077.1166666660158,-0.41998538,-1.0463825,0.12313906,-2.688905,-0.15243903,1.8531301,1.1155921,0.03999968,0.04,0.008541400306238955,-0.018498434553249066,0.006185296300142973,0.1806018773731481,-0.06532739379081273,-0.08879482878119101,0.9349270620771211,0.3148935822729372,0.10051055447035306,-0.1290389432660632
1077.1333333326825,-0.4220803,-1.0476888,0.123752594,-2.6905642,-0.15319945,1.854537,1.1172353,0.039999664,0.04,0.005764057454138438,-0.0187063124496456,0.005504591050775609,0.17895587228391185,-0.06476898410860868,-0.08815624641575195,0.9342973974210954,0.3163318351246985,0.10097504520615998,-0.12971732152809134
1077.1499999993491,-0.42415684,-1.0489835,0.12436065,-2.692208,-0.1539532,1.8559316,1.118864,0.039999656,0.04,0.00948850288839953,-0.01850041986421469,0.00690408798671438,0.17729319673402488,-0.06421278535964428,-0.08750969776066603,0.933670521928104,0.3177557586984982,0.10143521222082723,-0.1303899229931485
1077.1666666660158,-0.42621452,-1.0502664,0.12496323,-2.6938362,-0.15470006,1.8573133,1.1204782,0.039999645,0.04,0.010026460543022253,-0.019128676355895102,0.007010317895383977,0.17561363902520621,-0.06365015680061101,-0.08685190446153677,0.9330466261388817,0.3191651334080182,0.10189097054750536,-0.1310566335153602
1077.1833333326824,-0.4282532,-1.0515372,0.12556022,-2.6954489,-0.15544006,1.8586824,1.1220772,0.039999634,0.04,0.009317926012175626,-0.018970263556866707,0.0074730784900278735,0.17391950179993282,-0.06308049099151769,-0.08618509827083212,0.9324258924652495,0.32055975340643306,0.10234219981343,-0.13171740087679315
1077.199999999349,-0.43027276,-1.0527961,0.12615162,-2.697046,-0.15617315,1.8600385,1.1236613,0.039999623,0.04,0.009470292539970337,-0.01921345576578748,0.007207510908102677,0.17221082804036186,-0.06250627452620577,-0.0855071290999678,0.9318084099615427,0.3219396501443813,0.10278886335000502,-0.13237219632939878
1077.2166666660157,-0.43227297,-1.054043,0.12673736,-2.6986284,-0.15689921,1.8613818,1.1252304,0.039999615,0.04,0.007936126054919335,-0.01932310102595869,0.007193772819236166,0.17048786931159304,-0.06192689034711827,-0.08481714644482946,0.9311943232655244,0.3233048429284349,0.10323058412501107,-0.1330208906837232
1077.2333333326824,-0.4342536,-1.0552777,0.12731737,-2.7001958,-0.15761815,1.8627115,1.1267842,0.039999608,0.04,0.007855836846637487,-0.01955441096840871,0.007196952092081155,0.16874705377657356,-0.06134898482556991,-0.08411348963597781,0.930583845643052,0.32465510441542145,0.10366706871209079,-0.13366341410364596
1077.249999999349,-0.4362145,-1.0565001,0.1278916,-2.7017477,-0.15832986,1.8640285,1.1283222,0.039999586,0.04,0.008998326335452056,-0.019613177910871027,0.00799817886341092,0.16699217617256024,-0.060772590016778434,-0.08340001873885387,0.9299770953544434,0.3259902185646629,0.10409884861889228,-0.13429969930158717
1077.2666666660157,-0.43815547,-1.0577102,0.12846006,-2.7032843,-0.15903437,1.8653319,1.1298447,0.03999957,0.04,0.00829708001144347,-0.019829842885132898,0.007669448410152491,0.16522762345413544,-0.06018720652543985,-0.08268686239479467,0.92937419231856,0.3273102287392657,0.10452554553555884,-0.1349297415152322
1077.2833333326823,-0.44007632,-1.0589077,0.1290225,-2.7048051,-0.15973163,1.8666219,1.1313517,0.03999956,0.04,0.008934932770854331,-0.019767930258007826,0.008086590038391961,0.16344926086064643,-0.059601877445226575,-0.08196329535575618,0.9287751841552895,0.32861527750206027,0.10494732406532281,-0.13555336905101292
1077.299999999349,-0.4419769,-1.0600926,0.12957904,-2.70631,-0.16042155,1.8678982,1.1328428,0.039999552,0.04,0.009071348529343659,-0.020006120488946788,0.008438209925798468,0.1616565917062272,-0.059013474070429076,-0.08123162361800683,0.9281802860989894,0.3299050241839546,0.10536410966718672,-0.13617061323730406
1077.3166666660156,-0.44385707,-1.0612645,0.1301296,-2.7077978,-0.16110401,1.8691608,1.1343178,0.039999533,0.04,0.01104357718413329,-0.02015509088616474,0.009088015268132743,0.15985142024333332,-0.058425242720763874,-0.08048882747630735,0.9275895674572989,0.3311794328151508,0.10577633665976438,-0.13678137383231795
1077.3333333326823,-0.4457167,-1.0624236,0.13067414,-2.709269,-0.16177908,1.8704094,1.1357772,0.039999522,0.04,0.009678120651690492,-0.02013975088279718,0.008759374586264634,0.15803506127096179,-0.057828882378457194,-0.07973875621171331,0.927003061013968,0.33243879276985505,0.10618365234525647,-0.13738561026205232
1077.349999999349,-0.44755545,-1.0635701,0.13121256,-2.7107246,-0.16244659,1.8716443,1.1372191,0.039999515,0.04,0.008800840696210344,-0.020481071364825132,0.008700043611731267,0.15620459074518106,-0.0572309907192285,-0.07897973069178084,0.9264212643538439,0.3336820279296409,0.10658588778922876,-0.1379833095485453
1077.3666666660156,-0.44937333,-1.0647032,0.13174489,-2.7121634,-0.16310649,1.8728651,1.1386442,0.03999951,0.04,0.009428422063084696,-0.02037662880077784,0.00936403253677387,0.15436922792096797,-0.0566320381320668,-0.07821190064847051,0.9258441224677457,0.3349096241661981,0.10698295029804725,-0.13857435866101345
1077.3833333326822,-0.45117018,-1.0658233,0.13227102,-2.7135851,-0.1637587,1.8740715,1.1400537,0.0399995,0.04,0.010639494125719295,-0.02059849261225044,0.009373152582292654,0.15252349312250124,-0.056034352380378495,-0.07743537920136957,0.9252715015654427,0.33612212175038975,0.10737523649116917,-0.13915863699143044
1077.399999999349,-0.45294577,-1.0669304,0.13279095,-2.7149904,-0.16440322,1.8752639,1.1414466,0.03999947,0.04,0.009528666545799425,-0.0206794113844333,0.009513176193598483,0.15066396538097557,-0.05543081134663578,-0.0766528106608542,0.9247037160365866,0.3373189376672377,0.10776257934496608,-0.13973617402839594
1077.4166666660155,-0.45470008,-1.0680242,0.13330466,-2.7163792,-0.16504005,1.876442,1.1428226,0.039999455,0.04,0.0089498059815174,-0.020647760437869644,0.00941353709522641,0.14879496424366423,-0.054825181760153656,-0.07585885826854108,0.9241409027708468,0.3385000814104921,0.10814457622119672,-0.14030693976034278
1077.4333333326822,-0.45643285,-1.0691047,0.13381205,-2.7177508,-0.16566908,1.8776056,1.1441821,0.039999444,0.04,0.010393852268864023,-0.02089836824637481,0.009954316142368747,0.14691639782736676,-0.05422153276439442,-0.0750601381686206,0.9235830881584722,0.33966561411345514,0.10852169202988429,-0.14087083521992833
1077.4499999993488,-0.45814407,-1.0701716,0.13431315,-2.7191052,-0.1662903,1.8787546,1.1455243,0.039999437,0.04,0.009972660427859381,-0.020834636980859855,0.010093432384095102,0.14502825986915371,-0.053612502422624324,-0.0742553597764687,0.9230304969181442,0.34081524832426935,0.10889365647013947,-0.14142786093720594
1077.4666666660155,-0.4598336,-1.0712249,0.13480787,-2.7204425,-0.16690357,1.8798891,1.1468496,0.039999425,0.04,0.009958290155087646,-0.02094558220506748,0.010255419297378054,0.14313331456268566,-0.05300425252455632,-0.07344386198566381,0.9224831437380694,0.341949214246913,0.1092605298096355,-0.1419778891967507
1077.4833333326822,-0.46150124,-1.0722646,0.13529618,-2.721763,-0.16750893,1.881009,1.1481575,0.03999941,0.04,0.009347299245221485,-0.021023984494478176,0.010250646454057488,0.14122873796536972,-0.052393316269061296,-0.07262621959292222,0.9219412751229921,0.34306715599236864,0.10962205159670493,-0.14252093708514765
1077.4999999993488,-0.463147,-1.0732906,0.13577804,-2.7230654,-0.16810636,1.8821142,1.1494484,0.0399994,0.04,0.011252952737828004,-0.02100571085482672,0.010784710983258172,0.1393189055064934,-0.0517829872224128,-0.07180314391133286,0.9214047921425558,0.34416940110130606,0.10997880979684892,-0.14305695983757818
1077.5166666660155,-0.46477067,-1.0743029,0.13625342,-2.7243505,-0.16869578,1.8832045,1.150722,0.039999392,0.04,0.010122171442028538,-0.021212545636228874,0.010631603615274265,0.13739961811869467,-0.05116975937989869,-0.07097145792488459,0.9208739092595509,0.3452557575557042,0.1103303987997237,-0.14358589143910644
1077.533333332682,-0.46637213,-1.0753013,0.13672236,-2.725618,-0.16927713,1.8842797,1.151978,0.039999373,0.04,0.010265469268833094,-0.02129611562096123,0.010910794556440173,0.13547439584371437,-0.05055531801759046,-0.07013567749082614,0.9203487833966935,0.3463260531533715,0.11067675585387768,-0.14410772887355935
1077.5499999993488,-0.4679513,-1.076286,0.13718478,-2.7268672,-0.16985045,1.8853401,1.153217,0.03999937,0.04,0.01146665273992209,-0.0213069146967948,0.01126045397565889,0.13354347888975648,-0.04994199972976094,-0.06929246161269799,0.9198293388204085,0.3473805757322168,0.11101835546326114,-0.14462243186793855
1077.5666666660154,-0.46950814,-1.0772567,0.13764067,-2.7280993,-0.17041564,1.8863856,1.1544381,0.039999362,0.04,0.009427668095196573,-0.021268776183447358,0.010961464111391983,0.13160586700915394,-0.04932382500541689,-0.0684443526246366,0.9193158466398395,0.34841904659925643,0.11135457355536678,-0.14512994533190846
1077.583333332682,-0.47104257,-1.0782132,0.13808997,-2.7293139,-0.17097266,1.887416,1.1556416,0.03999936,0.04,0.010019422939522293,-0.02128703133114085,0.011325090979807939,0.1296630429550658,-0.048707545319909104,-0.06759080213442098,0.9188083816338594,0.34944147925769853,0.11168549197371931,-0.14563022109489554
1077.5999999993487,-0.4725545,-1.0791559,0.13853262,-2.7305105,-0.1715215,1.8884307,1.1568273,0.039999343,0.04,0.010507489199729214,-0.021447889090953076,0.010979729847315767,0.12771432540648328,-0.048094463356154075,-0.06672720848500896,0.9183069752541168,0.3504480230045195,0.11201108120218958,-0.14612323586539985
1077.6166666660154,-0.47404385,-1.0800843,0.1389687,-2.7316887,-0.17206214,1.8894308,1.1579956,0.03999933,0.04,0.01140327902324767,-0.021360227883859828,0.012239183087214833,0.12576053522701414,-0.047482184347496674,-0.06586160374924162,0.9178116733102958,0.351438594165035,0.11233189954191597,-0.14660897384527166
1077.633333332682,-0.4755106,-1.0809987,0.13939817,-2.7328494,-0.17259456,1.8904157,1.159146,0.039999317,0.04,0.010092605164202517,-0.021384229201293348,0.011560548435740614,0.12380406152292729,-0.046865237403160884,-0.0649929779445203,0.9173226337100184,0.35241314570221316,0.11264746173825252,-0.1470874222478426
1077.6499999993487,-0.4769545,-1.0818989,0.13982093,-2.7339919,-0.17311871,1.8913853,1.1602786,0.03999931,0.04,0.010927284639938861,-0.02158160358333161,0.011918380767106385,0.12184424780628023,-0.046248315111523754,-0.06412090886714196,0.9168399161555744,0.35337168649866013,0.11295798878374513,-0.14755850397338494
1077.6666666660153,-0.47837567,-1.082785,0.14023705,-2.7351165,-0.17363457,1.8923397,1.1613932,0.039999306,0.04,0.010361107069112307,-0.021433399819870136,0.011873073728185801,0.11988101511516303,-0.0456309082050614,-0.06324297980649404,0.9163636241800454,0.354314198632038,0.11326328756964565,-0.14802224365366573
1077.683333332682,-0.47977394,-1.0836569,0.14064649,-2.7362232,-0.17414217,1.8932787,1.1624898,0.039999295,0.04,0.010313941702699836,-0.02157347330717929,0.011962799140685654,0.11791565150855086,-0.04501583399988398,-0.06236296703691501,0.9158938555286269,0.35524064419694606,0.11356332725098581,-0.1484786207476726
1077.6999999993486,-0.4811494,-1.0845146,0.14104918,-2.7373114,-0.17464145,1.8942022,1.1635685,0.039999273,0.04,0.01159517712006064,-0.02143547224160436,0.012266662720783472,0.11594946809738169,-0.044400159981878795,-0.06147993056248066,0.9154305847307352,0.3561512012221538,0.11385841816376617,-0.14892758985764196
1077.7166666660153,-0.4825019,-1.0853581,0.14144523,-2.7383816,-0.17513244,1.8951105,1.1646293,0.03999927,0.04,0.010375613421631513,-0.021581236103185297,0.012254711276149521,0.11398077955796246,-0.04378318479154606,-0.06059281481808165,0.9149739420341995,0.35704577593093195,0.11414834577248793,-0.14936918840805322
1077.733333332682,-0.4838314,-1.0861871,0.14183456,-2.7394338,-0.17561504,1.8960031,1.1656722,0.039999265,0.04,0.010277490132137856,-0.021522589228628597,0.012320194273574003,0.11201128254288245,-0.043167337949269136,-0.059702699673858994,0.9145240286289794,0.3579244106498186,0.11443288475227749,-0.1498033117406736
1077.7499999993486,-0.48513797,-1.0870016,0.14221713,-2.740468,-0.17608936,1.8968804,1.166697,0.039999254,0.04,0.00996400001327391,-0.0213590729327251,0.012388737354385171,0.11004095314186255,-0.04255448073329844,-0.05881259987463197,0.9140808993259584,0.35878713021756253,0.11471204158990271,-0.1502299976435111
1077.7666666660152,-0.48642153,-1.0878018,0.1425929,-2.7414837,-0.17655529,1.8977424,1.1677037,0.03999925,0.04,0.011711294087701773,-0.02146620259166898,0.012844038914439082,0.10807007611514594,-0.0419439941770186,-0.0579192125973137,0.9136445651636951,0.3596339106647914,0.11498641401953606,-0.1506492065618651
1077.7833333326819,-0.4876821,-1.0885879,0.14296195,-2.7424817,-0.1770129,1.8985888,1.1686924,0.039999243,0.04,0.009777543783218157,-0.021424629309652055,0.012182120976378386,0.10610049998059762,-0.04133135827759102,-0.05702381176061319,0.9132151410311474,0.36046482101287186,0.11525536023495779,-0.151060984177682
1077.7999999993485,-0.48891965,-1.0893598,0.14332432,-2.7434604,-0.17746215,1.8994197,1.1696633,0.03999923,0.04,0.01295330049342347,-0.0215502849338578,0.013268801919208428,0.10413103141520716,-0.040723989454649626,-0.05612709416512794,0.9127925052114729,0.3612800466305504,0.11551981884952421,-0.1514653154664906
1077.8166666660152,-0.49013406,-1.090117,0.14367992,-2.7444217,-0.17790301,1.9002353,1.170616,0.039999217,0.04,0.00900538930765915,-0.02137719118672221,0.012660273699194313,0.10216123155009009,-0.04011268253006167,-0.055223202676903324,0.9123769781874311,0.36207931969691753,0.11577870240635234,-0.1518621348147411
1077.8333333326818,-0.49132547,-1.09086,0.14402877,-2.7453642,-0.17833549,1.9010354,1.1715508,0.039999206,0.04,0.012066621245798714,-0.021401174757051944,0.013131488695017346,0.10019383036737202,-0.0395086742043954,-0.05431938655844801,0.9119684254048978,0.3628628591094393,0.11603285610142167,-0.15225147896943908
1077.8499999993485,-0.49249393,-1.0915884,0.14437088,-2.7462895,-0.17875968,1.9018202,1.1724674,0.0399992,0.04,0.008527550064485467,-0.021132073387064576,0.012506914879750752,0.09823028980458082,-0.03890107210610301,-0.053415939157700106,0.9115670439289126,0.3636306469753785,0.1162812729863042,-0.15263335990423624
1077.8666666660151,-0.49363947,-1.0923026,0.14470625,-2.747196,-0.17917557,1.9025894,1.1733658,0.03999918,0.04,0.012091473231268246,-0.021210451444808598,0.013210600967350494,0.09626884041505332,-0.038301054756310446,-0.05251436485688508,0.9111727367677672,0.36438274563442835,0.11652496356327731,-0.15300781457699988
1077.8833333326818,-0.4947621,-1.0930026,0.1450349,-2.7480845,-0.17958309,1.9033433,1.1742462,0.039999172,0.04,0.010348618890820838,-0.021197382206217252,0.012887960315155489,0.09431212236980693,-0.037699946202612744,-0.05161145394284049,0.9107856092213684,0.3651191909104995,0.11676352489204617,-0.15337480144700358
1077.8999999993484,-0.4958616,-1.093688,0.14535683,-2.7489545,-0.17998223,1.9040816,1.1751086,0.039999165,0.04,0.01121803844896796,-0.02135810740386823,0.013386301447115834,0.09235860353324771,-0.03710328322736244,-0.050707539754686545,0.9104057182634203,0.3658399695135391,0.11699705554161433,-0.15373429628482707
1077.916666666015,-0.4969382,-1.0943596,0.14567208,-2.7498064,-0.18037307,1.9048045,1.175953,0.039999157,0.04,0.01118316646406825,-0.02115567590940115,0.013020413648856533,0.09041164585752033,-0.03650605324322455,-0.049805970969996276,0.9100330020970283,0.3665452757090899,0.11722578381897565,-0.15408637693723737
1077.9333333326817,-0.497992,-1.0950167,0.14598066,-2.750641,-0.18075563,1.9055121,1.1767795,0.039999146,0.04,0.008723257465770295,-0.020890931266692725,0.012834992026999892,0.0884689760130283,-0.03591074631016751,-0.04890367278369554,0.9096676285346307,0.3672350948204951,0.11744893997975983,-0.15443101121858216
1077.9499999993484,-0.499023,-1.0956597,0.14628255,-2.7514565,-0.18112992,1.9062043,1.1775883,0.039999142,0.04,0.013189394426227352,-0.02103487409514937,0.01381289068105307,0.08653183925768296,-0.03532301635311544,-0.048004219308063506,0.9093094093242092,0.36790960623470487,0.11766780113291417,-0.15476824070598882
1077.966666666015,-0.50003123,-1.0962884,0.14657773,-2.7522552,-0.18149595,1.9068812,1.1783793,0.03999913,0.04,0.008029644829243843,-0.020774455919125856,0.012509288645934369,0.08460059074574497,-0.03473219854447516,-0.04710263880083315,0.9089585923169607,0.36856880973148787,0.11788093528037027,-0.15509801753635852
1077.9833333326817,-0.5010168,-1.0969031,0.14686632,-2.7530344,-0.18185383,1.9075428,1.1791525,0.039999124,0.04,0.013721794054810665,-0.02083584858597609,0.014071469688159421,0.08267568582087828,-0.03414946385213371,-0.04620830830304665,0.9086149891241662,0.36921272372445,0.11808994517024911,-0.15542049745304562
1077.9999999993483,-0.5019798,-1.0975038,0.1471483,-2.7537966,-0.18220347,1.9081894,1.1799078,0.03999912,0.04,0.009017844120640106,-0.020614984752254095,0.012813882627271678,0.0807585258423153,-0.03356549626441927,-0.04530874835211905,0.9082787790854258,0.3698414289452573,0.11829369607365907,-0.15573560404753745
1078.016666666015,-0.5029203,-1.0980904,0.14742364,-2.7545412,-0.18254493,1.9088211,1.1806453,0.039999116,0.04,0.010308328623898078,-0.02053442359480906,0.013339148860280758,0.0788500196417875,-0.03298551325623442,-0.044415009621937646,0.9079499399771348,0.37045497871966865,0.11849255991160866,-0.15604335449778398
1078.0333333326817,-0.50383836,-1.0986629,0.1476924,-2.7552674,-0.18287818,1.9094379,1.1813653,0.039999112,0.04,0.011527697304924978,-0.020502480193484995,0.013799062364461268,0.07695048723952362,-0.032410454210722604,-0.043522250798863925,0.9076284455913602,0.3710534579880446,0.1186868464475105,-0.15634375123064806
1078.0499999993483,-0.5047342,-1.0992216,0.14795466,-2.7559767,-0.18320335,1.9100392,1.1820678,0.03999911,0.04,0.009079300718051186,-0.020310268528200837,0.012430270290675338,0.07506038043390888,-0.03183613725356177,-0.0426328433179672,0.9073142932965799,0.3716371901802718,0.11887578596195994,-0.15663690359096866
1078.066666666015,-0.5056078,-1.0997663,0.14821038,-2.7566674,-0.18352044,1.9106257,1.1827527,0.039999105,0.04,0.012181357274476667,-0.020272379691932407,0.013975236328478413,0.07317821153077572,-0.0312691353511517,-0.04174775182311129,0.9070074718491796,0.37220600215109545,0.11906039143016596,-0.15692278727117404
