rsonawane2002/My_IMU/logs_2/traj_348/imu_348.csv
time,j1,j2,j3,j4,j5,j6,j7,gripper1,gripper2,imu_ax,imu_ay,imu_az,imu_gx,imu_gy,imu_gz
1072.8833333326863,0.00016700293,-0.785875,4.0107683e-05,-2.3551247,9.29385e-05,1.570997,0.786,0.04,0.04,-9.493903,-0.05063268914818764,0.062869176,6.684138e-08,-0.0011641273740679026,7.0668267e-07
1072.899999999353,0.00016699689,-0.78576016,4.011724e-05,-2.3552213,9.297081e-05,1.5709941,0.786,0.04,0.04,-9.834331,0.000634003255981952,0.0091216015,5.953936e-07,-0.002239079214632511,6.9706783e-07
1072.9166666660196,0.00016692984,-0.7856543,4.014455e-05,-2.35531,9.297815e-05,1.5709913,0.786,0.04,0.04,-9.8324995,0.0005844631232321262,0.00752549,6.4088554e-06,-0.003229394555091858,-9.0265803e-07
1072.9333333326863,0.00016670095,-0.78555703,4.0219333e-05,-2.355391,9.293369e-05,1.5709884,0.786,0.04,0.039999995,-9.830514,0.0005074592190794647,0.0061917705,2.126468e-05,-0.004145686514675617,-5.1133293e-06
1072.949999999353,0.00016616598,-0.7854677,4.038444e-05,-2.3554654,9.2761715e-05,1.5709856,0.786,0.04,0.04,-9.828885,0.00037728663301095366,0.0048660715,5.0186252e-05,-0.004992321599274874,-1.6317612e-05
1072.9666666660196,0.00016514077,-0.7853857,4.0693732e-05,-2.355533,9.241073e-05,1.5709856,0.786,0.04,0.04,-9.82708,0.00024232090800069273,0.0037216726,9.717519e-05,-0.0057763331569731236,-3.155236e-05
1072.9833333326862,0.000163406,-0.78531104,4.1211828e-05,-2.3555982,9.179866e-05,1.5709862,0.7860019,0.04,0.04,-9.825502,5.432701436802745e-05,0.0025125695,0.00016577315,-0.0064891972579061985,-5.4683827e-05
1072.999999999353,0.00016071051,-0.7852428,4.2012398e-05,-2.3556573,9.083433e-05,1.570987,0.7860038,0.04,0.04,-9.824348,-0.00015220511704683304,0.0015594363,0.0002508514,-0.007164712063968182,-8.6080225e-05
1073.0166666660195,0.00015677478,-0.7851811,4.31773e-05,-2.3557148,8.941753e-05,1.5709879,0.78600764,0.04,0.04,-9.822858,-0.0003899829462170601,0.00059268717,0.00036522278,-0.0077919187024235725,-0.00012669832
1073.0333333326862,0.00015129412,-0.78512555,4.479581e-05,-2.3557663,8.743775e-05,1.5709889,0.78601146,0.04,0.04,-9.821963,-0.0006659364444203675,-0.00030148728,0.0005029139,-0.008390771225094795,-0.00017733278
1073.0499999993528,0.0001439415,-0.7850759,4.6963676e-05,-2.3558168,8.477609e-05,1.5709935,0.7860172,0.04,0.04,-9.820408,-0.0009457404958084226,-0.0010691765,0.0006761871,-0.0089480672031641,-0.00023873549
1073.0666666660195,0.00013437028,-0.7850319,4.9782535e-05,-2.355867,8.130684e-05,1.5709983,0.7860248,0.04,0.04,-9.819545,-0.0012752730399370193,-0.0019280934,0.0008788172,-0.009470432065427303,-0.0003115335
1073.0833333326862,0.00012221647,-0.78499347,5.3358966e-05,-2.3559165,7.688607e-05,1.5710065,0.78603435,0.039999995,0.04,-9.818715,-0.0016095865285024047,-0.0025748685,0.0011140608,-0.009980264119803905,-0.0003970692
1073.0999999993528,0.00010710114,-0.78496057,5.7803893e-05,-2.3559635,7.138721e-05,1.5710151,0.7860459,0.03999999,0.03999999,-9.817882,-0.0019866644870489836,-0.0033169438,0.0013842579,-0.010462087579071522,-0.0004933236
1073.1166666660195,8.863243e-05,-0.78493315,6.3232095e-05,-2.3560102,6.466727e-05,1.5710274,0.7860607,0.039999988,0.039999988,-9.816749,-0.0023726955987513065,-0.003845668,0.0016913686,-0.01092374324798584,-0.0006032906
1073.133333332686,6.6407105e-05,-0.7849112,6.976137e-05,-2.356058,5.65804e-05,1.5710412,0.7860781,0.039999984,0.03999998,-9.815941,-0.0028147667180746794,-0.004455628,0.0020328916,-0.01136165764182806,-0.0007256059
1073.1499999993528,4.001297e-05,-0.7848946,7.751261e-05,-2.3561075,4.697578e-05,1.5710574,0.786099,0.039999977,0.039999973,-9.815169,-0.0032499858643859625,-0.0048837396,0.00241309,-0.011790713295340538,-0.0008622862
1073.1666666660194,9.029673e-06,-0.78488356,8.660874e-05,-2.3561575,3.570219e-05,1.5710775,0.7861234,0.03999997,0.03999996,-9.814674,-0.0037528176326304674,-0.0053648334,0.0028306842,-0.012216711416840553,-0.0010118556
1073.183333332686,-2.6969246e-05,-0.78487813,9.717482e-05,-2.3562083,2.2603383e-05,1.5711013,0.7861516,0.039999966,0.039999958,-9.81376,-0.004247826058417559,-0.0057470426,0.0032876162,-0.012623194605112076,-0.0011762631
1073.1999999993527,-6.8415466e-05,-0.7848784,0.000109337045,-2.3562617,7.5232456e-06,1.571129,0.7861843,0.03999997,0.03999996,-9.812963,-0.004822014831006527,-0.0061000604,0.0037846507,-0.013013382442295551,-0.0013548061
1073.2166666660194,-0.00011574429,-0.78488433,0.00012322297,-2.3563194,-9.696462e-06,1.5711604,0.7862215,0.039999973,0.039999966,-9.812322,-0.005366600584238768,-0.0063450965,0.0043200543,-0.013397088274359703,-0.0015475856
1073.233333332686,-0.00016939388,-0.784896,0.0001389608,-2.3563783,-2.9214361e-05,1.5711957,0.7862637,0.039999973,0.03999996,-9.81195,-0.006012996193021536,-0.006579238,0.0048961495,-0.013783612288534641,-0.0017538437
1073.2499999993527,-0.000229804,-0.7849137,0.00015667919,-2.3564436,-5.1191026e-05,1.5712354,0.7863112,0.03999997,0.039999958,-9.811118,-0.006632555741816759,-0.0067057237,0.005511915,-0.014159174636006355,-0.0019753505
1073.2666666660193,-0.00029741522,-0.7849374,0.0001765074,-2.3565104,-7.578602e-05,1.5712806,0.7863644,0.039999973,0.03999996,-9.810913,-0.007321176119148731,-0.006816579,0.0061679324,-0.014544143341481686,-0.0022112562
1073.283333332686,-0.0003726679,-0.7849674,0.00019857417,-2.3565838,-0.000103158935,1.5713309,0.7864235,0.039999973,0.03999996,-9.810006,-0.008097191341221333,-0.0069263587,0.006863926,-0.014912133105099201,-0.0024615857
1073.2999999993526,-0.00045600184,-0.78500384,0.0002230083,-2.3566642,-0.00013346908,1.5713867,0.78648895,0.039999973,0.039999958,-9.809777,-0.008817952126264572,-0.0068625296,0.00760013,-0.015288230031728745,-0.0027254273
1073.3166666660193,-0.0005478549,-0.7850468,0.00024993808,-2.3567472,-0.00016687662,1.5714481,0.7865611,0.039999977,0.03999996,-9.809544,-0.009690332226455212,-0.00683863,0.008376476,-0.015673665329813957,-0.0030044396
1073.333333332686,-0.00064866245,-0.7850965,0.00027949107,-2.3568368,-0.00020353937,1.5715157,0.7866402,0.039999977,0.03999996,-9.808729,-0.010500023141503334,-0.0066879895,0.009192575,-0.016047535464167595,-0.0032977264
1073.3499999993526,-0.00075885764,-0.7851532,0.00031179414,-2.3569338,-0.00024361393,1.5715892,0.7867268,0.039999977,0.03999996,-9.808364,-0.0114657673984766,-0.0065339804,0.010048026,-0.016425030305981636,-0.00360518
1073.3666666660192,-0.0008788699,-0.78521675,0.00034697296,-2.3570383,-0.00028725603,1.5716695,0.78682095,0.03999998,0.03999996,-9.808105,-0.012363877147436142,-0.006238732,0.010942412,-0.016811778768897057,-0.003925821
1073.3833333326859,-0.0010091248,-0.78528774,0.00038515253,-2.3571503,-0.0003346215,1.5717568,0.7869233,0.03999998,0.03999996,-9.807761,-0.013445060700178146,-0.005986816,0.011875854,-0.017204072326421738,-0.004261252
1073.3999999993525,-0.001150044,-0.7853661,0.00042645592,-2.35727,-0.00038586193,1.5718515,0.7870339,0.03999998,0.039999958,-9.807455,-0.014442854560911655,-0.0055844197,0.012847276,-0.017601126804947853,-0.004609697
1073.4166666660192,-0.001302044,-0.7854522,0.0004710053,-2.3573976,-0.00044112897,1.5719538,0.7871532,0.039999984,0.03999996,-9.807102,-0.01563296839594841,-0.0051935655,0.013856998,-0.018002789467573166,-0.0049724868
1073.4333333326858,-0.0014655361,-0.78554606,0.0005189215,-2.3575335,-0.0005005739,1.5720636,0.7872815,0.039999984,0.039999966,-9.806716,-0.016755180433392525,-0.004666066,0.014904308,-0.018406182527542114,-0.005350654
1073.4499999993525,-0.0016409262,-0.78564787,0.00057032297,-2.3576777,-0.0005643407,1.5721812,0.78741914,0.039999984,0.03999996,-9.806404,-0.018045760691165924,-0.0041342876,0.015988622,-0.018817439675331116,-0.0057395464
1073.4666666660191,-0.0018286151,-0.7857582,0.00062532746,-2.3578308,-0.0006325759,1.572307,0.78756654,0.039999988,0.039999966,-9.806042,-0.019281236454844475,-0.0034633586,0.017109383,-0.01923215761780739,-0.006142279
1073.4833333326858,-0.0020289964,-0.785877,0.00068405044,-2.3579955,-0.0007054248,1.5724416,0.7877238,0.039999988,0.039999977,-9.805659,-0.020745275542140007,-0.0027656783,0.018265523,-0.019651051610708237,-0.0065615764
1073.4999999993524,-0.002242459,-0.7860044,0.00074660534,-2.3581698,-0.0007830241,1.5725849,0.78789127,0.03999999,0.039999966,-9.805681,-0.02205193042755127,-0.0019407654,0.019457374,-0.020084964111447334,-0.0069857547
1073.516666666019,-0.002469384,-0.7861405,0.0008131045,-2.3583531,-0.00086551526,1.5727371,0.7880693,0.03999999,0.039999995,-9.805377,-0.023613780736923218,-0.0010922737,0.020684132,-0.0205247700214386,-0.0074335258
1073.5333333326857,-0.0027101461,-0.78628564,0.00088365754,-2.3585482,-0.0009530288,1.5728987,0.78825825,0.03999999,0.039999995,-9.804922,-0.025222619995474815,-0.00021014176,0.021945203,-0.020966121926903725,-0.007886087
1073.5499999993524,-0.0029651138,-0.78643996,0.000958372,-2.3587534,-0.0010457123,1.5730698,0.78845835,0.03999999,0.039999988,-9.804854,-0.026781275868415833,0.0008341707,0.023239639,-0.021419310942292213,-0.00835156
1073.566666666019,-0.003234648,-0.7866037,0.0010373542,-2.3589697,-0.0011436862,1.5732508,0.7886698,0.039999984,0.039999958,-9.804495,-0.028551101684570312,0.0018776334,0.024566907,-0.021876923739910126,-0.008823958
1073.5833333326857,-0.003519103,-0.78677714,0.001120708,-2.359198,-0.0012470785,1.5734419,0.78889304,0.039999988,0.039999958,-9.804277,-0.03027378022670746,0.0030750725,0.025926458,-0.022340290248394012,-0.009312276
1073.5999999993523,-0.0038188251,-0.7869604,0.0012085343,-2.3594384,-0.0013560172,1.5736433,0.7891282,0.039999995,0.039999977,-9.804075,-0.03224489837884903,0.0043055704,0.027317213,-0.022812701761722565,-0.009815346
1073.616666666019,-0.004134152,-0.7871538,0.0013009334,-2.359691,-0.0014706231,1.5738552,0.78937584,0.04,0.04,-9.803908,-0.03410099446773529,0.0056707836,0.028739393,-0.023292237892746925,-0.010329647
1073.6333333326857,-0.0044654193,-0.7873574,0.0013980019,-2.3599553,-0.0015910044,1.5740774,0.7896358,0.04,0.04,-9.803663,-0.036205533891916275,0.0070616086,0.030190263,-0.023779302835464478,-0.010852507
1073.6499999993523,-0.004812948,-0.7875713,0.0014998347,-2.3602333,-0.0017173042,1.5743107,0.7899084,0.04,0.04,-9.8034315,-0.038220614194869995,0.008619579,0.031671852,-0.02427242510020733,-0.011386958
1073.666666666019,-0.005177057,-0.7877958,0.0016065257,-2.3605232,-0.0018496206,1.5745549,0.79019403,0.04,0.04,-9.803304,-0.04050397872924805,0.0101603735,0.033182185,-0.024775544181466103,-0.011931321
1073.6833333326856,-0.005558051,-0.7880311,0.0017181645,-2.3608263,-0.001988067,1.5748106,0.7904929,0.04,0.04,-9.803024,-0.042676955461502075,0.011889188,0.03472087,-0.025282051414251328,-0.012485544
1073.6999999993523,-0.0059562353,-0.7882774,0.00183484,-2.361143,-0.0021327634,1.575078,0.79080534,0.04,0.04,-9.802783,-0.04515324532985687,0.013628909,0.036287047,-0.02579459361732006,-0.013051782
1073.716666666019,-0.0063719023,-0.7885344,0.001956638,-2.361474,-0.0022838179,1.5753572,0.79113144,0.03999999,0.04,-9.80266,-0.04749060049653053,0.015557798,0.03787921,-0.026313867419958115,-0.013626079
1073.7333333326856,-0.0068053347,-0.78880274,0.0020836422,-2.3618188,-0.0024413404,1.5756483,0.79147154,0.04,0.03999999,-9.802532,-0.05013500899076462,0.017451659,0.03949757,-0.02684403955936432,-0.014209123
1073.7499999993522,-0.0072568143,-0.7890826,0.002215934,-2.3621778,-0.0026054094,1.5759517,0.79182565,0.04,0.04,-9.802339,-0.05267288535833359,0.019557308,0.041140854,-0.02737792767584324,-0.014803867
1073.7666666660189,-0.0077266083,-0.789374,0.0023535925,-2.3625515,-0.002776134,1.576267,0.7921941,0.039999995,0.039999988,-9.802201,-0.05538291856646538,0.021721557,0.042809382,-0.027918407693505287,-0.015405409
1073.7833333326855,-0.0082149785,-0.789677,0.0024966937,-2.3629396,-0.0029536015,1.576595,0.7925772,0.04,0.03999998,-9.802027,-0.05829950422048569,0.023940917,0.044501662,-0.02846919186413288,-0.016013252
1073.7999999993522,-0.008722179,-0.7899918,0.0026453133,-2.3633425,-0.0031379103,1.5769356,0.79297507,0.04,0.039999984,-9.801853,-0.06113141402602196,0.02633065,0.046216566,-0.02902308851480484,-0.016634667
1073.8166666660188,-0.009248457,-0.79031855,0.0027995228,-2.3637602,-0.0033291474,1.5772891,0.79338795,0.039999995,0.03999997,-9.801682,-0.06423576921224594,0.02872254,0.047953986,-0.029584700241684914,-0.017261244
1073.8333333326855,-0.009794053,-0.7906575,0.002959393,-2.3641934,-0.0035273966,1.5776553,0.793816,0.039999995,0.03999994,-9.801527,-0.06719963997602463,0.03133506,0.049712647,-0.030150726437568665,-0.017889813
1073.8499999993521,-0.010359194,-0.7910087,0.0031249898,-2.364642,-0.0037327467,1.5780348,0.7942593,0.04,0.039999947,-9.801325,-0.07057426869869232,0.03395205,0.051492017,-0.030723396688699722,-0.018534899
1073.8666666660188,-0.010944098,-0.7913724,0.0032963804,-2.3651059,-0.0039452775,1.5784277,0.79471815,0.04,0.039999958,-9.801211,-0.07377886772155762,0.0367745,0.053291544,-0.03130137547850609,-0.019189496
1073.8833333326854,-0.011548988,-0.7917485,0.0034736262,-2.3655853,-0.0041650627,1.578834,0.7951927,0.04,0.039999947,-9.800982,-0.07727477699518204,0.039594147,0.055110715,-0.03188345953822136,-0.01984637
1073.899999999352,-0.012174062,-0.7921373,0.0036567887,-2.3660803,-0.0043921834,1.5792538,0.7956831,0.04,0.039999947,-9.800852,-0.08068927377462387,0.042626463,0.056948163,-0.03246933966875076,-0.020513084
1073.9166666660187,-0.012819529,-0.7925388,0.0038459261,-2.3665912,-0.0046267062,1.5796872,0.7961895,0.04,0.03999995,-9.800557,-0.0844203382730484,0.045674797,0.058803536,-0.03305872902274132,-0.021186728
1073.9333333326854,-0.013485571,-0.7929532,0.0040410943,-2.3671188,-0.0048687044,1.5801346,0.79671204,0.04,0.039999954,-9.800467,-0.08803340792655945,0.048938323,0.060675897,-0.03365277126431465,-0.021868963
1073.949999999352,-0.014172375,-0.7933806,0.004242347,-2.3676634,-0.005118244,1.5805961,0.7972508,0.04,0.03999996,-9.800301,-0.09197844564914703,0.052199055,0.0625647,-0.0342533104121685,-0.022557588
1073.9666666660187,-0.014880123,-0.7938211,0.0044497363,-2.3682241,-0.005375387,1.5810714,0.797806,0.04,0.039999973,-9.800232,-0.09579122066497803,0.055690758,0.06446951,-0.03485893830657005,-0.023253351
1073.9833333326853,-0.015608976,-0.7942748,0.00466331,-2.368801,-0.005640193,1.5815609,0.7983778,0.04,0.039999958,-9.799992,-0.09991335868835449,0.059176564,0.06638922,-0.03546898812055588,-0.023948273
1073.999999999352,-0.01635909,-0.79474187,0.004883117,-2.3693955,-0.005912729,1.5820646,0.7989662,0.04,0.04,-9.799855,-0.10400912165641785,0.06290408,0.06832319,-0.036081988364458084,-0.024662975
1074.0166666660186,-0.01713063,-0.7952223,0.005109201,-2.3700066,-0.0061930395,1.5825828,0.79957163,0.04,0.04,-9.799724,-0.10821223258972168,0.06668638,0.070271164,-0.036699485033750534,-0.025373703
1074.0333333326853,-0.017923731,-0.7957161,0.005341605,-2.3706346,-0.0064811776,1.5831155,0.80019385,0.04,0.039999954,-9.799498,-0.11265319585800171,0.070519455,0.07223112,-0.037321172654628754,-0.026082203
1074.049999999352,-0.018738534,-0.79622364,0.00558037,-2.3712792,-0.0067772013,1.5836629,0.80083305,0.04,0.03999996,-9.799363,-0.1170511394739151,0.07458698,0.07420397,-0.03794526681303978,-0.026805297
1074.0666666660186,-0.019575177,-0.79674476,0.005825536,-2.3719418,-0.0070811547,1.5842248,0.8014893,0.04,0.04,-9.799019,-0.12179440259933472,0.07867318,0.07618805,-0.03856849670410156,-0.0275402
1074.0833333326852,-0.020433776,-0.79727954,0.0060771354,-2.3726218,-0.0073930817,1.5848016,0.80216295,0.04,0.04,-9.799022,-0.12631599605083466,0.082991704,0.07818356,-0.039198730140924454,-0.028272152
1074.099999999352,-0.021314442,-0.7978281,0.006335202,-2.3733194,-0.007713024,1.585393,0.80285376,0.04,0.04,-9.798797,-0.13124024868011475,0.087316625,0.08018816,-0.03983300179243088,-0.029007742
1074.1166666660185,-0.02221729,-0.79839057,0.0065997695,-2.3740344,-0.008041019,1.5859993,0.8035621,0.04,0.04,-9.798678,-0.13603481650352478,0.09186246,0.082203254,-0.04047033190727234,-0.029749317
1074.1333333326852,-0.023142422,-0.79896694,0.0068708663,-2.374767,-0.008377104,1.5866206,0.80428785,0.04,0.04,-9.798405,-0.14118385314941406,0.09644135,0.084226094,-0.04110962152481079,-0.030495055
1074.1499999993518,-0.024089923,-0.7995573,0.0071485215,-2.3755174,-0.008721317,1.5872569,0.80503076,0.04,0.04,-9.798294,-0.14615243673324585,0.10123865,0.086257584,-0.0417516827583313,-0.031237973
1074.1666666660185,-0.025059884,-0.80016166,0.007432759,-2.3762856,-0.009073681,1.5879084,0.8057916,0.04,0.04,-9.797995,-0.15158525109291077,0.10606486,0.08829809,-0.042394574731588364,-0.031995326
1074.1833333326852,-0.026052387,-0.8007799,0.0077236025,-2.3770716,-0.009434234,1.5885749,0.8065702,0.04,0.04,-9.79788,-0.15678435564041138,0.11111623,0.0903441,-0.0430401936173439,-0.032751273
1074.1999999993518,-0.027067497,-0.80141234,0.0080210725,-2.3778753,-0.009802997,1.5892564,0.80736643,0.04,0.04,-9.797612,-0.16239525377750397,0.11617082,0.09239587,-0.04368883743882179,-0.033512153
1074.2166666660185,-0.02810529,-0.8020591,0.0083251875,-2.3786967,-0.010179996,1.5899533,0.80818063,0.04,0.04,-9.797447,-0.16780588030815125,0.12149322,0.09445356,-0.044338129460811615,-0.034269415
1074.233333332685,-0.029165817,-0.8027202,0.008635968,-2.3795357,-0.010565247,1.5906657,0.80901265,0.04,0.04,-9.797084,-0.1736573576927185,0.1268357,0.09651513,-0.044986430555582047,-0.03503461
1074.2499999993518,-0.030249128,-0.80339533,0.00895343,-2.3803933,-0.010958776,1.5913932,0.80986243,0.04,0.039999995,-9.7968445,-0.17929138243198395,0.13241468,0.09858093,-0.045631397515535355,-0.035795286
1074.2666666660184,-0.03135527,-0.8040847,0.009277581,-2.3812692,-0.011360594,1.5921363,0.81073016,0.04,0.039999995,-9.796718,-0.18523873388767242,0.13805942,0.10065042,-0.04628252983093262,-0.03656472
1074.283333332685,-0.03248429,-0.80478835,0.009608436,-2.3821626,-0.011770716,1.5928946,0.8116159,0.04,0.04,-9.7963915,-0.19143706560134888,0.14378862,0.10272287,-0.04693382978439331,-0.03734333
1074.2999999993517,-0.0336362,-0.80550635,0.009946004,-2.3830745,-0.012189152,1.5936681,0.81251967,0.04,0.04,-9.796139,-0.19739960134029388,0.14974791,0.104796916,-0.04758347570896149,-0.038117208
1074.3166666660184,-0.03481104,-0.8062386,0.010290288,-2.3840046,-0.0126159135,1.594457,0.8134413,0.04,0.04,-9.79587,-0.2037874013185501,0.15576005,0.10687239,-0.048236746340990067,-0.03889288
1074.333333332685,-0.03600881,-0.80698496,0.010641295,-2.3849528,-0.013051005,1.5952613,0.81438094,0.04,0.04,-9.795646,-0.2100270539522171,0.1619765,0.10894928,-0.04888926446437836,-0.039672893
1074.3499999993517,-0.037229538,-0.8077459,0.010999031,-2.385919,-0.013494428,1.5960811,0.8153386,0.04,0.04,-9.795297,-0.21663694083690643,0.16822918,0.11102633,-0.04954300448298454,-0.040454995
1074.3666666660183,-0.038473222,-0.808521,0.011363495,-2.3869038,-0.013946189,1.5969163,0.81631416,0.04,0.04,-9.79503,-0.22304971516132355,0.17473905,0.11310319,-0.05019408464431763,-0.041232727
1074.383333332685,-0.039739866,-0.80931056,0.011734688,-2.3879066,-0.014406283,1.597767,0.81730783,0.04,0.04,-9.794682,-0.2299056202173233,0.18126303,0.11517967,-0.0508468858897686,-0.042017363
1074.3999999993516,-0.041029457,-0.81011444,0.012112604,-2.388928,-0.01487471,1.5986329,0.8183195,0.04,0.04,-9.794411,-0.23656664788722992,0.18803935,0.11725426,-0.051497720181941986,-0.042802155
1074.4166666660183,-0.042341985,-0.8109327,0.0124972435,-2.389967,-0.015351463,1.5995145,0.8193491,0.04,0.04,-9.794068,-0.24363555014133453,0.19485286,0.119326435,-0.052150990813970566,-0.04359262
1074.433333332685,-0.043677423,-0.8117651,0.012888597,-2.391024,-0.015836539,1.6004114,0.8203968,0.04,0.04,-9.793724,-0.250485897064209,0.20189202,0.12139608,-0.05279960110783577,-0.044377897
1074.4499999993516,-0.045035757,-0.81261176,0.01328666,-2.3920991,-0.016329922,1.6013237,0.82146233,0.04,0.04,-9.793268,-0.25773584842681885,0.20896016,0.12346241,-0.053447116166353226,-0.04516269
1074.4666666660182,-0.04641693,-0.8134726,0.013691422,-2.3931923,-0.016831601,1.6022512,0.8225459,0.04,0.04,-9.792949,-0.26482659578323364,0.21627846,0.1255252,-0.05409211665391922,-0.045946945
1074.4833333326849,-0.047820915,-0.8143476,0.014102869,-2.3943036,-0.017341565,1.6031939,0.8236474,0.04,0.04,-9.792497,-0.272291362285614,0.22364554,0.12758318,-0.05473765730857849,-0.04672898
1074.4999999993515,-0.049247667,-0.81523687,0.014520988,-2.395433,-0.017859789,1.6041522,0.82476646,0.04,0.04,-9.792186,-0.2795875072479248,0.23123251,0.1296362,-0.05538228899240494,-0.047508676
1074.5166666660182,-0.05069714,-0.8161404,0.014945764,-2.3965807,-0.018386263,1.6051259,0.82590353,0.04,0.04,-9.791739,-0.28714126348495483,0.23891073,0.13168487,-0.05602281168103218,-0.04828989
1074.5333333326848,-0.052169282,-0.817058,0.015377181,-2.397746,-0.018920962,1.6061149,0.8270585,0.04,0.04,-9.791287,-0.2949489653110504,0.246705,0.13372616,-0.05666366219520569,-0.04907634
1074.5499999993515,-0.053664003,-0.8179898,0.015815223,-2.3989294,-0.019463865,1.6071185,0.82823104,0.04,0.04,-9.790866,-0.30258339643478394,0.2547059,0.13576035,-0.05730019509792328,-0.049863983
1074.5666666660181,-0.055181246,-0.81893563,0.016259866,-2.4001307,-0.020014945,1.6081374,0.8294213,0.04,0.04,-9.790283,-0.3105570077896118,0.26279137,0.13778801,-0.05793558433651924,-0.050648995
1074.5833333326848,-0.056720946,-0.8198955,0.01671109,-2.4013495,-0.02057418,1.6091713,0.8306291,0.04,0.04,-9.789936,-0.31839725375175476,0.27107775,0.13980772,-0.058570344001054764,-0.05143536
1074.5999999993514,-0.05828303,-0.82086945,0.017168868,-2.4025862,-0.021141538,1.6102203,0.8318546,0.04,0.04,-9.789289,-0.3265753388404846,0.27942535,0.14181945,-0.059200990945100784,-0.052219693
1074.616666666018,-0.059867393,-0.82185715,0.01763318,-2.4038405,-0.021716982,1.6112843,0.8330975,0.04,0.04,-9.788846,-0.3345984220504761,0.2880054,0.1438217,-0.059827741235494614,-0.053002704
1074.6333333326847,-0.061473943,-0.8228585,0.018103994,-2.405112,-0.022300493,1.612363,0.8343578,0.04,0.04,-9.788227,-0.34294164180755615,0.29662636,0.14581497,-0.060453008860349655,-0.053776782
1074.6499999993514,-0.06310259,-0.82387364,0.018581288,-2.4064014,-0.022892013,1.6134567,0.83563536,0.04,0.04,-9.787702,-0.35115477442741394,0.30547076,0.14779888,-0.061074238270521164,-0.05454812
1074.666666666018,-0.06475324,-0.8249028,0.019065028,-2.407708,-0.023491528,1.6145651,0.8369303,0.04,0.04,-9.787068,-0.35976555943489075,0.3143836,0.14977233,-0.06169310584664345,-0.05532441
1074.6833333326847,-0.06642577,-0.8259455,0.01955518,-2.4090319,-0.024098992,1.6156884,0.83824235,0.04,0.04,-9.786509,-0.3681557774543762,0.3235491,0.1517346,-0.06230763718485832,-0.05609472
1074.6999999993513,-0.0681201,-0.8270017,0.020051716,-2.4103737,-0.024714356,1.6168263,0.83957136,0.04,0.04,-9.785789,-0.37690117955207825,0.3327455,0.15368567,-0.06291782110929489,-0.056860857
1074.716666666018,-0.069836095,-0.8280716,0.0205546,-2.411732,-0.025337577,1.6179787,0.84091747,0.04,0.04,-9.7852955,-0.3855465352535248,0.34215242,0.15562534,-0.06352762877941132,-0.057632904
1074.7333333326847,-0.0715736,-0.8291548,0.021063799,-2.4131076,-0.025968617,1.6191455,0.8422805,0.04,0.04,-9.784406,-0.39448997378349304,0.351664,0.15755168,-0.06412894278764725,-0.058404677
1074.7499999993513,-0.07333251,-0.83025134,0.02157927,-2.4144998,-0.026607424,1.6203266,0.8436604,0.04,0.04,-9.783882,-0.403242826461792,0.3613605,0.15946552,-0.06473010033369064,-0.059167113
1074.766666666018,-0.07511269,-0.8313611,0.022100968,-2.4159093,-0.027253952,1.6215221,0.84505695,0.04,0.04,-9.783047,-0.4122432768344879,0.37116146,0.16136572,-0.06532377004623413,-0.059928726
1074.7833333326846,-0.07691401,-0.83248407,0.022628864,-2.4173353,-0.02790815,1.6227318,0.84647,0.04,0.04,-9.782302,-0.4214344620704651,0.38109043,0.16325238,-0.0659165158867836,-0.06068629
1074.7999999993513,-0.07873632,-0.83362025,0.02316291,-2.4187777,-0.028569968,1.6239557,0.8478995,0.04,0.04,-9.781575,-0.43049192428588867,0.3912118,0.165125,-0.06650357693433762,-0.061442513
1074.816666666018,-0.08057948,-0.83476937,0.023703065,-2.4202363,-0.029239349,1.6251935,0.84934545,0.04,0.04,-9.780627,-0.43984454870224,0.4014304,0.16698286,-0.06708351522684097,-0.06219462
1074.8333333326846,-0.082443334,-0.8359313,0.024249284,-2.421712,-0.029916251,1.6264454,0.850808,0.04,0.04,-9.779875,-0.4490538537502289,0.41184613,0.16882516,-0.06765957921743393,-0.06294169
1074.8499999993512,-0.08432773,-0.83710617,0.024801519,-2.4232037,-0.0306006,1.6277108,0.8522862,0.04,0.04,-9.778976,-0.4585605561733246,0.42232674,0.17065024,-0.06823156028985977,-0.06368255
1074.8666666660179,-0.08623247,-0.8382937,0.025359716,-2.4247122,-0.031292345,1.62899,0.85378027,0.04,0.04,-9.778162,-0.4679846167564392,0.43304625,0.17246142,-0.0687994435429573,-0.06442783
1074.8833333326845,-0.088157415,-0.8394937,0.025923839,-2.4262362,-0.031991415,1.6302829,0.85529006,0.04,0.04,-9.777228,-0.4776087999343872,0.4438153,0.174257,-0.06936398893594742,-0.06515911
1074.8999999993512,-0.0901024,-0.8407063,0.026493832,-2.4277754,-0.03269775,1.631589,0.85681576,0.04,0.04,-9.776295,-0.4871613383293152,0.4547823,0.17603587,-0.06992122530937195,-0.06589147
1074.9166666660178,-0.09206725,-0.8419313,0.027069643,-2.4293303,-0.033411283,1.6329087,0.858357,0.04,0.04,-9.775156,-0.49699804186820984,0.46584687,0.17779633,-0.07047092169523239,-0.066622116
1074.9333333326845,-0.094051756,-0.84316844,0.027651215,-2.4309006,-0.034131985,1.6342416,0.8599138,0.04,0.04,-9.774237,-0.506676435470581,0.47711313,0.17953937,-0.07101509720087051,-0.06734791
1074.9499999993511,-0.09605575,-0.8444179,0.028238507,-2.4324865,-0.034859758,1.6355873,0.8614861,0.04,0.04,-9.773032,-0.516632080078125,0.48844308,0.18126357,-0.07155106216669083,-0.06806734
1074.9666666660178,-0.09807906,-0.8456794,0.028831448,-2.434088,-0.035594504,1.6369462,0.8630734,0.04,0.04,-9.772131,-0.5264354944229126,0.5000251,0.18296877,-0.07208483666181564,-0.06877868
1074.9833333326844,-0.100121476,-0.8469527,0.02942999,-2.4357047,-0.036336217,1.638318,0.8646757,0.04,0.04,-9.770938,-0.5365642309188843,0.51164335,0.18465504,-0.07261263579130173,-0.069489434
1074.999999999351,-0.10218278,-0.8482379,0.030034073,-2.4373367,-0.037084788,1.6397023,0.8662927,0.04,0.04,-9.76988,-0.5465133190155029,0.5234495,0.18632232,-0.07313457131385803,-0.07019424
1075.0166666660177,-0.10426284,-0.8495347,0.030643638,-2.438984,-0.037840135,1.6410991,0.8679246,0.04,0.04,-9.768778,-0.5566329956054688,0.53539747,0.18797064,-0.07365293055772781,-0.07089127
1075.0333333326844,-0.10636137,-0.850843,0.031258624,-2.440645,-0.038602214,1.6425084,0.8695709,0.04,0.04,-9.76753,-0.5669606328010559,0.5474406,0.18959793,-0.07416731864213943,-0.07159053
1075.049999999351,-0.10847821,-0.8521628,0.031878967,-2.4423206,-0.039370947,1.6439301,0.87123144,0.04,0.04,-9.766261,-0.5771011710166931,0.5596565,0.19120508,-0.0746721625328064,-0.07228308
1075.0666666660177,-0.110613115,-0.8534939,0.032504607,-2.4440107,-0.040146217,1.6453639,0.87290615,0.04,0.04,-9.764893,-0.5874698758125305,0.5719754,0.19279191,-0.0751691460609436,-0.07296327
1075.0833333326843,-0.11276591,-0.85483634,0.033135485,-2.445715,-0.04092795,1.6468095,0.87459517,0.04,0.04,-9.763713,-0.5977340340614319,0.5844907,0.1943579,-0.07566151022911072,-0.07363759
1075.099999999351,-0.114936315,-0.85618955,0.03377153,-2.4474332,-0.041716095,1.6482666,0.8762978,0.04,0.04,-9.762231,-0.6082521080970764,0.5971043,0.19590081,-0.0761469379067421,-0.07430759
1075.1166666660176,-0.11712414,-0.85755384,0.03441268,-2.449165,-0.042510517,1.6497352,0.8780141,0.04,0.04,-9.760974,-0.6186238527297974,0.6098543,0.19742313,-0.07662855833768845,-0.0749699
1075.1333333326843,-0.11932918,-0.85892856,0.03505886,-2.4509108,-0.043311182,1.6512152,0.87974393,0.04,0.04,-9.759396,-0.629245400428772,0.622741,0.198923,-0.07710166275501251,-0.075628825
1075.149999999351,-0.12155115,-0.8603134,0.03571001,-2.4526696,-0.044118013,1.6527069,0.88148695,0.04,0.04,-9.758111,-0.6397320032119751,0.6357632,0.20040032,-0.07757280021905899,-0.07628094
1075.1666666660176,-0.12378983,-0.8617094,0.036366064,-2.4544423,-0.044930905,1.6542101,0.8832432,0.04,0.04,-9.756477,-0.6504371166229248,0.6488363,0.20185547,-0.07803410291671753,-0.07692528
1075.1833333326842,-0.12604499,-0.8631157,0.037026938,-2.4562283,-0.045749754,1.6557244,0.8850122,0.04,0.04,-9.755038,-0.6610033512115479,0.6621886,0.20328678,-0.07848770916461945,-0.07756302
1075.199999999351,-0.1283164,-0.864532,0.03769257,-2.4580262,-0.046574507,1.6572499,0.88679415,0.04,0.04,-9.753422,-0.6718156933784485,0.67558634,0.20469572,-0.07893522828817368,-0.078196704
1075.2166666660175,-0.13060383,-0.86595803,0.03836288,-2.459837,-0.04740507,1.6587869,0.88858855,0.04,0.04,-9.751759,-0.6825000047683716,0.6891127,0.20607959,-0.07937121391296387,-0.078828774
1075.2333333326842,-0.13290699,-0.8673939,0.039037813,-2.4616604,-0.04824137,1.6603339,0.89039546,0.04,0.04,-9.750036,-0.6933637857437134,0.7027578,0.20743966,-0.07979848235845566,-0.0794531
1075.2499999993508,-0.13522568,-0.8688395,0.039717287,-2.463496,-0.049083274,1.6618912,0.8922143,0.04,0.04,-9.748434,-0.7040637731552124,0.7165875,0.20877501,-0.0802212655544281,-0.08006261
1075.2666666660175,-0.1375596,-0.87029475,0.04040122,-2.4653435,-0.049930666,1.663459,0.8940452,0.04,0.04,-9.746687,-0.7149339914321899,0.73052794,0.21008645,-0.08063583821058273,-0.08066699
1075.2833333326842,-0.1399085,-0.8717593,0.041089535,-2.4672031,-0.050783508,1.6650363,0.8958878,0.04,0.04,-9.744784,-0.7259007096290588,0.7445852,0.21137269,-0.08104191720485687,-0.08126492
1075.2999999993508,-0.1422721,-0.87323296,0.041782152,-2.469074,-0.051641673,1.6666241,0.8977419,0.04,0.04,-9.743044,-0.7367294430732727,0.75878286,0.21263379,-0.08144219219684601,-0.08185346
1075.3166666660175,-0.14465018,-0.8747157,0.042479005,-2.470957,-0.052505087,1.6682212,0.8996074,0.04,0.04,-9.741045,-0.7477733492851257,0.7730655,0.21386951,-0.08183145523071289,-0.08243749
1075.333333332684,-0.14704242,-0.87620705,0.043180022,-2.4728508,-0.053373657,1.6698278,0.90148395,0.04,0.04,-9.739329,-0.7586697340011597,0.7875325,0.21507958,-0.08221857249736786,-0.08301147
1075.3499999993508,-0.14944856,-0.87770724,0.043885116,-2.4747555,-0.05424724,1.6714442,0.9033714,0.04,0.04,-9.737206,-0.7697398662567139,0.80205804,0.21626404,-0.082595594227314,-0.083576776
1075.3666666660174,-0.15186836,-0.8792161,0.04459419,-2.476671,-0.055125754,1.6730694,0.9052696,0.04,0.04,-9.735238,-0.7806990146636963,0.8167401,0.21742235,-0.0829617902636528,-0.084135585
1075.383333332684,-0.15430146,-0.880733,0.04530719,-2.478597,-0.056009136,1.6747034,0.90717846,0.04,0.04,-9.733121,-0.7918218374252319,0.83155656,0.21855366,-0.0833214670419693,-0.08468891
1075.3999999993507,-0.15674764,-0.88225824,0.04602402,-2.4805336,-0.056897245,1.6763464,0.9090974,0.04,0.04,-9.731102,-0.8028003573417664,0.84645706,0.21965812,-0.08367416262626648,-0.08522902
1075.4166666660174,-0.15920666,-0.8837915,0.046744604,-2.4824803,-0.05779001,1.6779981,0.9110265,0.04,0.04,-9.7289095,-0.8139809966087341,0.86149615,0.22073665,-0.08401911705732346,-0.08576739
1075.433333332684,-0.16167825,-0.8853324,0.047468845,-2.484437,-0.058687385,1.6796578,0.9129654,0.04,0.04,-9.726788,-0.8250443935394287,0.8766504,0.22178753,-0.08435603976249695,-0.086302705
1075.4499999993507,-0.16416205,-0.88688093,0.04819667,-2.4864035,-0.059589155,1.681326,0.91491383,0.04,0.04,-9.724477,-0.8361341953277588,0.89190495,0.22281045,-0.08468504250049591,-0.08681718
1075.4666666660173,-0.16665776,-0.888437,0.048928,-2.488379,-0.06049522,1.6830024,0.91687167,0.04,0.04,-9.7223215,-0.8472058176994324,0.90727097,0.22380695,-0.08500687032938004,-0.08732359
1075.483333332684,-0.16916515,-0.8900004,0.049662735,-2.490364,-0.061405536,1.6846865,0.9188387,0.04,0.04,-9.719819,-0.8584001660346985,0.92274815,0.22477552,-0.08531670272350311,-0.08782381
1075.4999999993506,-0.17168392,-0.8915707,0.0504008,-2.4923575,-0.062319964,1.6863782,0.92081463,0.04,0.04,-9.717564,-0.8694731593132019,0.9383492,0.2257159,-0.08561936765909195,-0.08831574
1075.5166666660173,-0.1742137,-0.89314806,0.051142097,-2.4943604,-0.0632384,1.6880774,0.92279917,0.04,0.04,-9.7150755,-0.8807284235954285,0.9540463,0.22662793,-0.08591438084840775,-0.088820465
1075.533333332684,-0.17675427,-0.8947321,0.051886555,-2.496372,-0.064160734,1.6897837,0.92479223,0.04,0.04,-9.712612,-0.8917928338050842,0.96987164,0.2275124,-0.08620060235261917,-0.08929216
1075.5499999993506,-0.17930532,-0.89632267,0.052634086,-2.4983914,-0.06508688,1.6914971,0.9267935,0.04,0.04,-9.71018,-0.9028909206390381,0.98578316,0.22836849,-0.08647990971803665,-0.08975575
1075.5666666660172,-0.18186651,-0.8979195,0.05338458,-2.5004191,-0.06601668,1.6932173,0.9288028,0.04,0.04,-9.707504,-0.9140512347221375,1.0017996,0.22919568,-0.08674898743629456,-0.09020647
1075.5833333326839,-0.1844376,-0.89952254,0.054137968,-2.5024545,-0.06695002,1.6949439,0.9308198,0.04,0.04,-9.705004,-0.9251058101654053,1.017904,0.22999415,-0.08701026439666748,-0.09064132
1075.5999999993505,-0.18701826,-0.90113163,0.054894138,-2.5044975,-0.06788684,1.696677,0.9328442,0.04,0.04,-9.702248,-0.936293363571167,1.0341377,0.23076366,-0.08726294338703156,-0.09107084
1075.6166666660172,-0.18960816,-0.9027465,0.05565301,-2.5065477,-0.068827026,1.6984165,0.9348759,0.04,0.04,-9.6996,-0.9474530220031738,1.0504503,0.23150463,-0.08750789612531662,-0.091506205
1075.6333333326838,-0.192207,-0.90436685,0.056414507,-2.5086052,-0.06977044,1.7001616,0.9369146,0.04,0.04,-9.69675,-0.9584767818450928,1.0668571,0.23221631,-0.08774015307426453,-0.09190998
1075.6499999993505,-0.19481444,-0.9059925,0.05717853,-2.5106702,-0.070716955,1.7019128,0.9389601,0.04,0.04,-9.694057,-0.9695822596549988,1.0833635,0.23289894,-0.08796841651201248,-0.092311546
1075.6666666660171,-0.19743024,-0.9076234,0.05794499,-2.5127409,-0.07166648,1.7036694,0.941012,0.04,0.04,-9.691195,-0.980682909488678,1.0999695,0.23355243,-0.08818822354078293,-0.09269852
1075.6833333326838,-0.20005397,-0.9092594,0.058713786,-2.5148182,-0.07261889,1.7054315,0.94307023,0.04,0.04,-9.688258,-0.9917473793029785,1.1166328,0.23417628,-0.08839669823646545,-0.09308318
1075.6999999993504,-0.20268545,-0.91090024,0.05948483,-2.5169008,-0.0735741,1.7071985,0.94513464,0.04,0.04,-9.685282,-1.0028728246688843,1.1334463,0.23477082,-0.08859819918870926,-0.093463816
1075.716666666017,-0.20532426,-0.91254544,0.06025802,-2.5189893,-0.07453206,1.7089709,0.9472048,0.04,0.04,-9.682207,-1.0139188766479492,1.1502887,0.2353345,-0.08878754824399948,-0.093846984
1075.7333333326837,-0.20797011,-0.9141952,0.061033286,-2.521084,-0.07549256,1.7107478,0.9492805,0.04,0.04,-9.679143,-1.0248123407363892,1.1672294,0.23586848,-0.08896617591381073,-0.0941927
1075.7499999993504,-0.21062273,-0.91584903,0.061810523,-2.5231836,-0.0764555,1.7125292,0.95136136,0.04,0.04,-9.6761675,-1.0357913970947266,1.1842798,0.2363736,-0.08913890272378922,-0.09453081
1075.766666666017,-0.2132817,-0.91750693,0.06258962,-2.5252879,-0.07742073,1.7143148,0.9534473,0.04,0.04,-9.672952,-1.0467385053634644,1.2013806,0.2368485,-0.08930059522390366,-0.094857745
1075.7833333326837,-0.21594675,-0.9191686,0.0633705,-2.5273976,-0.07838821,1.7161047,0.955538,0.04,0.04,-9.669685,-1.0577211380004883,1.2186025,0.23729339,-0.08945366740226746,-0.09517906
1075.7999999993503,-0.21861759,-0.9208339,0.06415306,-2.5295115,-0.07935772,1.7178986,0.9576332,0.04,0.04,-9.66653,-1.068597674369812,1.2358583,0.23770866,-0.08959746360778809,-0.095488794
1075.816666666017,-0.2212939,-0.9225025,0.06493721,-2.5316305,-0.080329195,1.719696,0.9597326,0.04,0.04,-9.663138,-1.0794767141342163,1.253224,0.23809339,-0.08973082900047302,-0.09578704
1075.8333333326837,-0.22397532,-0.9241743,0.065722845,-2.533753,-0.081302494,1.7214968,0.9618359,0.04,0.04,-9.659963,-1.090304970741272,1.270636,0.23844849,-0.0898594930768013,-0.096074045
1075.8499999993503,-0.22666143,-0.925849,0.066509865,-2.5358796,-0.082277514,1.7233009,0.96394306,0.04,0.04,-9.656432,-1.1011128425598145,1.2881335,0.2387734,-0.08997630327939987,-0.09635068
1075.866666666017,-0.22935212,-0.9275267,0.06729822,-2.5380096,-0.08325416,1.7251081,0.9660537,0.04,0.04,-9.653119,-1.1118882894515991,1.3056773,0.23906873,-0.09008628875017166,-0.096617684
1075.8833333326836,-0.2320469,-0.92920685,0.068087764,-2.5401428,-0.0842323,1.7269177,0.9681677,0.04,0.04,-9.649518,-1.1226040124893188,1.3233178,0.23933284,-0.09018431603908539,-0.096872404
1075.8999999993503,-0.23474547,-0.9308895,0.06887843,-2.5422785,-0.08521182,1.72873,0.9702847,0.04,0.04,-9.646051,-1.1332874298095703,1.3409894,0.23956643,-0.09027509391307831,-0.09711547
1075.916666666017,-0.23744747,-0.9325742,0.06967009,-2.5444174,-0.086192556,1.7305446,0.9724044,0.04,0.04,-9.642361,-1.1439141035079956,1.3587563,0.23976953,-0.09035420417785645,-0.09734464
1075.9333333326836,-0.24015264,-0.9342608,0.07046267,-2.5465586,-0.08717444,1.7323612,0.9745265,0.04,0.04,-9.638816,-1.154521107673645,1.3765466,0.2399425,-0.09042564034461975,-0.09756395
1075.9499999993502,-0.24286067,-0.9359491,0.07125606,-2.548702,-0.08815735,1.7341799,0.9766509,0.04,0.04,-9.63508,-1.1650859117507935,1.394422,0.24008524,-0.0904875248670578,-0.09777156
1075.9666666660169,-0.24557115,-0.93763906,0.07205018,-2.5508478,-0.089141145,1.7360002,0.9787772,0.04,0.04,-9.631399,-1.1755914688110352,1.4123132,0.24019744,-0.09053952991962433,-0.09796855
1075.9833333326835,-0.24828374,-0.93933034,0.07284491,-2.5529957,-0.09012571,1.7378219,0.9809052,0.04,0.04,-9.627622,-1.186050295829773,1.4303182,0.24027927,-0.09058357030153275,-0.09815328
1075.9999999993502,-0.25099817,-0.94102275,0.07364017,-2.5551443,-0.091110945,1.7396449,0.98303443,0.04,0.04,-9.623903,-1.1964678764343262,1.4483236,0.24033189,-0.09062005579471588,-0.098324865
1076.0166666660168,-0.25371405,-0.9427159,0.07443585,-2.557294,-0.09209669,1.7414688,0.985165,0.04,0.04,-9.61996,-1.206830620765686,1.4663781,0.24035358,-0.09064533561468124,-0.09848688
1076.0333333326835,-0.25643113,-0.94440997,0.07523188,-2.5594444,-0.09308284,1.7432935,0.9872963,0.04,0.04,-9.616005,-1.2171167135238647,1.4844898,0.2403453,-0.09066054224967957,-0.09863396
1076.0499999993501,-0.259149,-0.9461046,0.076028146,-2.5615957,-0.09406928,1.745119,0.9894285,0.04,0.04,-9.612096,-1.2273788452148438,1.5026276,0.24030693,-0.09066601097583771,-0.09876989
1076.0666666660168,-0.26186728,-0.9477995,0.07682453,-2.5637474,-0.09505588,1.7469445,0.991561,0.04,0.04,-9.608034,-1.237563967704773,1.5208459,0.24023648,-0.09066067636013031,-0.098893024
1076.0833333326834,-0.26458564,-0.9494945,0.07762096,-2.5658991,-0.0960425,1.7487701,0.99369353,0.04,0.04,-9.604036,-1.2477244138717651,1.5390543,0.24013759,-0.09064734727144241,-0.09900574
1076.09999999935,-0.26730388,-0.95118916,0.078417316,-2.5680504,-0.09702907,1.7505957,0.9958259,0.04,0.04,-9.59995,-1.2578028440475464,1.5573524,0.24000908,-0.0906258299946785,-0.09910609
1076.1166666660167,-0.27002162,-0.9528836,0.079213515,-2.5702016,-0.098015465,1.752421,0.9979579,0.04,0.04,-9.595777,-1.26783287525177,1.5755907,0.23985007,-0.0905923992395401,-0.09919533
1076.1333333326834,-0.27273852,-0.9545775,0.080009475,-2.5723524,-0.09900154,1.7542458,1.0000892,0.04,0.04,-9.591634,-1.2777687311172485,1.5939567,0.23966101,-0.09055087715387344,-0.099269964
1076.14999999935,-0.2754542,-0.9562706,0.08080508,-2.5745022,-0.09998718,1.7560695,1.0022194,0.04,0.04,-9.58749,-1.2876863479614258,1.6122872,0.23944247,-0.09050176292657852,-0.09933276
1076.1666666660167,-0.27816838,-0.9579628,0.08160021,-2.5766516,-0.10097224,1.7578923,1.0043485,0.04,0.04,-9.583222,-1.2975003719329834,1.6306901,0.23919435,-0.09044405072927475,-0.099381894
1076.1833333326833,-0.28088066,-0.95965385,0.08239481,-2.5787983,-0.10195664,1.7597138,1.0064762,0.04,0.04,-9.5790415,-1.3072917461395264,1.6490822,0.23891713,-0.0903802365064621,-0.09941776
1076.19999999935,-0.2835908,-0.96134365,0.08318876,-2.5809436,-0.102940194,1.7615339,1.0086019,0.04,0.04,-9.57454,-1.3169612884521484,1.6674811,0.23860975,-0.09030172973871231,-0.09944112
1076.2166666660166,-0.28629836,-0.9630318,0.08398196,-2.5830867,-0.103922844,1.7633522,1.0107256,0.04,0.04,-9.570175,-1.3266195058822632,1.6858884,0.23827372,-0.09021329134702682,-0.09945311
1076.2333333326833,-0.28900304,-0.9647183,0.0847743,-2.5852284,-0.10490444,1.7651685,1.0128474,0.04,0.04,-9.565756,-1.3361560106277466,1.7043657,0.23790832,-0.09011654555797577,-0.09945105
1076.24999999935,-0.29170462,-0.9664027,0.08556572,-2.5873668,-0.10588489,1.7669829,1.0149667,0.04,0.04,-9.561447,-1.3457014560699463,1.7228224,0.23751274,-0.09001476317644119,-0.09943765
1076.2666666660166,-0.2944026,-0.96808475,0.08635611,-2.5895026,-0.10686406,1.7687949,1.0170828,0.04,0.04,-9.556838,-1.3551135063171387,1.7412541,0.23708741,-0.0898989662528038,-0.09941238
1076.2833333326832,-0.2970967,-0.9697646,0.08714535,-2.5916357,-0.1078418,1.7706043,1.0191963,0.04,0.04,-9.552327,-1.364448070526123,1.7597474,0.23663609,-0.08977562189102173,-0.09937394
1076.29999999935,-0.2997867,-0.97144175,0.08793336,-2.5937645,-0.108818024,1.7724109,1.0213063,0.04,0.04,-9.547806,-1.3737525939941406,1.7782025,0.23615369,-0.08964399993419647,-0.09932139
1076.3166666660165,-0.3024721,-0.97311604,0.08872004,-2.5958908,-0.109792605,1.7742143,1.023413,0.04,0.04,-9.543079,-1.382913589477539,1.7966738,0.2356426,-0.08949838578701019,-0.09925729
1076.3333333326832,-0.30515268,-0.9747875,0.089505285,-2.598013,-0.110765435,1.7760146,1.0255157,0.04,0.04,-9.538609,-1.3921033143997192,1.815142,0.23510323,-0.08935028314590454,-0.09917964
1076.3499999993498,-0.3078281,-0.9764555,0.09028905,-2.6001308,-0.1117364,1.7778112,1.0276145,0.04,0.04,-9.533901,-1.4011154174804688,1.833634,0.23453577,-0.08919104933738708,-0.09908964
1076.3666666660165,-0.3104981,-0.97812027,0.09107118,-2.6022437,-0.112705365,1.7796042,1.0297091,0.04,0.04,-9.529175,-1.4101258516311646,1.8520442,0.23393938,-0.08902200311422348,-0.09898674
1076.3833333326832,-0.31316227,-0.9797813,0.09185161,-2.6043527,-0.1136722,1.7813932,1.031799,0.04,0.04,-9.524353,-1.418959140777588,1.8705013,0.2333136,-0.08883997052907944,-0.09886678
1076.3999999993498,-0.31582025,-0.9814385,0.09263022,-2.6064572,-0.11463675,1.7831781,1.0338842,0.04,0.04,-9.519712,-1.4278219938278198,1.8889332,0.23266108,-0.08865360915660858,-0.09873275
1076.4166666660165,-0.31847173,-0.9830918,0.09340694,-2.6085565,-0.11559895,1.7849586,1.0359641,0.04,0.04,-9.514939,-1.4365437030792236,1.9073719,0.23198059,-0.0884590670466423,-0.09858689
1076.433333332683,-0.32111645,-0.9847408,0.09418168,-2.61065,-0.11655871,1.7867347,1.0380386,0.04,0.04,-9.510095,-1.4452672004699707,1.9257287,0.23127314,-0.08825471252202988,-0.09843141
1076.4499999993498,-0.3237541,-0.9863853,0.09495431,-2.6127374,-0.117515884,1.7885064,1.0401077,0.04,0.04,-9.505198,-1.4537992477416992,1.9441247,0.23053885,-0.08803952485322952,-0.09826421
1076.4666666660164,-0.3263843,-0.9880251,0.09572478,-2.6148193,-0.11847036,1.7902726,1.042171,0.04,0.04,-9.500291,-1.4623448848724365,1.9624249,0.22977614,-0.08781373500823975,-0.098083645
1076.483333332683,-0.32900694,-0.9896601,0.096492946,-2.6168957,-0.11942202,1.7920338,1.0442282,0.04,0.04,-9.495385,-1.4707156419754028,1.9807888,0.22898676,-0.08758032321929932,-0.097889654
1076.4999999993497,-0.3316213,-0.9912903,0.09725875,-2.618965,-0.12037075,1.7937895,1.0462791,0.04,0.04,-9.49058,-1.4790982007980347,1.999061,0.22817007,-0.0873420313000679,-0.09768186
1076.5166666660164,-0.33422735,-0.99291515,0.09802211,-2.6210277,-0.1213165,1.7955396,1.0483233,0.04,0.04,-9.485495,-1.4873617887496948,2.0173192,0.22732641,-0.08709042519330978,-0.09746314
1076.533333332683,-0.33682474,-0.99453455,0.09878291,-2.6230836,-0.12225905,1.7972839,1.0503606,0.04,0.04,-9.480548,-1.495474934577942,2.0355647,0.22645804,-0.08683109283447266,-0.09723004
1076.5499999993497,-0.33941317,-0.99614835,0.099541076,-2.625132,-0.12319829,1.7990223,1.0523907,0.04,0.04,-9.475521,-1.5036017894744873,2.0537171,0.22556295,-0.08656198531389236,-0.096982464
1076.5666666660163,-0.34199226,-0.9977562,0.100296505,-2.6271732,-0.1241342,1.8007544,1.0544137,0.04,0.04,-9.470494,-1.511565089225769,2.0718849,0.22464192,-0.08628376573324203,-0.09672533
1076.583333332683,-0.34456164,-0.99935806,0.101049155,-2.6292067,-0.12506661,1.8024801,1.0564291,0.04,0.04,-9.465408,-1.5195369720458984,2.0899515,0.22369488,-0.08599618822336197,-0.096454486
1076.5999999993496,-0.3471213,-1.000954,0.10179886,-2.6312325,-0.12599547,1.804199,1.0584368,0.04,0.04,-9.460404,-1.5273196697235107,2.1080523,0.22272326,-0.08570142090320587,-0.09617026
1076.6166666660163,-0.34967065,-1.0025437,0.10254557,-2.6332505,-0.12692055,1.8059112,1.0604365,0.04,0.04,-9.455264,-1.5350978374481201,2.1260335,0.22172487,-0.08539704978466034,-0.09587322
1076.633333332683,-0.35220942,-1.0041262,0.103289194,-2.63526,-0.12784186,1.8076162,1.0624281,0.04,0.04,-9.4502325,-1.5427085161209106,2.1440506,0.22070158,-0.08508487045764923,-0.09556356
1076.6499999993496,-0.35473743,-1.0057021,0.10402964,-2.6372612,-0.12875924,1.8093139,1.0644112,0.04,0.04,-9.445105,-1.5503665208816528,2.1618776,0.2196534,-0.08476579189300537,-0.09524064
1076.6666666660162,-0.3572542,-1.0072713,0.10476681,-2.6392536,-0.12967251,1.811004,1.0663855,0.04,0.04,-9.440014,-1.5577750205993652,2.1797667,0.2185806,-0.08443975448608398,-0.09490457
1076.6833333326829,-0.35975963,-1.0088333,0.10550066,-2.6412368,-0.13058168,1.8126867,1.0683508,0.04,0.04,-9.434835,-1.5652165412902832,2.1975338,0.21748331,-0.08410365879535675,-0.09455033
1076.6999999993495,-0.3622534,-1.0103879,0.106231056,-2.6432106,-0.13148652,1.8143613,1.0703068,0.039999988,0.04,-9.429693,-1.572485327720642,2.2152805,0.21636316,-0.08375944942235947,-0.094187506
1076.7166666660162,-0.36473516,-1.011935,0.10695794,-2.6451755,-0.13238704,1.8160278,1.0722537,0.03999997,0.04,-9.424475,-1.5797888040542603,2.2328947,0.21521872,-0.08340717107057571,-0.09381445
1076.7333333326828,-0.36720467,-1.0134742,0.10768124,-2.6471305,-0.13328318,1.8176862,1.0741907,0.039999966,0.04,-9.419387,-1.5868580341339111,2.2505348,0.21404944,-0.08304979652166367,-0.093427666
1076.7499999993495,-0.36966148,-1.0150057,0.10840083,-2.649075,-0.13417472,1.819336,1.0761179,0.039999954,0.04,-9.414166,-1.5939967632293701,2.268006,0.21285856,-0.0826840028166771,-0.0930292
1076.7666666660161,-0.37210545,-1.0165294,0.10911665,-2.6510098,-0.13506164,1.8209773,1.0780354,0.039999947,0.04,-9.408865,-1.6009572744369507,2.2854302,0.21164474,-0.08230698108673096,-0.09261843
1076.7833333326828,-0.37453628,-1.0180452,0.1098286,-2.6529343,-0.13594377,1.8226099,1.0799421,0.03999994,0.04,-9.403747,-1.6077567338943481,2.3028772,0.21040611,-0.08192399144172668,-0.0921958
1076.7999999993494,-0.3769537,-1.0195525,0.11053663,-2.6548474,-0.13682108,1.8242333,1.0818383,0.039999936,0.04,-9.3984785,-1.6146131753921509,2.320139,0.20914656,-0.08153147995471954,-0.091760084
1076.816666666016,-0.3793575,-1.021051,0.111240625,-2.6567504,-0.13769339,1.8258475,1.0837237,0.03999992,0.04,-9.39318,-1.6212319135665894,2.3373723,0.20786479,-0.08112731575965881,-0.09131326
1076.8333333326827,-0.38174728,-1.0225412,0.111940525,-2.6586418,-0.13856068,1.8274525,1.0855982,0.039999913,0.04,-9.38806,-1.6279406547546387,2.354487,0.20656191,-0.08072187006473541,-0.09085329
1076.8499999993494,-0.3841228,-1.024022,0.11263626,-2.6605222,-0.13942279,1.8290478,1.0874614,0.0399999,0.04,-9.382755,-1.6343613862991333,2.371566,0.20523588,-0.08030258119106293,-0.090381116
1076.866666666016,-0.38648382,-1.0254941,0.11332776,-2.662391,-0.1402796,1.8306333,1.0893133,0.039999884,0.04,-9.37755,-1.6409187316894531,2.3884895,0.20389129,-0.07988019287586212,-0.0898979
1076.8833333326827,-0.38883007,-1.0269569,0.114014894,-2.6642485,-0.14113112,1.8322088,1.0911536,0.03999986,0.04,-9.372306,-1.6471463441848755,2.4054046,0.20252399,-0.07944697141647339,-0.08939704
1076.8999999993493,-0.39116126,-1.0284108,0.11469763,-2.6660933,-0.14197719,1.8337746,1.0929824,0.039999843,0.04,-9.367092,-1.6535141468048096,2.4221706,0.20113616,-0.07900985330343246,-0.08888648
1076.916666666016,-0.39347726,-1.0298543,0.11537589,-2.6679256,-0.14281774,1.8353295,1.0947989,0.03999983,0.04,-9.361784,-1.659604787826538,2.4388812,0.1997264,-0.07855920493602753,-0.08836818
1076.9333333326827,-0.39577758,-1.0312892,0.11604958,-2.6697464,-0.14365265,1.8368745,1.0966034,0.03999982,0.04,-9.356487,-1.6657936573028564,2.455405,0.19829817,-0.07810400426387787,-0.0878385
1076.9499999993493,-0.3980621,-1.032713,0.11671866,-2.6715546,-0.14448182,1.8384086,1.0983955,0.03999981,0.04,-9.351354,-1.6716943979263306,2.472007,0.19684927,-0.07763928174972534,-0.08729573
1076.966666666016,-0.4003306,-1.0341285,0.11738302,-2.6733496,-0.14530516,1.8399315,1.1001749,0.0399998,0.04,-9.346142,-1.6777474880218506,2.488315,0.19538184,-0.07717329263687134,-0.08674323
1076.9833333326826,-0.40258273,-1.035533,0.1180426,-2.6751323,-0.14612263,1.8414431,1.1019416,0.03999979,0.04,-9.340812,-1.6834288835525513,2.50471,0.19389415,-0.07669282704591751,-0.08617905
1076.9999999993493,-0.40481836,-1.0369265,0.11869738,-2.676902,-0.1469341,1.842944,1.1036954,0.039999783,0.04,-9.33566,-1.6893045902252197,2.5208354,0.19238855,-0.07621213793754578,-0.085602745
1077.016666666016,-0.40703723,-1.0383093,0.11934722,-2.6786582,-0.1477395,1.8444351,1.105436,0.039999764,0.04,-9.33057,-1.6949883699417114,2.5368907,0.1908653,-0.07572726160287857,-0.08501286
1077.0333333326826,-0.40923917,-1.0396824,0.11999204,-2.680401,-0.14853865,1.8459136,1.1071631,0.039999757,0.04,-9.325393,-1.7004979848861694,2.5528471,0.18932417,-0.07522977888584137,-0.08441596
1077.0499999993492,-0.41142377,-1.0410448,0.12063182,-2.6821299,-0.1493316,1.8473805,1.1088766,0.03999975,0.04,-9.320098,-1.7060400247573853,2.5687108,0.18776438,-0.07472638785839081,-0.08380801
1077.0666666660159,-0.41359088,-1.0423961,0.1212665,-2.683845,-0.15011813,1.8488356,1.1105765,0.039999723,0.04,-9.314932,-1.711306095123291,2.5844822,0.18618739,-0.07421213388442993,-0.08317983
1077.0833333326825,-0.41574043,-1.043736,0.12189594,-2.685546,-0.15089826,1.850279,1.1122626,0.039999705,0.04,-9.30979,-1.7167917490005493,2.6000838,0.18459395,-0.07369664311408997,-0.08254917
1077.0999999993492,-0.417872,-1.0450649,0.12252015,-2.6872327,-0.15167192,1.8517107,1.1139345,0.03999969,0.04,-9.304675,-1.721940040588379,2.615582,0.18298267,-0.0731733962893486,-0.08190999
1077.1166666660158,-0.41998538,-1.0463825,0.12313906,-2.688905,-0.15243903,1.8531301,1.1155921,0.03999968,0.04,-9.299516,-1.727190375328064,2.6309576,0.18135568,-0.07264342159032822,-0.08125926
1077.1333333326825,-0.4220803,-1.0476888,0.123752594,-2.6905642,-0.15319945,1.854537,1.1172353,0.039999664,0.04,-9.294422,-1.7321761846542358,2.6462483,0.17971386,-0.07210548967123032,-0.08059901
1077.1499999993491,-0.42415684,-1.0489835,0.12436065,-2.692208,-0.1539532,1.8559316,1.118864,0.039999656,0.04,-9.289454,-1.737297534942627,2.6614108,0.17805769,-0.07156794518232346,-0.07992688
1077.1666666660158,-0.42621452,-1.0502664,0.12496323,-2.6938362,-0.15470006,1.8573133,1.1204782,0.039999645,0.04,-9.28439,-1.7420896291732788,2.6764228,0.17638443,-0.07102193683385849,-0.07924532
1077.1833333326824,-0.4282532,-1.0515372,0.12556022,-2.6954489,-0.15544006,1.8586824,1.1220772,0.039999634,0.04,-9.279169,-1.7470390796661377,2.6912506,0.174696,-0.07046829164028168,-0.078557
1077.199999999349,-0.43027276,-1.0527961,0.12615162,-2.697046,-0.15617315,1.8600385,1.1236613,0.039999623,0.04,-9.274165,-1.7516860961914062,2.706011,0.17299315,-0.06990722566843033,-0.077859074
1077.2166666660157,-0.43227297,-1.054043,0.12673736,-2.6986284,-0.15689921,1.8613818,1.1252304,0.039999615,0.04,-9.269011,-1.7564536333084106,2.7205927,0.17127633,-0.06933759152889252,-0.07715106
1077.2333333326824,-0.4342536,-1.0552777,0.12731737,-2.7001958,-0.15761815,1.8627115,1.1267842,0.039999608,0.04,-9.264206,-1.760922908782959,2.73515,0.16954437,-0.06876427680253983,-0.07642692
1077.249999999349,-0.4362145,-1.0565001,0.1278916,-2.7017477,-0.15832986,1.8640285,1.1283222,0.039999586,0.04,-9.259257,-1.765543818473816,2.7494972,0.16780034,-0.06818880885839462,-0.07569059
1077.2666666660157,-0.43815547,-1.0577102,0.12846006,-2.7032843,-0.15903437,1.8653319,1.1298447,0.03999957,0.04,-9.254303,-1.770041823387146,2.7637062,0.16604427,-0.06760900467634201,-0.07495726
1077.2833333326823,-0.44007632,-1.0589077,0.1290225,-2.7048051,-0.15973163,1.8666219,1.1313517,0.03999956,0.04,-9.249547,-1.7742959260940552,2.7778542,0.1642761,-0.06702549010515213,-0.074212216
1077.299999999349,-0.4419769,-1.0600926,0.12957904,-2.70631,-0.16042155,1.8678982,1.1328428,0.039999552,0.04,-9.244622,-1.7786859273910522,2.7917545,0.16249403,-0.06643766164779663,-0.07345887
1077.3166666660156,-0.44385707,-1.0612645,0.1301296,-2.7077978,-0.16110401,1.8691608,1.1343178,0.039999533,0.04,-9.239883,-1.7827845811843872,2.805577,0.16070113,-0.06584537774324417,-0.07269369
1077.3333333326823,-0.4457167,-1.0624236,0.13067414,-2.709269,-0.16177908,1.8704094,1.1357772,0.039999522,0.04,-9.234845,-1.7870436906814575,2.8191504,0.15889569,-0.06524480879306793,-0.07192499
1077.349999999349,-0.44755545,-1.0635701,0.13121256,-2.7107246,-0.16244659,1.8716443,1.1372191,0.039999515,0.04,-9.230166,-1.7909810543060303,2.8327045,0.15707704,-0.06464051455259323,-0.071146384
1077.3666666660156,-0.44937333,-1.0647032,0.13174489,-2.7121634,-0.16310649,1.8728651,1.1386442,0.03999951,0.04,-9.225351,-1.795090913772583,2.846048,0.15525432,-0.06403089314699173,-0.07036073
1077.3833333326822,-0.45117018,-1.0658233,0.13227102,-2.7135851,-0.1637587,1.8740715,1.1400537,0.0399995,0.04,-9.220776,-1.7988998889923096,2.8592978,0.15342288,-0.06341872364282608,-0.069565095
1077.399999999349,-0.45294577,-1.0669304,0.13279095,-2.7149904,-0.16440322,1.8752639,1.1414466,0.03999947,0.04,-9.215915,-1.8028444051742554,2.8723156,0.151577,-0.06280142813920975,-0.06876461
1077.4166666660155,-0.45470008,-1.0680242,0.13330466,-2.7163792,-0.16504005,1.876442,1.1428226,0.039999455,0.04,-9.211363,-1.8064954280853271,2.8852768,0.14972244,-0.06217719614505768,-0.067954205
1077.4333333326822,-0.45643285,-1.0691047,0.13381205,-2.7177508,-0.16566908,1.8776056,1.1441821,0.039999444,0.04,-9.206754,-1.810316562652588,2.8980312,0.14785987,-0.06155340000987053,-0.067136616
1077.4499999993488,-0.45814407,-1.0701716,0.13431315,-2.7191052,-0.1662903,1.8787546,1.1455243,0.039999437,0.04,-9.202216,-1.813843011856079,2.9106739,0.14598702,-0.06092383712530136,-0.0663151
1077.4666666660155,-0.4598336,-1.0712249,0.13480787,-2.7204425,-0.16690357,1.8798891,1.1468496,0.039999425,0.04,-9.197618,-1.8175216913223267,2.923104,0.14410852,-0.06029190123081207,-0.065486416
1077.4833333326822,-0.46150124,-1.0722646,0.13529618,-2.721763,-0.16750893,1.881009,1.1481575,0.03999941,0.04,-9.193204,-1.8209049701690674,2.9354286,0.14222038,-0.059656139463186264,-0.06465208
1077.4999999993488,-0.463147,-1.0732906,0.13577804,-2.7230654,-0.16810636,1.8821142,1.1494484,0.0399994,0.04,-9.188695,-1.8244589567184448,2.9475436,0.14032803,-0.05901849642395973,-0.06381209
1077.5166666660155,-0.46477067,-1.0743029,0.13625342,-2.7243505,-0.16869578,1.8832045,1.150722,0.039999392,0.04,-9.184234,-1.8277958631515503,2.9595144,0.13842636,-0.058375149965286255,-0.062965035
1077.533333332682,-0.46637213,-1.0753013,0.13672236,-2.725618,-0.16927713,1.8842797,1.151978,0.039999373,0.04,-9.17995,-1.8309837579727173,2.971396,0.13651899,-0.05772963538765907,-0.06211414
1077.5499999993488,-0.4679513,-1.076286,0.13718478,-2.7268672,-0.16985045,1.8853401,1.153217,0.03999937,0.04,-9.175533,-1.8343260288238525,2.9830232,0.13460729,-0.05708137899637222,-0.061255664
1077.5666666660154,-0.46950814,-1.0772567,0.13764067,-2.7280993,-0.17041564,1.8863856,1.1544381,0.039999362,0.04,-9.171262,-1.8373759984970093,2.9945707,0.13268788,-0.05642784759402275,-0.0603948
1077.583333332682,-0.47104257,-1.0782132,0.13808997,-2.7293139,-0.17097266,1.887416,1.1556416,0.03999936,0.04,-9.166979,-1.8405990600585938,3.0058923,0.13076463,-0.0557733029127121,-0.059527494
1077.5999999993487,-0.4725545,-1.0791559,0.13853262,-2.7305105,-0.1715215,1.8884307,1.1568273,0.039999343,0.04,-9.162911,-1.8434926271438599,3.0171158,0.12883769,-0.055115580558776855,-0.058649402
1077.6166666660154,-0.47404385,-1.0800843,0.1389687,-2.7316887,-0.17206214,1.8894308,1.1579956,0.03999933,0.04,-9.158658,-1.846574306488037,3.0281336,0.12690651,-0.054458241909742355,-0.05776811
1077.633333332682,-0.4755106,-1.0809987,0.13939817,-2.7328494,-0.17259456,1.8904157,1.159146,0.039999317,0.04,-9.154607,-1.8494055271148682,3.038991,0.12497116,-0.05379638448357582,-0.05688696
1077.6499999993487,-0.4769545,-1.0818989,0.13982093,-2.7339919,-0.17311871,1.8913853,1.1602786,0.03999931,0.04,-9.150471,-1.852370023727417,3.0496733,0.123032846,-0.053133200854063034,-0.056002498
1077.6666666660153,-0.47837567,-1.082785,0.14023705,-2.7351165,-0.17363457,1.8923397,1.1613932,0.039999306,0.04,-9.146524,-1.8550355434417725,3.0602326,0.12109159,-0.052466537803411484,-0.055113375
1077.683333332682,-0.47977394,-1.0836569,0.14064649,-2.7362232,-0.17414217,1.8932787,1.1624898,0.039999295,0.04,-9.142516,-1.8578928709030151,3.070595,0.11914905,-0.051800575107336044,-0.054220963
1077.6999999993486,-0.4811494,-1.0845146,0.14104918,-2.7373114,-0.17464145,1.8942022,1.1635685,0.039999273,0.04,-9.1387005,-1.8604648113250732,3.0808382,0.11720571,-0.05113272741436958,-0.05332678
1077.7166666660153,-0.4825019,-1.0853581,0.14144523,-2.7383816,-0.17513244,1.8951105,1.1646293,0.03999927,0.04,-9.134652,-1.8631844520568848,3.0908194,0.115259774,-0.05046171322464943,-0.052430052
1077.733333332682,-0.4838314,-1.0861871,0.14183456,-2.7394338,-0.17561504,1.8960031,1.1656722,0.039999265,0.04,-9.130987,-1.865630865097046,3.1007574,0.1133135,-0.04978994280099869,-0.051530506
1077.7499999993486,-0.48513797,-1.0870016,0.14221713,-2.740468,-0.17608936,1.8968804,1.166697,0.039999254,0.04,-9.127167,-1.8682767152786255,3.1104326,0.111367434,-0.049120645970106125,-0.050629098
1077.7666666660152,-0.48642153,-1.0878018,0.1425929,-2.7414837,-0.17655529,1.8977424,1.1677037,0.03999925,0.04,-9.123483,-1.8707153797149658,3.1199596,0.10942179,-0.04845098778605461,-0.049724013
1077.7833333326819,-0.4876821,-1.0885879,0.14296195,-2.7424817,-0.1770129,1.8985888,1.1686924,0.039999243,0.04,-9.119863,-1.8729956150054932,3.1293552,0.10747647,-0.047778453677892685,-0.048819598
1077.7999999993485,-0.48891965,-1.0893598,0.14332432,-2.7434604,-0.17746215,1.8994197,1.1696633,0.03999923,0.04,-9.116264,-1.8754528760910034,3.138564,0.10553309,-0.0471089668571949,-0.04791123
1077.8166666660152,-0.49013406,-1.090117,0.14367992,-2.7444217,-0.17790301,1.9002353,1.170616,0.039999217,0.04,-9.112621,-1.8775984048843384,3.1475773,0.10358849,-0.04643193632364273,-0.047000494
1077.8333333326818,-0.49132547,-1.09086,0.14402877,-2.7453642,-0.17833549,1.9010354,1.1715508,0.039999206,0.04,-9.109163,-1.8799679279327393,3.1564498,0.101648554,-0.04575973004102707,-0.046086345
1077.8499999993485,-0.49249393,-1.0915884,0.14437088,-2.7462895,-0.17875968,1.9018202,1.1724674,0.0399992,0.04,-9.105725,-1.8820466995239258,3.1651669,0.099710666,-0.04508472979068756,-0.045176305
1077.8666666660151,-0.49363947,-1.0923026,0.14470625,-2.747196,-0.17917557,1.9025894,1.1733658,0.03999918,0.04,-9.102386,-1.884314775466919,3.1736817,0.097777046,-0.04441606253385544,-0.0442637
1077.8833333326818,-0.4947621,-1.0930026,0.1450349,-2.7480845,-0.17958309,1.9033433,1.1742462,0.039999172,0.04,-9.099071,-1.8862749338150024,3.1820695,0.095847316,-0.04374486953020096,-0.043352794
1077.8999999993484,-0.4958616,-1.093688,0.14535683,-2.7489545,-0.17998223,1.9040816,1.1751086,0.039999165,0.04,-9.095737,-1.8884222507476807,3.1902344,0.09392212,-0.0430757962167263,-0.04243965
1077.916666666015,-0.4969382,-1.0943596,0.14567208,-2.7498064,-0.18037307,1.9048045,1.175953,0.039999157,0.04,-9.092539,-1.8903242349624634,3.1982877,0.09200226,-0.042406801134347916,-0.04153105
1077.9333333326817,-0.497992,-1.0950167,0.14598066,-2.750641,-0.18075563,1.9055121,1.1767795,0.039999146,0.04,-9.089243,-1.8923695087432861,3.2061148,0.090087034,-0.041737888008356094,-0.040622436
1077.9499999993484,-0.499023,-1.0956597,0.14628255,-2.7514565,-0.18112992,1.9062043,1.1775883,0.039999142,0.04,-9.086383,-1.8941677808761597,3.2138832,0.08817911,-0.041075270622968674,-0.039713122
1077.966666666015,-0.50003123,-1.0962884,0.14657773,-2.7522552,-0.18149595,1.9068812,1.1783793,0.03999913,0.04,-9.083038,-1.8961235284805298,3.2213063,0.08627554,-0.040408018976449966,-0.03880654
1077.9833333326817,-0.5010168,-1.0969031,0.14686632,-2.7530344,-0.18185383,1.9075428,1.1791525,0.039999124,0.04,-9.080334,-1.897841215133667,3.2287612,0.08437995,-0.0397503525018692,-0.037902236
1077.9999999993483,-0.5019798,-1.0975038,0.1471483,-2.7537966,-0.18220347,1.9081894,1.1799078,0.03999912,0.04,-9.077085,-1.89969003200531,3.2358508,0.08249124,-0.039086923003196716,-0.036998
1078.016666666015,-0.5029203,-1.0980904,0.14742364,-2.7545412,-0.18254493,1.9088211,1.1806453,0.039999116,0.04,-9.074259,-1.9014275074005127,3.242912,0.08061132,-0.03842858597636223,-0.036098525
1078.0333333326817,-0.50383836,-1.0986629,0.1476924,-2.7552674,-0.18287818,1.9094379,1.1813653,0.039999112,0.04,-9.071583,-1.902989149093628,3.2498114,0.07874112,-0.037772879004478455,-0.03519978
1078.0499999993483,-0.5047342,-1.0992216,0.14795466,-2.7559767,-0.18320335,1.9100392,1.1820678,0.03999911,0.04,-9.068643,-1.9047465324401855,3.2564425,0.07687943,-0.037118155509233475,-0.03430644
1078.066666666015,-0.5056078,-1.0997663,0.14821038,-2.7566674,-0.18352044,1.9106257,1.1827527,0.039999105,0.04,-9.066098,-1.906221866607666,3.2630444,0.07502716,-0.036470137536525726,-0.033414282
1078.0833333326816,-0.50645906,-1.1002971,0.14845961,-2.7573411,-0.18382947,1.9111973,1.1834203,0.0399991,0.04,-9.063228,-1.9078799486160278,3.2693286,0.07318545,-0.03582082688808441,-0.032524504
1078.0999999993483,-0.50728834,-1.1008141,0.14870246,-2.7579975,-0.18413046,1.9117543,1.1840705,0.039999086,0.04,-9.060803,-1.9092937707901,3.2755868,0.07135607,-0.03517751768231392,-0.03163597
1078.116666666015,-0.50809574,-1.1013178,0.1489389,-2.7586365,-0.1844236,1.9122963,1.184704,0.03999907,0.04,-9.058139,-1.9109137058258057,3.2816,0.06953889,-0.03453846275806427,-0.030757086
1078.1333333326816,-0.5088814,-1.1018077,0.14916892,-2.759258,-0.1847088,1.9128234,1.1853201,0.039999064,0.04,-9.055731,-1.912227749824524,3.2875156,0.06773202,-0.033902477473020554,-0.029880226
1078.1499999993482,-0.5096454,-1.1022843,0.14939259,-2.7598627,-0.18498619,1.9133364,1.1859193,0.039999053,0.04,-9.053184,-1.9137367010116577,3.2932012,0.065937765,-0.03327149525284767,-0.029008653
1078.1666666660149,-0.5103878,-1.1027472,0.14961004,-2.76045,-0.18525575,1.9138348,1.186502,0.039999045,0.04,-9.050902,-1.9150142669677734,3.298785,0.06415816,-0.03264376521110535,-0.028144823
1078.1833333326815,-0.5111091,-1.103197,0.14982128,-2.7610204,-0.18551758,1.9143192,1.1870676,0.039999045,0.04,-9.048449,-1.9164670705795288,3.3041396,0.0623911,-0.032020896673202515,-0.027285928
1078.1999999993482,-0.51180923,-1.1036336,0.15002623,-2.7615745,-0.18577175,1.9147894,1.1876171,0.039999038,0.04,-9.046288,-1.9176511764526367,3.3094242,0.06063944,-0.03140239045023918,-0.026433825
1078.2166666660148,-0.5124884,-1.104057,0.15022507,-2.7621121,-0.18601833,1.9152455,1.1881496,0.039999034,0.04,-9.043988,-1.919021487236023,3.3144872,0.058901068,-0.030788686126470566,-0.02558857
1078.2333333326815,-0.5131469,-1.1044673,0.15041783,-2.7626328,-0.18625732,1.9156877,1.188666,0.039999027,0.04,-9.041981,-1.92014741897583,3.3194551,0.057181593,-0.03018282726407051,-0.024748009
1078.2499999993481,-0.5137847,-1.1048653,0.15060459,-2.7631373,-0.18648884,1.9161159,1.1891662,0.039999023,0.04,-9.039698,-1.9214485883712769,3.3241744,0.055476274,-0.02958012744784355,-0.023916287
1078.2666666660148,-0.51440215,-1.1052504,0.15078537,-2.7636263,-0.18671292,1.9165305,1.1896504,0.039999016,0.04,-9.037627,-1.922606348991394,3.3288345,0.05378773,-0.028981700539588928,-0.023092216
1078.2833333326814,-0.51499945,-1.105623,0.1509602,-2.764099,-0.18692967,1.9169317,1.1901188,0.039999016,0.04,-9.035835,-1.9236571788787842,3.33336,0.05211798,-0.028393246233463287,-0.022273775
1078.299999999348,-0.5155766,-1.1059831,0.15112922,-2.7645557,-0.18713924,1.9173192,1.1905714,0.039999012,0.04,-9.03369,-1.92483389377594,3.3376338,0.050464623,-0.02780664898455143,-0.021464922
1078.3166666660147,-0.516134,-1.1063308,0.15129243,-2.7649972,-0.18734156,1.9176935,1.1910086,0.039999012,0.04,-9.031917,-1.9258253574371338,3.341859,0.048832018,-0.027228564023971558,-0.020663649
1078.3333333326814,-0.51667184,-1.1066662,0.15144989,-2.7654226,-0.18753673,1.9180547,1.1914304,0.03999901,0.04,-9.030057,-1.9269896745681763,3.3458767,0.047219366,-0.026659151539206505,-0.019871952
1078.349999999348,-0.5171903,-1.1069899,0.15160172,-2.7658324,-0.18772492,1.9184029,1.1918374,0.03999901,0.04,-9.028237,-1.927894115447998,3.3497539,0.045625754,-0.026093322783708572,-0.019089961
1078.3666666660147,-0.51768976,-1.1073012,0.15174796,-2.7662272,-0.1879062,1.9187384,1.1922294,0.039999,0.04,-9.026351,-1.928982138633728,3.35348,0.04405201,-0.025532592087984085,-0.0183194
1078.3833333326813,-0.5181705,-1.1076009,0.15188868,-2.7666073,-0.18808065,1.919061,1.1926064,0.039999,0.04,-9.024835,-1.9298481941223145,3.3571198,0.042500038,-0.024981992319226265,-0.017556718
1078.399999999348,-0.51863265,-1.107889,0.15202405,-2.7669728,-0.18824838,1.9193712,1.192969,0.039998997,0.04,-9.023072,-1.9308733940124512,3.3605523,0.04097048,-0.0244392529129982,-0.01680527
1078.4166666660146,-0.5190765,-1.108166,0.15215401,-2.7673242,-0.18840945,1.9196694,1.1933169,0.039998993,0.04,-9.021612,-1.9317041635513306,3.363918,0.039464794,-0.02390533685684204,-0.016062938
1078.4333333326813,-0.51950234,-1.1084318,0.1522787,-2.7676616,-0.188564,1.9199554,1.193651,0.039998993,0.04,-9.02001,-1.9326759576797485,3.3671129,0.03798319,-0.023379771038889885,-0.015332102
1078.449999999348,-0.5199104,-1.1086866,0.15239821,-2.7679844,-0.18871212,1.9202293,1.1939712,0.039998986,0.04,-9.0186205,-1.933455467224121,3.3702126,0.036525544,-0.0228632353246212,-0.014613438
1078.4666666660146,-0.5203011,-1.1089303,0.15251262,-2.7682931,-0.1888539,1.9204917,1.1942779,0.039998986,0.04,-9.017009,-1.9343732595443726,3.3730915,0.03509244,-0.02235350012779236,-0.013906214
1078.4833333326812,-0.52067477,-1.1091636,0.15262203,-2.7685888,-0.18898953,1.9207426,1.1945709,0.039998982,0.04,-9.01566,-1.9351043701171875,3.3759036,0.0336838,-0.021851802244782448,-0.013212864
1078.499999999348,-0.52103144,-1.1093863,0.15272653,-2.7688713,-0.18911901,1.9209824,1.1948509,0.039998982,0.04,-9.014238,-1.935980200767517,3.3785598,0.032302756,-0.021359145641326904,-0.012530736
1078.5166666660145,-0.5213718,-1.1095986,0.15282623,-2.7691405,-0.18924253,1.9212109,1.1951178,0.039998982,0.04,-9.012986,-1.9367685317993164,3.3811295,0.030948952,-0.02087845653295517,-0.011861355
1078.5333333326812,-0.521696,-1.1098012,0.15292117,-2.7693973,-0.18936016,1.9214287,1.1953722,0.039998975,0.04,-9.01177,-1.9374369382858276,3.3835714,0.029623644,-0.020407499745488167,-0.011206232
1078.5499999993478,-0.52200454,-1.1099936,0.1530115,-2.7696412,-0.18947208,1.9216357,1.1956141,0.03999897,0.04,-9.010468,-1.9382405281066895,3.3858697,0.02832602,-0.0199455376714468,-0.010564339
1078.5666666660145,-0.5222975,-1.1101768,0.15309736,-2.769873,-0.18957844,1.9218326,1.1958439,0.039998967,0.04,-9.009329,-1.9388762712478638,3.3880396,0.027057616,-0.019493991509079933,-0.009937566
1078.5833333326811,-0.52257544,-1.1103501,0.15317878,-2.7700925,-0.18967931,1.9220191,1.196062,0.039998963,0.04,-9.008089,-1.939646601676941,3.3901274,0.0258192,-0.01905139535665512,-0.009325469
1078.5999999993478,-0.5228386,-1.1105146,0.1532559,-2.770301,-0.18977487,1.9221959,1.1962684,0.039998963,0.04,-9.00705,-1.9402527809143066,3.3920867,0.024611784,-0.018620813265442848,-0.008727349
1078.6166666660145,-0.5230876,-1.11067,0.15332882,-2.7704976,-0.18986522,1.9223632,1.1964638,0.039998963,0.04,-9.005995,-1.9409912824630737,3.3939686,0.023436515,-0.01820315420627594,-0.008143792
1078.633333332681,-0.5233225,-1.1108166,0.15339765,-2.7706845,-0.18995047,1.9225209,1.196648,0.03999896,0.04,-9.004906,-1.941556453704834,3.395669,0.022291226,-0.017792992293834686,-0.007578547
1078.6499999993478,-0.52354395,-1.1109552,0.15346254,-2.7708588,-0.19003083,1.9226695,1.1968217,0.039998956,0.04,-9.004076,-1.9422707557678223,3.3973827,0.021183038,-0.017402777448296547,-0.0070246193
1078.6666666660144,-0.5237523,-1.1110854,0.15352358,-2.771023,-0.19010639,1.9228094,1.1969851,0.039998956,0.04,-9.0028715,-1.9427964687347412,3.3988528,0.02010524,-0.017013953998684883,-0.0064930185
1078.683333332681,-0.5239478,-1.1112078,0.15358089,-2.7711792,-0.1901774,1.9229407,1.1971387,0.039998956,0.04,-9.00194,-1.9434561729431152,3.400293,0.019062463,-0.01663949154317379,-0.0059756646
1078.6999999993477,-0.52413136,-1.1113223,0.15363458,-2.7713237,-0.19024391,1.923064,1.1972824,0.039998952,0.04,-9.001358,-1.9440174102783203,3.401763,0.018056571,-0.016285592690110207,-0.005475029
1078.7166666660144,-0.5243028,-1.1114296,0.15368482,-2.7714581,-0.19030614,1.9231793,1.197417,0.039998952,0.04,-9.000201,-1.944612741470337,3.4028785,0.017084643,-0.015937428921461105,-0.0049935034
1078.733333332681,-0.5244629,-1.1115298,0.15373175,-2.7715843,-0.19036426,1.9232869,1.1975425,0.03999895,0.04,-8.999306,-1.9451322555541992,3.4040682,0.016150108,-0.015598229132592678,-0.004533081
1078.7499999993477,-0.524612,-1.1116232,0.15377544,-2.7717023,-0.19041839,1.9233872,1.1976597,0.03999895,0.04,-8.998505,-1.9457257986068726,3.4051735,0.015253461,-0.01527454238384962,-0.004089226
1078.7666666660143,-0.52475077,-1.1117097,0.1538161,-2.7718124,-0.1904687,1.9234804,1.1977686,0.03999895,0.04,-8.997816,-1.9462707042694092,3.4061954,0.014394926,-0.014967887662351131,-0.0036634011
1078.783333332681,-0.52487946,-1.1117902,0.15385382,-2.771915,-0.1905154,1.9235667,1.1978697,0.039998945,0.04,-8.997211,-1.9467741250991821,3.4071634,0.01357727,-0.0146793182939291,-0.0032569019
1078.7999999993476,-0.5249987,-1.1118648,0.15388876,-2.7720096,-0.19055869,1.9236469,1.1979632,0.039998945,0.04,-8.996436,-1.947336196899414,3.4080079,0.01279984,-0.014405238442122936,-0.0028689064
1078.8166666660143,-0.525109,-1.1119335,0.15392108,-2.7720969,-0.1905987,1.9237211,1.1980499,0.039998945,0.04,-8.995682,-1.947808027267456,3.4087555,0.012062618,-0.014141424559056759,-0.0025027061
1078.833333332681,-0.5252108,-1.1119972,0.15395091,-2.7721765,-0.19063562,1.9237888,1.19813,0.03999894,0.04,-8.994979,-1.9483749866485596,3.4094508,0.011367159,-0.013894796371459961,-0.002157625
1078.8499999993476,-0.5253046,-1.112056,0.15397842,-2.772249,-0.19066964,1.9238523,1.1982034,0.03999894,0.04,-8.994201,-1.9487991333007812,3.4100857,0.010712156,-0.013660280033946037,-0.0018334012
1078.8666666660142,-0.52539104,-1.1121098,0.15400375,-2.7723196,-0.19070098,1.9239107,1.1982715,0.03999894,0.04,-8.993356,-1.9493383169174194,3.4105997,0.010101969,-0.013432529754936695,-0.0015342331
1078.8833333326809,-0.5254706,-1.1121591,0.15402703,-2.772383,-0.19072984,1.9239631,1.1983337,0.03999894,0.04,-8.993329,-1.9498447179794312,3.4113207,0.009538057,-0.013240175321698189,-0.0012500843
1078.8999999993475,-0.52554387,-1.1122046,0.15404841,-2.7724397,-0.19075637,1.9240116,1.1983912,0.039998937,0.04,-8.992489,-1.9503412246704102,3.4117205,0.009018751,-0.01306277234107256,-0.0009889844
1078.9166666660142,-0.5256113,-1.1122464,0.15406823,-2.772494,-0.1907808,1.9240563,1.198444,0.039998937,0.04,-8.991721,-1.9507429599761963,3.4120715,0.008538373,-0.012891184538602829,-0.0007509557
1078.9333333326808,-0.52567333,-1.1122851,0.15408641,-2.7725427,-0.19080324,1.9240972,1.1984925,0.039998937,0.04,-8.991443,-1.9512196779251099,3.4125628,0.0080987755,-0.01274165790528059,-0.0005283311
1078.9499999993475,-0.52573025,-1.112321,0.15410315,-2.772588,-0.19082388,1.9241343,1.198537,0.039998937,0.04,-8.99078,-1.9515531063079834,3.412868,0.0076928656,-0.01259840838611126,-0.00032573295
1078.9666666660141,-0.5257827,-1.1123542,0.15411863,-2.772629,-0.19084293,1.924171,1.198578,0.039998937,0.04,-8.990378,-1.9519360065460205,3.4132478,0.007321103,-0.012469981797039509,-0.00013794894
1078.9833333326808,-0.52583086,-1.1123842,0.1541327,-2.7726684,-0.19086044,1.924204,1.1986157,0.039998937,0.04,-8.989812,-1.9522523880004883,3.4134872,0.0069778827,-0.012337371706962585,2.9406194e-05
1078.9999999993474,-0.5258752,-1.1124122,0.15414579,-2.7727027,-0.19087656,1.9242332,1.1986507,0.039998937,0.04,-8.989689,-1.9525845050811768,3.413854,0.0066641564,-0.01222755666822195,0.00018702989
1079.016666666014,-0.52591604,-1.1124378,0.15415782,-2.7727354,-0.19089133,1.9242618,1.198683,0.039998937,0.04,-8.989081,-1.9528276920318604,3.4140728,0.0063720383,-0.012121619656682014,0.0003315386
1079.0333333326807,-0.5259536,-1.1124613,0.15416884,-2.7727652,-0.19090495,1.9242872,1.1987122,0.039998934,0.04,-8.988895,-1.9530916213989258,3.414334,0.006103805,-0.012022601440548897,0.00046183198
1079.0499999993474,-0.52598816,-1.1124831,0.15417902,-2.7727916,-0.19091752,1.9243108,1.1987395,0.039998934,0.04,-8.988582,-1.9533222913742065,3.4145608,0.0058592865,-0.011934492737054825,0.0005840173
1079.066666666014,-0.52602,-1.1125032,0.15418836,-2.7728167,-0.1909291,1.9243324,1.1987646,0.039998934,0.04,-8.98817,-1.9535081386566162,3.4147365,0.005631381,-0.01184722688049078,0.0006945943
1079.0833333326807,-0.5260492,-1.1125218,0.15419692,-2.7728412,-0.19093975,1.9243528,1.1987873,0.039998934,0.04,-8.988016,-1.9537158012390137,3.4149714,0.005422581,-0.011770794168114662,0.0007977707
1079.0999999993473,-0.5260762,-1.1125388,0.15420486,-2.7728624,-0.19094951,1.9243705,1.1988086,0.039998934,0.04,-8.98797,-1.9539012908935547,3.4152102,0.005232915,-0.011703858152031898,0.0008935844
1079.116666666014,-0.52610093,-1.1125541,0.15421212,-2.7728815,-0.1909585,1.9243879,1.1988281,0.039998934,0.04,-8.987585,-1.9540555477142334,3.4153192,0.0050556934,-0.011640957556664944,0.0009817258
1079.1333333326806,-0.5261237,-1.1125685,0.15421878,-2.772899,-0.19096676,1.9244019,1.1988457,0.039998934,0.04,-8.987349,-1.954220175743103,3.4154174,0.0048930338,-0.011578594334423542,0.0010604014
1079.1499999993473,-0.5261446,-1.1125817,0.15422493,-2.772916,-0.1909744,1.9244158,1.1988626,0.039998934,0.04,-8.987168,-1.9543322324752808,3.415609,0.004744228,-0.011527647264301777,0.0011358829
1079.166666666014,-0.52616394,-1.1125938,0.15423061,-2.7729318,-0.19098137,1.9244295,1.1988777,0.039998934,0.04,-8.987146,-1.954485535621643,3.415757,0.004605982,-0.011481090448796749,0.0012053916
1079.1833333326806,-0.5261818,-1.112605,0.15423582,-2.772946,-0.1909878,1.9244419,1.1988915,0.039998934,0.04,-8.986959,-1.954620122909546,3.4158435,0.004480013,-0.011435039341449738,0.001267544
1079.1999999993473,-0.52619815,-1.1126153,0.1542406,-2.7729588,-0.19099368,1.9244521,1.1989045,0.039998934,0.04,-8.98677,-1.9547038078308105,3.4159389,0.0043636695,-0.011391283944249153,0.0013246972
1079.216666666014,-0.526213,-1.1126249,0.15424499,-2.7729702,-0.1909991,1.9244622,1.1989164,0.039998934,0.04,-8.986645,-1.9548012018203735,3.4160635,0.0042555565,-0.01135576143860817,0.0013789745
1079.2333333326806,-0.52622694,-1.1126336,0.15424909,-2.7729805,-0.19100408,1.9244721,1.1989269,0.039998934,0.04,-8.98646,-1.9549055099487305,3.4161255,0.0041567897,-0.01131786685436964,0.0014266125
1079.2499999993472,-0.5262396,-1.1126415,0.15425284,-2.7729902,-0.1910087,1.9244813,1.1989368,0.039998934,0.04,-8.986311,-1.95498526096344,3.4161806,0.0040668715,-0.011279940605163574,0.0014695643
1079.2666666660139,-0.5262513,-1.112649,0.15425627,-2.773,-0.19101298,1.924489,1.1989461,0.039998934,0.04,-8.986262,-1.9550790786743164,3.4162817,0.0039842892,-0.011246494948863983,0.0015093951
1079.2833333326805,-0.52626204,-1.1126558,0.15425944,-2.7730093,-0.19101685,1.9244953,1.1989548,0.039998934,0.04,-8.986286,-1.9551286697387695,3.416412,0.003907218,-0.01122107170522213,0.001548537
1079.2999999993472,-0.52627224,-1.1126622,0.15426236,-2.7730176,-0.19102041,1.9245017,1.1989627,0.039998934,0.04,-8.731847,-1.87945556640625,3.3519785,0.0,-0.0,0.0
1079.3166666660138,-0.52627224,-1.1126622,0.15426236,-2.7730176,-0.19102041,1.9245017,1.1989627,0.039998934,0.04,-8.985553,-1.9557856321334839,3.4162633,0.0,-0.0,0.0
1079.3333333326805,-0.52627224,-1.1126622,0.15426236,-2.7730176,-0.19102041,1.9245017,1.1989627,0.039998934,0.04,-8.985553,-1.9557856321334839,3.4162633,0.0,-0.0,0.0
1079.3499999993471,-0.52627224,-1.1126622,0.15426236,-2.7730176,-0.19102041,1.9245017,1.1989627,0.039998934,0.04,-8.985553,-1.9557856321334839,3.4162633,0.0,-0.0,0.0
1079.3666666660138,-0.52627224,-1.1126622,0.15426236,-2.7730176,-0.19102041,1.9245017,1.1989627,0.039998934,0.04,-8.985553,-1.9557856321334839,3.4162633,0.0,-0.0,0.0
1079.3833333326804,-0.52627224,-1.1126622,0.15426236,-2.7730176,-0.19102041,1.9245017,1.1989627,0.039998934,0.04,-8.985553,-1.9557856321334839,3.4162633,0.0,-0.0,0.0
1079.399999999347,-0.52627224,-1.1126622,0.15426236,-2.7730176,-0.19102041,1.9245017,1.1989627,0.039998934,0.04,-8.985553,-1.9557856321334839,3.4162633,0.0,-0.0,0.0
1079.4166666660137,-0.52627224,-1.1126622,0.15426236,-2.7730176,-0.19102041,1.9245017,1.1989627,0.039998934,0.04,-8.985553,-1.9557856321334839,3.4162633,0.0,-0.0,0.0
1079.4333333326804,-0.52627224,-1.1126622,0.15426236,-2.7730176,-0.19102041,1.9245017,1.1989627,0.039998934,0.04,-8.985553,-1.9557856321334839,3.4162633,0.0,-0.0,0.0
1079.449999999347,-0.52627224,-1.1126622,0.15426236,-2.7730176,-0.19102041,1.9245017,1.1989627,0.039998934,0.04,-8.985553,-1.9557856321334839,3.4162633,0.0,-0.0,0.0
1079.4666666660137,-0.52627224,-1.1126622,0.15426236,-2.7730176,-0.19102041,1.9245017,1.1989627,0.039998934,0.04,-8.985553,-1.9557856321334839,3.4162633,0.0,-0.0,0.0
1079.4833333326803,-0.52627224,-1.1126622,0.15426236,-2.7730176,-0.19102041,1.9245017,1.1989627,0.039998934,0.04,-8.985553,-1.9557856321334839,3.4162633,0.0,-0.0,0.0
1079.499999999347,-0.52627224,-1.1126622,0.15426236,-2.7730176,-0.19102041,1.9245017,1.1989627,0.039998934,0.04,-8.985553,-1.9557856321334839,3.4162633,0.0,-0.0,0.0
1079.5166666660136,-0.52627224,-1.1126622,0.15426236,-2.7730176,-0.19102041,1.9245017,1.1989627,0.039998934,0.04,-8.985553,-1.9557856321334839,3.4162633,0.0,-0.0,0.0
1079.5333333326803,-0.52627224,-1.1126622,0.15426236,-2.7730176,-0.19102041,1.9245017,1.1989627,0.039998934,0.04,-8.985553,-1.9557856321334839,3.4162633,0.0,-0.0,0.0
1079.549999999347,-0.52627224,-1.1126622,0.15426236,-2.7730176,-0.19102041,1.9245017,1.1989627,0.039998934,0.04,-8.985553,-1.9557856321334839,3.4162633,0.0,-0.0,0.0
1079.5666666660136,-0.52627224,-1.1126622,0.15426236,-2.7730176,-0.19102041,1.9245017,1.1989627,0.039998934,0.04,-8.985553,-1.9557856321334839,3.4162633,0.0,-0.0,0.0
1079.5833333326802,-0.52627224,-1.1126622,0.15426236,-2.7730176,-0.19102041,1.9245017,1.1989627,0.039998934,0.04,-8.985553,-1.9557856321334839,3.4162633,0.0,-0.0,0.0
1079.599999999347,-0.52627224,-1.1126622,0.15426236,-2.7730176,-0.19102041,1.9245017,1.1989627,0.039998934,0.04,-8.985553,-1.9557856321334839,3.4162633,0.0,-0.0,0.0
1079.6166666660135,-0.52627224,-1.1126622,0.15426236,-2.7730176,-0.19102041,1.9245017,1.1989627,0.039998934,0.04,-8.985553,-1.9557856321334839,3.4162633,0.0,-0.0,0.0
1079.6333333326802,-0.52627224,-1.1126622,0.15426236,-2.7730176,-0.19102041,1.9245017,1.1989627,0.039998934,0.04,-8.985553,-1.9557856321334839,3.4162633,0.0,-0.0,0.0
1079.6499999993468,-0.52627224,-1.1126622,0.15426236,-2.7730176,-0.19102041,1.9245017,1.1989627,0.039998934,0.04,-8.985553,-1.9557856321334839,3.4162633,0.0,-0.0,0.0
1079.6666666660135,-0.52627224,-1.1126622,0.15426236,-2.7730176,-0.19102041,1.9245017,1.1989627,0.039998934,0.04,-8.985553,-1.9557856321334839,3.4162633,0.0,-0.0,0.0
1079.6833333326801,-0.52627224,-1.1126622,0.15426236,-2.7730176,-0.19102041,1.9245017,1.1989627,0.039998934,0.04,-8.985553,-1.9557856321334839,3.4162633,0.0,-0.0,0.0
1079.6999999993468,-0.52627224,-1.1126622,0.15426236,-2.7730176,-0.19102041,1.9245017,1.1989627,0.039998934,0.04,-8.985553,-1.9557856321334839,3.4162633,0.0,-0.0,0.0
1079.7166666660135,-0.52627224,-1.1126622,0.15426236,-2.7730176,-0.19102041,1.9245017,1.1989627,0.039998934,0.04,-8.985553,-1.9557856321334839,3.4162633,0.0,-0.0,0.0
1079.73333333268,-0.52627224,-1.1126622,0.15426236,-2.7730176,-0.19102041,1.9245017,1.1989627,0.039998934,0.04,-8.985553,-1.9557856321334839,3.4162633,0.0,-0.0,0.0
1079.7499999993468,-0.52627224,-1.1126622,0.15426236,-2.7730176,-0.19102041,1.9245017,1.1989627,0.039998934,0.04,-8.985553,-1.9557856321334839,3.4162633,0.0,-0.0,0.0
1079.7666666660134,-0.52627224,-1.1126622,0.15426236,-2.7730176,-0.19102041,1.9245017,1.1989627,0.039998934,0.04,-8.985553,-1.9557856321334839,3.4162633,0.0,-0.0,0.0
1079.78333333268,-0.52627224,-1.1126622,0.15426236,-2.7730176,-0.19102041,1.9245017,1.1989627,0.039998934,0.04,-8.985553,-1.9557856321334839,3.4162633,0.0,-0.0,0.0
1079.7999999993467,-0.52627224,-1.1126622,0.15426236,-2.7730176,-0.19102041,1.9245017,1.1989627,0.039998934,0.04,-8.985553,-1.9557856321334839,3.4162633,0.0,-0.0,0.0
1079.8166666660134,-0.52627224,-1.1126622,0.15426236,-2.7730176,-0.19102041,1.9245017,1.1989627,0.039998934,0.04,-8.985553,-1.9557856321334839,3.4162633,0.0,-0.0,0.0
1079.83333333268,-0.52627224,-1.1126622,0.15426236,-2.7730176,-0.19102041,1.9245017,1.1989627,0.039998934,0.04,-8.985553,-1.9557856321334839,3.4162633,0.0,-0.0,0.0
1079.8499999993467,-0.52627224,-1.1126622,0.15426236,-2.7730176,-0.19102041,1.9245017,1.1989627,0.039998934,0.04,-8.985553,-1.9557856321334839,3.4162633,0.0,-0.0,0.0
1079.8666666660133,-0.52627224,-1.1126622,0.15426236,-2.7730176,-0.19102041,1.9245017,1.1989627,0.039998934,0.04,-8.985553,-1.9557856321334839,3.4162633,0.0,-0.0,0.0
1079.88333333268,-0.52627224,-1.1126622,0.15426236,-2.7730176,-0.19102041,1.9245017,1.1989627,0.039998934,0.04,-8.985553,-1.9557856321334839,3.4162633,0.0,-0.0,0.0
1079.8999999993466,-0.52627224,-1.1126622,0.15426236,-2.7730176,-0.19102041,1.9245017,1.1989627,0.039998934,0.04,-8.985553,-1.9557856321334839,3.4162633,0.0,-0.0,0.0
1079.9166666660133,-0.52627224,-1.1126622,0.15426236,-2.7730176,-0.19102041,1.9245017,1.1989627,0.039998934,0.04,-8.985553,-1.9557856321334839,3.4162633,0.0,-0.0,0.0
1079.93333333268,-0.52627224,-1.1126622,0.15426236,-2.7730176,-0.19102041,1.9245017,1.1989627,0.039998934,0.04,-8.985553,-1.9557856321334839,3.4162633,0.0,-0.0,0.0
1079.9499999993466,-0.52627224,-1.1126622,0.15426236,-2.7730176,-0.19102041,1.9245017,1.1989627,0.039998934,0.04,-8.985553,-1.9557856321334839,3.4162633,0.0,-0.0,0.0
1079.9666666660132,-0.52627224,-1.1126622,0.15426236,-2.7730176,-0.19102041,1.9245017,1.1989627,0.039998934,0.04,-8.985553,-1.9557856321334839,3.4162633,0.0,-0.0,0.0
1079.9833333326799,-0.52627224,-1.1126622,0.15426236,-2.7730176,-0.19102041,1.9245017,1.1989627,0.039998934,0.04,-8.985553,-1.9557856321334839,3.4162633,0.0,-0.0,0.0
1079.9999999993465,-0.52627224,-1.1126622,0.15426236,-2.7730176,-0.19102041,1.9245017,1.1989627,0.039998934,0.04,-8.985553,-1.9557856321334839,3.4162633,0.0,-0.0,0.0
1080.0166666660132,-0.52627224,-1.1126622,0.15426236,-2.7730176,-0.19102041,1.9245017,1.1989627,0.039998934,0.04,-8.985553,-1.9557856321334839,3.4162633,0.0,-0.0,0.0
1080.0333333326798,-0.52627224,-1.1126622,0.15426236,-2.7730176,-0.19102041,1.9245017,1.1989627,0.039998934,0.04,-8.985553,-1.9557856321334839,3.4162633,0.0,-0.0,0.0
1080.0499999993465,-0.52627224,-1.1126622,0.15426236,-2.7730176,-0.19102041,1.9245017,1.1989627,0.039998934,0.04,-8.985553,-1.9557856321334839,3.4162633,0.0,-0.0,0.0
1080.0666666660131,-0.52627224,-1.1126622,0.15426236,-2.7730176,-0.19102041,1.9245017,1.1989627,0.039998934,0.04,-8.985553,-1.9557856321334839,3.4162633,0.0,-0.0,0.0
1080.0833333326798,-0.52627224,-1.1126622,0.15426236,-2.7730176,-0.19102041,1.9245017,1.1989627,0.039998934,0.04,-8.985553,-1.9557856321334839,3.4162633,0.0,-0.0,0.0
1080.0999999993464,-0.52627224,-1.1126622,0.15426236,-2.7730176,-0.19102041,1.9245017,1.1989627,0.039998934,0.04,-8.985553,-1.9557856321334839,3.4162633,0.0,-0.0,0.0
1080.116666666013,-0.52627224,-1.1126622,0.15426236,-2.7730176,-0.19102041,1.9245017,1.1989627,0.039998934,0.04,-8.985553,-1.9557856321334839,3.4162633,0.0,-0.0,0.0
1080.1333333326797,-0.52627224,-1.1126622,0.15426236,-2.7730176,-0.19102041,1.9245017,1.1989627,0.039998934,0.04,-8.985553,-1.9557856321334839,3.4162633,0.0,-0.0,0.0
1080.1499999993464,-0.52627224,-1.1126622,0.15426236,-2.7730176,-0.19102041,1.9245017,1.1989627,0.039998934,0.04,-8.985553,-1.9557856321334839,3.4162633,0.0,-0.0,0.0
1080.166666666013,-0.52627224,-1.1126622,0.15426236,-2.7730176,-0.19102041,1.9245017,1.1989627,0.039998934,0.04,-8.985553,-1.9557856321334839,3.4162633,0.0,-0.0,0.0
1080.1833333326797,-0.52627224,-1.1126622,0.15426236,-2.7730176,-0.19102041,1.9245017,1.1989627,0.039998934,0.04,-8.985553,-1.9557856321334839,3.4162633,0.0,-0.0,0.0
1080.1999999993463,-0.52627224,-1.1126622,0.15426236,-2.7730176,-0.19102041,1.9245017,1.1989627,0.039998934,0.04,-8.985553,-1.9557856321334839,3.4162633,0.0,-0.0,0.0
1080.216666666013,-0.52627224,-1.1126622,0.15426236,-2.7730176,-0.19102041,1.9245017,1.1989627,0.039998934,0.04,-8.985553,-1.9557856321334839,3.4162633,0.0,-0.0,0.0
1080.2333333326796,-0.52627224,-1.1126622,0.15426236,-2.7730176,-0.19102041,1.9245017,1.1989627,0.039998934,0.04,-8.985553,-1.9557856321334839,3.4162633,0.0,-0.0,0.0
1080.2499999993463,-0.52627224,-1.1126622,0.15426236,-2.7730176,-0.19102041,1.9245017,1.1989627,0.039998934,0.04,-8.985553,-1.9557856321334839,3.4162633,0.0,-0.0,0.0
1080.266666666013,-0.52627224,-1.1126622,0.15426236,-2.7730176,-0.19102041,1.9245017,1.1989627,0.039998934,0.04,-8.985553,-1.9557856321334839,3.4162633,0.0,-0.0,0.0
1080.2833333326796,-0.52627224,-1.1126622,0.15426236,-2.7730176,-0.19102041,1.9245017,1.1989627,0.039998934,0.04,-8.985553,-1.9557856321334839,3.4162633,0.0,-0.0,0.0
1080.2999999993463,-0.52627224,-1.1126622,0.15426236,-2.7730176,-0.19102041,1.9245017,1.1989627,0.039998934,0.04,-8.985553,-1.9557856321334839,3.4162633,0.0,-0.0,0.0
1080.316666666013,-0.52627224,-1.1126622,0.15426236,-2.7730176,-0.19102041,1.9245017,1.1989627,0.039998934,0.04,-8.985553,-1.9557856321334839,3.4162633,0.0,-0.0,0.0
1080.3333333326796,-0.52627224,-1.1126622,0.15426236,-2.7730176,-0.19102041,1.9245017,1.1989627,0.039998934,0.04,-8.985553,-1.9557856321334839,3.4162633,0.0,-0.0,0.0
1080.3499999993462,-0.52627224,-1.1126622,0.15426236,-2.7730176,-0.19102041,1.9245017,1.1989627,0.039998934,0.04,-8.985553,-1.9557856321334839,3.4162633,0.0,-0.0,0.0
1080.3666666660129,-0.52627224,-1.1126622,0.15426236,-2.7730176,-0.19102041,1.9245017,1.1989627,0.039998934,0.04,-8.985553,-1.9557856321334839,3.4162633,0.0,-0.0,0.0
1080.3833333326795,-0.52627224,-1.1126622,0.15426236,-2.7730176,-0.19102041,1.9245017,1.1989627,0.039998934,0.04,-8.985553,-1.9557856321334839,3.4162633,0.0,-0.0,0.0
1080.3999999993462,-0.52627224,-1.1126622,0.15426236,-2.7730176,-0.19102041,1.9245017,1.1989627,0.039998934,0.04,-8.985553,-1.9557856321334839,3.4162633,0.0,-0.0,0.0
1080.4166666660128,-0.52627224,-1.1126622,0.15426236,-2.7730176,-0.19102041,1.9245017,1.1989627,0.039998934,0.04,-8.985553,-1.9557856321334839,3.4162633,0.0,-0.0,0.0
1080.4333333326795,-0.52627224,-1.1126622,0.15426236,-2.7730176,-0.19102041,1.9245017,1.1989627,0.039998934,0.04,-8.985553,-1.9557856321334839,3.4162633,0.0,-0.0,0.0
1080.4499999993461,-0.52627224,-1.1126622,0.15426236,-2.7730176,-0.19102041,1.9245017,1.1989627,0.039998934,0.04,-8.985553,-1.9557856321334839,3.4162633,0.0,-0.0,0.0
1080.4666666660128,-0.52627224,-1.1126622,0.15426236,-2.7730176,-0.19102041,1.9245017,1.1989627,0.039998934,0.04,-8.985553,-1.9557856321334839,3.4162633,0.0,-0.0,0.0
1080.4833333326794,-0.52627224,-1.1126622,0.15426236,-2.7730176,-0.19102041,1.9245017,1.1989627,0.039998934,0.04,-8.985553,-1.9557856321334839,3.4162633,0.0,-0.0,0.0
1080.499999999346,-0.52627224,-1.1126622,0.15426236,-2.7730176,-0.19102041,1.9245017,1.1989627,0.039998934,0.04,-8.985553,-1.9557856321334839,3.4162633,0.0,-0.0,0.0
1080.5166666660127,-0.52627224,-1.1126622,0.15426236,-2.7730176,-0.19102041,1.9245017,1.1989627,0.039998934,0.04,-8.985553,-1.9557856321334839,3.4162633,0.0,-0.0,0.0
1080.5333333326794,-0.52627224,-1.1126622,0.15426236,-2.7730176,-0.19102041,1.9245017,1.1989627,0.039998934,0.04,-8.985553,-1.9557856321334839,3.4162633,0.0,-0.0,0.0
1080.549999999346,-0.52627224,-1.1126622,0.15426236,-2.7730176,-0.19102041,1.9245017,1.1989627,0.039998934,0.04,-8.985553,-1.9557856321334839,3.4162633,0.0,-0.0,0.0
1080.5666666660127,-0.52627224,-1.1126622,0.15426236,-2.7730176,-0.19102041,1.9245017,1.1989627,0.039998934,0.04,-8.985553,-1.9557856321334839,3.4162633,0.0,-0.0,0.0
1080.5833333326793,-0.52627224,-1.1126622,0.15426236,-2.7730176,-0.19102041,1.9245017,1.1989627,0.039998934,0.04,-8.985553,-1.9557856321334839,3.4162633,0.0,-0.0,0.0
1080.599999999346,-0.52627224,-1.1126622,0.15426236,-2.7730176,-0.19102041,1.9245017,1.1989627,0.039998934,0.04,-8.985553,-1.9557856321334839,3.4162633,0.0,-0.0,0.0
1080.6166666660126,-0.52627224,-1.1126622,0.15426236,-2.7730176,-0.19102041,1.9245017,1.1989627,0.039998934,0.04,-8.985553,-1.9557856321334839,3.4162633,0.0,-0.0,0.0
1080.6333333326793,-0.52627224,-1.1126622,0.15426236,-2.7730176,-0.19102041,1.9245017,1.1989627,0.039998934,0.04,-8.985553,-1.9557856321334839,3.4162633,0.0,-0.0,0.0
1080.649999999346,-0.52627224,-1.1126622,0.15426236,-2.7730176,-0.19102041,1.9245017,1.1989627,0.039998934,0.04,-8.985553,-1.9557856321334839,3.4162633,0.0,-0.0,0.0
1080.6666666660126,-0.52627224,-1.1126622,0.15426236,-2.7730176,-0.19102041,1.9245017,1.1989627,0.039998934,0.04,-8.985553,-1.9557856321334839,3.4162633,0.0,-0.0,0.0
1080.6833333326792,-0.52627224,-1.1126622,0.15426236,-2.7730176,-0.19102041,1.9245017,1.1989627,0.039998934,0.04,-8.985553,-1.9557856321334839,3.4162633,0.0,-0.0,0.0
1080.699999999346,-0.52627224,-1.1126622,0.15426236,-2.7730176,-0.19102041,1.9245017,1.1989627,0.039998934,0.04,-8.985553,-1.9557856321334839,3.4162633,0.0,-0.0,0.0
1080.7166666660125,-0.52627224,-1.1126622,0.15426236,-2.7730176,-0.19102041,1.9245017,1.1989627,0.039998934,0.04,-8.985553,-1.9557856321334839,3.4162633,0.0,-0.0,0.0
1080.7333333326792,-0.52627224,-1.1126622,0.15426236,-2.7730176,-0.19102041,1.9245017,1.1989627,0.039998934,0.04,-8.985553,-1.9557856321334839,3.4162633,0.0,-0.0,0.0
1080.7499999993458,-0.52627224,-1.1126622,0.15426236,-2.7730176,-0.19102041,1.9245017,1.1989627,0.039998934,0.04,-8.985553,-1.9557856321334839,3.4162633,0.0,-0.0,0.0
1080.7666666660125,-0.52627224,-1.1126622,0.15426236,-2.7730176,-0.19102041,1.9245017,1.1989627,0.039998934,0.04,-8.985553,-1.9557856321334839,3.4162633,0.0,-0.0,0.0
1080.7833333326791,-0.52627224,-1.1126622,0.15426236,-2.7730176,-0.19102041,1.9245017,1.1989627,0.039998934,0.04,-8.985553,-1.9557856321334839,3.4162633,0.0,-0.0,0.0
1080.7999999993458,-0.52627224,-1.1126622,0.15426236,-2.7730176,-0.19102041,1.9245017,1.1989627,0.039998934,0.04,-8.985553,-1.9557856321334839,3.4162633,0.0,-0.0,0.0
1080.8166666660125,-0.52627224,-1.1126622,0.15426236,-2.7730176,-0.19102041,1.9245017,1.1989627,0.039998934,0.04,-8.985553,-1.9557856321334839,3.4162633,0.0,-0.0,0.0
1080.833333332679,-0.52627224,-1.1126622,0.15426236,-2.7730176,-0.19102041,1.9245017,1.1989627,0.039998934,0.04,-8.985553,-1.9557856321334839,3.4162633,0.0,-0.0,0.0
1080.8499999993458,-0.52627224,-1.1126622,0.15426236,-2.7730176,-0.19102041,1.9245017,1.1989627,0.039998934,0.04,-8.985553,-1.9557856321334839,3.4162633,0.0,-0.0,0.0
1080.8666666660124,-0.52627224,-1.1126622,0.15426236,-2.7730176,-0.19102041,1.9245017,1.1989627,0.039998934,0.04,-8.985553,-1.9557856321334839,3.4162633,0.0,-0.0,0.0
1080.883333332679,-0.52627224,-1.1126622,0.15426236,-2.7730176,-0.19102041,1.9245017,1.1989627,0.039998934,0.04,-8.985553,-1.9557856321334839,3.4162633,0.0,-0.0,0.0
1080.8999999993457,-0.52627224,-1.1126622,0.15426236,-2.7730176,-0.19102041,1.9245017,1.1989627,0.039998934,0.04,-8.985553,-1.9557856321334839,3.4162633,0.0,-0.0,0.0
