rsonawane2002/My_IMU/log_temp/traj_304/imu_304.csv
time,j1,j2,j3,j4,j5,j6,j7,gripper1,gripper2,imu_ax,imu_ay,imu_az,imu_gx,imu_gy,imu_gz
586.6833333331284,0.00016700293,-0.785875,4.0107683e-05,-2.3551247,9.29385e-05,1.570997,0.786,0.04,0.04,-9.42278,-0.011114487424492836,0.113811344,-3.440198e-08,-0.0011641274904832244,6.240946e-07
586.6999999997951,0.0001669959,-0.78576016,4.011465e-05,-2.3552213,9.2965834e-05,1.5709941,0.786,0.04,0.04,-9.834453,0.0006241603405214846,0.0091073355,1.0516583e-06,-0.002240091562271118,5.170007e-07
586.7166666664617,0.00016692048,-0.7856543,4.0121264e-05,-2.35531,9.293391e-05,1.5709913,0.786,0.04,0.04,-9.83263,0.0005371990264393389,0.007560138,8.941571e-06,-0.0032394726295024157,-2.3211883e-06
586.7333333331284,0.00016666304,-0.78555703,4.012738e-05,-2.355391,9.275951e-05,1.5709884,0.786,0.04,0.039999995,-9.83107,0.0003826727333944291,0.0062117507,3.0121942e-05,-0.004179309122264385,-9.800042e-06
586.749999999795,0.0001660603,-0.78546774,4.0132985e-05,-2.3554645,9.228463e-05,1.5709856,0.786,0.04,0.04,-9.829861,0.00013780657900497317,0.0049280496,7.0504364e-05,-0.005070333369076252,-2.7168848e-05
586.7666666664617,0.00016490326,-0.7853861,4.013734e-05,-2.3555312,9.135638e-05,1.570986,0.7860019,0.04,0.04,-9.828779,-0.00014031725004315376,0.0037681176,0.00013598119,-0.005924280732870102,-5.2270072e-05
586.7833333331283,0.00016294303,-0.7853116,4.01398e-05,-2.3555906,8.9770525e-05,1.5709869,0.7860038,0.04,0.04,-9.827916,-0.0005010349559597671,0.0026588598,0.00022313598,-0.0067398156970739365,-8.965088e-05
586.799999999795,0.00015989416,-0.78524405,4.013944e-05,-2.3556466,8.7296285e-05,1.5709878,0.7860069,0.04,0.04,-9.8272085,-0.0009089714731089771,0.0017197337,0.00034584905,-0.0075384280644357204,-0.00014036192
586.8166666664616,0.00015543897,-0.785183,4.013515e-05,-2.3556967,8.3675994e-05,1.5709918,0.78601074,0.04,0.04,-9.827171,-0.0013670646585524082,0.00089940475,0.0005035183,-0.008347764611244202,-0.00020586951
586.8333333331283,0.00014923111,-0.78512824,4.0125884e-05,-2.3557396,7.861725e-05,1.5709964,0.78601646,0.039999995,0.04,-9.82693,-0.001889208797365427,7.813284e-05,0.00070302887,-0.009153652936220169,-0.0002883166
586.8499999997949,0.00014089866,-0.7850799,4.011017e-05,-2.355776,7.182666e-05,1.5710034,0.7860241,0.03999999,0.03999999,-9.82673,-0.0024398392997682095,-0.00056668,0.0009428329,-0.009969395585358143,-0.0003863113
586.8666666664616,0.00013004731,-0.7850378,4.0086532e-05,-2.3558083,6.298686e-05,1.571012,0.7860341,0.039999988,0.039999984,-9.826667,-0.0030502830632030964,-0.0011085595,0.0012275069,-0.010797329246997833,-0.00050262833
586.8833333331282,0.00011626304,-0.7850017,4.005342e-05,-2.355835,5.1761403e-05,1.5710243,0.78604746,0.03999998,0.039999977,-9.8270855,-0.0037077164743095636,-0.0015213357,0.0015584755,-0.011659830808639526,-0.00063900877
586.8999999997949,9.911471e-05,-0.78497165,4.0009087e-05,-2.3558545,3.7801936e-05,1.5710404,0.7860636,0.039999973,0.039999966,-9.827442,-0.004406258463859558,-0.001881381,0.0019350927,-0.012550698593258858,-0.0007945167
586.9166666664615,7.815643e-05,-0.78494775,3.9951923e-05,-2.3558671,2.0746238e-05,1.5710603,0.78608334,0.03999997,0.03999996,-9.827676,-0.005166112910956144,-0.002093001,0.002363428,-0.013467290438711643,-0.0009715697
586.9333333331282,5.2929572e-05,-0.78493005,3.988017e-05,-2.3558745,2.2347173e-07,1.571084,0.7861071,0.039999973,0.039999966,-9.828052,-0.005961071699857712,-0.0021489607,0.0028431104,-0.0144174350425601,-0.0011698699
586.9499999997948,2.2964843e-05,-0.78491867,3.979202e-05,-2.3558755,-2.4146759e-05,1.5711117,0.78613526,0.039999973,0.039999966,-9.828759,-0.006808794569224119,-0.0020465977,0.0033753247,-0.015416243113577366,-0.0013899078
586.9666666664615,-1.221599e-05,-0.7849136,3.9685547e-05,-2.35587,-5.2750802e-05,1.5711433,0.78616846,0.03999997,0.039999958,-9.829438,-0.007697198539972305,-0.0017957485,0.003961681,-0.01646396704018116,-0.0016312129
586.9833333331281,-5.3098338e-05,-0.78491515,3.9558723e-05,-2.3558583,-8.598253e-05,1.5711812,0.786207,0.039999973,0.03999996,-9.830114,-0.00861914362758398,-0.0013771683,0.004601514,-0.017565665766596794,-0.0018958421
586.9999999997948,-0.00010017336,-0.7849233,3.940973e-05,-2.355839,-0.00012423917,1.5712243,0.7862513,0.039999973,0.03999996,-9.831066,-0.009652148000895977,-0.00084593776,0.005296543,-0.018720068037509918,-0.0021831966
587.0166666664614,-0.0001539366,-0.78493834,3.923663e-05,-2.355812,-0.00016792161,1.5712743,0.7863019,0.039999973,0.039999958,-9.831789,-0.010704915970563889,-0.00011529541,0.0060472973,-0.0199268888682127,-0.002492614
587.0333333331281,-0.0002148866,-0.7849605,3.9037386e-05,-2.3557765,-0.0002174341,1.5713311,0.7863592,0.039999977,0.03999996,-9.832676,-0.011824110522866249,0.0008072641,0.0068539614,-0.021189618855714798,-0.0028259414
587.0499999997947,-0.00028352393,-0.78499,3.8809958e-05,-2.3557327,-0.00027318113,1.5713952,0.7864237,0.039999977,0.039999958,-9.833431,-0.012996111065149307,0.0019411359,0.0077172266,-0.022504225373268127,-0.0031815704
587.0666666664614,-0.00036035012,-0.785027,3.855242e-05,-2.3556802,-0.0003355697,1.5714669,0.7864958,0.03999998,0.03999996,-9.834332,-0.01423594169318676,0.0033036638,0.008636612,-0.023876897990703583,-0.0035613298
587.083333333128,-0.00044586655,-0.78507173,3.826274e-05,-2.355619,-0.0004050033,1.5715467,0.7865761,0.03999998,0.039999958,-9.835238,-0.015530127100646496,0.0048796115,0.009612317,-0.025308331474661827,-0.003963247
587.0999999997947,-0.00054057303,-0.78512424,3.7939073e-05,-2.3555486,-0.000481889,1.571635,0.786665,0.039999984,0.03999996,-9.836236,-0.016907235607504845,0.0066976273,0.010644394,-0.026802243664860725,-0.0043892977
587.1166666664614,-0.0006449682,-0.78518486,3.757931e-05,-2.3554685,-0.00056663004,1.5717329,0.786763,0.039999984,0.03999996,-9.837254,-0.018353648483753204,0.008748769,0.011732195,-0.028359664604067802,-0.0048392564
587.133333333128,-0.000759548,-0.7852542,3.7181486e-05,-2.3553784,-0.00065962685,1.5718399,0.78687054,0.039999988,0.039999966,-9.838239,-0.019868429750204086,0.011043396,0.0128757935,-0.029977256432175636,-0.0053120516
587.1499999997947,-0.0008848052,-0.78533226,3.6743702e-05,-2.3552783,-0.0007612786,1.5719573,0.78698814,0.039999988,0.03999997,-9.83918,-0.021456219255924225,0.0136576025,0.014075071,-0.031655702739953995,-0.005807625
587.1666666664613,-0.0010212286,-0.7854192,3.6263908e-05,-2.3551679,-0.0008719791,1.5720854,0.7871162,0.039999988,0.039999958,-9.840249,-0.023098595440387726,0.016521256,0.015328759,-0.03339781239628792,-0.0063214824
587.183333333128,-0.0011693025,-0.78551555,3.5740217e-05,-2.3550456,-0.0009921227,1.5722245,0.7872552,0.039999988,0.039999954,-9.841313,-0.024866193532943726,0.019678526,0.01663714,-0.035203997045755386,-0.0068603195
587.1999999997946,-0.0013295067,-0.78562135,3.517069e-05,-2.354913,-0.0011220967,1.5723749,0.78740555,0.039999977,0.039999936,-9.8421955,-0.026695843786001205,0.023146503,0.01799939,-0.037067100405693054,-0.0074204057
587.2166666664613,-0.0015023152,-0.78573716,3.455352e-05,-2.3547678,-0.0012622849,1.5725371,0.7875677,0.039999973,0.03999993,-9.843352,-0.028625525534152985,0.026934236,0.019415254,-0.0389980748295784,-0.008003419
587.2333333331279,-0.0016881962,-0.78586304,3.3886827e-05,-2.3546119,-0.0014130665,1.5727112,0.787742,0.039999973,0.03999993,-9.844128,-0.030576396733522415,0.031073105,0.020883841,-0.04098726063966751,-0.0086088795
587.2499999997946,-0.001887612,-0.78599936,3.3168766e-05,-2.3544421,-0.0015748151,1.5728985,0.78792906,0.039999977,0.03999993,-9.845442,-0.032749757170677185,0.035512615,0.02240489,-0.04304588958621025,-0.009234839
587.2666666664612,-0.0021010188,-0.7861462,3.2397595e-05,-2.35426,-0.0017479005,1.5730985,0.78812927,0.039999977,0.039999925,-9.846243,-0.03495402634143829,0.04030281,0.023977421,-0.04515692964196205,-0.009881921
587.2833333331279,-0.002328865,-0.78630424,3.1571508e-05,-2.3540654,-0.0019326851,1.5733126,0.788343,0.039999973,0.039999917,-9.847326,-0.03726189211010933,0.04546454,0.025600003,-0.047333329916000366,-0.010550585
587.2999999997945,-0.0025715916,-0.7864734,3.0688694e-05,-2.3538573,-0.0021295256,1.5735406,0.7885707,0.03999997,0.03999991,-9.848317,-0.039657898247241974,0.05099589,0.027272813,-0.04956845939159393,-0.011237984
587.3166666664612,-0.0028296332,-0.7866539,2.9747436e-05,-2.3536348,-0.0023387736,1.5737829,0.78881264,0.03999996,0.039999895,-9.84931,-0.04216974228620529,0.056911252,0.02899457,-0.05186472460627556,-0.011945418
587.3333333331278,-0.0031034166,-0.7868463,2.8746143e-05,-2.3533978,-0.0025607755,1.57404,0.7890694,0.039999958,0.039999884,-9.850206,-0.0447840616106987,0.06319131,0.03076524,-0.054217588156461716,-0.012671856
587.3499999997945,-0.0033933613,-0.7870506,2.7683134e-05,-2.3531463,-0.0027958706,1.5743122,0.78934133,0.03999996,0.039999887,-9.851061,-0.04752647876739502,0.069912456,0.03258296,-0.05662588030099869,-0.013420316
587.3666666664611,-0.0036998775,-0.7872672,2.6556758e-05,-2.35288,-0.0030443922,1.5746001,0.78962874,0.039999973,0.039999895,-9.85199,-0.05037287622690201,0.07703856,0.034447167,-0.059092313051223755,-0.01418784
587.3833333331278,-0.0040233675,-0.7874963,2.5365416e-05,-2.3525984,-0.003306665,1.5749036,0.78993213,0.03999997,0.039999887,-9.852855,-0.05332423746585846,0.08457837,0.03635754,-0.061613183468580246,-0.014973179
587.3999999997944,-0.0043642274,-0.78773826,2.4107583e-05,-2.3523018,-0.0035830075,1.5752236,0.7902518,0.039999958,0.039999872,-9.853729,-0.05639808624982834,0.09256165,0.038312342,-0.06419110298156738,-0.015776815
587.4166666664611,-0.004722843,-0.78799355,2.2781873e-05,-2.3519895,-0.003873731,1.5755602,0.7905881,0.039999932,0.039999843,-9.854615,-0.0595884844660759,0.10099168,0.040311053,-0.0668245404958725,-0.016597567
587.4333333331277,-0.0050995904,-0.788262,2.1386559e-05,-2.351662,-0.0041791433,1.5759138,0.7909413,0.039999913,0.03999982,-9.855385,-0.06290654838085175,0.10988165,0.042352967,-0.0695091262459755,-0.017436668
587.4499999997944,-0.00549484,-0.78854394,1.9920422e-05,-2.3513174,-0.0044995407,1.5762845,0.7913121,0.0399999,0.0399998,-9.8563175,-0.06634270399808884,0.1192081,0.044437222,-0.07225119322538376,-0.01829211
587.466666666461,-0.0059089507,-0.78883976,1.838199e-05,-2.350956,-0.0048352187,1.5766732,0.7917004,0.039999884,0.039999787,-9.85698,-0.06991506367921829,0.12900394,0.046561535,-0.07504286617040634,-0.019165976
587.4833333331277,-0.006342276,-0.7891496,1.6769829e-05,-2.3505769,-0.0051864595,1.5770798,0.79210675,0.03999988,0.039999776,-9.85748,-0.07349799573421478,0.13930528,0.048726935,-0.07788223028182983,-0.020054644
587.4999999997943,-0.006795155,-0.7894737,1.5082584e-05,-2.3501818,-0.005553539,1.577505,0.7925314,0.039999876,0.03999977,-9.858237,-0.07741886377334595,0.15006301,0.05093147,-0.0807676762342453,-0.020960197
587.516666666461,-0.007267925,-0.7898123,1.3319043e-05,-2.3497684,-0.0059367307,1.5779488,0.7929746,0.03999987,0.039999757,-9.859037,-0.08137044310569763,0.1613524,0.05317477,-0.08370508253574371,-0.021881383
587.5333333331276,-0.007760909,-0.79016566,1.1477896e-05,-2.349337,-0.0063362955,1.5784117,0.79343677,0.039999858,0.039999742,-9.859527,-0.08545033633708954,0.17312367,0.05545548,-0.08668528497219086,-0.02281777
587.5499999997943,-0.008274425,-0.7905339,9.557863e-06,-2.3488882,-0.0067524887,1.5788935,0.7939182,0.03999984,0.039999716,-9.860089,-0.08966280519962311,0.18543008,0.057772595,-0.08971105515956879,-0.02376813
587.566666666461,-0.008808777,-0.7909173,7.557914e-06,-2.3484197,-0.0071855597,1.5793952,0.7944191,0.039999828,0.0399997,-9.860632,-0.09400752931833267,0.1982594,0.06012502,-0.09278352558612823,-0.024733797
587.5833333331276,-0.009364264,-0.79131603,5.476661e-06,-2.3479333,-0.0076357494,1.5799167,0.7949399,0.039999805,0.039999675,-9.860906,-0.09848855435848236,0.21160573,0.06251232,-0.0958913192152977,-0.025713556
587.5999999997942,-0.009941176,-0.79173046,3.3130273e-06,-2.3474274,-0.008103293,1.5804582,0.7954807,0.039999787,0.039999653,-9.861426,-0.10310433804988861,0.22550716,0.06493266,-0.09904470294713974,-0.02670783
587.6166666664609,-0.010539793,-0.79216063,1.0660675e-06,-2.3469033,-0.008588416,1.5810204,0.79604185,0.039999764,0.039999627,-9.8616705,-0.10784228146076202,0.23997936,0.0673858,-0.10223519802093506,-0.027713643
587.6333333331276,-0.011160386,-0.7926065,-1.265443e-06,-2.3463595,-0.009091335,1.5816029,0.79662365,0.039999727,0.039999586,-9.862066,-0.11273155361413956,0.2549701,0.06987078,-0.10546742379665375,-0.028733157
587.6499999997942,-0.011803217,-0.79306877,-3.682272e-06,-2.3457956,-0.009612263,1.5822065,0.79722625,0.0399997,0.039999552,-9.86226,-0.11775519698858261,0.27052307,0.07238619,-0.10873746871948242,-0.029765245
587.6666666664609,-0.012468541,-0.7935473,-6.185646e-06,-2.3452127,-0.010151404,1.5828311,0.7978499,0.03999968,0.039999526,-9.862303,-0.12290478497743607,0.2866839,0.07493104,-0.11203876882791519,-0.030808559
587.6833333331275,-0.013156601,-0.79404205,-8.776413e-06,-2.3446095,-0.010708958,1.583477,0.79849494,0.039999656,0.0399995,-9.862521,-0.12820199131965637,0.30339137,0.077505134,-0.11538004875183105,-0.03186441
587.6999999997942,-0.01386763,-0.79455364,-1.1455436e-05,-2.3439853,-0.01128512,1.5841444,0.79916143,0.03999963,0.039999466,-9.862544,-0.13361747562885284,0.32067105,0.08010628,-0.11875563114881516,-0.032930743
587.7166666664608,-0.014601858,-0.7950819,-1.4223569e-05,-2.343342,-0.011880066,1.5848336,0.7998496,0.03999961,0.039999444,-9.862336,-0.13918821513652802,0.33857182,0.08273461,-0.12215851247310638,-0.034009844
587.7333333331275,-0.0153595,-0.7956272,-1.7081857e-05,-2.3426776,-0.0124939745,1.5855447,0.80056,0.03999958,0.039999403,-9.86218,-0.1447470337152481,0.35705808,0.08538881,-0.12559908628463745,-0.035097685
587.7499999997941,-0.016140766,-0.7961895,-2.0031002e-05,-2.3419924,-0.013127012,1.5862777,0.80129176,0.039999552,0.039999373,-9.862109,-0.15070758759975433,0.37612554,0.088067,-0.1290673464536667,-0.036196586
587.7666666664608,-0.016945852,-0.79676914,-2.3071587e-05,-2.3412857,-0.013779342,1.5870337,0.8020465,0.039999515,0.039999332,-9.861816,-0.1566578596830368,0.39581573,0.090772204,-0.13256585597991943,-0.037305407
587.7833333331274,-0.017774954,-0.79736626,-2.6204467e-05,-2.3405578,-0.014451119,1.587812,0.8028236,0.039999478,0.039999288,-9.861348,-0.16274023056030273,0.41611603,0.093497366,-0.13608673214912415,-0.03842292
587.7999999997941,-0.018628253,-0.79798096,-2.943045e-05,-2.339809,-0.015142493,1.5886132,0.80362344,0.03999944,0.039999243,-9.860852,-0.1689588874578476,0.43705636,0.09624504,-0.13963396847248077,-0.03954964
587.8166666664607,-0.019505922,-0.7986132,-3.2750035e-05,-2.3390388,-0.015853608,1.5894369,0.8044461,0.039999407,0.039999206,-9.860289,-0.17530469596385956,0.4586098,0.099013634,-0.14320579171180725,-0.0406858
587.8333333331274,-0.02040813,-0.7992629,-3.616405e-05,-2.3382473,-0.016584588,1.590284,0.80529183,0.039999366,0.039999157,-9.859643,-0.18176758289337158,0.4807832,0.10180211,-0.14680421352386475,-0.04182946
587.849999999794,-0.02133503,-0.7999303,-3.967295e-05,-2.3374343,-0.017335562,1.591154,0.8061607,0.03999932,0.03999911,-9.858894,-0.1883639544248581,0.5035619,0.10460943,-0.15042591094970703,-0.042982053
587.8666666664607,-0.022286775,-0.8006158,-4.327743e-05,-2.3365993,-0.018106647,1.5920475,0.8070528,0.039999273,0.039999053,-9.858012,-0.19507884979248047,0.5270007,0.10743517,-0.15407036244869232,-0.044141367
587.8833333331273,-0.023263501,-0.8013193,-4.6977966e-05,-2.3357418,-0.018897966,1.5929642,0.8079682,0.03999923,0.039999004,-9.856997,-0.2019065022468567,0.5510896,0.11027785,-0.15773485600948334,-0.045308024
587.899999999794,-0.024265334,-0.80204093,-5.0775045e-05,-2.334863,-0.019709624,1.5939045,0.8089072,0.039999194,0.039998963,-9.855775,-0.20885907113552094,0.5758045,0.11313729,-0.16141562163829803,-0.04648264
587.9166666664606,-0.025292408,-0.8027806,-5.466896e-05,-2.3339615,-0.020541709,1.5948688,0.80987,0.039999146,0.03999891,-9.854586,-0.21592369675636292,0.60119134,0.11601178,-0.16511720418930054,-0.0476629
587.9333333331273,-0.026344826,-0.8035387,-5.8660273e-05,-2.333038,-0.021394325,1.5958563,0.8108564,0.039999098,0.03999886,-9.853182,-0.22309592366218567,0.6272016,0.11889976,-0.1688338667154312,-0.04885043
587.9499999997939,-0.027422702,-0.8043151,-6.274931e-05,-2.332092,-0.022267548,1.5968682,0.8118667,0.039999038,0.039998796,-9.8516655,-0.23037932813167572,0.6538953,0.121802,-0.1725689023733139,-0.05004379
587.9666666664606,-0.028526139,-0.80511004,-6.693669e-05,-2.3311236,-0.023161463,1.5979038,0.8129009,0.03999898,0.03999873,-9.849956,-0.2377646267414093,0.6812322,0.12471661,-0.17631542682647705,-0.051242046
587.9833333331272,-0.029655224,-0.80592346,-7.122254e-05,-2.3301325,-0.02407615,1.5989637,0.8139592,0.03999892,0.039998665,-9.847884,-0.24511347711086273,0.70923495,0.12764262,-0.18007484078407288,-0.052446473
587.9999999997939,-0.03081003,-0.8067556,-7.560733e-05,-2.3291192,-0.02501167,1.6000477,0.81504154,0.039998848,0.039998587,-9.846115,-0.25283193588256836,0.73790604,0.13057883,-0.18384529650211334,-0.053655993
588.0166666664605,-0.031990636,-0.80760616,-8.009106e-05,-2.3280833,-0.025968073,1.6011558,0.81614816,0.039998785,0.03999852,-9.844048,-0.2605153024196625,0.7672553,0.13352515,-0.18762922286987305,-0.054870106
588.0333333331272,-0.033197116,-0.80847526,-8.46743e-05,-2.3270242,-0.026945423,1.602288,0.8172789,0.03999872,0.03999845,-9.841751,-0.2682764530181885,0.7972426,0.13647954,-0.19142381846904755,-0.056087594
588.0499999997938,-0.034429517,-0.80936325,-8.9356945e-05,-2.3259423,-0.027943766,1.6034448,0.81843394,0.039998658,0.039998382,-9.839208,-0.2761297821998596,0.8279015,0.13944197,-0.19522547721862793,-0.057310008
588.0666666664605,-0.035687897,-0.8102701,-9.4139476e-05,-2.3248377,-0.02896314,1.6046258,0.81961334,0.03999858,0.039998297,-9.8365345,-0.28405362367630005,0.859262,0.14241143,-0.19903314113616943,-0.058535486
588.0833333331271,-0.0369723,-0.8111956,-9.9022014e-05,-2.3237102,-0.03000358,1.6058314,0.8208172,0.03999851,0.03999822,-9.833687,-0.2920631766319275,0.8912849,0.14538665,-0.2028474658727646,-0.05976438
588.0999999997938,-0.038282763,-0.8121399,-0.00010400424,-2.3225596,-0.031065112,1.6070613,0.82204545,0.039998434,0.039998136,-9.830653,-0.30014267563819885,0.9239804,0.1483665,-0.20666712522506714,-0.060996424
588.1166666664604,-0.039619308,-0.8131032,-0.000109086744,-2.3213859,-0.032147758,1.6083158,0.82329816,0.039998364,0.039998062,-9.827377,-0.308292031288147,0.95735157,0.15135013,-0.2104903608560562,-0.062232167
588.1333333331271,-0.040981956,-0.8140854,-0.00011426944,-2.3201895,-0.033251543,1.609595,0.8245752,0.03999828,0.039997973,-9.823879,-0.31649094820022583,0.9914137,0.15433665,-0.21431419253349304,-0.06346963
588.1499999997937,-0.04237072,-0.8150863,-0.00011955217,-2.3189707,-0.03437646,1.6108986,0.8258767,0.039998196,0.039997883,-9.82025,-0.3247566819190979,1.0261426,0.15732574,-0.21814095973968506,-0.06471033
588.1666666664604,-0.043785598,-0.8161061,-0.0001249351,-2.317729,-0.035522528,1.6122266,0.8272028,0.039998114,0.039997794,-9.816433,-0.33307260274887085,1.0615412,0.16031633,-0.22197119891643524,-0.06595197
588.183333333127,-0.045226604,-0.8171447,-0.00013041809,-2.3164642,-0.03668975,1.613579,0.8285533,0.03999803,0.039997697,-9.812319,-0.3414249122142792,1.0976197,0.16330682,-0.2258019745349884,-0.067194276
588.1999999997937,-0.04669371,-0.8182019,-0.00013600124,-2.3151767,-0.037878104,1.6149558,0.8299283,0.03999794,0.039997604,-9.807984,-0.3498314619064331,1.1343853,0.16629644,-0.2296326607465744,-0.0684398
588.2166666664604,-0.048186917,-0.81927794,-0.0001416845,-2.3138666,-0.03908758,1.6163573,0.8313277,0.039997853,0.039997514,-9.80341,-0.3582662045955658,1.1717839,0.16928498,-0.23346298933029175,-0.069686115
588.233333333127,-0.049706195,-0.8203728,-0.0001474679,-2.3125331,-0.040318154,1.6177832,0.83275145,0.039997764,0.039997417,-9.798364,-0.36656931042671204,1.2098795,0.17227077,-0.23729105293750763,-0.070932485
588.2499999997937,-0.05125151,-0.8214865,-0.00015335117,-2.311177,-0.041569807,1.619234,0.83419955,0.039997675,0.03999732,-9.793439,-0.37519752979278564,1.2486643,0.1752533,-0.24111329019069672,-0.0721796
588.2666666664603,-0.052822817,-0.82261896,-0.00015933404,-2.3097982,-0.04284251,1.620709,0.835672,0.03999758,0.03999722,-9.788111,-0.3836952745914459,1.2880962,0.17823185,-0.24492980539798737,-0.07342686
588.283333333127,-0.054420084,-0.82377005,-0.0001654165,-2.308396,-0.044136234,1.622207,0.8371691,0.039997485,0.039997116,-9.782447,-0.39219653606414795,1.3282337,0.18120506,-0.24874088168144226,-0.07467428
588.2999999997936,-0.05604325,-0.82493985,-0.00017159838,-2.306971,-0.045450907,1.6237305,0.8386905,0.039997388,0.039997015,-9.776486,-0.40070345997810364,1.3690248,0.18417063,-0.2525486648082733,-0.07592187
588.3166666664603,-0.05769226,-0.8261284,-0.00017787897,-2.305523,-0.046786506,1.6252782,0.840236,0.0399973,0.03999692,-9.770226,-0.4091925024986267,1.410447,0.18712871,-0.25634294748306274,-0.07716858
588.3333333331269,-0.059367064,-0.82733566,-0.00018425817,-2.3040524,-0.048142962,1.6268506,0.84180564,0.039997194,0.039996807,-9.763659,-0.4176839292049408,1.4525883,0.1900791,-0.26012763381004333,-0.07841451
588.3499999997936,-0.061067574,-0.82856154,-0.00019073613,-2.3025594,-0.049520236,1.6284466,0.8433994,0.039997097,0.039996702,-9.756823,-0.4261462688446045,1.4953579,0.19302067,-0.2638998031616211,-0.0796598
588.3666666664602,-0.06279372,-0.82980573,-0.00019731207,-2.3010437,-0.05091826,1.6300669,0.8450172,0.039996997,0.039996594,-9.749692,-0.4345797896385193,1.5388335,0.19595173,-0.26766425371170044,-0.08090423
588.3833333331269,-0.06454542,-0.8310684,-0.0002039861,-2.2995055,-0.052336965,1.6317109,0.8466589,0.039996903,0.039996497,-9.74224,-0.4429869055747986,1.5828968,0.19887225,-0.271417498588562,-0.08214623
588.3999999997935,-0.06632255,-0.8323495,-0.00021075753,-2.2979448,-0.053776268,1.6333789,0.8483245,0.039996803,0.03999639,-9.734367,-0.45134371519088745,1.6276505,0.20178063,-0.2751561999320984,-0.08338662
588.4166666664602,-0.068125024,-0.8336489,-0.00021762591,-2.2963622,-0.055236094,1.6350708,0.8500138,0.039996702,0.03999628,-9.726228,-0.4596678912639618,1.6730552,0.20467639,-0.2788815200328827,-0.08462498
588.4333333331268,-0.06995278,-0.8349665,-0.00022459097,-2.2947576,-0.056716353,1.6367861,0.8517268,0.0399966,0.039996173,-9.717792,-0.46792149543762207,1.7190946,0.2075588,-0.28259506821632385,-0.085860796
588.4499999997935,-0.07180566,-0.83630246,-0.00023165227,-2.2931314,-0.058216967,1.6385252,0.85346323,0.039996497,0.03999606,-9.70894,-0.4761188328266144,1.7657591,0.21042664,-0.2862945795059204,-0.087093905
588.4666666664601,-0.073683575,-0.83765614,-0.00023880928,-2.2914832,-0.059737816,1.6402878,0.8552232,0.039996397,0.039995953,-9.699772,-0.48424357175827026,1.8130813,0.21327928,-0.2899789810180664,-0.08832441
588.4833333331268,-0.0755864,-0.83902764,-0.00024606165,-2.289813,-0.061278816,1.6420735,0.8570065,0.039996285,0.039995834,-9.689956,-0.4921427071094513,1.8609463,0.2161157,-0.29364854097366333,-0.089551404
588.4999999997934,-0.07751402,-0.84041727,-0.00025340868,-2.288121,-0.06283988,1.6438825,0.8588129,0.039996173,0.039995715,-9.680263,-0.5002451539039612,1.9095199,0.21893464,-0.2973034083843231,-0.09077512
588.5166666664601,-0.07946625,-0.8418246,-0.0002608503,-2.2864075,-0.06442087,1.645715,0.86064255,0.03999606,0.039995596,-9.669812,-0.5080958604812622,1.9586899,0.2217355,-0.3009365499019623,-0.09199516
588.5333333331267,-0.081443,-0.84324974,-0.0002683856,-2.284672,-0.066021666,1.6475703,0.8624951,0.039995946,0.039995473,-9.659058,-0.5158572793006897,2.00845,0.2245171,-0.30455049872398376,-0.0932117
588.5499999997934,-0.083444074,-0.8446926,-0.00027601392,-2.2829149,-0.067642204,1.6494483,0.86437047,0.03999583,0.03999535,-9.647852,-0.5234919190406799,2.0588439,0.22727834,-0.3081447184085846,-0.094424
588.56666666646,-0.08546935,-0.8461529,-0.00028373484,-2.2811368,-0.06928231,1.651349,0.8662687,0.039995715,0.03999523,-9.63614,-0.5310083627700806,2.1098294,0.23001915,-0.3117150366306305,-0.09563324
588.5833333331267,-0.08751869,-0.8476304,-0.00029154753,-2.2793374,-0.0709419,1.6532722,0.8681893,0.039995596,0.039995104,-9.624178,-0.5384074449539185,2.161407,0.23273729,-0.31526651978492737,-0.09683681
588.5999999997933,-0.0895919,-0.8491251,-0.0002994512,-2.2775173,-0.07262078,1.655218,0.87013227,0.039995484,0.039994985,-9.611722,-0.5456540584564209,2.2135377,0.2354335,-0.3187968134880066,-0.09803526
588.61666666646,-0.09168882,-0.850637,-0.00030744603,-2.2756763,-0.07431886,1.6571858,0.87209743,0.039995365,0.039994862,-9.598825,-0.5527711510658264,2.2662687,0.23810591,-0.32230398058891296,-0.09922974
588.6333333331266,-0.0938093,-0.85216594,-0.00031553052,-2.2738142,-0.076035984,1.6591758,0.87408465,0.03999525,0.039994735,-9.585433,-0.5597108602523804,2.3195693,0.24075429,-0.3257882297039032,-0.10041702
588.6499999997933,-0.09595313,-0.85371184,-0.0003237042,-2.2719314,-0.077772014,1.6611878,0.8760938,0.03999513,0.039994612,-9.571582,-0.5665042996406555,2.373428,0.24337675,-0.3292473256587982,-0.10160053
588.66666666646,-0.09812015,-0.85527444,-0.00033196656,-2.270029,-0.0795268,1.6632217,0.8781247,0.039995003,0.03999448,-9.55726,-0.5731210708618164,2.4278326,0.24597332,-0.3326800763607025,-0.102777384
588.6833333331266,-0.10031014,-0.8568535,-0.00034031714,-2.2681065,-0.08130016,1.6652771,0.88017714,0.039994877,0.039994344,-9.542569,-0.5795602202415466,2.4827862,0.2485426,-0.3360893726348877,-0.10394801
588.6999999997932,-0.1025229,-0.85844904,-0.00034875429,-2.2661633,-0.083091974,1.6673542,0.88225096,0.039994758,0.03999422,-9.527294,-0.5858162641525269,2.5382605,0.25108397,-0.3394729197025299,-0.10511317
588.7166666664599,-0.10475827,-0.8600609,-0.000357278,-2.2642002,-0.08490207,1.6694523,0.88434595,0.03999463,0.039994087,-9.511508,-0.5918661952018738,2.594269,0.2535966,-0.3428272604942322,-0.10627098
588.7333333331266,-0.10701602,-0.86168903,-0.00036588724,-2.2622182,-0.086730264,1.6715714,0.88646185,0.039994508,0.039993957,-9.49498,-0.5975730419158936,2.650733,0.25607938,-0.34615370631217957,-0.107422076
588.7499999997932,-0.10929592,-0.86333317,-0.00037458076,-2.2602162,-0.0885764,1.6737114,0.8885985,0.039994385,0.03999383,-9.478549,-0.6033586859703064,2.7078462,0.2585322,-0.34945541620254517,-0.10856655
588.7666666664599,-0.11159781,-0.8649932,-0.00038335836,-2.2581952,-0.09044029,1.6758717,0.8907558,0.03999426,0.039993696,-9.461201,-0.6087600588798523,2.7653465,0.26095384,-0.3527257740497589,-0.109702915
588.7833333331265,-0.11392143,-0.8666689,-0.00039221888,-2.2561548,-0.09232177,1.6780525,0.8929335,0.039994135,0.039993566,-9.4433975,-0.6139436960220337,2.8233588,0.26334336,-0.35596808791160583,-0.110831514
588.7999999997932,-0.11626658,-0.86836004,-0.0004011616,-2.2540958,-0.094220646,1.6802537,0.8951313,0.039994013,0.03999344,-9.4250765,-0.6188938617706299,2.8818276,0.26569963,-0.35918161273002625,-0.11195279
588.8166666664598,-0.118632995,-0.87006664,-0.00041018563,-2.252018,-0.09613675,1.6824746,0.89734906,0.03999388,0.039993297,-9.4062195,-0.6235857009887695,2.9407578,0.26802224,-0.3623642921447754,-0.11306526
588.8333333331265,-0.12102049,-0.8717886,-0.00041928957,-2.2499218,-0.09806988,1.6847153,0.8995864,0.039993756,0.039993167,-9.386748,-0.6280259490013123,3.000157,0.27031022,-0.365515798330307,-0.11416924
588.8499999997931,-0.12342878,-0.8735256,-0.00042847372,-2.247807,-0.10001984,1.6869752,0.9018433,0.03999362,0.03999303,-9.366781,-0.6322050094604492,3.0599933,0.27256376,-0.36863580346107483,-0.11526522
588.8666666664598,-0.12585765,-0.87527746,-0.0004377356,-2.2456746,-0.10198643,1.689255,0.9041196,0.0399935,0.0399929,-9.346225,-0.6361035108566284,3.120246,0.27478072,-0.37172433733940125,-0.116351105
588.8833333331264,-0.1283068,-0.8770437,-0.0004470753,-2.2435236,-0.10396946,1.691554,0.9064151,0.03999338,0.039992776,-9.3251505,-0.6397411823272705,3.1809042,0.2769604,-0.37477976083755493,-0.11742873
588.8999999997931,-0.13077606,-0.8788247,-0.00045649215,-2.2413554,-0.105968736,1.6938716,0.9087294,0.03999325,0.03999264,-9.303401,-0.6430792212486267,3.2419496,0.279102,-0.37779924273490906,-0.118496425
588.9166666664597,-0.13326515,-0.88062,-0.00046598408,-2.23917,-0.10798402,1.6962079,0.9110622,0.039993115,0.0399925,-9.281146,-0.6461166143417358,3.3034272,0.28120497,-0.38078585267066956,-0.11955373
588.9333333331264,-0.13577373,-0.88242936,-0.0004755506,-2.2369664,-0.11001514,1.6985625,0.91341347,0.039992984,0.039992366,-9.258349,-0.6488633155822754,3.365273,0.2832695,-0.38374093174934387,-0.12060167
588.949999999793,-0.13830164,-0.8842529,-0.00048519042,-2.2347465,-0.112061836,1.7009351,0.9157826,0.03999285,0.03999223,-9.234729,-0.6512838006019592,3.4274404,0.28529269,-0.3866550624370575,-0.121640705
588.9666666664597,-0.14084858,-0.88609004,-0.00049490324,-2.2325099,-0.11412392,1.7033256,0.91816956,0.03999272,0.03999209,-9.21076,-0.6533899307250977,3.490022,0.28727707,-0.38953691720962524,-0.12266612
588.9833333331263,-0.14341424,-0.88794076,-0.0005046879,-2.230257,-0.11620118,1.7057337,0.9205742,0.03999259,0.039991956,-9.185927,-0.6550668478012085,3.5528295,0.28921977,-0.3923839032649994,-0.1236822
588.999999999793,-0.14599837,-0.8898048,-0.0005145426,-2.2279873,-0.11829336,1.7081594,0.9229959,0.039992448,0.03999181,-9.160896,-0.6566410064697266,3.6160982,0.29112065,-0.3951962888240814,-0.124686554
589.0166666664596,-0.14860071,-0.891682,-0.00052446686,-2.2257016,-0.12040025,1.7106018,0.9254348,0.03999233,0.039991684,-9.134907,-0.6577466726303101,3.679592,0.29297942,-0.39796602725982666,-0.12567939
589.0333333331263,-0.15122096,-0.893572,-0.0005344592,-2.2234,-0.122521624,1.7130611,0.92789054,0.039992202,0.039991554,-9.108415,-0.6585087776184082,3.743416,0.29479408,-0.4007013738155365,-0.12666169
589.0499999997929,-0.15385883,-0.895475,-0.0005445185,-2.2210834,-0.124657236,1.715537,0.9303627,0.039992068,0.039991416,-9.081313,-0.6589263677597046,3.8074796,0.29656544,-0.4033999741077423,-0.12762979
589.0666666664596,-0.15651397,-0.8973903,-0.00055464474,-2.2187517,-0.12680689,1.7180294,0.93285114,0.039991938,0.03999128,-9.053547,-0.6589738726615906,3.8718398,0.29829216,-0.4060596525669098,-0.1285856
589.0833333331262,-0.15918618,-0.89931816,-0.0005648357,-2.2164052,-0.1289703,1.7205373,0.93535566,0.03999181,0.039991148,-9.025208,-0.6586792469024658,3.9364238,0.2999742,-0.4086817800998688,-0.1295294
589.0999999997929,-0.16187513,-0.90125823,-0.0005750904,-2.2140434,-0.13114719,1.7230611,0.93787575,0.039991684,0.039991017,-8.996203,-0.6579890847206116,4.0012655,0.3016103,-0.4112676680088043,-0.13045937
589.1166666664595,-0.16458054,-0.9032101,-0.00058540754,-2.211667,-0.13333748,1.7256005,0.94041127,0.03999156,0.03999089,-8.966419,-0.6569156050682068,4.0662985,0.30319983,-0.4138094186782837,-0.13137688
589.1333333331262,-0.1673021,-0.9051737,-0.0005957862,-2.209276,-0.13554078,1.7281551,0.94296205,0.03999144,0.03999076,-8.936104,-0.6554527878761292,4.1315374,0.3047423,-0.4163108766078949,-0.1322797
589.1499999997928,-0.17003942,-0.90714884,-0.00060622516,-2.2068717,-0.13775685,1.7307246,0.9455276,0.03999131,0.03999063,-8.905057,-0.6536094546318054,4.1969585,0.30623636,-0.4187689423561096,-0.13316981
589.1666666664595,-0.17279233,-0.9091351,-0.0006167232,-2.2044547,-0.1399854,1.7333086,0.94810766,0.03999118,0.039990496,-8.873525,-0.6513968110084534,4.262577,0.30768368,-0.4211895763874054,-0.1340452
589.1833333331261,-0.17556041,-0.9111324,-0.0006272802,-2.2020237,-0.1422263,1.7359066,0.950702,0.039991062,0.039990373,-8.84137,-0.648766815662384,4.328335,0.30908284,-0.4235736131668091,-0.1349052
589.1999999997928,-0.17834336,-0.91314036,-0.0006378932,-2.1995792,-0.14447923,1.7385187,0.9533103,0.039990935,0.039990243,-8.808394,-0.6457220315933228,4.3942127,0.3104328,-0.42591506242752075,-0.13575038
589.2166666664594,-0.18114087,-0.91515887,-0.00064856175,-2.1971216,-0.14674398,1.7411445,0.95593214,0.039990816,0.03999012,-8.774722,-0.6422683000564575,4.4601874,0.31173328,-0.4282117187976837,-0.13658047
589.2333333331261,-0.18395263,-0.91718775,-0.0006592846,-2.194652,-0.14902021,1.7437838,0.9585676,0.039990693,0.039989993,-8.740277,-0.6383175849914551,4.526189,0.31298417,-0.43046432733535767,-0.13739529
589.2499999997927,-0.1867783,-0.9192267,-0.0006700611,-2.1921697,-0.15130769,1.746436,0.961216,0.039990578,0.039989874,-8.705613,-0.6341155767440796,4.5925045,0.3141837,-0.4326770007610321,-0.13819383
589.2666666664594,-0.18961759,-0.9212755,-0.0006808893,-2.1896753,-0.15360613,1.7491012,0.9638771,0.03999044,0.039989732,-8.669965,-0.6294047236442566,4.658746,0.31533307,-0.43484485149383545,-0.13897613
589.283333333126,-0.19247012,-0.92333394,-0.000691768,-2.1871698,-0.15591532,1.7517785,0.9665505,0.039990313,0.0399896,-8.633744,-0.624267041683197,4.7250586,0.31643093,-0.4369688332080841,-0.13974208
589.2999999997927,-0.19533558,-0.92540187,-0.000702696,-2.184652,-0.15823491,1.7544681,0.96923625,0.039990194,0.03998948,-8.59689,-0.6187109351158142,4.7914276,0.3174786,-0.43905115127563477,-0.14049073
589.3166666664594,-0.19821362,-0.92747897,-0.0007136719,-2.1821241,-0.16056466,1.7571695,0.97193354,0.039990075,0.039989356,-8.5591955,-0.6126845479011536,4.857778,0.3184728,-0.4410848319530487,-0.14122283
589.333333333126,-0.2011039,-0.92956483,-0.00072469376,-2.1795847,-0.16290435,1.7598823,0.97464234,0.039989952,0.03998923,-8.521081,-0.6062696576118469,4.9241776,0.3194163,-0.44307762384414673,-0.14193723
589.3499999997927,-0.20400606,-0.9316594,-0.0007357614,-2.1770346,-0.16525367,1.7626063,0.9773623,0.03998983,0.039989103,-8.482098,-0.5993848443031311,4.9905014,0.3203071,-0.44502294063568115,-0.14263473
589.3666666664593,-0.2069198,-0.9337622,-0.00074687315,-2.174475,-0.16761234,1.765341,0.9800931,0.039989717,0.039988987,-8.442547,-0.5920565128326416,5.0568347,0.32114518,-0.44692352414131165,-0.14331344
589.383333333126,-0.2098448,-0.9358731,-0.00075802807,-2.1719048,-0.16998003,1.7680866,0.98283446,0.0399896,0.039988868,-8.4024105,-0.5843121409416199,5.123101,0.32193014,-0.44878071546554565,-0.14397278
589.3999999997926,-0.21278065,-0.9379919,-0.0007692238,-2.1693249,-0.17235653,1.7708421,0.985586,0.039989498,0.039988764,-8.361441,-0.5760939717292786,5.189267,0.3226618,-0.4505887031555176,-0.14461507
589.4166666664593,-0.21572699,-0.9401186,-0.0007804597,-2.1667364,-0.1747415,1.7736077,0.9883475,0.039989393,0.03998866,-8.319887,-0.5674310922622681,5.255392,0.3233399,-0.4523502290248871,-0.14523834
589.4333333331259,-0.21868347,-0.94225305,-0.000791735,-2.1641386,-0.17713474,1.7763828,0.9911185,0.03998929,0.039988548,-8.277773,-0.5583271384239197,5.321429,0.32396457,-0.4540667235851288,-0.14583996
589.4499999997926,-0.2216498,-0.9443944,-0.0008030474,-2.1615326,-0.17953588,1.7791672,0.99389863,0.03998919,0.039988447,-8.234845,-0.5487586259841919,5.387334,0.3245349,-0.4557337164878845,-0.14642446
589.4666666664592,-0.2246256,-0.9465423,-0.00081439613,-2.1589181,-0.18194471,1.7819604,0.99668777,0.039989084,0.03998834,-8.191452,-0.5387691855430603,5.4530854,0.32505244,-0.45735689997673035,-0.14698723
589.4833333331259,-0.22761048,-0.94869703,-0.00082577916,-2.1562953,-0.18436089,1.7847619,0.9994852,0.039988995,0.03998825,-8.14718,-0.5282701253890991,5.5185375,0.3255147,-0.45893198251724243,-0.14753057
589.4999999997925,-0.23060408,-0.95085824,-0.0008371955,-2.1536646,-0.18678413,1.7875718,1.0022908,0.039988898,0.039988153,-8.10247,-0.5174015760421753,5.5840755,0.325924,-0.460458368062973,-0.14805345
589.5166666664592,-0.23360609,-0.95302546,-0.00084864424,-2.151027,-0.1892141,1.7903894,1.0051045,0.0399888,0.039988052,-8.05699,-0.5060288310050964,5.6492925,0.32627892,-0.4619336426258087,-0.14855532
589.5333333331258,-0.23661608,-0.95519835,-0.00086012395,-2.148382,-0.19165054,1.7932146,1.0079256,0.039988708,0.039987955,-8.011029,-0.4942336082458496,5.714336,0.32657874,-0.46336448192596436,-0.1490353
589.5499999997925,-0.23963368,-0.95737714,-0.0008716317,-2.1457303,-0.19409318,1.796047,1.010754,0.03998862,0.039987866,-7.964305,-0.4819736182689667,5.7791004,0.326825,-0.4647456705570221,-0.14949498
589.5666666664591,-0.24265864,-0.9595611,-0.0008831675,-2.1430721,-0.19654167,1.7988863,1.0135893,0.039988525,0.039987773,-7.9169846,-0.46926385164260864,5.8436823,0.32701656,-0.4660767614841461,-0.14993325
589.5833333331258,-0.24569046,-0.9617502,-0.00089472946,-2.1404073,-0.1989958,1.8017322,1.0164307,0.03998844,0.039987683,-7.86905,-0.4561010003089905,5.9079676,0.32715356,-0.46735790371894836,-0.15034957
589.5999999997924,-0.24872881,-0.9639441,-0.0009063168,-2.1377366,-0.2014552,1.8045844,1.0192785,0.03998836,0.039987605,-7.8204165,-0.4424792230129242,5.971975,0.32723683,-0.46858665347099304,-0.15074335
589.6166666664591,-0.2517734,-0.96614254,-0.00091792754,-2.1350605,-0.20391962,1.8074421,1.0221323,0.039988264,0.03998751,-7.7712154,-0.4284442067146301,6.0356894,0.32726562,-0.46976351737976074,-0.15111601
589.6333333331257,-0.25482386,-0.9683453,-0.00092956057,-2.1323795,-0.20638877,1.8103055,1.0249914,0.039988168,0.03998741,-7.721493,-0.41395094990730286,6.0991335,0.32723892,-0.4708923399448395,-0.1514661
589.6499999997924,-0.25787959,-0.9705519,-0.0009412146,-2.1296935,-0.20886226,1.8131739,1.0278554,0.03998808,0.039987322,-7.671166,-0.39900556206703186,6.16224,0.32715917,-0.47197046875953674,-0.15179092
589.666666666459,-0.26094046,-0.97276235,-0.00095288706,-2.1270034,-0.21133989,1.816047,1.0307244,0.039988,0.039987244,-7.620173,-0.38366004824638367,6.224969,0.32702696,-0.4729969799518585,-0.15209483
589.6833333331257,-0.26400602,-0.9749762,-0.00096457795,-2.1243086,-0.2138213,1.8189244,1.0335977,0.03998792,0.039987165,-7.5686913,-0.3678516149520874,6.287396,0.32683983,-0.473974347114563,-0.15237394
589.6999999997923,-0.26707584,-0.9771931,-0.00097628497,-2.1216104,-0.21630622,1.8218058,1.036475,0.039987843,0.039987087,-7.516529,-0.3516188859939575,6.349399,0.32659888,-0.47489801049232483,-0.15263052
589.716666666459,-0.27014962,-0.9794129,-0.0009880067,-2.1189084,-0.2187943,1.8246909,1.0393561,0.039987773,0.039987016,-7.463922,-0.33497461676597595,6.4110374,0.32630658,-0.47577276825904846,-0.15286243
589.7333333331256,-0.273227,-0.9816355,-0.0009997416,-2.1162033,-0.22128531,1.8275796,1.0422407,0.0399877,0.039986942,-7.4105806,-0.3178875148296356,6.472147,0.32595977,-0.4765937328338623,-0.1530708
589.7499999997923,-0.2763076,-0.9838604,-0.0010114897,-2.1134956,-0.22377886,1.8304715,1.0451277,0.039987627,0.03998687,-7.356866,-0.3003809452056885,6.533085,0.32555977,-0.4773619472980499,-0.15325485
589.766666666459,-0.279391,-0.98608744,-0.0010232468,-2.1107843,-0.22627471,1.833366,1.0480174,0.039987557,0.0399868,-7.3025675,-0.28248658776283264,6.5934463,0.32510963,-0.4780771732330322,-0.15341479
589.7833333331256,-0.28247684,-0.9883163,-0.0010350136,-2.1080713,-0.22877252,1.8362623,1.0509099,0.039987493,0.039986737,-7.2475643,-0.2641362249851227,6.653341,0.3246069,-0.4787343442440033,-0.1535513
589.7999999997922,-0.28556466,-0.99054664,-0.0010467878,-2.105357,-0.23127192,1.8391613,1.0538037,0.03998742,0.039986663,-7.1922717,-0.24541828036308289,6.712852,0.32404986,-0.4793434143066406,-0.15366161
589.8166666664589,-0.28865424,-0.9927783,-0.0010585687,-2.1026409,-0.23377272,1.8420613,1.0566998,0.039987363,0.03998661,-7.136444,-0.2263285368680954,6.7718205,0.323445,-0.4798988401889801,-0.15374945
589.8333333331256,-0.291745,-0.995011,-0.0010703547,-2.0999234,-0.23627463,1.8449625,1.0595967,0.039987303,0.03998655,-7.0800242,-0.20679259300231934,6.83031,0.32278553,-0.4804009795188904,-0.15380988
589.8499999997922,-0.29483673,-0.9972444,-0.0010821435,-2.097205,-0.23877724,1.8478649,1.0624942,0.039987247,0.039986495,-7.0231147,-0.18689140677452087,6.8883033,0.3220775,-0.4808487296104431,-0.15384571
589.8666666664589,-0.297929,-0.99947816,-0.0010939348,-2.0944858,-0.2412803,1.8507677,1.0653923,0.03998719,0.03998644,-6.965716,-0.166606605052948,6.94575,0.3213195,-0.48123958706855774,-0.15385737
589.8833333331255,-0.3010214,-1.0017121,-0.0011057262,-2.0917666,-0.24378349,1.8536707,1.0682907,0.039987136,0.039986387,-6.907884,-0.14596383273601532,7.0026817,0.3205119,-0.48157644271850586,-0.15384471
589.8999999997922,-0.30411357,-1.0039462,-0.0011175158,-2.0890477,-0.24628654,1.8565735,1.0711887,0.03998709,0.039986342,-6.849615,-0.12492825090885162,7.0590897,0.31965363,-0.48185980319976807,-0.15380497
589.9166666664588,-0.30720514,-1.0061798,-0.0011293035,-2.0863295,-0.24878909,1.8594759,1.0740861,0.039987046,0.039986297,-6.79086,-0.10353334993124008,7.114942,0.3187478,-0.48208773136138916,-0.15374002
589.9333333331255,-0.3102957,-1.0084127,-0.0011410873,-2.083612,-0.25129086,1.8623767,1.0769827,0.039986998,0.03998625,-6.731725,-0.08180558681488037,7.170207,0.31779385,-0.4822619557380676,-0.1536493
589.9499999997921,-0.31338486,-1.0106449,-0.0011528658,-2.0808957,-0.25379148,1.8652765,1.0798786,0.039986968,0.039986223,-6.672128,-0.05971847102046013,7.2249026,0.31679127,-0.48238319158554077,-0.15353297
589.9666666664588,-0.3164723,-1.0128757,-0.0011646372,-2.07818,-0.25629073,1.868175,1.0827721,0.03998694,0.039986197,-6.6120734,-0.03727789968252182,7.2789965,0.31573945,-0.4824465215206146,-0.15339215
589.9833333331254,-0.31955767,-1.0151051,-0.0011764,-2.0754664,-0.25878832,1.8710711,1.0856643,0.0399869,0.03998616,-6.551564,-0.014553834684193134,7.3323317,0.3146429,-0.48244988918304443,-0.15322624
589.9999999997921,-0.32264045,-1.0173327,-0.0011881529,-2.072755,-0.26128387,1.8739647,1.0885537,0.03998688,0.03998614,-6.4908357,0.00858396477997303,7.3853564,0.31349778,-0.48240193724632263,-0.1530335
590.0166666664587,-0.3257204,-1.0195581,-0.0011998948,-2.070046,-0.2637771,1.8768562,1.0914404,0.039986838,0.0399861,-6.4296575,0.031976424157619476,7.4375973,0.31230894,-0.48229825496673584,-0.15281461
590.0333333331254,-0.3287971,-1.0217817,-0.0012116238,-2.0673404,-0.26626778,1.8797445,1.0943247,0.039986808,0.039986074,-6.3680806,0.05569258704781532,7.4891953,0.31107423,-0.48213469982147217,-0.15257163
590.049999999792,-0.33187017,-1.0240026,-0.0012233387,-2.0646377,-0.26875547,1.8826292,1.0972054,0.03998678,0.03998605,-6.306254,0.07970938086509705,7.540229,0.30979386,-0.4819173216819763,-0.15230131
590.0666666664587,-0.33493924,-1.0262206,-0.001235038,-2.061938,-0.27123988,1.8855101,1.1000823,0.03998676,0.03998603,-6.2440476,0.10401001572608948,7.590559,0.30847004,-0.4816453456878662,-0.15200612
590.0833333331253,-0.33800384,-1.0284351,-0.0012467195,-2.0592425,-0.27372092,1.8883871,1.1029552,0.039986737,0.03998601,-6.181419,0.128618061542511,7.6401916,0.30710277,-0.4813133478164673,-0.15168662
590.099999999792,-0.34106377,-1.0306468,-0.0012583829,-2.056551,-0.27619803,1.8912597,1.1058233,0.039986726,0.039986003,-6.118645,0.15344254672527313,7.689172,0.30569315,-0.48092618584632874,-0.15133968
590.1166666664586,-0.34411848,-1.0328547,-0.0012700268,-2.0538635,-0.27867097,1.8941272,1.1086863,0.03998672,0.039986,-6.05546,0.178595632314682,7.7375174,0.30424333,-0.48048070073127747,-0.15096922
590.1333333331253,-0.3471677,-1.0350586,-0.0012816488,-2.051181,-0.28113952,1.8969893,1.1115446,0.03998671,0.039985996,-5.9919863,0.20397637784481049,7.785128,0.30275267,-0.4799771010875702,-0.15057419
590.1499999997919,-0.3502111,-1.0372586,-0.0012932481,-2.0485034,-0.28360325,1.8998467,1.1143969,0.0399867,0.039985985,-5.928346,0.2295951098203659,7.8320904,0.30122092,-0.4794188439846039,-0.15015163
590.1666666664586,-0.3532482,-1.0394539,-0.0013048232,-2.0458317,-0.28606194,1.9026974,1.1172439,0.0399867,0.039985985,-5.8643203,0.25548550486564636,7.8783264,0.29965022,-0.47879835963249207,-0.14970699
590.1833333331252,-0.35627875,-1.0416443,-0.0013163721,-2.0431662,-0.2885154,1.9055423,1.1200842,0.0399867,0.03998599,-5.800257,0.281543493270874,7.923884,0.29803956,-0.4781266450881958,-0.14923592
590.1999999997919,-0.35930225,-1.0438299,-0.0013278939,-2.0405056,-0.2909633,1.9083806,1.1229179,0.039986707,0.039986,-5.735923,0.3078247010707855,7.968727,0.29639375,-0.4773983061313629,-0.14873978
590.2166666664585,-0.3623184,-1.0460103,-0.0013393868,-2.0378518,-0.29340518,1.9112121,1.1257452,0.039986715,0.03998601,-5.671164,0.33438485860824585,8.012797,0.29470903,-0.47660723328590393,-0.14821993
590.2333333331252,-0.3653268,-1.048185,-0.0013508501,-2.035205,-0.29584086,1.9140363,1.128565,0.039986733,0.039986037,-5.606461,0.3609919846057892,8.05614,0.29298627,-0.4757600426673889,-0.14767687
590.2499999997918,-0.36832714,-1.0503541,-0.0013622823,-2.0325649,-0.29827002,1.9168528,1.1313772,0.03998676,0.039986067,-5.54148,0.3879736363887787,8.098888,0.29122913,-0.47485655546188354,-0.14710793
590.2666666664585,-0.37131897,-1.0525173,-0.0013736816,-2.0299323,-0.30069238,1.9196615,1.1341817,0.03998678,0.039986093,-5.4762883,0.4150712192058563,8.140829,0.2894363,-0.47389355301856995,-0.14651561
590.2833333331251,-0.37430203,-1.054674,-0.0013850466,-2.0273073,-0.30310762,1.922462,1.1369778,0.039986808,0.039986122,-5.4109974,0.4423232674598694,8.182043,0.28760892,-0.4728727340698242,-0.14590022
590.2999999997918,-0.3772761,-1.0568244,-0.001396376,-2.02469,-0.30551544,1.9252534,1.139765,0.03998683,0.03998615,-5.3456264,0.469716876745224,8.222521,0.28574857,-0.4717949330806732,-0.14526089
590.3166666664584,-0.3802405,-1.0589681,-0.0014076689,-2.0220814,-0.3079156,1.9280362,1.1425437,0.039986864,0.03998619,-5.279988,0.49731284379959106,8.262241,0.28385568,-0.47065821290016174,-0.14459883
590.3333333331251,-0.38319495,-1.0611045,-0.0014189231,-2.019482,-0.31030783,1.9308099,1.145313,0.039986894,0.039986223,-5.21442,0.5249907970428467,8.301272,0.28193066,-0.46946465969085693,-0.14391352
590.3499999997917,-0.38613927,-1.0632337,-0.0014301378,-2.0168908,-0.3126918,1.9335738,1.1480728,0.039986927,0.039986264,-5.148781,0.552787184715271,8.339541,0.2799752,-0.4682158827781677,-0.14320605
590.3666666664584,-0.38907298,-1.0653551,-0.0014413116,-2.0143087,-0.3150672,1.9363277,1.1508226,0.039986953,0.039986294,-5.082907,0.580755889415741,8.377012,0.27798876,-0.4669063985347748,-0.14247525
590.383333333125,-0.3919957,-1.0674684,-0.001452442,-2.0117366,-0.31743374,1.9390715,1.1535623,0.039986998,0.039986342,-5.017073,0.6087993383407593,8.413765,0.2759734,-0.46554023027420044,-0.14172257
590.3999999997917,-0.3949072,-1.0695741,-0.0014635298,-2.009174,-0.31979123,1.9418045,1.1562912,0.039987035,0.039986383,-4.95127,0.6369171738624573,8.449792,0.2739296,-0.4641183316707611,-0.14094803
590.4166666664584,-0.397807,-1.0716714,-0.001474572,-2.0066216,-0.32213935,1.9445268,1.1590093,0.039987087,0.039986443,-4.885261,0.6651936173439026,8.485069,0.27185798,-0.4626370966434479,-0.14015315
590.433333333125,-0.40069485,-1.0737602,-0.0014855679,-2.0040803,-0.32447785,1.9472377,1.1617161,0.03998714,0.0399865,-4.819355,0.6934940218925476,8.519579,0.26975992,-0.46109744906425476,-0.13933663
590.4499999997917,-0.4035704,-1.07584,-0.0014965159,-2.001549,-0.32680643,1.9499371,1.1644112,0.039987195,0.03998656,-4.753503,0.721873939037323,8.553399,0.26763707,-0.45950350165367126,-0.1384984
590.4666666664583,-0.40643325,-1.0779105,-0.001507415,-1.9990294,-0.3291247,1.9526246,1.1670945,0.03998724,0.03998661,-4.687535,0.7503149509429932,8.586402,0.2654883,-0.45784991979599,-0.13764144
590.483333333125,-0.40928313,-1.0799716,-0.001518264,-1.9965209,-0.33143255,1.9553001,1.169766,0.039987292,0.039986666,-4.621921,0.7786511778831482,8.618674,0.2633168,-0.45614370703697205,-0.136763
590.4999999997916,-0.41211975,-1.0820234,-0.0015290612,-1.994024,-0.33372965,1.957963,1.1724246,0.03998735,0.039986733,-4.55599,0.8072896599769592,8.650242,0.26111993,-0.454378604888916,-0.13586596
590.5166666664583,-0.41494268,-1.0840652,-0.0015398058,-1.9915391,-0.33601573,1.960613,1.1750704,0.03998741,0.039986797,-4.4902034,0.8358685970306396,8.681071,0.25890172,-0.45255613327026367,-0.13494873
590.5333333331249,-0.41775158,-1.086097,-0.0015504959,-1.9890666,-0.33829054,1.9632498,1.1777034,0.039987482,0.039986875,-4.424606,0.8644083142280579,8.711142,0.25666216,-0.4506787955760956,-0.13401361
590.5499999997916,-0.4205462,-1.0881189,-0.0015611304,-1.9866064,-0.3405538,1.9658731,1.1803225,0.039987553,0.03998695,-4.359051,0.8929983377456665,8.740496,0.25440034,-0.4487453103065491,-0.13305855
590.5666666664582,-0.42332616,-1.0901301,-0.0015717092,-1.9841592,-0.3428052,1.9684829,1.182928,0.03998762,0.039987024,-4.2935333,0.921600341796875,8.769103,0.25212026,-0.4467540681362152,-0.13208665
590.5833333331249,-0.42609122,-1.0921303,-0.0015822297,-1.9817251,-0.34504458,1.9710786,1.1855198,0.039987702,0.039987113,-4.2283,0.9501286149024963,8.7970085,0.24982144,-0.444709450006485,-0.13109788
590.5999999997915,-0.428841,-1.0941197,-0.0015926915,-1.9793041,-0.34727174,1.97366,1.1880972,0.039987788,0.039987203,-4.1631446,0.9786662459373474,8.824151,0.24750248,-0.4426083564758301,-0.1300905
590.6166666664582,-0.43157512,-1.0960978,-0.0016030929,-1.9768965,-0.34948626,1.9762272,1.1906599,0.03998787,0.03998729,-4.098062,1.0072109699249268,8.850583,0.24516587,-0.4404502511024475,-0.12906687
590.6333333331248,-0.43429336,-1.0980647,-0.0016134331,-1.9745032,-0.35168794,1.9787792,1.1932075,0.03998796,0.039987385,-4.033216,1.0356632471084595,8.876309,0.24281356,-0.4382367432117462,-0.12802874
590.6499999997915,-0.4369954,-1.1000199,-0.0016237096,-1.9721241,-0.35387653,1.9813157,1.1957402,0.039988056,0.039987486,-3.968593,1.0640965700149536,8.901363,0.24044645,-0.43597039580345154,-0.12697361
590.6666666664581,-0.43968093,-1.1019629,-0.0016339233,-1.9697595,-0.35605177,1.9838368,1.1982576,0.039988153,0.039987586,-3.9041097,1.0924692153930664,8.925691,0.23806253,-0.43364885449409485,-0.12590306
590.6833333331248,-0.44234964,-1.1038941,-0.0016440714,-1.9674094,-0.35821354,1.986342,1.2007592,0.03998826,0.0399877,-3.8399358,1.1207431554794312,8.949308,0.23566476,-0.43127650022506714,-0.12481764
590.6999999997914,-0.44500127,-1.105813,-0.001654154,-1.9650748,-0.36036158,1.9888312,1.2032449,0.039988354,0.0399878,-3.7758718,1.1490037441253662,8.972246,0.23325297,-0.42884862422943115,-0.123717114
590.7166666664581,-0.4476354,-1.1077193,-0.0016641691,-1.9627551,-0.36249542,1.9913042,1.2057137,0.03998846,0.039987907,-3.712184,1.177120327949524,8.994533,0.23082924,-0.4263709485530853,-0.12260226
590.7333333331247,-0.45025188,-1.1096128,-0.0016741162,-1.960451,-0.36461496,1.9937606,1.2081661,0.039988562,0.03998802,-3.6488,1.2050306797027588,9.016063,0.2283951,-0.423837810754776,-0.12147626
590.7499999997914,-0.45285052,-1.1114932,-0.0016839935,-1.9581625,-0.36672002,1.9962,1.2106019,0.039988674,0.039988134,-3.5854108,1.233119249343872,9.036982,0.22595026,-0.42125335335731506,-0.12033582
590.766666666458,-0.4554309,-1.1133608,-0.0016938011,-1.9558907,-0.36881033,1.9986224,1.2130207,0.039988782,0.03998825,-3.5224714,1.2609450817108154,9.057221,0.22349378,-0.4186171293258667,-0.119183294
590.7833333331247,-0.45799264,-1.1152151,-0.0017035371,-1.9536345,-0.3708857,2.001027,1.2154214,0.039988905,0.03998838,-3.4598382,1.2886748313903809,9.076844,0.22102714,-0.4159310758113861,-0.11801825
590.7999999997913,-0.4605356,-1.1170557,-0.0017132004,-1.9513952,-0.37294593,2.0034144,1.2178053,0.039989017,0.0399885,-3.397429,1.3162850141525269,9.095763,0.21855502,-0.4131922721862793,-0.1168426
590.816666666458,-0.4630594,-1.1188824,-0.0017227907,-1.9491724,-0.3749907,2.0057836,1.220171,0.03998913,0.039988615,-3.335455,1.3437341451644897,9.114056,0.2160724,-0.41040366888046265,-0.11565422
590.8333333331246,-0.46556395,-1.1206951,-0.001732305,-1.9469666,-0.37701988,2.0081344,1.2225184,0.03998925,0.039988745,-3.2737894,1.3710507154464722,9.131734,0.21358308,-0.4075660705566406,-0.114456624
590.8499999997913,-0.46804887,-1.1224935,-0.0017417442,-1.9447782,-0.37903315,2.010467,1.2248474,0.039989367,0.039988868,-3.2124918,1.3982197046279907,9.148786,0.21108837,-0.404681921005249,-0.11324741
590.866666666458,-0.47051388,-1.1242776,-0.0017511065,-1.9426069,-0.38103035,2.0127811,1.227158,0.039989483,0.039988987,-3.1515377,1.4252221584320068,9.165202,0.20858839,-0.40174737572669983,-0.1120287
590.8833333331246,-0.47295874,-1.1260474,-0.0017603909,-1.9404529,-0.38301137,2.0150762,1.2294489,0.039989613,0.039989125,-3.0909033,1.452083706855774,9.181026,0.20608203,-0.3987636864185333,-0.11080268
590.8999999997912,-0.47538322,-1.1278023,-0.0017695973,-1.9383173,-0.38497576,2.0173523,1.2317216,0.03998974,0.03998926,-3.030621,1.47878098487854,9.196227,0.20357445,-0.3957308530807495,-0.10956832
590.9166666664579,-0.47778705,-1.1295422,-0.0017787247,-1.9361998,-0.38692352,2.0196087,1.2339752,0.039989866,0.039989393,-2.97089,1.5052661895751953,9.21091,0.20105928,-0.3926529288291931,-0.10832597
590.9333333331246,-0.48017,-1.1312677,-0.0017877717,-1.9341007,-0.38885444,2.0218458,1.2362086,0.039989993,0.039989527,-2.9115045,1.5315946340560913,9.224984,0.19854157,-0.3895310163497925,-0.10707517
590.9499999997912,-0.48253182,-1.132978,-0.0017967373,-1.93202,-0.39076823,2.024063,1.2384223,0.039990116,0.039989658,-2.8524573,1.5577467679977417,9.238493,0.19602369,-0.3863605260848999,-0.10581834
590.9666666664579,-0.4848723,-1.1346728,-0.0018056206,-1.9299581,-0.39266485,2.0262604,1.2406161,0.039990246,0.039989796,-2.7938406,1.5837113857269287,9.251426,0.19350208,-0.38314294815063477,-0.10455612
590.9833333331245,-0.48719114,-1.1363518,-0.0018144207,-1.9279153,-0.39454406,2.0284374,1.2427896,0.039990377,0.03998993,-2.7359965,1.609297275543213,9.263863,0.19098014,-0.3798823952674866,-0.10328548
590.9999999997912,-0.48948818,-1.1380154,-0.001823137,-1.9258918,-0.39640573,2.030594,1.2449428,0.039990507,0.039990067,-2.6781678,1.6349443197250366,9.2757015,0.18845923,-0.37657931447029114,-0.10201096
591.0166666664578,-0.49176323,-1.1396629,-0.0018317684,-1.9238877,-0.39824936,2.0327299,1.2470748,0.039990634,0.0399902,-2.6209521,1.660274624824524,9.287056,0.18593821,-0.373232364654541,-0.10073099
591.0333333331245,-0.49401605,-1.1412944,-0.0018403145,-1.9219028,-0.40007517,2.0348446,1.2491868,0.03999077,0.039990347,-2.5642977,1.6853493452072144,9.2978945,0.18342054,-0.36984702944755554,-0.09944646
591.0499999997911,-0.49624637,-1.1429095,-0.0018487746,-1.9199377,-0.4018829,2.0369382,1.2512774,0.039990902,0.039990485,-2.508004,1.7102495431900024,9.308182,0.18090026,-0.36641818284988403,-0.09815715
591.0666666664578,-0.49845415,-1.1445082,-0.001857147,-1.9179927,-0.40367225,2.0390105,1.2533467,0.03999103,0.03999062,-2.4523337,1.7348663806915283,9.318018,0.17838399,-0.3629506528377533,-0.09686381
591.0833333331244,-0.500639,-1.1460905,-0.0018654318,-1.916068,-0.40544307,2.041062,1.2553945,0.039991166,0.03999076,-2.3971217,1.759278416633606,9.327365,0.17587197,-0.3594435453414917,-0.09556589
591.0999999997911,-0.5028009,-1.1476564,-0.0018736282,-1.9141634,-0.40719527,2.0430918,1.2574207,0.039991315,0.039990917,-2.342397,1.783434510231018,9.336229,0.17336287,-0.35589537024497986,-0.094268
591.1166666664577,-0.50493944,-1.1492056,-0.0018817355,-1.9122791,-0.40892872,2.0450993,1.259425,0.039991446,0.039991055,-2.2881606,1.8073726892471313,9.344641,0.17085744,-0.35230928659439087,-0.09296762
591.1333333331244,-0.50705457,-1.1507378,-0.0018897533,-1.9104155,-0.41064316,2.0470853,1.2614075,0.03999158,0.039991196,-2.234543,1.8310412168502808,9.35261,0.16835697,-0.34868836402893066,-0.091663994
591.149999999791,-0.50914615,-1.1522523,-0.0018976801,-1.9085724,-0.41233853,2.0490487,1.2633678,0.039991714,0.039991334,-2.181384,1.8544706106185913,9.360116,0.16586106,-0.3450285792350769,-0.09035997
591.1666666664577,-0.51121396,-1.1537508,-0.0019055163,-1.9067503,-0.41401473,2.0509899,1.265306,0.03999185,0.039991476,-2.128886,1.877600073814392,9.367197,0.16337168,-0.341336727142334,-0.08905408
591.1833333331243,-0.51325774,-1.1552311,-0.0019132607,-1.9049493,-0.4156714,2.0529087,1.2672216,0.03999198,0.039991613,-2.0767233,1.9005765914916992,9.373878,0.16088574,-0.3376061022281647,-0.08774882
591.199999999791,-0.51527745,-1.1566935,-0.0019209122,-1.9031694,-0.41730875,2.054805,1.2691144,0.03999212,0.03999176,-2.0253868,1.9231547117233276,9.380131,0.15840836,-0.33384400606155396,-0.08644298
591.2166666664576,-0.517273,-1.1581395,-0.0019284703,-1.9014109,-0.41892633,2.0566788,1.2709846,0.039992254,0.0399919,-1.9746293,1.9454740285873413,9.38601,0.1559405,-0.33005258440971375,-0.08513734
591.2333333331243,-0.5192439,-1.1595675,-0.0019359353,-1.8996743,-0.42052424,2.0585291,1.272832,0.03999239,0.039992042,-1.9243716,1.9675301313400269,9.39156,0.15347569,-0.3262234330177307,-0.08383387
591.2499999997909,-0.5211902,-1.1609775,-0.0019433061,-1.8979591,-0.42210233,2.060356,1.2746564,0.039992526,0.039992187,-1.8745301,1.9894503355026245,9.396659,0.1510219,-0.3223695456981659,-0.082530275
591.2666666664576,-0.52311206,-1.16237,-0.0019505828,-1.8962656,-0.42366037,2.0621595,1.2764578,0.039992668,0.039992332,-1.8254558,2.010998010635376,9.401419,0.1485763,-0.3184879720211029,-0.0812257
591.2833333331242,-0.52500904,-1.1637446,-0.0019577642,-1.8945938,-0.42519832,2.06394,1.2782356,0.03999281,0.03999248,-1.7768745,2.0322749614715576,9.405806,0.14613804,-0.3145758807659149,-0.079924494
591.2999999997909,-0.52688074,-1.165101,-0.00196485,-1.892944,-0.42671597,2.0656977,1.2799902,0.039992943,0.03999262,-1.728945,2.0532710552215576,9.409859,0.14371032,-0.3106338679790497,-0.07862525
591.3166666664575,-0.5287276,-1.166439,-0.0019718395,-1.891316,-0.42821336,2.0674317,1.2817212,0.039993085,0.03999277,-1.6816497,2.0739545822143555,9.413604,0.14129162,-0.30666571855545044,-0.07733182
591.3333333331242,-0.53054917,-1.1677592,-0.0019787326,-1.8897105,-0.42969033,2.0691419,1.2834285,0.039993227,0.039992917,-1.6349938,2.094355821609497,9.417005,0.13888285,-0.3026723265647888,-0.07604028
591.3499999997908,-0.53234535,-1.169061,-0.0019855297,-1.8881272,-0.43114686,2.0708277,1.2851121,0.039993364,0.03999306,-1.5889052,2.114497661590576,9.420145,0.1364854,-0.2986539602279663,-0.074751325
591.3666666664575,-0.5341162,-1.1703444,-0.0019922294,-1.8865663,-0.4325828,2.0724902,1.2867719,0.039993502,0.039993204,-1.5435114,2.134316921234131,9.42298,0.13409907,-0.2946151793003082,-0.07346623
591.3833333331241,-0.5358615,-1.1716093,-0.0019988324,-1.885028,-0.43399805,2.0741284,1.2884078,0.039993633,0.039993342,-1.4986861,2.153855323791504,9.425509,0.13172394,-0.29055264592170715,-0.07218573
591.3999999997908,-0.5375811,-1.1728555,-0.0020053368,-1.8835123,-0.4353926,2.0757432,1.2900195,0.039993763,0.039993476,-1.4545933,2.1730856895446777,9.427802,0.12936084,-0.2864711880683899,-0.070908226
591.4166666664574,-0.53927505,-1.174083,-0.0020117438,-1.882019,-0.43676642,2.0773332,1.2916075,0.039993905,0.039993625,-1.4110776,2.191995620727539,9.429785,0.12701066,-0.28236764669418335,-0.06963833
591.4333333331241,-0.54094326,-1.175292,-0.002018052,-1.8805482,-0.43811935,2.0788994,1.2931713,0.03999404,0.039993763,-1.3682716,2.210648536682129,9.431564,0.12467216,-0.2782493233680725,-0.068369485
591.4499999997907,-0.5425856,-1.1764824,-0.0020242622,-1.8790998,-0.43945134,2.080441,1.294711,0.03999418,0.039993912,-1.3259983,2.2289929389953613,9.433042,0.12234549,-0.27411025762557983,-0.06710851
591.4666666664574,-0.54420215,-1.1776539,-0.0020303736,-1.8776745,-0.44076228,2.081958,1.2962253,0.039994314,0.03999405,-1.2843525,2.2470784187316895,9.434296,0.120030165,-0.26995280385017395,-0.06585298
591.483333333124,-0.5457927,-1.1788067,-0.0020363864,-1.8762721,-0.44205227,2.083451,1.2977157,0.039994452,0.039994195,-1.2438549,2.264650821685791,9.435489,0.11773497,-0.265785276889801,-0.06460233
591.4999999997907,-0.54735726,-1.1799409,-0.0020422994,-1.8748931,-0.44332114,2.0849202,1.2991824,0.039994586,0.039994333,-1.203315,2.2822117805480957,9.436237,0.11545117,-0.2616012394428253,-0.06335785
591.5166666664574,-0.54889584,-1.1810563,-0.0020481134,-1.8735368,-0.44456893,2.086364,1.3006243,0.039994713,0.039994463,-1.1637247,2.29935622215271,9.436913,0.11317802,-0.25740310549736023,-0.062120955
591.533333333124,-0.5504079,-1.1821527,-0.0020538277,-1.8722035,-0.44579554,2.0877836,1.3020415,0.039994843,0.0399946,-1.1248488,2.316180467605591,9.43738,0.11092199,-0.2531967759132385,-0.060889997
591.5499999997907,-0.5518937,-1.18323,-0.0020594439,-1.8708934,-0.44700092,2.0891786,1.3034343,0.039994974,0.039994735,-1.0865681,2.332723617553711,9.437646,0.1086802,-0.2489786297082901,-0.059667755
591.5666666664573,-0.55335337,-1.1842883,-0.0020649605,-1.8696064,-0.4481852,2.090549,1.3048025,0.0399951,0.03999487,-1.0491297,2.3488876819610596,9.437788,0.10645506,-0.24475587904453278,-0.058453437
591.583333333124,-0.5547873,-1.1853276,-0.0020703776,-1.8683428,-0.4493483,2.0918953,1.3061465,0.03999522,0.039994992,-1.0122466,2.364814043045044,9.437739,0.10424507,-0.24052578210830688,-0.057245042
591.5999999997906,-0.556195,-1.1863483,-0.0020756945,-1.867102,-0.45049015,2.093217,1.3074658,0.03999534,0.039995115,-0.97606635,2.3804116249084473,9.437544,0.10205005,-0.23628713190555573,-0.056043547
591.6166666664573,-0.55757636,-1.18735,-0.0020809118,-1.8658842,-0.45161074,2.094514,1.3087605,0.039995465,0.03999525,-0.9404795,2.395730972290039,9.437189,0.09987059,-0.23204420506954193,-0.054851186
591.6333333331239,-0.5589316,-1.1883326,-0.0020860299,-1.8646894,-0.45271,2.095786,1.3100308,0.03999559,0.039995376,-0.90561444,2.410738706588745,9.43669,0.09770733,-0.22779621183872223,-0.053667586
591.6499999997906,-0.56026065,-1.1892964,-0.0020910492,-1.8635175,-0.45378822,2.0970337,1.3112767,0.039995722,0.039995514,-0.87146735,2.425426721572876,9.436083,0.09555976,-0.2235475331544876,-0.05249194
591.6666666664572,-0.5615637,-1.1902411,-0.002095969,-1.8623686,-0.45484522,2.0982568,1.3124975,0.039995853,0.03999565,-0.83794385,2.439837694168091,9.435357,0.09342871,-0.21929755806922913,-0.05132575
591.6833333331239,-0.56284046,-1.191167,-0.00210079,-1.8612428,-0.45588103,2.0994556,1.3136939,0.039995976,0.03999578,-0.80515575,2.4539175033569336,9.43452,0.091316424,-0.21504853665828705,-0.05016703
591.6999999997905,-0.56409115,-1.1920738,-0.0021055117,-1.8601402,-0.45689577,2.1006293,1.3148662,0.0399961,0.039995905,-0.77299124,2.4677107334136963,9.433575,0.08922129,-0.21079954504966736,-0.049018737
591.7166666664572,-0.5653157,-1.1929618,-0.002110135,-1.8590605,-0.4578893,2.1017785,1.3160137,0.039996218,0.03999603,-0.74163204,2.481187343597412,9.432601,0.08714301,-0.20655900239944458,-0.047878586
591.7333333331238,-0.56651425,-1.1938311,-0.0021146594,-1.8580035,-0.45886183,2.1029038,1.3171372,0.039996337,0.039996155,-0.7111684,2.4942636489868164,9.431599,0.08508374,-0.20232370495796204,-0.04674736
591.7499999997905,-0.56768703,-1.1946815,-0.0021190858,-1.8569695,-0.4598134,2.1040049,1.3182362,0.039996453,0.039996274,-0.68072283,2.5072710514068604,9.430264,0.083040416,-0.19809095561504364,-0.045627255
591.7666666664571,-0.5688338,-1.1955134,-0.0021234145,-1.8559582,-0.46074393,2.105082,1.3193111,0.03999658,0.039996404,-0.65132445,2.519850730895996,9.429016,0.08101634,-0.19386498630046844,-0.044516742
591.7833333331238,-0.5699549,-1.1963265,-0.0021276453,-1.8549694,-0.46165356,2.106134,1.3203617,0.0399967,0.039996527,-0.62255436,2.5321552753448486,9.427698,0.079009324,-0.18964727222919464,-0.043417577
591.7999999997904,-0.5710501,-1.1971213,-0.0021317785,-1.8540033,-0.46254233,2.1071622,1.3213881,0.039996807,0.039996643,-0.59451705,2.5441620349884033,9.42632,0.077021904,-0.1854434460401535,-0.04232735
591.8166666664571,-0.57211983,-1.1978972,-0.0021358153,-1.8530601,-0.46341038,2.1081665,1.3223907,0.039996915,0.039996754,-0.5670531,2.5558860301971436,9.424888,0.07505328,-0.1812475174665451,-0.04124923
591.8333333331237,-0.57316405,-1.1986549,-0.0021397555,-1.852139,-0.4642578,2.109147,1.3233696,0.039997023,0.039996866,-0.5404588,2.5672667026519775,9.423462,0.07310408,-0.17706887423992157,-0.04017961
591.8499999997904,-0.574183,-1.1993943,-0.0021435998,-1.8512405,-0.46508452,2.1101034,1.3243244,0.039997127,0.039996974,-0.5143206,2.5784072875976562,9.421923,0.07117196,-0.17290057241916656,-0.039122306
591.866666666457,-0.57517654,-1.2001152,-0.0021473486,-1.8503641,-0.4658908,2.1110358,1.3252554,0.03999724,0.039997093,-0.4889369,2.589259386062622,9.420422,0.06926101,-0.16875095665454865,-0.03807548
591.8833333331237,-0.57614493,-1.2008182,-0.002151003,-1.84951,-0.4666767,2.1119452,1.3261627,0.039997347,0.039997205,-0.4642815,2.5997872352600098,9.418863,0.06737035,-0.16462047398090363,-0.037038494
591.8999999997903,-0.5770883,-1.2015026,-0.0021545636,-1.8486778,-0.4674423,2.1128306,1.3270469,0.039997455,0.039997313,-0.44015884,2.6100614070892334,9.417278,0.065499604,-0.1605050414800644,-0.03601354
591.916666666457,-0.5780067,-1.2021691,-0.0021580295,-1.8478677,-0.4681877,2.1136928,1.327908,0.039997563,0.03999743,-0.41684988,2.620013952255249,9.415718,0.06364888,-0.15641413629055023,-0.035000443
591.9333333331236,-0.57890034,-1.2028176,-0.0021614025,-1.8470794,-0.46891308,2.1145315,1.328746,0.039997675,0.039997544,-0.3941302,2.629720687866211,9.414149,0.061816886,-0.15234649181365967,-0.033998232
591.9499999997903,-0.5797694,-1.2034482,-0.0021646824,-1.8463131,-0.46961847,2.1153476,1.3295603,0.039997775,0.03999765,-0.37206227,2.6391358375549316,9.412555,0.06000653,-0.14830273389816284,-0.03300768
591.966666666457,-0.580614,-1.2040612,-0.0021678705,-1.8455681,-0.47030398,2.1161404,1.3303517,0.03999787,0.039997745,-0.35065606,2.6482629776000977,9.411,0.05822008,-0.14428476989269257,-0.032029558
591.9833333331236,-0.5814343,-1.2046568,-0.0021709672,-1.8448443,-0.47096983,2.1169105,1.3311208,0.03999797,0.03999785,-0.33016032,2.657046318054199,9.409539,0.05645488,-0.14029569923877716,-0.031062601
591.9999999997902,-0.5822306,-1.2052349,-0.0021739737,-1.8441418,-0.47161627,2.117658,1.331867,0.039998073,0.039997958,-0.30970675,2.665741443634033,9.407858,0.054708645,-0.13633321225643158,-0.030107811
592.0166666664569,-0.5830033,-1.2057954,-0.0021768895,-1.84346,-0.4722433,2.1183834,1.332591,0.039998163,0.039998047,-0.2902341,2.67405366897583,9.406317,0.052986875,-0.13240216672420502,-0.02916574
592.0333333331236,-0.58375245,-1.2063394,-0.0021797162,-1.8427993,-0.47285116,2.1190863,1.3332932,0.039998256,0.039998144,-0.2713331,2.6820976734161377,9.404758,0.051285584,-0.12850001454353333,-0.028236806
592.0499999997902,-0.58447826,-1.2068659,-0.0021824546,-1.8421596,-0.47344,2.1197672,1.333973,0.039998338,0.03999823,-0.25308537,2.6899261474609375,9.403307,0.049605627,-0.12463323771953583,-0.02731731
592.0666666664569,-0.5851804,-1.2073761,-0.0021851063,-1.8415402,-0.47401,2.1204264,1.3346314,0.03999843,0.039998326,-0.2355307,2.6974215507507324,9.401868,0.047951132,-0.12080312520265579,-0.026411422
592.0833333331235,-0.5858595,-1.2078693,-0.0021876716,-1.8409408,-0.47456136,2.1210642,1.3352679,0.03999851,0.039998405,-0.21845725,2.7047271728515625,9.400427,0.04631727,-0.1170085072517395,-0.02551966
592.0999999997902,-0.5865159,-1.2083462,-0.0021901515,-1.8403614,-0.47509426,2.1216803,1.3358831,0.039998595,0.039998494,-0.20210606,2.711709976196289,9.399011,0.044708524,-0.11325216293334961,-0.02464308
592.1166666664568,-0.5871499,-1.2088062,-0.0021925468,-1.8398018,-0.47560897,2.1222754,1.3364773,0.03999868,0.039998583,-0.18625332,2.7185165882110596,9.39765,0.043122564,-0.10953600704669952,-0.023778133
592.1333333331235,-0.58776176,-1.2092502,-0.002194858,-1.839262,-0.47610563,2.12285,1.3370506,0.039998762,0.039998665,-0.17118917,2.7249674797058105,9.396355,0.041562546,-0.1058637872338295,-0.022925297
592.1499999997901,-0.5883515,-1.2096788,-0.0021970877,-1.8387417,-0.47658446,2.1234038,1.3376033,0.03999884,0.039998747,-0.1565435,2.7312374114990234,9.395084,0.040026113,-0.10223232954740524,-0.022087896
592.1666666664568,-0.5889195,-1.2100915,-0.0021992368,-1.8382403,-0.47704569,2.1239371,1.3381358,0.039998908,0.039998814,-0.14252615,2.737278938293457,9.393884,0.038514074,-0.09864702820777893,-0.021263264
592.1833333331234,-0.58946604,-1.2104881,-0.0022013052,-1.8377577,-0.47748953,2.1244497,1.3386484,0.039998975,0.039998885,-0.12906823,2.7430663108825684,9.392701,0.037026376,-0.09510863572359085,-0.020453598
592.1999999997901,-0.5899917,-1.2108697,-0.0022032934,-1.8372937,-0.47791627,2.1249437,1.3391411,0.039999034,0.039998952,-0.11633861,2.7485694885253906,9.391608,0.035564445,-0.09162387996912003,-0.019656643
592.2166666664567,-0.5904965,-1.2112361,-0.0022052033,-1.836848,-0.47832614,2.1254175,1.3396144,0.039999094,0.03999901,-0.10395235,2.7539100646972656,9.39051,0.03412836,-0.08818234503269196,-0.018872945
592.2333333331234,-0.5909809,-1.2115878,-0.0022070368,-1.8364204,-0.47871944,2.1258724,1.3400682,0.039999157,0.039999068,-0.0924681,2.758911609649658,9.389616,0.032718398,-0.08479589223861694,-0.018104786
592.24999999979,-0.5914451,-1.2119246,-0.0022087945,-1.8360108,-0.47909635,2.126308,1.3405032,0.03999922,0.039999135,-0.08106383,2.763822555541992,9.388565,0.031336155,-0.0814625546336174,-0.017351229
592.2666666664567,-0.59188956,-1.2122476,-0.0022104783,-1.8356187,-0.47945726,2.1267247,1.3409196,0.039999284,0.039999194,-0.07048331,2.768427610397339,9.387709,0.029981438,-0.07818786799907684,-0.016611777
592.2833333331233,-0.59231454,-1.2125566,-0.0022120895,-1.8352435,-0.47980237,2.1271238,1.3413177,0.03999934,0.039999247,-0.060283504,2.772892713546753,9.386877,0.0286534,-0.07496895641088486,-0.01588554
592.29999999979,-0.5927203,-1.2128518,-0.0022136292,-1.8348854,-0.48013195,2.127505,1.3416979,0.039999396,0.039999302,-0.05061359,2.7770791053771973,9.386058,0.027352706,-0.07180558145046234,-0.015178964
592.3166666664566,-0.5931075,-1.2131327,-0.0022150986,-1.8345435,-0.48044628,2.1278682,1.3420609,0.039999444,0.03999935,-0.041559238,2.7810559272766113,9.385373,0.026079988,-0.06870286166667938,-0.014487758
592.3333333331233,-0.59347624,-1.2134011,-0.0022164995,-1.834218,-0.48074573,2.1282144,1.3424062,0.039999504,0.039999418,-0.033086203,2.784790515899658,9.384743,0.024835818,-0.0656692162156105,-0.013813738
592.3499999997899,-0.59382695,-1.213656,-0.0022178332,-1.8339083,-0.4810307,2.1285443,1.342735,0.03999956,0.039999485,-0.024904732,2.7883894443511963,9.384153,0.023622444,-0.06269742548465729,-0.013159806
592.3666666664566,-0.5941601,-1.2138984,-0.0022191014,-1.833614,-0.48130137,2.1288574,1.3430474,0.039999623,0.039999563,-0.017332666,2.7917282581329346,9.383609,0.022436695,-0.05979050695896149,-0.012525443
592.3833333331232,-0.5944762,-1.2141283,-0.0022203042,-1.8333348,-0.48155808,2.129154,1.3433437,0.03999967,0.039999664,-0.010176506,2.794883966445923,9.383169,0.021281313,-0.056957144290208817,-0.011919542
592.3999999997899,-0.5947757,-1.2143458,-0.002221445,-1.8330704,-0.48180133,2.129435,1.3436244,0.039999727,0.0399998,-0.0035394542,2.797853708267212,9.382781,0.020156203,-0.05419692024588585,-0.0113346735
592.4166666664565,-0.59505874,-1.2145516,-0.0022225257,-1.8328204,-0.48203132,2.1297007,1.34389,0.039999764,0.039999984,0.0026356317,2.8006300926208496,9.382454,0.019062417,-0.05151080712676048,-0.010773414
592.4333333331232,-0.595326,-1.2147458,-0.002223547,-1.8325846,-0.48224837,2.1299515,1.3441405,0.039999783,0.04,0.008336112,2.803386926651001,9.38218,0.01799919,-0.04888676479458809,-0.010192656
592.4499999997898,-0.5955778,-1.2149287,-0.0022245096,-1.8323622,-0.48245284,2.1301877,1.3443767,0.039999787,0.04,0.013637438,2.80582332611084,9.381987,0.01696946,-0.04633850231766701,-0.009630319
592.4666666664565,-0.59581465,-1.2151011,-0.0022254165,-1.8321532,-0.48264524,2.1304102,1.3445988,0.039999787,0.04,0.018543433,2.808096170425415,9.381822,0.015971454,-0.043867357075214386,-0.009087777
592.4833333331231,-0.5960372,-1.2152632,-0.0022262698,-1.8319563,-0.4828259,2.1306195,1.3448075,0.039999783,0.04,0.022858107,2.810159683227539,9.38184,0.015007669,-0.04147602245211601,-0.008564894
592.4999999997898,-0.59624577,-1.215415,-0.002227072,-1.8317719,-0.48299518,2.1308155,1.345003,0.03999978,0.04,0.027251378,2.812177896499634,9.381665,0.014075221,-0.039159443229436874,-0.008062304
592.5166666664564,-0.59644085,-1.2155569,-0.0022278232,-1.8315996,-0.48315364,2.1309986,1.3451859,0.039999776,0.04,0.030900776,2.8139660358428955,9.381727,0.013178221,-0.03692806139588356,-0.007576584
592.5333333331231,-0.59662294,-1.2156893,-0.0022285252,-1.8314389,-0.48330152,2.1311698,1.3453565,0.039999776,0.04,0.034181498,2.8155901432037354,9.381846,0.012316976,-0.0347827672958374,-0.0071100187
592.5499999997897,-0.5967926,-1.215813,-0.0022291814,-1.8312888,-0.48343936,2.131329,1.3455153,0.039999776,0.04,0.037131835,2.8170864582061768,9.382016,0.01149226,-0.03272435814142227,-0.006661227
592.5666666664564,-0.59695035,-1.2159281,-0.002229793,-1.8311492,-0.48356748,2.1314776,1.3456631,0.039999776,0.04,0.039837718,2.8184683322906494,9.382193,0.010703013,-0.03075234219431877,-0.006233178
592.583333333123,-0.59709674,-1.2160347,-0.0022303627,-1.8310196,-0.48368648,2.1316152,1.3458006,0.039999776,0.04,0.042125568,2.819673538208008,9.382452,0.009950192,-0.028869735077023506,-0.005827197
592.5999999997897,-0.59723234,-1.2161336,-0.0022308924,-1.8308998,-0.48379672,2.131743,1.3459277,0.039999772,0.04,0.044078127,2.820765733718872,9.382769,0.0092331655,-0.027079375460743904,-0.00543999
592.6166666664564,-0.59735775,-1.2162251,-0.0022313835,-1.830789,-0.48389855,2.1318605,1.346045,0.03999977,0.04,0.045726076,2.8217244148254395,9.383153,0.008556331,-0.02538289502263069,-0.0050738025
592.633333333123,-0.5974735,-1.2163092,-0.0022318393,-1.8306865,-0.48399255,2.131969,1.3461537,0.039999764,0.04,0.047092922,2.8226094245910645,9.383598,0.007918314,-0.023785339668393135,-0.004726846
592.6499999997897,-0.59758025,-1.2163867,-0.0022322608,-1.8305919,-0.48407918,2.1320686,1.346254,0.03999976,0.04,0.048149757,2.823310613632202,9.384042,0.0073182425,-0.02228519879281521,-0.004402782
592.6666666664563,-0.5976785,-1.2164587,-0.0022326512,-1.830505,-0.48415905,2.1321604,1.3463464,0.039999757,0.04,0.048922975,2.8239502906799316,9.384582,0.006758591,-0.020887697115540504,-0.004097821
592.683333333123,-0.5977689,-1.2165239,-0.0022330126,-1.8304249,-0.48423246,2.1322446,1.3464315,0.039999757,0.04,0.0496251,2.824535608291626,9.385135,0.0062383832,-0.019587703049182892,-0.003816688
592.6999999997896,-0.5978521,-1.2165846,-0.002233347,-1.8303516,-0.48430008,2.1323223,1.3465096,0.039999764,0.04,0.04979343,2.824917793273926,9.385746,0.0057603847,-0.018395595252513885,-0.0035557062
592.7166666664563,-0.5979285,-1.2166407,-0.0022336561,-1.830284,-0.4843622,2.1323946,1.346581,0.039999757,0.04,0.05017806,2.825360059738159,9.386321,0.0053215413,-0.017296472564339638,-0.0033164232
592.7333333331229,-0.5979988,-1.2166922,-0.0022339425,-1.830222,-0.48441938,2.1324618,1.346647,0.039999753,0.04,0.05048898,2.8257248401641846,9.386828,0.0049188295,-0.01628100499510765,-0.003100499
592.7499999997896,-0.5980635,-1.2167393,-0.0022342075,-1.8301647,-0.48447195,2.1325223,1.3467076,0.03999976,0.04,0.050790295,2.826058864593506,9.387273,0.00454744,-0.015344851650297642,-0.0029026435
592.7666666664562,-0.598123,-1.2167826,-0.002234453,-1.8301121,-0.48452038,2.1325784,1.3467635,0.039999757,0.04,0.0509773,2.826385259628296,9.387728,0.0042067054,-0.014488585293293,-0.002717258
592.7833333331229,-0.59817797,-1.216823,-0.00223468,-1.8300636,-0.48456496,2.1326303,1.346815,0.039999757,0.04,0.05118537,2.8266656398773193,9.388133,0.0038929884,-0.01370033249258995,-0.0025473854
592.7999999997895,-0.59822834,-1.2168602,-0.002234891,-1.8300189,-0.48460597,2.1326761,1.3468624,0.03999976,0.04,0.051519446,2.8269729614257812,9.388472,0.0036028682,-0.012970100156962872,-0.0023918727
592.8166666664562,-0.5982746,-1.2168939,-0.0022350852,-1.8299779,-0.48464364,2.1327205,1.346906,0.039999757,0.04,0.051649075,2.8272602558135986,9.388856,0.0033354568,-0.012306185439229012,-0.0022449445
592.8333333331228,-0.59831715,-1.2169241,-0.0022352661,-1.8299402,-0.48467833,2.1327598,1.3469462,0.039999757,0.04,0.051784825,2.8274078369140625,9.3891325,0.003091184,-0.01168958842754364,-0.0021160431
592.8499999997895,-0.5983565,-1.216953,-0.0022354329,-1.8299053,-0.48471022,2.1327965,1.3469834,0.03999975,0.04,0.05174137,2.8275861740112305,9.38948,0.0028669876,-0.011131562292575836,-0.0019917337
592.8666666664561,-0.59839284,-1.2169791,-0.0022355875,-1.8298732,-0.48473957,2.1328328,1.3470172,0.039999753,0.04,0.05214776,2.827867269515991,9.389682,0.0026574086,-0.01060965284705162,-0.0018796856
592.8833333331228,-0.59842604,-1.2170037,-0.0022357302,-1.8298436,-0.48476663,2.1328628,1.3470482,0.03999975,0.04,0.052256253,2.8279643058776855,9.389886,0.0024680228,-0.010122391395270824,-0.001781133
592.8999999997894,-0.59845674,-1.2170258,-0.002235862,-1.8298165,-0.48479146,2.132892,1.3470771,0.03999975,0.04,0.05238596,2.8282227516174316,9.390179,0.0022930498,-0.00968450028449297,-0.0016841026
592.9166666664561,-0.5984848,-1.2170469,-0.0022359844,-1.8297913,-0.48481432,2.1329205,1.3471031,0.03999975,0.04,0.05243954,2.8283157348632812,9.39036,0.0021308623,-0.009278258308768272,-0.0015972917
592.9333333331227,-0.5985106,-1.2170653,-0.0022360978,-1.8297683,-0.4848353,2.132943,1.3471278,0.039999746,0.04,0.052766237,2.828486919403076,9.39048,0.0019829476,-0.0088936947286129,-0.0015237798
592.9499999997894,-0.5985345,-1.2170827,-0.0022362035,-1.829747,-0.4848547,2.1329646,1.3471498,0.03999975,0.04,0.05256605,2.828611373901367,9.390788,0.0018452165,-0.008559586480259895,-0.0014453968
592.966666666456,-0.5985565,-1.2170976,-0.0022363015,-1.8297276,-0.48487252,2.1329858,1.347171,0.039999753,0.04,0.05277177,2.8287410736083984,9.39089,0.001720709,-0.008245056495070457,-0.0013758002
592.9833333331227,-0.5985766,-1.2171121,-0.0022363919,-1.8297095,-0.4848889,2.1330066,1.3471893,0.039999753,0.04,0.05263867,2.8287343978881836,9.391071,0.0016049822,-0.007957316935062408,-0.0013140722
592.9999999997893,-0.598595,-1.2171257,-0.0022364748,-1.8296936,-0.48490402,2.1330228,1.3472072,0.039999753,0.04,0.052952494,2.828883647918701,9.391126,0.0015013533,-0.0076831369660794735,-0.0012613855
593.016666666456,-0.59861207,-1.2171383,-0.0022365518,-1.8296783,-0.484918,2.1330373,1.347223,0.039999757,0.04,0.052898884,2.8290278911590576,9.391378,0.001402266,-0.007443679496645927,-0.0012055536
593.0333333331226,-0.5986283,-1.2171493,-0.0022366229,-1.8296641,-0.48493072,2.1330512,1.3472375,0.039999753,0.04,0.053037263,2.8291447162628174,9.391444,0.0013127503,-0.007221256848424673,-0.0011526112
593.0499999997893,-0.59864265,-1.2171599,-0.0022366885,-1.829652,-0.48494247,2.133065,1.3472515,0.039999753,0.04,0.05300291,2.829162120819092,9.391544,0.0012317977,-0.007017423398792744,-0.0011041488
593.066666666456,-0.5986559,-1.2171696,-0.00223675,-1.8296403,-0.48495325,2.1330783,1.3472642,0.039999753,0.04,0.053064927,2.829237937927246,9.391678,0.0011543382,-0.006826890632510185,-0.0010624207
593.0833333331226,-0.59866834,-1.2171788,-0.0022368056,-1.8296292,-0.48496315,2.1330917,1.3472749,0.03999975,0.04,0.053207353,2.82930326461792,9.391706,0.0010836035,-0.006647858768701553,-0.0010280104
593.0999999997892,-0.5986794,-1.2171861,-0.0022368578,-1.8296189,-0.48497227,2.1331043,1.3472854,0.039999757,0.04,0.1890716,2.8650479316711426,9.305861,0.0,-0.0,0.0
593.1166666664559,-0.5986794,-1.2171861,-0.0022368578,-1.8296189,-0.48497227,2.1331043,1.3472854,0.039999757,0.04,0.05021263,2.828557014465332,9.393234,0.0,-0.0,0.0
593.1333333331226,-0.5986794,-1.2171861,-0.0022368578,-1.8296189,-0.48497227,2.1331043,1.3472854,0.039999757,0.04,0.05021263,2.828557014465332,9.393234,0.0,-0.0,0.0
593.1499999997892,-0.5986794,-1.2171861,-0.0022368578,-1.8296189,-0.48497227,2.1331043,1.3472854,0.039999757,0.04,0.05021263,2.828557014465332,9.393234,0.0,-0.0,0.0
593.1666666664559,-0.5986794,-1.2171861,-0.0022368578,-1.8296189,-0.48497227,2.1331043,1.3472854,0.039999757,0.04,0.05021263,2.828557014465332,9.393234,0.0,-0.0,0.0
593.1833333331225,-0.5986794,-1.2171861,-0.0022368578,-1.8296189,-0.48497227,2.1331043,1.3472854,0.039999757,0.04,0.05021263,2.828557014465332,9.393234,0.0,-0.0,0.0
593.1999999997892,-0.5986794,-1.2171861,-0.0022368578,-1.8296189,-0.48497227,2.1331043,1.3472854,0.039999757,0.04,0.05021263,2.828557014465332,9.393234,0.0,-0.0,0.0
593.2166666664558,-0.5986794,-1.2171861,-0.0022368578,-1.8296189,-0.48497227,2.1331043,1.3472854,0.039999757,0.04,0.05021263,2.828557014465332,9.393234,0.0,-0.0,0.0
593.2333333331225,-0.5986794,-1.2171861,-0.0022368578,-1.8296189,-0.48497227,2.1331043,1.3472854,0.039999757,0.04,0.05021263,2.828557014465332,9.393234,0.0,-0.0,0.0
593.2499999997891,-0.5986794,-1.2171861,-0.0022368578,-1.8296189,-0.48497227,2.1331043,1.3472854,0.039999757,0.04,0.05021263,2.828557014465332,9.393234,0.0,-0.0,0.0
593.2666666664558,-0.5986794,-1.2171861,-0.0022368578,-1.8296189,-0.48497227,2.1331043,1.3472854,0.039999757,0.04,0.05021263,2.828557014465332,9.393234,0.0,-0.0,0.0
593.2833333331224,-0.5986794,-1.2171861,-0.0022368578,-1.8296189,-0.48497227,2.1331043,1.3472854,0.039999757,0.04,0.05021263,2.828557014465332,9.393234,0.0,-0.0,0.0
593.2999999997891,-0.5986794,-1.2171861,-0.0022368578,-1.8296189,-0.48497227,2.1331043,1.3472854,0.039999757,0.04,0.05021263,2.828557014465332,9.393234,0.0,-0.0,0.0
593.3166666664557,-0.5986794,-1.2171861,-0.0022368578,-1.8296189,-0.48497227,2.1331043,1.3472854,0.039999757,0.04,0.05021263,2.828557014465332,9.393234,0.0,-0.0,0.0
593.3333333331224,-0.5986794,-1.2171861,-0.0022368578,-1.8296189,-0.48497227,2.1331043,1.3472854,0.039999757,0.04,0.05021263,2.828557014465332,9.393234,0.0,-0.0,0.0
593.349999999789,-0.5986794,-1.2171861,-0.0022368578,-1.8296189,-0.48497227,2.1331043,1.3472854,0.039999757,0.04,0.05021263,2.828557014465332,9.393234,0.0,-0.0,0.0
593.3666666664557,-0.5986794,-1.2171861,-0.0022368578,-1.8296189,-0.48497227,2.1331043,1.3472854,0.039999757,0.04,0.05021263,2.828557014465332,9.393234,0.0,-0.0,0.0
593.3833333331223,-0.5986794,-1.2171861,-0.0022368578,-1.8296189,-0.48497227,2.1331043,1.3472854,0.039999757,0.04,0.05021263,2.828557014465332,9.393234,0.0,-0.0,0.0
593.399999999789,-0.5986794,-1.2171861,-0.0022368578,-1.8296189,-0.48497227,2.1331043,1.3472854,0.039999757,0.04,0.05021263,2.828557014465332,9.393234,0.0,-0.0,0.0
593.4166666664556,-0.5986794,-1.2171861,-0.0022368578,-1.8296189,-0.48497227,2.1331043,1.3472854,0.039999757,0.04,0.05021263,2.828557014465332,9.393234,0.0,-0.0,0.0
593.4333333331223,-0.5986794,-1.2171861,-0.0022368578,-1.8296189,-0.48497227,2.1331043,1.3472854,0.039999757,0.04,0.05021263,2.828557014465332,9.393234,0.0,-0.0,0.0
593.4499999997889,-0.5986794,-1.2171861,-0.0022368578,-1.8296189,-0.48497227,2.1331043,1.3472854,0.039999757,0.04,0.05021263,2.828557014465332,9.393234,0.0,-0.0,0.0
593.4666666664556,-0.5986794,-1.2171861,-0.0022368578,-1.8296189,-0.48497227,2.1331043,1.3472854,0.039999757,0.04,0.05021263,2.828557014465332,9.393234,0.0,-0.0,0.0
593.4833333331222,-0.5986794,-1.2171861,-0.0022368578,-1.8296189,-0.48497227,2.1331043,1.3472854,0.039999757,0.04,0.05021263,2.828557014465332,9.393234,0.0,-0.0,0.0
593.4999999997889,-0.5986794,-1.2171861,-0.0022368578,-1.8296189,-0.48497227,2.1331043,1.3472854,0.039999757,0.04,0.05021263,2.828557014465332,9.393234,0.0,-0.0,0.0
593.5166666664555,-0.5986794,-1.2171861,-0.0022368578,-1.8296189,-0.48497227,2.1331043,1.3472854,0.039999757,0.04,0.05021263,2.828557014465332,9.393234,0.0,-0.0,0.0
593.5333333331222,-0.5986794,-1.2171861,-0.0022368578,-1.8296189,-0.48497227,2.1331043,1.3472854,0.039999757,0.04,0.05021263,2.828557014465332,9.393234,0.0,-0.0,0.0
593.5499999997888,-0.5986794,-1.2171861,-0.0022368578,-1.8296189,-0.48497227,2.1331043,1.3472854,0.039999757,0.04,0.05021263,2.828557014465332,9.393234,0.0,-0.0,0.0
593.5666666664555,-0.5986794,-1.2171861,-0.0022368578,-1.8296189,-0.48497227,2.1331043,1.3472854,0.039999757,0.04,0.05021263,2.828557014465332,9.393234,0.0,-0.0,0.0
593.5833333331221,-0.5986794,-1.2171861,-0.0022368578,-1.8296189,-0.48497227,2.1331043,1.3472854,0.039999757,0.04,0.05021263,2.828557014465332,9.393234,0.0,-0.0,0.0
593.5999999997888,-0.5986794,-1.2171861,-0.0022368578,-1.8296189,-0.48497227,2.1331043,1.3472854,0.039999757,0.04,0.05021263,2.828557014465332,9.393234,0.0,-0.0,0.0
593.6166666664554,-0.5986794,-1.2171861,-0.0022368578,-1.8296189,-0.48497227,2.1331043,1.3472854,0.039999757,0.04,0.05021263,2.828557014465332,9.393234,0.0,-0.0,0.0
593.6333333331221,-0.5986794,-1.2171861,-0.0022368578,-1.8296189,-0.48497227,2.1331043,1.3472854,0.039999757,0.04,0.05021263,2.828557014465332,9.393234,0.0,-0.0,0.0
593.6499999997887,-0.5986794,-1.2171861,-0.0022368578,-1.8296189,-0.48497227,2.1331043,1.3472854,0.039999757,0.04,0.05021263,2.828557014465332,9.393234,0.0,-0.0,0.0
593.6666666664554,-0.5986794,-1.2171861,-0.0022368578,-1.8296189,-0.48497227,2.1331043,1.3472854,0.039999757,0.04,0.05021263,2.828557014465332,9.393234,0.0,-0.0,0.0
593.683333333122,-0.5986794,-1.2171861,-0.0022368578,-1.8296189,-0.48497227,2.1331043,1.3472854,0.039999757,0.04,0.05021263,2.828557014465332,9.393234,0.0,-0.0,0.0
593.6999999997887,-0.5986794,-1.2171861,-0.0022368578,-1.8296189,-0.48497227,2.1331043,1.3472854,0.039999757,0.04,0.05021263,2.828557014465332,9.393234,0.0,-0.0,0.0
593.7166666664554,-0.5986794,-1.2171861,-0.0022368578,-1.8296189,-0.48497227,2.1331043,1.3472854,0.039999757,0.04,0.05021263,2.828557014465332,9.393234,0.0,-0.0,0.0
593.733333333122,-0.5986794,-1.2171861,-0.0022368578,-1.8296189,-0.48497227,2.1331043,1.3472854,0.039999757,0.04,0.05021263,2.828557014465332,9.393234,0.0,-0.0,0.0
593.7499999997887,-0.5986794,-1.2171861,-0.0022368578,-1.8296189,-0.48497227,2.1331043,1.3472854,0.039999757,0.04,0.05021263,2.828557014465332,9.393234,0.0,-0.0,0.0
593.7666666664553,-0.5986794,-1.2171861,-0.0022368578,-1.8296189,-0.48497227,2.1331043,1.3472854,0.039999757,0.04,0.05021263,2.828557014465332,9.393234,0.0,-0.0,0.0
593.783333333122,-0.5986794,-1.2171861,-0.0022368578,-1.8296189,-0.48497227,2.1331043,1.3472854,0.039999757,0.04,0.05021263,2.828557014465332,9.393234,0.0,-0.0,0.0
593.7999999997886,-0.5986794,-1.2171861,-0.0022368578,-1.8296189,-0.48497227,2.1331043,1.3472854,0.039999757,0.04,0.05021263,2.828557014465332,9.393234,0.0,-0.0,0.0
593.8166666664553,-0.5986794,-1.2171861,-0.0022368578,-1.8296189,-0.48497227,2.1331043,1.3472854,0.039999757,0.04,0.05021263,2.828557014465332,9.393234,0.0,-0.0,0.0
593.8333333331219,-0.5986794,-1.2171861,-0.0022368578,-1.8296189,-0.48497227,2.1331043,1.3472854,0.039999757,0.04,0.05021263,2.828557014465332,9.393234,0.0,-0.0,0.0
593.8499999997886,-0.5986794,-1.2171861,-0.0022368578,-1.8296189,-0.48497227,2.1331043,1.3472854,0.039999757,0.04,0.05021263,2.828557014465332,9.393234,0.0,-0.0,0.0
593.8666666664552,-0.5986794,-1.2171861,-0.0022368578,-1.8296189,-0.48497227,2.1331043,1.3472854,0.039999757,0.04,0.05021263,2.828557014465332,9.393234,0.0,-0.0,0.0
593.8833333331219,-0.5986794,-1.2171861,-0.0022368578,-1.8296189,-0.48497227,2.1331043,1.3472854,0.039999757,0.04,0.05021263,2.828557014465332,9.393234,0.0,-0.0,0.0
593.8999999997885,-0.5986794,-1.2171861,-0.0022368578,-1.8296189,-0.48497227,2.1331043,1.3472854,0.039999757,0.04,0.05021263,2.828557014465332,9.393234,0.0,-0.0,0.0
593.9166666664552,-0.5986794,-1.2171861,-0.0022368578,-1.8296189,-0.48497227,2.1331043,1.3472854,0.039999757,0.04,0.05021263,2.828557014465332,9.393234,0.0,-0.0,0.0
593.9333333331218,-0.5986794,-1.2171861,-0.0022368578,-1.8296189,-0.48497227,2.1331043,1.3472854,0.039999757,0.04,0.05021263,2.828557014465332,9.393234,0.0,-0.0,0.0
593.9499999997885,-0.5986794,-1.2171861,-0.0022368578,-1.8296189,-0.48497227,2.1331043,1.3472854,0.039999757,0.04,0.05021263,2.828557014465332,9.393234,0.0,-0.0,0.0
593.9666666664551,-0.5986794,-1.2171861,-0.0022368578,-1.8296189,-0.48497227,2.1331043,1.3472854,0.039999757,0.04,0.05021263,2.828557014465332,9.393234,0.0,-0.0,0.0
593.9833333331218,-0.5986794,-1.2171861,-0.0022368578,-1.8296189,-0.48497227,2.1331043,1.3472854,0.039999757,0.04,0.05021263,2.828557014465332,9.393234,0.0,-0.0,0.0
593.9999999997884,-0.5986794,-1.2171861,-0.0022368578,-1.8296189,-0.48497227,2.1331043,1.3472854,0.039999757,0.04,0.05021263,2.828557014465332,9.393234,0.0,-0.0,0.0
594.0166666664551,-0.5986794,-1.2171861,-0.0022368578,-1.8296189,-0.48497227,2.1331043,1.3472854,0.039999757,0.04,0.05021263,2.828557014465332,9.393234,0.0,-0.0,0.0
594.0333333331217,-0.5986794,-1.2171861,-0.0022368578,-1.8296189,-0.48497227,2.1331043,1.3472854,0.039999757,0.04,0.05021263,2.828557014465332,9.393234,0.0,-0.0,0.0
594.0499999997884,-0.5986794,-1.2171861,-0.0022368578,-1.8296189,-0.48497227,2.1331043,1.3472854,0.039999757,0.04,0.05021263,2.828557014465332,9.393234,0.0,-0.0,0.0
594.066666666455,-0.5986794,-1.2171861,-0.0022368578,-1.8296189,-0.48497227,2.1331043,1.3472854,0.039999757,0.04,0.05021263,2.828557014465332,9.393234,0.0,-0.0,0.0
594.0833333331217,-0.5986794,-1.2171861,-0.0022368578,-1.8296189,-0.48497227,2.1331043,1.3472854,0.039999757,0.04,0.05021263,2.828557014465332,9.393234,0.0,-0.0,0.0
594.0999999997883,-0.5986794,-1.2171861,-0.0022368578,-1.8296189,-0.48497227,2.1331043,1.3472854,0.039999757,0.04,0.05021263,2.828557014465332,9.393234,0.0,-0.0,0.0
594.116666666455,-0.5986794,-1.2171861,-0.0022368578,-1.8296189,-0.48497227,2.1331043,1.3472854,0.039999757,0.04,0.05021263,2.828557014465332,9.393234,0.0,-0.0,0.0
594.1333333331216,-0.5986794,-1.2171861,-0.0022368578,-1.8296189,-0.48497227,2.1331043,1.3472854,0.039999757,0.04,0.05021263,2.828557014465332,9.393234,0.0,-0.0,0.0
594.1499999997883,-0.5986794,-1.2171861,-0.0022368578,-1.8296189,-0.48497227,2.1331043,1.3472854,0.039999757,0.04,0.05021263,2.828557014465332,9.393234,0.0,-0.0,0.0
594.166666666455,-0.5986794,-1.2171861,-0.0022368578,-1.8296189,-0.48497227,2.1331043,1.3472854,0.039999757,0.04,0.05021263,2.828557014465332,9.393234,0.0,-0.0,0.0
594.1833333331216,-0.5986794,-1.2171861,-0.0022368578,-1.8296189,-0.48497227,2.1331043,1.3472854,0.039999757,0.04,0.05021263,2.828557014465332,9.393234,0.0,-0.0,0.0
594.1999999997882,-0.5986794,-1.2171861,-0.0022368578,-1.8296189,-0.48497227,2.1331043,1.3472854,0.039999757,0.04,0.05021263,2.828557014465332,9.393234,0.0,-0.0,0.0
594.2166666664549,-0.5986794,-1.2171861,-0.0022368578,-1.8296189,-0.48497227,2.1331043,1.3472854,0.039999757,0.04,0.05021263,2.828557014465332,9.393234,0.0,-0.0,0.0
594.2333333331215,-0.5986794,-1.2171861,-0.0022368578,-1.8296189,-0.48497227,2.1331043,1.3472854,0.039999757,0.04,0.05021263,2.828557014465332,9.393234,0.0,-0.0,0.0
594.2499999997882,-0.5986794,-1.2171861,-0.0022368578,-1.8296189,-0.48497227,2.1331043,1.3472854,0.039999757,0.04,0.05021263,2.828557014465332,9.393234,0.0,-0.0,0.0
594.2666666664549,-0.5986794,-1.2171861,-0.0022368578,-1.8296189,-0.48497227,2.1331043,1.3472854,0.039999757,0.04,0.05021263,2.828557014465332,9.393234,0.0,-0.0,0.0
594.2833333331215,-0.5986794,-1.2171861,-0.0022368578,-1.8296189,-0.48497227,2.1331043,1.3472854,0.039999757,0.04,0.05021263,2.828557014465332,9.393234,0.0,-0.0,0.0
594.2999999997882,-0.5986794,-1.2171861,-0.0022368578,-1.8296189,-0.48497227,2.1331043,1.3472854,0.039999757,0.04,0.05021263,2.828557014465332,9.393234,0.0,-0.0,0.0
594.3166666664548,-0.5986794,-1.2171861,-0.0022368578,-1.8296189,-0.48497227,2.1331043,1.3472854,0.039999757,0.04,0.05021263,2.828557014465332,9.393234,0.0,-0.0,0.0
594.3333333331215,-0.5986794,-1.2171861,-0.0022368578,-1.8296189,-0.48497227,2.1331043,1.3472854,0.039999757,0.04,0.05021263,2.828557014465332,9.393234,0.0,-0.0,0.0
594.3499999997881,-0.5986794,-1.2171861,-0.0022368578,-1.8296189,-0.48497227,2.1331043,1.3472854,0.039999757,0.04,0.05021263,2.828557014465332,9.393234,0.0,-0.0,0.0
594.3666666664548,-0.5986794,-1.2171861,-0.0022368578,-1.8296189,-0.48497227,2.1331043,1.3472854,0.039999757,0.04,0.05021263,2.828557014465332,9.393234,0.0,-0.0,0.0
594.3833333331214,-0.5986794,-1.2171861,-0.0022368578,-1.8296189,-0.48497227,2.1331043,1.3472854,0.039999757,0.04,0.05021263,2.828557014465332,9.393234,0.0,-0.0,0.0
594.3999999997881,-0.5986794,-1.2171861,-0.0022368578,-1.8296189,-0.48497227,2.1331043,1.3472854,0.039999757,0.04,0.05021263,2.828557014465332,9.393234,0.0,-0.0,0.0
594.4166666664547,-0.5986794,-1.2171861,-0.0022368578,-1.8296189,-0.48497227,2.1331043,1.3472854,0.039999757,0.04,0.05021263,2.828557014465332,9.393234,0.0,-0.0,0.0
594.4333333331214,-0.5986794,-1.2171861,-0.0022368578,-1.8296189,-0.48497227,2.1331043,1.3472854,0.039999757,0.04,0.05021263,2.828557014465332,9.393234,0.0,-0.0,0.0
594.449999999788,-0.5986794,-1.2171861,-0.0022368578,-1.8296189,-0.48497227,2.1331043,1.3472854,0.039999757,0.04,0.05021263,2.828557014465332,9.393234,0.0,-0.0,0.0
594.4666666664547,-0.5986794,-1.2171861,-0.0022368578,-1.8296189,-0.48497227,2.1331043,1.3472854,0.039999757,0.04,0.05021263,2.828557014465332,9.393234,0.0,-0.0,0.0
594.4833333331213,-0.5986794,-1.2171861,-0.0022368578,-1.8296189,-0.48497227,2.1331043,1.3472854,0.039999757,0.04,0.05021263,2.828557014465332,9.393234,0.0,-0.0,0.0
594.499999999788,-0.5986794,-1.2171861,-0.0022368578,-1.8296189,-0.48497227,2.1331043,1.3472854,0.039999757,0.04,0.05021263,2.828557014465332,9.393234,0.0,-0.0,0.0
594.5166666664546,-0.5986794,-1.2171861,-0.0022368578,-1.8296189,-0.48497227,2.1331043,1.3472854,0.039999757,0.04,0.05021263,2.828557014465332,9.393234,0.0,-0.0,0.0
594.5333333331213,-0.5986794,-1.2171861,-0.0022368578,-1.8296189,-0.48497227,2.1331043,1.3472854,0.039999757,0.04,0.05021263,2.828557014465332,9.393234,0.0,-0.0,0.0
594.5499999997879,-0.5986794,-1.2171861,-0.0022368578,-1.8296189,-0.48497227,2.1331043,1.3472854,0.039999757,0.04,0.05021263,2.828557014465332,9.393234,0.0,-0.0,0.0
594.5666666664546,-0.5986794,-1.2171861,-0.0022368578,-1.8296189,-0.48497227,2.1331043,1.3472854,0.039999757,0.04,0.05021263,2.828557014465332,9.393234,0.0,-0.0,0.0
594.5833333331212,-0.5986794,-1.2171861,-0.0022368578,-1.8296189,-0.48497227,2.1331043,1.3472854,0.039999757,0.04,0.05021263,2.828557014465332,9.393234,0.0,-0.0,0.0
594.5999999997879,-0.5986794,-1.2171861,-0.0022368578,-1.8296189,-0.48497227,2.1331043,1.3472854,0.039999757,0.04,0.05021263,2.828557014465332,9.393234,0.0,-0.0,0.0
594.6166666664545,-0.5986794,-1.2171861,-0.0022368578,-1.8296189,-0.48497227,2.1331043,1.3472854,0.039999757,0.04,0.05021263,2.828557014465332,9.393234,0.0,-0.0,0.0
594.6333333331212,-0.5986794,-1.2171861,-0.0022368578,-1.8296189,-0.48497227,2.1331043,1.3472854,0.039999757,0.04,0.05021263,2.828557014465332,9.393234,0.0,-0.0,0.0
594.6499999997878,-0.5986794,-1.2171861,-0.0022368578,-1.8296189,-0.48497227,2.1331043,1.3472854,0.039999757,0.04,0.05021263,2.828557014465332,9.393234,0.0,-0.0,0.0
594.6666666664545,-0.5986794,-1.2171861,-0.0022368578,-1.8296189,-0.48497227,2.1331043,1.3472854,0.039999757,0.04,0.05021263,2.828557014465332,9.393234,0.0,-0.0,0.0
594.6833333331211,-0.5986794,-1.2171861,-0.0022368578,-1.8296189,-0.48497227,2.1331043,1.3472854,0.039999757,0.04,0.05021263,2.828557014465332,9.393234,0.0,-0.0,0.0
594.6999999997878,-0.5986794,-1.2171861,-0.0022368578,-1.8296189,-0.48497227,2.1331043,1.3472854,0.039999757,0.04,0.05021263,2.828557014465332,9.393234,0.0,-0.0,0.0
