rsonawane2002/My_IMU/logs_2/traj_506/clean_506.csv
time,j1,j2,j3,j4,j5,j6,j7,gripper1,gripper2,imu_ax,imu_ay,imu_az,imu_gx,imu_gy,imu_gz,quat_x,quat_y,quat_z,quat_w
2818.783333341614,0.00016700293,-0.785875,4.0107683e-05,-2.3551247,9.29385e-05,1.570997,0.786,0.04,0.04,0.0,-0.0,0.0,2.875329272945135e-08,-0.0011641195053377316,4.421952117202833e-08,0.9999995971961153,0.00020320632366974898,0.0008736418299892524,3.263050917662294e-05
2818.8000000082807,0.00016700593,-0.78576016,4.011175e-05,-2.3552213,9.298043e-05,1.5709941,0.786,0.04,0.04,-0.2919984594798031,-3.685231069968406e-05,0.020128408181419033,1.7121821988623916e-07,-0.002239794594797891,5.699577334371617e-07,0.9999996850584518,0.00020320812975149925,0.0007665025171671138,3.2608963903266805e-05
2818.8166666749476,0.0001670099,-0.7856543,4.009559e-05,-2.35531,9.306352e-05,1.5709913,0.786,0.04,0.04,0.023328728983185165,-8.015871731323083e-06,-0.0016704356717855973,2.098195493235163e-06,-0.003233824367662958,3.952972966564291e-06,0.9999997558430003,0.00020321620932613383,0.000667797239659722,3.2618380710703216e-05
2818.8333333416144,0.00016701574,-0.78555703,4.002677e-05,-2.355391,9.325994e-05,1.5709884,0.786,0.04,0.04,0.022460756391384784,-2.4425274770578697e-05,-0.0015248957838442934,6.991553776366988e-06,-0.004157876723538423,1.2819422274864317e-05,0.9999998122327062,0.00020324159571020832,0.0005771981564937786,3.270618193487133e-05
2818.8500000082813,0.00016702463,-0.7854678,3.9858736e-05,-2.3554645,9.367307e-05,1.5709856,0.786,0.04,0.04,0.021866446203322454,-4.777778789640712e-05,-0.0012071167065919042,1.6519895039467037e-05,-0.005020680837084372,2.9536055412951046e-05,0.9999998565579912,0.0002033001653812539,0.0004944370227775727,3.2940409285121345e-05
2818.866666674948,0.00016703796,-0.78538626,3.953234e-05,-2.3555312,9.443288e-05,1.5709827,0.786,0.04,0.04,0.019848970986635628,-7.61335826422987e-05,-0.0014187628190276413,3.147538894845165e-05,-0.005827546548566066,5.537703552301423e-05,0.9999998910326534,0.0002034121897053101,0.00041885815621836207,3.340669355547184e-05
2818.883333341615,0.00016705651,-0.78531206,3.8976814e-05,-2.3555906,9.571058e-05,1.5709798,0.786,0.04,0.039999995,0.020668305498672268,-0.00012106006551922208,-0.0008862286862365565,5.396377303160021e-05,-0.006589828150005356,9.557445947348372e-05,0.9999999172133682,0.00020360230807812033,0.00035064032949460694,3.421572873734265e-05
2818.900000008282,0.00016708182,-0.785245,3.811153e-05,-2.3556468,9.7671065e-05,1.5709769,0.786,0.04,0.039999995,0.013138280209767927,-0.00014975078951102354,-0.0027848774882155425,8.440437369932271e-05,-0.007307477109729088,0.0001477042095749916,0.9999999372585007,0.00020389843869615882,0.00028748872285954124,3.5477538984850986e-05
2818.916666674949,0.00016711497,-0.7851846,3.6846483e-05,-2.355697,0.000100513374,1.5709736,0.7860019,0.04,0.039999995,0.01784056195515138,-0.0001933444139549977,-0.0012102756602905274,0.00012453689310671772,-0.008006650681994212,0.00021496822196215323,0.9999999516315313,0.00020528549716876022,0.0002306549490731093,3.732417850190989e-05
2818.9333333416157,0.00016715717,-0.78513116,3.5083813e-05,-2.3557398,0.000104441606,1.5709699,0.7860038,0.04,0.04,0.01964849131896873,-0.00023119303487626136,-0.0010894140767492289,0.00016646515681181643,-0.008680610165305564,0.00029734120287897334,0.9999999615010863,0.00020684382080377777,0.00018061582553539524,3.989214714505758e-05
2818.9500000082826,0.00016720958,-0.7850841,3.2718064e-05,-2.3557768,0.00010970633,1.5709633,0.78600574,0.04,0.04,0.016301385732875318,-0.0002941652419586032,-0.003212301634691883,0.00022007588942634434,-0.009327405951503352,0.00039945492891663674,0.9999999681505505,0.00020861016350385043,0.00013528512770800727,4.334318867783386e-05
2818.9666666749495,0.00016727351,-0.78504384,2.963777e-05,-2.3558097,0.00011654998,1.5709565,0.78600794,0.04,0.04,0.014296339559782822,-0.0003446030553378018,-0.0020993605627905865,0.00028617596910659744,-0.009970725127493725,0.0005196859052345364,0.9999999721032753,0.00021077246483675965,9.528863670533409e-05,4.7838189793094054e-05
2818.9833333416163,0.00016735011,-0.78501,2.5725709e-05,-2.3558364,0.00012524267,1.570949,0.78601176,0.04,0.039999995,0.017424043866931527,-0.0004088720584643243,-0.0014093482283206171,0.0003644368047224432,-0.01060789724349144,0.0006603482830148483,0.9999999737862566,0.0002140272016757765,6.125209833827839e-05,5.35539316677517e-05
2819.000000008283,0.00016744072,-0.7849828,2.0859967e-05,-2.3558564,0.00013604295,1.5709385,0.78601557,0.04,0.039999995,0.01777980500168308,-0.00045870396865110917,-0.003014865614159312,0.00044983995333924365,-0.011235894101944558,0.000820686579911891,0.999999973957631,0.00021761207008348706,3.2400621994031667e-05,6.066237932663305e-05
2819.01666667495,0.00016754684,-0.7849625,1.4914533e-05,-2.3558702,0.00014921844,1.5709273,0.7860213,0.04,0.04,0.017884645986776526,-0.0005109993562741461,-0.0016391938082893631,0.0005507787832732187,-0.011867768434822795,0.0010014602733015776,0.9999999727900067,0.000222524597313159,9.717552964602742e-06,6.934232798767454e-05
2819.033333341617,0.00016766954,-0.784949,7.7596615e-06,-2.355878,0.0001650671,1.5709128,0.786027,0.04,0.04,0.01668618692398649,-0.0005806015737162026,-0.0036094795256680356,0.0006588884786383753,-0.012494192361094485,0.001204826837199498,0.9999999708243313,0.00022785628231119723,-8.168037537929273e-06,7.978805661173094e-05
2819.050000008284,0.00016781001,-0.7849426,-7.3764437e-07,-2.3558803,0.0001838927,1.5708963,0.78603464,0.04,0.039999995,0.01688438401752368,-0.0006510867619009722,-0.0030505372931699526,0.000784154777796959,-0.013134376762327003,0.001431239651300293,0.9999999680147919,0.00023460712194145662,-2.071986659389481e-05,9.219870316369074e-05
2819.0666666749507,0.00016796986,-0.78494346,-1.071215e-05,-2.3558764,0.00020596746,1.5708774,0.78604406,0.039999995,0.04,0.01738337190253514,-0.0006963892834693894,-0.003099286576979665,0.0009184428065543823,-0.013784882753228601,0.0016779733878872468,0.9999999644472027,0.00024276410725544692,-2.781881993557313e-05,0.00010675811313872418
2819.0833333416176,0.00016815028,-0.7849518,-2.2301596e-05,-2.355865,0.00023161198,1.5708551,0.786054,0.03999999,0.039999995,0.02017087147929697,-0.0007736823939224189,-0.0034081356478976588,0.0010626395769868335,-0.014448603111594896,0.001949428938901176,0.9999999602406489,0.00025174900781561367,-2.9077505279663494e-05,0.00012367552937782482
2819.1000000082845,0.0001683525,-0.78496784,-3.5644873e-05,-2.355846,0.00026113246,1.5708293,0.78606546,0.039999988,0.03999999,0.020330586904582226,-0.0008388786138779903,-0.0035992527204653513,0.001223926613701996,-0.015123882140041303,0.0022442141272903953,0.9999999551095677,0.0002620866398941705,-2.446627079226513e-05,0.00014315326470984479
2819.1166666749514,0.00016857781,-0.7849918,-5.0882154e-05,-2.3558192,0.0002948385,1.5707997,0.7860788,0.039999988,0.03999999,0.020556166888674454,-0.0009050509810262287,-0.0038251273766443106,0.001397672298921461,-0.01581613566358026,0.002562540760652715,0.9999999486778556,0.00027403389567683844,-1.3925657120720188e-05,0.00016539584740806295
2819.1333333416183,0.00016882762,-0.7850239,-6.8154484e-05,-2.355785,0.00033304145,1.5707668,0.78609407,0.039999984,0.039999988,0.020932789270955432,-0.0009715774194651622,-0.0036967090436768046,0.0015833394344716165,-0.016524542450492258,0.0029045575566601306,0.9999999404618977,0.00028763915606191357,2.8422289101538425e-06,0.00019060912491992556
2819.150000008285,0.0001691032,-0.7850647,-8.760348e-05,-2.355743,0.0003760543,1.57073,0.78611124,0.039999977,0.03999998,0.02127077639224595,-0.0010384049976013075,-0.0044151530004032935,0.0017814725589714612,-0.017250111163337023,0.0032703629681798503,0.999999929797681,0.0003029507993105169,2.577764584388389e-05,0.0002189999070455731
2819.166666674952,0.00016940586,-0.78511435,-0.00010937109,-2.3556926,0.0004241902,1.5706887,0.78613037,0.039999973,0.039999977,0.022598310450128167,-0.0011049876667225096,-0.00459053547814392,0.0019920519897512336,-0.017999018141057525,0.003659999527271871,0.9999999158218307,0.0003200468057751917,5.511886176747035e-05,0.0002507753670292709
2819.183333341619,0.00016973686,-0.7851731,-0.00013359914,-2.3556337,0.00047776237,1.5706431,0.78615177,0.03999997,0.039999973,0.023266643650710073,-0.001171493410868972,-0.004625770104160765,0.002215866275210682,-0.018768432724910876,0.004073469962945381,0.9999998974085667,0.00033912420525888834,9.110410076813879e-05,0.0002861427479885085
2819.2000000082858,0.00017009763,-0.7852415,-0.00016042909,-2.355566,0.0005370834,1.5705931,0.7861755,0.039999966,0.03999997,0.024236224070461887,-0.0012380382327136408,-0.00470894419077883,0.0024517690104719136,-0.019560076904527893,0.00451073464287163,0.9999998731951093,0.00036026029102175313,0.00013415041061059222,0.0003253090151247036
2819.2166666749526,0.00017048931,-0.7853197,-0.00019000222,-2.3554888,0.0006024652,1.5705379,0.78620154,0.03999996,0.03999996,0.025412462108231892,-0.001303817542640587,-0.005244910013901816,0.0026999687630474964,-0.02037322857319197,0.004972574657756751,0.9999998415986435,0.00038350213296921634,0.00018425760394779762,0.0003684805788944941
2819.2333333416195,0.00017091332,-0.785408,-0.00022245864,-2.355402,0.0006742157,1.570477,0.7862302,0.039999958,0.03999996,0.02559011472345052,-0.0013684951242246511,-0.00578135438902283,0.0029612198927283406,-0.021209583375138934,0.005456308996028662,0.9999998007490826,0.0004090449943694392,0.00024133601634192847,0.0004158616533976058
2819.2500000082864,0.00017137078,-0.78550696,-0.00025793805,-2.3553052,0.0007526455,1.5704108,0.78626156,0.039999947,0.039999947,0.027077981197476397,-0.0014345147932673136,-0.0054975884103081185,0.0032346111526505112,-0.022074089049952488,0.005965217945409203,0.9999997483301386,0.0004369646554453173,0.0003061006619237414,0.00046765792441203765
2819.2666666749533,0.00017186311,-0.7856167,-0.0002965786,-2.355198,0.0008380574,1.5703388,0.78629553,0.039999936,0.03999994,0.02789626122401412,-0.0014972841061873933,-0.005846614533910888,0.0035197694429481103,-0.0229608660250294,0.006495708229719817,0.9999996818397187,0.000467275977311425,0.00037858111572397897,0.0005240705689815322
2819.28333334162,0.00017239159,-0.78573763,-0.00033851742,-2.3550804,0.0009307562,1.5702606,0.78633255,0.03999993,0.039999932,0.027837890251958264,-0.0015623069095984125,-0.006475008223394418,0.0038176843593665786,-0.023872234779407375,0.007050153486304594,0.9999995983980494,0.0005002315988955796,0.0004586875986698177,0.0005853014385958098
2819.300000008287,0.00017295731,-0.7858702,-0.0003838905,-2.3549511,0.0010310411,1.570176,0.7863725,0.039999925,0.039999925,0.030653403030678206,-0.0016236126835935294,-0.006273033500248104,0.00412685803953549,-0.024812032310908817,0.007628340506646409,0.9999994944652539,0.0005358148291871402,0.000547224510963718,0.0006515497217175357
2819.316666674954,0.00017356173,-0.7860145,-0.0004328318,-2.3548112,0.0011392068,1.5700849,0.7864155,0.039999925,0.03999993,0.029163486842453956,-0.001684927568066936,-0.006789904984261241,0.004447999846496447,-0.025775802125230594,0.008227444445513044,0.9999993665763659,0.0005741571432339828,0.0006437742514744608,0.0007230111720440464
2819.333333341621,0.00017420587,-0.7861713,-0.000485474,-2.354659,0.0012555482,1.5699869,0.7864619,0.039999925,0.039999925,0.032298096429350664,-0.0017463051219367728,-0.00697588265412552,0.0047809535617864204,-0.0267686006254608,0.008850660820797735,0.9999992100733962,0.0006154181553622432,0.0007492006527164786,0.0007998821537750314
2819.3500000082877,0.00017489097,-0.7863408,-0.0005419481,-2.354496,0.0013803517,1.5698817,0.78651154,0.039999925,0.039999925,0.030288709756098875,-0.0018050166835345484,-0.007870137152976575,0.005124490803536743,-0.027783995269220915,0.009495112027074022,0.9999990209828512,0.0006596078954085751,0.0008627881020314451,0.0008823533614752888
2819.3666666749546,0.00017561829,-0.7865233,-0.00060238293,-2.3543196,0.0015139031,1.569769,0.7865647,0.03999993,0.039999932,0.03476250927194613,-0.0018627226602576773,-0.0071708414810078835,0.005479266777118462,-0.028832509433377247,0.010160537049416125,0.9999987931329671,0.0007068831679078135,0.0009858771913064627,0.000970615763298579
2819.3833333416214,0.00017638908,-0.7867191,-0.00066690566,-2.3541303,0.0016564841,1.5696489,0.7866215,0.039999936,0.03999994,0.03417601258073333,-0.0019211452702582333,-0.007645182582205479,0.005844564055676968,-0.029903948965962796,0.01084832352494831,0.9999985209716509,0.000757340535554714,0.0011182885949626634,0.0010648570055991093
2819.4000000082883,0.00017720442,-0.7869285,-0.0007356414,-2.3539288,0.0018083693,1.5695208,0.786682,0.03999994,0.039999943,0.03317369720483576,-0.0019769731795222937,-0.008438503601082559,0.00622022440497131,-0.03099906842412738,0.01155730858405083,0.9999981988454499,0.0008110454108899144,0.001259634360844556,0.0011652606894460198
2819.416666674955,0.00017806541,-0.7871519,-0.00080871297,-2.3537135,0.001969831,1.5693847,0.7867463,0.03999994,0.03999994,0.03639346243147212,-0.002031040501078213,-0.008160045128002835,0.0066057809568326135,-0.03212610367185918,0.012288014749436419,0.999997818971589,0.0008680906316622437,0.0014108377623239768,0.001272009248744564
2819.433333341622,0.00017897329,-0.78738976,-0.0008862414,-2.353484,0.0021411346,1.5692402,0.7868146,0.039999943,0.039999943,0.03765245879923107,-0.0020826861987824916,-0.0084495565906062,0.0070013141955866595,-0.033277463872407737,0.013038405406706586,0.9999973733818128,0.000928567712364867,0.0015722557771030514,0.0013852809282463472
2819.450000008289,0.00017992916,-0.7876422,-0.0009683453,-2.35324,0.002322543,1.5690874,0.7868867,0.03999995,0.03999995,0.037716104687191,-0.002135329348341183,-0.008538022180459848,0.007406088593008462,-0.034450504955977596,0.013808983161980065,0.9999968539730288,0.000992477723137899,0.0017439176358098531,0.0015052519036260772
2819.466666674956,0.00018093406,-0.7879098,-0.0010551411,-2.3529823,0.002514312,1.5689261,0.78696305,0.039999954,0.039999954,0.03758848716683971,-0.00218583509276457,-0.0092700729666495,0.007820724688295599,-0.035649991633952285,0.014599404215591777,0.999996251843007,0.0010600283829455724,0.0019258522142715014,0.0016320946705520437
2819.4833333416227,0.00018198912,-0.78819287,-0.0011467428,-2.3527093,0.0027166947,1.5687556,0.78704363,0.039999958,0.039999958,0.040052437435056376,-0.002234550640900848,-0.009373480538354961,0.008243625287574937,-0.036873977536686454,0.015409297483309544,0.9999955566932434,0.001131245774749079,0.002118535613533237,0.00176597950770415
2819.5000000082896,0.00018309528,-0.78849167,-0.0012432622,-2.3524215,0.0029299357,1.5685761,0.7871285,0.03999996,0.03999996,0.039605382586715976,-0.00228117359608196,-0.009733594063154882,0.008675140776644275,-0.03812130172445577,0.01623830182839736,0.9999947583870286,0.0012061854095491494,0.0023219372036566905,0.0019070717995344753
2819.5166666749565,0.0001842538,-0.7888064,-0.0013448083,-2.352118,0.0031542785,1.568387,0.78721774,0.03999996,0.03999996,0.041268299586016965,-0.0023284766046910953,-0.009847094144688207,0.009114768036453506,-0.0393941836248878,0.017086059499462247,0.99999384526213,0.0012848995857894835,0.002536383926441943,0.0020555358161130776
2819.5333333416233,0.00018546556,-0.78913736,-0.0014514887,-2.351799,0.0033899585,1.5681887,0.7873115,0.03999996,0.03999996,0.04133000405395215,-0.0023713103863045194,-0.010058821355851677,0.009562565675000674,-0.040691099091289804,0.017952162404811473,0.9999928050400284,0.0013674999398360999,0.0027620535243999813,0.0022115316906201575
2819.55000000829,0.00018673154,-0.78948516,-0.0015634077,-2.3514647,0.0036372058,1.5679803,0.78740996,0.03999996,0.03999996,0.04128227729820466,-0.0024161030250957746,-0.011087113213115174,0.010018006309036818,-0.04201023636376091,0.018836271765014546,0.9999916257348747,0.0014540945141936013,0.002998736213582939,0.0023752158612261533
2819.566666674957,0.00018805274,-0.7898498,-0.001680667,-2.3511147,0.0038962453,1.567762,0.7875131,0.039999966,0.039999966,0.04219234798041871,-0.0024565132596846093,-0.010914097727177108,0.01047979848033613,-0.04335644751868502,0.01973796048339274,0.9999902932812408,0.0015446711157563464,0.003246758847391689,0.0025467413353353198
2819.583333341624,0.0001894302,-0.7902317,-0.0018033667,-2.3507478,0.0041672993,1.5675339,0.7876209,0.03999997,0.03999997,0.04460955504852482,-0.002494732446805571,-0.01070027218690317,0.010948469522736336,-0.04472872051996567,0.020656885708827354,0.9999887909233665,0.0016392743204081375,0.0035068951186449076,0.0027262600670193014
2819.600000008291,0.00019086472,-0.7906312,-0.0019316034,-2.3503633,0.0044505773,1.5672954,0.7877336,0.039999973,0.039999973,0.04610036253818173,-0.002528001552091477,-0.010969031218932557,0.011423773284124847,-0.046119274819582376,0.02159265229418571,0.9999871018145408,0.0017380057388053174,0.0037795012462352134,0.0029139167690570736
2819.6166666749577,0.00019235739,-0.7910484,-0.002065472,-2.349962,0.004746292,1.5670463,0.7878513,0.039999973,0.039999973,0.04451523600954577,-0.0025704994442226573,-0.011948255635285676,0.011905190635497536,-0.04752723136501074,0.022544876969069413,0.9999852119740273,0.0018409065265058277,0.004063950043127962,0.0031098563418729716
2819.6333333416246,0.00019390899,-0.7914837,-0.002205065,-2.3495445,0.0050546434,1.5667866,0.787974,0.039999977,0.039999977,0.044102207059704135,-0.002603957358341194,-0.012262190865697242,0.012391950451611573,-0.04895969262938701,0.023513143419834927,0.9999831044188928,0.0019480462591727244,0.004360269791159107,0.003314217837465479
2819.6500000082915,0.00019552038,-0.79193735,-0.0023504707,-2.3491082,0.005375832,1.566516,0.78810185,0.039999973,0.039999973,0.04873229199475748,-0.0026326040629664257,-0.01178898937550521,0.012883738225283728,-0.05041760099678005,0.024497089977613094,0.9999807558150373,0.002059458134031444,0.004669680845250709,0.0035271394336397477
2819.6666666749584,0.00019719248,-0.79240966,-0.002501778,-2.3486543,0.005710048,1.5662347,0.78823483,0.039999973,0.039999973,0.04710144021913276,-0.002663740069580806,-0.012427198407727325,0.013380310260935934,-0.05189045335562249,0.02549631328405409,0.9999781482439017,0.0021751485703306347,0.0049918538772225855,0.0037487542280847273
2819.6833333416253,0.00019892615,-0.79290074,-0.0026590684,-2.348182,0.006057478,1.5659422,0.788373,0.03999997,0.03999997,0.04828746496114977,-0.0026951282787224078,-0.012683541375779761,0.013881655601840535,-0.05338280562761024,0.026510407350952715,0.9999752605805825,0.0022951472309039535,0.0053269660080219996,0.003979190763719121
2819.700000008292,0.00020072209,-0.793411,-0.0028224266,-2.3476915,0.006418301,1.5656383,0.7885166,0.03999997,0.03999997,0.04829307330593835,-0.002719347472906943,-0.013262158937044077,0.01438697561947318,-0.05489427832551845,0.027539036277605698,0.9999720711800496,0.0024195739023948597,0.005675044876994558,0.004218576496513368
2819.716666674959,0.00020258118,-0.79394066,-0.0029919303,-2.3471828,0.0067926953,1.565323,0.78866553,0.03999997,0.03999997,0.048847076794822364,-0.0027494748785369515,-0.013506083716818829,0.014895710365503901,-0.05642367703567389,0.028581746564530705,0.9999685570595299,0.0025483952679662522,0.006036237803598435,0.0044670355962604475
2819.733333341626,0.00020450415,-0.7944898,-0.0031676576,-2.346655,0.007180828,1.5649961,0.78881997,0.039999973,0.039999973,0.05014679531363253,-0.0027672058459628918,-0.013523436208662254,0.01540786496715758,-0.057972825677990045,0.029638173091242177,0.9999646925560449,0.002681665650782091,0.006410900251543252,0.0047246871427298375
2819.750000008293,0.00020649181,-0.79505885,-0.0033496819,-2.3461082,0.0075828633,1.5646577,0.78897995,0.039999973,0.039999973,0.050188451664001654,-0.002791464421375003,-0.01403759411611194,0.015922577832398616,-0.05953772195753411,0.030707912995933076,0.999960452404844,0.0028194070061562005,0.006799119468586055,0.004991647512132176
2819.7666666749597,0.00020854476,-0.7956479,-0.0035380756,-2.3455424,0.007998963,1.5643073,0.78914547,0.039999977,0.039999977,0.050596512011114037,-0.002813922056135818,-0.014448681534617869,0.016439592097111003,-0.06111900010838797,0.031790604934161526,0.9999558109486579,0.0029616090032228305,0.007200893340464341,0.005268031627016269
2819.7833333416265,0.00021066377,-0.7962575,-0.003732907,-2.3449574,0.008429272,1.5639448,0.78931665,0.039999977,0.039999977,0.05143495624015948,-0.0028284570057312934,-0.014992597725504986,0.016958590419109597,-0.06271882539491919,0.03288578264268878,0.9999507395989112,0.003108316885144412,0.007616457743975577,0.0055539457294819265
2819.8000000082934,0.00021284964,-0.796887,-0.0039342428,-2.3443522,0.008873943,1.5635705,0.7894936,0.039999977,0.039999977,0.05210224298721755,-0.0028428352477048897,-0.014270149868367277,0.01747933989074841,-0.06433388874018738,0.03399315504517628,0.999945208313327,0.0032595776954341114,0.008046048393363377,0.0058494982448253855
2819.8166666749603,0.00021510283,-0.7975373,-0.0041421475,-2.3437276,0.009333118,1.5631837,0.78967625,0.03999998,0.03999998,0.05208727874517205,-0.0028636791826641868,-0.01576462493446673,0.01800066026722018,-0.06596225048528263,0.03511228741764357,0.9999391890627842,0.0034153112859018567,0.008489543946866048,0.006154792348739902
2819.833333341627,0.00021742418,-0.7982086,-0.004356683,-2.3430827,0.009806932,1.5627846,0.7898647,0.03999998,0.03999998,0.05343332561353886,-0.00287063968065545,-0.015540798656754617,0.018523416342966042,-0.06760739629756887,0.036242803547548164,0.9999326469202751,0.003575587198769883,0.008947447894014166,0.0064699285452479065
2819.850000008294,0.00021981414,-0.7989008,-0.004577909,-2.342418,0.010295517,1.5623732,0.7900591,0.039999973,0.039999973,0.052603560345843015,-0.0028851337392353515,-0.015952975168875838,0.019046163823012843,-0.06926297043965987,0.03738428677087606,0.9999255521769493,0.003740414398844999,0.009419518884305438,0.00679500314465345
2819.866666674961,0.00022227346,-0.7996142,-0.0048058815,-2.341733,0.010798995,1.561949,0.7902594,0.039999977,0.039999977,0.05356687904565227,-0.002893426758520702,-0.016516361531437873,0.019568905281415184,-0.07093451552172621,0.03853635209483058,0.9999178707017872,0.003909794892988953,0.00990590283121375,0.0071301082879181195
2819.883333341628,0.00022480261,-0.80034906,-0.0050406554,-2.3410277,0.011317487,1.5615124,0.7904657,0.039999984,0.039999984,0.05388709053497642,-0.0028981384240745096,-0.016718873646115462,0.020090559973034168,-0.07261979644402375,0.03969862788321578,0.9999095661827939,0.004083702123577705,0.010406835108789958,0.007475333846804721
2819.9000000082947,0.0002274022,-0.80110544,-0.005282281,-2.3403013,0.011851108,1.5610632,0.790678,0.039999988,0.03999999,0.05555767264642242,-0.0028998427611694015,-0.016618768783716042,0.020611599213335434,-0.07431752227623831,0.04086987942364857,0.9999005977232585,0.004262133904811489,0.010922818934694078,0.007830767125125968
2819.9166666749616,0.00023007282,-0.8018834,-0.0055308095,-2.3395538,0.012399965,1.5606011,0.7908965,0.039999988,0.03999999,0.05507544920764218,-0.002904019656991587,-0.017270312966122248,0.02113086824724094,-0.07602221660645751,0.042051434019444875,0.9998909310108098,0.004445117355179495,0.01145358230904992,0.008196491098298378
2819.9333333416284,0.00023281483,-0.80268306,-0.0057862876,-2.3387856,0.012964163,1.5601261,0.791121,0.039999988,0.03999999,0.05473560208280048,-0.0029095959275244124,-0.017787528746726622,0.021648137535550636,-0.0777375679818188,0.04324202349224357,0.999880529786821,0.004632587651062293,0.011999002780716101,0.008572585208086186
2819.9500000082953,0.00023562885,-0.8035048,-0.0060487567,-2.3379965,0.0135438,1.5596379,0.7913517,0.039999988,0.03999999,0.05553306094814303,-0.0029130274365568067,-0.018307393581507014,0.02216307666656254,-0.07946452167434472,0.044441302776553004,0.9998693518640137,0.004824533511720057,0.012559344662624494,0.00895912613353769
2819.966666674962,0.00023851532,-0.8043487,-0.0063182623,-2.3371868,0.014138966,1.5591366,0.79158854,0.039999988,0.03999999,0.05469163458355908,-0.002908383670200982,-0.01877279613620164,0.022675724269479683,-0.08120151353108014,0.04564887714130127,0.9998573599834638,0.005020947435492981,0.013134365501257819,0.009356186008602529
2819.983333341629,0.00024147469,-0.8052146,-0.0065948428,-2.3363552,0.014749751,1.5586225,0.79183173,0.03999999,0.039999995,0.05705374383215833,-0.0028947295638897565,-0.01825789124407784,0.023184948852033666,-0.0829513066873626,0.046864344878638345,0.9998445022644599,0.005221844493240653,0.013724835526466578,0.009763837431786217
2820.000000008296,0.0002445074,-0.8061028,-0.0068785334,-2.3355024,0.015376237,1.5580949,0.7920809,0.039999988,0.03999999,0.05599283322119675,-0.002901911368226144,-0.019494523864782565,0.02369011423046368,-0.08470531415201152,0.048087319643685754,0.9998307431098723,0.005426997593295156,0.014330275571500616,0.010182142776841395
2820.016666674963,0.0002476138,-0.80701345,-0.007169372,-2.3346274,0.0160185,1.557554,0.79233634,0.03999999,0.039999995,0.057733464312059724,-0.0028794030233889566,-0.019301720797071376,0.0241928306292282,-0.08647045817976402,0.04931749936087885,0.9998160285767052,0.005636537332826574,0.014951305385628519,0.010611169363757852
2820.0333333416297,0.00025079437,-0.8079467,-0.007467389,-2.3337312,0.016676614,1.557,0.7925982,0.039999995,0.04,0.056306884469803364,-0.0028815805820418816,-0.020007966207025163,0.024690965106439387,-0.08823841916113931,0.050554476527341505,0.9998003176409656,0.005850445041488901,0.015587592318917078,0.011050977492507297
2820.0500000082966,0.00025404952,-0.8089025,-0.0077726184,-2.3328135,0.01735064,1.5564325,0.7928663,0.04,0.04,0.05651525558496573,-0.002866210782329244,-0.02059390150010998,0.025183952844393617,-0.09001472784573468,0.05179780525069291,0.9997835661599881,0.006068606618305051,0.016239013157612232,0.011501621702867375
2820.0666666749635,0.00025737955,-0.809881,-0.008085083,-2.3318737,0.018040642,1.5558516,0.79314077,0.04,0.04,0.05784411063016748,-0.0028496562505510303,-0.02052594143573394,0.025672083426386858,-0.09179870455678775,0.053046976847134164,0.9997657179297236,0.006291023740757839,0.016906068917745216,0.011963156210053491
2820.0833333416304,0.00026078464,-0.81088233,-0.008404812,-2.3309124,0.01874668,1.555257,0.7934217,0.04,0.04,0.056719151056672246,-0.0028463771239885596,-0.02155074785266109,0.026154645673810106,-0.09358657063075719,0.05430183736960984,0.9997467306263367,0.0065176681593848065,0.017588336982432926,0.012435634519692764
2820.1000000082972,0.0002642652,-0.8119065,-0.008731828,-2.3299294,0.0194688,1.5546489,0.79370904,0.04,0.04,0.05709927790626956,-0.002820874618364097,-0.021603656060475984,0.02663121345197423,-0.09538185060000379,0.05556183554106664,0.9997265507484661,0.0067484809115099615,0.01828602062585333,0.012919101502530332
2820.116666674964,0.0002678217,-0.81295365,-0.009066149,-2.3289247,0.020207057,1.5540272,0.7940028,0.04,0.04,0.05714251647779278,-0.002817066047427347,-0.022129380938307186,0.027100984339588227,-0.09718158616732095,0.05682729718822548,0.9997051272566129,0.006983366310518041,0.018999114729320043,0.013413603964437934
2820.133333341631,0.00027145416,-0.8140237,-0.0094078,-2.3278975,0.020961488,1.553392,0.7943029,0.04,0.04,0.05829312988394619,-0.00277252168983267,-0.02212011417315196,0.027564369880503006,-0.09898722325468062,0.058096477883216036,0.9996824002111557,0.007222260714810727,0.019728001005134554,0.013919182252247858
2820.150000008298,0.00027516304,-0.81511664,-0.009756792,-2.3268483,0.021732122,1.5527431,0.7946094,0.04,0.04,0.05777646616054177,-0.0027602917141411262,-0.022890904174577287,0.02802094743587403,-0.10079501472978605,0.059370512757440666,0.9996583207636484,0.0074651223190110505,0.020472404999899222,0.014435868878767043
2820.1666666749647,0.00027894837,-0.8162327,-0.010113142,-2.325777,0.022518996,1.5520805,0.7949225,0.04,0.04,0.05752767200566389,-0.002739487657621442,-0.023269429851979773,0.0284698401702767,-0.10260587391121312,0.06064770024808504,0.9996328326204298,0.007711913000294185,0.02123237973539991,0.014963702613435955
2820.1833333416316,0.00028281048,-0.81737185,-0.010476861,-2.3246837,0.023322146,1.5514044,0.795242,0.04,0.04,0.0579443181564443,-0.0027187418838241564,-0.023625196737331322,0.028910717613782153,-0.1044208166823262,0.06192850164933681,0.9996058764942922,0.007962558368282985,0.022008067797541286,0.015502718926961267
2820.2000000082985,0.00028674954,-0.818534,-0.01084796,-2.3235676,0.024141585,1.5507143,0.79556805,0.039999995,0.04,0.058446797833511255,-0.002681539950960196,-0.024056380719250647,0.02934337959123979,-0.10623573474496122,0.06321281594544112,0.9995773951121847,0.008216980291358826,0.022799462620783258,0.01605294115837733
2820.2166666749654,0.0002907658,-0.81971955,-0.011226447,-2.3224294,0.024977334,1.5500106,0.7959006,0.04,0.04,0.058081950301724916,-0.0026556796617486014,-0.024614450912907593,0.029767341400640933,-0.108051572077384,0.06449912407861082,0.99954732715564,0.008475103576869964,0.023606676513312847,0.016614397953973025
2820.2333333416323,0.0002948593,-0.82092834,-0.011612326,-2.3212686,0.025829399,1.5492934,0.7962397,0.04,0.04,0.05874584144378581,-0.0026160843121089336,-0.024719783296323072,0.030181945636375756,-0.1098681667186597,0.06578764559339592,0.9995156068449367,0.00873687706321666,0.024429940232013315,0.01718710775087784
2820.250000008299,0.0002990301,-0.82216007,-0.012005601,-2.3200858,0.02669779,1.5485618,0.7965852,0.04,0.04,0.056795721475877414,-0.002610630608176727,-0.025897438660948957,0.030587271512372338,-0.1116806562739517,0.06707809465402123,0.9994821981710081,0.009002157440946871,0.025268264424646015,0.01777108645030922
2820.266666674966,0.0003032787,-0.823415,-0.0124062775,-2.318881,0.027582517,1.5478165,0.7969373,0.04,0.04,0.05723386266920372,-0.002567510919005908,-0.025974464940703434,0.030983024556374663,-0.11349891300102469,0.06837025513667999,0.9994470280513416,0.009270924842138645,0.0261221171587422,0.018366356934820076
2820.283333341633,0.00030760487,-0.82469326,-0.012814351,-2.3176537,0.028483566,1.5470576,0.79729587,0.04,0.04,0.058618339651062,-0.0025120942397947876,-0.026227139443824043,0.03136863059450548,-0.11531746939374499,0.06966353819388278,0.9994100210682743,0.00954305841424634,0.026991997588240186,0.01897292519908629
2820.3000000083,0.00031200872,-0.8259948,-0.01322982,-2.3164039,0.029400943,1.5462853,0.7976611,0.04,0.04,0.05804704514016379,-0.002485876432088696,-0.0266067548753135,0.03174371937585489,-0.11713182372571171,0.07095705428095264,0.9993711150747516,0.009818561734453815,0.027877776726644574,0.01959080816336309
2820.3166666749667,0.0003164904,-0.82731944,-0.013652677,-2.3151317,0.030334631,1.5454992,0.7980324,0.04,0.04,0.05775234742873003,-0.0024491144949286697,-0.027174386266604067,0.03210712042433623,-0.11894176692362132,0.07225175871572989,0.9993302533997659,0.010097014705156298,0.028779274012250104,0.02021999805468069
2820.3333333416335,0.00032104985,-0.8286672,-0.014082916,-2.3138373,0.03128462,1.5446992,0.7984103,0.04,0.04,0.05717337894837193,-0.0024200051301038333,-0.027903067827894645,0.03246176374370638,-0.1207495308490628,0.07354556502716987,0.9992873745569918,0.01037862127569581,0.029696236835443715,0.02086050788507296
2820.3500000083004,0.00032568738,-0.830038,-0.014520529,-2.3125207,0.03225089,1.5438856,0.79879487,0.04,0.04,0.05708481544703936,-0.0023735269974456408,-0.028049716019284965,0.03280420605623216,-0.12255453892142756,0.07483903606281031,0.9992424085480621,0.010663320620206165,0.03062877475400223,0.021512338540638623
2820.3666666749673,0.0003304026,-0.831432,-0.014965508,-2.3111823,0.03323341,1.5430584,0.7991857,0.04,0.04,0.05677608388752198,-0.002327085846589444,-0.02873874153412892,0.03313436843653107,-0.12435784338243752,0.07613215384613672,0.9991952913130719,0.010950808464475204,0.03157685332990335,0.02217548072853337
2820.383333341634,0.00033519563,-0.832849,-0.015417841,-2.3098223,0.034232166,1.5422174,0.7995831,0.03999999,0.04,0.05564790526939589,-0.002303852441274193,-0.029472598520108306,0.033453344303302684,-0.12615628979573928,0.07742457251953602,0.9991459667993622,0.011241135790680075,0.032540043060469565,0.022849934186471747
2820.400000008301,0.0003400667,-0.83428884,-0.015877508,-2.3084395,0.035247114,1.5413628,0.79998684,0.04,0.04,0.05776470461320571,-0.002225255883218577,-0.02917760947112047,0.033759701693906394,-0.1279554708003039,0.078713414134584,0.9990943455300515,0.011534107833189798,0.03351902138820145,0.023535681242482457
2820.416666674968,0.00034501543,-0.83575165,-0.016344495,-2.307035,0.036278218,1.5404944,0.8003971,0.04,0.04,0.055829754876768334,-0.0022012256107591804,-0.030299731754812598,0.03405386448408415,-0.129746803043685,0.08000273205991296,0.9990403747311297,0.011829685858671536,0.03451324092432231,0.024232713229613415
2820.433333341635,0.0003500418,-0.8372374,-0.016818786,-2.3056092,0.03732543,1.5396127,0.8008137,0.039999995,0.04,0.05492649470770772,-0.00215308491313404,-0.030742649195736327,0.03433474957323736,-0.1315341285910235,0.08128957174003962,0.9989839909900338,0.012127682875167084,0.03552254476042625,0.02494100774721916
2820.4500000083017,0.00035514598,-0.83874613,-0.017300354,-2.3041608,0.038388733,1.5387174,0.80123675,0.039999995,0.04,0.0572653092693276,-0.0020957164146011287,-0.03086653234307679,0.034602809929773715,-0.13331893366390393,0.08257278038499644,0.998925096833307,0.012428069532594276,0.03654763494317929,0.025660560873088205
2820.4666666749686,0.00036032757,-0.84027755,-0.017789183,-2.302691,0.03946805,1.5378088,0.80166614,0.04,0.04,0.05489372054392483,-0.002044652899896998,-0.031489900955805616,0.034857257359003656,-0.13509488057784919,0.08385322862625202,0.998863645016993,0.012730663272336368,0.03758784787113171,0.026391335101313487
2820.4833333416354,0.0003655866,-0.8418317,-0.018285252,-2.3011987,0.040563345,1.5368866,0.80210185,0.039999995,0.04,0.05631827309424686,-0.001981106439568822,-0.031944349703239006,0.03509828282172703,-0.13686391672028542,0.08513046239320082,0.9987995497639879,0.013035345189964156,0.03864352995678407,0.027133314569229818
2820.5000000083023,0.0003709229,-0.8434085,-0.018788528,-2.2996855,0.04167455,1.535951,0.802544,0.04,0.04,0.05382733728103162,-0.0019609945897832576,-0.03271204371340097,0.03532540347656123,-0.13862410208266063,0.08640380669963933,0.998732760313457,0.013342073730673597,0.039714072667334156,0.027886465846386498
2820.516666674969,0.00037633654,-0.8450078,-0.019298978,-2.2981498,0.042801607,1.5350021,0.80299234,0.04,0.04,0.05583129077177951,-0.0018737651869230043,-0.03267628062770811,0.03553831011149272,-0.14037994835828757,0.08767216254080859,0.9986631827638431,0.01365060903303309,0.0408000334919247,0.028650750986249134
2820.533333341636,0.00038182692,-0.84662926,-0.019816585,-2.2965925,0.043944452,1.5340396,0.80344695,0.04,0.04,0.054189796651149535,-0.0018303211725589213,-0.033473600033007145,0.035737076153046485,-0.14212447949297485,0.08893608808755127,0.9985907652252259,0.013960874188592662,0.04190083418895405,0.029426139622071884
2820.550000008303,0.000387394,-0.8482733,-0.020341309,-2.2950146,0.04510301,1.5330642,0.8039079,0.04,0.04,0.0525902859324745,-0.001793684114287375,-0.03404387470609116,0.0359212349476559,-0.14386321329540763,0.090196717224069,0.998515437156819,0.014272795143170484,0.043016372219161,0.030212593391335547
2820.56666667497,0.00039303774,-0.8499397,-0.020873124,-2.293415,0.04627722,1.5320753,0.804375,0.04,0.04,0.0540908433799725,-0.0017226450066503557,-0.03474087632011624,0.03609059197359678,-0.14559336543990326,0.09145126984588878,0.9984371172982769,0.01458617871515944,0.04414681569548212,0.031010076677514854
2820.5833333416367,0.0003987578,-0.851628,-0.021411996,-2.291794,0.047467012,1.5310736,0.8048483,0.04,0.04,0.05328125131778272,-0.0016457637105959239,-0.03439457255125511,0.03624495023331425,-0.14731540441146054,0.09269972771973786,0.9983557285767808,0.014900928705195809,0.045292181638522576,0.03181854528527341
2820.6000000083036,0.00040455384,-0.85333836,-0.02195788,-2.2901528,0.04867228,1.5300587,0.80532783,0.04,0.04,0.05113358890667108,-0.001629397600135321,-0.03564451157314075,0.03638413653974744,-0.1490261064977866,0.09394288989955323,0.9982712271604512,0.015216924177787547,0.04645177236316319,0.03263793937207387
2820.6166666749705,0.00041042603,-0.8550708,-0.022510745,-2.2884898,0.04989296,1.5290309,0.80581355,0.04,0.04,0.053533802536120945,-0.0015196848856750822,-0.03585454416545897,0.03650796251332936,-0.15073143666525474,0.0951783701122552,0.9981835002112499,0.015534034747825989,0.0476263781850696,0.03346822032083551
2820.6333333416374,0.00041637343,-0.85682493,-0.023070544,-2.286806,0.051128954,1.52799,0.80630517,0.04,0.04,0.05118345183605655,-0.0014972938606316183,-0.03640075208775073,0.03661551242332838,-0.15242122615798143,0.09640836995389132,0.9980925103301237,0.015852000950034195,0.04881521674093364,0.03430932093947142
2820.6500000083042,0.00042239626,-0.8586005,-0.023637243,-2.2851017,0.052380178,1.5269368,0.80680305,0.04,0.04,0.05114835433115417,-0.0014016096212592088,-0.036266279988295125,0.03670895805715724,-0.15410316146953412,0.0976297409780135,0.997998162507311,0.016170896650297126,0.05001859538262524,0.03516119806697934
2820.666666674971,0.00042849386,-0.8603977,-0.024210803,-2.283377,0.05364654,1.5258703,0.8073068,0.04,0.04,0.04997166596720781,-0.001377444003970718,-0.03777662171098317,0.03678514578243364,-0.15577197721553349,0.09884484183924723,0.9979004147630012,0.01649040621688936,0.051235881348362565,0.036023786323606685
2820.683333341638,0.00043466635,-0.8622163,-0.02479116,-2.281631,0.054927927,1.5247916,0.80781657,0.04,0.04,0.05154561363300836,-0.0012664538300691253,-0.03732350533276474,0.03684610655650154,-0.15743368464668828,0.10004940898323503,0.9977991480220719,0.016810438812097178,0.05246789221282367,0.03689701397288966
2820.700000008305,0.00044091314,-0.864056,-0.025378287,-2.2798648,0.05622425,1.5237,0.8083323,0.04,0.04,0.04917864597633326,-0.0012360434196480308,-0.03832606809557326,0.03689244927603708,-0.1590782439998175,0.10123300760214786,0.9976943323486119,0.017130907623678658,0.053713689957428236,0.03778082469459516
2820.7166666749717,0.0004472333,-0.86591685,-0.025972124,-2.278079,0.057535402,1.5225959,0.808854,0.04,0.04,0.047961469463553286,-0.0011959561428000198,-0.03886275873510314,0.03691915178991715,-0.1607127948064194,0.10243783086830749,0.9975859012419869,0.017451635192099683,0.05497311288648367,0.038675146178194196
2820.7333333416386,0.00045362752,-0.8677987,-0.026572634,-2.2762728,0.058861267,1.5214795,0.8093815,0.04,0.04,0.04930536497802507,-0.0010648812430503335,-0.03897918300692638,0.03693247229998147,-0.1623371507203604,0.1036083781219549,0.9974737513896995,0.017772466073292064,0.05624665272584116,0.03957990393333618
2820.7500000083055,0.00046009445,-0.86970127,-0.027179759,-2.2744462,0.060201738,1.5203509,0.80991477,0.04,0.04,0.048492740702155146,-0.0010105462521906028,-0.03937513857845687,0.03692679915355008,-0.16394665298676708,0.10479033322671417,0.9973578158626276,0.01809324970511757,0.0575341165797435,0.040495022931535306
2820.7666666749724,0.00046663464,-0.8716244,-0.027793437,-2.2726007,0.06155668,1.51921,0.81045383,0.04,0.04,0.04595738583690334,-0.0009936042840809345,-0.040232514327254165,0.03690729968102738,-0.16554026691649493,0.1059395316982817,0.9972380653753017,0.018413865493372397,0.058834685575825434,0.04142040918811719
2820.7833333416393,0.00047324694,-0.87356806,-0.028413633,-2.2707355,0.062925994,1.5180571,0.8109987,0.04,0.04,0.04669064266096257,-0.0008827911992977111,-0.04037374354117773,0.036870024303091595,-0.1671235519369682,0.10709005807250291,0.9971143976386345,0.018734195230368716,0.06014878974732552,0.04235600362103921
2820.800000008306,0.00047993107,-0.8755319,-0.02904028,-2.26885,0.06430957,1.5168924,0.8115492,0.04,0.04,0.04743648613394491,-0.0007919323592522898,-0.04055617305287473,0.0368155113749802,-0.1686930085250513,0.108229973188387,0.9969867211733385,0.019054046984607734,0.06147668282635356,0.04330171551118932
2820.816666674973,0.0004866865,-0.87751585,-0.029673329,-2.2669466,0.06570725,1.5157155,0.8121054,0.04,0.04,0.04321539191458612,-0.0008056607435191765,-0.041762893390129285,0.03674417011863815,-0.17024414482334094,0.10936059917708812,0.9968550440871211,0.01937333942455882,0.06281697914430066,0.04425745054551994
2820.83333334164,0.00049351313,-0.87951976,-0.030312713,-2.2650228,0.06711895,1.5145266,0.81266713,0.04,0.04,0.0466832666435657,-0.0006611484750174146,-0.04169262590629774,0.03665612746487429,-0.17178726855974608,0.11047818984524546,0.9967192196625342,0.01969180526664078,0.06417085641470442,0.04522312624811304
2820.850000008307,0.00050041,-0.88154346,-0.030958382,-2.2630804,0.0685445,1.5133262,0.81323445,0.04,0.04,0.04354525814211918,-0.0006088043764493345,-0.042179832899846836,0.03655174439204603,-0.17331069298944551,0.11158249131418656,0.9965792183403162,0.020009408517458315,0.06553755149990398,0.0461986416075544
2820.8666666749737,0.00050737674,-0.88358665,-0.03161026,-2.2611191,0.069983765,1.5121143,0.81380725,0.04,0.04,0.04345400655423326,-0.0005378739033605473,-0.04243594353035007,0.036430358624226056,-0.17481845648323868,0.11267412063532989,0.9964349653511201,0.020325961335311483,0.06691707942856451,0.047183891342902975
2820.8833333416405,0.0005144127,-0.8856491,-0.032268316,-2.2591398,0.07143662,1.5108911,0.8143853,0.04,0.04,0.04178731814254988,-0.0004641740569598374,-0.04287072007271853,0.03629153583824181,-0.17631081479320546,0.11375569502914046,0.9962864160623061,0.020641240163282327,0.06830901233178417,0.04817878380058405
2820.9000000083074,0.00052151777,-0.8877306,-0.032932453,-2.2571423,0.07290295,1.5096564,0.81496865,0.04,0.04,0.04130314680113045,-0.00044766208681865094,-0.0434141045611236,0.03613753183281066,-0.17778741385466623,0.11481849853220952,0.9961335078569714,0.02095513508188487,0.069713182466397,0.04918321897427856
2820.9166666749743,0.0005286909,-0.8898311,-0.033602614,-2.2551267,0.07438258,1.5084107,0.81555724,0.04,0.04,0.041129769618919454,-0.00033456696605024816,-0.04372708196711539,0.0359656154816093,-0.17925046202229422,0.11588130710260956,0.9959761587667773,0.021267499332905903,0.07112972192608491,0.05019708456691713
2820.933333341641,0.000535932,-0.89195025,-0.034278728,-2.2530925,0.07587539,1.5071537,0.81615114,0.04,0.04,0.04120713007416121,-0.00025729862202089615,-0.044023228319955976,0.035778278690681994,-0.18069653356849957,0.11691973275811376,0.9958142977045512,0.021578231236781445,0.07255858143375528,0.05122027610433671
2820.950000008308,0.00054324005,-0.8940882,-0.03496074,-2.251041,0.07738118,1.5058858,0.8167503,0.04,0.04,0.03923409155479618,-0.0001835875620151417,-0.04480527912427146,0.035573188057395816,-0.18212380552824708,0.11794912046952256,0.9956478793205421,0.021887192902699838,0.07399938724606821,0.05225267341058879
2820.966666674975,0.00055061467,-0.8962442,-0.035648573,-2.2489717,0.07889984,1.504607,0.8173546,0.04,0.04,0.038583048478946225,-0.0001295144024089645,-0.044734030360982224,0.035352269817571474,-0.1835340830680487,0.11895758079134007,0.9954768530533319,0.022194237799971477,0.07545185511089526,0.05329416857253586
2820.983333341642,0.00055805524,-0.89841837,-0.03634216,-2.2468855,0.08043119,1.5033172,0.8179639,0.04,0.04,0.03718735567241893,-7.204443363759139e-05,-0.04537168501725919,0.035113939652344654,-0.18492823869241815,0.11995685637753475,0.9953011727219273,0.022499130468698687,0.07691570514626213,0.054344631826537926
2821.0000000083087,0.0005655611,-0.9006106,-0.037041407,-2.2447822,0.08197513,1.5020171,0.81857806,0.04,0.04,0.03751340740203446,-1.9414761229935573e-05,-0.045620186857164846,0.034859163025996724,-0.18630764958515583,0.1209435824482061,0.9951207417920074,0.02280171236956168,0.07839127598244938,0.05540396211629824
2821.0166666749756,0.0005731313,-0.9028203,-0.037746288,-2.2426612,0.083531454,1.5007067,0.81919736,0.04,0.04,0.03731441193033369,0.00016921443186032614,-0.04557277133585558,0.034588495431062724,-0.18766539317558148,0.12191510503503669,0.9949354973725131,0.023102004876889525,0.07987842386719333,0.05647203590513671
2821.0333333416424,0.00058076554,-0.9050474,-0.03845669,-2.2405248,0.08509998,1.499386,0.8198214,0.04,0.04,0.03346067355312066,0.00010238879710328108,-0.04629992843838693,0.03430057255127549,-0.18900292209993108,0.12287034178272933,0.9947454553670383,0.023399723727634183,0.08137615897930327,0.05754869855930001
2821.0500000083093,0.00058846304,-0.9072917,-0.039172564,-2.238371,0.08668058,1.498055,0.82045025,0.04,0.04,0.03612124459499988,0.0002842017470111591,-0.046489041299957456,0.03399669517012468,-0.19032694494884211,0.1238097284345141,0.9945504836976201,0.023694729655769003,0.08288526397915928,0.05863384840239511
2821.066666674976,0.00059622293,-0.90955293,-0.03989382,-2.2362008,0.08827308,1.496714,0.82108396,0.04,0.04,0.033640575596383115,0.00030693169347367766,-0.046789943361225106,0.03367693845743324,-0.1916286633565315,0.12473304470198589,0.9943505638527099,0.023986984290749417,0.08440512172245287,0.059727348655796944
2821.083333341643,0.0006040445,-0.9118308,-0.04062039,-2.2340152,0.089877315,1.4953632,0.82172215,0.04,0.04,0.031917498949818324,0.000348399780781411,-0.04698054035940924,0.03334093870423186,-0.1929117507587505,0.12563881163672383,0.9941456681603378,0.02427618293537451,0.08593533896115846,0.060829063265468664
2821.10000000831,0.0006119275,-0.914125,-0.041352186,-2.2318137,0.091493085,1.4940027,0.822365,0.04,0.04,0.03217445958458853,0.00046803707140566364,-0.04731472787666835,0.03298937673922152,-0.1941767944720233,0.1265298541920477,0.993935722922763,0.02456229144120899,0.08747600950199208,0.06193884321465066
2821.116666674977,0.00061987084,-0.91643536,-0.04208913,-2.2295964,0.09312023,1.4926329,0.8230123,0.04,0.04,0.03136277243429575,0.0005452241233744326,-0.047308090990627605,0.03262267958399248,-0.195421229805611,0.12739951028960278,0.9937206690683819,0.024845124695457677,0.08902708889589991,0.06305655467813352
2821.1333333416437,0.0006278736,-0.9187618,-0.04283115,-2.2273638,0.09475859,1.4912534,0.8236641,0.04,0.04,0.03006614017992959,0.0005723787020288362,-0.04813089346777932,0.032239256597121645,-0.19664494071469663,0.12825752248669203,0.9935004810290575,0.02512458921328257,0.09058813994032291,0.06418207003554371
2821.1500000083106,0.0006359351,-0.9211041,-0.043578163,-2.2251165,0.096408,1.4898646,0.8243204,0.04,0.04,0.028846167940699274,0.0006319207974267438,-0.04824265396663474,0.03184118528387474,-0.1978489592512775,0.12909443015252045,0.993275115641525,0.02540053131605667,0.09215896798910564,0.0653152530069372
2821.1666666749775,0.0006440548,-0.92346174,-0.04433007,-2.2228544,0.09806822,1.4884664,0.824981,0.04,0.04,0.027982854107477806,0.0007189979322606843,-0.04843688269153823,0.03142773095063555,-0.1990326714932899,0.12991328455520412,0.9930445453860761,0.02567281330048011,0.09373925863077134,0.06645591717487091
2821.1833333416444,0.0006522319,-0.9258347,-0.045086805,-2.220578,0.0997391,1.4870596,0.8256458,0.04,0.04,0.027149182468155786,0.0008094581425581449,-0.048367101300672566,0.030999234771057805,-0.2001984199836367,0.13071462476890985,0.9928086982953094,0.025941296874743423,0.09532914297373192,0.0676039363167822
2821.2000000083112,0.0006604653,-0.9282224,-0.045848276,-2.218287,0.10142044,1.4856439,0.8263147,0.04,0.04,0.02646986465935086,0.0008769892376865596,-0.0485927750185855,0.03055578417790175,-0.20134177035635176,0.13149654329969704,0.9925675549577611,0.026205782472925022,0.0969282517270454,0.06875914359045197
2821.216666674978,0.0006687544,-0.9306249,-0.0466144,-2.2159817,0.10311206,1.4842192,0.8269878,0.04,0.04,0.02577136580259598,0.0009406788043633818,-0.049177178307946434,0.03009860440661768,-0.20246456375288654,0.13225922686520353,0.9923210671419583,0.026466246809890532,0.09853646927390146,0.06992139664706648
2821.233333341645,0.00067709794,-0.93304175,-0.047385097,-2.2136633,0.10481378,1.4827864,0.8276649,0.04,0.04,0.023371162014873548,0.0009819945761734006,-0.04873807917848971,0.02962613666215966,-0.20356532554771398,0.1330039750990897,0.9920692203667284,0.02672252204928615,0.10015339749174458,0.0710905463978003
2821.250000008312,0.00068549596,-0.9354726,-0.048160266,-2.2113314,0.106525354,1.4813457,0.82834595,0.04,0.04,0.02353200626439289,0.0011208904693728317,-0.04883457479918363,0.02914026924632896,-0.2046465177386278,0.13372714740885996,0.9918119539439443,0.02697447850187431,0.10177913686186749,0.07226640175835863
2821.2666666749788,0.00069394696,-0.93791735,-0.04893983,-2.2089858,0.10824663,1.4798962,0.8290308,0.04,0.04,0.0227331155967736,0.0011349356396246624,-0.04970155192867143,0.028639620099314287,-0.20570343912070765,0.1344321886603809,0.9915492606695181,0.02722192838203219,0.10341325712639547,0.07344881572500338
2821.2833333416456,0.00070245,-0.94037557,-0.0497237,-2.2066274,0.10997742,1.4784377,0.8297194,0.04,0.04,0.020588086000428163,0.0011290277597081344,-0.050012356741957475,0.028125916481257167,-0.20674015970357246,0.13511830128371538,0.9912811711260268,0.027464748553701672,0.1050550004234912,0.07463761949523198
2821.3000000083125,0.0007110041,-0.94284713,-0.050511766,-2.2042563,0.11171752,1.4769714,0.83041173,0.04,0.04,0.020308725856610366,0.0012400145607639745,-0.04949901014712488,0.027599697994175946,-0.20775982804722792,0.13578411217021946,0.9910075886950329,0.027702852291957295,0.10670482107807966,0.0758326597347179
2821.3166666749794,0.0007196088,-0.9453315,-0.05130397,-2.201872,0.113466725,1.4754975,0.8311077,0.04,0.04,0.02028960574231853,0.001411390286543135,-0.04940595335565234,0.027060750759815143,-0.2087577374038112,0.1364281423624516,0.9907284643700506,0.027936134885657403,0.10836273135685204,0.07703376342549222
2821.3333333416463,0.0007282629,-0.9478289,-0.052100193,-2.1994762,0.115224816,1.474017,0.83180726,0.04,0.04,0.0181684142118943,0.0014212527014466347,-0.049262464877153356,0.026508637789385295,-0.2097312547294169,0.1370523548651895,0.99044376086789,0.028164545665796136,0.11002861978369873,0.07824076785029375
2821.350000008313,0.0007369651,-0.9503385,-0.05290035,-2.1970682,0.11699165,1.4725301,0.83251035,0.04,0.04,0.017936685024855237,0.0015119821540975076,-0.048916675420684896,0.025942058312651665,-0.21067683933988163,0.13765878812741805,0.9901534425759966,0.028387952507195086,0.11170238209308432,0.0794535218985435
2821.36666667498,0.0007457151,-0.95286036,-0.053704362,-2.1946492,0.11876695,1.4710358,0.83321667,0.04,0.04,0.015149168902528487,0.001491585549142499,-0.049954319340073106,0.025363190567887342,-0.2115964814966269,0.13824091052432785,0.9898575911114326,0.028606107167684167,0.11338297534455677,0.08067180953591344
2821.383333341647,0.0007545119,-0.95539397,-0.054512113,-2.1922188,0.120550536,1.4695344,0.83392626,0.04,0.04,0.01518656914543115,0.0015696529098246925,-0.04973192161323858,0.02477395902856503,-0.2124966445697567,0.1388004384189337,0.9895561575774828,0.028818957469196296,0.11507046620608574,0.08189546078990304
2821.400000008314,0.0007633542,-0.9579393,-0.05532352,-2.1897771,0.12234223,1.4680256,0.8346392,0.04,0.04,0.014290310185982591,0.0015932975699108065,-0.050287451136421524,0.024172419281487945,-0.21337411343742524,0.1393423353981803,0.9892491303762158,0.02902643591151532,0.1167645957549505,0.08312432403549852
2821.4166666749807,0.00077224115,-0.96049595,-0.05613848,-2.1873248,0.12414177,1.4665102,0.83535516,0.04,0.04,0.013049832086942104,0.0017156178909891184,-0.04963622759293074,0.023560046542502988,-0.21422875231712488,0.13985939205673475,0.9889364855224073,0.029228370167174066,0.11846529690924021,0.08435818518772006
2821.4333333416475,0.0007811718,-0.9630634,-0.056956913,-2.1848621,0.12594897,1.4649888,0.8360741,0.04,0.04,0.011768819855051404,0.0017946682732666863,-0.049177929312405055,0.02293680217450833,-0.21506068097358416,0.1403569717068734,0.9886182040275259,0.029424698206259894,0.1201724043857608,0.08559688677168768
2821.4500000083144,0.00079014513,-0.96564144,-0.05777872,-2.1823893,0.12776357,1.4634606,0.8367961,0.04,0.04,0.010644826883154934,0.0018113393924643062,-0.049873925828025634,0.022303107534127585,-0.21586633715297096,0.14083050941330075,0.9882943321248588,0.029615342161557732,0.1218852772745251,0.08684021984221911
2821.4666666749813,0.0007991602,-0.96823,-0.058603786,-2.1799061,0.12958547,1.4619267,0.837521,0.04,0.04,0.010904402456990425,0.0018691406617102335,-0.04940512497728644,0.021658647973420916,-0.21665318412105142,0.1412847483738534,0.9879647551180157,0.029800195527987437,0.12360454841021314,0.08808806163947559
2821.483333341648,0.0008082158,-0.9708285,-0.059432026,-2.1774142,0.13141434,1.4603865,0.8382488,0.04,0.04,0.007154396808184416,0.0018834703951725595,-0.04937447206787571,0.021004423344072508,-0.21741055695622838,0.1417136063241468,0.9876296225105049,0.029979199634931362,0.12532881524161293,0.08934016117704353
2821.500000008315,0.00081731135,-0.9734368,-0.06026334,-2.1749122,0.13325,1.4588411,0.8389791,0.04,0.04,0.009241796455317086,0.002075553297481436,-0.04912663568086284,0.020340728188429812,-0.21814966731383187,0.14212061745907437,0.9872887716114241,0.0301521437299921,0.12705916303489914,0.09059635073976181
2821.516666674982,0.00082644477,-0.97605425,-0.061097626,-2.1724012,0.13509224,1.4572893,0.8397124,0.04,0.04,0.0061356782634636176,0.0019729242545049597,-0.049345259012301135,0.019667211226015224,-0.21885853357954496,0.14250753248055767,0.9869423425274608,0.03031913507720661,0.12879423040544244,0.09185645752394464
2821.533333341649,0.0008356158,-0.9786809,-0.061934784,-2.1698813,0.13694091,1.4557328,0.8404478,0.04,0.04,0.0061197577565508254,0.0020898263572030618,-0.0486406988689736,0.01898401800464211,-0.21954799273483744,0.14287138424557044,0.9865902344446521,0.030479782994786556,0.13053468061655732,0.09312029469117032
2821.5500000083157,0.0008448234,-0.9813163,-0.062774725,-2.1673534,0.13879563,1.4541713,0.8411854,0.04,0.04,0.004026470902696033,0.0022051105377424163,-0.04855043984182128,0.018294639795606076,-0.220208002653078,0.1432088581808843,0.9862325192376996,0.030634097216328798,0.13227981618535198,0.09438760679120112
2821.5666666749826,0.0008540665,-0.9839603,-0.06361735,-2.1648178,0.14065628,1.4526044,0.8419262,0.04,0.04,0.002468335012384415,0.002117399039740231,-0.04873304660183431,0.01759770416108137,-0.22084443176989063,0.14352613421164148,0.9858692303781154,0.030782506168163415,0.13402904021772782,0.09565832052667606
2821.5833333416494,0.00086334394,-0.98661244,-0.06446254,-2.162274,0.14252259,1.4510328,0.8426691,0.04,0.04,0.0032979735510529906,0.0023009199217313703,-0.04844346858317028,0.016889514977250466,-0.22146168809723665,0.14381906524385618,0.985500302455187,0.03092441373220495,0.1357828892577464,0.09693214885100229
2821.6000000083163,0.00087265426,-0.9892723,-0.06531018,-2.1597228,0.14439438,1.4494566,0.8434142,0.04,0.04,0.0005790423049045756,0.002209427563754085,-0.0477777376801658,0.016174573210632755,-0.2220497036595747,0.14409000972260308,0.9851258172346063,0.03105984089968145,0.13754060543675817,0.09820892198382773
2821.616666674983,0.00088199665,-0.9919399,-0.06616021,-2.157164,0.14627141,1.447876,0.8441613,0.04,0.04,0.0010970309073154993,0.002404819922222079,-0.04810652447435615,0.015453057687896697,-0.22261483543475113,0.14433686325785752,0.9847457171455716,0.031188682841191803,0.13930250215479875,0.09948844917626358
2821.63333334165,0.00089136936,-0.99461454,-0.06701252,-2.1545985,0.1481535,1.4462913,0.84491026,0.04,0.04,-0.0009113468427912608,0.0023689253452738313,-0.047219843911983084,0.014725057574606057,-0.22315089344264194,0.14456130006843057,0.9843600621590722,0.031310885166592854,0.14106803781091673,0.10077055723002429
2821.650000008317,0.00090077234,-0.9972963,-0.06786695,-2.1520264,0.1500403,1.4447025,0.8456611,0.04,0.04,-0.002110999088333898,0.0023965344561588386,-0.0474797699416829,0.013991240821656977,-0.22366178472199952,0.144760632833988,0.9839688898544238,0.03142637078546621,0.1428369338098533,0.10205497223411987
2821.666666674984,0.0009102041,-0.99998444,-0.06872345,-2.1494489,0.15193166,1.4431098,0.84641385,0.04,0.04,-0.004501596660233531,0.00238449454576517,-0.0466151608784382,0.013252245830694554,-0.2241474015562701,0.14493805626963185,0.9835722833593582,0.03153519398694302,0.14460849424671485,0.10334156152856476
2821.6833333416507,0.00091966346,-1.0026789,-0.06958192,-2.1468654,0.15382738,1.4415134,0.8471685,0.04,0.04,-0.004050494343132982,0.002499098955976997,-0.04648534667305304,0.01250753295542512,-0.22461322375446424,0.14509276785873743,0.9831701884892121,0.03163732409372971,0.14638302666460656,0.1046301567177681
2821.7000000083176,0.00092914933,-1.0053791,-0.07044223,-2.144276,0.15572722,1.4399135,0.8479242,0.04,0.04,-0.004837070208374428,0.0025250987637212563,-0.04614323758079797,0.011757495536161622,-0.22505280496776148,0.14522152845009215,0.9827626531492479,0.031732298276847905,0.14816032763046805,0.10592047081443956
2821.7166666749845,0.00093866035,-1.0080849,-0.07130425,-2.1416807,0.15763089,1.4383103,0.8486812,0.04,0.04,-0.005640444304821912,0.0025724438361088287,-0.04591116400743944,0.011005435318425991,-0.22546487984160332,0.14532898877341055,0.9823496860661897,0.03182027891466925,0.14994027531310325,0.10721230327943736
2821.7333333416514,0.00094819505,-1.0107961,-0.072167926,-2.1390815,0.15953822,1.4367042,0.8494399,0.04,0.04,-0.008696699971766364,0.0025429318924574673,-0.04508739687523189,0.010250113836035898,-0.22584985694994492,0.14541338237488388,0.9819313803135409,0.031901467871513635,0.15172213233656678,0.10850555406260262
2821.7500000083182,0.000957753,-1.0135118,-0.073033124,-2.136477,0.16144893,1.4350954,0.8502005,0.04,0.04,-0.007685683985236835,0.0027160613448443116,-0.044438624560361184,0.009490242417755722,-0.226212395431936,0.14547370649725322,0.9815076967240283,0.03197594369915083,0.15350616979254367,0.10979998238462739
2821.766666674985,0.00096733286,-1.0162324,-0.07389978,-2.1338677,0.1633628,1.4334837,0.8509618,0.04,0.04,-0.008709033196607763,0.0027205337218755288,-0.04506035162838984,0.008724064831298926,-0.22654734172389152,0.14551055416329078,0.9810786887188598,0.032043135895765316,0.1552921971348477,0.11109535315520393
2821.783333341652,0.0009769326,-1.018957,-0.07476777,-2.1312551,0.1652796,1.4318697,0.8517243,0.04,0.04,-0.011732787775331488,0.002671179347588093,-0.04339786250112665,0.007957381418947754,-0.2268533058663031,0.14552617585705235,0.9806444745945372,0.032103339213784,0.15707941384970514,0.11239149346441651
2821.800000008319,0.0009865523,-1.0216858,-0.07563694,-2.1286387,0.16719909,1.4302534,0.8524882,0.04,0.04,-0.01126157707647124,0.0026868005994926114,-0.04381694994637364,0.007188750115665617,-0.2271376898646898,0.1455158091360923,0.9802050260993719,0.03215657996886816,0.1588680311506144,0.11368821334053492
2821.8166666749858,0.00099619,-1.0244182,-0.07650722,-2.1260185,0.16912103,1.4286348,0.85325277,0.04,0.04,-0.012041678633023523,0.002796996479488556,-0.043143489951102953,0.00641707502704866,-0.22739363394219542,0.14548116088503193,0.9797604012893193,0.032202541493261586,0.16065784376835482,0.11498525828326665
2821.8333333416526,0.0010058443,-1.0271537,-0.077378504,-2.123396,0.17104521,1.4270146,0.8540184,0.04,0.04,-0.014715283391808498,0.0027375161820511473,-0.041797676449761845,0.005645241722343146,-0.22762322483353045,0.1454235629854347,0.9793106950051398,0.032241512365149654,0.162448227310927,0.1162825050147077
2821.8500000083195,0.0010155148,-1.0298924,-0.078250684,-2.12077,0.1729714,1.4253927,0.8547848,0.04,0.04,-0.013463909379796135,0.0028611529884939313,-0.04233390997684383,0.004871617902352913,-0.22782890001339384,0.1453421596405029,0.9788558520849127,0.032273294922824075,0.16423965706522423,0.11757971900392314
2821.8666666749864,0.0010251998,-1.0326334,-0.07912366,-2.118142,0.17489928,1.4237692,0.85555166,0.04,0.04,-0.01651456839319998,0.0028431131702796875,-0.0408872578441577,0.004097676535974849,-0.2280038639871136,0.14523700201855583,0.978396069982178,0.03229783767706341,0.1660310862761946,0.11887665168047845
2821.8833333416533,0.001034898,-1.0353769,-0.07999732,-2.115512,0.17682873,1.4221445,0.85631955,0.04,0.04,-0.016753946257930252,0.002814821728365502,-0.0408078915770993,0.0033238718417605423,-0.22815607383081915,0.14511026681451494,0.9779313130218438,0.03231539846871528,0.16782270417342185,0.1201732166379044
2821.90000000832,0.0010446084,-1.0381224,-0.08087156,-2.1128798,0.17875944,1.4205188,0.8570879,0.04,0.04,-0.017013449688274562,0.002922737826061006,-0.04025453084756103,0.002548924175957909,-0.22828073284036676,0.1449584804915134,0.9774616228028228,0.03232574820708976,0.1696144751335445,0.12146913919056243
2821.916666674987,0.0010543296,-1.0408694,-0.081746265,-2.1102462,0.18069118,1.4188919,0.8578565,0.04,0.04,-0.018954125832060242,0.0028886604014663475,-0.03929668861972768,0.0017744552747351733,-0.22837731841860653,0.1447849104085978,0.9769871350122278,0.032328829975925816,0.1714057609830989,0.12276420437078356
2821.933333341654,0.0010640606,-1.0436174,-0.08262133,-2.1076117,0.18262376,1.4172646,0.8586253,0.04,0.04,-0.019971740351909517,0.00288938189524357,-0.038317572390234034,0.0010020457311824896,-0.22844948877604138,0.14458753749784034,0.9765078908248053,0.03232467974039157,0.17319643820873998,0.12405824449982103
2821.950000008321,0.0010738004,-1.0463661,-0.08349664,-2.1049764,0.18455689,1.4156367,0.8593944,0.04,0.04,-0.020999007083588594,0.0029104078295622005,-0.03781940685311236,0.00023159717118122203,-0.22849556822415434,0.14436880446336087,0.9760239797614321,0.03231339278922685,0.17498614155023645,0.12535105042425942
2821.9666666749877,0.0010835474,-1.0491158,-0.08437208,-2.1023407,0.18649037,1.4140084,0.8601637,0.04,0.04,-0.021345018143392736,0.002897946871746604,-0.03781068279673505,-0.0005372628129365273,-0.22851669202396618,0.14412665257394885,0.9755354069217137,0.03229494802505337,0.1767749817658419,0.12664245731914628
2821.9833333416545,0.0010933001,-1.0518658,-0.08524757,-2.0997047,0.18842392,1.4123801,0.86093307,0.04,0.04,-0.022285469792748813,0.003006805375907473,-0.03671971759565684,-0.001303840078761137,-0.22851008741184609,0.1438612432619425,0.9750422465737154,0.03226935304568351,0.178562729938881,0.12793223881129126
2822.0000000083214,0.0011030571,-1.0546157,-0.08612297,-2.0970688,0.1903573,1.4107519,0.8617024,0.04,0.04,-0.023238066930320045,0.002969858633442013,-0.03589373352731462,-0.002068322033712107,-0.22847646947807237,0.14357393618454103,0.9745445850202643,0.03223660105682055,0.1803490947154388,0.12922018958083198
2822.0166666749883,0.0011128176,-1.0573651,-0.086998194,-2.0944333,0.19229032,1.4091241,0.86247146,0.04,0.04,-0.024484473951913444,0.00296995076508183,-0.03488514225421513,-0.0028299248692311013,-0.22841423314437947,0.14326542798989134,0.9740425171684525,0.032196685705704234,0.1821337311489324,0.13050613838238145
2822.033333341655,0.0011225804,-1.0601138,-0.08787314,-2.0917988,0.1942227,1.4074967,0.86324024,0.04,0.04,-0.02550624996731088,0.0029698833428265514,-0.034566478343756035,-0.003587283438980453,-0.2283267712589237,0.14293347551389163,0.9735361250036717,0.03214962366983613,0.18391640416267152,0.13178987552386656
2822.050000008322,0.0011323444,-1.0628612,-0.088747695,-2.0891654,0.19615424,1.40587,0.8640088,0.04,0.04,-0.026462605994881372,0.0029828984993665597,-0.033247626045584955,-0.004340408875144593,-0.2282125964769392,0.1425805405866354,0.9730254961650292,0.03209554258231417,0.1856968136129817,0.13307123420608588
2822.066666674989,0.0011421082,-1.0656072,-0.08962176,-2.086533,0.19808465,1.4042442,0.86477715,0.04,0.04,-0.026280250459809196,0.0030798003982965283,-0.032905684791073586,-0.005089991500919627,-0.22807350315603714,0.14220549684212697,0.9725106362859277,0.0320345225015206,0.18747512619881757,0.13435002320646286
2822.083333341656,0.0011518705,-1.0683513,-0.0904952,-2.0839028,0.20001374,1.4026197,0.8655449,0.04,0.04,-0.028542491580640927,0.0029471348591172952,-0.031450646205155586,-0.005835988597610489,-0.22790461301949239,0.1418087755476203,0.9719917111285723,0.03196647290334596,0.18925072251561637,0.13562603782012794
2822.1000000083227,0.0011616299,-1.0710931,-0.09136793,-2.0812747,0.20194128,1.4009967,0.8663118,0.04,0.04,-0.02894572157723374,0.003000609803040233,-0.030747771154193693,-0.006576838553250634,-0.227711935770044,0.14139123426279682,0.9714687879886217,0.03189132330947658,0.1910235044462821,0.13689908038606413
2822.1166666749896,0.001171385,-1.0738328,-0.09223986,-2.078649,0.20386702,1.3993748,0.86707824,0.04,0.04,-0.02958033974005403,0.0029909074030193272,-0.030727502258931505,-0.007311283584118512,-0.2274911543301701,0.14095256413747037,0.9709419387045785,0.031809336823774244,0.19279326284380066,0.1381690108434867
2822.1333333416565,0.0011811351,-1.0765696,-0.093110844,-2.0760264,0.2057907,1.3977553,0.8678436,0.04,0.04,-0.030815139984907702,0.0030136694297078215,-0.028697832380164545,-0.008040742239103532,-0.22724566446824018,0.140492852466225,0.9704112496229959,0.03172037073691339,0.19455986360068897,0.13943559144325238
2822.1500000083233,0.0011908786,-1.079303,-0.09398077,-2.0734065,0.20771207,1.396137,0.86860824,0.04,0.04,-0.03114091572409272,0.002956973215709202,-0.028619589078826557,-0.008763090933845516,-0.22697138544502954,0.1400116120808826,0.9698768649996846,0.03162457176646361,0.19632282452505687,0.14069862035384387
2822.16666667499,0.0012006146,-1.0820332,-0.09484956,-2.0707898,0.20963092,1.3945212,0.8693718,0.04,0.04,-0.03175040900034176,0.0030548716725128933,-0.02738804727449029,-0.009479360378923628,-0.2266721664902665,0.13951090607842928,0.9693387798493689,0.031521949574137426,0.1980823941386742,0.14195795753487397
2822.183333341657,0.0012103409,-1.0847592,-0.0957171,-2.0681772,0.21154703,1.3929075,0.8701344,0.04,0.04,-0.03380911579058399,0.0029142062740836194,-0.02616116235243382,-0.010188566121372894,-0.22634423592681532,0.1389899180115435,0.9687972316077823,0.031412685291097975,0.19983763215607625,0.1432134351454226
2822.200000008324,0.0012200577,-1.0874813,-0.09658329,-2.0655687,0.21346022,1.3912961,0.8708955,0.04,0.04,-0.03374182419788596,0.0029080022467042888,-0.025688983478633354,-0.010890726242998798,-0.22599474169168782,0.1384485483717723,0.9682522439057737,0.03129652564487034,0.20158875891350425,0.14446484670572066
2822.216666674991,0.001229763,-1.0901991,-0.09744803,-2.0629644,0.21537012,1.3896878,0.87165594,0.04,0.04,-0.03402371295182505,0.003072195941594691,-0.02480548203922517,-0.011583577243148936,-0.22561736961631604,0.13788739355471313,0.9677038357807376,0.03117404547416155,0.2033358272161647,0.14571206701690928
2822.2333333416577,0.0012394547,-1.0929121,-0.098311186,-2.0603645,0.21727659,1.3880826,0.8724146,0.04,0.04,-0.03449319425326003,0.002997173617429183,-0.023477056853871137,-0.01227221605889129,-0.22521224981819016,0.13730705556928907,0.967152121416757,0.031044799410732203,0.2050786882678364,0.1469548437002244
2822.2500000083246,0.0012491323,-1.0956199,-0.09917266,-2.0577695,0.2191794,1.3864797,0.87317157,0.04,0.04,-0.0364399742404764,0.0028038501425381446,-0.023038609493453155,-0.012951173949276105,-0.22477788219323877,0.13670816892833193,0.9665973545599283,0.030908888397303966,0.206816411193389,0.14819300535746652
2822.2666666749915,0.0012587949,-1.098322,-0.10003235,-2.0551803,0.2210783,1.3848802,0.873927,0.04,0.04,-0.0374360813161001,0.002882373176825437,-0.020990520076591412,-0.01361916179213312,-0.22432064823505413,0.13609037109061467,0.9660396119351017,0.030766584615623267,0.20854887282986112,0.14942641361139053
2822.2833333416584,0.0012684413,-1.1010187,-0.100890175,-2.052596,0.22297305,1.3832843,0.8746816,0.04,0.04,-0.036059364092277946,0.0030335282569030064,-0.021137352166278323,-0.014278363105158481,-0.2238395161490298,0.13545397929799646,0.9654788045824999,0.030618288748325954,0.21027666042849122,0.15065498456776028
2822.3000000083252,0.0012780695,-1.1037089,-0.10174602,-2.050018,0.22486347,1.381692,0.87543434,0.04,0.04,-0.038671856087812984,0.0028295978106857023,-0.01901155580523728,-0.014931913694275448,-0.22332829311624425,0.13479765089187812,0.9649152398274676,0.030463676942246908,0.211998753639999,0.1518784803418384
2822.316666674992,0.0012876788,-1.1063926,-0.102599755,-2.0474465,0.2267492,1.3801038,0.8761852,0.04,0.04,-0.03885292283301034,0.0029066254075615916,-0.018256326807097878,-0.01557532086675504,-0.2227934935920401,0.1341232389365597,0.964348965006723,0.03030285236544388,0.21371527753040073,0.15309667200525373
2822.333333341659,0.0012972681,-1.1090698,-0.10345134,-2.0448816,0.22863011,1.3785199,0.876934,0.04,0.04,-0.03918768072281864,0.0029274688887026556,-0.017484042942239597,-0.01620955457444854,-0.22223381750312088,0.13343338775551672,0.9637800436759861,0.03013586976486826,0.2154261884634216,0.15430947504787781
2822.350000008326,0.0013068357,-1.1117399,-0.1043006,-2.0423238,0.23050596,1.3769405,0.87768084,0.04,0.04,-0.040213712498360366,0.002801383553455161,-0.015934193439404165,-0.016832001918563565,-0.2216456656049435,0.13272236190214876,0.9632086338575718,0.029962898965362618,0.21713108248493776,0.15551670446206295
2822.3666666749928,0.0013163808,-1.1144027,-0.10514747,-2.0397732,0.2323765,1.3753651,0.8784258,0.04,0.04,-0.040609846843686626,0.0027983587232813245,-0.01563942425184539,-0.017446101882814445,-0.22103333197014,0.13199812183531245,0.9626348673095155,0.029784041282719803,0.21882967631579336,0.15671820535083222
2822.3833333416596,0.0013259021,-1.1170574,-0.10599183,-2.0372298,0.23424159,1.3737943,0.87916756,0.04,0.04,-0.040790243586430464,0.002762135076948835,-0.014043783301176394,-0.01804904516991708,-0.22039441344392072,0.1312545231820005,0.962058850023213,0.02959884556002883,0.22052196008259356,0.15791371870378307
2822.4000000083265,0.0013353977,-1.119704,-0.10683361,-2.0346944,0.23610096,1.3722285,0.87990713,0.04,0.04,-0.042113844145985624,0.002769440419916891,-0.01252442610302218,-0.018636914963846868,-0.21972979758631206,0.13049641582947458,0.9614807103545414,0.029407963185875855,0.2222075199264043,0.15910321620112294
2822.4166666749934,0.0013448676,-1.1223423,-0.10767266,-2.0321667,0.23795432,1.370668,0.8806446,0.04,0.04,-0.041188056529417594,0.0028551065746992843,-0.012185334136216586,-0.019214128782649678,-0.2190426177471989,0.12972226010097465,0.960900428606232,0.029211549292185522,0.2238867588931418,0.16028652745827943
2822.4333333416603,0.0013543094,-1.1249719,-0.108508915,-2.029647,0.23980151,1.369112,0.88137996,0.04,0.04,-0.042828273994865995,0.00265387903568004,-0.011196789513356897,-0.019781848037727638,-0.21832475045759878,0.1289317228747362,0.9603183027791302,0.02900966008235011,0.22555871493350688,0.1614635038851262
2822.450000008327,0.0013637221,-1.1275924,-0.109342255,-2.027136,0.24164231,1.3675619,0.8821122,0.04,0.04,-0.04265520587862781,0.0027558084301174124,-0.009511905645032126,-0.020338794631925977,-0.21758430355040898,0.12812594446330508,0.9597343002375897,0.02880206317954578,0.227223929440373,0.16263394477704213
2822.466666674994,0.0013731052,-1.1302037,-0.110172585,-2.0246344,0.24347647,1.3660173,0.88284194,0.04,0.04,-0.04419809394553553,0.0026252311650792892,-0.008408202244858387,-0.020882070420557293,-0.2168146344777326,0.12730595093992725,0.9591486637459677,0.028589172160211635,0.2288816184136114,0.1637977558511845
2822.483333341661,0.0013824571,-1.1328056,-0.11099982,-2.0221422,0.24530376,1.3644785,0.88356954,0.04,0.04,-0.044423040721541796,0.0026272356278875253,-0.007521784283226474,-0.021413174520801374,-0.2160212540975226,0.1264696889505041,0.9585614720934676,0.02837129520366612,0.23053170550515428,0.16495486226042375
2822.500000008328,0.0013917764,-1.1353974,-0.11182385,-2.0196595,0.24712403,1.3629457,0.8842937,0.039999995,0.04,-0.04448546871351766,0.0025937576917392513,-0.006064366246272268,-0.021933978754254305,-0.21520344808314307,0.12561780484992507,0.9579728428189319,0.02814796310111441,0.2321741953503875,0.16610498971455445
2822.5166666749947,0.0014010625,-1.1379789,-0.11264458,-2.0171869,0.24893701,1.3614188,0.8850155,0.039999995,0.04,-0.04540419697218745,0.0025535460535824894,-0.004870241302845635,-0.022439683228238548,-0.21436049586574285,0.124752956736943,0.9573829472653583,0.027919873169747905,0.233808548661237,0.16724812567143257
2822.5333333416615,0.0014103142,-1.1405498,-0.113461904,-2.0147243,0.25074247,1.359898,0.88573384,0.039999995,0.04,-0.04545672731706141,0.0025190736429314686,-0.004060209250211777,-0.022935036623095748,-0.21349505279220946,0.12387371712578765,0.9567919102659879,0.027686605177723967,0.23543475948472137,0.1683839848966226
2822.5500000083284,0.0014195297,-1.1431098,-0.11427574,-2.012272,0.25254026,1.3583844,0.8864492,0.04,0.04,-0.045017007133196785,0.002608164119127787,-0.0024390563461929027,-0.023414922810344817,-0.2126055085898391,0.12298123820707364,0.956199685831033,0.027448606420706904,0.23705319794906915,0.16951258408836303
2822.5666666749953,0.0014287079,-1.1456589,-0.115086004,-2.0098307,0.2543301,1.3568769,0.88716155,0.039999995,0.04,-0.047126406203013005,0.0024045090174076855,-0.0017808617185921527,-0.023883332060896087,-0.21168615499919693,0.12207553632393159,0.9556066315826035,0.027205941245922405,0.23866279734513812,0.17063373523329853
2822.583333341662,0.0014378481,-1.1481963,-0.11589258,-2.0074003,0.25611177,1.3553758,0.8878705,0.039999984,0.04,-0.046414703945885094,0.002448033143673256,-0.0005737910935388335,-0.02433799283759052,-0.21074754134298265,0.12115712798647761,0.9550128052975045,0.02695859683703465,0.24026372011383337,0.17174725782798006
2822.600000008329,0.001446949,-1.1507218,-0.11669536,-2.0049813,0.2578852,1.3538822,0.8885762,0.03999998,0.04,-0.04689143002729601,0.0023559168487563564,0.0015842861676551578,-0.024777644230638773,-0.20978412609621722,0.12022602603939242,0.9544182810925426,0.02670688520790432,0.24185590202305496,0.17285314476590483
2822.616666674996,0.0014560098,-1.1532353,-0.11749426,-2.0025737,0.25965002,1.3523962,0.8892785,0.039999973,0.04,-0.0466187308708399,0.0024684707226024782,0.001998597876196051,-0.025204584895546084,-0.2087960951487614,0.11928227869013543,0.9538231185317877,0.02645083700104376,0.2434394957478675,0.17395121064903063
2822.633333341663,0.0014650291,-1.1557364,-0.1182892,-2.0001786,0.26140612,1.3509179,0.8899775,0.03999997,0.04,-0.048084364943346,0.002286336065046579,0.0038026511142930097,-0.02561874213005636,-0.20778190686298076,0.11832750321945915,0.9532275611592058,0.026190748498660946,0.2450138077084621,0.17504141044836558
2822.6500000083297,0.0014740065,-1.158225,-0.119080104,-1.9977953,0.26315314,1.3494474,0.8906729,0.039999966,0.04,-0.0472345908626437,0.0024790926083484432,0.004252199728926875,-0.02602001483339675,-0.2067461977777949,0.11736043615575603,0.9526316474675328,0.02592657654176813,0.2465791249373277,0.17612351352746672
2822.6666666749966,0.0014829389,-1.1607007,-0.11986687,-1.9954243,0.264891,1.3479842,0.8913647,0.03999997,0.04,-0.04783731917430423,0.0022613092631157405,0.005412727303766296,-0.026408272100922607,-0.20568318495547663,0.11638347152665704,0.9520355838744807,0.025658428679602396,0.24813495084562157,0.17719745552154814
2822.6833333416635,0.0014918266,-1.163163,-0.12064935,-1.9930662,0.26661962,1.3465286,0.89205265,0.03999996,0.04,-0.04885088688606487,0.0019857700386038957,0.007120393794279867,-0.026782271144630276,-0.20459713196518547,0.11539602639455146,0.9514395666108767,0.025386376655847698,0.24968085682484956,0.1782631557636169
2822.7000000083303,0.0015006684,-1.1656115,-0.12142751,-1.9907211,0.2683386,1.3450809,0.8927368,0.039999958,0.04,-0.0487929796586517,0.002216427832169021,0.008251416789240018,-0.027140847339655792,-0.2034902502618131,0.11439787163476065,0.9508437198562367,0.02511064761284012,0.25121675402333954,0.17932043465370834
2822.716666674997,0.0015094636,-1.1680468,-0.122201286,-1.9883894,0.2700479,1.3436409,0.8934171,0.039999954,0.04,-0.048708817082543376,0.0020432735351183506,0.008397721685138304,-0.027484663992984236,-0.20236397275582174,0.11339047374102056,0.9502480796761946,0.024831302102585596,0.25274277001899836,0.18036930368196916
2822.733333341664,0.00151821,-1.1704676,-0.122970514,-1.986071,0.27174723,1.3422092,0.89409345,0.039999947,0.04,-0.04895077481279486,0.002055774723128123,0.010996940854735016,-0.02781441151958789,-0.20121306890353202,0.11237365104874487,0.9496528653147452,0.024548532126045505,0.25425848833003445,0.18140955344765244
2822.750000008331,0.0015269077,-1.172874,-0.12373516,-1.9837664,0.27343643,1.3407863,0.89476573,0.039999943,0.04,-0.048922146623375795,0.002085963465009444,0.011993502263529798,-0.02812915353970108,-0.20004271634844867,0.11134824797302012,0.9490581172722852,0.0242624907535544,0.2557640443744925,0.1824411554096874
2822.766666674998,0.0015355552,-1.1752659,-0.12449515,-1.9814761,0.27511522,1.3393722,0.89543396,0.03999994,0.04,-0.049258880865865606,0.0020699241793098455,0.012746202461699774,-0.028429865825903664,-0.19884921447343748,0.11031373837765196,0.9484639849174876,0.023973329411395742,0.2572592319787256,0.18346399197959457
2822.7833333416647,0.0015441516,-1.1776432,-0.12525035,-1.9792,0.27678362,1.3379666,0.89609784,0.039999932,0.04,-0.04930404789158516,0.0018025228114865177,0.013644937767676169,-0.02871639414876103,-0.1976331223073038,0.1092704853318632,0.9478706085699067,0.023680989464869524,0.25874386873607214,0.18447799472774432
2822.8000000083316,0.0015526947,-1.1800052,-0.1260007,-1.9769388,0.27844122,1.3365704,0.89675754,0.039999936,0.04,-0.04966531561212406,0.0019700632974212207,0.015910207566816048,-0.02898643360618694,-0.19639422402660991,0.10821773277265792,0.9472781209445514,0.023385877130339926,0.2602177888344122,0.18548305772963075
2822.8166666749985,0.001561185,-1.1823517,-0.12674613,-1.9746923,0.28008795,1.3351833,0.8974131,0.039999925,0.04,-0.04934782130767701,0.0018848502002427603,0.016457566560945658,-0.02924459596545683,-0.19513591540983072,0.10716121402031696,0.9466866490847391,0.02308808511279238,0.2616808460893866,0.18647912365858935
2822.8333333416654,0.0015696209,-1.1846827,-0.12748657,-1.972461,0.28172362,1.3338052,0.898064,0.039999917,0.04,-0.049709247344775775,0.0017994251558794971,0.017361728913733998,-0.029486536389108958,-0.1938549791041655,0.10609298483422705,0.9460963427443846,0.02278756350078909,0.2631328729292904,0.18746607260881987
2822.8500000083322,0.0015780015,-1.1869974,-0.12822188,-1.9702446,0.2833481,1.3324368,0.89871037,0.039999917,0.04,-0.049219567685554466,0.0017350770283280914,0.01931683713225496,-0.029714332340487988,-0.19255414780283558,0.10502026283000532,0.9455072981555539,0.02248452685357404,0.26457383385242905,0.1884438421052347
2822.866666674999,0.0015863264,-1.1892964,-0.12895201,-1.9680437,0.2849611,1.3310783,0.8993524,0.039999913,0.04,-0.04899579248958119,0.0018326868560236687,0.0193979193400029,-0.029926771979002564,-0.1912313998242262,0.10394034648766003,0.944919539403297,0.02217923629763888,0.2660039550153755,0.189412358222194
2822.883333341666,0.0015945929,-1.1915786,-0.12967688,-1.9658588,0.28656247,1.3297292,0.8999898,0.039999906,0.04,-0.05038576837197439,0.0016027824053466144,0.021653206295191296,-0.03012668217143482,-0.1898842250978774,0.10285503944949514,0.9443334365935798,0.021871777701676955,0.26742226294780924,0.19037152925634873
2822.900000008333,0.0016028021,-1.193844,-0.13039647,-1.9636897,0.28815213,1.3283901,0.90062237,0.0399999,0.04,-0.049236017244469465,0.0017300422766375334,0.022563927336421985,-0.030310644429036897,-0.18852191034231086,0.10176227813543615,0.9437489666957873,0.021562217018043426,0.26882914423996235,0.1913213262161595
2822.9166666749998,0.0016109523,-1.1960931,-0.13111062,-1.9615371,0.28972983,1.327061,0.9012503,0.039999895,0.04,-0.0497321257747263,0.0015047444615834404,0.022711289971966142,-0.030480090056555248,-0.18713764391164606,0.10066437539386165,0.9431662378738166,0.02125072577374197,0.2702245423371296,0.19226167352784992
2822.9333333416666,0.0016190415,-1.1983247,-0.13181928,-1.9594005,0.29129538,1.3257421,0.90187347,0.039999895,0.04,-0.0490603204353679,0.001618105258507918,0.02479995684847025,-0.03063463983929063,-0.18573131298552598,0.09956065100728768,0.9425854195638261,0.020937499489999897,0.27160821795587525,0.1931924529572151
2822.9500000083335,0.00162707,-1.2005394,-0.1325224,-1.957281,0.29284868,1.3244336,0.90249175,0.039999887,0.04,-0.049722735977386634,0.001485720806482238,0.02540299160574966,-0.030776243741079203,-0.1843058484100361,0.09845309753025461,0.9420066129578551,0.020622612239092095,0.2729800853531802,0.19411368320825842
2822.9666666750004,0.0016350367,-1.2027358,-0.13321987,-1.9551786,0.29438958,1.3231356,0.903105,0.039999887,0.04,-0.04990372184048297,0.001360903263181168,0.028100219197324527,-0.030903249492955996,-0.18286054365302915,0.0973415178590244,0.9414300686165648,0.020306265335676227,0.2743396167284035,0.19502527063444883
2822.9833333416673,0.0016429411,-1.2049145,-0.13391162,-1.9530932,0.2959179,1.3218483,0.90371346,0.03999988,0.04,-0.04897904443783574,0.0014142759162283358,0.02776798368702149,-0.031015000344037213,-0.181398800121381,0.09622445906724647,0.9408557714972596,0.019988626710399925,0.27568716009387245,0.19592718494865397
2823.000000008334,0.0016507818,-1.2070752,-0.13459761,-1.951025,0.29743347,1.3205715,0.9043167,0.039999876,0.04,-0.04912294489178848,0.001363917217317434,0.02877837052621679,-0.031112912451573077,-0.1799176102304772,0.09510234881930768,0.9402838734488873,0.0196696920678999,0.2770225493838659,0.1968193275031053
2823.016666675001,0.0016585574,-1.2092177,-0.13527775,-1.9489747,0.2989363,1.3193055,0.9049148,0.039999865,0.04,-0.04959470431131763,0.0010951786608343062,0.03053976166346173,-0.031197037818510624,-0.17841651693909064,0.09397890038281605,0.9397145742496668,0.019349617715099632,0.27834535283972867,0.19770173441215422
2823.033333341668,0.0016662682,-1.2113415,-0.13595197,-1.9469419,0.30042583,1.3180506,0.90550756,0.039999865,0.04,-0.04850579694544166,0.0015174040561560798,0.031287798097606734,-0.03126498278072372,-0.1768993725441336,0.09284999971498414,0.9391479073621481,0.01902862428587691,0.2796559012341362,0.19857415859070868
2823.050000008335,0.0016739127,-1.2134465,-0.13662021,-1.9449271,0.3019021,1.3168069,0.9060952,0.039999865,0.04,-0.04900931712858991,0.0012568972413112833,0.032786558002739774,-0.031320202452300924,-0.1753633924964998,0.09172037409172334,0.9385840490926477,0.018706936372446886,0.2809538007798153,0.19943669458698776
2823.0666666750017,0.0016814903,-1.2155325,-0.13728243,-1.9429306,0.30336508,1.3155744,0.90667754,0.03999985,0.04,-0.04874435445918479,0.001127521659313735,0.033585737239627544,-0.031361857267995716,-0.17381080567808968,0.09058797247122792,0.938023103522493,0.018384581090313497,0.2822389803929783,0.20028934665352538
2823.0833333416685,0.001689,-1.2175994,-0.13793856,-1.9409524,0.30481464,1.3143535,0.90725446,0.039999846,0.04,-0.048330412270658485,0.001136240200277916,0.03474415597306546,-0.031389518411879876,-0.17223973108233234,0.08945216944797851,0.9374651528988743,0.018061693198137958,0.2835114772961564,0.2011320575653159
2823.1000000083354,0.0016964416,-1.2196467,-0.13858844,-1.938993,0.30625042,1.313144,0.9078259,0.039999846,0.04,-0.04862780991516935,0.0010400230567253477,0.036085204741148624,-0.03140281379470763,-0.17065250391562783,0.08831369039647793,0.9369104200983412,0.017738436991726347,0.28477093198937486,0.20196467230222015
2823.1166666750023,0.001703814,-1.2216747,-0.13923211,-1.9370521,0.3076725,1.311946,0.908392,0.039999846,0.04,-0.047794800372624735,0.0010319309383999276,0.03618671619923797,-0.03140389471193949,-0.16905006216329874,0.08717619769303268,0.9363588918554532,0.017414975692853808,0.2860175758269607,0.20278730380108606
2823.133333341669,0.0017111156,-1.2236825,-0.1398695,-1.9351306,0.30908063,1.3107598,0.9089525,0.03999984,0.04,-0.04854728764631666,0.0009687721133050387,0.03863551687797173,-0.031391805938378425,-0.16742925950543053,0.08603613972877891,0.9358108610505752,0.017091416976076423,0.2872507974491085,0.2035998407916429
2823.150000008336,0.0017183473,-1.2256709,-0.14050052,-1.9332283,0.31047478,1.3095855,0.9095074,0.03999984,0.04,-0.04747480986693198,0.0008842104560785602,0.03807197551249919,-0.031365168604415725,-0.1657971349453366,0.08489484041617736,0.9352662442069261,0.016767848939361278,0.28847111191750746,0.20440232209565065
2823.166666675003,0.0017255069,-1.2276388,-0.14112508,-1.931345,0.31185472,1.3084233,0.91005665,0.03999983,0.04,-0.04711425299137595,0.0009288597108719765,0.04023647402702224,-0.03132598749097756,-0.16414665401559048,0.08375360884537486,0.9347252336621812,0.016444482978610554,0.2896782259963861,0.20519464398062018
2823.18333334167,0.0017325947,-1.229587,-0.1417432,-1.929481,0.31322038,1.3072731,0.9106003,0.039999828,0.04,-0.04676205773361808,0.0008825890231906053,0.03980297844848879,-0.03127340184459651,-0.16248087503434405,0.08261008786287141,0.9341878444079951,0.016121394579842057,0.29087232575549876,0.20597684847266615
2823.2000000083367,0.0017396086,-1.2315145,-0.14235479,-1.9276366,0.31457153,1.3061348,0.9111382,0.039999828,0.04,-0.047090238939428986,0.0008331382694237721,0.04169735465878732,-0.03120802975762758,-0.16079743926587098,0.08146606607425486,0.933654358669201,0.01579872381833809,0.2920528447193687,0.20674882044413015
2823.2166666750036,0.0017465493,-1.2334211,-0.14295977,-1.9258122,0.31590822,1.3050086,0.91167015,0.03999982,0.04,-0.04702836067811411,0.0006163431067518488,0.04310131548688201,-0.03112979691905276,-0.15910093385136143,0.08032282400940276,0.9331248887542369,0.01547655589666621,0.29321964594032046,0.20751062006462123
2823.2333333416705,0.0017534164,-1.2353071,-0.14355816,-1.9240081,0.31723022,1.303895,0.9121964,0.03999982,0.04,-0.046559935642553896,0.0007715389041651477,0.04361899650803247,-0.031038377993058034,-0.15739240522916087,0.07918050245149155,0.9325994565189244,0.015155158400175133,0.2943729060214302,0.20826225552166347
2823.2500000083373,0.0017602089,-1.2371721,-0.14414985,-1.9222238,0.31853744,1.3027936,0.9127168,0.039999813,0.04,-0.04573138150525402,0.0006879834414913466,0.04414702365044265,-0.030935005910993664,-0.15567115321506403,0.07803825891991227,0.932078163079305,0.014834570230485167,0.29551261266120754,0.2090036583290647
2823.266666675004,0.0017669257,-1.2390159,-0.14473486,-1.92046,0.31982982,1.3017049,0.91323113,0.03999981,0.04,-0.045992754811852166,0.0006446583114327886,0.045763381803565206,-0.030819273185333125,-0.15393565103791415,0.07689643881062301,0.9315611557865281,0.014514886042925872,0.29663853255406447,0.20973486147276482
2823.283333341671,0.0017735667,-1.2408384,-0.14531305,-1.9187164,0.32110727,1.3006288,0.9137397,0.03999981,0.04,-0.045227119297663876,0.0005175779694333027,0.04622238390629141,-0.03069070050606714,-0.15218746942015293,0.07575568211910438,0.9310484957376137,0.014196335342748988,0.29775071727032143,0.21045586951323536
2823.300000008338,0.0017801314,-1.2426397,-0.14588445,-1.9169935,0.32236966,1.2995652,0.91424215,0.03999981,0.04,-0.04523935751250541,0.0005226743648889531,0.0467819960406235,-0.03055026209503036,-0.15042753536526587,0.07461549542193896,0.9305403056508502,0.013878909551602597,0.2988490574790658,0.2111666552104157
2823.316666675005,0.0017866188,-1.2444192,-0.14644894,-1.9152911,0.32361683,1.2985146,0.91473854,0.039999805,0.04,-0.04444361247064599,0.0005151569615641227,0.048096303357403336,-0.030398664329563833,-0.14865455498426355,0.0734778388384409,0.9300366482749652,0.01356280714009959,0.2999336353340631,0.21186716952666945
2823.3333333416717,0.0017930284,-1.246177,-0.1470065,-1.9136096,0.32484868,1.2974768,0.9152288,0.039999798,0.04,-0.04475107322470251,0.0004175744175688445,0.049065725664682036,-0.030235354584464684,-0.14686911890262405,0.07234190955840755,0.929537716950961,0.013248133101120526,0.301004092631704,0.21255741801662578
2823.3500000083386,0.0017993602,-1.2479129,-0.14755708,-1.9119489,0.32606524,1.296452,0.915713,0.039999794,0.04,-0.043672200561095664,0.000372852022806347,0.04944494893771578,-0.030060948212980297,-0.14507423746335518,0.07120885787345432,0.92904347854406,0.012935036441967201,0.302060719001626,0.21323747757657094
2823.3666666750055,0.0018056134,-1.2496268,-0.14810073,-1.9103094,0.32726634,1.2954403,0.9161911,0.039999794,0.04,-0.04395401105483643,0.000452599807906906,0.05065588119283482,-0.029874869770519966,-0.143267284694499,0.0700766896332668,0.9285541259145134,0.012623657810759458,0.3031031658905615,0.21390733820448926
2823.3833333416724,0.0018117876,-1.2513187,-0.14863732,-1.9086913,0.3284518,1.2944417,0.9166629,0.039999794,0.04,-0.04350601000417953,0.000316945186870643,0.05108574762673346,-0.02967914719616168,-0.14145041482640286,0.06894834163262864,0.928069723026191,0.012314014685166005,0.30413153176279367,0.2145669257645258
2823.4000000083392,0.0018178818,-1.2529886,-0.14916685,-1.9070939,0.32962176,1.2934564,0.9171285,0.039999787,0.04,-0.04208161379719577,0.0003320335299705768,0.05124512199858322,-0.029472151959887047,-0.13962442351382098,0.06782290032784716,0.9275902088395964,0.012006262300524607,0.3051461579809446,0.21521634789196104
2823.416666675006,0.0018238963,-1.254636,-0.14968927,-1.9055182,0.330776,1.2924838,0.91758806,0.039999783,0.04,-0.04340589363978076,0.00011709606352050539,0.05281209452266955,-0.029254731634009996,-0.13778445785987326,0.06669865119567049,0.927115970585189,0.011700579202022955,0.3061461186269386,0.21585557111615322
2823.433333341673,0.0018298305,-1.2562609,-0.15020455,-1.9039642,0.33191457,1.2915248,0.9180412,0.03999979,0.04,-0.04229063475293948,0.00015360787082308036,0.0539854789033789,-0.02902674632378777,-0.13594016297046327,0.06557857082626974,0.9266469449907062,0.011397008844379533,0.3071317983638432,0.21648465525894411
2823.45000000834,0.0018356841,-1.2578632,-0.15071267,-1.902432,0.33303723,1.290579,0.91848814,0.039999783,0.04,-0.042192515917882645,0.00017763521331370935,0.05421376666552291,-0.028789526865702696,-0.1340882483820091,0.0644630573771915,0.9261832673348595,0.01109571748646894,0.3081030484191699,0.21710355113908078
2823.4666666750068,0.0018414569,-1.2594429,-0.15121357,-1.9009209,0.33414397,1.2896466,0.9189288,0.039999772,0.04,-0.040621563608045363,0.00020802400682029543,0.05406058215834397,-0.02854105804883398,-0.13222933373560225,0.06334869747661527,0.925724849990025,0.010796766555607714,0.3090603406921381,0.21771228204708382
2823.4833333416736,0.0018471477,-1.2609996,-0.15170726,-1.8994317,0.3352348,1.2887279,0.91936284,0.039999772,0.04,-0.04122979090497303,7.342715732938654e-05,0.056191205869005056,-0.028284179124864355,-0.1303601105773872,0.06223948799063972,0.9252719435653886,0.010500192916391208,0.3100031224330588,0.21831088035460122
2823.5000000083405,0.0018527574,-1.2625335,-0.1521937,-1.8979641,0.33630955,1.2878224,0.9197907,0.03999977,0.04,-0.04043084125653351,7.659343129740037e-05,0.05538980048739872,-0.02801774825478521,-0.12848505469457266,0.06113486296164935,0.9248245480637646,0.010206204686775832,0.31093160060055747,0.2188993568572569
2823.5166666750074,0.0018582843,-1.264045,-0.15267286,-1.896519,0.3373683,1.2869303,0.92021203,0.039999764,0.04,-0.04075022255354277,-0.00010456372920020218,0.05643445448475504,-0.027742882675779623,-0.12660324625011085,0.06003455633287104,0.9243827790797733,0.009914775022349723,0.3118455999177696,0.21947778199384485
2823.5333333416743,0.0018637297,-1.2655334,-0.15314473,-1.8950965,0.33841097,1.2860521,0.9206271,0.03999977,0.04,-0.040585974962015214,-9.300053130101293e-05,0.05804773595901591,-0.02745808960221096,-0.1247165604652118,0.05893867922659489,0.923946762928672,0.009626218846163206,0.31274489433196834,0.22004623662685113
2823.550000008341,0.0018690926,-1.2669992,-0.15360928,-1.8936948,0.33943737,1.2851875,0.92103577,0.039999757,0.04,-0.03756342629066545,0.00020241979090396267,0.055805071349795954,-0.027164675121312674,-0.12282623238284099,0.05784611588512782,0.9235162313612274,0.009340410718088292,0.3136306006067204,0.2206045636496243
2823.566666675008,0.0018743714,-1.2684418,-0.15406647,-1.8923155,0.34044757,1.2843363,0.9214378,0.039999757,0.04,-0.03963031097447001,-0.00020553876760587286,0.058799453573321614,-0.02686408954452145,-0.12092385427743726,0.056759123051897065,0.9230916288480754,0.009057465767834972,0.3145015276765935,0.22115287959590435
2823.583333341675,0.0018795675,-1.2698611,-0.15451631,-1.8909588,0.34144157,1.2834988,0.92183363,0.039999757,0.04,-0.03905917560107497,-0.0002206878415761393,0.05920937196090548,-0.026555383378628616,-0.11901920406516804,0.055678584890374014,0.9226729863567876,0.008777669840027796,0.31535770768591675,0.22169129203175844
2823.600000008342,0.0018846807,-1.271257,-0.15495878,-1.8896239,0.3424193,1.282675,0.9222227,0.03999975,0.04,-0.03757459378119776,-7.105371471194388e-05,0.05918079201554516,-0.026237948062501515,-0.11711440230324467,0.054600973622037655,0.9222602288196122,0.008500842487173949,0.31619962308088373,0.22221972094778578
2823.6166666750087,0.0018897108,-1.27263,-0.15539391,-1.8883111,0.3433807,1.281865,0.92260563,0.03999975,0.04,-0.03754385931902249,-0.00010080742960383304,0.05925275225126536,-0.02591301559621649,-0.1152041233952807,0.05353077935339915,0.9218534210002484,0.00822737885771996,0.31702716026486333,0.2227383219871855
2823.6333333416756,0.0018946569,-1.2739795,-0.15582164,-1.8870208,0.34432584,1.2810686,0.9229818,0.03999975,0.04,-0.037502549830792375,-0.0003423700525084783,0.060307715286445074,-0.025582553593539163,-0.1132899037856416,0.052464810652497446,0.9214527241627523,0.007957021168046526,0.31784008530445446,0.22324704504389573
2823.6500000083424,0.0018995199,-1.2753059,-0.15624197,-1.8857526,0.34525454,1.2802861,0.92335147,0.039999746,0.04,-0.03637673482876913,-8.935207194138428e-05,0.06028547771875781,-0.02524353201164115,-0.11137449952718698,0.05140538613547247,0.9210580626612325,0.007690046931775325,0.3186387796913186,0.22374591943039265
2823.6666666750093,0.0019042987,-1.2766088,-0.15665494,-1.8845068,0.34616697,1.279517,0.9237147,0.039999742,0.04,-0.03679906574460823,-0.00034173158562911254,0.06102194774104952,-0.024898371330565057,-0.10945617339765887,0.0503519277640668,0.9206696365749529,0.007426505445394563,0.3194227571665991,0.22423507644858237
2823.683333341676,0.001908994,-1.2778888,-0.1570605,-1.8832835,0.34706298,1.2787619,0.92407143,0.03999974,0.04,-0.0359085848391949,-0.0002581583285143907,0.0608204537661694,-0.02454611686814851,-0.10753778840726165,0.0493038145548044,0.9202873694823465,0.007166456637221323,0.3201924322621796,0.22471449840310592
2823.700000008343,0.0019136053,-1.279145,-0.15745868,-1.8820822,0.34794265,1.2780204,0.92442167,0.039999742,0.04,-0.03524120992905999,-0.00029690932732417963,0.06185151377406661,-0.024188033554824996,-0.10561817262407075,0.04826244353478035,0.9199113748504958,0.006909999232625653,0.3209476092148794,0.22518425004988477
2823.71666667501,0.0019181329,-1.2803781,-0.15784943,-1.8809034,0.34880593,1.2772932,0.92476535,0.039999746,0.04,-0.034697540784955905,-0.000283908501907959,0.06178199302016296,-0.02382420156522761,-0.10369888354099066,0.04722734282011517,0.9195415578376286,0.0066571862367908585,0.3216886932424899,0.22564438818835036
2823.733333341677,0.0019225765,-1.281588,-0.1582327,-1.8797469,0.34965286,1.2765797,0.92510253,0.03999974,0.04,-0.034692760314136706,-0.0005171787714086662,0.062022840612807606,-0.023455422303600874,-0.10177684567758277,0.04619841459436173,0.9191780857869104,0.006408045409299194,0.3224153687229598,0.2260949216023692
2823.7500000083437,0.0019269363,-1.2827746,-0.15860865,-1.8786129,0.35048345,1.2758801,0.92543316,0.03999974,0.04,-0.03416559398354835,-0.000310301467221219,0.06234501578779583,-0.02308104216535359,-0.0998564725011416,0.04517662209100559,0.918820958992773,0.006162657890014377,0.3231277199920643,0.22653596521537486
2823.7666666750106,0.0019312125,-1.2839376,-0.15897714,-1.8775008,0.35129765,1.2751942,0.9257572,0.03999974,0.04,-0.03334670095136438,-0.0004315891493439361,0.06269321351664581,-0.02270065447830009,-0.0979368761244109,0.044160244243310776,0.918470239137262,0.005921076888291359,0.32382577070613094,0.22696746659863892
2823.7833333416775,0.0019354048,-1.2850776,-0.15933827,-1.8764108,0.35209554,1.274522,0.92607486,0.039999727,0.04,-0.03306766933035554,-0.00041132930601595064,0.06222314059618206,-0.022316534531172726,-0.09601909320234135,0.0431523745659548,0.9181258868026311,0.005683361576108083,0.3245096881753869,0.227389572461867
2823.8000000083443,0.0019395135,-1.2861942,-0.159692,-1.8753432,0.35287708,1.2738634,0.926386,0.03999973,0.04,-0.032888724093327326,-0.0004560058989161453,0.06317735836183502,-0.021927550486309247,-0.09410268969979607,0.04215087603334985,0.917788024082668,0.005449600423742444,0.3251792781983516,0.22780228650312717
2823.816666675011,0.0019435384,-1.2872876,-0.16003838,-1.8742982,0.35364258,1.2732189,0.9266906,0.039999727,0.04,-0.032629073457135505,-0.0006849276006359872,0.06361183552882899,-0.02153512254923383,-0.09219054400684493,0.04115810841855535,0.9174566504781607,0.00521975923581223,0.32583455321360766,0.22820581179935523
2823.833333341678,0.0019474804,-1.2883579,-0.16037738,-1.8732752,0.35439163,1.2725877,0.9269887,0.039999727,0.04,-0.031893400558935525,-0.0004155720252918549,0.06283305480531964,-0.021137110993597337,-0.09028132212292089,0.04017092704235161,0.9171318126984614,0.004993969413463499,0.32647564817325897,0.2285999771561279
2823.850000008345,0.0019513391,-1.2894051,-0.16070904,-1.8722744,0.3551244,1.2719702,0.92728055,0.039999723,0.04,-0.03160898421565861,-0.0005157562953467254,0.06332739166596546,-0.02073602949582379,-0.08837792780437531,0.03919293181224781,0.9168134994073499,0.004772331800095785,0.32710261223011233,0.22898496288157377
2823.866666675012,0.0019551145,-1.2904292,-0.1610334,-1.8712958,0.35584104,1.2713666,0.9275657,0.03999972,0.04,-0.030910732065558832,-0.0004758635527624122,0.06369887515231265,-0.020332440324936696,-0.08647980257627061,0.038222356849536114,0.9165016864517044,0.0045547464585503974,0.32771561172202823,0.22936083111450606
2823.8833333416787,0.0019588075,-1.2914301,-0.16135044,-1.8703393,0.35654157,1.2707763,0.92784464,0.039999723,0.04,-0.0309074927943076,-0.0007048404812304288,0.06371824161299777,-0.01992547460439535,-0.08458597695322034,0.03725958371159415,0.91619653366798,0.004341396527863334,0.3283142825966749,0.22972765574478957
2823.9000000083456,0.0019624184,-1.2924085,-0.16166024,-1.8694044,0.35722604,1.2701995,0.928117,0.03999972,0.04,-0.029736391230583692,-0.0004962746585429612,0.06257067141677841,-0.019515387515902167,-0.0827016459436833,0.036305132314333875,0.9158978235996476,0.004132090628281749,0.3288993489333642,0.23008546417294062
2823.9166666750125,0.001965947,-1.2933642,-0.16196276,-1.8684914,0.35789448,1.2696366,0.9283832,0.039999723,0.04,-0.029373173447133638,-0.0005644393379189427,0.0631686396442871,-0.019101912053737225,-0.0808200411485328,0.03535818703307809,0.9156055819408033,0.003927120467216314,0.32947076750725196,0.23043439283635825
2823.9333333416794,0.001969393,-1.2942967,-0.16225812,-1.8676006,0.35854694,1.269087,0.928643,0.039999712,0.04,-0.029929729090305557,-0.000605526303523729,0.06425558640466011,-0.01868900988666955,-0.07894455394362809,0.03442054833424678,0.9153200645009413,0.0037264550348065865,0.33002792605047554,0.23077448100188214
2823.9500000083463,0.001972759,-1.2952067,-0.16254628,-1.8667309,0.35918355,1.2685506,0.92889625,0.03999972,0.04,-0.02828153328686689,-0.0006029733272683302,0.06277150869673509,-0.018272637962772967,-0.07708053369088091,0.033490170089456935,0.9150410429253867,0.0035299218470067877,0.33057157651547203,0.23110573816729463
