rsonawane2002/My_IMU/logs_2/traj_476/imu_400hz_476.csv
time,j1,j2,j3,j4,j5,j6,j7,gripper1,gripper2,imu_ax,imu_ay,imu_az,imu_gx,imu_gy,imu_gz
0.0,0.00016700293,-0.785875,4.0107683e-05,-2.3551247,9.29385e-05,1.570997,0.786,0.04,0.04,-9.486806,-0.0016556237824261,0.06885493,-5.4515e-07,-0.0011641273740679,5.3057823e-07
0.0025,0.00016700472399999993,-0.7858577740000007,4.010924314999994e-05,-2.3551391899999996,9.29437777499998e-05,1.570996565,0.786,0.04,0.04,-9.538910599997914,-0.0013111084932599217,0.05990514235035815,-6.245553349968224e-07,-0.001325359044124433,5.759245604981853e-07
0.005,0.00016700651799999986,-0.7858405480000014,4.0110803299999877e-05,-2.355153679999999,9.294905549999958e-05,1.57099613,0.786,0.04,0.04,-9.59101519999583,-0.0009665932040937435,0.0509553547007163,-7.039606699936447e-07,-0.0014865907141809658,6.212708909963706e-07
0.0075,0.00016700831199999977,-0.785823322000002,4.011236344999982e-05,-2.3551681699999985,9.295433324999938e-05,1.5709956950000001,0.786,0.04,0.04,-9.643119799993745,-0.0006220779149275653,0.042005567051074444,-7.833660049904671e-07,-0.0016478223842374988,6.666172214945561e-07
0.01,0.0001670101059999997,-0.7858060960000027,4.011392359999975e-05,-2.355182659999998,9.295961099999916e-05,1.5709952600000001,0.786,0.04,0.04,-9.695224399991659,-0.000277562625761387,0.033055779401432596,-8.627713399872895e-07,-0.0018090540542940316,7.119635519927414e-07
0.0125,0.00016701189999999963,-0.7857888700000035,4.011548374999969e-05,-2.3551971499999973,9.296488874999896e-05,1.570994825,0.786,0.04,0.04,-9.747328999989575,6.695266340479128e-05,0.024105991751790748,-9.421766749841119e-07,-0.0019702857243505643,7.573098824909267e-07
0.015,0.00016701369399999957,-0.7857716440000042,4.0117043899999625e-05,-2.3552116399999967,9.297016649999874e-05,1.57099439,0.786,0.04,0.04,-9.79943359998749,0.00041146795257096937,0.0151562041021489,-1.0215820099809344e-06,-0.0021315173944070976,8.026562129891121e-07
0.0175,0.00016701865549999703,-0.7857548620000042,4.011977859999867e-05,-2.3552257349999968,9.297518774999883e-05,1.5709939600000002,0.786,0.04,0.04,-9.834090500000062,0.0006460488599220014,0.009108788970063562,-1.3345231547956884e-06,-0.002288384642413168,7.995649590261846e-07
0.02,0.0001670299519999972,-0.785738968000004,4.012486239999874e-05,-2.3552390399999967,9.297969599999889e-05,1.5709935400000001,0.786,0.04,0.04,-9.833852000000059,0.0006607610033787805,0.008866118880060031,-2.114535919807039e-06,-0.0024365230463078333,6.995985360247299e-07
0.0225,0.00016704124849999737,-0.7857230740000037,4.012994619999881e-05,-2.355252344999997,9.298420424999896e-05,1.57099312,0.786,0.04,0.04,-9.833613500000055,0.0006754731468355596,0.0086234487900565,-2.894548684818389e-06,-0.002584661450202499,5.996321130232753e-07
0.025,0.00016705254499999752,-0.7857071800000035,4.013502999999889e-05,-2.355265649999997,9.298871249999902e-05,1.5709927000000001,0.786,0.04,0.04,-9.833375000000052,0.0006901852902923386,0.008380778700052969,-3.6745614498297405e-06,-0.0027327998540971647,4.996656900218205e-07
0.0275,0.00016706384149999768,-0.7856912860000033,4.0140113799998964e-05,-2.355278954999997,9.299322074999909e-05,1.57099228,0.786,0.04,0.04,-9.833136500000048,0.0007048974337491177,0.008138108610049438,-4.4545742148410905e-06,-0.0028809382579918306,3.996992670203658e-07
0.03,0.00016707513799999786,-0.785675392000003,4.0145197599999036e-05,-2.3552922599999975,9.299772899999915e-05,1.5709918600000001,0.786,0.04,0.04,-9.832898000000045,0.0007196095772058968,0.007895438520045907,-5.234586979852441e-06,-0.003029076661886496,2.9973284401891117e-07
0.0325,0.000167086434499998,-0.7856594980000028,4.0150281399999114e-05,-2.3553055649999974,9.300223724999922e-05,1.57099144,0.786,0.04,0.04,-9.832659500000041,0.0007343217206626759,0.007652768430042376,-6.014599744863792e-06,-0.003177215065781162,1.9976642101745633e-07
0.035,0.0001671147229999941,-0.7856444400000023,4.016170859999766e-05,-2.355318099999998,9.300594299999947e-05,1.57099101,0.786,0.04,0.04,-9.83241135000004,0.0007564147876067928,0.007440605690031519,-7.732399199649977e-06,-0.0033176032360423885,-8.560158793948261e-08
0.0375,0.00016715150749999465,-0.7856298000000022,4.017630749999787e-05,-2.355330249999998,9.300924749999952e-05,1.5709905750000002,0.786,0.04,0.04,-9.832158375000036,0.000782198316297398,0.007243696625028654,-9.919091999681793e-06,-0.003454116289483935,-4.6367038994498347e-07
0.04,0.00016718829199999517,-0.7856151600000019,4.019090639999809e-05,-2.3553423999999983,9.301255199999957e-05,1.5709901400000001,0.786,0.04,0.04,-9.831905400000034,0.0008079818449880032,0.007046787560025788,-1.2105784799713616e-05,-0.0035906293429254815,-8.417391919504853e-07
0.0425,0.00016722507649999572,-0.7856005200000017,4.02055052999983e-05,-2.3553545499999986,9.301585649999962e-05,1.5709897050000001,0.786,0.04,0.04,-9.83165242500003,0.0008337653736786084,0.006849878495022923,-1.4292477599745439e-05,-0.0037271423963670283,-1.2198079939559875e-06
0.045,0.00016726186099999624,-0.7855858800000015,4.0220104199998515e-05,-2.355366699999999,9.301916099999967e-05,1.57098927,0.786,0.04,0.04,-9.831399450000026,0.0008595489023692135,0.006652969430020058,-1.6479170399777255e-05,-0.0038636554498085746,-1.5978767959614883e-06
0.0475,0.0001672986454999968,-0.7855712400000013,4.023470309999872e-05,-2.355378849999999,9.30224654999997e-05,1.570988835,0.786,0.04,0.04,-9.831146475000022,0.0008853324310598188,0.006456060365017192,-1.8665863199809078e-05,-0.004000168503250121,-1.9759455979669903e-06
0.05,0.00016733542999999732,-0.7855566000000012,4.0249301999998936e-05,-2.355390999999999,9.302576999999975e-05,1.5709884,0.786,0.04,0.04,-9.830893500000018,0.000911115959750424,0.006259151300014327,-2.08525559998409e-05,-0.004136681556691668,-2.354014399972492e-06
0.0525,0.00016742083699999036,-0.7855431150000015,4.0282034699996306e-05,-2.3554020249999987,9.302735699999982e-05,1.5709879800000002,0.786,0.04,0.04,-9.830648475000027,0.000948454151507864,0.0060835641800198025,-2.4923234999540916e-05,-0.00426157575564908,-3.126453289912886e-06
0.055,0.00016750624399998695,-0.7855296300000021,4.0314767399995e-05,-2.3554130499999983,9.302894399999976e-05,1.57098756,0.786,0.04,0.04,-9.830403450000038,0.0009857923432661448,0.005907977060026829,-2.899391399937802e-05,-0.004386469954605647,-3.898892179881975e-06
0.0575,0.00016759165099998355,-0.7855161450000027,4.034750009999369e-05,-2.355424074999998,9.303053099999969e-05,1.5709871400000002,0.786,0.04,0.04,-9.830158425000047,0.0010231305350244257,0.0057323899400338555,-3.306459299921512e-05,-0.004511364153562214,-4.671331069851065e-06
0.06,0.00016767705799998012,-0.7855026600000031,4.038023279999238e-05,-2.3554350999999976,9.303211799999964e-05,1.57098672,0.786,0.04,0.04,-9.829913400000057,0.0010604687267827065,0.005556802820040882,-3.713527199905222e-05,-0.0046362583525187805,-5.443769959820152e-06
0.0625,0.0001677624649999767,-0.7854891750000037,4.041296549999107e-05,-2.355446124999997,9.303370499999957e-05,1.5709863000000002,0.786,0.04,0.04,-9.829668375000066,0.0010978069185409872,0.0053812157000479085,-4.120595099888932e-05,-0.004761152551475347,-6.216208849789242e-06
0.065,0.00016784787199997328,-0.7854756900000042,4.044569819998976e-05,-2.355457149999997,9.30352919999995e-05,1.57098588,0.786,0.04,0.04,-9.829423350000077,0.0011351451102992681,0.005205628580054935,-4.527662999872642e-05,-0.004886046750431915,-6.988647739758332e-06
0.0675,0.00016795934149994377,-0.7854625380000042,4.048814184997873e-05,-2.3554678349999967,9.303608750000028e-05,1.5709854550000002,0.786,0.04,0.04,-9.829174900000087,0.0011749961646119068,0.005040028015050066,-5.0158038897764394e-05,-0.0050073514924923596,-7.9289666495613e-06
0.07,0.00016812293599994168,-0.7854500520000044,4.0550007399977945e-05,-2.3554778399999967,9.303530000000028e-05,1.5709850200000002,0.786,0.04,0.04,-9.828919600000091,0.0012198729440409406,0.004894400560051919,-5.66609075976816e-05,-0.005121477320749592,-9.205045599545052e-06
0.0725,0.0001682865304999396,-0.7854375660000046,4.061187294997716e-05,-2.3554878449999963,9.30345125000003e-05,1.5709845850000002,0.786,0.04,0.04,-9.828664300000094,0.001264749723469974,0.004748773105053774,-6.316377629759877e-05,-0.0052356031490068235,-1.0481124549528799e-05
0.075,0.0001684501249999375,-0.7854250800000048,4.067373849997637e-05,-2.3554978499999963,9.30337250000003e-05,1.5709841500000001,0.786,0.04,0.04,-9.828409000000097,0.0013096265028990075,0.004603145650055629,-6.966664499751598e-05,-0.005349728977264055,-1.1757203499512552e-05
0.0775,0.00016861371949993543,-0.785412594000005,4.0735604049975575e-05,-2.3555078549999964,9.303293750000032e-05,1.5709837150000001,0.786,0.04,0.04,-9.828153700000101,0.0013545032823280411,0.004457518195057483,-7.616951369743318e-05,-0.0054638548055212875,-1.3033282449496304e-05
0.08,0.00016877731399993334,-0.7854001080000051,4.079746959997479e-05,-2.355517859999996,9.303215000000032e-05,1.5709832800000003,0.786,0.04,0.04,-9.827898400000104,0.0013993800617570747,0.004311890740059336,-8.267238239735038e-05,-0.005577980633778519,-1.4309361399480058e-05
0.0825,0.00016894090849993126,-0.7853876220000052,4.0859335149974e-05,-2.355527864999996,9.303136250000034e-05,1.5709828450000003,0.786,0.04,0.04,-9.827643100000108,0.0014442568411861085,0.004166263285061191,-8.917525109726758e-05,-0.005692106462035751,-1.558544034946381e-05
0.085,0.00016918018799988002,-0.7853757640000051,4.094938089995492e-05,-2.3555371399999965,9.302824000000186e-05,1.5709824000000003,0.786,0.04,0.04,-9.827457100000066,0.0014974332879979626,0.004013269720067828,-9.766077759589731e-05,-0.005799608584448234,-1.7259928499188846e-05
0.08750000000000001,0.0001694573099998765,-0.7853642200000052,4.105351674995359e-05,-2.355546049999996,9.302395000000192e-05,1.5709819500000002,0.786,0.04,0.04,-9.827305750000066,0.0015547595685091527,0.003856593100069823,-0.00010713763299577665,-0.005903798853932018,-1.913362124916499e-05
0.09,0.00016973443199987297,-0.7853526760000054,4.115765259995227e-05,-2.355554959999996,9.301966000000197e-05,1.5709815000000003,0.786,0.04,0.04,-9.827154400000069,0.0016120858490203424,0.0036999164800718184,-0.00011661448839565593,-0.0060079891234158,-2.1007313999141125e-05
0.0925,0.00017001155399986944,-0.7853411320000054,4.126178844995094e-05,-2.355563869999996,9.301537000000202e-05,1.5709810500000003,0.786,0.04,0.04,-9.827003050000071,0.0016694121295315325,0.0035432398600738135,-0.00012609134379553528,-0.006112179392899584,-2.2881006749117266e-05
0.095,0.00017028867599986591,-0.7853295880000056,4.1365924299949615e-05,-2.3555727799999957,9.301108000000207e-05,1.5709806000000004,0.786,0.04,0.04,-9.826851700000073,0.0017267384100427227,0.003386563240075808,-0.0001355681991954146,-0.006216369662383368,-2.475469949909341e-05
0.0975,0.0001705657979998624,-0.7853180440000057,4.147006014994829e-05,-2.3555816899999957,9.300679000000213e-05,1.5709801500000002,0.786,0.04,0.04,-9.826700350000076,0.0017840646905539128,0.003229886620077803,-0.00014504505459529395,-0.006320559931867151,-2.6628392249069552e-05
0.1,0.00017084291999985886,-0.7853065000000059,4.1574195999946964e-05,-2.3555905999999958,9.300250000000218e-05,1.5709797000000003,0.786,0.04,0.04,-9.826549000000076,0.001841390971065103,0.0030732100000797975,-0.00015452190999517328,-0.006424750201350934,-2.8502084999045697e-05
0.10250000000000001,0.00017127405299977494,-0.7852958005000056,4.173562014991573e-05,-2.3555990299999956,9.299379700000454e-05,1.5709792500000004,0.786,0.04,0.04,-9.826361650000099,0.0019047890323813934,0.002945650555066592,-0.00016734696249330472,-0.006519000790963947,-3.106015124866457e-05
0.105,0.00017170518599976943,-0.7852851010000057,4.1897044299913675e-05,-2.355607459999996,9.298509400000466e-05,1.5709788000000002,0.786,0.04,0.04,-9.826174300000101,0.001968187093700776,0.0028180911100682167,-0.00018017201499314134,-0.006613251380571897,-3.361821749863198e-05
0.1075,0.00017213631899976395,-0.7852744015000058,4.205846844991162e-05,-2.3556158899999957,9.297639100000477e-05,1.5709783500000003,0.786,0.04,0.04,-9.825986950000102,0.002031585155020159,0.0026905316650698407,-0.00019299706749297807,-0.0067075019701798464,-3.617628374859942e-05
0.11,0.00017256745199975847,-0.785263702000006,4.2219892599909564e-05,-2.3556243199999956,9.296768800000487e-05,1.5709779000000001,0.786,0.04,0.04,-9.825799600000105,0.0020949832163395417,0.0025629722200714647,-0.00020582211999281477,-0.006801752559787796,-3.8734349998566844e-05
0.1125,0.00017299858499975296,-0.7852530025000061,4.238131674990751e-05,-2.3556327499999954,9.295898500000498e-05,1.5709774500000002,0.786,0.04,0.04,-9.825612250000107,0.0021583812776589245,0.002435412775073089,-0.0002186471724926515,-0.006896003149395746,-4.129241624853428e-05
0.115,0.00017342971799974748,-0.7852423030000063,4.254274089990545e-05,-2.3556411799999952,9.29502820000051e-05,1.570977,0.786,0.04,0.04,-9.82542490000011,0.0022217793389783073,0.002307853330074713,-0.00023147222499248822,-0.006990253739003697,-4.3850482498501706e-05
0.11750000000000001,0.00017392722949962283,-0.7852318415000059,4.272883479985911e-05,-2.3556493099999956,9.293944975000903e-05,1.5709765400000002,0.786,0.04,0.04,-9.825269000000056,0.0022874217829246903,0.0021846872400684498,-0.0002455523239900717,-0.007082242285780352,-4.669357399795742e-05
0.12,0.0001745574979996148,-0.785221856000006,4.296426819985611e-05,-2.3556568399999955,9.292435900000922e-05,1.5709760600000002,0.786,0.04,0.04,-9.825176000000058,0.002357552992137077,0.0020703078600699068,-0.00026214251598986036,-0.007169706746882324,-5.010671599791395e-05
0.1225,0.00017518776649960678,-0.7852118705000062,4.3199701599853116e-05,-2.3556643699999955,9.290926825000942e-05,1.5709755800000003,0.786,0.04,0.04,-9.825083000000058,0.0024276842013494643,0.001955928480071363,-0.0002787327079896491,-0.0072571712079842945,-5.351985799787049e-05
0.125,0.00017581803499959874,-0.7852018850000063,4.343513499985011e-05,-2.3556718999999955,9.289417750000961e-05,1.5709751000000003,0.786,0.04,0.04,-9.82499000000006,0.002497815410561851,0.0018415491000728192,-0.0002953228999894379,-0.007344635669086266,-5.6932999997827034e-05
0.1275,0.00017644830349959072,-0.7851918995000065,4.3670568399847114e-05,-2.3556794299999955,9.287908675000981e-05,1.5709746200000003,0.786,0.04,0.04,-9.82489700000006,0.002567946619774238,0.0017271697200742756,-0.0003119130919892267,-0.0074321001301882374,-6.0346141997783575e-05
0.13,0.00017707857199958268,-0.7851819140000066,4.390600179984412e-05,-2.355686959999995,9.286399600001e-05,1.5709741400000004,0.786,0.04,0.04,-9.824804000000062,0.0026380778289866254,0.0016127903400757317,-0.00032850328398901547,-0.007519564591290209,-6.375928399774012e-05
0.1325,0.00017770884049957467,-0.7851719285000067,4.414143519984112e-05,-2.355694489999995,9.28489052500102e-05,1.5709736600000004,0.786,0.04,0.04,-9.824711000000063,0.002708209038199012,0.001498410960077188,-0.00034509347598880424,-0.00760702905239218,-6.717242599769667e-05
0.135,0.00017850465099939592,-0.7851623400000064,4.44383696997747e-05,-2.355701279999996,9.28304975000138e-05,1.5709731200000003,0.7859999660000001,0.04,0.0399999995,-9.824567200000116,0.0027792344567805073,0.001393534980068843,-0.00036441811598577283,-0.007688844017630098,-7.093167249729626e-05
0.1375,0.00017938323249938474,-0.7851529500000065,4.476605474977052e-05,-2.3557076999999955,9.281043125001405e-05,1.5709725500000005,0.7859999150000001,0.04,0.03999999875,-9.82439800000012,0.0028507069800479223,0.0012934107000701178,-0.00038510997998550937,-0.0077678342349273575,-7.486397124724618e-05
0.14,0.00018026181399937355,-0.7851435600000067,4.5093739799766345e-05,-2.3557141199999956,9.279036500001431e-05,1.5709719800000004,0.7859998640000001,0.04,0.039999998,-9.824228800000121,0.0029221795033153373,0.0011932864200713926,-0.0004058018439852459,-0.007846824452224618,-7.879626999719612e-05
0.14250000000000002,0.00018114039549936236,-0.7851341700000068,4.542142484976217e-05,-2.355720539999995,9.277029875001456e-05,1.5709714100000005,0.785999813,0.04,0.03999999725,-9.824059600000123,0.0029936520265827524,0.0010931621400726674,-0.00042649370798498245,-0.007925814669521877,-8.272856874714606e-05
0.145,0.00018201897699935115,-0.785124780000007,4.5749109899758e-05,-2.3557269599999953,9.275023250001482e-05,1.5709708400000004,0.785999762,0.04,0.0399999965,-9.823890400000124,0.0030651245498501665,0.000993037860073943,-0.00044718557198471877,-0.008004804886819135,-8.666086749709595e-05
0.1475,0.00018289755849933996,-0.7851153900000071,4.607679494975383e-05,-2.355733379999995,9.273016625001509e-05,1.5709702700000006,0.785999711,0.04,0.03999999575,-9.823721200000127,0.0031365970731175815,0.000892913580075218,-0.0004678774359844553,-0.008083795104116394,-9.059316624704588e-05
0.15,0.00018377613999932878,-0.7851060000000072,4.6404479999749656e-05,-2.355739799999995,9.271010000001533e-05,1.5709697000000005,0.78599966,0.04,0.039999995,-9.823552000000129,0.0032080695963849965,0.0007927893000764927,-0.0004885692999841919,-0.008162785321413653,-9.452546499699582e-05
0.1525,0.00018495590049908366,-0.7850971800000068,4.68440200496586e-05,-2.3557453049999957,9.268120850002244e-05,1.5709686950000008,0.7859993735000003,0.04,0.039999995,-9.823454950000075,0.0032938615185473447,0.000688995106580618,-0.0005135035149806333,-0.008233908982892158,-9.956550924608535e-05
0.155,0.00018613566099906864,-0.7850883600000069,4.7283560099653006e-05,-2.3557508099999955,9.265231700002281e-05,1.570967690000001,0.7859990870000002,0.04,0.039999995,-9.823357900000076,0.003379653440720632,0.0005852009130819395,-0.0005384377299803159,-0.008305032644364652,-0.00010460555349602118
0.1575,0.00018731542149905361,-0.785079540000007,4.7723100149647415e-05,-2.3557563149999954,9.262342550002318e-05,1.5709666850000008,0.7859988005000003,0.04,0.039999995,-9.823260850000077,0.00346544536289392,0.000481406719583261,-0.0005633719449799985,-0.008376156305837146,-0.00010964559774595702
0.16,0.0001884951819990386,-0.7850707200000071,4.816264019964182e-05,-2.3557618199999957,9.259453400002355e-05,1.570965680000001,0.7859985140000003,0.04,0.039999995,-9.82316380000008,0.0035512372850672077,0.00037761252608458257,-0.0005883061599796809,-0.00844727996730964,-0.00011468564199589284
0.1625,0.00018967494249902357,-0.7850619000000073,4.860218024963622e-05,-2.3557673249999955,9.256564250002392e-05,1.5709646750000008,0.7859982275000003,0.04,0.039999995,-9.82306675000008,0.0036370292072404956,0.000273818332585904,-0.0006132403749793635,-0.008518403628782137,-0.00011972568624582867
0.165,0.00019085470299900855,-0.7850530800000074,4.9041720299630624e-05,-2.3557728299999954,9.253675100002428e-05,1.570963670000001,0.7859979410000003,0.04,0.039999995,-9.822969700000082,0.003722821129413783,0.00017002413908722563,-0.000638174589979046,-0.00858952729025463,-0.0001247657304957645
0.1675,0.0001921535374986888,-0.7850444120000071,4.952547674951187e-05,-2.355778134999996,9.25036545000354e-05,1.570962660000001,0.7859976545000003,0.04,0.03999999525,-9.822868550000093,0.003807700262334032,7.558047206461619e-05,-0.0006643119379756493,-0.008658573497031372,-0.0001302414509945853
0.17,0.00019369051999866923,-0.7850360480000071,5.009766599950458e-05,-2.355783039999996,9.246214800003594e-05,1.570961640000001,0.7859973680000003,0.04,0.039999996,-9.822759200000094,0.0038907538167412296,-1.6214193441944772e-07,-0.0006928555519752859,-0.008723464794400735,-0.00013658852399450448
0.17250000000000001,0.00019522750249864967,-0.7850276840000073,5.066985524949729e-05,-2.355787944999996,9.242064150003647e-05,1.570960620000001,0.7859970815000002,0.04,0.03999999675,-9.822649850000097,0.003973807371148427,-7.590475593345508e-05,-0.0007213991659749226,-0.008788356091770099,-0.0001429355969944237
0.17500000000000002,0.00019676448499863009,-0.7850193200000074,5.124204449949001e-05,-2.355792849999996,9.237913500003699e-05,1.570959600000001,0.7859967950000003,0.04,0.0399999975,-9.822540500000098,0.004056860925555625,-0.00015164736993249073,-0.0007499427799745591,-0.008853247389139462,-0.00014928266999434287
0.1775,0.0001983014674986105,-0.7850109560000076,5.181423374948272e-05,-2.3557977549999958,9.233762850003753e-05,1.570958580000001,0.7859965085000002,0.04,0.03999999825,-9.8224311500001,0.004139914479962821,-0.00022738998393152552,-0.0007784863939741954,-0.008918138686508826,-0.000155629742994262
0.18,0.00019983844999859094,-0.7850025920000077,5.238642299947543e-05,-2.3558026599999953,9.229612200003805e-05,1.570957560000001,0.7859962220000003,0.04,0.039999999,-9.8223218000001,0.004222968034370019,-0.0003031325979305612,-0.000807030007973832,-0.008983029983878189,-0.00016197681599418117
0.1825,0.00020137543249857138,-0.7849942280000077,5.295861224946815e-05,-2.355807564999995,9.225461550003858e-05,1.570956540000001,0.7859959355000002,0.04,0.03999999975,-9.822212450000102,0.004306021588777216,-0.0003788752119295968,-0.0008355736219734687,-0.009047921281247553,-0.00016832388899410035
0.185,0.00020318975699815982,-0.7849861120000076,5.3633743799315365e-05,-2.355811879999996,9.220532260005011e-05,1.570955430000001,0.7859956490000003,0.0399999995,0.04,-9.822122300000077,0.004387554386554473,-0.00045327998093052334,-0.0008674808839683511,-0.009108859207425525,-0.00017507851799344353
0.1875,0.00020514275249813497,-0.7849781200000077,5.4360346499306117e-05,-2.355815899999996,9.215213650005079e-05,1.570954275000001,0.7859953625000002,0.03999999875,0.04,-9.822041750000077,0.004468326806013565,-0.0005270158274295845,-0.0009010699699679235,-0.009167820447999494,-0.00018203692499335495
0.19,0.0002070957479981101,-0.7849701280000078,5.508694919929686e-05,-2.355819919999996,9.209895040005146e-05,1.570953120000001,0.7859950760000003,0.039999998,0.04,-9.821961200000079,0.004549099225472656,-0.0006007516739286458,-0.0009346590559674957,-0.009226781688573464,-0.00018899533199326634
0.1925,0.00020904874349808524,-0.7849621360000079,5.581355189928761e-05,-2.355823939999996,9.204576430005214e-05,1.5709519650000012,0.7859947895000002,0.03999999725,0.04,-9.821880650000079,0.004629871644931748,-0.000674487520427707,-0.0009682481419670681,-0.009285742929147432,-0.00019595373899317775
0.195,0.00021100173899806036,-0.784954144000008,5.6540154599278363e-05,-2.355827959999996,9.199257820005281e-05,1.5709508100000011,0.7859945030000003,0.0399999965,0.04,-9.821800100000079,0.00471064406439084,-0.0007482233669267682,-0.0010018372279666404,-0.009344704169721402,-0.00020291214599308914
0.1975,0.00021295473449803548,-0.7849461520000081,5.726675729926911e-05,-2.355831979999996,9.193939210005349e-05,1.5709496550000013,0.7859942165000002,0.03999999575,0.04,-9.821719550000081,0.004791416483849931,-0.0008219592134258295,-0.0010354263139662127,-0.009403665410295371,-0.00020987055299300056
0.2,0.00021490772999801063,-0.7849381600000082,5.799335999925986e-05,-2.355835999999996,9.188620600005418e-05,1.5709485000000012,0.7859939300000003,0.039999995,0.04,-9.821639000000081,0.004872188903309023,-0.0008956950599248905,-0.001069015399965785,-0.009462626650869341,-0.00021682895999291195
0.2025,0.00021733804649749346,-0.784930456000008,5.8897097999067915e-05,-2.355838999999997,9.181954510006874e-05,1.5709469100000018,0.7859936405000003,0.039999994250000004,0.04,-9.821593100000047,0.00497336070974161,-0.000971686910921625,-0.0011077869649600124,-0.009515416296144465,-0.0002248158869917626
0.20500000000000002,0.00021976836299746253,-0.784922752000008,5.980083599905641e-05,-2.355841999999997,9.175288420006959e-05,1.5709453200000016,0.7859933510000002,0.039999993500000004,0.04,-9.821547200000047,0.005074532516194977,-0.0010476787619206574,-0.0011465585299595188,-0.009568205941413303,-0.00023280281399166088
0.20750000000000002,0.00022219867949743158,-0.7849150480000082,6.07045739990449e-05,-2.355844999999997,9.168622330007044e-05,1.5709437300000018,0.7859930615000003,0.039999992750000005,0.04,-9.821501300000048,0.0051757043226483435,-0.0011236706129196898,-0.001185330094959025,-0.00962099558668214,-0.0002407897409915592
0.21,0.0002246289959974006,-0.7849073440000083,6.160831199903339e-05,-2.355847999999997,9.161956240007129e-05,1.5709421400000019,0.7859927720000003,0.039999992000000005,0.04,-9.821455400000048,0.005276876129101709,-0.0011996624639187214,-0.001224101659958531,-0.009673785231950978,-0.00024877666799145743
0.2125,0.00022705931249736967,-0.7848996400000083,6.251204999902188e-05,-2.355850999999997,9.155290150007215e-05,1.5709405500000018,0.7859924825000003,0.03999999125,0.04,-9.82140950000005,0.0053780479355550765,-0.001275654314917754,-0.0012628732249580375,-0.009726574877219816,-0.00025676359499135574
0.215,0.0002294896289973387,-0.7848919360000084,6.341578799901038e-05,-2.355853999999997,9.1486240600073e-05,1.5709389600000019,0.7859921930000003,0.0399999905,0.04,-9.82136360000005,0.005479219742008443,-0.0013516461659167864,-0.0013016447899575438,-0.009779364522488653,-0.00026475052199125405
0.2175,0.0002321001739967088,-0.7848843000000083,6.438639599877665e-05,-2.355856664999998,9.141450400009072e-05,1.570937315000002,0.7859918880000004,0.0399999897,0.0399999995,-9.821308150000082,0.005577642656759715,-0.0014213174849368238,-0.001342235354951005,-0.009830358484707345,-0.00027309206198997387
0.22,0.00023507117599667099,-0.7848768000000084,6.549074399876258e-05,-2.3558586599999978,9.133261600009175e-05,1.5709355600000021,0.7859915520000004,0.039999988800000004,0.039999998,-9.821233600000083,0.005670567788079497,-0.0014783477399360977,-0.0013864639199504419,-0.009877761080807906,-0.0002821428279898586
0.2225,0.00023804217799663316,-0.7848693000000085,6.659509199874853e-05,-2.355860654999998,9.12507280000928e-05,1.5709338050000021,0.7859912160000004,0.0399999879,0.0399999965,-9.821159050000084,0.005763492919399279,-0.0015353779949353716,-0.0014306924849498788,-0.009925163676908468,-0.0002911935939897434
0.225,0.00024101317999659534,-0.7848618000000086,6.769943999873446e-05,-2.355862649999998,9.116884000009383e-05,1.5709320500000021,0.7859908800000004,0.039999987,0.039999995,-9.821084500000085,0.005856418050719061,-0.0015924082499346455,-0.0014749210499493156,-0.009972566273009029,-0.0003002443599896282
0.2275,0.00024398418199655751,-0.7848543000000087,6.88037879987204e-05,-2.355864644999998,9.108695200009487e-05,1.5709302950000021,0.7859905440000003,0.0399999861,0.039999993500000004,-9.821009950000086,0.005949343182038843,-0.0016494385049339194,-0.0015191496149487525,-0.01001996886910959,-0.00030929512598951294
0.23,0.00024695518399651966,-0.7848468000000088,6.990813599870634e-05,-2.3558666399999977,9.100506400009593e-05,1.570928540000002,0.7859902080000004,0.039999985200000004,0.039999992,-9.820935400000087,0.0060422683133586255,-0.0017064687599331932,-0.0015633781799481894,-0.010067371465210152,-0.0003183458919893977
0.2325,0.00024992618599648187,-0.7848393000000089,7.101248399869228e-05,-2.355868634999998,9.092317600009697e-05,1.570926785000002,0.7859898720000004,0.039999984300000006,0.0399999905,-9.820860850000088,0.0061351934446784075,-0.0017634990149324673,-0.0016076067449476263,-0.010114774061310712,-0.00032739665798928245
0.23500000000000001,0.0002533011309957188,-0.7848318850000088,7.226669449840917e-05,-2.355870089999999,9.08299290001184e-05,1.5709247400000026,0.7859893790000007,0.0399999833,0.0399999894,-9.820790100000082,0.00622872514638994,-0.0018224604299282741,-0.0016554229499406222,-0.010157926101188364,-0.00033717714398785715
0.23750000000000002,0.0002568780474956733,-0.784824512500009,7.359583624839225e-05,-2.355871274999999,9.073100250011965e-05,1.5709225500000026,0.7859888075000007,0.03999998225,0.0399999885,-9.820721250000084,0.0063225601332989705,-0.001882387424927511,-0.0017050329749399907,-0.010198952862943199,-0.00034732248998772797
0.24,0.0002604549639956277,-0.784817140000009,7.492497799837531e-05,-2.3558724599999987,9.063207600012092e-05,1.5709203600000026,0.7859882360000007,0.0399999812,0.0399999876,-9.820652400000084,0.006416395120208,-0.0019423144199267476,-0.0017546429999393584,-0.01023997962469803,-0.0003574678359875987
0.2425,0.0002640318804955822,-0.7848097675000091,7.625411974835838e-05,-2.3558736449999986,9.053314950012218e-05,1.5709181700000028,0.7859876645000007,0.03999998015,0.039999986700000004,-9.820583550000086,0.00651023010711703,-0.0020022414149259843,-0.0018042530249387269,-0.010281006386452863,-0.00036761318198746956
0.245,0.0002676087969955366,-0.7848023950000091,7.758326149834146e-05,-2.3558748299999985,9.043422300012343e-05,1.5709159800000028,0.7859870930000007,0.0399999791,0.039999985800000006,-9.820514700000086,0.0066040650940260605,-0.0020621684099252214,-0.0018538630499380952,-0.010322033148207696,-0.0003777585279873404
0.2475,0.00027118571349549106,-0.7847950225000092,7.891240324832454e-05,-2.3558760149999984,9.03352965001247e-05,1.5709137900000028,0.7859865215000007,0.03999997805,0.0399999849,-9.820445850000088,0.006697900080935091,-0.0021220954049244586,-0.0019034730749374635,-0.010363059909962528,-0.0003879038739872112
0.25,0.0002747626299954455,-0.7847876500000094,8.024154499830761e-05,-2.355877199999999,9.023637000012595e-05,1.570911600000003,0.7859859500000008,0.039999977,0.039999984,-9.820377000000088,0.006791735067844121,-0.0021820223999236958,-0.0019530830999368318,-0.01040408667171736,-0.00039804921998708203
0.2525,0.000279012144994535,-0.7847803525000093,8.182018324796983e-05,-2.3558774099999997,9.011851050015156e-05,1.5709088850000035,0.7859853770000008,0.0399999764,0.039999984,-9.820333425000056,0.006870425562273083,-0.002228572319940136,-0.0020073623099301956,-0.010441506281446952,-0.0004094439579853461
0.255,0.0002832616599944809,-0.7847730550000094,8.339882149794973e-05,-2.35587762,9.000065100015307e-05,1.5709061700000035,0.7859848040000008,0.039999975800000004,0.039999984,-9.820289850000057,0.00694911605668276,-0.002275122239939543,-0.0020616415199295043,-0.01047892589117195,-0.00042083869598520104
0.2575,0.0002875111749944268,-0.7847657575000095,8.497745974792964e-05,-2.35587783,8.988279150015457e-05,1.5709034550000036,0.7859842310000007,0.0399999752,0.039999984,-9.820246275000057,0.007027806551092438,-0.0023216721599389504,-0.0021159207299288134,-0.01051634550089695,-0.000432233433985056
0.26,0.0002917606899943727,-0.7847584600000096,8.655609799790954e-05,-2.35587804,8.976493200015606e-05,1.5709007400000037,0.7859836580000007,0.0399999746,0.039999984,-9.820202700000058,0.007106497045502117,-0.0023682220799383577,-0.002170199939928122,-0.010553765110621949,-0.00044362817198491085
0.2625,0.0002960102049943186,-0.7847511625000098,8.813473624788944e-05,-2.35587825,8.964707250015757e-05,1.5708980250000035,0.7859830850000007,0.039999974,0.039999984,-9.820159125000059,0.007185187539911795,-0.002414771999937765,-0.0022244791499274313,-0.010591184720346947,-0.0004550229099847658
0.265,0.0003002597199942645,-0.7847438650000098,8.971337449786933e-05,-2.3558784599999996,8.952921300015907e-05,1.5708953100000036,0.7859825120000007,0.0399999734,0.039999984,-9.82011555000006,0.007263878034321472,-0.0024613219199371723,-0.00227875835992674,-0.010628604330071945,-0.0004664176479846207
0.2675,0.0003047560999932014,-0.7847365600000099,9.1383573997475e-05,-2.355878395000001,8.940445720018876e-05,1.5708925300000038,0.7859819285000008,0.03999997285,0.0399999838,-9.820083225000014,0.007353374524821869,-0.002507064579939879,-0.0023350220749179377,-0.010664704581677007,-0.0004781495149830977
0.27,0.00030974620999313785,-0.78472924000001,9.32368959974514e-05,-2.355877780000001,8.926590880019052e-05,1.570889620000004,0.7859813240000008,0.0399999724,0.039999983200000006,-9.820073400000014,0.00746448300763579,-0.0025511927199393172,-0.002395254799917171,-0.010698166117026066,-0.0004905556399829397
0.2725,0.0003147363199930743,-0.7847219200000102,9.509021799742781e-05,-2.3558771650000008,8.912736040019229e-05,1.570886710000004,0.7859807195000008,0.039999971950000004,0.039999982600000004,-9.820063575000015,0.00757559149044971,-0.0025953208599387555,-0.0024554875249164043,-0.010731627652375125,-0.0005029617649827818
0.275,0.00031972642999301076,-0.7847146000000103,9.694353999740421e-05,-2.355876550000001,8.898881200019405e-05,1.570883800000004,0.7859801150000009,0.0399999715,0.039999982,-9.820053750000014,0.00768669997326363,-0.002639448999938194,-0.002515720249915637,-0.010765089187724184,-0.0005153678899826238
0.2775,0.00032471653999294723,-0.7847072800000103,9.879686199738061e-05,-2.355875935000001,8.885026360019581e-05,1.570880890000004,0.7859795105000008,0.03999997105,0.0399999814,-9.820043925000014,0.0077978084560775505,-0.0026835771399376317,-0.0025759529749148705,-0.010798550723073242,-0.0005277740149824658
0.28,0.0003297066499928837,-0.7846999600000104,0.00010065018399735702,-2.355875320000001,8.871171520019758e-05,1.5708779800000041,0.7859789060000009,0.039999970600000004,0.0399999808,-9.820034100000015,0.007908916938891472,-0.00272770527993707,-0.0026361856999141033,-0.010832012258422301,-0.0005401801399823079
0.28250000000000003,0.0003346967599928202,-0.7846926400000105,0.00010250350599733342,-2.355874705000001,8.857316680019934e-05,1.570875070000004,0.7859783015000009,0.03999997015,0.0399999802,-9.820024275000014,0.008020025421705391,-0.0027718334199365083,-0.0026964184249133366,-0.01086547379377136,-0.0005525862649821499
0.28500000000000003,0.0003402265999915815,-0.7846852600000107,0.00010455700339687398,-2.3558733400000027,8.841950660023401e-05,1.570871820000005,0.7859775260000013,0.039999969600000004,0.0399999797,-9.820013600000017,0.008120409119736284,-0.0028203743199263385,-0.0027605602099040586,-0.010895908344495,-0.0005657640959803118
0.28750000000000003,0.0003460263049915076,-0.7846778500000109,0.00010671058849684656,-2.3558716000000026,8.825829050023606e-05,1.570868400000005,0.7859766650000013,0.039999969,0.03999997925,-9.820002500000017,0.008215430425340838,-0.0028711215999256924,-0.002826656524903217,-0.0109248294028961,-0.000579327779980139
0.29,0.00035182600999143364,-0.784670440000011,0.0001088641735968191,-2.3558698600000025,8.809707440023812e-05,1.570864980000005,0.7859758040000013,0.0399999684,0.039999978799999995,-9.819991400000017,0.008310451730945391,-0.002921868879925045,-0.002892752839902374,-0.010953750461297202,-0.000592891463979966
0.2925,0.0003576257149913598,-0.784663030000011,0.00011101775869679167,-2.3558681200000025,8.793585830024017e-05,1.570861560000005,0.7859749430000013,0.0399999678,0.03999997835,-9.819980300000017,0.008405473036549945,-0.002972616159924399,-0.0029588491549015325,-0.010982671519698305,-0.0006064551479797933
0.295,0.000363425419991286,-0.7846556200000111,0.00011317134379676426,-2.355866380000003,8.777464220024223e-05,1.570858140000005,0.7859740820000013,0.0399999672,0.0399999779,-9.819969200000017,0.008500494342154502,-0.0030233634399237526,-0.0030249454699006906,-0.011011592578099406,-0.0006200188319796207
0.2975,0.00036922512499121214,-0.7846482100000113,0.00011532492889673683,-2.3558646400000027,8.761342610024428e-05,1.5708547200000051,0.7859732210000013,0.0399999666,0.03999997745,-9.819958100000017,0.008595515647759056,-0.0030741107199231065,-0.003091041784899849,-0.011040513636500509,-0.000633582515979448
0.3,0.0003750248299911383,-0.7846408000000114,0.00011747851399670941,-2.3558629000000026,8.745221000024633e-05,1.5708513000000053,0.7859723600000014,0.039999966,0.039999977,-9.819947000000019,0.008690536953363612,-0.0031248579999224604,-0.0031571380998990078,-0.01106943469490161,-0.0006471461999792752
0.3025,0.0003817039879897095,-0.7846332340000117,0.00011995822789617953,-2.3558600350000045,8.726631350028641e-05,1.570847370000006,0.7859715005000013,0.0399999651,0.039999977,-9.81991430000005,0.008783257286852737,-0.0031646249949387312,-0.0032282508348904374,-0.011094116745478612,-0.0006620119409770965
0.305,0.0003883831459896245,-0.7846256680000118,0.00012243794179614797,-2.3558571700000046,8.708041700028878e-05,1.570843440000006,0.7859706410000014,0.0399999642,0.039999977,-9.819881600000052,0.008875977620338347,-0.003204391989938225,-0.003299363569889532,-0.011118798796049139,-0.0006768776819769072
0.3075,0.00039506230398953944,-0.7846181020000119,0.00012491765569611638,-2.3558543050000047,8.689452050029114e-05,1.570839510000006,0.7859697815000014,0.039999963300000003,0.039999977,-9.819848900000052,0.008968697953823957,-0.0032441589849377186,-0.0033704763048886264,-0.011143480846619664,-0.000691743422976718
0.31,0.0004017414619894544,-0.784610536000012,0.00012739736959608482,-2.355851440000005,8.670862400029352e-05,1.5708355800000062,0.7859689220000013,0.0399999624,0.039999977,-9.819816200000052,0.009061418287309565,-0.0032839259799372126,-0.0034415890398877213,-0.011168162897190189,-0.0007066091639765287
0.3125,0.00040842061998936936,-0.7846029700000121,0.00012987708349605326,-2.355848575000005,8.652272750029588e-05,1.5708316500000061,0.7859680625000014,0.0399999615,0.039999977,-9.819783500000053,0.009154138620795175,-0.003323692974936706,-0.0035127017748868158,-0.011192844947760716,-0.0007214749049763395
0.315,0.0004150997779892843,-0.7845954040000122,0.00013235679739602167,-2.3558457100000045,8.633683100029824e-05,1.5708277200000063,0.7859672030000013,0.0399999606,0.039999977,-9.819750800000053,0.009246858954280785,-0.0033634599699362,-0.0035838145098859102,-0.01121752699833124,-0.0007363406459761501
0.3175,0.0004220955674876632,-0.7845877705000126,0.0001349539249954205,-2.3558424600000065,8.614210150034347e-05,1.5708236050000073,0.7859662485000019,0.0399999599,0.0399999768,-9.81971680000006,0.009332494484145025,-0.003403194449935851,-0.003657012064874891,-0.011240964289720705,-0.0007515570999742595
0.32,0.00042972461998756604,-0.7845800020000127,0.00013778587999538445,-2.3558384400000065,8.592970600034617e-05,1.5708191200000072,0.7859651040000019,0.0399999596,0.0399999762,-9.819680200000061,0.009403960406663685,-0.0034428638999353463,-0.0037343792598739057,-0.011261912062729978,-0.0007674749799740568
0.3225,0.00043735367248746895,-0.7845722335000128,0.0001406178349953484,-2.3558344200000065,8.571731050034887e-05,1.5708146350000074,0.7859639595000019,0.0399999593,0.0399999756,-9.819643600000061,0.009475426329182345,-0.003482533349934841,-0.003811746454872921,-0.011282859835739251,-0.0007833928599738541
0.325,0.0004449827249873718,-0.7845644650000129,0.00014344978999531233,-2.3558304000000065,8.550491500035158e-05,1.5708101500000073,0.7859628150000019,0.039999959,0.039999975,-9.819607000000062,0.009546892251701005,-0.003522202799934336,-0.003889113649871936,-0.011303807608748526,-0.0007993107399736515
0.3275,0.00045261177748727466,-0.784556696500013,0.00014628174499527628,-2.355826380000007,8.529251950035428e-05,1.5708056650000075,0.7859616705000019,0.039999958700000005,0.0399999744,-9.819570400000062,0.009618358174219665,-0.003561872249933831,-0.003966480844870951,-0.0113247553817578,-0.0008152286199734489
0.33,0.00046024082998717756,-0.7845489280000131,0.00014911369999524022,-2.355822360000007,8.508012400035698e-05,1.5708011800000077,0.7859605260000019,0.0399999584,0.039999973800000005,-9.819533800000062,0.009689824096738325,-0.003601541699933326,-0.004043848039869966,-0.011345703154767073,-0.0008311464999732462
0.3325,0.0004678698824870804,-0.7845411595000132,0.00015194565499520416,-2.355818340000007,8.486772850035969e-05,1.5707966950000076,0.7859593815000019,0.0399999581,0.039999973200000004,-9.819497200000063,0.009761290019256985,-0.0036412111499328206,-0.00412121523486898,-0.011366650927776346,-0.0008470643799730435
0.335,0.00047617944998524164,-0.7845331990000138,0.0001550299489945223,-2.355813550000009,8.463631600041107e-05,1.5707918000000087,0.7859582400000019,0.039999957200000005,0.039999972300000006,-9.819491299999983,0.009859376959312573,-0.0036758344199452303,-0.004201921929859449,-0.011385212652355555,-0.0008637758519708099
0.3375,0.0004848292749851315,-0.7845251425000138,0.00015824041249448142,-2.355808375000009,8.439539500041413e-05,1.5707867000000089,0.785957100000002,0.039999956,0.03999997125,-9.819500749999984,0.009970774408238315,-0.0037079345999448217,-0.0042842983748584,-0.01140258135271062,-0.000880884119970592
0.34,0.0004934790999850214,-0.7845170860000139,0.00016145087599444055,-2.355803200000009,8.41544740004172e-05,1.5707816000000088,0.7859559600000019,0.0399999548,0.0399999702,-9.819510199999984,0.010082171857164058,-0.003740034779944413,-0.004366674819857351,-0.011419950053065684,-0.0008979923879703742
0.3425,0.0005021289249849113,-0.784509029500014,0.00016466133949439966,-2.3557980250000092,8.391355300042026e-05,1.570776500000009,0.7859548200000019,0.039999953600000006,0.03999996915,-9.819519649999982,0.010193569306089799,-0.0037721349599440044,-0.0044490512648563026,-0.011437318753420748,-0.0009151006559701564
0.34500000000000003,0.0005107787499848011,-0.7845009730000141,0.0001678718029943588,-2.355792850000009,8.367263200042333e-05,1.570771400000009,0.785953680000002,0.039999952400000004,0.0399999681,-9.819529099999983,0.01030496675501554,-0.0038042351399435958,-0.004531427709855254,-0.01145468745377581,-0.0009322089239699386
0.34750000000000003,0.000519428574984691,-0.7844929165000142,0.0001710822664943179,-2.355787675000009,8.343171100042639e-05,1.570766300000009,0.785952540000002,0.0399999512,0.03999996705,-9.819538549999983,0.010416364203941281,-0.003836335319943187,-0.004613804154854205,-0.011472056154130874,-0.0009493171919697207
0.35000000000000003,0.0005280783999845808,-0.7844848600000143,0.00017429272999427704,-2.3557825000000094,8.319079000042946e-05,1.570761200000009,0.785951400000002,0.03999995,0.039999966,-9.819547999999983,0.010527761652867023,-0.0038684354999427785,-0.004696180599853156,-0.011489424854485938,-0.000966425459969503
0.3525,0.00053782019048251,-0.784476466000015,0.00017790808549350917,-2.3557760950000115,8.291930650048741e-05,1.5707554700000104,0.7859499660000026,0.03999994895,0.0399999651,-9.819539750000015,0.010614699032001502,-0.003902393249939034,-0.004784903604840711,-0.011503367591624182,-0.0009848546159669132
0.355,0.000547561980982386,-0.7844680720000151,0.00018152344099346313,-2.355769690000012,8.264782300049086e-05,1.5707497400000103,0.7859485320000026,0.0399999479,0.0399999642,-9.819531500000014,0.01070163641109238,-0.0039363509999386015,-0.0048736266098395814,-0.01151731032875632,-0.0010032837719666785
0.3575,0.000557303771482262,-0.7844596780000153,0.00018513879649341712,-2.3557632850000116,8.237633950049433e-05,1.5707440100000105,0.7859470980000026,0.03999994685,0.039999963300000003,-9.819523250000014,0.010788573790183258,-0.003970308749938169,-0.004962349614838451,-0.011531253065888458,-0.001021712927966444
0.36,0.000567045561982138,-0.7844512840000154,0.00018875415199337108,-2.3557568800000115,8.210485600049778e-05,1.5707382800000105,0.7859456640000027,0.039999945800000006,0.0399999624,-9.819515000000015,0.010875511169274137,-0.004004266499937736,-0.005051072619837322,-0.011545195803020596,-0.0010401420839662094
0.3625,0.0005767873524820139,-0.7844428900000154,0.00019236950749332505,-2.355750475000012,8.183337250050124e-05,1.5707325500000107,0.7859442300000027,0.03999994475,0.0399999615,-9.819506750000015,0.010962448548365014,-0.004038224249937304,-0.005139795624836192,-0.011559138540152733,-0.0010585712399659747
0.365,0.0005865291429818899,-0.7844344960000156,0.000195984862993279,-2.3557440700000116,8.15618890005047e-05,1.5707268200000106,0.7859427960000027,0.039999943700000005,0.0399999606,-9.819498500000014,0.011049385927455893,-0.004072181999936872,-0.005228518629835063,-0.011573081277284871,-0.00107700039596574
0.3675,0.0005966586764795885,-0.7844259550000166,0.00019974397999242573,-2.355737260000014,8.12796055005688e-05,1.570720885000012,0.7859413630000027,0.039999942850000005,0.0399999599,-9.819493899999994,0.011135721998129842,-0.0041061915749361485,-0.005318961714824275,-0.011586007056737369,-0.0010957860249635038
0.37,0.0006075636959794497,-0.7844171200000166,0.00020379061999237422,-2.355729640000014,8.097572200057267e-05,1.570714540000012,0.7859399320000027,0.0399999424,0.0399999596,-9.819496599999995,0.011220855451959829,-0.004140304799935714,-0.0054128449598230795,-0.011596898920813494,-0.0011152845999632555
0.3725,0.0006184687154793108,-0.7844082850000168,0.0002078372599923227,-2.355722020000014,8.067183850057654e-05,1.5707081950000121,0.7859385010000027,0.03999994195,0.0399999593,-9.819499299999995,0.011305988905789814,-0.00417441802493528,-0.005506728204821884,-0.011607790784889622,-0.001134783174963007
0.375,0.000629373734979172,-0.7843994500000169,0.00021188389999227117,-2.3557144000000143,8.03679550005804e-05,1.5707018500000123,0.7859370700000028,0.039999941500000004,0.039999959,-9.819501999999995,0.011391122359619801,-0.004208531249934845,-0.005600611449820689,-0.011618682648965747,-0.0011542817499627588
0.3775,0.0006402787544790332,-0.7843906150000169,0.00021593053999221964,-2.3557067800000144,8.006407150058427e-05,1.5706955050000122,0.7859356390000027,0.03999994105,0.039999958700000005,-9.819504699999994,0.011476255813449786,-0.0042426444749344115,-0.005694494694819493,-0.011629574513041873,-0.0011737803249625106
0.38,0.0006511837739788944,-0.7843817800000171,0.00021997717999216811,-2.3556991600000146,7.976018800058814e-05,1.5706891600000124,0.7859342080000028,0.0399999406,0.0399999584,-9.819507399999996,0.011561389267279773,-0.004276757699933977,-0.005788377939818299,-0.011640466377118,-0.0011932788999622624
0.3825,0.0006620887934787555,-0.7843729450000172,0.00022402381999211659,-2.3556915400000147,7.945630450059201e-05,1.5706828150000125,0.7859327770000029,0.039999940149999996,0.0399999581,-9.819510099999995,0.011646522721109758,-0.004310870924933543,-0.005882261184817103,-0.011651358241194126,-0.0012127774749620141
0.385,0.0006738168199761959,-0.7843638250000182,0.00022837560999116753,-2.3556830000000177,7.912941400066355e-05,1.5706759800000138,0.7859311560000034,0.03999994,0.039999958200000005,-9.81950430000002,0.011709624342518167,-0.004349113359920963,-0.005980489289803128,-0.011660370137526653,-0.001233157239959174
0.3875,0.0006859563499760414,-0.7843545625000183,0.0002328799749911102,-2.355674000000018,7.879102000066785e-05,1.570668900000014,0.7859294400000034,0.03999994,0.0399999585,-9.81949425000002,0.011761710047619004,-0.00438942039992045,-0.00608088982480185,-0.01166844204997912,-0.0012539775999589088
0.39,0.0006980958799758869,-0.7843453000000185,0.00023738433999105282,-2.355665000000018,7.845262600067217e-05,1.5706618200000142,0.7859277240000034,0.03999994,0.0399999588,-9.819484200000021,0.01181379575271984,-0.004429727439919937,-0.006181290359800571,-0.011676513962431587,-0.0012747979599586439
0.3925,0.0007102354099757323,-0.7843360375000186,0.00024188870499099548,-2.355656000000018,7.811423200067647e-05,1.5706547400000141,0.7859260080000035,0.03999994,0.0399999591,-9.81947415000002,0.011865881457820677,-0.004470034479919423,-0.006281690894799293,-0.011684585874884055,-0.0012956183199583787
0.395,0.0007223749399755778,-0.7843267750000187,0.00024639306999093815,-2.355647000000018,7.777583800068079e-05,1.5706476600000143,0.7859242920000035,0.03999994,0.0399999594,-9.81946410000002,0.011917967162921515,-0.00451034151991891,-0.006382091429798014,-0.011692657787336521,-0.0013164386799581138
0.3975,0.0007345144699754232,-0.7843175125000188,0.0002508974349908808,-2.355638000000018,7.743744400068509e-05,1.5706405800000143,0.7859225760000035,0.03999994,0.039999959700000004,-9.81945405000002,0.011970052868022352,-0.004550648559918397,-0.006482491964796736,-0.011700729699788989,-0.0013372590399578486
0.4,0.0007466539999752686,-0.7843082500000189,0.0002554017999908234,-2.355629000000018,7.70990500006894e-05,1.5706335000000144,0.7859208600000035,0.03999994,0.03999996,-9.819444000000022,0.01202213857312319,-0.004590955599917884,-0.0065828924997954575,-0.011708801612241455,-0.0013580793999575834
0.4025,0.0007600991599724375,-0.7842984475000201,0.00026039022998977375,-2.355618650000021,7.672429900076824e-05,1.570625640000016,0.7859190360000038,0.03999994,0.03999996,-9.819460049999968,0.012129009794224736,-0.00461753613994551,-0.006688484624783537,-0.011713637271886032,-0.0013799650149551347
0.405,0.0007735443199722664,-0.7842886450000203,0.00026537865998971027,-2.3556083000000214,7.634954800077301e-05,1.5706177800000163,0.7859172120000038,0.03999994,0.03999996,-9.819476099999967,0.012235881015437895,-0.0046441166799451716,-0.0067940767497821925,-0.011718472931524015,-0.0014018506299548561
0.40750000000000003,0.0007869894799720951,-0.7842788425000203,0.00027036708998964674,-2.3555979500000217,7.597479700077778e-05,1.5706099200000163,0.7859153880000038,0.03999994,0.03999996,-9.819492149999967,0.012342752236651053,-0.004670697219944834,-0.006899668874780848,-0.011723308591161998,-0.0014237362449545773
0.41000000000000003,0.0008004346399719239,-0.7842690400000205,0.0002753555199895832,-2.3555876000000215,7.560004600078255e-05,1.5706020600000166,0.7859135640000039,0.03999994,0.03999996,-9.819508199999968,0.012449623457864213,-0.004697277759944495,-0.007005260999779504,-0.011728144250799983,-0.0014456218599542988
0.41250000000000003,0.0008138797999717528,-0.7842592375000206,0.00028034394998951973,-2.355577250000022,7.522529500078733e-05,1.5705942000000166,0.7859117400000039,0.03999994,0.03999996,-9.819524249999967,0.012556494679077372,-0.004723858299944156,-0.0071108531247781595,-0.011732979910437966,-0.00146750747495402
0.41500000000000004,0.0008273249599715816,-0.7842494350000206,0.0002853323799894562,-2.355566900000022,7.48505440007921e-05,1.5705863400000166,0.7859099160000039,0.03999994,0.03999996,-9.819540299999966,0.01266336590029053,-0.0047504388399438185,-0.007216445249776815,-0.011737815570075949,-0.0014893930899537414
0.4175,0.0008412289599683483,-0.7842394400000221,0.0002904909249882574,-2.355556095000025,7.446296750088245e-05,1.5705782250000184,0.7859080325000043,0.03999994,0.0399999603,-9.81955579999997,0.012759058037616075,-0.004779162589929507,-0.00732404904976162,-0.011741881165648001,-0.0015117173299504531
0.42,0.0008560506399677551,-0.7842290600000226,0.00029598969998803734,-2.3555443800000258,7.404974000089899e-05,1.5705696000000189,0.7859060300000044,0.03999994,0.039999961199999996,-9.81957019999997,0.01283239200695288,-0.0048121727599281855,-0.007435676199757153,-0.011744406633073485,-0.0015349188199495246
0.4225,0.000870872319967162,-0.7842186800000229,0.0003014884749878173,-2.355532665000026,7.363651250091552e-05,1.5705609750000191,0.7859040275000044,0.03999994,0.0399999621,-9.819584599999969,0.012905725976289686,-0.004845182929926865,-0.007547303349752686,-0.01174693210049897,-0.0015581203099485962
0.425,0.0008856939999665689,-0.7842083000000234,0.00030698724998759724,-2.3555209500000265,7.322328500093206e-05,1.5705523500000196,0.7859020250000045,0.03999994,0.039999963,-9.819598999999968,0.012979059945626491,-0.004878193099925544,-0.007658930499748219,-0.011749457567924454,-0.001581321799947668
0.4275,0.0009005156799659758,-0.7841979200000238,0.0003124860249873772,-2.355509235000027,7.28100575009486e-05,1.5705437250000198,0.7859000225000046,0.03999994,0.0399999639,-9.819613399999968,0.013052393914963297,-0.004911203269924223,-0.007770557649743752,-0.011751983035349937,-0.0016045232899467394
0.43,0.0009153373599653827,-0.7841875400000242,0.00031798479998715714,-2.355497520000027,7.239683000096514e-05,1.5705351000000203,0.7858980200000046,0.03999994,0.039999964799999996,-9.819627799999965,0.013125727884300102,-0.004944213439922901,-0.007882184799739286,-0.01175450850277542,-0.001627724779945811
0.4325,0.0009301590399647896,-0.7841771600000247,0.0003234835749869371,-2.355485805000028,7.198360250098167e-05,1.5705264750000205,0.7858960175000047,0.03999994,0.039999965699999994,-9.819642199999965,0.013199061853636907,-0.0049772236099215805,-0.007993811949734817,-0.011757033970200906,-0.0016509262699448825
0.435,0.0009459453799612929,-0.7841663700000261,0.00032934000998564064,-2.3554731500000314,7.154351860107902e-05,1.5705173000000225,0.7858938350000054,0.03999994,0.039999966,-9.819645400000006,0.013247625064018694,-0.0050166649398985085,-0.008109251699720805,-0.011757859028875819,-0.0016748301599422914
0.4375,0.0009622140499615297,-0.784155375000026,0.0003353752749857285,-2.3554600250000313,7.109000650107242e-05,1.5705078500000225,0.7858915625000054,0.03999994,0.039999966,-9.819643000000005,0.013283802894789826,-0.00505932184989913,-0.008226597749722514,-0.01175783388316631,-0.0016990852499426444
0.44,0.0009784827199617666,-0.7841443800000258,0.0003414105399858163,-2.355446900000031,7.063649440106582e-05,1.5704984000000222,0.7858892900000054,0.03999994,0.039999966,-9.819640600000005,0.013319980725560957,-0.00510197875989975,-0.00834394379972422,-0.011757808737456799,-0.0017233403399429972
0.4425,0.0009947513899620031,-0.7841333850000257,0.00034744580498590415,-2.355433775000031,7.018298230105922e-05,1.570488950000022,0.7858870175000053,0.03999994,0.039999966,-9.819638200000005,0.01335615855633209,-0.005144635669900371,-0.008461289849725929,-0.01175778359174729,-0.0017475954299433502
0.445,0.0010110200599622399,-0.7841223900000255,0.000353481069985992,-2.3554206500000308,6.972947020105262e-05,1.570479500000022,0.7858847450000053,0.03999994,0.039999966,-9.819635800000006,0.01339233638710322,-0.005187292579900992,-0.008578635899727637,-0.011757758446037778,-0.0017718505199437033
0.4475,0.0010272887299624766,-0.7841113950000254,0.00035951633498607983,-2.3554075250000306,6.927595810104603e-05,1.570470050000022,0.7858824725000053,0.03999994,0.039999966,-9.819633400000004,0.013428514217874351,-0.0052299494899016126,-0.008695981949729344,-0.011757733300328269,-0.0017961056099440563
0.45,0.0010435573999627134,-0.7841004000000252,0.00036555159998616767,-2.3553944000000304,6.882244600103942e-05,1.5704606000000219,0.7858802000000052,0.03999994,0.039999966,-9.819631000000005,0.013464692048645484,-0.005272606399902234,-0.008813327999731052,-0.011757708154618757,-0.0018203606999444093
0.4525,0.0010613431249594954,-0.7840887000000266,0.00037214931998497456,-2.355379655000034,6.832657360112929e-05,1.5704502350000238,0.7858777700000056,0.03999994,0.0399999666,-9.819676899999894,0.013561282306689534,-0.0053012423299347855,-0.008936074649720462,-0.011755659338091471,-0.0018459207449417904
0.455,0.0010791288499597542,-0.7840770000000264,0.00037874703998507056,-2.3553649100000333,6.783070120112207e-05,1.5704398700000235,0.7858753400000055,0.03999994,0.0399999672,-9.819722799999896,0.013657872564872045,-0.005329878259935202,-0.009058821299722247,-0.011753610521559547,-0.0018714807899421625
0.4575,0.001096914574960013,-0.7840653000000263,0.00038534475998516657,-2.3553501650000332,6.733482880111486e-05,1.5704295050000234,0.7858729100000055,0.03999994,0.0399999678,-9.819768699999896,0.013754462823054555,-0.0053585141899356184,-0.009181567949724034,-0.011751561705027622,-0.0018970408349425344
0.46,0.0011147002999602718,-0.7840536000000261,0.0003919424799852626,-2.355335420000033,6.683895640110764e-05,1.5704191400000231,0.7858704800000055,0.03999994,0.0399999684,-9.819814599999896,0.013851053081237066,-0.005387150119936035,-0.00930431459972582,-0.011749512888495697,-0.0019226008799429063
0.4625,0.0011324860249605306,-0.7840419000000259,0.0003985401999853586,-2.3553206750000326,6.634308400110043e-05,1.570408775000023,0.7858680500000054,0.03999994,0.039999969,-9.819860499999898,0.013947643339419577,-0.005415786049936452,-0.009427061249727607,-0.011747464071963771,-0.0019481609249432784
0.465,0.0011502717499607895,-0.7840302000000258,0.00040513791998545465,-2.3553059300000325,6.584721160109321e-05,1.5703984100000228,0.7858656200000054,0.03999994,0.039999969600000004,-9.819906399999898,0.014044233597602087,-0.005444421979936869,-0.009549807899729392,-0.011745415255431846,-0.0019737209699436506
0.4675,0.0011685863149572214,-0.7840182630000274,0.00041193171698413166,-2.355290680000036,6.533659200119271e-05,1.5703877450000248,0.7858631250000058,0.03999994035,0.0399999705,-9.819940649999975,0.014128387998658634,-0.005476548219913642,-0.009674477574716208,-0.011742574209357108,-0.0019996683499409916
0.47000000000000003,0.0011879585599564463,-0.7840058520000279,0.0004191176679838441,-2.3552744200000366,6.479647800121432e-05,1.5703764800000253,0.785860500000006,0.039999941399999996,0.039999972,-9.819951599999975,0.014187670685217597,-0.005515655079912077,-0.009802993299711064,-0.01173814870418109,-0.002026390399939922
0.47250000000000003,0.0012073308049556709,-0.7839934410000284,0.0004263036189835565,-2.3552581600000373,6.425636400123593e-05,1.5703652150000258,0.785857875000006,0.03999994245,0.0399999735,-9.819962549999975,0.014246953371776559,-0.005554761939910512,-0.009931509024705921,-0.011733723199005073,-0.002053112449938853
0.47500000000000003,0.0012267030499548957,-0.7839810300000289,0.000433489569983269,-2.355241900000038,6.371625000125754e-05,1.5703539500000263,0.7858552500000061,0.039999943499999996,0.03999997499999999,-9.819973499999975,0.014306236058335522,-0.005593868799908947,-0.010060024749700778,-0.011729297693829055,-0.0020798344999377835
0.47750000000000004,0.0012460752949541205,-0.7839686190000295,0.00044067552098298144,-2.3552256400000386,6.317613600127916e-05,1.5703426850000266,0.7858526250000062,0.03999994455,0.03999997649999999,-9.819984449999973,0.014365518744894485,-0.005632975659907383,-0.010188540474695635,-0.011724872188653037,-0.002106556549936714
0.48,0.001265447539953345,-0.78395620800003,0.00044786147198269373,-2.3552093800000393,6.263602200130078e-05,1.5703314200000271,0.7858500000000064,0.039999945599999996,0.03999997799999999,-9.819995399999973,0.014424801431453447,-0.005672082519905817,-0.01031705619969049,-0.011720446683477019,-0.0021332785999356443
0.4825,0.0012848197849525697,-0.7839437970000305,0.00045504742298240614,-2.35519312000004,6.20959080013224e-05,1.5703201550000276,0.7858473750000065,0.03999994665,0.03999997949999999,-9.820006349999973,0.014484084118012408,-0.005711189379904252,-0.010445571924685346,-0.011716021178301,-0.002160000649934575
0.485,0.0013052957299480572,-0.7839308500000327,0.00046264253598073325,-2.3551758300000443,6.152508600144797e-05,1.5703082700000301,0.7858445900000071,0.039999947699999996,0.039999980799999994,-9.820023999999949,0.014540056697890024,-0.00574966707990573,-0.010577878249668497,-0.01171012027190767,-0.0021874068599314566
0.4875,0.0013263235249477896,-0.7839176350000329,0.00047044222998063394,-2.355158025000044,6.093891000145543e-05,1.5702960750000303,0.7858417250000072,0.03999994875,0.039999981999999996,-9.820044999999947,0.014594374224408633,-0.005787830199905244,-0.010712079874666788,-0.011703481664897509,-0.0022151551499311035
0.49,0.001347351319947522,-0.783904420000033,0.0004782419239805346,-2.3551402200000444,6.0352734001462896e-05,1.5702838800000305,0.7858388600000071,0.0399999498,0.0399999832,-9.820065999999947,0.014648691750927242,-0.005825993319904758,-0.010846281499665078,-0.011696843057887348,-0.00224290343993075
0.4925,0.0013683791149472543,-0.7838912050000332,0.0004860416179804353,-2.3551224150000447,5.976655800147036e-05,1.5702716850000307,0.7858359950000071,0.03999995084999999,0.039999984399999994,-9.820086999999948,0.01470300927744585,-0.0058641564399042724,-0.010980483124663369,-0.011690204450877187,-0.0022706517299303968
0.495,0.0013894069099469864,-0.7838779900000333,0.0004938413119803361,-2.355104610000045,5.918038200147782e-05,1.5702594900000308,0.7858331300000072,0.0399999519,0.039999985599999996,-9.820107999999946,0.014757326803964459,-0.005902319559903786,-0.01111468474966166,-0.011683565843867027,-0.002298400019930043
0.4975,0.0014104347049467187,-0.7838647750000335,0.0005016410059802367,-2.355086805000045,5.859420600148528e-05,1.570247295000031,0.7858302650000072,0.039999952949999994,0.0399999868,-9.820128999999946,0.014811644330483067,-0.0059404826799033,-0.011248886374659952,-0.011676927236856866,-0.00232614830992969
0.5,0.001431462499946451,-0.7838515600000336,0.0005094406999801374,-2.355069000000045,5.800803000149275e-05,1.5702351000000312,0.7858274000000073,0.039999954,0.039999988,-9.820149999999947,0.014865961857001677,-0.0059786457999028144,-0.011383087999658243,-0.011670288629846707,-0.0023538965999293365
0.5025000000000001,0.0014542139149417725,-0.783837511000036,0.0005178794149784028,-2.35504939500005,5.737373880162334e-05,1.5702219300000337,0.7858242800000079,0.039999954899999995,0.039999989799999996,-9.820159449999975,0.014873783988858056,-0.006029107479870854,-0.011522758099642542,-0.011661932151785941,-0.002382914684925734
0.505,0.0014769653299414823,-0.7838234620000362,0.0005263181299782952,-2.3550297900000503,5.673944760163143e-05,1.5702087600000338,0.785821160000008,0.039999955799999994,0.03999999159999999,-9.820168899999976,0.014881606120596032,-0.00607956915987021,-0.011662428199640761,-0.011653575673720804,-0.0024119327699253642
0.5075000000000001,0.001499716744941193,-0.7838094130000364,0.000534756844978188,-2.355010185000051,5.610515640163949e-05,1.5701955900000342,0.7858180400000081,0.0399999567,0.039999993399999996,-9.820178349999976,0.014889428252334008,-0.006130030839869569,-0.011802098299638986,-0.011645219195655665,-0.0024409508549249953
0.51,0.0015224681599409029,-0.7837953640000365,0.0005431955599780803,-2.354990580000051,5.547086520164758e-05,1.5701824200000343,0.7858149200000081,0.0399999576,0.0399999952,-9.820187799999976,0.014897250384071982,-0.006180492519868925,-0.011941768399637205,-0.011636862717590526,-0.002469968939924625
0.5125,0.0015452195749406127,-0.7837813150000367,0.0005516342749779726,-2.354970975000051,5.483657400165567e-05,1.5701692500000344,0.7858118000000082,0.039999958499999995,0.039999996999999995,-9.820197249999977,0.014905072515809957,-0.006230954199868281,-0.012081438499635423,-0.011628506239525388,-0.002498987024924255
0.515,0.0015679709899403236,-0.7837672660000369,0.0005600729899778654,-2.3549513700000517,5.420228280166373e-05,1.5701560800000345,0.7858086800000083,0.0399999594,0.0399999988,-9.820206699999975,0.014912894647547933,-0.00628141587986764,-0.012221108599633648,-0.011620149761460249,-0.0025280051099238862
0.5175,0.0015913193999353128,-0.7837529250000393,0.0005687330399760076,-2.354931255000056,5.3551355651803366e-05,1.5701425700000373,0.7858054820000089,0.0399999603,0.04,-9.82022454999991,0.014945208234498195,-0.006327552149901198,-0.012362555599617816,-0.011611002078308097,-0.0025573998399205378
0.52,0.001615861799935001,-0.7837380000000396,0.000577835759975892,-2.354910120000056,5.2867156601812065e-05,1.5701283800000374,0.7858021280000089,0.039999961199999996,0.04,-9.820259199999908,0.015026504732453072,-0.006365037599900722,-0.012507556399615974,-0.011600271984963178,-0.002587547859920155
0.5225,0.001640404199934688,-0.7837230750000397,0.0005869384799757759,-2.3548889850000565,5.218295755182079e-05,1.5701141900000377,0.785798774000009,0.039999962099999994,0.04,-9.820293849999908,0.015107801230407943,-0.006402523049900244,-0.012652557199614124,-0.01158954189161826,-0.0026176958799197705
0.525,0.0016649465999343759,-0.7837081500000399,0.0005960411999756601,-2.3548678500000566,5.149875850182949e-05,1.5701000000000378,0.785795420000009,0.039999963,0.04,-9.820328499999908,0.01518909772836282,-0.006440008499899767,-0.012797557999612281,-0.011578811798273341,-0.0026478438999193873
0.5275,0.001689488999934063,-0.7836932250000401,0.000605143919975544,-2.3548467150000567,5.0814559451838214e-05,1.570085810000038,0.7857920660000091,0.0399999639,0.04,-9.820363149999908,0.015270394226317693,-0.006477493949899289,-0.012942558799610432,-0.011568081704928422,-0.0026779919199190027
0.53,0.001714031399933751,-0.7836783000000402,0.0006142466399754284,-2.354825580000057,5.013036040184691e-05,1.5700716200000382,0.7857887120000091,0.039999964799999996,0.04,-9.820397799999906,0.01535169072427257,-0.006514979399898813,-0.013087559599608589,-0.011557351611583503,-0.0027081399399186195
0.5325,0.001738573799933438,-0.7836633750000405,0.0006233493599753123,-2.3548044450000574,4.944616135185564e-05,1.5700574300000385,0.7857853580000091,0.039999965699999994,0.04,-9.820432449999906,0.015432987222227443,-0.006552464849898335,-0.01323256039960674,-0.011546621518238586,-0.002738287959918235
0.535,0.0017643545599280645,-0.7836478540000431,0.0006329112259733199,-2.354781990000063,4.8728860501999623e-05,1.5700425200000416,0.7857818360000098,0.039999966399999996,0.04,-9.820475399999872,0.015485206711934586,-0.006597616159866526,-0.013381185199590084,-0.011535109020801945,-0.002769010869915502
0.5375,0.001790754499927728,-0.7836320350000433,0.0006427026649731951,-2.354758875000063,4.799500875200898e-05,1.5700272500000418,0.7857782300000099,0.039999967,0.04,-9.820522499999871,0.015522887697340145,-0.006646600399865902,-0.013531621999588166,-0.011523205321314662,-0.0028000212249151063
0.54,0.0018171544399273923,-0.7836162160000435,0.0006524941039730706,-2.3547357600000636,4.726115700201831e-05,1.570011980000042,0.78577462400001,0.0399999676,0.04,-9.820569599999871,0.015560568682745706,-0.006695584639865279,-0.013682058799586254,-0.011511301621827378,-0.0028310315799147125
0.5425,0.0018435543799270556,-0.7836003970000437,0.0006622855429729458,-2.3547126450000637,4.652730525202767e-05,1.5699967100000423,0.78577101800001,0.0399999682,0.04,-9.820616699999869,0.015598249668151265,-0.006744568879864654,-0.013832495599584336,-0.011499397922340095,-0.0028620419349143166
0.545,0.00186995431992672,-0.7835845780000439,0.0006720769819728213,-2.3546895300000643,4.5793453502036996e-05,1.5699814400000425,0.78576741200001,0.0399999688,0.04,-9.820663799999869,0.015635930653556826,-0.006793553119864031,-0.013982932399582423,-0.011487494222852812,-0.0028930522899139224
0.5475,0.0018963542599263832,-0.7835687590000441,0.0006818684209726963,-2.3546664150000645,4.5059601752046355e-05,1.5699661700000427,0.7857638060000101,0.0399999694,0.04,-9.820710899999868,0.015673611638962383,-0.0068425373598634065,-0.014133369199580505,-0.011475590523365527,-0.002924062644913527
0.55,0.0019227541999260478,-0.7835529400000443,0.000691659859972572,-2.354643300000065,4.432575000205568e-05,1.569950900000043,0.7857602000000101,0.03999997,0.04,-9.820757999999868,0.015711292624367944,-0.006891521599862784,-0.014283805999578592,-0.011463686823878244,-0.0029550729999131328
0.5525,0.0019510774699202987,-0.7835361415000472,0.0007021643404704406,-2.35461844500007,4.35428014522032e-05,1.5699345050000462,0.7857563450000109,0.03999997045,0.04,-9.82076129999999,0.015741929039272812,-0.00693777265986985,-0.014439534799561782,-0.011449230695184009,-0.0029869779999102198
0.555,0.0019794007399199388,-0.7835193430000474,0.0007126688209703071,-2.3545935900000705,4.275985290221315e-05,1.5699181100000463,0.7857524900000109,0.0399999709,0.04,-9.82076459999999,0.01577256545415795,-0.006984023719869262,-0.014595263599559802,-0.011434774566482623,-0.0030188829999098143
0.5575,0.0020077240099195775,-0.7835025445000477,0.0007231733014701731,-2.3545687350000706,4.197690435222314e-05,1.5699017150000465,0.7857486350000109,0.03999997135,0.04,-9.82076789999999,0.015803201869043083,-0.007030274779868673,-0.014750992399557817,-0.011420318437781237,-0.0030507879999094076
0.56,0.0020360472799192176,-0.783485746000048,0.0007336777819700396,-2.354543880000071,4.119395580223309e-05,1.5698853200000467,0.785744780000011,0.0399999718,0.04,-9.82077119999999,0.01583383828392822,-0.007076525839868084,-0.014906721199555837,-0.011405862309079851,-0.003082692999909002
0.5625,0.0020643705499188564,-0.7834689475000481,0.0007441822624699056,-2.354519025000071,4.041100725224308e-05,1.569868925000047,0.785740925000011,0.03999997225,0.04,-9.82077449999999,0.015864474698813354,-0.007122776899867495,-0.015062449999553851,-0.011391406180378465,-0.003114597999908595
0.5650000000000001,0.0020926938199184964,-0.7834521490000483,0.0007546867429697721,-2.3544941700000717,3.962805870225303e-05,1.5698525300000472,0.7857370700000111,0.0399999727,0.04,-9.82077779999999,0.015895111113698488,-0.007169027959866907,-0.015218178799551871,-0.011376950051677078,-0.0031465029999081895
0.5675,0.002121679769912389,-0.7834349975000516,0.0007654369084675078,-2.3544686950000773,3.8827343852417066e-05,1.5698357600000505,0.7857331200000119,0.039999973,0.03999999975,-9.82078464999996,0.015907074790521267,-0.00722083387481815,-0.015375675699534554,-0.011362123861953876,-0.0031788551299039057
0.5700000000000001,0.002151991079912004,-0.7834171400000519,0.0007766784439673649,-2.3544419800000775,3.7991096402427696e-05,1.5698182400000509,0.785728980000012,0.039999973,0.039999999,-9.820798599999959,0.015881692990734306,-0.007283749499817351,-0.015536708799532508,-0.01134655755017743,-0.003212101519903483
0.5725,0.002182302389911617,-0.7833992825000521,0.0007879199794672215,-2.354415265000078,3.715484895243836e-05,1.569800720000051,0.7857248400000121,0.039999973,0.03999999825,-9.820812549999959,0.015856311190947343,-0.007346665124816548,-0.015697741899530455,-0.011330991238400983,-0.003245347909903059
0.5750000000000001,0.002212613699911232,-0.7833814250000524,0.0007991615149670787,-2.3543885500000785,3.631860150244899e-05,1.5697832000000513,0.7857207000000122,0.039999973,0.0399999975,-9.82082649999996,0.015830929391160382,-0.007409580749815748,-0.015858774999528407,-0.011315424926624537,-0.0032785942999026363
0.5775,0.0022429250099108454,-0.7833635675000525,0.0008104030504669352,-2.354361835000079,3.5482354052459656e-05,1.5697656800000515,0.7857165600000122,0.039999973,0.03999999675,-9.82084044999996,0.01580554759137342,-0.007472496374814946,-0.016019808099526352,-0.01129985861484809,-0.0033118406899022125
0.58,0.002273236319910459,-0.7833457100000528,0.0008216445859667919,-2.354335120000079,3.464610660247032e-05,1.5697481600000516,0.7857124200000122,0.039999973,0.039999996,-9.82085439999996,0.01578016579158646,-0.0075354119998141435,-0.0161808411995243,-0.011284292303071644,-0.0033450870799017884
0.5825,0.0023035476299100737,-0.783327852500053,0.000832886121466649,-2.3543084050000793,3.380985915248095e-05,1.569730640000052,0.7857082800000122,0.039999973,0.03999999525,-9.820868349999959,0.015754783991799495,-0.0075983276248133445,-0.016341874299522254,-0.011268725991295197,-0.003378333469901366
0.585,0.0023352268399035735,-0.7833093200000563,0.000844634823964239,-2.354280350000086,3.293481930266499e-05,1.5697123300000557,0.7857039530000132,0.039999973,0.0399999955,-9.820909299999839,0.015786073170424606,-0.007653712649846199,-0.01650631699950496,-0.011252108775130257,-0.003412448809897058
0.5875,0.0023675899999031622,-0.7832904500000565,0.0008566371099640864,-2.354251625000086,3.204038325267636e-05,1.569693625000056,0.7856995325000132,0.039999973,0.03999999625,-9.820963749999837,0.015845697838634588,-0.007705332374845542,-0.01667246449950285,-0.011234966106764045,-0.003446998624896619
0.59,0.0023999531599027493,-0.7832715800000567,0.0008686393959639333,-2.3542229000000865,3.1145947202687765e-05,1.5696749200000562,0.7856951120000133,0.039999973,0.039999997,-9.821018199999838,0.01590532250684457,-0.007756952099844883,-0.01683861199950073,-0.011217823438397834,-0.003481548439896178
0.5925,0.002432316319902338,-0.7832527100000569,0.0008806416819637807,-2.354194175000087,3.0251511152699132e-05,1.5696562150000564,0.7856906915000134,0.039999973,0.03999999775,-9.821072649999836,0.01596494717505455,-0.007808571824844228,-0.017004759499498617,-0.011200680770031621,-0.003516098254895739
0.595,0.002464679479901925,-0.7832338400000571,0.0008926439679636277,-2.354165450000087,2.935707510271054e-05,1.5696375100000566,0.7856862710000134,0.039999973,0.0399999985,-9.821127099999837,0.016024571843264532,-0.007860191549843569,-0.0171709069994965,-0.01118353810166541,-0.0035506480698952983
0.5975,0.002497042639901514,-0.7832149700000574,0.0009046462539634751,-2.3541367250000875,2.846263905272191e-05,1.5696188050000568,0.7856818505000135,0.039999973,0.03999999925,-9.821181549999835,0.016084196511474514,-0.007911811274842914,-0.017337054499494388,-0.011166395433299198,-0.0035851978848948592
0.6,0.0025294057999011013,-0.7831961000000576,0.000916648539963322,-2.354108000000088,2.7568203002733317e-05,1.569600100000057,0.7856774300000136,0.039999973,0.04,-9.821235999999834,0.016143821179684492,-0.007963430999842255,-0.017503201999492266,-0.011149252764932987,-0.0036197476998944184
0.6025,0.0025638837348932594,-0.7831761425000617,0.0009294348939604146,-2.354077325000095,2.6614192352953525e-05,1.5695801500000617,0.7856727305000145,0.039999972550000006,0.04,-9.821257974999932,0.016151616908585652,-0.008021819999819234,-0.017674429999469894,-0.011130375182314483,-0.003655343959889797
0.605,0.002598361669891879,-0.7831561850000626,0.0009422212479599026,-2.3540466500000963,2.5660181702991725e-05,1.5695602000000626,0.7856680310000147,0.0399999721,0.04,-9.821279949999932,0.016159412637328424,-0.008080208999816896,-0.017845657999463038,-0.011111497599690679,-0.003690940219888372
0.6075,0.0026328396048905,-0.7831362275000634,0.0009550076019593913,-2.3540159750000975,2.4706171053029878e-05,1.5695402500000633,0.7856633315000149,0.03999997165,0.04,-9.821301924999931,0.016167208366071197,-0.00813859799981456,-0.018016885999456188,-0.011092620017066873,-0.0037265364798869482
0.61,0.0026673175398891197,-0.7831162700000641,0.0009677939559588793,-2.3539853000000988,2.375216040306808e-05,1.5695203000000642,0.7856586320000152,0.039999971200000005,0.04,-9.82132389999993,0.01617500409481397,-0.008196986999812222,-0.018188113999449335,-0.01107374243444307,-0.003762132739885523
0.6125,0.0027017954748877406,-0.783096312500065,0.000980580309958368,-2.3539546250001,2.279814975310623e-05,1.569500350000065,0.7856539325000154,0.03999997075,0.04,-9.82134587499993,0.016182799823556745,-0.008255375999809888,-0.018359341999442485,-0.011054864851819264,-0.0037977289998840993
0.615,0.00273627340988636,-0.7830763550000658,0.000993366663957856,-2.3539239500001012,2.1844139103144428e-05,1.5694804000000657,0.7856492330000155,0.03999997030000001,0.04,-9.821367849999929,0.016190595552299517,-0.00831376499980755,-0.018530569999435628,-0.01103598726919546,-0.0038333252598826742
0.6175,0.0027714768048783876,-0.7830560075000701,0.0010064220099548998,-2.3538926200001082,2.0869655003369014e-05,1.5694600250000703,0.7856444330000166,0.03999996980000001,0.04,-9.8213925749999,0.016195791959762548,-0.008373613699791747,-0.018703466599415287,-0.01101667741320261,-0.0038692643448784854
0.62,0.0028081311198789203,-0.7830348800000698,0.0010200153399550973,-2.3538599800001077,1.985422400335426e-05,1.56943880000007,0.7856394320000165,0.039999969200000006,0.04,-9.821422799999901,0.01619578972458837,-0.008436381799792659,-0.01887970039941785,-0.010996503010458741,-0.003905889079879018
0.6225,0.0028447854348794543,-0.7830137525000694,0.0010336086699552955,-2.353827340000107,1.883879300333946e-05,1.5694175750000698,0.7856344310000165,0.039999968600000005,0.04,-9.8214530249999,0.01619578748941419,-0.008499149899793574,-0.019055934199420418,-0.010976328607714872,-0.003942513814879552
0.625,0.002881439749879987,-0.7829926250000692,0.001047201999955493,-2.353794700000107,1.7823362003324705e-05,1.5693963500000694,0.7856294300000164,0.039999968000000004,0.04,-9.8214832499999,0.016195785254240008,-0.008561917999794486,-0.019232167999422976,-0.010956154204971005,-0.003979138549880084
0.6275000000000001,0.0029180940648805215,-0.7829714975000689,0.001060795329955691,-2.3537620600001063,1.6807931003309903e-05,1.5693751250000691,0.7856244290000163,0.0399999674,0.04,-9.821513474999902,0.016195783019065827,-0.0086246860997954,-0.019408401799425545,-0.010935979802227136,-0.004015763284880618
0.63,0.0029547483798810542,-0.7829503700000686,0.0010743886599558887,-2.3537294200001058,1.579250000329515e-05,1.569353900000069,0.7856194280000163,0.0399999668,0.04,-9.821543699999902,0.01619578078389165,-0.008687454199796312,-0.019584635599428107,-0.010915805399483268,-0.00405238801988115
0.6325000000000001,0.0029914026948815882,-0.7829292425000682,0.0010879819899560867,-2.353696780000105,1.4777069003280352e-05,1.5693326750000685,0.7856144270000162,0.0399999662,0.04,-9.821573924999901,0.016195778548717468,-0.008750222299797227,-0.019760869399430676,-0.0108956309967394,-0.0040890127548816844
0.635,0.003029548399874219,-0.7829073350000721,0.0011021282799533545,-2.353662750000112,1.3718894763491425e-05,1.5693106100000727,0.7856092240000172,0.039999965400000004,0.04,-9.821593599999954,0.01615638211388622,-0.008825970199734029,-0.019940387499414097,-0.010874855239012386,-0.0041263889698779045
0.6375000000000001,0.0030684397998737246,-0.7828850375000724,0.0011165510499531713,-2.3536280250001127,1.2639348903505145e-05,1.569288125000073,0.7856039200000172,0.0399999645,0.04,-9.821607999999953,0.01609728857894052,-0.008908207999732983,-0.020121547749411797,-0.010853778803789432,-0.004164140924877425
0.64,0.0031073311998732287,-0.7828627400000727,0.0011309738199529872,-2.3535933000001132,1.1559803043518914e-05,1.5692656400000733,0.7855986160000173,0.0399999636,0.04,-9.821622399999953,0.016038195043994823,-0.008990445799731935,-0.020302707999409485,-0.010832702368566482,-0.004201892879876943
0.6425,0.003146222599872733,-0.782840442500073,0.0011453965899528033,-2.3535585750001133,1.0480257183532683e-05,1.5692431550000736,0.7855933120000174,0.0399999627,0.04,-9.821636799999952,0.01597910150904913,-0.009072683599730886,-0.020483868249407174,-0.010811625933343531,-0.004239644834876461
0.645,0.0031851139998722387,-0.7828181450000733,0.0011598193599526199,-2.353523850000114,9.400711323546402e-06,1.569220670000074,0.7855880080000174,0.039999961800000004,0.04,-9.821651199999954,0.01592000797410343,-0.009154921399729841,-0.020665028499404874,-0.010790549498120578,-0.004277396789875982
0.6475,0.0032240053998717423,-0.7827958475000736,0.001174242129952436,-2.3534891250001144,8.321165463560172e-06,1.569198185000074,0.7855827040000175,0.039999960900000006,0.04,-9.821665599999953,0.01586091443915773,-0.009237159199728793,-0.020846188749402562,-0.010769473062897628,-0.004315148744875499
0.65,0.003262896799871248,-0.7827735500000739,0.0011886648999522526,-2.353454400000115,7.241619603573893e-06,1.5691757000000743,0.7855774000000175,0.03999996,0.04,-9.821679999999953,0.015801820904212033,-0.009319396999727747,-0.02102734899940026,-0.010748396627674675,-0.00435290069987502
0.6525,0.00330408480486312,-0.7827500720000781,0.0012039392349492387,-2.3534175150001224,6.0964530548057386e-06,1.5691518800000792,0.7855718050000186,0.0399999591,0.04,-9.821742549999792,0.01583826206612388,-0.009384044599785157,-0.021213316299381973,-0.010726140020489086,-0.0043916404948712556
0.655,0.003345272809862596,-0.7827265940000784,0.0012192135699490446,-2.353380630000123,4.951286505820294e-06,1.5691280600000794,0.7855662100000187,0.039999958200000005,0.04,-9.821805099999791,0.015874703228352,-0.009448692199784335,-0.02139928359937961,-0.01070388341329959,-0.004430380289870763
0.6575,0.003386460814862071,-0.7827031160000787,0.0012344879049488498,-2.3533437450001236,3.8061199568348995e-06,1.5691042400000799,0.7855606150000187,0.0399999573,0.04,-9.82186764999979,0.015911144390580122,-0.009513339799783511,-0.02158525089937724,-0.010681626806110093,-0.004469120084870269
0.66,0.0034276488198615473,-0.782679638000079,0.0012497622399486557,-2.353306860000124,2.6609534078494543e-06,1.56908042000008,0.7855550200000188,0.0399999564,0.04,-9.82193019999979,0.015947585552808244,-0.00957798739978269,-0.021771218199374873,-0.010659370198920597,-0.004507859879869776
0.6625,0.003468836824861022,-0.7826561600000793,0.0012650365749484608,-2.3532699750001247,1.5157868588640604e-06,1.5690566000000803,0.7855494250000189,0.0399999555,0.04,-9.821992749999788,0.015984026715036365,-0.009642634999781864,-0.021957185499372502,-0.0106371135917311,-0.004546599674869283
0.665,0.0035100248298604985,-0.7826326820000795,0.0012803109099482667,-2.353233090000125,3.7062030987861476e-07,1.5690327800000807,0.7855438300000189,0.0399999546,0.04,-9.822055299999787,0.016020467877264487,-0.009707282599781044,-0.02214315279937014,-0.010614856984541603,-0.0045853394698687905
0.6675,0.0035519978498519665,-0.7826087735000843,0.0012958763099451033,-2.353195475000133,-7.96121302886733e-07,1.5690085100000857,0.7855381250000201,0.039999954,0.04,-9.822104549999922,0.016037526913060936,-0.009775920949739517,-0.022330737149351274,-0.01059211120017478,-0.004624323779865803
0.67,0.0035955408998514134,-0.7825840040000845,0.001312023839944898,-2.3531564000001333,-2.0060130438713554e-06,1.5689833400000859,0.7855322000000202,0.039999954,0.04,-9.822127199999922,0.016015821695401746,-0.009852540799738543,-0.022521555599348847,-0.010568387061438356,-0.004663797119865301
0.6725,0.003639083949850858,-0.7825592345000849,0.001328171369944692,-2.353117325000134,-3.2159047848559242e-06,1.5689581700000863,0.7855262750000203,0.039999954,0.04,-9.822149849999922,0.01599411647774256,-0.009929160649737565,-0.022712374049346416,-0.010544662922701934,-0.004703270459864797
0.675,0.0036826269998503046,-0.7825344650000852,0.001344318899944487,-2.3530782500001344,-4.425796525840547e-06,1.5689330000000865,0.7855203500000203,0.039999954,0.04,-9.822172499999922,0.01597241126008337,-0.010005780499736591,-0.02290319249934399,-0.010520938783965511,-0.004742743799864296
0.6775,0.0037261700498497493,-0.7825096955000854,0.001360466429944281,-2.3530391750001347,-5.635688266825116e-06,1.568907830000087,0.7855144250000204,0.039999954,0.04,-9.822195149999922,0.01595070604242418,-0.010082400349735614,-0.023094010949341555,-0.010497214645229088,-0.0047822171398637925
0.68,0.003769713099849196,-0.7824849260000858,0.0013766139599440757,-2.3530001000001355,-6.845580007809738e-06,1.5688826600000871,0.7855085000000205,0.039999954,0.04,-9.82221779999992,0.01592900082476499,-0.01015902019973464,-0.02328482939933913,-0.010473490506492666,-0.004821690479863291
0.6825,0.0038132561498486406,-0.782460156500086,0.0013927614899438697,-2.352961025000136,-8.055471748794307e-06,1.5688574900000876,0.7855025750000206,0.039999954,0.04,-9.82224044999992,0.015907295607105805,-0.010235640049733662,-0.023475647849336697,-0.010449766367756243,-0.004861163819862787
0.685,0.0038584073098396716,-0.7824345300000909,0.0014095052699405442,-2.3529204600001443,-9.309448195548224e-06,1.5688313900000928,0.7854964200000218,0.0399999536,0.04,-9.822250299999988,0.015841578878768324,-0.010326328899659063,-0.02366950679931836,-0.01042535202586339,-0.00490128026985892
0.6875,0.003904362524839085,-0.7824084750000913,0.0014265471749403268,-2.3528791500001445,-1.058546699553195e-05,1.568804825000093,0.785490150000022,0.039999953,0.04,-9.822253749999987,0.015753856394747065,-0.010424052249657817,-0.02386488599931587,-0.010400592582386922,-0.004941718274858405
0.6900000000000001,0.003950317739838501,-0.7823824200000916,0.0014435890799401102,-2.352837840000145,-1.1861485795515731e-05,1.5687782600000935,0.785483880000022,0.039999952400000004,0.04,-9.822257199999989,0.0156661339107258,-0.010521775599656575,-0.024060265199313386,-0.010375833138910452,-0.00498215627985789
0.6925,0.003996272954837915,-0.7823563650000919,0.001460630984939893,-2.3527965300001457,-1.3137504595499458e-05,1.5687516950000937,0.7854776100000221,0.0399999518,0.04,-9.822260649999988,0.015578411426704538,-0.010619498949655328,-0.024255644399310893,-0.010351073695433982,-0.005022594284857375
0.6950000000000001,0.004042228169837331,-0.7823303100000922,0.0014776728899396762,-2.3527552200001463,-1.441352339548324e-05,1.5687251300000942,0.7854713400000222,0.0399999512,0.04,-9.822264099999988,0.015490688942683272,-0.010717222299654086,-0.02445102359930841,-0.010326314251957512,-0.00506303228985686
0.6975,0.0040881833848367445,-0.7823042550000926,0.001494714794939459,-2.352713910000147,-1.5689542195466965e-05,1.5686985650000944,0.7854650700000223,0.0399999506,0.04,-9.822267549999989,0.015402966458662012,-0.01081494564965284,-0.024646402799305918,-0.010301554808481043,-0.005103470294856345
0.7000000000000001,0.004134138599836161,-0.782278200000093,0.0015117566999392424,-2.3526726000001474,-1.6965560995450748e-05,1.5686720000000949,0.7854588000000223,0.03999995,0.04,-9.822270999999988,0.015315243974640748,-0.010912668999651598,-0.024841781999303435,-0.010276795365004572,-0.00514390829985583
0.7025,0.0041825622598267425,-0.7822508295000979,0.00152971393493575,-2.352628965000156,-1.8313098445178583e-05,1.5686440250001001,0.7854521940000236,0.03999994895,0.04,-9.822334749999772,0.015328231453849052,-0.010990748649720635,-0.02504163674928493,-0.010251052165496048,-0.00518563045485072
0.705,0.0042309859198261255,-0.7822234590000983,0.001547671169935521,-2.352585330000157,-1.9660635895161395e-05,1.5686160500001005,0.7854455880000237,0.039999947900000006,0.04,-9.822398499999771,0.015341218933416405,-0.011068828299719639,-0.02524149149928238,-0.010225308965984016,-0.005227352609850188
0.7075,0.00427940957982551,-0.7821960885000987,0.0015656284049352927,-2.3525416950001574,-2.100817334514427e-05,1.568588075000101,0.7854389820000238,0.03999994685,0.04,-9.82246224999977,0.01535420641298376,-0.011146907949718647,-0.02544134624927984,-0.010199565766471984,-0.005269074764849658
0.71,0.004327833239824892,-0.782168718000099,0.0015835856399350637,-2.352498060000158,-2.235571079512708e-05,1.5685601000001013,0.7854323760000239,0.039999945800000006,0.04,-9.82252599999977,0.015367193892551114,-0.011224987599717651,-0.025641200999277292,-0.010173822566959952,-0.005310796919849125
0.7125,0.004376256899824277,-0.7821413475000993,0.0016015428749348354,-2.3524544250001584,-2.3703248245109954e-05,1.5685321250001014,0.785425770000024,0.03999994475000001,0.04,-9.82258974999977,0.01538018137211847,-0.011303067249716659,-0.02584105574927475,-0.010148079367447918,-0.005352519074848595
0.715,0.004424680559823659,-0.7821139770000997,0.0016195001099346064,-2.352410790000159,-2.5050785695092766e-05,1.5685041500001018,0.7854191640000241,0.039999943700000005,0.04,-9.822653499999769,0.015393168851685823,-0.011381146899715661,-0.0260409104992722,-0.010122336167935887,-0.0053942412298480635
0.7175,0.004473945349813823,-0.782086148500105,0.0016377692049309592,-2.3523664050001676,-2.6420983294827215e-05,1.5684756850001076,0.7854124440000254,0.03999994265000001,0.03999999950000001,-9.82270234999993,0.015386353852396874,-0.011464679599654888,-0.026242256149253317,-0.01009608618925043,-0.005436110084845925
0.72,0.004524892399813173,-0.7820574040001054,0.0016566620199307183,-2.3523205200001684,-2.783650119480916e-05,1.568446240000108,0.7854054960000254,0.039999941600000005,0.03999999800000001,-9.82272139999993,0.015339933894744785,-0.011559118399653684,-0.02644658359925071,-0.010068822652201477,-0.005478272339845387
0.7225,0.004575839449812525,-0.7820286595001058,0.0016755548349304782,-2.352274635000169,-2.925201909479117e-05,1.5684167950001082,0.7853985480000255,0.03999994055000001,0.0399999965,-9.82274044999993,0.015293513937092695,-0.011653557199652484,-0.026650911049248115,-0.010041559115152523,-0.005520434594844851
0.725,0.004626786499811875,-0.7819999150001061,0.0016944476499302372,-2.3522287500001697,-3.066753699477312e-05,1.5683873500001086,0.7853916000000256,0.039999939500000005,0.039999995,-9.822759499999929,0.015247093979440608,-0.011747995999651279,-0.02685523849924551,-0.010014295578103571,-0.005562596849844313
0.7275,0.004677733549811228,-0.7819711705001064,0.001713340464929997,-2.35218286500017,-3.208305489475513e-05,1.568357905000109,0.7853846520000257,0.03999993845000001,0.039999993500000004,-9.82277854999993,0.015200674021788518,-0.011842434799650078,-0.02705956594924291,-0.009987032041054618,-0.005604759104843778
0.73,0.004728680599810578,-0.7819424260001069,0.0017322332799297561,-2.3521369800001706,-3.3498572794737074e-05,1.5683284600001095,0.7853777040000258,0.039999937400000005,0.039999992000000005,-9.822797599999928,0.01515425406413643,-0.011936873599648875,-0.02726389339924031,-0.009959768504005666,-0.00564692135984324
0.7325,0.00477962764980993,-0.7819136815001072,0.0017511260949295158,-2.3520910950001714,-3.491409069471908e-05,1.5682990150001097,0.7853707560000258,0.03999993635,0.039999990500000006,-9.822816649999929,0.01510783410648434,-0.012031312399647673,-0.02746822084923771,-0.009932504966956713,-0.005689083614842704
0.735,0.004832292699799633,-0.7818840250001127,0.0017706560099256974,-2.3520436600001804,-3.6381868394407574e-05,1.5682686000001156,0.7853635760000273,0.039999935400000006,0.03999999099999999,-9.822853699999827,0.015050564799692443,-0.012129753099623997,-0.02767547169921869,-0.009905046504093995,-0.005732387329835757
0.7375,0.004885816749798953,-0.7818539125001132,0.0017905044749254452,-2.351995450000181,-3.787577599438859e-05,1.568237700000116,0.7853562800000273,0.0399999345,0.03999999249999999,-9.822899749999827,0.014987870818239466,-0.012230194749622721,-0.027884184249216036,-0.009877490578322755,-0.005776261774835199
0.74,0.0049393407997982705,-0.7818238000001135,0.001810352939925192,-2.351947240000182,-3.9369683594369535e-05,1.5682068000001164,0.7853489840000275,0.0399999336,0.039999994,-9.822945799999827,0.01492517683678649,-0.012330636399621439,-0.028092896799213375,-0.009849934652551516,-0.005820136219834639
0.7425,0.0049928648497975904,-0.7817936875001139,0.0018302014049249398,-2.3518990300001823,-4.0863591194350546e-05,1.5681759000001168,0.7853416880000276,0.039999932700000004,0.039999995499999996,-9.822991849999827,0.014862482855333512,-0.012431078049620164,-0.02830160934921072,-0.009822378726780276,-0.005864010664834082
0.745,0.005046388899796908,-0.7817635750001143,0.0018500498699246866,-2.351850820000183,-4.2357498794331496e-05,1.5681450000001171,0.7853343920000276,0.039999931800000006,0.039999996999999995,-9.823037899999825,0.014799788873880537,-0.012531519699618883,-0.02851032189920806,-0.009794822801009039,-0.005907885109833522
0.7475,0.005099912949796228,-0.7817334625001147,0.0018698983349244344,-2.3518026100001834,-4.385140639431251e-05,1.5681141000001177,0.7853270960000278,0.03999993090000001,0.039999998499999995,-9.823083949999825,0.01473709489242756,-0.012631961349617606,-0.028719034449205406,-0.009767266875237799,-0.005951759554832964
0.75,0.005153436999795545,-0.781703350000115,0.0018897467999241812,-2.351754400000184,-4.534531399429345e-05,1.5680832000001181,0.7853198000000279,0.03999993,0.039999999999999994,-9.823129999999825,0.014674400910974585,-0.012732402999616326,-0.028927746999202746,-0.00973971094946656,-0.005995633999832405
0.7525000000000001,0.005209590399784787,-0.7816718125001209,0.001910570069920193,-2.351703730000194,-4.691214709399497e-05,1.5680507700001243,0.7853121350000294,0.03999992850000001,0.04,-9.823130375,0.014550402109055073,-0.012850583349547064,-0.029140677549183924,-0.009711045678814808,-0.006039780499830804
0.755,0.005265743799784071,-0.7816402750001213,0.0019313933399199273,-2.351653060000195,-4.847898019397499e-05,1.5680183400001246,0.7853044700000295,0.03999992700000001,0.04,-9.823130749999999,0.014426403306901389,-0.012968763699545556,-0.029353608099181208,-0.009682380408158818,-0.006083926999830241
0.7575000000000001,0.005321897199783357,-0.7816087375001217,0.0019522166099196626,-2.3516023900001954,-5.0045813293955076e-05,1.567985910000125,0.7852968050000296,0.039999925500000005,0.04,-9.823131125,0.0143024045047477,-0.013086944049544054,-0.029566538649178502,-0.009653715137502827,-0.00612807349982968
0.76,0.005378050599782641,-0.7815772000001221,0.001973039879919397,-2.351551720000196,-5.1612646393935095e-05,1.5679534800001256,0.7852891400000297,0.039999924000000006,0.04,-9.823131499999999,0.014178405702594016,-0.013205124399542547,-0.029779469199175786,-0.009625049866846837,-0.006172219999829117
0.7625000000000001,0.005434203999781927,-0.7815456625001225,0.0019938631499191325,-2.3515010500001967,-5.317947949391518e-05,1.567921050000126,0.7852814750000298,0.03999992250000001,0.04,-9.823131874999998,0.014054406900440327,-0.013323304749541045,-0.02999239974917308,-0.009596384596190846,-0.006216366499828556
0.765,0.005490357399781211,-0.781514125000123,0.002014686419918867,-2.3514503800001973,-5.4746312593895193e-05,1.5678886200001263,0.7852738100000299,0.03999992100000001,0.04,-9.823132249999999,0.013930408098286643,-0.013441485099539538,-0.030205330299170365,-0.009567719325534857,-0.006260512999827993
0.7675000000000001,0.005547404299770019,-0.7814820985001291,0.002035841079914716,-2.351398860000208,-5.633880089357442e-05,1.5678556700001327,0.7852660280000314,0.03999991985,0.04,-9.823151174999781,0.013842101488328479,-0.013553350799612087,-0.030419650949151358,-0.009538704482954586,-0.0063050313998230705
0.77,0.005606238199769269,-0.7814490940001295,0.002057658519914438,-2.3513456400002086,-5.798259959355346e-05,1.5678216800001332,0.7852580120000314,0.0399999194,0.04,-9.82320719999978,0.013825179264015684,-0.013652587199610822,-0.030636751799148588,-0.00950899049651347,-0.006350293599822494
0.7725,0.005665072099768518,-0.7814160895001299,0.0020794759599141593,-2.351292420000209,-5.9626398293532495e-05,1.5677876900001337,0.7852499960000315,0.039999918950000005,0.04,-9.82326322499978,0.01380825703970289,-0.013751823599609556,-0.030853852649145818,-0.009479276510072354,-0.006395555799821916
0.775,0.005723905999767771,-0.7813830850001303,0.002101293399913882,-2.3512392000002102,-6.12701969935116e-05,1.567753700000134,0.7852419800000316,0.0399999185,0.04,-9.823319249999779,0.013791334815390095,-0.013851059999608294,-0.03107095349914306,-0.009449562523631237,-0.006440817999821341
0.7775,0.005782739899767021,-0.7813500805001308,0.002123110839913604,-2.351185980000211,-6.291399569349064e-05,1.5677197100001345,0.7852339640000318,0.039999918050000006,0.04,-9.823375274999778,0.013774412591077301,-0.013950296399607029,-0.03128805434914029,-0.00941984853719012,-0.006486080199820763
0.78,0.005841573799766273,-0.7813170760001311,0.0021449282799133264,-2.3511327600002114,-6.455779439346975e-05,1.567685720000135,0.7852259480000319,0.039999917600000004,0.04,-9.823431299999777,0.013757490366764507,-0.014049532799605767,-0.03150515519913753,-0.009390134550749003,-0.006531342399820188
0.7825,0.005900407699765522,-0.7812840715001316,0.0021667457199130483,-2.351079540000212,-6.620159309344878e-05,1.5676517300001354,0.7852179320000319,0.03999991715,0.04,-9.823487324999777,0.013740568142451712,-0.014148769199604502,-0.03172225604913476,-0.009360420564307888,-0.006576604599819611
0.785,0.005961061999753858,-0.7812500830001379,0.002189238179908723,-2.3510246600002227,-6.789245839314562e-05,1.567616700000142,0.7852096690000335,0.039999916600000004,0.0399999995,-9.823521499999908,0.013680700585571278,-0.01426164049952147,-0.03194205169911584,-0.009330085013184209,-0.00662190789981879
0.7875,0.006022626499753073,-0.7812156025001383,0.0022120681499084318,-2.3509689500002233,-6.960685699312376e-05,1.5675811500001424,0.7852012825000336,0.039999916,0.03999999875,-9.823544749999908,0.01359936036202152,-0.014381329249519943,-0.03216319474911302,-0.00929943867971367,-0.006667231749818211
0.79,0.00608419099975229,-0.7811811220001388,0.0022348981199081415,-2.3509132400002244,-7.132125559310197e-05,1.5675456000001429,0.7851928960000337,0.0399999154,0.039999998,-9.823567999999906,0.01351802013847176,-0.014501017999518421,-0.03238433779911021,-0.009268792346243128,-0.006712555599817635
0.7925,0.006145755499751505,-0.7811466415001392,0.0022577280899078503,-2.350857530000225,-7.30356541930801e-05,1.5675100500001433,0.7851845095000338,0.0399999148,0.03999999725,-9.823591249999906,0.013436679914922003,-0.014620706749516895,-0.03260548084910739,-0.00923814601277259,-0.006757879449817057
0.795,0.0062073199997507225,-0.7811121610001397,0.00228055805990756,-2.3508018200002256,-7.475005279305831e-05,1.5674745000001438,0.7851761230000339,0.0399999142,0.0399999965,-9.823614499999906,0.013355339691372242,-0.014740395499515373,-0.03282662389910458,-0.009207499679302048,-0.006803203299816481
0.7975,0.006268884499749937,-0.7810776805001401,0.0023033880299072693,-2.3507461100002263,-7.646445139303644e-05,1.5674389500001442,0.7851677365000341,0.0399999136,0.03999999575,-9.823637749999905,0.013273999467822484,-0.014860084249513848,-0.03304776694910176,-0.00917685334583151,-0.006848527149815904
0.8,0.006330448999749155,-0.7810432000001405,0.002326217999906979,-2.350690400000227,-7.817884999301465e-05,1.5674034000001447,0.7851593500000342,0.039999913,0.039999995,-9.823660999999905,0.013192659244272723,-0.014979772999512326,-0.03326890999909895,-0.009146207012360968,-0.006893850999815328
0.8025,0.00639479262473701,-0.7810072000001472,0.0023500785449024754,-2.3506322150002377,-7.997179099267176e-05,1.567366215000152,0.7851505615000359,0.039999913,0.03999999575,-9.823684699999903,0.0130943113010671,-0.015101970049500547,-0.033494085499079645,-0.009114509308840222,-0.006940615899808859
0.805,0.0064591362497361925,-0.7809712000001476,0.0023739390899021723,-2.3505740300002387,-8.176473199264897e-05,1.5673290300001523,0.7851417730000361,0.039999913,0.0399999965,-9.823708399999903,0.012995963357792175,-0.015224167099498994,-0.03371926099907679,-0.00908281160531519,-0.006987380799808265
0.8075,0.006523479874735371,-0.780935200000148,0.002397799634901868,-2.3505158450002392,-8.35576729926261e-05,1.5672918450001527,0.7851329845000361,0.039999913,0.03999999725,-9.823732099999903,0.012897615414517255,-0.015346364149497436,-0.033944436499073916,-0.00905111390179016,-0.007034145699807669
0.81,0.006587823499734554,-0.7808992000001486,0.0024216601799015645,-2.3504576600002403,-8.535061399260332e-05,1.5672546600001533,0.7851241960000362,0.039999913,0.039999998,-9.823755799999903,0.01279926747124233,-0.015468561199495882,-0.03416961199907105,-0.009019416198265127,-0.007080910599807074
0.8125,0.0066521671247337325,-0.780863200000149,0.00244552072490126,-2.350399475000241,-8.714355499258045e-05,1.5672174750001537,0.7851154075000364,0.039999913,0.03999999875,-9.823779499999903,0.012700919527967409,-0.015590758249494324,-0.03439478749906818,-0.008987718494740097,-0.0071276754998064774
0.8150000000000001,0.006716510749732915,-0.7808272000001495,0.002469381269900957,-2.350341290000242,-8.893649599255766e-05,1.5671802900001544,0.7851066190000364,0.039999913,0.0399999995,-9.823803199999903,0.012602571584692484,-0.01571295529949277,-0.03461996299906532,-0.008956020791215064,-0.0071744403998058835
0.8175,0.006781796574720326,-0.7807906850001564,0.0024935911898962887,-2.3502822300002535,-9.075435624222352e-05,1.5671425700001613,0.7850977070000381,0.03999991359999999,0.04,-9.82382304999995,0.012481353246370668,-0.01584220424940313,-0.03484638449904688,-0.008924287650866516,-0.007221314799803919
0.8200000000000001,0.006848966799719472,-0.7807531400001568,0.002518499859895972,-2.350221420000254,-9.262205499219978e-05,1.567103780000162,0.7850885480000382,0.03999991539999999,0.04,-9.82383519999995,0.012314394117098905,-0.015985556999401306,-0.03507529799904397,-0.008892483636869605,-0.00726840819980332
0.8225,0.006916137024718615,-0.7807155950001573,0.0025434085298956543,-2.350160610000255,-9.448975374217597e-05,1.5670649900001625,0.7850793890000384,0.03999991719999999,0.04,-9.82384734999995,0.012147434987827149,-0.016128909749399477,-0.035304211499041054,-0.008860679622872696,-0.00731550159980272
0.8250000000000001,0.0069833072497177615,-0.7806780500001578,0.0025683171998953378,-2.3500998000002555,-9.635745249215223e-05,1.567026200000163,0.7850702300000385,0.03999991899999999,0.04,-9.82385949999995,0.011980475858555386,-0.016272262499397654,-0.03553312499903814,-0.008828875608875785,-0.007362594999802121
0.8275,0.007050477474716904,-0.7806405050001582,0.0025932258698950204,-2.3500389900002565,-9.822515124212842e-05,1.5669874100001635,0.7850610710000386,0.03999992079999999,0.04,-9.82387164999995,0.01181351672928363,-0.01641561524939583,-0.035762038499035226,-0.008797071594878875,-0.00740968839980152
0.8300000000000001,0.007117647699716051,-0.7806029600001587,0.002618134539894704,-2.349978180000257,-0.00010009284999210467,1.5669486200001639,0.7850519120000388,0.039999922599999994,0.04,-9.82388379999995,0.011646557600011867,-0.016558967999394006,-0.035990951999032315,-0.008765267580881964,-0.007456781799800922
