rsonawane2002/My_IMU/logs_2/traj_491/clean_491.csv
time,j1,j2,j3,j4,j5,j6,j7,gripper1,gripper2,imu_ax,imu_ay,imu_az,imu_gx,imu_gy,imu_gz,quat_x,quat_y,quat_z,quat_w
2653.0333333395033,0.00016700293,-0.785875,4.0107683e-05,-2.3551247,9.29385e-05,1.570997,0.786,0.04,0.04,0.0,-0.0,0.0,2.875329272945135e-08,-0.0011641195053377316,4.421952117202833e-08,0.9999995971961153,0.00020320632366974898,0.0008736418299892524,3.263050917662294e-05
2653.05000000617,0.0001669982,-0.78576016,4.012106e-05,-2.3552213,9.2970295e-05,1.5709941,0.786,0.04,0.04,-0.2919984607363979,-3.177547380168793e-05,0.020128409378261658,7.65611082399575e-07,-0.0022384546203053695,-3.9526217824463637e-07,0.9999996850586054,0.00020320870339847325,0.0007665025204249829,3.260060313417335e-05
2653.066666672837,0.00016694154,-0.7856543,4.0178358e-05,-2.35531,9.297354e-05,1.5709913,0.786,0.04,0.04,0.02332872032611011,2.651555873949083e-05,-0.0016704275430878823,5.476016975357587e-06,-0.003227709696067933,-3.660999885862868e-06,0.9999997558443989,0.00020322113821274156,0.0006677972685910466,3.254411627377621e-05
2653.083333339504,0.00016674843,-0.78555703,4.0352592e-05,-2.355391,9.290606e-05,1.5709884,0.786,0.04,0.04,0.02246073348790567,6.496973570190544e-05,-0.0015248748102214549,1.8054672929948828e-05,-0.0041369053037827105,-1.2346282517186901e-05,0.999999812238398,0.00020326007259120063,0.0005771982702689663,3.2414017524451086e-05
2653.100000006171,0.00016629846,-0.7854677,4.074841e-05,-2.3554654,9.2707596e-05,1.5709856,0.786,0.04,0.04,0.020113689734757578,0.00011930740597228457,-0.0015654997666203485,4.258371988731622e-05,-0.004970593156180581,-2.8790594139865426e-05,0.999999856839006,0.0002033487472474017,0.0004939008914357757,3.214286588297913e-05
2653.1166666728377,0.00016543875,-0.7853857,4.149896e-05,-2.3555334,9.2299546e-05,1.5709827,0.7860019,0.04,0.04,0.01911441600239705,0.00018941096544887828,-0.0013567224002253297,8.251778949486926e-05,-0.005735253462624612,-5.50921475939864e-05,0.9999998914347584,0.00020447018747046905,0.00041751770715128236,3.1644559271534416e-05
2653.1333333395046,0.00016398716,-0.78531104,4.2762782e-05,-2.3555987,9.159231e-05,1.5709825,0.7860038,0.04,0.04,0.013330491475072037,0.0002702683009133289,-0.0010319824806703792,0.0001324618060240586,-0.0064336323159073045,-9.316055324368225e-05,0.9999999180266931,0.00020570585127132015,0.0003473931384388822,3.081748268102295e-05
2653.1500000061715,0.00016173563,-0.7852428,4.472154e-05,-2.3556578,9.0481124e-05,1.5709826,0.78600574,0.04,0.04,0.01776654996201721,0.00036334440598877757,-0.0006394412663368598,0.00020450454630631485,-0.007071367779415683,-0.00014468303334302362,0.9999999378578202,0.00020709536973489916,0.0002837656504232799,2.9545205412224644e-05
2653.1666666728383,0.00015845266,-0.7851811,4.7576894e-05,-2.3557155,8.8858505e-05,1.570983,0.78600955,0.04,0.039999995,0.00979372525597988,0.00046168867397628735,-0.0028342811571713256,0.0003024465076252908,-0.007647638913869746,-0.00021041223438879523,0.9999999524848308,0.0002096369473797712,0.0002243106844675448,2.7702046831868878e-05
2653.183333339505,0.00015388613,-0.78512543,5.1549167e-05,-2.3557692,8.658722e-05,1.5709836,0.7860153,0.04,0.039999995,0.013581926235084474,0.0005819294177131175,-0.0015290939154866123,0.0004204350089100058,-0.008181197761798101,-0.0002932659163796173,0.9999999624768577,0.00021337860868332503,0.00016995217482361299,2.5141812276879105e-05
2653.200000006172,0.00014776565,-0.78507566,5.687459e-05,-2.3558204,8.352019e-05,1.5709842,0.7860229,0.04,0.04,0.010575760081077412,0.0007115333342551508,-0.0022930860336556336,0.000561340869870534,-0.008662557451053956,-0.00039438597237558687,0.9999999687528209,0.00021837199595507213,0.00011973651553014472,2.17070342049409e-05
2653.216666672839,0.00013980434,-0.7850316,6.380336e-05,-2.355871,7.952517e-05,1.5709851,0.78603244,0.04,0.04,0.00761738031551662,0.0008318530184698171,-0.002758401200253502,0.0007285342748357617,-0.009103077252620181,-0.0005132757541172447,0.9999999719583469,0.00022467207440350019,7.285911270433404e-05,1.7242801632619147e-05
2653.233333339506,0.00012970141,-0.7849931,7.259849e-05,-2.355921,7.4450254e-05,1.570986,0.7860445,0.04,0.04,0.006976710015704768,0.0009669115118956216,-0.0028501583689166665,0.000924521653844345,-0.00950794900217141,-0.0006516596426169295,0.9999999724516098,0.00023263420386703465,2.9051817590868888e-05,1.1580100119171875e-05
2653.2500000061727,0.000117143674,-0.7849602,8.353339e-05,-2.355971,6.813423e-05,1.570987,0.78605974,0.039999995,0.04,0.006194458125041713,0.0011104180039661518,-0.003184217328811023,0.0011498462145648058,-0.009878478957783791,-0.0008109109834755999,0.9999999704724531,0.00024267587643562427,-1.19535068066063e-05,4.541525993258529e-06
2653.2666666728396,0.00010180719,-0.78493273,9.689143e-05,-2.3560214,6.041644e-05,1.5709879,0.7860784,0.03999999,0.039999995,0.005591612606936636,0.0012536221720897993,-0.0031878799204410058,0.0014033765114010827,-0.010218400067199849,-0.0009908778283071115,0.9999999662241472,0.0002549482336948144,-5.036537862098728e-05,-4.05355042203537e-06
2653.2833333395065,8.335884e-05,-0.7849105,0.000112963564,-2.356072,5.112908e-05,1.5709924,0.7861007,0.039999988,0.039999988,0.006488625808254156,0.0014028761613009498,-0.0005084513578168526,0.0016875059074895162,-0.010528992553300538,-0.001191297596090627,0.9999999599712797,0.0002696341015464343,-8.454456120254067e-05,-1.4391235415173332e-05
2653.3000000061734,6.145802e-05,-0.7848938,0.0001320476,-2.3561232,4.0098985e-05,1.570997,0.78612703,0.039999984,0.039999984,0.004988043929299302,0.0015572941120616326,-0.0032879937712504415,0.0020032311759333797,-0.010794192297642075,-0.0014146887250343462,0.9999999517079615,0.0002870070703705282,-0.00011618966303642417,-2.666418002430459e-05
2653.3166666728403,3.5757497e-05,-0.78488266,0.00015444701,-2.3561783,2.7151442e-05,1.5710018,0.7861582,0.039999984,0.039999984,-0.0003162211158924677,0.0017138125995972537,-0.00476687441759438,0.002351243744611498,-0.011030442202764792,-0.001660619263285762,0.9999999410808826,0.00030752098101069226,-0.0001469098605765148,-4.1067877715063e-05
2653.333333339507,5.9048893e-06,-0.78487706,0.00018047004,-2.3562365,1.2109217e-05,1.5710065,0.7861942,0.03999998,0.039999977,0.000861347116432043,0.001871552088068048,-0.004533978216270107,0.002730565438877131,-0.01125123206112764,-0.0019285753208843136,0.999999927908894,0.0003312430448033796,-0.0001764069712154099,-5.779993460928976e-05
2653.350000006174,-2.8456321e-05,-0.7848772,0.00021042836,-2.3562953,-5.2087685e-06,1.5710148,0.7862357,0.039999977,0.039999973,0.0062039391466095495,0.002031656372911481,-0.0009867091977477926,0.003143489454352019,-0.011452132719063774,-0.0022205415901957737,0.9999999124094712,0.0003585689995339696,-0.00020167076472367936,-7.705988028669678e-05
2653.366666672841,-6.768579e-05,-0.7848829,0.0002446364,-2.356361,-2.4983425e-05,1.5710232,0.7862831,0.039999973,0.03999997,-0.005074341968214213,0.0021953195596521196,-0.00599453027956276,0.003588991085760917,-0.011607937570758562,-0.0025358953050004397,0.9999998932874662,0.0003897764769840872,-0.00022735018075704082,-9.905175065839784e-05
2653.3833333395078,-0.00011214538,-0.78489447,0.00028341095,-2.3564281,-4.7397643e-05,1.5710318,0.7863367,0.03999997,0.039999966,0.003658100703751721,0.0023564853956307085,-0.003968385916275352,0.004067952055204587,-0.011760197647433142,-0.0028747746943412356,0.9999998704832119,0.0004251132038975905,-0.0002508819675824519,-0.00012397806937615755
2653.4000000061747,-0.00016219841,-0.784912,0.0003270693,-2.3565018,-7.2634575e-05,1.5710438,0.78639734,0.03999997,0.039999966,-0.003256149008623588,0.002521671767818771,-0.003689691854447119,0.004580405240107141,-0.011884797957313752,-0.0032372871690159646,0.9999998430828614,0.00046500640444757175,-0.0002729214619782837,-0.00015204332260242365
2653.4166666728415,-0.0002182087,-0.78493536,0.00037593025,-2.3565826,-0.000100877834,1.5710562,0.78646505,0.03999997,0.039999966,-0.005584309833950307,0.0026860763996398624,-0.00625387885497819,0.005125280435887198,-0.011986306032257477,-0.0036234987197327024,0.9999998096927839,0.0005095853278959871,-0.0002954352958710525,-0.00018345346985993309
2653.4333333395084,-0.00028053997,-0.784965,0.00043031177,-2.3566687,-0.00013231102,1.5710688,0.7865404,0.03999997,0.039999966,-0.0019584925453397517,0.0028496649116892207,-0.005809711297044551,0.0057039532141912866,-0.012083975183523011,-0.004033408657392553,0.999999769437292,0.0005591879234669718,-0.00031737999166662437,-0.00021841284310207304
2653.4500000061753,-0.0003495554,-0.785001,0.00049053156,-2.356759,-0.00016711751,1.5710849,0.7866238,0.03999997,0.039999966,0.0008863318992746727,0.0030126280987477117,-0.0028704907824694814,0.00631587738128994,-0.012168768172642102,-0.00446696989706182,0.9999997217760742,0.0006140920382748004,-0.00033649012979328604,-0.0002571247466099586
2653.466666672842,-0.00042561672,-0.7850435,0.0005569058,-2.356857,-0.00020547931,1.5711011,0.7867157,0.03999997,0.03999996,-0.005747341419382046,0.0031784088360631074,-0.007015086593420428,0.006961596362829794,-0.012218182810548723,-0.004923281198071434,0.9999996641100934,0.0006746061392628837,-0.0003561030568029289,-0.0002997947133413961
2653.483333339509,-0.00050908374,-0.7850927,0.00062975,-2.3569627,-0.00024757982,1.5711207,0.78681654,0.03999997,0.039999966,-0.004429160227181761,0.003341451361683614,-0.004661249863691097,0.0076399549792665646,-0.012261745821751456,-0.005404795908332077,0.9999995952803651,0.0007410072839403549,-0.0003744300581804636,-0.0003466257965758571
2653.500000006176,-0.000600314,-0.7851486,0.0007093766,-2.3570762,-0.0002935972,1.5711408,0.78692687,0.03999997,0.03999996,-0.005881422063369612,0.0035032564685224025,-0.007044781018539226,0.00835148771334255,-0.01228505125472226,-0.005907968178878278,0.9999995125792095,0.0008136331111497186,-0.0003931691937415377,-0.00039781966880826674
2653.516666672843,-0.0006996622,-0.7852117,0.0007960958,-2.3571982,-0.0003437121,1.5711635,0.787047,0.03999997,0.03999996,-0.005817087755888295,0.003665848281162007,-0.005858068960318263,0.009095318809180398,-0.012301775567787564,-0.006435201849972151,0.9999994140879758,0.0008927304829956653,-0.0004112468529354482,-0.00045357691285647967
2653.5333333395097,-0.00080747984,-0.7852821,0.0008902158,-2.3573327,-0.00039810134,1.5711874,0.7871774,0.03999997,0.03999996,-0.012629641712247341,0.003828988215657308,-0.008919875144708378,0.009871393030121235,-0.012301654943791953,-0.006985490908920381,0.9999992960584407,0.0009785464958365268,-0.0004313146315503551,-0.0005140983051263302
2653.5500000061766,-0.00092411524,-0.7853598,0.0009920408,-2.3574755,-0.00045694064,1.5712141,0.7873184,0.03999997,0.03999996,-0.0051799302329458285,0.003984904712269605,-0.005762107250939508,0.010679651583474059,-0.012310578597668235,-0.007558591570970977,0.9999991566564432,0.0010713864441823577,-0.00045045096936400364,-0.0005795786520196904
2653.5666666728434,-0.001049912,-0.78544515,0.001101872,-2.357627,-0.00052040373,1.5712419,0.7874705,0.03999997,0.03999996,-0.005822969996782668,0.004142313346958431,-0.00736966395469274,0.011519475371720485,-0.012299739010803768,-0.008154275967079726,0.9999989921499256,0.0011715259672982065,-0.00046951910559069293,-0.0006502136960004234
2653.5833333395103,-0.0011852101,-0.7855384,0.001220007,-2.3577883,-0.00058866164,1.5712729,0.78763413,0.03999997,0.03999996,-0.007313754019611096,0.0042987638265655605,-0.006547804103917976,0.012390811302706594,-0.012278055821281143,-0.008772308224338967,0.9999987990006475,0.0012792391598583567,-0.0004880410621905138,-0.0007261958111699771
2653.600000006177,-0.0013303449,-0.7856394,0.0013467392,-2.3579624,-0.0006618842,1.5713047,0.7878096,0.03999997,0.03999996,-0.012590994815364631,0.004458167793562704,-0.009472587449832481,0.013293031791471222,-0.01224046039874918,-0.009412453219831397,0.9999985717904077,0.0013947711637990014,-0.0005085487941137757,-0.0008077181868502167
2653.616666672844,-0.0014856475,-0.7857487,0.0014823582,-2.3581457,-0.0007402378,1.57134,0.7879975,0.03999997,0.03999996,-0.0055673779656428835,0.0046057114109317,-0.006281498500149141,0.014226019952453067,-0.01220946338967127,-0.010074394050180038,0.9999983073674278,0.0015184538646447084,-0.0005278222108759521,-0.0008949658394765919
2653.633333339511,-0.0016514431,-0.78586626,0.0016271492,-2.3583424,-0.000823888,1.5713775,0.7881979,0.039999973,0.039999966,-0.012898563867991264,0.004763604100395408,-0.008962516974775347,0.015188389711436254,-0.012156249059372964,-0.010757888194989653,0.9999979994386535,0.0016504110489656088,-0.0005485123170331224,-0.0009881276730377623
2653.650000006178,-0.0018280527,-0.78599244,0.0017813931,-2.3585494,-0.0009129972,1.5714169,0.7884114,0.039999973,0.039999973,-0.007326038792410117,0.004908605683495567,-0.008154975506080575,0.01618165377381956,-0.012104781344600026,-0.011465342303132946,0.9999976430095371,0.0017910040832143002,-0.0005690974421514513,-0.0010873857850320565
2653.6666666728447,-0.0020157918,-0.78612757,0.001945365,-2.3587697,-0.0010077193,1.5714595,0.7886384,0.039999973,0.039999966,-0.01177638838925077,0.005058645875526515,-0.00856389355090581,0.017203761329638634,-0.012041063843187389,-0.012188293460929452,0.9999972315224708,0.001940503774082348,-0.0005902015969124077,-0.0011929185101625275
2653.6833333395116,-0.0022149691,-0.7862716,0.002119337,-2.3590026,-0.0011082168,1.5715047,0.78887916,0.039999973,0.03999997,-0.01089441124093593,0.005205975711321427,-0.008828973087426917,0.018254130614633525,-0.011969122476942894,-0.012936248606014677,0.9999967583585515,0.002099060271280886,-0.0006119123249598131,-0.0013049067678684613
2653.7000000061785,-0.0024258888,-0.7864247,0.0023035742,-2.3592484,-0.0012146389,1.5715519,0.7891341,0.039999973,0.039999966,-0.01119090379284593,0.005348642536448902,-0.00942512810457874,0.019333454614456735,-0.011891582263482987,-0.013701888780379493,0.9999962159260065,0.0022669733510849496,-0.0006344658502645841,-0.0014235232973899216
2653.7166666728453,-0.0026488497,-0.7865872,0.0024983382,-2.3595085,-0.0013271394,1.5716025,0.7894037,0.039999973,0.03999998,-0.012948157753589484,0.005496505437537088,-0.009226161401065802,0.02044052989945496,-0.011808729855381218,-0.014492735972955629,0.9999955961401072,0.0024445406055406457,-0.000657800164514334,-0.0015489417558436694
2653.7333333395122,-0.002884144,-0.78675926,0.0027038846,-2.3597815,-0.0014458619,1.5716558,0.7896881,0.039999977,0.03999997,-0.010447880437403079,0.005630054446595996,-0.009157472318044313,0.021574530989012408,-0.011722383936067829,-0.015294390193433982,0.9999948909417388,0.002631910418060364,-0.0006813764587934286,-0.0016813280741150719
2653.750000006179,-0.0031320576,-0.786941,0.0029204646,-2.3600688,-0.001570947,1.5717119,0.789988,0.039999977,0.04,-0.012779754417513445,0.005768398571081505,-0.009746644373587188,0.02273543099631164,-0.011623586228570602,-0.016125685311480804,0.9999940902899118,0.002829438368433843,-0.0007058176836106908,-0.0018208473764773157
2653.766666672846,-0.0033928715,-0.78713274,0.0031483236,-2.3603706,-0.0017025401,1.5717709,0.7903034,0.039999973,0.039999995,-0.01279576052055642,0.005908539663303553,-0.010053880994931319,0.02392172981416511,-0.01152196502955568,-0.016969940964044392,0.9999931844816309,0.0030372414865790444,-0.0007310615239989202,-0.0019676644753158783
2653.783333339513,-0.0036668587,-0.7873346,0.003387701,-2.3606875,-0.0018407751,1.5718328,0.79063475,0.039999973,0.039999995,-0.01348022581539876,0.006040975861359337,-0.010334828681246577,0.025134008784716937,-0.011415125886154492,-0.01783281670636355,0.9999921626041729,0.0032555544331800182,-0.0007572836872269983,-0.0021219370817998915
2653.8000000061797,-0.003954287,-0.78754675,0.0036388312,-2.3610198,-0.001985791,1.5718977,0.7909823,0.03999998,0.04,-0.014089797297689444,0.006178119034515629,-0.010438099294907133,0.026371662482202487,-0.011304732951308485,-0.018713037537721182,0.9999910131290184,0.0034845812429336463,-0.000784540504714351,-0.00228382375792991
2653.8166666728466,-0.0042554187,-0.7877693,0.0039019445,-2.361368,-0.0021377036,1.5719659,0.7913466,0.03999998,0.04,-0.014266776285354332,0.00629658320932037,-0.010555845537063568,0.02763376152577845,-0.011190271049943742,-0.019612075405236854,0.9999897233811819,0.003724643915933953,-0.0008127984089558515,-0.0024534706995479718
2653.8333333395135,-0.004570508,-0.78800255,0.004177263,-2.361732,-0.00229666,1.5720373,0.7917276,0.039999984,0.04,-0.014416062068489666,0.006440681426068701,-0.010795781228378765,0.02891935941843507,-0.011071755061392836,-0.020528683552092072,0.9999882808673474,0.003975766292856898,-0.0008420540703253734,-0.0026310369238476176
2653.8500000061804,-0.0048998063,-0.78824645,0.004465006,-2.3621123,-0.0024627878,1.5721122,0.7921259,0.039999984,0.04,-0.014753347353990698,0.006571679068001057,-0.010724238876136383,0.030229143849144442,-0.010950468647268771,-0.021463208576011153,0.999986671047216,0.004238299168258192,-0.0008723031430175898,-0.0028166709594946195
2653.8666666728473,-0.005243555,-0.7885014,0.004765383,-2.362509,-0.0026361903,1.57219,0.79254156,0.039999984,0.04,-0.014922850324650128,0.006684823757728163,-0.011386238293420448,0.031561710625903974,-0.01082464677159403,-0.022413722359015086,0.9999848792796169,0.004512354815833411,-0.0009037204744844843,-0.003010507507050781
2653.883333339514,-0.005601989,-0.7887674,0.0050786026,-2.362922,-0.002817014,1.5722709,0.7929751,0.039999977,0.04,-0.01446046235114018,0.00682406902096362,-0.011309490172961567,0.03291660145695098,-0.01069617780684181,-0.023382333265582818,0.9999828894758568,0.004798220938169655,-0.0009361522616660343,-0.0032127014003648126
2653.900000006181,-0.005975336,-0.78904474,0.0054048663,-2.363352,-0.0030053752,1.5723552,0.79342663,0.039999973,0.04,-0.01567648854687853,0.006947049300162506,-0.011517393986726354,0.03429296368655984,-0.010564218484535585,-0.024366070663212246,0.9999806853543363,0.005095975495251956,-0.0009697133237080519,-0.0034233913146697243
2653.916666672848,-0.00636382,-0.7893337,0.0057443683,-2.3638,-0.0032013839,1.572443,0.7938965,0.039999966,0.04,-0.01653536093868535,0.007071252885979505,-0.011917475823985946,0.03569124116324433,-0.010429235170661117,-0.02536633338937874,0.9999782487789475,0.005405877192003092,-0.001004547461544735,-0.003642711239132156
2653.933333339515,-0.0067676567,-0.78963417,0.0060972967,-2.3642647,-0.00340513,1.5725344,0.79438484,0.039999966,0.04,-0.014651516391128716,0.00716924772450416,-0.011307566902019062,0.03710970403953975,-0.010293546100956619,-0.026380213990866857,0.999975562133353,0.005728032847383414,-0.001040113284874776,-0.003870780301000861
2653.9500000061817,-0.007187056,-0.78994644,0.0064638373,-2.3647478,-0.0036167416,1.5726295,0.7948921,0.03999997,0.04,-0.017168981504500636,0.007308386093274853,-0.01222933661457759,0.03854899561223055,-0.010150870381418023,-0.027409889217736093,0.9999726046419826,0.00606269775607956,-0.0010770903955299343,-0.004107741195276375
2653.9666666728485,-0.0076222233,-0.7902705,0.0068441685,-2.3652487,-0.0038363058,1.5727282,0.79541844,0.03999997,0.04,-0.01633236069247257,0.007411117275133447,-0.011921610151865991,0.040007445715912984,-0.010007504933465347,-0.028454200444725436,0.9999693560348818,0.00641003769321076,-0.0011151750137734068,-0.004353710215888859
2653.9833333395154,-0.008073354,-0.7906068,0.0072384616,-2.3657677,-0.0040639252,1.5728307,0.79596406,0.039999966,0.04,-0.016252493745616547,0.007525637344866533,-0.012170884771212087,0.04148495766619632,-0.009860362718138574,-0.029512740120725536,0.9999657952287386,0.006770157283657114,-0.001154212316576361,-0.004608810783635835
2654.0000000061823,-0.008540637,-0.7909551,0.007646883,-2.3663058,-0.0042997114,1.5729368,0.79652935,0.039999966,0.04,-0.018156057607154885,0.007655304607102247,-0.012680706025425259,0.042981120749111965,-0.009710333723678789,-0.030585989883575426,0.9999618980740665,0.007143308770275937,-0.0011948809445031764,-0.0048731713956332145
2654.016666672849,-0.009024261,-0.79131573,0.0080695925,-2.3668623,-0.0045437147,1.5730464,0.79711425,0.039999966,0.04,-0.016691711089711347,0.007733958745142003,-0.012485334334200182,0.044494458291760894,-0.009561302485553867,-0.031670323482648914,0.9999576424289051,0.007529508819276618,-0.0012366982121338461,-0.005146884737264575
2654.033333339516,-0.009524402,-0.79168874,0.008506748,-2.3674376,-0.0047960416,1.5731598,0.7977192,0.039999966,0.04,-0.01734607633909757,0.007855111849438493,-0.01267708396577305,0.04602600392975116,-0.009408247477961366,-0.03276877131897334,0.9999530025537781,0.007929007475089704,-0.0012797758990229853,-0.0054300734610279525
2654.050000006183,-0.010041225,-0.7920743,0.008958498,-2.3680317,-0.005056769,1.5732769,0.7983444,0.039999966,0.04,-0.017163324516422662,0.007945852733844908,-0.012773440993329999,0.04757423024945166,-0.009254815440833293,-0.03388014260280717,0.9999479525077867,0.008341962096187176,-0.0013240172898604352,-0.005722842133687341
2654.06666667285,-0.0105749,-0.79247266,0.009424987,-2.3686452,-0.0053260033,1.5733978,0.79898995,0.03999996,0.04,-0.01775345057044575,0.008078571544985983,-0.01299826235465762,0.04913863871961387,-0.009098279293740614,-0.035004850511136804,0.9999424653059505,0.008768476444000512,-0.0013695044685295718,-0.006025309636820963
2654.0833333395167,-0.011125581,-0.79288375,0.00990635,-2.3692784,-0.0056038233,1.5735224,0.7996561,0.039999966,0.04,-0.018578054784956777,0.00818786742934844,-0.013213231383835122,0.050718455854871565,-0.008940338863004115,-0.03614081865296302,0.9999365124531898,0.009208679546627442,-0.0014164680927950114,-0.006337578567688321
2654.1000000061836,-0.011693423,-0.7933078,0.010402724,-2.3699307,-0.005890296,1.5736511,0.8003429,0.039999966,0.04,-0.017144723333428757,0.00826871677035955,-0.012893462692509239,0.052313881566950896,-0.008782586713652908,-0.03728870408075183,0.9999300656544722,0.009662668216190058,-0.001464393679640082,-0.006659744314756533
2654.1166666728504,-0.012278567,-0.7937448,0.010914235,-2.3706036,-0.0061855046,1.5737836,0.80105054,0.03999997,0.04,-0.019524905541756787,0.008392811944406362,-0.013577467721126446,0.05392401971210707,-0.0086203450238162,-0.03844965425862889,0.9999230936630471,0.01013054062831489,-0.0015139584883611037,-0.006991912155815355
2654.1333333395173,-0.012881156,-0.7941948,0.0114410035,-2.371296,-0.006489505,1.5739201,0.8017801,0.03999997,0.04,-0.017921274829735268,0.008476084870811564,-0.01313847937225443,0.055549286633007136,-0.008461457222187984,-0.03962093508205734,0.9999155604932641,0.010612901598244745,-0.0015646735826563031,-0.007334166597986079
2654.150000006184,-0.01350132,-0.7946581,0.01198315,-2.3720083,-0.0068023712,1.5740604,0.80253065,0.03999997,0.04,-0.01845892817138317,0.008574579557031874,-0.013606823682588143,0.057184176743374525,-0.008298635255182981,-0.04080297982953722,0.999907438555871,0.011109309468569506,-0.0016166827906687162,-0.007686605266496635
2654.166666672851,-0.014139186,-0.79513466,0.012540776,-2.3727415,-0.0071241762,1.5742047,0.8033022,0.03999997,0.04,-0.019718804958879232,0.00869753072615274,-0.013810085377263803,0.058833517488052364,-0.008134523558212932,-0.04199631625972563,0.9998986938835847,0.011619832217475845,-0.001670305144993053,-0.0080493198384614
2654.183333339518,-0.014794876,-0.79562455,0.013113997,-2.3734953,-0.007455014,1.5743533,0.8040953,0.039999984,0.04,-0.019455905578213972,0.008810764870155474,-0.013517438896815115,0.060497076478139136,-0.007973808058840196,-0.04320819026533193,0.9998892897753494,0.012144739773510358,-0.0017252317342632396,-0.008422414371440614
2654.200000006185,-0.015468503,-0.796128,0.013702908,-2.37427,-0.00779487,1.574506,0.80491006,0.03999999,0.04,-0.019391906416243998,0.008853946678248018,-0.013879598863431042,0.06217309641205325,-0.00781056286672374,-0.044418870542835574,0.9998791899501844,0.012684128611481481,-0.0017815424037710952,-0.008805935077770269
2654.2166666728517,-0.016160171,-0.7966448,0.014307598,-2.3750646,-0.008143807,1.5746629,0.8057466,0.039999988,0.04,-0.018288727863935428,0.008945286075002709,-0.013393412122764126,0.06386078365938683,-0.007648349398939136,-0.04564075020722815,0.9998683570744457,0.013238119245997724,-0.0018388691299938982,-0.00919996089123926
2654.2333333395186,-0.01686999,-0.7971753,0.014928166,-2.37588,-0.008501902,1.5748239,0.80660516,0.03999999,0.04,-0.019299516009119166,0.009062630227930045,-0.013938704028393367,0.06555950257609701,-0.0074834604423136206,-0.04687177910103778,0.9998567510727598,0.0138068358531764,-0.0018974991070865364,-0.009604588230998176
2654.2500000061855,-0.017598048,-0.7977196,0.015564687,-2.3767166,-0.008869184,1.574989,0.8074858,0.039999988,0.04,-0.019896931788565553,0.00914692583462804,-0.014164044922138075,0.06726873725048024,-0.007316974900678924,-0.04811157377738423,0.9998443316001865,0.014390369757903268,-0.001957510975758987,-0.010019879040542162
2654.2666666728524,-0.018344436,-0.79827744,0.016217241,-2.3775744,-0.009245719,1.5751582,0.80838877,0.039999984,0.04,-0.020242452088337082,0.009254688627951223,-0.013998776972212745,0.06898767492253473,-0.007151574937177048,-0.049359893186161394,0.999831056237261,0.014988839359630607,-0.002019042184517431,-0.0104459153161082
2654.2833333395192,-0.019109232,-0.798849,0.016885905,-2.3784537,-0.009631531,1.5753317,0.80931395,0.039999977,0.04,-0.02047313185902233,0.009325375500303552,-0.01420408517505134,0.07071551355870184,-0.006986956756040325,-0.05061649673216183,0.9998168834401666,0.015602242244522054,-0.002082111990869207,-0.010882758592980876
2654.300000006186,-0.01989252,-0.79943454,0.017570749,-2.379354,-0.010026682,1.5755093,0.8102615,0.039999973,0.04,-0.01935926732261617,0.009418649811264446,-0.014143664628685215,0.07245267251247531,-0.006825455907169804,-0.05188087183342931,0.9998017697513345,0.016230669168009994,-0.0021463211269930893,-0.01133048481213259
2654.316666672853,-0.020694373,-0.8000338,0.01827183,-2.3802755,-0.0104312105,1.5756909,0.81123143,0.039999966,0.04,-0.020185462892174932,0.009528199318875087,-0.014267067116313648,0.0741983100000918,-0.006661130693246077,-0.0531535359977507,0.9997856693274081,0.016874182752117675,-0.0022120452427035614,-0.011789156875657923
2654.33333333952,-0.021514855,-0.80064696,0.018989205,-2.3812182,-0.010845125,1.5758768,0.81222403,0.03999997,0.04,-0.019863667404917962,0.009588042710962155,-0.014005577190001617,0.07595222588692152,-0.006499622920640505,-0.05443176011822501,0.9997685353388244,0.017532925717799294,-0.0022789434543157364,-0.012258820455816423
2654.3500000061867,-0.022354025,-0.801274,0.019722924,-2.3821821,-0.011268453,1.5760672,0.81323916,0.03999997,0.04,-0.019886313478134632,0.009675221105353085,-0.014003052909616898,0.07771304851759465,-0.006337747987798545,-0.055717749182446284,0.999750321822913,0.01820686615840078,-0.0023470044217283677,-0.0127395294228709
2654.3666666728536,-0.023211937,-0.8019155,0.020473031,-2.3831675,-0.011701232,1.5762616,0.81427693,0.03999997,0.04,-0.019777753455962888,0.009765051580339773,-0.014700453592420004,0.07948130993481257,-0.006174558965901687,-0.057009539139565704,0.9997309792784794,0.018896095946234998,-0.002416215025884826,-0.013231346637131602
2654.3833333395205,-0.024088638,-0.8025712,0.02123958,-2.3841748,-0.012143484,1.5764604,0.81533754,0.039999966,0.04,-0.020926100424278893,0.009847205317804232,-0.014547625576177836,0.08125625612694427,-0.0060103904332693475,-0.05830854969881082,0.9997104558314084,0.01960072195447868,-0.0024868593916241477,-0.013734326724930825
2654.4000000061874,-0.024984168,-0.8032408,0.022022612,-2.3852043,-0.012595253,1.5766635,0.8164211,0.039999966,0.04,-0.021511521437345138,0.009947552576039867,-0.01447180454432484,0.08303667420050471,-0.00584799260741504,-0.05961425139447068,0.9996886988615685,0.020320823950576994,-0.002559072518881932,-0.014248530811181683
2654.4166666728543,-0.025898565,-0.80392444,0.022822144,-2.386255,-0.013056542,1.5768706,0.81752735,0.039999966,0.04,-0.019935720095332066,0.010014462453614321,-0.014447006049267408,0.08482203767572316,-0.005689548247929412,-0.06092561403052553,0.9996656593762773,0.02105631525303393,-0.002632544896213303,-0.014773989275988603
2654.433333339521,-0.026831862,-0.8046225,0.023638211,-2.387328,-0.0135273505,1.5770818,0.81865627,0.03999996,0.04,-0.02118235449564132,0.010091551310740209,-0.0148714149377005,0.08661300785314557,-0.0055319144073175675,-0.06224158707855525,0.9996412842701201,0.0218071879729211,-0.002707472238432742,-0.015310745559140098
2654.450000006188,-0.027784089,-0.8053346,0.024470834,-2.3884223,-0.014007706,1.5772978,0.81980824,0.039999958,0.04,-0.020065103566868636,0.010175883595525334,-0.013963032095754002,0.08840945332111555,-0.005376135948127594,-0.06356254247630373,0.9996155160615157,0.02257366893460914,-0.0027833011969270343,-0.015858838366904077
2654.466666672855,-0.028755259,-0.8060609,0.025320029,-2.3895383,-0.014497634,1.577518,0.82098305,0.039999954,0.04,-0.020681018562473952,0.01026560459814179,-0.014518284098730128,0.09020955754462585,-0.005218436253815175,-0.06488911840424838,0.9995883001786456,0.023355661325332067,-0.0028604365229037186,-0.016418316994160447
2654.483333339522,-0.029745387,-0.80680156,0.026185818,-2.3906767,-0.014997118,1.5777423,0.822181,0.039999958,0.04,-0.021663563447327228,0.010330953912973152,-0.014979284088711964,0.09201334314734491,-0.005062873309574107,-0.06621928158836345,0.9995595753899833,0.024153334055735692,-0.0029390998969074547,-0.016989213989600942
2654.5000000061887,-0.030754488,-0.80755615,0.027068192,-2.391836,-0.015506146,1.5779711,0.82340175,0.039999954,0.04,-0.01923309492428693,0.01038261226158129,-0.013795868556742974,0.09381967360681269,-0.004911278398775887,-0.06755288778671427,0.9995292895031604,0.024966559501098124,-0.0030185343673083194,-0.017571533292762825
2654.5166666728555,-0.031782564,-0.8083251,0.027967166,-2.3930173,-0.016024755,1.5782042,0.82464546,0.03999995,0.04,-0.02127312712665308,0.010502784332677012,-0.014777148841371712,0.09562940476393125,-0.00475666374819797,-0.06889205899849248,0.9994973793665479,0.025795416622832433,-0.0030992899605352953,-0.018165338488399168
2654.5333333395224,-0.032829605,-0.8091082,0.028882733,-2.39422,-0.016552933,1.5784414,0.82591224,0.03999995,0.04,-0.020380285828158762,0.010550503968579164,-0.014403067965096383,0.09744148547243217,-0.004603645570754378,-0.07023387050244123,0.9994637835340915,0.026639979425485752,-0.0031811716139714214,-0.0187706432252838
2654.5500000061893,-0.03389563,-0.80990535,0.029814895,-2.3954446,-0.017090673,1.5786831,0.8272019,0.03999995,0.04,-0.020764618693891457,0.010647597683085055,-0.014216400066557888,0.09925474458594016,-0.0044526121514353,-0.0715798848464006,0.999428442321276,0.02750018120207197,-0.003264135963315116,-0.01938747352117173
2654.566666672856,-0.034980584,-0.8107168,0.030763637,-2.3966906,-0.017637964,1.578929,0.82851446,0.039999947,0.04,-0.020277709421190337,0.010666691423124111,-0.014585976210446105,0.10106964686682254,-0.004302310186643472,-0.07292802962590104,0.9993912931252382,0.02837602494591433,-0.0033481669920568803,-0.020015849008380677
2654.583333339523,-0.036084488,-0.8115425,0.03172894,-2.397959,-0.018194824,1.5791792,0.82984996,0.03999995,0.04,-0.021876057876779598,0.010837686661208795,-0.014738874857589401,0.10288603966660376,-0.0041508131232102854,-0.074279579684533,0.9993522689206078,0.02926757441426142,-0.003433576240403584,-0.02065580415622526
2654.60000000619,-0.037207305,-0.8123823,0.032710794,-2.3992493,-0.01876124,1.5794339,0.83120835,0.03999995,0.04,-0.021249432258385603,0.010864179370772414,-0.014331579798909644,0.1047023278660782,-0.004005538241679348,-0.0756345042449006,0.9993113062431727,0.030174797785713935,-0.0035201393352266588,-0.021307355824125497
2654.616666672857,-0.038349,-0.8132362,0.033709172,-2.4005616,-0.0193372,1.5796927,0.83258957,0.03999997,0.04,-0.021360102121459335,0.010938874090082179,-0.014721653217675268,0.10651885675777774,-0.00386049003627403,-0.07699916047351334,0.9992683385093004,0.031097682875483257,-0.0036080489680899563,-0.021970520141366166
2654.6333333395237,-0.039509542,-0.81410426,0.034724027,-2.401895,-0.019922616,1.5799556,0.83399355,0.03999997,0.04,-0.020110910613024835,0.010956562705529554,-0.014415163765457706,0.10833489496613691,-0.003720628017436634,-0.07835557280014545,0.9992233011183915,0.032036222041573845,-0.0036969025438504124,-0.022645261997785365
2654.6500000061906,-0.040688913,-0.8149863,0.03575535,-2.4032502,-0.020517536,1.5802226,0.8354205,0.039999966,0.04,-0.021165099581543778,0.01108404457430337,-0.014430045331836894,0.11015048533952909,-0.003581704177819736,-0.07971535597480295,0.9991761204814352,0.032990511776917995,-0.0037869786862984147,-0.0233316348504561
2654.6666666728574,-0.041887056,-0.81588256,0.036803093,-2.4046273,-0.02112192,1.5804942,0.83687025,0.039999973,0.04,-0.021166260143190563,0.011144876086131156,-0.0144345221917197,0.11196379116604185,-0.0034448981777407163,-0.081074611400278,0.9991267296238222,0.033960501847263444,-0.003878053141633444,-0.02402963106913029
2654.6833333395243,-0.04310392,-0.81679296,0.03786721,-2.4060252,-0.021735737,1.58077,0.8383427,0.039999966,0.04,-0.01937265608931149,0.011161749837695911,-0.013984855226856219,0.11377494423035156,-0.0033102916462494428,-0.0824365320032237,0.9990750615822165,0.03494614022089103,-0.003969692802941787,-0.024739243060419015
2654.700000006191,-0.044339452,-0.81771713,0.03894767,-2.4074447,-0.022358974,1.5810503,0.8398372,0.03999996,0.04,-0.02136494202773509,0.01127195226855171,-0.01416811909014104,0.11558384077884794,-0.0031726248451577482,-0.08379834418930011,0.9990210547592219,0.03594707194353913,-0.0040624850851474666,-0.02546048666838134
2654.716666672858,-0.0455936,-0.81865525,0.040044423,-2.4088857,-0.022991601,1.5813347,0.8413545,0.039999966,0.04,-0.020869296706349516,0.011330203255819835,-0.01433012542588763,0.11739303306109891,-0.0030393226097271374,-0.08516135360352294,0.9989646218095768,0.03696372845122558,-0.004156312694524785,-0.02619336207169419
2654.733333339525,-0.046866313,-0.81960726,0.041157406,-2.4103482,-0.023633597,1.5816231,0.8428942,0.03999995,0.04,-0.021033212632981524,0.011423551906822663,-0.014483268926768211,0.11919785463656972,-0.0029083812536436285,-0.08652538153068394,0.9989056950966777,0.037995918012948895,-0.0042513120906536314,-0.02693787042964439
2654.750000006192,-0.04815752,-0.82057315,0.04228655,-2.4118319,-0.024284918,1.5819157,0.8444564,0.039999947,0.04,-0.020544924815801835,0.011483574446848402,-0.014106929410617752,0.12099938436415061,-0.002780602886000093,-0.08788754531942286,0.998844200261709,0.03904367625814603,-0.004347166784087537,-0.02769399011965496
2654.7666666728587,-0.049467158,-0.82155275,0.043431807,-2.413337,-0.024945535,1.5822123,0.8460408,0.039999943,0.04,-0.02127768771635896,0.011555497397918238,-0.014403272649565757,0.12279645506947001,-0.00265607389822084,-0.08925023166627005,0.9987800639686225,0.04010688873743925,-0.0044442490509287585,-0.028461727723562657
2654.7833333395256,-0.050795127,-0.82254606,0.04459312,-2.4148629,-0.025615415,1.5825136,0.84764737,0.039999943,0.04,-0.019869278222328646,0.011559804174834584,-0.013529541456569483,0.12458958829616613,-0.002535303453555654,-0.09061217649887315,0.998713215161183,0.04118550645151532,-0.004541826176772506,-0.029241062493089536
2654.8000000061925,-0.052141357,-0.82355297,0.045770384,-2.41641,-0.026294488,1.5828187,0.8492761,0.03999994,0.04,-0.021052846701552497,0.011680474139146024,-0.01424236860867456,0.12637820157062113,-0.002413918721534219,-0.09197227349254332,0.9986435727207574,0.042279560156325294,-0.004640535761168019,-0.030031964377281225
2654.8166666728594,-0.05350576,-0.8245736,0.046963558,-2.4179773,-0.02698275,1.5831282,0.8509268,0.03999994,0.04,-0.019222503865456986,0.011675979214991264,-0.013580839555737967,0.1281612794187782,-0.002296946193106119,-0.09333282419093197,0.998571066823441,0.04338891358514681,-0.004739647129936644,-0.030834435718516847
2654.8333333395262,-0.054888252,-0.8256077,0.048172552,-2.419566,-0.027680127,1.5834417,0.85259944,0.039999936,0.04,-0.02113128824081656,0.011786458892469598,-0.01413831409766697,0.12993963219301954,-0.0021778243351160374,-0.09469090111938597,0.9984956148676094,0.0445135789969312,-0.004839827365407319,-0.03164845092752061
2654.850000006193,-0.056288756,-0.8266554,0.0493973,-2.4211755,-0.028386567,1.5837592,0.8542938,0.03999994,0.04,-0.02078921368833253,0.011835351368312541,-0.014121788474397157,0.13171183937695874,-0.002064227365010142,-0.09604645002291907,0.9984171406881942,0.045653472534511866,-0.004941001064310241,-0.03247399165538208
2654.86666667286,-0.057707142,-0.82771647,0.05063771,-2.4228048,-0.029102046,1.5840808,0.85600984,0.03999994,0.04,-0.01884387672861365,0.011829747230130902,-0.013312506660234646,0.13347754632265896,-0.001954661001749316,-0.09740073129107149,0.9983355707438852,0.04680851303827324,-0.005042495144884778,-0.03331102726336635
2654.883333339527,-0.05914334,-0.82879084,0.051893674,-2.4244547,-0.029826486,1.5844065,0.85774755,0.039999936,0.04,-0.020245865920354156,0.01196182680818364,-0.013700790982529298,0.13523695052318238,-0.0018435666734955315,-0.09875253222621491,0.9982508190921143,0.04797875278771884,-0.005144767227903674,-0.03415952038639444
2654.9000000061937,-0.06059722,-0.8298785,0.05316512,-2.4261258,-0.030559866,1.5847361,0.85950655,0.039999936,0.04,-0.0215186543735868,0.01203725430635287,-0.014150830863091102,0.13698841806764223,-0.0017351189322364173,-0.10010770071162767,0.998162810772009,0.049163967233015256,-0.005248221512217656,-0.035019475846911986
2654.9166666728606,-0.062068686,-0.8309793,0.054451935,-2.4278166,-0.031302128,1.5850695,0.8612869,0.039999947,0.04,-0.0193412952959493,0.012055029869034034,-0.013465242795374088,0.13873307211610986,-0.0016334310684246942,-0.10145752683396121,0.9980714648437174,0.05036419145338997,-0.00535227211893833,-0.03589084099219748
2654.9333333395275,-0.063557625,-0.8320932,0.05575403,-2.4295273,-0.032053195,1.5854069,0.8630882,0.039999954,0.04,-0.019329085301533766,0.012085842115044931,-0.013387132866848894,0.14046927112626978,-0.0015330103803038175,-0.10280065031685728,0.9979767078155315,0.05157923852526977,-0.005456846948105356,-0.03677357247006874
2654.9500000061944,-0.06506389,-0.83322006,0.05707128,-2.4312582,-0.032812983,1.5857481,0.8649106,0.03999995,0.04,-0.02032378022096548,0.012139222741201772,-0.01366435922751652,0.1421982681079539,-0.001434855029311951,-0.10414031847793408,0.9978784516661027,0.05280915447837147,-0.005562281991930131,-0.03766762433155799
2654.9666666728613,-0.06658741,-0.8343599,0.0584036,-2.4330087,-0.033581458,1.5860932,0.8667537,0.039999947,0.04,-0.01915831229419851,0.012221982738638143,-0.013209886302223417,0.14391797138144707,-0.001339863846864988,-0.10547549523733077,0.9977766235667423,0.054053745681577836,-0.005668179250693872,-0.0385729670303567
2654.983333339528,-0.06812804,-0.83551246,0.05975088,-2.4347787,-0.034358565,1.5864425,0.8686177,0.03999994,0.04,-0.019295160449606108,0.012250918060745242,-0.012956876513703364,0.14562929320823254,-0.0012477385948430342,-0.1068083555360356,0.9976711336060666,0.05531310012954366,-0.0057744844831705685,-0.03948956130673742
2655.000000006195,-0.06968561,-0.8366776,0.061113004,-2.4365685,-0.035144232,1.5867956,0.8705023,0.039999936,0.04,-0.02001776456355131,0.012284218152473075,-0.013270689399580426,0.1473304492795121,-0.0011549919854015808,-0.10813517250815882,0.9975619044510583,0.05658701643214642,-0.005881571611391597,-0.04041736600356072
2655.016666672862,-0.07126002,-0.83785564,0.06248984,-2.4383776,-0.035938397,1.5871525,0.8724072,0.03999993,0.04,-0.018915553989939937,0.012356438653758628,-0.01319978032636726,0.14902151910137562,-0.0010682331746259717,-0.10945909659052891,0.9974488577517371,0.057875397102337335,-0.0059890398325086,-0.041356329405382974
2655.033333339529,-0.072851144,-0.839046,0.0638813,-2.4402058,-0.036740974,1.5875131,0.8743323,0.039999936,0.04,-0.019132993135828613,0.012372717156129698,-0.01292508477066523,0.15070256160575293,-0.0009833693339457786,-0.11077658380373945,0.9973319105775749,0.059178156526957064,-0.006097080763233052,-0.04230640069684342
2655.0500000061957,-0.07445882,-0.84024876,0.06528722,-2.442053,-0.037551913,1.5878776,0.8762773,0.039999932,0.04,-0.019013608348172895,0.012462526779505323,-0.012796507969259352,0.15237322490404842,-0.0009008836511639959,-0.112090536780614,0.9972109863501423,0.060495136768663374,-0.00620553237495604,-0.04326752243727881
2655.0666666728625,-0.076082915,-0.84146374,0.066707484,-2.4439194,-0.038371116,1.588246,0.87824225,0.039999925,0.04,-0.01925761991472541,0.012481218726676652,-0.012818472957287774,0.15403369637924208,-0.0008200117200150153,-0.11339833415933229,0.9970859980528414,0.061826319982623903,-0.006314524649290452,-0.04423963633246594
2655.0833333395294,-0.07772324,-0.84269094,0.06814198,-2.4458044,-0.039198544,1.5886183,0.88022685,0.039999925,0.04,-0.018428422755789597,0.012480072232033679,-0.012511012951232914,0.15568244293424366,-0.0007433253616760289,-0.11470130202481127,0.9969568686605123,0.0631715509071271,-0.006423744425567876,-0.045222701093249294
2655.1000000061963,-0.07937969,-0.8439302,0.069590546,-2.447708,-0.040034074,1.5889935,0.882231,0.03999992,0.04,-0.018923640708634615,0.012576719024377792,-0.013164823358446931,0.15731995648209107,-0.0006679192233287334,-0.11599744373339463,0.9968235088836538,0.06453080402014436,-0.006533742488153396,-0.04621663854600976
2655.116666672863,-0.0810521,-0.8451814,0.07105307,-2.4496293,-0.04087766,1.5893726,0.8842544,0.039999917,0.04,-0.017535117618328044,0.012547942844763627,-0.012171773008895492,0.1589446779179289,-0.0005983382873697464,-0.11728848767909436,0.9966858479350555,0.06590387857563436,-0.006643761351525752,-0.04722139080725141
2655.13333333953,-0.08274029,-0.84644455,0.07252942,-2.4515696,-0.041729216,1.5897554,0.8862968,0.039999917,0.04,-0.01926429977079369,0.012643501157082876,-0.012735938095742583,0.1605574854575204,-0.0005280339156435304,-0.118571987459787,0.996543802229457,0.067290634096483,-0.0067543531191145,-0.04823691029587651
2655.150000006197,-0.084444106,-0.84771925,0.07401943,-2.4535272,-0.042588655,1.5901417,0.88835824,0.039999917,0.04,-0.017299684246530056,0.012610229388380217,-0.012049495504973251,0.1621579655671073,-0.00046288236165763913,-0.1198556246282722,0.9963972885068015,0.06869105366796613,-0.006865081977851739,-0.0492631023354775
2655.166666672864,-0.086163394,-0.8490057,0.07552296,-2.4555027,-0.043455906,1.5905313,0.8904384,0.03999993,0.04,-0.0179331878379152,0.012708823731407554,-0.012401620939783697,0.16374488575060422,-0.00039920372673065557,-0.12112803433681105,0.9962462265725778,0.07010498532455377,-0.006976085495445388,-0.05029991355563586
2655.1833333395307,-0.087897964,-0.8503036,0.07703986,-2.457496,-0.04433085,1.5909244,0.89253706,0.03999992,0.04,-0.017890136589948646,0.012684370164673525,-0.012254454867655085,0.16531835279992713,-0.00033839135501055606,-0.12239133781776963,0.9960905367331517,0.07153230124869074,-0.007087438393465533,-0.0513472562630869
2655.2000000061976,-0.08964769,-0.8516126,0.078569986,-2.459506,-0.04521343,1.591321,0.89465404,0.039999925,0.04,-0.016924876788659837,0.012743716897763852,-0.011602491180418006,0.16687820115316698,-0.0002806307828285004,-0.1236446099155312,0.9959301421369263,0.0729728673687512,-0.007198801114940592,-0.05240505580201389
2655.2166666728644,-0.09141234,-0.85293293,0.08011316,-2.4615333,-0.046103563,1.591721,0.89678895,0.039999913,0.04,-0.017249847946443353,0.012770792157910243,-0.011897276991978956,0.168423337809656,-0.00022381957056421403,-0.12489502409573594,0.9957649685884458,0.07442647426474147,-0.0073102826393140145,-0.053473236560961104
2655.2333333395313,-0.09319175,-0.8542642,0.08166923,-2.4635782,-0.047001127,1.5921243,0.89894193,0.039999917,0.04,-0.01844893322611174,0.012829330348673729,-0.012211576789367129,0.16995524492533853,-0.0001696169236826625,-0.1261323048338347,0.9955949211246757,0.07589315575290038,-0.0074223677766552315,-0.054551722220337405
2655.250000006198,-0.09498573,-0.85560644,0.08323805,-2.46564,-0.047906034,1.592531,0.90111226,0.039999917,0.04,-0.01721038303470479,0.012789762165256457,-0.011787832992915526,0.1714708610229519,-0.00012142616247844823,-0.12736402474915146,0.995419944114612,0.07737252162310268,-0.007534640645442044,-0.055640425473655386
2655.266666672865,-0.09679413,-0.8569595,0.08481948,-2.4677172,-0.04881822,1.5929409,0.9033002,0.039999906,0.04,-0.014514385064035018,0.01271848658817229,-0.010907112044944434,0.17297289227880258,-7.70547321042453e-05,-0.1285871631628213,0.9952399463969686,0.07886469502338556,-0.007646300771573919,-0.05673925501042616
2655.283333339532,-0.09861673,-0.8583231,0.08641332,-2.4698112,-0.049737573,1.593354,0.90550536,0.0399999,0.04,-0.01778531065801392,0.012902453020616211,-0.01181395239395755,0.1744588008112027,-2.7687543899306e-05,-0.12980095874858946,0.9950548511742194,0.08036941188531282,-0.00775847467640267,-0.057848136171846136
2655.300000006199,-0.10045334,-0.8596969,0.08801939,-2.4719222,-0.05066401,1.5937704,0.9077273,0.03999989,0.04,-0.017961836283131305,0.012954067135061142,-0.011564659073171057,0.1759284516190226,1.4395901565711355e-05,-0.1310057961738626,0.9948645879587623,0.0818864533961,-0.007871154825948117,-0.05896698480977567
2655.3166666728657,-0.10230378,-0.8610813,0.089637555,-2.4740489,-0.05159739,1.5941899,0.9099662,0.039999895,0.04,-0.01571782831748525,0.012819903182251235,-0.011298068341480949,0.17738243187772304,4.918371501457658e-05,-0.13220000690466016,0.9946690725503764,0.08341586122067304,-0.007983695701113836,-0.06009568047322123
2655.3333333395326,-0.104167864,-0.8624763,0.09126765,-2.4761913,-0.052537695,1.5946124,0.9122213,0.039999887,0.04,-0.015689684759800926,0.012888239698066045,-0.011450915586341814,0.1788190764673634,8.400456066160605e-05,-0.13338864332661743,0.9944682437099813,0.08495728070634123,-0.008096127529333723,-0.06123418511254829
2655.3500000061995,-0.10604535,-0.86388105,0.092909455,-2.478349,-0.053484734,1.5950379,0.9144931,0.039999884,0.04,-0.015711085545544456,0.012853624004410813,-0.010773075163150736,0.18023979772142035,0.0001161871585665386,-0.13456268852669512,0.99426200886727,0.086510827881207,-0.008208542131412979,-0.06238232296577089
2655.3666666728664,-0.10793606,-0.86529565,0.09456283,-2.4805217,-0.054438446,1.5954667,0.91678065,0.039999876,0.04,-0.015209557075990254,0.012854136825764945,-0.010624252878854712,0.1816416093864655,0.00014744481472368787,-0.13573160657459313,0.9940503207223695,0.08807604877118815,-0.008320739263849028,-0.06354002520232893
2655.3833333395332,-0.10983979,-0.86672,0.096227564,-2.4827092,-0.055398744,1.5958983,0.9190841,0.03999988,0.04,-0.015005923742195115,0.012889685445762605,-0.010873684461243371,0.18302716357262974,0.0001771744462564645,-0.13689020356850906,0.9938330909804972,0.08965295784337694,-0.008432848603946228,-0.06470719810428657
2655.4000000062,-0.111756355,-0.8681541,0.09790351,-2.4849114,-0.056365516,1.5963328,0.9214029,0.039999887,0.04,-0.014996258820731967,0.01289613700785966,-0.010706931421466948,0.18439405733122602,0.0002036962692902114,-0.13803791138488958,0.9936102597126254,0.09124127756920812,-0.00854478041514478,-0.0658837444974449
2655.416666672867,-0.113685496,-0.8695973,0.09959043,-2.4871283,-0.057338633,1.59677,0.92373675,0.039999884,0.04,-0.015268324472739181,0.01290676552184733,-0.010541319696533158,0.1857436790361244,0.00022816913956081458,-0.13917023592196343,0.9933817612298309,0.0928408054836393,-0.008656825093693794,-0.06706952118783557
2655.433333339534,-0.11562701,-0.87105006,0.10128816,-2.489359,-0.058317997,1.5972102,0.92608577,0.03999988,0.04,-0.013595469496996415,0.012802893184865605,-0.010298642681050296,0.18707505112646985,0.00024840073089372333,-0.14029318567185697,0.9931475174102151,0.0944515341987735,-0.008768339431864239,-0.06826443124374522
2655.4500000062008,-0.11758072,-0.872512,0.10299655,-2.4916034,-0.059303485,1.597653,0.92844945,0.039999876,0.04,-0.01399279712739343,0.012821077957216043,-0.010272872975081171,0.1883875003568027,0.00026914140969885175,-0.14140278856049454,0.9929074689636926,0.09607318674578368,-0.008879562391680869,-0.06946836860295481
2655.4666666728676,-0.11954635,-0.87398267,0.10471535,-2.4938614,-0.060294997,1.5980986,0.9308276,0.03999986,0.04,-0.014003856164679362,0.01283057335497162,-0.010010967125273496,0.18968139885735807,0.00028908484059667755,-0.1425012165537925,0.9926615492194422,0.09770561089288109,-0.008990572394986905,-0.07068119912194808
2655.4833333395345,-0.12152372,-0.8754622,0.10644442,-2.4961329,-0.061292455,1.5985469,0.93322,0.03999986,0.04,-0.0135672226497352,0.012819091368609925,-0.01004537510573833,0.19095552128298848,0.00030744474683389034,-0.1435892411200257,0.9924096893667094,0.09934865663242153,-0.009101273086071716,-0.07190284907162765
2655.5000000062014,-0.123512566,-0.87695026,0.10818352,-2.498418,-0.062295698,1.5989977,0.93562627,0.039999854,0.04,-0.014607563352919684,0.012837582420624494,-0.01024366656459108,0.19221003394402802,0.00032296185251336207,-0.144662523375237,0.9921518346043164,0.10100205523839544,-0.009212020959230686,-0.0731331703042887
2655.5166666728683,-0.1255127,-0.8784467,0.109932475,-2.5007167,-0.06330462,1.5994511,0.9380464,0.03999985,0.04,-0.014068483738172155,0.01282999038069027,-0.01002856803040686,0.1934448464025325,0.0003332325500470801,-0.1457219236817226,0.9918879055154891,0.10266580416450437,-0.009322740417803907,-0.07437205159503248
2655.533333339535,-0.1275239,-0.87995136,0.11169109,-2.5030272,-0.06431911,1.5999068,0.9404797,0.039999835,0.04,-0.011796339661485078,0.012666575590303264,-0.009348529994124277,0.19465751908978046,0.0003385036062606567,-0.14677356474174402,0.9916178731272227,0.10433949176821085,-0.009432847075406925,-0.07561934638864888
2655.550000006202,-0.12954588,-0.8814643,0.11345915,-2.5053504,-0.06533912,1.6003653,0.94292605,0.039999824,0.04,-0.012820174981209576,0.012741720716949456,-0.009537195320485914,0.19585133051646458,0.0003458719557531964,-0.14781100982366874,0.9913416698380935,0.10602298708488332,-0.009542478102464563,-0.07687496968378676
2655.566666672869,-0.13157852,-0.8829852,0.11523645,-2.507686,-0.066364445,1.6008263,0.94538516,0.039999828,0.04,-0.012843297485121141,0.01276404093827066,-0.009492299041391483,0.19702430122230521,0.0003515263097192689,-0.1488331140196283,0.9910592365869247,0.10771613854006763,-0.009651814503881279,-0.07813875831200245
2655.583333339536,-0.13362145,-0.8845137,0.117022805,-2.5100331,-0.06739498,1.601289,0.9478569,0.039999813,0.04,-0.012129883917300077,0.012560948951192974,-0.0095636218612416,0.19817651096274075,0.0003548631843989167,-0.14984194514635746,0.9907705131608813,0.10941878785131152,-0.009760989601201918,-0.07941059248034195
2655.6000000062027,-0.13567455,-0.8860499,0.118817985,-2.512393,-0.06843062,1.6017545,0.9503408,0.03999982,0.04,-0.013321819573475224,0.012770209204243654,-0.009474117736929522,0.19930674957645955,0.0003543154344133048,-0.15083699306623186,0.9904754537505931,0.11113067541548596,-0.009869954674529776,-0.08069034944760956
2655.6166666728695,-0.13773747,-0.8875936,0.12062178,-2.5147624,-0.069471255,1.6022222,0.95283675,0.039999813,0.04,-0.008549569767746235,0.012302073626378751,-0.008156724567776052,0.20041522780685075,0.00034941884961445235,-0.15182234012336981,0.9901740196010628,0.11285163659162864,-0.009977594637369079,-0.08197784231679608
2655.6333333395364,-0.13981007,-0.8891443,0.12243398,-2.5171444,-0.070516765,1.6026919,0.9553442,0.039999813,0.04,-0.0142697658349622,0.012781578130344196,-0.009804489519060766,0.201501867437485,0.00035149519564327963,-0.15279378301743207,0.9898661444148351,0.11458140443323156,-0.010085767253040208,-0.08327301602761053
2655.6500000062033,-0.14189202,-0.8907021,0.12425439,-2.5195363,-0.07156698,1.603164,0.9578631,0.039999805,0.04,-0.009150934098678398,0.012244985145311305,-0.008086536970042246,0.20256662295695224,0.00034281704508409144,-0.153746824661076,0.989551801339952,0.11631982481643775,-0.01019276431329438,-0.0845756370072556
2655.66666667287,-0.14398314,-0.89226687,0.12608281,-2.5219388,-0.07262186,1.6036379,0.96039283,0.039999794,0.04,-0.01110482873976082,0.01247796900285536,-0.008935053824821182,0.2036094214408558,0.000338049851872628,-0.1546854768402428,0.9892309411511147,0.1180665934747616,-0.010299431557712783,-0.08588565819817288
2655.683333339537,-0.14608319,-0.8938381,0.12791896,-2.5243516,-0.073681235,1.6041138,0.9629336,0.039999794,0.04,-0.01069869322294359,0.012416756360462966,-0.00856330625889079,0.20463018193405424,0.00033034367104548684,-0.15560630018425897,0.988903498688415,0.11982173962905028,-0.010405721449639145,-0.0872028781359452
2655.700000006204,-0.14819187,-0.89541584,0.1297627,-2.5267735,-0.074744955,1.6045918,0.96548486,0.03999978,0.04,-0.00860623649046044,0.012088364035617305,-0.007767450042961421,0.2056261105200398,0.0003189498984353459,-0.1565139506973953,0.9885694634536842,0.12158487913615192,-0.010510929164518791,-0.08852713403494207
2655.716666672871,-0.15030898,-0.897,0.13161375,-2.5292058,-0.075812936,1.6050719,0.9680463,0.039999764,0.04,-0.011078102553097047,0.012375313086300521,-0.00869549175943618,0.2065999515150041,0.0003110440212780313,-0.15740732308122354,0.9882287772690809,0.12335585886162187,-0.010615861868196115,-0.08985832926648635
2655.7333333395377,-0.1524342,-0.8985902,0.13347192,-2.5316484,-0.07688506,1.6055536,0.9706176,0.03999976,0.04,-0.011168395276395238,0.012235290747464322,-0.00872136806473467,0.20754997583547916,0.00029961468984630174,-0.15828067458068873,0.9878814082953471,0.12513439254542186,-0.010720787049424425,-0.09119633584596994
2655.7500000062046,-0.15456736,-0.90018624,0.135337,-2.5340993,-0.07796115,1.6060373,0.9731984,0.03999976,0.04,-0.008047199398841798,0.011989472378341748,-0.007470024724187674,0.20847549058713477,0.00028042863430310233,-0.15914187950893938,0.9875273378590048,0.12692028957449641,-0.010824731728409804,-0.0925409220747281
2655.7666666728715,-0.15670817,-0.90178823,0.13720873,-2.5365584,-0.07904111,1.6065227,0.9757884,0.039999742,0.04,-0.007531777696323516,0.011893408932418803,-0.007528176031357248,0.20937808870530178,0.0002641791601181026,-0.15998720865973162,0.9871665383751803,0.1287133036073799,-0.010927580567822514,-0.0938919537008998
2655.7833333395383,-0.15885636,-0.90339565,0.13908689,-2.5390263,-0.080124825,1.6070096,0.9783875,0.039999742,0.04,-0.009303782015002149,0.011994642450324777,-0.0079615055234461,0.21025708521179096,0.0002502287297046976,-0.16081137799567113,0.986798958127085,0.13051330900553543,-0.01103007181668194,-0.09524930407852887
2655.800000006205,-0.16101173,-0.9050083,0.1409713,-2.5415022,-0.08121214,1.6074983,0.9809951,0.039999727,0.04,-0.008221096424820828,0.0118033337806564,-0.007455444425019664,0.21111035365926928,0.00023182938373696171,-0.1616226867478407,0.9864245876483116,0.13231998770957726,-0.011131892512982333,-0.09661280818025518
2655.816666672872,-0.16317393,-0.90662616,0.1428617,-2.543986,-0.082302935,1.6079885,0.9836109,0.039999712,0.04,-0.007879425837797882,0.011702472401919906,-0.007448425747980103,0.21193975950258226,0.00021409963493764644,-0.16241673720039718,0.9860434133588222,0.13413305387146768,-0.011233021100295552,-0.09798229466468542
2655.833333339539,-0.16534278,-0.90824884,0.14475794,-2.5464776,-0.083397046,1.6084801,0.9862348,0.03999971,0.04,-0.007844510626475731,0.011568257679396565,-0.007320217681616725,0.21274467177925072,0.0001925169094951218,-0.16319215707490958,0.985655398257838,0.13595237098435317,-0.011333574938260954,-0.0993576307488981
2655.850000006206,-0.16751796,-0.90987635,0.1466597,-2.5489762,-0.08449441,1.6089733,0.9888663,0.039999697,0.04,-0.006962288004719319,0.011531546288943983,-0.007030006043096115,0.21352500080281298,0.00016995502850531558,-0.16395073198745808,0.9852605312765734,0.13777769502589687,-0.011433263598853573,-0.1007386358128527
2655.8666666728727,-0.16969927,-0.9115086,0.14856674,-2.5514824,-0.08559484,1.6094677,0.9915054,0.039999686,0.04,-0.007866806687073513,0.011552014252468046,-0.00752490261781702,0.2142798124272896,0.00014850207948505917,-0.16469156321482714,0.9848587758323657,0.1396089140188969,-0.011532478500398175,-0.10212514250700637
2655.8833333395396,-0.1718864,-0.9131452,0.15047888,-2.553995,-0.08669824,1.6099634,0.9941514,0.03999967,0.04,-0.005929551066952143,0.011225872352081667,-0.006669377032242352,0.21500806360744248,0.0001229711608109127,-0.16541710598716078,0.9844501458242517,0.14144562961995585,-0.011630817177127484,-0.10351699541532404
2655.9000000062065,-0.1740791,-0.91478586,0.15239583,-2.556514,-0.08780447,1.6104605,0.99680424,0.03999967,0.04,-0.006802003425709913,0.011300901868806223,-0.006766210988895516,0.21571180668624246,9.885954681223413e-05,-0.16612288364829747,0.9840346185140783,0.1432876979996503,-0.011728492637217529,-0.10491400110696447
2655.9166666728734,-0.17627709,-0.91643053,0.15431742,-2.5590396,-0.088913344,1.6109587,0.9994634,0.039999656,0.04,-0.006595570994560873,0.011057643862530386,-0.0069047024485957564,0.21638863775551126,7.252490335223072e-05,-0.16681316392052847,0.983612196431929,0.14513478516313483,-0.011825638224356817,-0.10631601688642005
2655.9333333395402,-0.17848012,-0.9180791,0.15624338,-2.5615714,-0.090024784,1.6114581,1.0021286,0.039999656,0.04,-0.006234034956253964,0.011058961869721273,-0.0067074136095301995,0.21703976284152118,4.167917696481366e-05,-0.1674827421243575,0.9831828660961006,0.14698672462513673,-0.011922142971653164,-0.10772287178679645
2655.950000006207,-0.18068792,-0.9197311,0.15817347,-2.5641077,-0.091138646,1.6119584,1.0047995,0.039999645,0.04,-0.0038733791791978334,0.010709448042665881,-0.0058251569675871195,0.21766460671359655,1.0386342191526232e-05,-0.16813519095416202,0.9827466467810787,0.14884321216382265,-0.012017515456887817,-0.10913434727685158
2655.966666672874,-0.18290026,-0.92138636,0.16010751,-2.5666492,-0.09225475,1.61246,1.007476,0.03999963,0.04,-0.005121237625771435,0.010700707233177176,-0.005960212056099756,0.21826364860557815,-2.020144587655537e-05,-0.1687657732656982,0.9823035160994509,0.15070412986717222,-0.012112023873857177,-0.11055028890651282
2655.983333339541,-0.18511678,-0.92304486,0.16204527,-2.5691967,-0.09337302,1.6129626,1.0101577,0.039999627,0.04,-0.006432867286854105,0.010660543678232826,-0.0066838809121394505,0.218835345268255,-5.01379926586068e-05,-0.1693774312738538,0.9818534683782868,0.15256919320231296,-0.012206237609943067,-0.1119706018673354
2656.0000000062078,-0.18733728,-0.92470634,0.16398643,-2.5717475,-0.09449328,1.6134658,1.0128441,0.039999615,0.04,-0.002335419728005661,0.010254715182624052,-0.005407797859113828,0.21937984767273133,-8.554258756309635e-05,-0.16996997978320497,0.9813965482246229,0.15443809003187253,-0.012299179774334375,-0.11339498073980825
2656.0166666728746,-0.18956146,-0.9263705,0.16593082,-2.5743034,-0.0956154,1.61397,1.0155349,0.039999604,0.04,-0.005249754439362597,0.01037263464303273,-0.005970378585917757,0.21989822187544952,-0.00011820761839265864,-0.17054372435635284,0.9809327491600416,0.1563105631596951,-0.01239159917343073,-0.1148233327331462
2656.0333333395415,-0.19178906,-0.92803717,0.16787817,-2.5768626,-0.09673927,1.6144751,1.0182298,0.039999586,0.04,-0.002652575248851541,0.010054091995685688,-0.005171581588570007,0.2203899119021644,-0.00015394207076711852,-0.1710978267863783,0.9804620878897343,0.15818643298780988,-0.012482880968108206,-0.11625542702270703
2656.0500000062084,-0.19401982,-0.9297063,0.16982825,-2.579426,-0.097864784,1.6149808,1.0209286,0.03999958,0.04,-0.00433048469983266,0.010113892046884065,-0.005955636382859453,0.22085387445825544,-0.0001878087810929241,-0.171631013300305,0.9799845622160566,0.16006545733231003,-0.012573662889174303,-0.11769116444640897
2656.0666666728753,-0.19625348,-0.9313776,0.1717808,-2.5819914,-0.09899171,1.6154871,1.0236307,0.039999563,0.04,-0.0005479929977791897,0.009563695065309408,-0.00451121264424259,0.22129024249007273,-0.00022660994277478447,-0.17214420340425507,0.9795002341262913,0.16194731423773012,-0.012662902982554224,-0.11913022137888012
2656.083333339542,-0.1984897,-0.9330507,0.17373565,-2.5845609,-0.10011996,1.6159941,1.0263361,0.039999552,0.04,-0.004461533889532632,0.009760935146339855,-0.005600114017312308,0.221700344832784,-0.0002580117244272914,-0.17263751243435405,0.9790090867483744,0.1638317980358072,-0.012751815226571362,-0.12057255585288003
2656.100000006209,-0.20072831,-0.9347255,0.17569245,-2.5871327,-0.10124941,1.6165013,1.0290442,0.039999533,0.04,-0.0018143912142720708,0.009545058661489247,-0.0050309683245375325,0.2220818992540668,-0.0002957138980265797,-0.17311084973191543,0.9785111558644511,0.16571869768443012,-0.012839867498973865,-0.12201790396987303
2656.116666672876,-0.20296891,-0.936402,0.17765106,-2.5897064,-0.10237989,1.6170094,1.0317547,0.039999526,0.04,-0.0008841689628447114,0.009097537575450398,-0.004294485849132279,0.22243627288425682,-0.0003342076118390408,-0.17356198422527305,0.9780064912861698,0.16760768173485618,-0.012926558237367776,-0.12346607678920658
2656.133333339543,-0.2052113,-0.9380799,0.1796112,-2.5922828,-0.103511244,1.6175178,1.0344675,0.039999515,0.04,-0.002457610306660918,0.009206297017902432,-0.0050554003199643205,0.22276339482856822,-0.0003680291643013908,-0.17399358614338203,0.9774951007021795,0.16949856089015428,-0.013012652853017559,-0.12491691969116628
2656.1500000062097,-0.20745516,-0.939759,0.18157263,-2.5948608,-0.10464338,1.6180263,1.037182,0.039999492,0.04,-0.00103023502129318,0.008905517146468034,-0.004766554727120287,0.223061079218935,-0.0004059423261638592,-0.17440535050607597,0.9769770235170657,0.1713910718415214,-0.013097927979046632,-0.12637025083224693
2656.1666666728765,-0.20970029,-0.941439,0.18353511,-2.59744,-0.105776176,1.6185352,1.0398979,0.03999948,0.04,-0.00046196308658430496,0.008757480302309939,-0.004034276783837498,0.223331768545309,-0.0004445645169915968,-0.17479511800815867,0.9764523095964419,0.17328492989540703,-0.013182140574555416,-0.12782586328592035
2656.1833333395434,-0.21194638,-0.9431195,0.1854984,-2.6000202,-0.10690947,1.6190445,1.0426152,0.03999947,0.04,-0.0002557663457025683,0.008556891334648986,-0.003860269994060417,0.22357384013303833,-0.0004826390871830316,-0.17516255390024438,0.975920986311583,0.1751799733559291,-0.013265295050888453,-0.12928355409276068
2656.2000000062103,-0.2141931,-0.9448006,0.18746226,-2.602601,-0.108043104,1.619554,1.0453333,0.03999945,0.04,2.1523944626622438e-05,0.008286340336419173,-0.004008861953797016,0.22378785248687424,-0.0005180999276731893,-0.17550909112371305,0.975383109612211,0.17707587289439336,-0.013347503883096854,-0.1307431407837262
2656.216666672877,-0.21644026,-0.946482,0.18942645,-2.6051822,-0.10917693,1.6200635,1.0480517,0.03999943,0.04,0.000590950133028123,0.008105841867422914,-0.003785921373800072,0.22397284832290054,-0.0005550266983213314,-0.1758350350937019,0.9748387356887407,0.17897233994681702,-0.01342874163867092,-0.1322044244068262
2656.233333339544,-0.21868756,-0.9481634,0.19139074,-2.6077638,-0.11031085,1.620573,1.0507703,0.039999418,0.04,-3.9372757454358975e-05,0.008056363624070473,-0.0038906702237939683,0.22413050899724818,-0.0005917967805029595,-0.17613675580848476,0.9742879001221304,0.18086915839498002,-0.013509287195542504,-0.13366725244640074
2656.250000006211,-0.2209347,-0.9498447,0.19335485,-2.6103451,-0.11144471,1.6210825,1.0534887,0.039999407,0.04,0.0011279978185507744,0.007722356440559297,-0.0034751489791817747,0.2242589203980954,-0.0006296085069410554,-0.1764183982529277,0.9737306603074111,0.18276611308668964,-0.013588827902513019,-0.13513139102633637
2656.266666672878,-0.22318138,-0.95152575,0.19531858,-2.6129258,-0.112578325,1.6215918,1.0562066,0.039999396,0.04,0.0016582538862053298,0.00739060281673698,-0.00331895931777737,0.22435882264346863,-0.0006671718152740577,-0.17667705978024503,0.9731670902084366,0.18466286400027407,-0.013667392078860773,-0.1365966455965291
2656.2833333395447,-0.22542736,-0.95320636,0.19728167,-2.6155057,-0.113711625,1.6221008,1.0589234,0.03999937,0.04,0.0015966456309080002,0.007334176320111796,-0.003338370689287551,0.22443072616885784,-0.0007048389160921389,-0.17691624274370818,0.9725972537675162,0.18655911371028347,-0.013745071528529908,-0.1380628554832729
2656.3000000062116,-0.22767234,-0.95488614,0.19924384,-2.6180842,-0.11484447,1.6226095,1.0616392,0.03999937,0.04,0.0024007747813747926,0.00705484087561159,-0.0028981072000222596,0.22447446644513178,-0.0007432752573007378,-0.177130410299634,0.9720211821331599,0.1884548139082432,-0.013821766371527962,-0.13952979385649084
2656.3166666728785,-0.22991611,-0.956565,0.20120493,-2.6206617,-0.11597663,1.623118,1.0643536,0.039999355,0.04,0.0016265490854205922,0.00691457029883269,-0.00303006061221911,0.22448787551251537,-0.0007801192855149408,-0.17732392287089604,0.9714389506647005,0.19034965200979767,-0.013897665114904699,-0.14099726953231514
2656.3333333395453,-0.23215836,-0.9582427,0.2031646,-2.6232378,-0.11710806,1.6236262,1.067066,0.039999336,0.04,0.002134692072708333,0.006745141159988921,-0.0028750487958362214,0.22447247546346336,-0.0008199140225413973,-0.17749372824482973,0.970850652357244,0.19224324607349363,-0.013972833086046946,-0.1424651013132313
2656.350000006212,-0.2343988,-0.95991904,0.20512271,-2.6258116,-0.1182386,1.6241341,1.0697759,0.039999317,0.04,0.0035766281862192884,0.006287780832603396,-0.0022440583833160943,0.22442782860309832,-0.0008601763161258588,-0.17764173390079346,0.9702563791979691,0.19413529285604905,-0.01404690758503659,-0.14393307847968848
2656.366666672879,-0.23663713,-0.9615939,0.20707896,-2.6283822,-0.1193681,1.6246414,1.0724837,0.039999295,0.04,0.00470901838043325,0.005962343029897177,-0.0018993062254946125,0.22435588712779822,-0.0008990484158018647,-0.1777683837707833,0.9696561698633269,0.19602577078580258,-0.014119612929053192,-0.14540098336857496
2656.383333339546,-0.23887305,-0.96326697,0.20903315,-2.6309512,-0.12049641,1.6251484,1.0751884,0.03999928,0.04,0.0020041408151039164,0.006040360145914692,-0.0026166583366071805,0.22425437191254763,-0.0009353629755912071,-0.1778685186670049,0.9690501286932461,0.1979142061451449,-0.014191859241520475,-0.14686866996336959
2656.400000006213,-0.24110644,-0.9649379,0.210985,-2.6335163,-0.12162344,1.6256547,1.07789,0.039999265,0.04,0.005293154698149394,0.00559738078384775,-0.001515253793038518,0.2241241624340134,-0.0009757892998497608,-0.17794879248625806,0.9684383205985827,0.19980052273690335,-0.014262891009180611,-0.14833590344322292
2656.4166666728797,-0.2433369,-0.9666069,0.21293427,-2.6360786,-0.12274899,1.6261603,1.080588,0.039999243,0.04,0.003837230793513058,0.005460058215656094,-0.0021706483590566705,0.22396485319751025,-0.0010125590518017952,-0.1780039502362311,0.9678208543592856,0.2016843273451006,-0.014333165051241438,-0.14980249113493008
2656.4333333395466,-0.24556419,-0.96827346,0.21488078,-2.6386366,-0.123872936,1.6266651,1.083282,0.039999224,0.04,0.005793632867656662,0.004950519391946906,-0.0011339967301182696,0.22377646624386793,-0.0010520183549313777,-0.17803638311698375,0.9671978311996992,0.20356536327886227,-0.014402223012299454,-0.151268219292907
2656.4500000062135,-0.24778803,-0.96993744,0.21682423,-2.6411912,-0.1249952,1.627169,1.0859722,0.039999206,0.04,0.004087124665907993,0.005043275174126949,-0.00193390618778988,0.22356017962363253,-0.0010872676815926463,-0.17804925098462898,0.9665692701086417,0.20544363412025077,-0.014470706446942554,-0.15273296283395546
2656.4666666728804,-0.2500082,-0.97159857,0.21876445,-2.6437411,-0.12611559,1.6276723,1.0886576,0.03999919,0.04,0.006284291370683981,0.004511069601589868,-0.0006709772761404054,0.22331316031254012,-0.0011260757389586484,-0.17803468640855488,0.9659353606330097,0.20731855471817331,-0.014537954118442265,-0.1541964456088253
2656.4833333395472,-0.25222436,-0.9732569,0.22070113,-2.6462865,-0.12723394,1.6281748,1.0913382,0.03999917,0.04,0.005904801297518247,0.004317479612875319,-0.0010421413747963015,0.22303885838855214,-0.001162437289636567,-0.17799748014789438,0.9652961745932542,0.20919000107492292,-0.014604182003105745,-0.15565846149157253
2656.500000006214,-0.25443628,-0.97491187,0.22263403,-2.6488273,-0.1283502,1.6286759,1.0940137,0.039999153,0.04,0.005332786971212755,0.004235049977707739,-0.0012897441105108598,0.2227350229752701,-0.0011983472821193025,-0.177938164031484,0.9646517688620893,0.21105784422960192,-0.014669900120695155,-0.1571188889053264
2656.516666672881,-0.2566436,-0.9765635,0.224563,-2.6513627,-0.12946415,1.6291763,1.0966837,0.039999135,0.04,0.007032609299106873,0.0035834062932948996,-0.00028234676037186546,0.22240130285870324,-0.0012371857335840702,-0.17785273319354714,0.9640023079360394,0.212921659710844,-0.014734430810633508,-0.15857746898174405
2656.533333339548,-0.25884607,-0.9782116,0.22648774,-2.6538925,-0.1305757,1.6296757,1.0993481,0.039999116,0.04,0.006849000638831093,0.0035108371752551326,-0.00025113203296900366,0.22203999646102443,-0.001273659399530891,-0.17774514071445324,0.9633478806834846,0.2147812801463379,-0.01479791743654654,-0.16003400926328212
2656.5500000062148,-0.26104346,-0.9798557,0.22840801,-2.6564167,-0.1316847,1.6301739,1.102006,0.039999094,0.04,0.006811393972250279,0.0032489189975837274,-0.00037431322491565666,0.22164909889464812,-0.0013074241402590975,-0.1776154613956868,0.9626886307513411,0.21663628997133,-0.014860712336437433,-0.1614883194488671
2656.5666666728816,-0.26323572,-0.9814959,0.23032366,-2.6589346,-0.13279103,1.6306705,1.1046576,0.039999083,0.04,0.007552155180423625,0.003062534817319107,-0.00027861360508696364,0.22123118851965579,-0.0013448721263021046,-0.17745962462780643,0.9620245810253909,0.2184868309405304,-0.01492269546036488,-0.1629402447791291
2656.5833333395485,-0.26542222,-0.9831319,0.23223431,-2.6614459,-0.13389453,1.6311662,1.1073025,0.039999057,0.04,0.00824574101798703,0.002522537953869586,0.0006077308457475006,0.2207818097925524,-0.0013819624210257286,-0.17728362500081707,0.9613559450747706,0.22033233246347497,-0.01498350940808588,-0.1643894904986842
2656.6000000062154,-0.26760295,-0.9847635,0.23413981,-2.6639504,-0.1349951,1.6316606,1.1099403,0.039999034,0.04,0.00806077949389028,0.0024677515335441713,0.0003321129348532459,0.22030537468086084,-0.0014160224180097547,-0.17708225803850072,0.960682805390442,0.22217265756996235,-0.015043437404935142,-0.16583592085701518
2656.6166666728823,-0.26977757,-0.98639065,0.23603998,-2.6664479,-0.13609262,1.6321533,1.1125705,0.03999903,0.04,0.008662566160788643,0.0020417167652053703,0.0004234206028796983,0.21980016637137828,-0.0014516454310808113,-0.17685495772189436,0.9600052879566054,0.22400752623649323,-0.015102501663064035,-0.1672793762789633
2656.633333339549,-0.2719457,-0.9880128,0.2379345,-2.6689374,-0.1371869,1.6326445,1.115193,0.03999901,0.04,0.009422837741679402,0.0015889736794588716,0.0012409484821729322,0.21926650436903566,-0.0014858996186859486,-0.17660610099449875,0.9593235514109574,0.2258366458411301,-0.015160510345100965,-0.16871956623217185
2656.650000006216,-0.2741072,-0.98963,0.23982324,-2.6714199,-0.13827783,1.6331345,1.1178073,0.039998986,0.04,0.008337248289747023,0.0015850213520685053,0.0008315027541505593,0.21870484935371615,-0.0015185507586259334,-0.17633318320934666,0.9586377105257131,0.22765975933290222,-0.015217783568792206,-0.17015637808133272
2656.666666672883,-0.27626178,-0.9912421,0.24170591,-2.6738942,-0.13936529,1.6336229,1.1204134,0.039998967,0.04,0.009755692114343795,0.001135463054005581,0.001324205394737099,0.21811620232597068,-0.001553314050989879,-0.17603635729913558,0.9579478566724713,0.22947684543534091,-0.015274013320217977,-0.17158958541460698
2656.68333333955,-0.2784094,-0.9928487,0.24358222,-2.6763604,-0.14044912,1.6341095,1.1230109,0.039998945,0.04,0.009274530706226969,0.0011370562446599841,0.0012268112171143208,0.21749807533194476,-0.0015853879243621083,-0.17571500468373843,0.9572541284126359,0.2312876415706335,-0.015329625247493373,-0.1730189674094441
2656.7000000062167,-0.28054944,-0.99444973,0.24545205,-2.6788185,-0.14152923,1.6345944,1.1255994,0.039998915,0.04,0.009311974579828686,0.0005367865245797798,0.0014037266552135996,0.21685031924795667,-0.0016197747596202045,-0.1753708576166425,0.9565566886986733,0.23309176034309131,-0.015384551284176318,-0.17444439844194742
2656.7166666728835,-0.28268188,-0.99604523,0.24731512,-2.681268,-0.14260548,1.6350777,1.1281785,0.039998878,0.04,0.010102525602073698,0.00040082624044868176,0.0016957473648271382,0.21617503640569158,-0.0016559621102524846,-0.1750013533411497,0.955855673778598,0.23488901904411644,-0.01543862020706447,-0.17586565510029825
2656.7333333395504,-0.28480634,-0.99763477,0.24917126,-2.6837077,-0.14367774,1.6355592,1.1307478,0.03999886,0.04,0.011656338685073209,-0.000256281246674428,0.0025697912718780636,0.21547131217592025,-0.0016921084982988652,-0.17460964348466013,0.9551512668331463,0.2366790660103462,-0.015491525319046679,-0.1772825141484499
2656.7500000062173,-0.2869226,-0.999218,0.25102016,-2.6861386,-0.14474593,1.6360388,1.1333075,0.039998844,0.04,0.009759639222584049,-0.00012900875905053066,0.0019120038752262758,0.2147418128321285,-0.0017250559470495322,-0.17419192230835404,0.9544435309943043,0.23846191422959342,-0.01554397148252709,-0.1786948419950418
2656.766666672884,-0.28903043,-1.000795,0.25286168,-2.688559,-0.14580981,1.6365165,1.1358569,0.03999882,0.04,0.01257363543982759,-0.0009103920112774055,0.0030703849989488496,0.21398295990255684,-0.001760662442873956,-0.17375392441936374,0.9537326775789211,0.24023720045625124,-0.01559513049142431,-0.1801023573972312
2656.783333339551,-0.2911295,-1.0023656,0.25469556,-2.6909695,-0.14686933,1.6369921,1.1383957,0.03999879,0.04,0.011563777355472205,-0.0010403299110922637,0.002744401097176663,0.2131973861615183,-0.0017921454488723926,-0.17329073861691818,0.9530188514899756,0.24200464619215445,-0.015645441417709023,-0.18150493130761822
2656.800000006218,-0.2932196,-1.0039294,0.25652176,-2.6933703,-0.14792435,1.6374657,1.1409239,0.03999877,0.04,0.010449473710316681,-0.001223782015799535,0.002547348269421601,0.21238525058165425,-0.0018243170144612991,-0.17280327006079485,0.9523021526993696,0.2437641370106327,-0.0156953194295605,-0.18290246695879284
2656.816666672885,-0.29530054,-1.0054862,0.25833985,-2.6957603,-0.14897476,1.6379373,1.1434407,0.03999875,0.04,0.012699398764381975,-0.0016287402037074017,0.0035521984764641523,0.21154503211928563,-0.0018594480497750587,-0.17229141484882143,0.9515828019944395,0.24551532506153045,-0.015744191721165677,-0.18429464597591944
2656.8333333395517,-0.2973721,-1.007036,0.26014966,-2.6981394,-0.1500204,1.6384065,1.1459463,0.03999873,0.04,0.011990294396557744,-0.0018581390899941042,0.0032111237555976224,0.2106781681733901,-0.0018921448905999116,-0.17175836114395748,0.950860899959429,0.24725815463987155,-0.015792473732919064,-0.18568131749270048
2656.8500000062186,-0.299434,-1.0085783,0.261951,-2.7005076,-0.15106124,1.6388738,1.1484402,0.039998714,0.04,0.012295176249321749,-0.0021486344341486996,0.003842091575489981,0.20978380213670678,-0.001926935320198775,-0.1712025633978081,0.9501366159658088,0.24899235839553333,-0.015839949346167448,-0.1870623224125646
2656.8666666728855,-0.30148596,-1.0101134,0.2637436,-2.7028644,-0.15209702,1.6393386,1.150922,0.039998695,0.04,0.012998151584464601,-0.0026357675112248513,0.003743342059425725,0.20886190774385838,-0.001961384856286247,-0.17062169021697787,0.9494101556960199,0.25071758740887373,-0.0158866861884706,-0.18843741886122858
2656.8833333395523,-0.3035277,-1.0116408,0.26552737,-2.705209,-0.15312767,1.6398013,1.1533912,0.039998677,0.04,0.013930971207010145,-0.0030819684733784936,0.004661526740212807,0.20791502195926653,-0.001996172207587993,-0.17001676376825037,0.9486816854236116,0.2524336258177284,-0.015932339527487828,-0.18980644050060935
2656.900000006219,-0.30555913,-1.0131605,0.26730198,-2.7075422,-0.15415315,1.6402617,1.1558481,0.039998643,0.04,0.012638711685220017,-0.002962972782827311,0.004101858590188634,0.2069432346677838,-0.002028965470996638,-0.16939225831235227,0.9479512925172993,0.2541404835878223,-0.015977392981101672,-0.19116925623660527
2656.916666672886,-0.30757993,-1.0146725,0.26906732,-2.7098627,-0.15517329,1.6407197,1.1582918,0.03999862,0.04,0.014623900769139553,-0.0036725644817520164,0.0049049728464867215,0.20594388350014342,-0.002061716729313004,-0.16874394013465577,0.9472192303250018,0.2558376790757968,-0.01602133361502582,-0.1925256568273871
2656.933333339553,-0.3095899,-1.0161766,0.27082315,-2.7121708,-0.15618794,1.6411753,1.1607226,0.0399986,0.04,0.013897964191089685,-0.003839469917324423,0.004868759294629488,0.20492092521090266,-0.0020924527288486428,-0.1680704793058277,0.9464855821152943,0.25752530318483063,-0.016064426059956602,-0.19387546333354697
2656.95000000622,-0.31158873,-1.0176724,0.27256927,-2.7144666,-0.15719704,1.6416283,1.1631402,0.039998583,0.04,0.01362755949465555,-0.004076325066243447,0.004794318612311166,0.203871226977004,-0.00212166811544362,-0.167372279035639,0.9457505139027349,0.2592031093846117,-0.016106934853813388,-0.19521854468179242
2656.9666666728867,-0.31357628,-1.0191594,0.2743055,-2.7167487,-0.15820037,1.6420784,1.1655439,0.039998557,0.04,0.014935435763341331,-0.004672643624575867,0.005653478960176983,0.20279447825504365,-0.002153470948852043,-0.16665383336074313,0.9450142611854323,0.26087073744810924,-0.01614874659910872,-0.1965546297666603
2656.9833333395536,-0.31555226,-1.0206379,0.2760316,-2.7190175,-0.15919782,1.6425261,1.1679337,0.039998524,0.04,0.014852180466284892,-0.004893643777154066,0.005870971110966128,0.20169324477801664,-0.0021846914843551765,-0.1659116997545983,0.9442769824282724,0.2625280433424602,-0.016189640911816374,-0.1978835577860928
2657.0000000062205,-0.3175165,-1.0221072,0.2777474,-2.721273,-0.16018943,1.6429714,1.170309,0.0399985,0.04,0.014423162654408905,-0.004964256389336508,0.005914319523925293,0.20056752265376865,-0.0022143694713265133,-0.16514690913492625,0.9435388752513929,0.2641746799094517,-0.016229970876917466,-0.1992052143630021
2657.0166666728874,-0.31946874,-1.0235683,0.27945277,-2.723515,-0.16117503,1.6434139,1.17267,0.03999847,0.04,0.014938974369749225,-0.005442340321554218,0.005688308642215478,0.19941868468247884,-0.002245030895075023,-0.16436229927696686,0.9428000057589109,0.26581080400312207,-0.01626946433703661,-0.2005195006636445
2657.0333333395542,-0.32140884,-1.0250192,0.28114733,-2.7257433,-0.16215448,1.6438537,1.175016,0.03999845,0.04,0.014137522768664645,-0.005492701156806223,0.006410899200004483,0.1982431628890624,-0.002277238070136786,-0.16355087512847533,0.9420606603583884,0.2674358998672959,-0.01630886372097189,-0.20182609502097973
2657.050000006221,-0.32333642,-1.026462,0.28283107,-2.7279572,-0.1631277,1.6442906,1.1773472,0.039998427,0.04,0.016614173992768322,-0.006270076412173697,0.006392784946707142,0.197044224524761,-0.0023132221203505665,-0.16272141420024316,0.9413209320480188,0.2690500468035436,-0.016346965404311877,-0.20312496627773333
2657.066666672888,-0.32525146,-1.0278939,0.2845038,-2.7301567,-0.16409454,1.6447246,1.1796631,0.03999841,0.04,0.01457076504192134,-0.006277811206928385,0.00715800784805154,0.19582078668100789,-0.0023440172627164704,-0.16186570069667017,0.9405810556600384,0.2706528532735663,-0.016385052983117588,-0.20441585258258624
2657.083333339555,-0.32715365,-1.0293179,0.28616524,-2.7323408,-0.16505483,1.6451558,1.1819636,0.03999838,0.04,0.01817158657946294,-0.0069956654156544396,0.00720465363508449,0.19457332128906848,-0.0023815485914978757,-0.16099096305073188,0.9398411444539541,0.27224446899623195,-0.016421382303906672,-0.20569859137988888
2657.1000000062218,-0.32904282,-1.0307311,0.2878153,-2.73451,-0.1660086,1.645584,1.184248,0.03999835,0.04,0.015377083794887447,-0.006929811452871526,0.007556943058617538,0.1933023703517383,-0.0024074897286690405,-0.16009584831831342,0.9391014737871245,0.2738242417705202,-0.016457541085958958,-0.20697308011201443
2657.1166666728886,-0.33091855,-1.0321336,0.28945366,-2.736664,-0.16695572,1.6460088,1.1865163,0.039998326,0.04,0.015255726681129289,-0.0073099406710491754,0.007385022539896369,0.19200910889824224,-0.0024386960564870275,-0.1591789921848239,0.9383622003638309,0.275392104663482,-0.016493691199399006,-0.2082391120034521
2657.1333333395555,-0.33278105,-1.0335276,0.2910803,-2.7388024,-0.167896,1.6464306,1.1887687,0.039998308,0.04,0.018357001321822608,-0.007723230524364633,0.007693848654777291,0.19069338936931424,-0.0024770719252698373,-0.15824123032580645,0.9376233452425188,0.27694847864434086,-0.01652827313012782,-0.20949658426845402
2657.1500000062224,-0.33462986,-1.0349106,0.29269493,-2.7409253,-0.1688294,1.6468494,1.1910042,0.03999828,0.04,0.01571406275981957,-0.00783029120291212,0.008233826839143532,0.18935204959686036,-0.0025059015898107675,-0.1572808899602245,0.9368853119901981,0.2784924039472063,-0.016562731826293007,-0.21074527049304176
2657.1666666728893,-0.33646467,-1.0362831,0.29429743,-2.7430317,-0.16975577,1.6472651,1.1932232,0.03999825,0.04,0.017793212633288036,-0.008565342801825082,0.008844957570264267,0.18799028747809715,-0.0025405747561945205,-0.1563019228494667,0.9361481600254333,0.28002417517794753,-0.016596215635417074,-0.2119850216960825
2657.183333339556,-0.33828548,-1.0376451,0.29588756,-2.745122,-0.17067505,1.6476777,1.1954249,0.039998233,0.04,0.01716777698401728,-0.008515206711695589,0.008750900517018323,0.1866065851346071,-0.0025714071555114834,-0.15530054926560266,0.9354121526416412,0.2815433390720198,-0.01662909717484279,-0.21321567963369412
2657.200000006223,-0.34009194,-1.0389966,0.2974653,-2.7471957,-0.1715872,1.6480869,1.1976093,0.03999821,0.04,0.01756450379741814,-0.009003552701492001,0.008868877537870912,0.18520216986309118,-0.002603773204357583,-0.15428025298289744,0.9346774174947373,0.28304984351039947,-0.016661284015480508,-0.21443720043188058
2657.21666667289,-0.34188405,-1.0403373,0.29903033,-2.7492535,-0.172492,1.6484929,1.1997764,0.039998177,0.04,0.016542800929308932,-0.008958303716932736,0.008699525486888238,0.18377752008595805,-0.0026363452439309223,-0.15323676732531955,0.9339440857727297,0.2845437446315602,-0.016693101194153907,-0.21564935059886273
2657.233333339557,-0.34366143,-1.0416671,0.30058262,-2.7512944,-0.17338943,1.6488955,1.2019261,0.03999815,0.04,0.017795531083919514,-0.009617248386212252,0.009421251004237963,0.18232984202204416,-0.002670926214216239,-0.15217461313669295,0.9332123493307337,0.2860248240893725,-0.016724295713474807,-0.216852044016524
2657.2500000062237,-0.34542406,-1.0429857,0.30212197,-2.753318,-0.17427942,1.6492947,1.2040575,0.03999813,0.04,0.017955366032595954,-0.00977255613297534,0.00980012203518621,0.18086057208963952,-0.002704969046111831,-0.15109056837440205,0.9324824834874409,0.2874926418600749,-0.016754930267587245,-0.21804511271096486
2657.2666666728906,-0.34717163,-1.0442932,0.30364817,-2.7553246,-0.17516184,1.6496907,1.2061707,0.039998095,0.04,0.018026708474749853,-0.010104601098898103,0.009999547546690746,0.17937201095968544,-0.002740341632452341,-0.14999002790533147,0.931754619900181,0.28894724126787913,-0.016784856238563284,-0.21922839382571266
2657.2833333395574,-0.34890407,-1.0455893,0.30516112,-2.7573135,-0.17603666,1.6500831,1.2082658,0.03999807,0.04,0.0184486754267299,-0.010387155771257595,0.010117911527607326,0.17786430133578912,-0.002775900080349468,-0.14886940003057703,0.9310288763027827,0.29038863379857105,-0.01681419133572931,-0.22040180539347384
2657.3000000062243,-0.35062122,-1.0468742,0.3066606,-2.7592847,-0.17690371,1.650472,1.2103423,0.039998047,0.04,0.018454084670382898,-0.010613146241944538,0.01049842336614537,0.17633595693195564,-0.0028093659381281805,-0.14772962022609143,0.9303054865616063,0.2918165686794238,-0.01684282548675253,-0.22156513973809847
2657.316666672891,-0.35232288,-1.0481473,0.3081466,-2.7612379,-0.17776291,1.6508574,1.2123997,0.039998025,0.04,0.018800944547203713,-0.011086673370253042,0.010884139386568847,0.17478817234335609,-0.0028441566854137054,-0.14656975895086655,0.9295846759427868,0.29323072030882386,-0.01687085734914954,-0.22271831781830845
2657.333333339558,-0.35400885,-1.0494087,0.30961883,-2.7631736,-0.17861423,1.6512392,1.2144382,0.039998,0.04,0.01749027518695989,-0.010990413151756862,0.010349378078033933,0.17322311750817065,-0.002877472101150809,-0.1453936646087174,0.9288665482753096,0.2946311585945798,-0.016898748336979054,-0.22386122528247498
2657.350000006225,-0.35567892,-1.0506582,0.3110773,-2.765091,-0.17945759,1.6516175,1.2164578,0.039997976,0.04,0.019043392727335906,-0.0116275694741097,0.01151066545079793,0.17163806085167838,-0.002915538534825554,-0.14420039696607206,0.9281512789979541,0.2960177937576917,-0.01692582637900624,-0.22499374541235215
2657.366666672892,-0.35733297,-1.0518956,0.3125218,-2.7669897,-0.18029293,1.6519923,1.2184577,0.03999796,0.04,0.019021794079066012,-0.011797931195089983,0.011651827505942958,0.17003485137042246,-0.002951394938214745,-0.14298716592878696,0.9274391444805525,0.2973901909678044,-0.01695238084124268,-0.22611573228134138
2657.3833333395587,-0.3589709,-1.0531211,0.31395203,-2.7688694,-0.18112007,1.6523633,1.220438,0.039997943,0.04,0.019847944374840054,-0.012155448615408515,0.011890665448666127,0.16841581164824704,-0.002989175589413265,-0.14175482811142695,0.9267302501563525,0.2987485446656899,-0.016978164430087598,-0.22722696239192577
2657.4000000062256,-0.3605925,-1.0543344,0.3153681,-2.770731,-0.18193892,1.6527303,1.2223988,0.03999792,0.04,0.018020850742250794,-0.012224805119198656,0.011270254873352314,0.16677905035306345,-0.003025350721052221,-0.1405047775277296,0.926024716155294,0.3000927611206283,-0.01700381258945153,-0.22832746253993982
2657.4166666728925,-0.36219764,-1.0555353,0.31676975,-2.7725732,-0.18274944,1.653094,1.2243397,0.03999789,0.04,0.019815180850346614,-0.012707813128287615,0.012793373307229405,0.16512421991464754,-0.003064911209905853,-0.13923874479148174,0.9253227896190527,0.3014226256424502,-0.017028591550331533,-0.22941700641460228
2657.4333333395593,-0.36378625,-1.0567241,0.31815687,-2.7743967,-0.18355162,1.653454,1.2262604,0.039997857,0.04,0.01910926639245858,-0.012650615844228552,0.01209523249736666,0.1634529254505796,-0.0031011357442932846,-0.1379578440849126,0.9246246113463756,0.30273803488271606,-0.01705291945713145,-0.23049557103316276
2657.450000006226,-0.36535802,-1.0579002,0.31952932,-2.7762008,-0.18434536,1.65381,1.228161,0.039997827,0.04,0.019394104002956603,-0.013157978993821873,0.012714720033135674,0.1617652799470098,-0.0031388194330435326,-0.13665809029172904,0.9239303626914528,0.304038886421603,-0.017076760382946563,-0.2315630037272266
2657.466666672893,-0.3669129,-1.0590634,0.32088697,-2.7779858,-0.18513061,1.6541623,1.2300413,0.039997805,0.04,0.01875803670892129,-0.01318271603458765,0.01266009421057035,0.16006204109954486,-0.0031778097358775848,-0.13534152227758475,0.923240187806331,0.3053251297552144,-0.017100372608222912,-0.2326192124824433
2657.48333333956,-0.36845082,-1.060214,0.3222298,-2.7797513,-0.18590726,1.6545109,1.2319007,0.039997783,0.04,0.019668647692738794,-0.01356620485683524,0.01321425699223333,0.15834192689047383,-0.0032192188692029694,-0.13401182830159736,0.9225543158661544,0.3065964922892471,-0.017123423420759985,-0.23366410413885708
2657.500000006227,-0.36997154,-1.0613517,0.3235576,-2.781497,-0.18667528,1.6548555,1.2337395,0.03999777,0.04,0.019650448043750934,-0.013820921010804232,0.013394830041546513,0.15660836238800058,-0.003260448664746285,-0.1326655434730229,0.9218728678979093,0.3078530319905702,-0.017146047453099462,-0.2346975483140649
2657.5166666728937,-0.37147498,-1.0624764,0.32487038,-2.783223,-0.18743457,1.6551963,1.2355572,0.039997753,0.04,0.019691912200459072,-0.0141041798590813,0.013619006211273987,0.1548593059179309,-0.003302607034837028,-0.13130535509880992,0.9211960494432886,0.30909449823148305,-0.0171681871066922,-0.235719500687948
2657.5333333395606,-0.37296093,-1.063588,0.32616788,-2.7849288,-0.18818504,1.6555328,1.237354,0.039997727,0.04,0.019704742474302428,-0.014353657192223146,0.013585737546950583,0.15309786675448633,-0.0033451121090514666,-0.12993105830969784,0.9205239648291013,0.31032102246215,-0.017190041599359596,-0.23672979462494653
2657.5500000062275,-0.37442937,-1.0646868,0.3274501,-2.7866142,-0.18892667,1.6558656,1.2391298,0.039997697,0.04,0.020712704868253162,-0.01462030618166188,0.014405724815835796,0.15132114645897143,-0.0033906357374855756,-0.1285432323959131,0.919856792048043,0.31153248212417495,-0.01721106635410875,-0.23772836158016264
2657.5666666728944,-0.37588024,-1.065772,0.32871693,-2.7882798,-0.18965943,1.6561942,1.2408838,0.03999768,0.04,0.018963681339045912,-0.014521984541482347,0.013861478057475285,0.14953150329766235,-0.0034322003331080375,-0.12714024026173038,0.91919473592445,0.31272857158521605,-0.017232094291629602,-0.23871517104988393
2657.5833333395612,-0.37731335,-1.0668441,0.3299682,-2.7899246,-0.1903832,1.6565189,1.2426163,0.039997656,0.04,0.02062272002907317,-0.015068646298194155,0.01480874264864207,0.14773019955332256,-0.003479142762283116,-0.12572129644026436,0.9185379539026383,0.3139093377701464,-0.017252465973798228,-0.2396900234029063
2657.600000006228,-0.37872872,-1.0679028,0.33120385,-2.791549,-0.19109797,1.6568395,1.2443274,0.03999763,0.04,0.020047758914554237,-0.015021491342404047,0.014533877667566308,0.1459167069256506,-0.0035255173988875954,-0.12429112036191359,0.9178864931265295,0.31507495640995864,-0.01727245826361679,-0.24065290308798643
2657.616666672895,-0.38012615,-1.068948,0.33242384,-2.7931528,-0.19180372,1.6571561,1.2460169,0.03999761,0.04,0.01993158816113727,-0.015304032030249992,0.014905817507893104,0.14408991835314053,-0.0035735374440490075,-0.12284755121916968,0.9172405697968715,0.31622515019223374,-0.01729204240389593,-0.24160375985094143
2657.633333339562,-0.38150543,-1.0699801,0.33362803,-2.7947373,-0.19250026,1.6574686,1.2476842,0.039997596,0.04,0.01817397868457693,-0.015259175600229602,0.01387697315887726,0.14225171098706094,-0.0036211011991617442,-0.12139116102083529,0.9166003352488666,0.3173598182767005,-0.01731179223576138,-0.2425425179522775
2657.6500000062288,-0.3828665,-1.0709984,0.33481637,-2.7962992,-0.19318768,1.6577768,1.2493299,0.039997563,0.04,0.02287364459121477,-0.016326313920089763,0.016740242835533437,0.14040200063817732,-0.0036741758483550477,-0.11992655984177034,0.9159659610769413,0.318478983714639,-0.017330352689819393,-0.24346899999000343
2657.6666666728956,-0.38420933,-1.0720031,0.33598867,-2.797841,-0.19386587,1.658081,1.2509534,0.039997537,0.04,0.018832557796222282,-0.015620658165310664,0.014808364052387724,0.1385432848383224,-0.0037223563863519674,-0.11844644459338036,0.9153375689761405,0.31958254752577536,-0.017348927006410348,-0.24438319269031425
2657.6833333395625,-0.38553384,-1.0729941,0.33714497,-2.7993612,-0.19453485,1.6583813,1.2525549,0.03999752,0.04,0.021374102917981475,-0.016289888844833733,0.016385505307281445,0.13667296591528072,-0.0037748913161811046,-0.11695769878861045,0.914715311376573,0.320670475347649,-0.01736666604657221,-0.24528502662004978
2657.7000000062294,-0.38683996,-1.0739714,0.33828518,-2.80086,-0.19519462,1.6586771,1.254134,0.0399975,0.04,0.02080845592313807,-0.016350869133202606,0.015843568893136872,0.13479526052431617,-0.0038222785218805094,-0.11545900495124128,0.9140992974652117,0.3217427415043441,-0.017384008560561135,-0.24617448874577086
2657.7166666728963,-0.38812757,-1.0749347,0.3394092,-2.802338,-0.19584498,1.6589686,1.2556906,0.039997485,0.04,0.01941188655338877,-0.0163584875170264,0.01563381981712908,0.1329076906253635,-0.003871623930723829,-0.11394761306637224,0.9134897257005045,0.3227991466386621,-0.017401359368083933,-0.24705146156441105
2657.733333339563,-0.38939667,-1.0758841,0.34051713,-2.8037944,-0.19648603,1.659256,1.2572252,0.039997466,0.04,0.02057063131852832,-0.016657603514097508,0.016509243581208644,0.13101160669143433,-0.00392597770748232,-0.11242778849164392,0.9128866051872266,0.32383996731277487,-0.017418159489009197,-0.2479159723789835
2657.75000000623,-0.39064714,-1.0768195,0.34160885,-2.80523,-0.19711766,1.6595391,1.258737,0.03999745,0.04,0.019678108875176292,-0.016703086040142923,0.01607001579806422,0.12910680219848117,-0.003978874906893262,-0.11089766508316418,0.9122901712012303,0.32486486108866874,-0.017434864953066714,-0.2487679461738148
2657.766666672897,-0.39187893,-1.0777413,0.34268415,-2.8066435,-0.19773982,1.6598182,1.2602259,0.039997436,0.04,0.02137417627270377,-0.01707354399690386,0.01708837187762713,0.12719489341700638,-0.004034299341700728,-0.10935968794341433,0.91170059399249,0.3258738097146928,-0.01745079742655019,-0.24960720487387886
2657.783333339564,-0.39309207,-1.0786488,0.34374312,-2.8080351,-0.19835253,1.660093,1.261692,0.03999741,0.04,0.020872038327479636,-0.01716404363788504,0.017081716795841473,0.12527823118755088,-0.004089141243556693,-0.10781007986405097,0.9111179465091738,0.32686684711455716,-0.01746629401973801,-0.2504337844211739
2657.8000000062307,-0.39428636,-1.079542,0.34478566,-2.8094056,-0.19895576,1.6603633,1.2631365,0.039997384,0.04,0.019557771046274652,-0.01712379218141713,0.016567056785032896,0.12335479324493992,-0.0041432555514455335,-0.10625533619913766,0.9105421562873026,0.3278444342926739,-0.01748167757903414,-0.251247685513735
2657.8166666728976,-0.3954618,-1.0804213,0.34581175,-2.8107545,-0.1995495,1.6606295,1.2645586,0.039997365,0.04,0.02022092810234355,-0.017312382984391306,0.017011998588634114,0.12142170357327356,-0.0041978258317673725,-0.10469225982195127,0.909973448263302,0.3288062729426214,-0.017496635485245,-0.2520488565260205
2657.8333333395644,-0.39661843,-1.0812868,0.34682137,-2.8120816,-0.2001337,1.6608913,1.2659576,0.03999734,0.04,0.020956473658606534,-0.01752905283315398,0.017287904950291644,0.11948186024608824,-0.004253901186216526,-0.10312099927167857,0.909412001214294,0.32975218269949397,-0.017511079667044568,-0.25283724437120975
2657.8500000062313,-0.3977561,-1.0821381,0.3478144,-2.8133872,-0.20070836,1.6611488,1.2673323,0.039997317,0.04,0.01987854964735636,-0.017505999445754927,0.017170012872091966,0.11753699606590608,-0.004309592255338647,-0.1015435350783878,0.9088581579764204,0.33068149460323487,-0.017525519027049297,-0.25361280328388675
2657.866666672898,-0.39887473,-1.082975,0.34879088,-2.814671,-0.20127343,1.6614022,1.2686844,0.0399973,0.04,0.02013157884774852,-0.01775203441974904,0.017702989739631914,0.11559385462868807,-0.004369788074319064,-0.09995986884560176,0.9083117819521964,0.3315949089542234,-0.017539565131418924,-0.2543754838373116
2657.883333339565,-0.39997438,-1.0837975,0.3497508,-2.8159335,-0.20182891,1.6616515,1.2700137,0.039997287,0.04,0.019485634571481114,-0.01768825671263352,0.01752752203446617,0.11364604431573408,-0.004430043178891292,-0.09837319686454411,0.9077729646229391,0.3324924046252046,-0.017553535352828345,-0.25512530051495597
2657.900000006232,-0.40105507,-1.084606,0.35069412,-2.817174,-0.20237486,1.6618961,1.27132,0.039997272,0.04,0.020693222062484473,-0.017920948911942514,0.017545755575543165,0.11169487826669632,-0.0044921464537676994,-0.09678117949386081,0.9072417760936508,0.3333740317955721,-0.017567113084311782,-0.2558622894697182
2657.916666672899,-0.40211672,-1.0854003,0.35162085,-2.8183923,-0.20291114,1.6621363,1.2726034,0.03999726,0.04,0.020627290184727087,-0.018175787795637888,0.01812565189550641,0.10974047410958462,-0.004554184737730678,-0.09518309850633264,0.906718353311262,0.33423975805141815,-0.01758028247808481,-0.25658633162004846
2657.9333333395657,-0.40315935,-1.0861807,0.352531,-2.8195887,-0.20343786,1.6623725,1.2738639,0.039997246,0.04,0.020602940132352643,-0.018079607051468827,0.01824637223832859,0.10778362403204161,-0.004617577033528015,-0.09358194229265612,0.9062027660652286,0.3350896119781823,-0.017592820145083208,-0.25729747647301643
2657.9500000062326,-0.40418297,-1.0869465,0.35342446,-2.8207633,-0.2039549,1.6626043,1.2751012,0.039997235,0.04,0.0195922344442101,-0.018104872357815882,0.01803861962401676,0.1058257706064665,-0.004678296387206411,-0.0919758590264853,0.9056951730001082,0.33592343809689595,-0.01760530615443746,-0.2579956405381175
2657.9666666728995,-0.4051875,-1.087698,0.35430127,-2.821916,-0.20446238,1.662832,1.2763156,0.039997216,0.04,0.020177398410092806,-0.01825378837533309,0.018410807045599054,0.10386711328522255,-0.004741077289537016,-0.09036879484234422,0.9051956049024816,0.3367413760028832,-0.01761739076461729,-0.25868086534485296
2657.9833333395663,-0.40617308,-1.0884355,0.3551615,-2.8230472,-0.20496023,1.6630555,1.2775068,0.039997194,0.04,0.02001938273774595,-0.018187514613654532,0.018234292776897476,0.10190875685884124,-0.004803102928708659,-0.08875967834692355,0.9047041325954418,0.33754345757946025,-0.017629078790083446,-0.25935316132841973
2658.000000006233,-0.40713963,-1.0891585,0.3560051,-2.824156,-0.20544846,1.6632745,1.2786751,0.03999717,0.04,0.020167560284378716,-0.018473431230836557,0.018547319387429706,0.09994975727465809,-0.0048678872558495755,-0.08714371483036838,0.9042208488049961,0.3383296584322561,-0.017640564907842105,-0.26001251754717003
2658.0166666729,-0.40808716,-1.0898675,0.35683218,-2.8252437,-0.20592712,1.6634889,1.2798204,0.039997153,0.04,0.018988499384464674,-0.01823910384444183,0.017701074876363965,0.09799273590511237,-0.004932107689693967,-0.08552825558366522,0.903745741305069,0.33910013531536665,-0.017652137448255358,-0.26065904040634974
2658.033333339567,-0.40901566,-1.0905623,0.35764256,-2.8263087,-0.20639619,1.663699,1.2809429,0.039997138,0.04,0.021292020881813478,-0.018705561302650997,0.019337575207512003,0.09603510363057184,-0.005000953373479153,-0.08391205997736029,0.9032789727548064,0.3398548529271841,-0.017662864721585875,-0.26129255544444974
2658.050000006234,-0.40992513,-1.0912434,0.35843632,-2.8273525,-0.20685573,1.6639051,1.2820425,0.039997123,0.04,0.019219545758297762,-0.018280681233573404,0.01830506641644636,0.09408022246010797,-0.005064744082116615,-0.08229702611600032,0.9028205583344179,0.3405938649015829,-0.01767328709390352,-0.2619131794382041
2658.0666666729007,-0.41081575,-1.0919095,0.3592135,-2.8283746,-0.20730564,1.6641071,1.2831188,0.0399971,0.04,0.018991932123557653,-0.018415243091379763,0.01879410190734898,0.09212778748183445,-0.005128399301793395,-0.08068102878071079,0.9023706663805904,0.34131696290631064,-0.017683814550380768,-0.2625208448699059
2658.0833333395676,-0.41168746,-1.0925618,0.35997435,-2.8293748,-0.20774603,1.6643047,1.2841725,0.03999708,0.04,0.020202355016873952,-0.018672592530538656,0.018907715096205813,0.09018029609564264,-0.0051961604554725295,-0.07906787742512003,0.9019292053597021,0.34202449173194527,-0.017693775431304144,-0.26311572717286813
2658.1000000062345,-0.41254035,-1.0932,0.3607187,-2.8303537,-0.20817691,1.664498,1.2852033,0.039997067,0.04,0.018724098348399387,-0.01834489263157213,0.018291329636632714,0.08823605115682454,-0.0052624896966781305,-0.07745286179506815,0.9014962631052241,0.3427164128315079,-0.017703802342807842,-0.2636977879426123
2658.1166666729014,-0.41337436,-1.093824,0.36144665,-2.8313105,-0.20859826,1.6646866,1.2862114,0.039997056,0.04,0.02021658247628455,-0.018820985206635665,0.019007482568089706,0.08629567250616296,-0.005333153009869151,-0.07584021643782327,0.9010718986259931,0.3433927827968738,-0.017713459314082296,-0.26426703083944353
2658.1333333395683,-0.41418964,-1.0944341,0.36215824,-2.8322458,-0.20901011,1.6648709,1.2871966,0.03999704,0.04,0.019227929114906672,-0.018524174366379986,0.018724911540513034,0.08436142867008876,-0.005401808035122916,-0.0742312912161377,0.900656148786224,0.3440536481716496,-0.01772288797559684,-0.2648235036305318
