rsonawane2002/My_IMU/logs_2/traj_491/imu_491.csv
time,j1,j2,j3,j4,j5,j6,j7,gripper1,gripper2,imu_ax,imu_ay,imu_az,imu_gx,imu_gy,imu_gz
2653.0333333395033,0.00016700293,-0.785875,4.0107683e-05,-2.3551247,9.29385e-05,1.570997,0.786,0.04,0.04,-9.489605,0.028749782592058182,0.08465458,-3.7903015e-07,-0.0011641274904832244,1.9319293e-07
2653.05000000617,0.0001669982,-0.78576016,4.012106e-05,-2.3552213,9.2970295e-05,1.5709941,0.786,0.04,0.04,-9.83415,0.0006269363802857697,0.009174765,6.198298e-07,-0.002238501561805606,5.1221053e-07
2653.066666672837,0.00016694154,-0.7856543,4.0178358e-05,-2.35531,9.297354e-05,1.5709913,0.786,0.04,0.04,-9.832493,0.0006318252999335527,0.0075183273,5.2619534e-06,-0.0032277109567075968,-2.358146e-06
2653.083333339504,0.00016674843,-0.78555703,4.0352592e-05,-2.355391,9.290606e-05,1.5709884,0.786,0.04,0.04,-9.830577,0.0006268605357035995,0.006107266,1.7772947e-05,-0.004136957693845034,-1.0688418e-05
2653.100000006171,0.00016629846,-0.7854677,4.074841e-05,-2.3554654,9.2707596e-05,1.5709856,0.786,0.04,0.04,-9.828736,0.0006220737705007195,0.004803164,4.2234395e-05,-0.004970544017851353,-2.6815595e-05
2653.1166666728377,0.00016543875,-0.7853857,4.149896e-05,-2.3555334,9.2299546e-05,1.5709827,0.7860019,0.04,0.04,-9.826752,0.000609670125413686,0.003666493,8.2105784e-05,-0.0057352809235453606,-5.2832394e-05
2653.1333333395046,0.00016398716,-0.78531104,4.2762782e-05,-2.3555987,9.159231e-05,1.5709825,0.7860038,0.04,0.04,-9.825296,0.0005942454445175827,0.0024178578,0.00013199312,-0.006433700677007437,-9.062256e-05
2653.1500000061715,0.00016173563,-0.7852428,4.472154e-05,-2.3556578,9.0481124e-05,1.5709826,0.78600574,0.04,0.04,-9.824018,0.0005657658912241459,0.001292381,0.00020399477,-0.0070715113542973995,-0.00014189056
2653.1666666728383,0.00015845266,-0.7851811,4.7576894e-05,-2.3557155,8.8858505e-05,1.570983,0.78600955,0.04,0.039999995,-9.822193,0.000538261781912297,0.00033706753,0.0003019104,-0.0076477304100990295,-0.00020737667
2653.183333339505,0.00015388613,-0.78512543,5.1549167e-05,-2.3557692,8.658722e-05,1.5709836,0.7860153,0.04,0.039999995,-9.821254,0.0004851444100495428,-0.0006907275,0.00041989982,-0.0081813158467412,-0.00028997075
2653.200000006172,0.00014776565,-0.78507566,5.687459e-05,-2.3558204,8.352019e-05,1.5709842,0.7860229,0.04,0.04,-9.819801,0.0004192791529931128,-0.0016134225,0.0005608361,-0.008662798441946507,-0.00039080784
2653.216666672839,0.00013980434,-0.7850316,6.380336e-05,-2.355871,7.952517e-05,1.5709851,0.78603244,0.04,0.04,-9.818594,0.0003453052486293018,-0.0024642944,0.0007281003,-0.009103342890739441,-0.0005093755
2653.233333339506,0.00012970141,-0.7849931,7.259849e-05,-2.355921,7.4450254e-05,1.570986,0.7860445,0.04,0.04,-9.817441,0.00024304920225404203,-0.0032288963,0.0009242069,-0.009508324787020683,-0.0006473973
2653.2500000061727,0.000117143674,-0.7849602,8.353339e-05,-2.355971,6.813423e-05,1.570987,0.78605974,0.039999995,0.04,-9.816492,0.00011051360343117267,-0.0040959218,0.0011497057,-0.00987891387194395,-0.00080622407
2653.2666666728396,0.00010180719,-0.78493273,9.689143e-05,-2.3560214,6.041644e-05,1.5709879,0.7860784,0.03999999,0.039999995,-9.815491,-4.4626220187637955e-05,-0.0048512947,0.0014034759,-0.010218910872936249,-0.0009856919
2653.2833333395065,8.335884e-05,-0.7849105,0.000112963564,-2.356072,5.112908e-05,1.5709924,0.7861007,0.039999988,0.039999988,-9.8145075,-0.00021543170441873372,-0.0055853524,0.0016879068,-0.010529568418860435,-0.0011855284
2653.3000000061734,6.145802e-05,-0.7848938,0.0001320476,-2.3561232,4.0098985e-05,1.570997,0.78612703,0.039999984,0.039999984,-9.813345,-0.0004349564260337502,-0.0063231015,0.00200401,-0.010794926434755325,-0.001408254
2653.3166666728403,3.5757497e-05,-0.78488266,0.00015444701,-2.3561783,2.7151442e-05,1.5710018,0.7861582,0.039999984,0.039999984,-9.812389,-0.0006959928432479501,-0.0070328987,0.0023524882,-0.01103133149445057,-0.0016534112
2653.333333339507,5.9048893e-06,-0.78487706,0.00018047004,-2.3562365,1.2109217e-05,1.5710065,0.7861942,0.03999998,0.039999977,-9.81173,-0.0009927775245159864,-0.0076653054,0.0027323728,-0.011252155527472496,-0.0019204655
2653.350000006174,-2.8456321e-05,-0.7848772,0.00021042836,-2.3562953,-5.2087685e-06,1.5710148,0.7862357,0.039999977,0.039999973,-9.810941,-0.0013418339658528566,-0.008292774,0.0031459543,-0.011453215032815933,-0.0022114073
2653.366666672841,-6.768579e-05,-0.7848829,0.0002446364,-2.356361,-2.4983425e-05,1.5710232,0.7862831,0.039999973,0.03999997,-9.809748,-0.001729954732581973,-0.0088947825,0.0035922085,-0.011609216220676899,-0.0025256088
2653.3833333395078,-0.00011214538,-0.78489447,0.00028341095,-2.3564281,-4.7397643e-05,1.5710318,0.7863367,0.03999997,0.039999966,-9.809376,-0.002187570556998253,-0.009537138,0.0040720496,-0.011761593632400036,-0.0028631804
2653.4000000061747,-0.00016219841,-0.784912,0.0003270693,-2.3565018,-7.2634575e-05,1.5710438,0.78639734,0.03999997,0.039999966,-9.808297,-0.0026947814039885998,-0.010100567,0.0045854957,-0.011886436492204666,-0.0032242278
2653.4166666728415,-0.0002182087,-0.78493536,0.00037593025,-2.3565826,-0.000100877834,1.5710562,0.78646505,0.03999997,0.039999966,-9.807723,-0.0032610001508146524,-0.010644582,0.0051314877,-0.011988199315965176,-0.0036088086
2653.4333333395084,-0.00028053997,-0.784965,0.00043031177,-2.3566687,-0.00013231102,1.5710688,0.7865404,0.03999997,0.039999966,-9.807275,-0.00390251656062901,-0.011278583,0.0057114186,-0.012085934169590473,-0.004016887
2653.4500000061753,-0.0003495554,-0.785001,0.00049053156,-2.356759,-0.00016711751,1.5710849,0.7866238,0.03999997,0.039999966,-9.80656,-0.004610602743923664,-0.011807956,0.0063247425,-0.012171011418104172,-0.0044484423
2653.466666672842,-0.00042561672,-0.7850435,0.0005569058,-2.356857,-0.00020547931,1.5711011,0.7867157,0.03999997,0.03999996,-9.805567,-0.00538491178303957,-0.012411045,0.0069719725,-0.01222054474055767,-0.004902568
2653.483333339509,-0.00050908374,-0.7850927,0.00062975,-2.3569627,-0.00024757982,1.5711207,0.78681654,0.03999997,0.039999966,-9.805126,-0.006247156299650669,-0.012823844,0.007652012,-0.01226442214101553,-0.0053816983
2653.500000006176,-0.000600314,-0.7851486,0.0007093766,-2.3570762,-0.0002935972,1.5711408,0.78692687,0.03999997,0.03999996,-9.804433,-0.007184548303484917,-0.013473021,0.008365366,-0.012287912890315056,-0.005882273
2653.516666672843,-0.0006996622,-0.7852117,0.0007960958,-2.3571982,-0.0003437121,1.5711635,0.787047,0.03999997,0.03999996,-9.8038845,-0.008215422742068768,-0.013991382,0.009111185,-0.012304887175559998,-0.0064066867
2653.5333333395097,-0.00080747984,-0.7852821,0.0008902158,-2.3573327,-0.00039810134,1.5711874,0.7871774,0.03999997,0.03999996,-9.803286,-0.009328747168183327,-0.014530152,0.0098894,-0.012305046431720257,-0.006953908
2653.5500000061766,-0.00092411524,-0.7853598,0.0009920408,-2.3574755,-0.00045694064,1.5712141,0.7873184,0.03999997,0.03999996,-9.803332,-0.010539564304053783,-0.014938809,0.01070002,-0.012314294464886189,-0.0075236717
2653.5666666728434,-0.001049912,-0.78544515,0.001101872,-2.357627,-0.00052040373,1.5712419,0.7874705,0.03999997,0.03999996,-9.802532,-0.011850759387016296,-0.01562448,0.011542359,-0.012303720228374004,-0.00811579
2653.5833333395103,-0.0011852101,-0.7855384,0.001220007,-2.3577883,-0.00058866164,1.5712729,0.78763413,0.03999997,0.03999996,-9.8019,-0.013263141736388206,-0.016149024,0.012416387,-0.012282313778996468,-0.008730025
2653.600000006177,-0.0013303449,-0.7856394,0.0013467392,-2.3579624,-0.0006618842,1.5713047,0.7878096,0.03999997,0.03999996,-9.801341,-0.014773583970963955,-0.01671333,0.013321464,-0.01224506925791502,-0.009366092
2653.616666672844,-0.0014856475,-0.7857487,0.0014823582,-2.3581457,-0.0007402378,1.57134,0.7879975,0.03999997,0.03999996,-9.801268,-0.016395950689911842,-0.017138582,0.014257551,-0.012214320711791515,-0.010023687
2653.633333339511,-0.0016514431,-0.78586626,0.0016271492,-2.3583424,-0.000823888,1.5713775,0.7881979,0.039999973,0.039999966,-9.800417,-0.018140843138098717,-0.017837485,0.015223183,-0.01216153334826231,-0.010702564
2653.650000006178,-0.0018280527,-0.78599244,0.0017813931,-2.3585494,-0.0009129972,1.5714169,0.7884114,0.039999973,0.039999973,-9.800217,-0.02000788226723671,-0.018416027,0.01621992,-0.012110305950045586,-0.011405109
2653.6666666728447,-0.0020157918,-0.78612757,0.001945365,-2.3587697,-0.0010077193,1.5714595,0.7886384,0.039999973,0.039999966,-9.799722,-0.02194170095026493,-0.018856546,0.017245699,-0.012047011405229568,-0.012122877
2653.6833333395116,-0.0022149691,-0.7862716,0.002119337,-2.3590026,-0.0011082168,1.5715047,0.78887916,0.039999973,0.03999997,-9.799213,-0.024073772132396698,-0.01955098,0.01829993,-0.011975446715950966,-0.01286537
2653.7000000061785,-0.0024258888,-0.7864247,0.0023035742,-2.3592484,-0.0012146389,1.5715519,0.7891341,0.039999973,0.039999966,-9.798812,-0.02629215456545353,-0.02014725,0.019383354,-0.011898229829967022,-0.013625231
2653.7166666728453,-0.0026488497,-0.7865872,0.0024983382,-2.3595085,-0.0013271394,1.5716025,0.7894037,0.039999973,0.03999998,-9.798376,-0.028674723580479622,-0.020737015,0.020494737,-0.011815695092082024,-0.014409981
2653.7333333395122,-0.002884144,-0.78675926,0.0027038846,-2.3597815,-0.0014458619,1.5716558,0.7896881,0.039999977,0.03999997,-9.798272,-0.03110582008957863,-0.021230016,0.021633277,-0.011729707010090351,-0.01520524
2653.750000006179,-0.0031320576,-0.786941,0.0029204646,-2.3600688,-0.001570947,1.5717119,0.789988,0.039999977,0.04,-9.797539,-0.033801816403865814,-0.021971107,0.022798909,-0.01163142267614603,-0.01602986
2653.766666672846,-0.0033928715,-0.78713274,0.0031483236,-2.3603706,-0.0017025401,1.5717709,0.7903034,0.039999973,0.039999995,-9.797214,-0.03653879836201668,-0.022600424,0.023990177,-0.01153020840138197,-0.016867105
2653.783333339513,-0.0036668587,-0.7873346,0.003387701,-2.3606875,-0.0018407751,1.5718328,0.79063475,0.039999973,0.039999995,-9.796852,-0.03945169970393181,-0.023221467,0.02520765,-0.011423781514167786,-0.017722627
2653.8000000061797,-0.003954287,-0.78754675,0.0036388312,-2.3610198,-0.001985791,1.5718977,0.7909823,0.03999998,0.04,-9.796701,-0.042494166642427444,-0.023731992,0.026450753,-0.011313783936202526,-0.018595163
2653.8166666728466,-0.0042554187,-0.7877693,0.0039019445,-2.361368,-0.0021377036,1.5719659,0.7913466,0.03999998,0.04,-9.796182,-0.04572349786758423,-0.024539191,0.027718535,-0.011199683882296085,-0.019486178
2653.8333333395135,-0.004570508,-0.78800255,0.004177263,-2.361732,-0.00229666,1.5720373,0.7917276,0.039999984,0.04,-9.795851,-0.04908857122063637,-0.025211217,0.029010056,-0.011081723496317863,-0.020394398
2653.8500000061804,-0.0048998063,-0.78824645,0.004465006,-2.3621123,-0.0024627878,1.5721122,0.7921259,0.039999984,0.04,-9.795563,-0.05261417105793953,-0.025892923,0.030326042,-0.0109608368948102,-0.021320187
2653.8666666728473,-0.005243555,-0.7885014,0.004765383,-2.362509,-0.0026361903,1.57219,0.79254156,0.039999984,0.04,-9.795435,-0.05627713352441788,-0.026475973,0.031665035,-0.010835452936589718,-0.0222616
2653.883333339514,-0.005601989,-0.7887674,0.0050786026,-2.362922,-0.002817014,1.5722709,0.7929751,0.039999977,0.04,-9.794901,-0.06013984605669975,-0.02731911,0.033026632,-0.010707436129450798,-0.023220751
2653.900000006181,-0.005975336,-0.78904474,0.0054048663,-2.363352,-0.0030053752,1.5723552,0.79342663,0.039999973,0.04,-9.794546,-0.06413877755403519,-0.028041482,0.03440995,-0.010575992986559868,-0.024194665
2653.916666672848,-0.00636382,-0.7893337,0.0057443683,-2.3638,-0.0032013839,1.572443,0.7938965,0.039999966,0.04,-9.794464,-0.06830346584320068,-0.02864401,0.035815462,-0.0104414913803339,-0.025184702
2653.933333339515,-0.0067676567,-0.78963417,0.0060972967,-2.3642647,-0.00340513,1.5725344,0.79438484,0.039999966,0.04,-9.794019,-0.07265561819076538,-0.029533315,0.037241403,-0.0103064039722085,-0.026188005
2653.9500000061817,-0.007187056,-0.78994644,0.0064638373,-2.3647478,-0.0036167416,1.5726295,0.7948921,0.03999997,0.04,-9.793603,-0.07717745751142502,-0.030311398,0.03868844,-0.010164153762161732,-0.02720676
2653.9666666728485,-0.0076222233,-0.7902705,0.0068441685,-2.3652487,-0.0038363058,1.5727282,0.79541844,0.03999997,0.04,-9.793355,-0.0818735659122467,-0.031087527,0.040154938,-0.01002123299986124,-0.028239727
2653.9833333395154,-0.008073354,-0.7906068,0.0072384616,-2.3657677,-0.0040639252,1.5728307,0.79596406,0.039999966,0.04,-9.793282,-0.08673084527254105,-0.031739805,0.04164072,-0.0098746782168746,-0.029286584
2654.0000000061823,-0.008540637,-0.7909551,0.007646883,-2.3663058,-0.0042997114,1.5729368,0.79652935,0.039999966,0.04,-9.792758,-0.0918034240603447,-0.03268137,0.043145437,-0.009725227020680904,-0.030347742
2654.016666672849,-0.009024261,-0.79131573,0.0080695925,-2.3668623,-0.0045437147,1.5730464,0.79711425,0.039999966,0.04,-9.792525,-0.09702688455581665,-0.033502407,0.044667654,-0.009576662443578243,-0.031419534
2654.033333339516,-0.009524402,-0.79168874,0.008506748,-2.3674376,-0.0047960416,1.5731598,0.7977192,0.039999966,0.04,-9.792182,-0.10245516151189804,-0.034342807,0.04620833,-0.009424195624887943,-0.032505088
2654.050000006183,-0.010041225,-0.7920743,0.008958498,-2.3680317,-0.005056769,1.5732769,0.7983444,0.039999966,0.04,-9.7921715,-0.10804435610771179,-0.03502518,0.047766022,-0.009271323680877686,-0.03360312
2654.06666667285,-0.0105749,-0.79247266,0.009424987,-2.3686452,-0.0053260033,1.5733978,0.79898995,0.03999996,0.04,-9.791574,-0.11386970430612564,-0.036039233,0.049340114,-0.009115314111113548,-0.034714114
2654.0833333395167,-0.011125581,-0.79288375,0.00990635,-2.3692784,-0.0056038233,1.5735224,0.7996561,0.039999966,0.04,-9.791307,-0.11985685676336288,-0.03689933,0.050929945,-0.008958052843809128,-0.03583596
2654.1000000061836,-0.011693423,-0.7933078,0.010402724,-2.3699307,-0.005890296,1.5736511,0.8003429,0.039999966,0.04,-9.79104,-0.12604215741157532,-0.037780978,0.052535716,-0.008800829760730267,-0.036969252
2654.1166666728504,-0.012278567,-0.7937448,0.010914235,-2.3706036,-0.0061855046,1.5737836,0.80105054,0.03999997,0.04,-9.790953,-0.13241377472877502,-0.038508344,0.054156452,-0.008639329113066196,-0.038115267
2654.1333333395173,-0.012881156,-0.7941948,0.0114410035,-2.371296,-0.006489505,1.5739201,0.8017801,0.03999997,0.04,-9.79051,-0.13900817930698395,-0.039566297,0.05579268,-0.008481012657284737,-0.0392711
2654.150000006184,-0.01350132,-0.7946581,0.01198315,-2.3720083,-0.0068023712,1.5740604,0.80253065,0.03999997,0.04,-9.790139,-0.1457904577255249,-0.04049116,0.05743882,-0.008319024927914143,-0.040437303
2654.166666672851,-0.014139186,-0.79513466,0.012540776,-2.3727415,-0.0071241762,1.5742047,0.8033022,0.03999997,0.04,-9.790089,-0.15275101363658905,-0.04123417,0.059099693,-0.00815558061003685,-0.041614395
2654.183333339518,-0.014794876,-0.79562455,0.013113997,-2.3734953,-0.007455014,1.5743533,0.8040953,0.039999984,0.04,-9.789628,-0.16001178324222565,-0.042330943,0.06077523,-0.00799581315368414,-0.04280946
2654.200000006185,-0.015468503,-0.796128,0.013702908,-2.37427,-0.00779487,1.574506,0.80491006,0.03999999,0.04,-9.789325,-0.16733965277671814,-0.043289162,0.062463477,-0.007833397015929222,-0.044002905
2654.2166666728517,-0.016160171,-0.7966448,0.014307598,-2.3750646,-0.008143807,1.5746629,0.8057466,0.039999988,0.04,-9.789042,-0.17494505643844604,-0.044230495,0.0641637,-0.007671946659684181,-0.045207094
2654.2333333395186,-0.01686999,-0.7971753,0.014928166,-2.37588,-0.008501902,1.5748239,0.80660516,0.03999999,0.04,-9.788972,-0.18272638320922852,-0.04503244,0.065875314,-0.007507740519940853,-0.04642002
2654.2500000061855,-0.017598048,-0.7977196,0.015564687,-2.3767166,-0.008869184,1.574989,0.8074858,0.039999988,0.04,-9.788342,-0.19077035784721375,-0.046161816,0.06759768,-0.0073421411216259,-0.047641307
2654.2666666728524,-0.018344436,-0.79827744,0.016217241,-2.3775744,-0.009245719,1.5751582,0.80838877,0.039999984,0.04,-9.788058,-0.198999285697937,-0.04711158,0.06933017,-0.00717755826190114,-0.048870638
2654.2833333395192,-0.019109232,-0.798849,0.016885905,-2.3784537,-0.009631531,1.5753317,0.80931395,0.039999977,0.04,-9.787761,-0.20744311809539795,-0.048108846,0.07107188,-0.007013904862105846,-0.050107665
2654.300000006186,-0.01989252,-0.79943454,0.017570749,-2.379354,-0.010026682,1.5755093,0.8102615,0.039999973,0.04,-9.787787,-0.21607325971126556,-0.048921283,0.07282334,-0.0068533532321453094,-0.05135195
2654.316666672853,-0.020694373,-0.8000338,0.01827183,-2.3802755,-0.0104312105,1.5756909,0.81123143,0.039999966,0.04,-9.787092,-0.22498124837875366,-0.050063223,0.07458361,-0.006690086331218481,-0.052604128
2654.33333333952,-0.021514855,-0.80064696,0.018989205,-2.3812182,-0.010845125,1.5758768,0.81222403,0.03999997,0.04,-9.786769,-0.23406414687633514,-0.051063955,0.07635256,-0.006529566366225481,-0.05386125
2654.3500000061867,-0.022354025,-0.801274,0.019722924,-2.3821821,-0.011268453,1.5760672,0.81323916,0.03999997,0.04,-9.786417,-0.24337618052959442,-0.05206742,0.07812875,-0.006368784233927727,-0.05512572
2654.3666666728536,-0.023211937,-0.8019155,0.020473031,-2.3831675,-0.011701232,1.5762616,0.81427693,0.03999997,0.04,-9.786306,-0.25286707282066345,-0.05290091,0.07991262,-0.006206715479493141,-0.056395575
2654.3833333395205,-0.024088638,-0.8025712,0.02123958,-2.3841748,-0.012143484,1.5764604,0.81533754,0.039999966,0.04,-9.7856,-0.26265332102775574,-0.054018725,0.08170358,-0.0060437265783548355,-0.057672184
2654.4000000061874,-0.024984168,-0.8032408,0.022022612,-2.3852043,-0.012595253,1.5766635,0.8164211,0.039999966,0.04,-9.78525,-0.272630512714386,-0.054998018,0.0835004,-0.005882549565285444,-0.05895492
2654.4166666728543,-0.025898565,-0.80392444,0.022822144,-2.386255,-0.013056542,1.5768706,0.81752735,0.039999966,0.04,-9.785249,-0.28279200196266174,-0.055836316,0.08530261,-0.005725492257624865,-0.06024266
2654.433333339521,-0.026831862,-0.8046225,0.023638211,-2.387328,-0.0135273505,1.5770818,0.81865627,0.03999996,0.04,-9.784488,-0.29323774576187134,-0.056979366,0.087110825,-0.005569296423345804,-0.061534464
2654.450000006188,-0.027784089,-0.8053346,0.024470834,-2.3884223,-0.014007706,1.5772978,0.81980824,0.039999958,0.04,-9.784094,-0.3038824200630188,-0.057939954,0.08892502,-0.005414891988039017,-0.06283071
2654.466666672855,-0.028755259,-0.8060609,0.025320029,-2.3895383,-0.014497634,1.577518,0.82098305,0.039999954,0.04,-9.783627,-0.3147537112236023,-0.05894006,0.090743095,-0.005258779041469097,-0.06413217
2654.483333339522,-0.029745387,-0.80680156,0.026185818,-2.3906767,-0.014997118,1.5777423,0.822181,0.039999958,0.04,-9.783492,-0.32580485939979553,-0.05973555,0.09256531,-0.005104775074869394,-0.06543663
2654.5000000061887,-0.030754488,-0.80755615,0.027068192,-2.391836,-0.015506146,1.5779711,0.82340175,0.039999954,0.04,-9.782789,-0.33715999126434326,-0.060850024,0.09439061,-0.004954883363097906,-0.066743866
2654.5166666728555,-0.031782564,-0.8083251,0.027967166,-2.3930173,-0.016024755,1.5782042,0.82464546,0.03999995,0.04,-9.78217,-0.34871912002563477,-0.061815757,0.09621949,-0.0048020463436841965,-0.06805632
2654.5333333395224,-0.032829605,-0.8091082,0.028882733,-2.39422,-0.016552933,1.5784414,0.82591224,0.03999995,0.04,-9.781693,-0.36049073934555054,-0.06274463,0.09805115,-0.004650890361517668,-0.06937086
2654.5500000061893,-0.03389563,-0.80990535,0.029814895,-2.3954446,-0.017090673,1.5786831,0.8272019,0.03999995,0.04,-9.781479,-0.37246304750442505,-0.06349889,0.09988441,-0.004501808434724808,-0.07068911
2654.566666672856,-0.034980584,-0.8107168,0.030763637,-2.3966906,-0.017637964,1.578929,0.82851446,0.039999947,0.04,-9.780618,-0.38473373651504517,-0.06459067,0.10171972,-0.004353521391749382,-0.07200889
2654.583333339523,-0.036084488,-0.8115425,0.03172894,-2.397959,-0.018194824,1.5791792,0.82984996,0.03999995,0.04,-9.779983,-0.3972005248069763,-0.06546515,0.103556804,-0.004204268101602793,-0.073331684
2654.60000000619,-0.037207305,-0.8123823,0.032710794,-2.3992493,-0.01876124,1.5794339,0.83120835,0.03999995,0.04,-9.779521,-0.4099007546901703,-0.066336446,0.10539444,-0.004061411134898663,-0.074656956
2654.616666672857,-0.038349,-0.8132362,0.033709172,-2.4005616,-0.0193372,1.5796927,0.83258957,0.03999997,0.04,-9.779242,-0.42282599210739136,-0.06705263,0.10723281,-0.003919318318367004,-0.075991474
2654.6333333395237,-0.039509542,-0.81410426,0.034724027,-2.401895,-0.019922616,1.5799556,0.83399355,0.03999997,0.04,-9.778346,-0.4359685182571411,-0.068044215,0.1090712,-0.003781859762966633,-0.07731693
2654.6500000061906,-0.040688913,-0.8149863,0.03575535,-2.4032502,-0.020517536,1.5802226,0.8354205,0.039999966,0.04,-9.7776575,-0.44936224818229675,-0.068857625,0.11090953,-0.0036456920206546783,-0.07864518
2654.6666666728574,-0.041887056,-0.81588256,0.036803093,-2.4046273,-0.02112192,1.5804942,0.83687025,0.039999973,0.04,-9.7773,-0.4629257619380951,-0.06951172,0.112746105,-0.003511677961796522,-0.07997229
2654.6833333395243,-0.04310392,-0.81679296,0.03786721,-2.4060252,-0.021735737,1.58077,0.8383427,0.039999966,0.04,-9.776325,-0.47682857513427734,-0.07042395,0.11458094,-0.0033800743985921144,-0.081301525
2654.700000006191,-0.044339452,-0.81771713,0.03894767,-2.4074447,-0.022358974,1.5810503,0.8398372,0.03999996,0.04,-9.775467,-0.49090078473091125,-0.07117267,0.11641375,-0.0032457381021231413,-0.08263039
2654.716666672858,-0.0455936,-0.81865525,0.040044423,-2.4088857,-0.022991601,1.5813347,0.8413545,0.039999966,0.04,-9.774774,-0.5052167773246765,-0.071894996,0.118247434,-0.0031155378092080355,-0.08395964
2654.733333339525,-0.046866313,-0.81960726,0.041157406,-2.4103482,-0.023633597,1.5816231,0.8428942,0.03999995,0.04,-9.774327,-0.5197137594223022,-0.072430804,0.12007719,-0.0029881095979362726,-0.08528931
2654.750000006192,-0.04815752,-0.82057315,0.04228655,-2.4118319,-0.024284918,1.5819157,0.8444564,0.039999947,0.04,-9.773194,-0.5345185995101929,-0.073224746,0.12190428,-0.0028639384545385838,-0.08661633
2654.7666666728587,-0.049467158,-0.82155275,0.043431807,-2.413337,-0.024945535,1.5822123,0.8460408,0.039999943,0.04,-9.77238,-0.549527645111084,-0.07385285,0.12372745,-0.0027431901544332504,-0.08794311
2654.7833333395256,-0.050795127,-0.82254606,0.04459312,-2.4148629,-0.025615415,1.5825136,0.84764737,0.039999943,0.04,-9.771525,-0.5647571682929993,-0.07443718,0.1255472,-0.002626454457640648,-0.08926847
2654.8000000061925,-0.052141357,-0.82355297,0.045770384,-2.41641,-0.026294488,1.5828187,0.8492761,0.03999994,0.04,-9.770909,-0.5801609754562378,-0.0748661,0.1273629,-0.0025091979186981916,-0.09059145
2654.8166666728594,-0.05350576,-0.8245736,0.046963558,-2.4179773,-0.02698275,1.5831282,0.8509268,0.03999994,0.04,-9.76969,-0.5959132313728333,-0.07552657,0.12917368,-0.002396652474999428,-0.0919142
2654.8333333395262,-0.054888252,-0.8256077,0.048172552,-2.419566,-0.027680127,1.5834417,0.85259944,0.039999936,0.04,-9.768597,-0.6118223071098328,-0.075987786,0.1309798,-0.0022822029422968626,-0.09323419
2654.850000006193,-0.056288756,-0.8266554,0.0493973,-2.4211755,-0.028386567,1.5837592,0.8542938,0.03999994,0.04,-9.767664,-0.6279684901237488,-0.076406695,0.13278064,-0.002173401415348053,-0.094550565
2654.86666667286,-0.057707142,-0.82771647,0.05063771,-2.4228048,-0.029102046,1.5840808,0.85600984,0.03999994,0.04,-9.766971,-0.6442918181419373,-0.07666028,0.13457562,-0.002068793401122093,-0.09586499
2654.883333339527,-0.05914334,-0.82879084,0.051893674,-2.4244547,-0.029826486,1.5844065,0.85774755,0.039999936,0.04,-9.765461,-0.660944938659668,-0.07712965,0.1363644,-0.0019629262387752533,-0.09717666
2654.9000000061937,-0.06059722,-0.8298785,0.05316512,-2.4261258,-0.030559866,1.5847361,0.85950655,0.039999936,0.04,-9.764358,-0.677804708480835,-0.07741478,0.13814594,-0.0018606847152113914,-0.098490916
2654.9166666728606,-0.062068686,-0.8309793,0.054451935,-2.4278166,-0.031302128,1.5850695,0.8612869,0.039999947,0.04,-9.763613,-0.6947965621948242,-0.0775228,0.13992147,-0.0017650133231654763,-0.099798724
2654.9333333395275,-0.063557625,-0.8320932,0.05575403,-2.4295273,-0.032053195,1.5854069,0.8630882,0.039999954,0.04,-9.762035,-0.7121025323867798,-0.07783958,0.14168899,-0.0016706667374819517,-0.10109928
2654.9500000061944,-0.06506389,-0.83322006,0.05707128,-2.4312582,-0.032812983,1.5857481,0.8649106,0.03999995,0.04,-9.760752,-0.7296020984649658,-0.07796891,0.14344989,-0.0015787201700732112,-0.10239568
2654.9666666728613,-0.06658741,-0.8343599,0.0584036,-2.4330087,-0.033581458,1.5860932,0.8667537,0.039999947,0.04,-9.759479,-0.7473230957984924,-0.07805064,0.14520198,-0.001490207971073687,-0.10368685
2654.983333339528,-0.06812804,-0.83551246,0.05975088,-2.4347787,-0.034358565,1.5864425,0.8686177,0.03999994,0.04,-9.758465,-0.7652121782302856,-0.077944785,0.14694625,-0.0014051279285922647,-0.10497504
2655.000000006195,-0.06968561,-0.8366776,0.061113004,-2.4365685,-0.035144232,1.5867956,0.8705023,0.039999936,0.04,-9.756705,-0.7834299802780151,-0.078041516,0.14868073,-0.0013193786144256592,-0.10625675
2655.016666672862,-0.07126002,-0.83785564,0.06248984,-2.4383776,-0.035938397,1.5871525,0.8724072,0.03999993,0.04,-9.755346,-0.8018275499343872,-0.07793703,0.15040588,-0.0012402995489537716,-0.10753456
2655.033333339529,-0.072851144,-0.839046,0.0638813,-2.4402058,-0.036740974,1.5875131,0.8743323,0.039999936,0.04,-9.753863,-0.8204135298728943,-0.07775262,0.15212163,-0.0011630271328613162,-0.108805224
2655.0500000061957,-0.07445882,-0.84024876,0.06528722,-2.442053,-0.037551913,1.5878776,0.8762773,0.039999932,0.04,-9.752619,-0.8391823172569275,-0.077425286,0.15382744,-0.001088696182705462,-0.11007176
2655.0666666728625,-0.076082915,-0.84146374,0.066707484,-2.4439194,-0.038371116,1.588246,0.87824225,0.039999925,0.04,-9.750724,-0.8582765460014343,-0.07724123,0.15552367,-0.0010161430109292269,-0.1113314
2655.0833333395294,-0.07772324,-0.84269094,0.06814198,-2.4458044,-0.039198544,1.5886183,0.88022685,0.039999925,0.04,-9.749131,-0.877532422542572,-0.076876916,0.15720873,-0.0009481722954660654,-0.11258545
2655.1000000061963,-0.07937969,-0.8439302,0.069590546,-2.447708,-0.040034074,1.5889935,0.882231,0.03999992,0.04,-9.747431,-0.8969892263412476,-0.07643455,0.15888305,-0.0008817571215331554,-0.11383201
2655.116666672863,-0.0810521,-0.8451814,0.07105307,-2.4496293,-0.04087766,1.5893726,0.8842544,0.039999917,0.04,-9.746035,-0.9166029691696167,-0.07580862,0.16054553,-0.0008217125432565808,-0.11507234
2655.13333333953,-0.08274029,-0.84644455,0.07252942,-2.4515696,-0.041729216,1.5897554,0.8862968,0.039999917,0.04,-9.743848,-0.9365392327308655,-0.075323634,0.1621963,-0.0007611708133481443,-0.1163049
2655.150000006197,-0.084444106,-0.84771925,0.07401943,-2.4535272,-0.042588655,1.5901417,0.88835824,0.039999917,0.04,-9.742085,-0.9566736221313477,-0.07464362,0.1638358,-0.000707010505720973,-0.11753644
2655.166666672864,-0.086163394,-0.8490057,0.07552296,-2.4555027,-0.043455906,1.5905313,0.8904384,0.03999993,0.04,-9.740439,-0.976874828338623,-0.07381524,0.16546199,-0.0006540991016663611,-0.11875625
2655.1833333395307,-0.087897964,-0.8503036,0.07703986,-2.457496,-0.04433085,1.5909244,0.89253706,0.03999992,0.04,-9.738171,-0.9974247217178345,-0.07306258,0.16707537,-0.00060420943191275,-0.119966164
2655.2000000061976,-0.08964769,-0.8516126,0.078569986,-2.459506,-0.04521343,1.591321,0.89465404,0.039999925,0.04,-9.736139,-1.018115758895874,-0.07214152,0.16867557,-0.0005573263624683022,-0.12116542
2655.2166666728644,-0.09141234,-0.85293293,0.08011316,-2.4615333,-0.046103563,1.591721,0.89678895,0.039999913,0.04,-9.734017,-1.0390419960021973,-0.071161956,0.1702618,-0.0005127373151481152,-0.122361206
2655.2333333395313,-0.09319175,-0.8542642,0.08166923,-2.4635782,-0.047001127,1.5921243,0.89894193,0.039999917,0.04,-9.732165,-1.0600416660308838,-0.069990374,0.17183508,-0.00047010963317006826,-0.123543106
2655.250000006198,-0.09498573,-0.85560644,0.08323805,-2.46564,-0.047906034,1.592531,0.90111226,0.039999917,0.04,-9.729754,-1.0814297199249268,-0.068889245,0.17339318,-0.0004344733606558293,-0.12471824
2655.266666672865,-0.09679413,-0.8569595,0.08481948,-2.4677172,-0.04881822,1.5929409,0.9033002,0.039999906,0.04,-9.727501,-1.1029236316680908,-0.06761315,0.17493854,-0.0004027955001220107,-0.12588392
2655.283333339532,-0.09861673,-0.8583231,0.08641332,-2.4698112,-0.049737573,1.593354,0.90550536,0.0399999,0.04,-9.724956,-1.1245930194854736,-0.06626064,0.1764673,-0.00036684676888398826,-0.12704071
2655.300000006199,-0.10045334,-0.8596969,0.08801939,-2.4719222,-0.05066401,1.5937704,0.9077273,0.03999989,0.04,-9.722971,-1.146396517753601,-0.06473747,0.17798114,-0.00033858217648230493,-0.128187
2655.3166666728657,-0.10230378,-0.8610813,0.089637555,-2.4740489,-0.05159739,1.5941899,0.9099662,0.039999895,0.04,-9.720314,-1.1685245037078857,-0.06326295,0.17948042,-0.000317508791340515,-0.12932105
2655.3333333395326,-0.104167864,-0.8624763,0.09126765,-2.4761913,-0.052537695,1.5946124,0.9122213,0.039999887,0.04,-9.71773,-1.1907905340194702,-0.061600037,0.18096273,-0.00029778116731904447,-0.13044927
2655.3500000061995,-0.10604535,-0.86388105,0.092909455,-2.478349,-0.053484734,1.5950379,0.9144931,0.039999884,0.04,-9.715117,-1.2131853103637695,-0.05981727,0.18242952,-0.00028030373505316675,-0.13156223
2655.3666666728664,-0.10793606,-0.86529565,0.09456283,-2.4805217,-0.054438446,1.5954667,0.91678065,0.039999876,0.04,-9.712703,-1.2357535362243652,-0.057921294,0.18387802,-0.0002653439005371183,-0.13266961
2655.3833333395332,-0.10983979,-0.86672,0.096227564,-2.4827092,-0.055398744,1.5958983,0.9190841,0.03999988,0.04,-9.709641,-1.2586156129837036,-0.056022692,0.18531066,-0.00025224185083061457,-0.13376608
2655.4000000062,-0.111756355,-0.8681541,0.09790351,-2.4849114,-0.056365516,1.5963328,0.9214029,0.039999887,0.04,-9.706804,-1.2815701961517334,-0.05394644,0.1867254,-0.00024268002016469836,-0.13485087
2655.416666672867,-0.113685496,-0.8695973,0.09959043,-2.4871283,-0.057338633,1.59677,0.92373675,0.039999884,0.04,-9.704185,-1.3045997619628906,-0.05171694,0.18812317,-0.0002350161230424419,-0.13591965
2655.433333339534,-0.11562701,-0.87105006,0.10128816,-2.489359,-0.058317997,1.5972102,0.92608577,0.03999988,0.04,-9.700957,-1.3279916048049927,-0.049490616,0.18950367,-0.0002322714717593044,-0.13697802
2655.4500000062008,-0.11758072,-0.872512,0.10299655,-2.4916034,-0.059303485,1.597653,0.92844945,0.039999876,0.04,-9.697847,-1.3514384031295776,-0.047076356,0.19086519,-0.00022932016872800887,-0.13802311
2655.4666666728676,-0.11954635,-0.87398267,0.10471535,-2.4938614,-0.060294997,1.5980986,0.9308276,0.03999986,0.04,-9.69468,-1.3750673532485962,-0.044549935,0.19220857,-0.0002277835737913847,-0.13905661
2655.4833333395345,-0.12152372,-0.8754622,0.10644442,-2.4961329,-0.061292455,1.5985469,0.93322,0.03999986,0.04,-9.691723,-1.3987990617752075,-0.04189293,0.19353269,-0.00022869950043968856,-0.14007924
2655.5000000062014,-0.123512566,-0.87695026,0.10818352,-2.498418,-0.062295698,1.5989977,0.93562627,0.039999854,0.04,-9.688174,-1.4228053092956543,-0.03917656,0.1948376,-0.00023220921866595745,-0.14108638
2655.5166666728683,-0.1255127,-0.8784467,0.109932475,-2.5007167,-0.06330462,1.5994511,0.9380464,0.03999985,0.04,-9.684893,-1.4469046592712402,-0.036302388,0.19612394,-0.00024130375823006034,-0.1420783
2655.533333339535,-0.1275239,-0.87995136,0.11169109,-2.5030272,-0.06431911,1.5999068,0.9404797,0.039999835,0.04,-9.681531,-1.4711986780166626,-0.033314154,0.19738926,-0.00025707483291625977,-0.14306119
2655.550000006202,-0.12954588,-0.8814643,0.11345915,-2.5053504,-0.06533912,1.6003653,0.94292605,0.039999824,0.04,-9.678144,-1.49551522731781,-0.030205399,0.19863553,-0.0002709680993575603,-0.14403008
2655.566666672869,-0.13157852,-0.8829852,0.11523645,-2.507686,-0.066364445,1.6008263,0.94538516,0.039999828,0.04,-9.674292,-1.520124077796936,-0.026982151,0.19986139,-0.00028666015714406967,-0.14498343
2655.583333339536,-0.13362145,-0.8845137,0.117022805,-2.5100331,-0.06739498,1.601289,0.9478569,0.039999813,0.04,-9.670622,-1.5448145866394043,-0.023630835,0.20106688,-0.00030508142663165927,-0.14592268
2655.6000000062027,-0.13567455,-0.8860499,0.118817985,-2.512393,-0.06843062,1.6017545,0.9503408,0.03999982,0.04,-9.666839,-1.5696505308151245,-0.020152405,0.20225136,-0.00032796477898955345,-0.146847
2655.6166666728695,-0.13773747,-0.8875936,0.12062178,-2.5147624,-0.069471255,1.6022222,0.95283675,0.039999813,0.04,-9.663372,-1.5945733785629272,-0.016528659,0.2034151,-0.0003566981467884034,-0.14776072
2655.6333333395364,-0.13981007,-0.8891443,0.12243398,-2.5171444,-0.070516765,1.6026919,0.9553442,0.039999813,0.04,-9.658917,-1.619729995727539,-0.0128141,0.20455597,-0.00037927328958176076,-0.14866188
2655.6500000062033,-0.14189202,-0.8907021,0.12425439,-2.5195363,-0.07156698,1.603164,0.9578631,0.039999805,0.04,-9.655107,-1.6449452638626099,-0.008952289,0.20567673,-0.00041198512190021574,-0.14954232
2655.66666667287,-0.14398314,-0.89226687,0.12608281,-2.5219388,-0.07262186,1.6036379,0.96039283,0.039999794,0.04,-9.651109,-1.6702299118041992,-0.0049613877,0.2067749,-0.00044156229705549777,-0.1504091
2655.683333339537,-0.14608319,-0.8938381,0.12791896,-2.5243516,-0.073681235,1.6041138,0.9629336,0.039999794,0.04,-9.646665,-1.6957476139068604,-0.0008265977,0.20785178,-0.00047379187890328467,-0.15125738
2655.700000006204,-0.14819187,-0.89541584,0.1297627,-2.5267735,-0.074744955,1.6045918,0.96548486,0.03999978,0.04,-9.642425,-1.7213486433029175,0.003425257,0.20890453,-0.0005109545891173184,-0.15209158
2655.716666672871,-0.15030898,-0.897,0.13161375,-2.5292058,-0.075812936,1.6050719,0.9680463,0.039999764,0.04,-9.637914,-1.7470623254776,0.0078124357,0.2099348,-0.0005456038634292781,-0.15291233
2655.7333333395377,-0.1524342,-0.8985902,0.13347192,-2.5316484,-0.07688506,1.6055536,0.9706176,0.03999976,0.04,-9.633756,-1.7727806568145752,0.012336044,0.21094172,-0.0005832696333527565,-0.15371208
2655.7500000062046,-0.15456736,-0.90018624,0.135337,-2.5340993,-0.07796115,1.6060373,0.9731984,0.03999976,0.04,-9.629121,-1.7988063097000122,0.01702059,0.21192606,-0.0006298320950008929,-0.15449768
2655.7666666728715,-0.15670817,-0.90178823,0.13720873,-2.5365584,-0.07904111,1.6065227,0.9757884,0.039999742,0.04,-9.624367,-1.8248305320739746,0.021804346,0.21288645,-0.0006743419216945767,-0.15526828
2655.7833333395383,-0.15885636,-0.90339565,0.13908689,-2.5390263,-0.080124825,1.6070096,0.9783875,0.039999742,0.04,-9.6195135,-1.850917100906372,0.026738886,0.21382299,-0.0007158173830248415,-0.1560185
2655.800000006205,-0.16101173,-0.9050083,0.1409713,-2.5415022,-0.08121214,1.6074983,0.9809951,0.039999727,0.04,-9.6149845,-1.877087950706482,0.031811275,0.2147348,-0.0007635103538632393,-0.15675467
2655.816666672872,-0.16317393,-0.90662616,0.1428617,-2.543986,-0.082302935,1.6079885,0.9836109,0.039999712,0.04,-9.609801,-1.903472661972046,0.03703141,0.21562275,-0.0008108519832603633,-0.15747386
2655.833333339539,-0.16534278,-0.90824884,0.14475794,-2.5464776,-0.083397046,1.6084801,0.9862348,0.03999971,0.04,-9.6048355,-1.9298607110977173,0.04239539,0.21648672,-0.0008619450381956995,-0.15817349
2655.850000006206,-0.16751796,-0.90987635,0.1466597,-2.5489762,-0.08449441,1.6089733,0.9888663,0.039999697,0.04,-9.599714,-1.9563604593276978,0.047876023,0.21732654,-0.0009145749500021338,-0.15885602
2655.8666666728727,-0.16969927,-0.9115086,0.14856674,-2.5514824,-0.08559484,1.6094677,0.9915054,0.039999686,0.04,-9.594681,-1.9828462600708008,0.053479023,0.2181404,-0.0009667584672570229,-0.15952125
2655.8833333395396,-0.1718864,-0.9131452,0.15047888,-2.553995,-0.08669824,1.6099634,0.9941514,0.03999967,0.04,-9.589275,-2.0095643997192383,0.05931004,0.21892878,-0.0010243350407108665,-0.16017008
2655.9000000062065,-0.1740791,-0.91478586,0.15239583,-2.556514,-0.08780447,1.6104605,0.99680424,0.03999967,0.04,-9.583805,-2.0362637042999268,0.06520837,0.21969233,-0.0010803680634126067,-0.16079977
2655.9166666728734,-0.17627709,-0.91643053,0.15431742,-2.5590396,-0.088913344,1.6109587,0.9994634,0.039999656,0.04,-9.57858,-2.06298828125,0.07122499,0.22042939,-0.0011402239324524999,-0.16141327
2655.9333333395402,-0.17848012,-0.9180791,0.15624338,-2.5615714,-0.090024784,1.6114581,1.0021286,0.039999656,0.04,-9.572886,-2.0898938179016113,0.07746843,0.2211417,-0.0012039534049108624,-0.16200495
2655.950000006207,-0.18068792,-0.9197311,0.15817347,-2.5641077,-0.091138646,1.6119584,1.0047995,0.039999645,0.04,-9.567235,-2.116799831390381,0.08380842,0.22182785,-0.00126928451936692,-0.16257961
2655.966666672874,-0.18290026,-0.92138636,0.16010751,-2.5666492,-0.09225475,1.61246,1.007476,0.03999963,0.04,-9.56139,-2.143728256225586,0.09027578,0.22248761,-0.0013334060786291957,-0.16313297
2655.983333339541,-0.18511678,-0.92304486,0.16204527,-2.5691967,-0.09337302,1.6129626,1.0101577,0.039999627,0.04,-9.555703,-2.170675039291382,0.096836515,0.2231199,-0.0013977332273498178,-0.16366774
2656.0000000062078,-0.18733728,-0.92470634,0.16398643,-2.5717475,-0.09449328,1.6134658,1.0128441,0.039999615,0.04,-9.549731,-2.1978139877319336,0.10366126,0.22372615,-0.0014678261941298842,-0.16418198
2656.0166666728746,-0.18956146,-0.9263705,0.16593082,-2.5743034,-0.0956154,1.61397,1.0155349,0.039999604,0.04,-9.543561,-2.2248895168304443,0.11056565,0.22430557,-0.0015357861993834376,-0.16467847
2656.0333333395415,-0.19178906,-0.92803717,0.16787817,-2.5768626,-0.09673927,1.6144751,1.0182298,0.039999586,0.04,-9.53751,-2.2520439624786377,0.11760543,0.22485892,-0.0016070830170065165,-0.16515464
2656.0500000062084,-0.19401982,-0.9297063,0.16982825,-2.579426,-0.097864784,1.6149808,1.0209286,0.03999958,0.04,-9.531367,-2.279129981994629,0.124722995,0.22538386,-0.0016771414084360003,-0.16561086
2656.0666666728753,-0.19625348,-0.9313776,0.1717808,-2.5819914,-0.09899171,1.6154871,1.0236307,0.039999563,0.04,-9.525005,-2.3063957691192627,0.13213545,0.22588217,-0.0017521119443699718,-0.16604586
2656.083333339542,-0.1984897,-0.9330507,0.17373565,-2.5845609,-0.10011996,1.6159941,1.0263361,0.039999552,0.04,-9.518382,-2.3335952758789062,0.13959463,0.22635221,-0.0018205078085884452,-0.16646361
2656.100000006209,-0.20072831,-0.9347255,0.17569245,-2.5871327,-0.10124941,1.6165013,1.0290442,0.039999533,0.04,-9.512033,-2.3608667850494385,0.14720264,0.22679527,-0.0018956054700538516,-0.16685969
2656.116666672876,-0.20296891,-0.936402,0.17765106,-2.5897064,-0.10237989,1.6170094,1.0317547,0.039999526,0.04,-9.505558,-2.3880414962768555,0.15488748,0.22721085,-0.00197118753567338,-0.16723381
2656.133333339543,-0.2052113,-0.9380799,0.1796112,-2.5922828,-0.103511244,1.6175178,1.0344675,0.039999515,0.04,-9.498634,-2.4153826236724854,0.1628425,0.22759785,-0.0020432069431990385,-0.16759022
2656.1500000062097,-0.20745516,-0.939759,0.18157263,-2.5948608,-0.10464338,1.6180263,1.037182,0.039999492,0.04,-9.4919615,-2.442676544189453,0.17088903,0.22795632,-0.002119906945154071,-0.16792576
2656.1666666728765,-0.20970029,-0.941439,0.18353511,-2.59744,-0.105776176,1.6185352,1.0398979,0.03999948,0.04,-9.485189,-2.4698965549468994,0.17899996,0.22828765,-0.002197462599724531,-0.16823961
2656.1833333395434,-0.21194638,-0.9431195,0.1854984,-2.6000202,-0.10690947,1.6190445,1.0426152,0.03999947,0.04,-9.478085,-2.4972269535064697,0.18736339,0.22858997,-0.002274178434163332,-0.16853182
2656.2000000062103,-0.2141931,-0.9448006,0.18746226,-2.602601,-0.108043104,1.619554,1.0453333,0.03999945,0.04,-9.470992,-2.5245108604431152,0.19578697,0.22886315,-0.002349311485886574,-0.16880454
2656.216666672877,-0.21644026,-0.946482,0.18942645,-2.6051822,-0.10917693,1.6200635,1.0480517,0.03999943,0.04,-9.46388,-2.551783323287964,0.20437609,0.22910748,-0.0024265621323138475,-0.16905658
2656.233333339544,-0.21868756,-0.9481634,0.19139074,-2.6077638,-0.11031085,1.620573,1.0507703,0.039999418,0.04,-9.456714,-2.5789740085601807,0.21300492,0.2293239,-0.002502867253497243,-0.16928516
2656.250000006211,-0.2209347,-0.9498447,0.19335485,-2.6103451,-0.11144471,1.6210825,1.0534887,0.039999407,0.04,-9.449328,-2.6062722206115723,0.22192833,0.2295112,-0.0025808836799114943,-0.16949359
2656.266666672878,-0.22318138,-0.95152575,0.19531858,-2.6129258,-0.112578325,1.6215918,1.0562066,0.039999396,0.04,-9.441905,-2.6334798336029053,0.23090646,0.22966944,-0.0026589229237288237,-0.16967979
2656.2833333395447,-0.22542736,-0.95320636,0.19728167,-2.6155057,-0.113711625,1.6221008,1.0589234,0.03999937,0.04,-9.434414,-2.660693407058716,0.24002723,0.2297995,-0.0027378809172660112,-0.16984695
2656.3000000062116,-0.22767234,-0.95488614,0.19924384,-2.6180842,-0.11484447,1.6226095,1.0616392,0.03999937,0.04,-9.426901,-2.6877808570861816,0.24918191,0.22990088,-0.002816629596054554,-0.16998965
2656.3166666728785,-0.22991611,-0.956565,0.20120493,-2.6206617,-0.11597663,1.623118,1.0643536,0.039999355,0.04,-9.419135,-2.7149555683135986,0.2586309,0.2299714,-0.0028954925946891308,-0.17011267
2656.3333333395453,-0.23215836,-0.9582427,0.2031646,-2.6232378,-0.11710806,1.6236262,1.067066,0.039999336,0.04,-9.411461,-2.7420389652252197,0.26813415,0.2300134,-0.00297645409591496,-0.1702115
2656.350000006212,-0.2343988,-0.95991904,0.20512271,-2.6258116,-0.1182386,1.6241341,1.0697759,0.039999317,0.04,-9.403639,-2.7690799236297607,0.2777552,0.23002595,-0.003058417234569788,-0.170289
2656.366666672879,-0.23663713,-0.9615939,0.20707896,-2.6283822,-0.1193681,1.6246414,1.0724837,0.039999295,0.04,-9.39576,-2.7960493564605713,0.28739032,0.23001027,-0.0031393140088766813,-0.17034632
2656.383333339546,-0.23887305,-0.96326697,0.20903315,-2.6309512,-0.12049641,1.6251484,1.0751884,0.03999928,0.04,-9.387621,-2.822995185852051,0.29735148,0.22996351,-0.0032169418409466743,-0.17037915
2656.400000006213,-0.24110644,-0.9649379,0.210985,-2.6335163,-0.12162344,1.6256547,1.07789,0.039999265,0.04,-9.379687,-2.8499205112457275,0.30735594,0.229889,-0.0032995117362588644,-0.170391
2656.4166666728797,-0.2433369,-0.9666069,0.21293427,-2.6360786,-0.12274899,1.6261603,1.080588,0.039999243,0.04,-9.37144,-2.8766887187957764,0.31733847,0.22978377,-0.003377811051905155,-0.17037994
2656.4333333395466,-0.24556419,-0.96827346,0.21488078,-2.6386366,-0.123872936,1.6266651,1.083282,0.039999224,0.04,-9.363262,-2.903482437133789,0.32767934,0.22964971,-0.003459102939814329,-0.17034587
2656.4500000062135,-0.24778803,-0.96993744,0.21682423,-2.6411912,-0.1249952,1.627169,1.0859722,0.039999206,0.04,-9.354844,-2.930194616317749,0.33801422,0.22948599,-0.003537558950483799,-0.17029454
2656.4666666728804,-0.2500082,-0.97159857,0.21876445,-2.6437411,-0.12611559,1.6276723,1.0886576,0.03999919,0.04,-9.3465395,-2.956801414489746,0.34847233,0.22929198,-0.003618126967921853,-0.17021541
2656.4833333395472,-0.25222436,-0.9732569,0.22070113,-2.6462865,-0.12723394,1.6281748,1.0913382,0.03999917,0.04,-9.338033,-2.9833123683929443,0.35891217,0.2290692,-0.003696466563269496,-0.17011543
2656.500000006214,-0.25443628,-0.97491187,0.22263403,-2.6488273,-0.1283502,1.6286759,1.0940137,0.039999153,0.04,-9.329507,-3.0098090171813965,0.36970744,0.22881635,-0.003774707904085517,-0.16999426
2656.516666672881,-0.2566436,-0.9765635,0.224563,-2.6513627,-0.12946415,1.6291763,1.0966837,0.039999135,0.04,-9.320949,-3.036175489425659,0.38048416,0.22853383,-0.0038549392484128475,-0.16984667
2656.533333339548,-0.25884607,-0.9782116,0.22648774,-2.6538925,-0.1305757,1.6296757,1.0993481,0.039999116,0.04,-9.3122225,-3.0624771118164062,0.39137492,0.22822194,-0.003933011554181576,-0.16967908
2656.5500000062148,-0.26104346,-0.9798557,0.22840801,-2.6564167,-0.1316847,1.6301739,1.102006,0.039999094,0.04,-9.303457,-3.088675022125244,0.40224314,0.22787961,-0.004009404685348272,-0.16949105
2656.5666666728816,-0.26323572,-0.9814959,0.23032366,-2.6589346,-0.13279103,1.6306705,1.1046576,0.039999083,0.04,-9.294695,-3.1147797107696533,0.41344142,0.22751024,-0.004087144508957863,-0.16927639
2656.5833333395485,-0.26542222,-0.9831319,0.23223431,-2.6614459,-0.13389453,1.6311662,1.1073025,0.039999057,0.04,-9.285824,-3.140798807144165,0.42463017,0.2271091,-0.004167006351053715,-0.16904244
2656.6000000062154,-0.26760295,-0.9847635,0.23413981,-2.6639504,-0.1349951,1.6316606,1.1099403,0.039999034,0.04,-9.276831,-3.1666901111602783,0.43590352,0.22667894,-0.004242577590048313,-0.16878553
2656.6166666728823,-0.26977757,-0.98639065,0.23603998,-2.6664479,-0.13609262,1.6321533,1.1125705,0.03999903,0.04,-9.267816,-3.1924471855163574,0.44716138,0.22621945,-0.004318393766880035,-0.16850325
2656.633333339549,-0.2719457,-0.9880128,0.2379345,-2.6689374,-0.1371869,1.6326445,1.115193,0.03999901,0.04,-9.25875,-3.218156576156616,0.4587428,0.22573082,-0.004393727984279394,-0.16820085
2656.650000006216,-0.2741072,-0.98963,0.23982324,-2.6714199,-0.13827783,1.6331345,1.1178073,0.039998986,0.04,-9.2495775,-3.243727684020996,0.47028917,0.22521248,-0.004466962534934282,-0.16787621
2656.666666672883,-0.27626178,-0.9912421,0.24170591,-2.6738942,-0.13936529,1.6336229,1.1204134,0.039998967,0.04,-9.240417,-3.269167900085449,0.48180646,0.22466703,-0.004541216418147087,-0.16752777
2656.68333333955,-0.2784094,-0.9928487,0.24358222,-2.6763604,-0.14044912,1.6341095,1.1230109,0.039998945,0.04,-9.231191,-3.2945034503936768,0.4936567,0.22409058,-0.004612902645021677,-0.16715723
2656.7000000062167,-0.28054944,-0.99444973,0.24545205,-2.6788185,-0.14152923,1.6345944,1.1255994,0.039998915,0.04,-9.221948,-3.3196940422058105,0.5054461,0.22348443,-0.004687238018959761,-0.16676357
2656.7166666728835,-0.28268188,-0.99604523,0.24731512,-2.681268,-0.14260548,1.6350777,1.1281785,0.039998878,0.04,-9.212642,-3.3447728157043457,0.51733595,0.22285049,-0.004761579912155867,-0.16634499
2656.7333333395504,-0.28480634,-0.99763477,0.24917126,-2.6837077,-0.14367774,1.6355592,1.1307478,0.03999886,0.04,-9.203219,-3.3697123527526855,0.5291627,0.22218747,-0.004836076870560646,-0.1659052
2656.7500000062173,-0.2869226,-0.999218,0.25102016,-2.6861386,-0.14474593,1.6360388,1.1333075,0.039998844,0.04,-9.193743,-3.3945064544677734,0.5412995,0.22149618,-0.00490587018430233,-0.16544239
2656.766666672884,-0.28903043,-1.000795,0.25286168,-2.688559,-0.14580981,1.6365165,1.1358569,0.03999882,0.04,-9.184354,-3.419212818145752,0.55338293,0.22077608,-0.004979362245649099,-0.1649588
2656.783333339551,-0.2911295,-1.0023656,0.25469556,-2.6909695,-0.14686933,1.6369921,1.1383957,0.03999879,0.04,-9.174721,-3.443708658218384,0.56553924,0.22002678,-0.005048063118010759,-0.16445336
2656.800000006218,-0.2932196,-1.0039294,0.25652176,-2.6933703,-0.14792435,1.6374657,1.1409239,0.03999877,0.04,-9.165052,-3.468092441558838,0.5776378,0.21925001,-0.005116092972457409,-0.16392452
2656.816666672885,-0.29530054,-1.0054862,0.25833985,-2.6957603,-0.14897476,1.6379373,1.1434407,0.03999875,0.04,-9.155609,-3.492344856262207,0.59003645,0.21844526,-0.005185725633054972,-0.16337115
2656.8333333395517,-0.2973721,-1.007036,0.26014966,-2.6981394,-0.1500204,1.6384065,1.1459463,0.03999873,0.04,-9.145923,-3.516425609588623,0.60236925,0.21761233,-0.005253567826002836,-0.16279879
2656.8500000062186,-0.299434,-1.0085783,0.261951,-2.7005076,-0.15106124,1.6388738,1.1484402,0.039998714,0.04,-9.136269,-3.540358781814575,0.61474484,0.21675189,-0.005323030520230532,-0.16220357
2656.8666666728855,-0.30148596,-1.0101134,0.2637436,-2.7028644,-0.15209702,1.6393386,1.150922,0.039998695,0.04,-9.126445,-3.564133405685425,0.62704074,0.21586247,-0.005390837322920561,-0.16158509
2656.8833333395523,-0.3035277,-1.0116408,0.26552737,-2.705209,-0.15312767,1.6398013,1.1533912,0.039998677,0.04,-9.116788,-3.587728500366211,0.63965017,0.2149472,-0.00545743340626359,-0.1609437
2656.900000006219,-0.30555913,-1.0131605,0.26730198,-2.7075422,-0.15415315,1.6402617,1.1558481,0.039998643,0.04,-9.106973,-3.611201286315918,0.652162,0.21400544,-0.005522522609680891,-0.16028468
2656.916666672886,-0.30757993,-1.0146725,0.26906732,-2.7098627,-0.15517329,1.6407197,1.1582918,0.03999862,0.04,-9.097068,-3.634488105773926,0.66460806,0.21303512,-0.005587202031165361,-0.15960315
2656.933333339553,-0.3095899,-1.0161766,0.27082315,-2.7121708,-0.15618794,1.6411753,1.1607226,0.0399986,0.04,-9.087292,-3.657572031021118,0.67733455,0.21203907,-0.0056474469602108,-0.15889947
2656.95000000622,-0.31158873,-1.0176724,0.27256927,-2.7144666,-0.15719704,1.6416283,1.1631402,0.039998583,0.04,-9.077419,-3.6804938316345215,0.6899836,0.2110143,-0.0057053109630942345,-0.15817314
2656.9666666728867,-0.31357628,-1.0191594,0.2743055,-2.7167487,-0.15820037,1.6420784,1.1655439,0.039998557,0.04,-9.067619,-3.70328950881958,0.70266867,0.20996289,-0.005765882320702076,-0.15742627
2656.9833333395536,-0.31555226,-1.0206379,0.2760316,-2.7190175,-0.15919782,1.6425261,1.1679337,0.039998524,0.04,-9.057504,-3.725886583328247,0.71521664,0.20888555,-0.0058243065141141415,-0.15665747
2657.0000000062205,-0.3175165,-1.0221072,0.2777474,-2.721273,-0.16018943,1.6429714,1.170309,0.0399985,0.04,-9.047726,-3.7482852935791016,0.7280562,0.207782,-0.005880335345864296,-0.1558683
2657.0166666728874,-0.31946874,-1.0235683,0.27945277,-2.723515,-0.16117503,1.6434139,1.17267,0.03999847,0.04,-9.0378275,-3.7705397605895996,0.7407924,0.20665455,-0.00593671016395092,-0.1550599
2657.0333333395542,-0.32140884,-1.0250192,0.28114733,-2.7257433,-0.16215448,1.6438537,1.175016,0.03999845,0.04,-9.027948,-3.7925639152526855,0.75358456,0.20549983,-0.005991986021399498,-0.15422583
2657.050000006221,-0.32333642,-1.026462,0.28283107,-2.7279572,-0.1631277,1.6442906,1.1773472,0.039998427,0.04,-9.0178795,-3.8144965171813965,0.76618123,0.20432219,-0.006050494033843279,-0.15337268
2657.066666672888,-0.32525146,-1.0278939,0.2845038,-2.7301567,-0.16409454,1.6447246,1.1796631,0.03999841,0.04,-9.00803,-3.8360965251922607,0.77913326,0.20311664,-0.006102097686380148,-0.15249784
2657.083333339555,-0.32715365,-1.0293179,0.28616524,-2.7323408,-0.16505483,1.6451558,1.1819636,0.03999838,0.04,-8.998169,-3.8576443195343018,0.79187065,0.20188855,-0.006159159354865551,-0.15160167
2657.1000000062218,-0.32904282,-1.0307311,0.2878153,-2.73451,-0.1660086,1.645584,1.184248,0.03999835,0.04,-8.988029,-3.878904342651367,0.80471563,0.20063184,-0.006206906866282225,-0.15069234
2657.1166666728886,-0.33091855,-1.0321336,0.28945366,-2.736664,-0.16695572,1.6460088,1.1865163,0.039998326,0.04,-8.977942,-3.900056838989258,0.81734926,0.19935344,-0.00625704787671566,-0.14976005
2657.1333333395555,-0.33278105,-1.0335276,0.2910803,-2.7388024,-0.167896,1.6464306,1.1887687,0.039998308,0.04,-8.968268,-3.920973062515259,0.83023894,0.19805422,-0.006311461329460144,-0.14880447
2657.1500000062224,-0.33462986,-1.0349106,0.29269493,-2.7409253,-0.1688294,1.6468494,1.1910042,0.03999828,0.04,-8.958186,-3.9416215419769287,0.843073,0.19672461,-0.0063577694818377495,-0.14783275
2657.1666666728893,-0.33646467,-1.0362831,0.29429743,-2.7430317,-0.16975577,1.6472651,1.1932232,0.03999825,0.04,-8.948115,-3.9622132778167725,0.8556775,0.19537573,-0.00640751700848341,-0.14684084
2657.183333339556,-0.33828548,-1.0376451,0.29588756,-2.745122,-0.17067505,1.6476777,1.1954249,0.039998233,0.04,-8.938305,-3.982477903366089,0.8685563,0.19400184,-0.00645244587212801,-0.14583021
2657.200000006223,-0.34009194,-1.0389966,0.2974653,-2.7471957,-0.1715872,1.6480869,1.1976093,0.03999821,0.04,-8.92841,-4.002593040466309,0.8812935,0.1926068,-0.006497502326965332,-0.14480127
2657.21666667289,-0.34188405,-1.0403373,0.29903033,-2.7492535,-0.172492,1.6484929,1.1997764,0.039998177,0.04,-8.918478,-4.022494792938232,0.89402175,0.19118983,-0.006539379712194204,-0.14375103
2657.233333339557,-0.34366143,-1.0416671,0.30058262,-2.7512944,-0.17338943,1.6488955,1.2019261,0.03999815,0.04,-8.908434,-4.042238235473633,0.9066075,0.18974976,-0.006583057343959808,-0.1426821
2657.2500000062237,-0.34542406,-1.0429857,0.30212197,-2.753318,-0.17427942,1.6492947,1.2040575,0.03999813,0.04,-8.898773,-4.061691761016846,0.9194065,0.1882866,-0.006624074187129736,-0.14159337
2657.2666666728906,-0.34717163,-1.0442932,0.30364817,-2.7553246,-0.17516184,1.6496907,1.2061707,0.039998095,0.04,-8.888945,-4.0810041427612305,0.93203706,0.1868037,-0.006665900349617004,-0.14048854
2657.2833333395574,-0.34890407,-1.0455893,0.30516112,-2.7573135,-0.17603666,1.6500831,1.2082658,0.03999807,0.04,-8.879126,-4.1000895500183105,0.94463587,0.18530025,-0.0067056030966341496,-0.1393652
2657.3000000062243,-0.35062122,-1.0468742,0.3066606,-2.7592847,-0.17690371,1.650472,1.2103423,0.039998047,0.04,-8.8690195,-4.118990898132324,0.95708215,0.18377422,-0.006742803379893303,-0.13822535
2657.316666672891,-0.35232288,-1.0481473,0.3081466,-2.7612379,-0.17776291,1.6508574,1.2123997,0.039998025,0.04,-8.859535,-4.1375837326049805,0.9697375,0.18222764,-0.006778927985578775,-0.13706645
2657.333333339558,-0.35400885,-1.0494087,0.30961883,-2.7631736,-0.17861423,1.6512392,1.2144382,0.039998,0.04,-8.849746,-4.156053066253662,0.98221314,0.18066232,-0.006812987849116325,-0.13589342
2657.350000006225,-0.35567892,-1.0506582,0.3110773,-2.765091,-0.17945759,1.6516175,1.2164578,0.039997976,0.04,-8.84015,-4.17430305480957,0.9946671,0.17907804,-0.0068500530906021595,-0.1347018
2657.366666672892,-0.35733297,-1.0518956,0.3125218,-2.7669897,-0.18029293,1.6519923,1.2184577,0.03999796,0.04,-8.830176,-4.192370414733887,1.0069184,0.17747308,-0.006883195135742426,-0.13349326
2657.3833333395587,-0.3589709,-1.0531211,0.31395203,-2.7688694,-0.18112007,1.6523633,1.220438,0.039997943,0.04,-8.820802,-4.210126876831055,1.019363,0.17585112,-0.006914397235959768,-0.13226664
2657.4000000062256,-0.3605925,-1.0543344,0.3153681,-2.770731,-0.18193892,1.6527303,1.2223988,0.03999792,0.04,-8.811173,-4.227681636810303,1.0316409,0.17420982,-0.006943032145500183,-0.13102464
2657.4166666728925,-0.36219764,-1.0555353,0.31676975,-2.7725732,-0.18274944,1.653094,1.2243397,0.03999789,0.04,-8.801408,-4.245128154754639,1.0437514,0.17255074,-0.00697342911735177,-0.12976602
2657.4333333395593,-0.36378625,-1.0567241,0.31815687,-2.7743967,-0.18355162,1.653454,1.2262604,0.039997857,0.04,-8.7921715,-4.262249946594238,1.0560195,0.17087281,-0.007001045159995556,-0.12849562
2657.450000006226,-0.36535802,-1.0579002,0.31952932,-2.7762008,-0.18434536,1.65381,1.228161,0.039997827,0.04,-8.782735,-4.279158592224121,1.0681119,0.16917758,-0.007026822306215763,-0.12720744
2657.466666672893,-0.3669129,-1.0590634,0.32088697,-2.7779858,-0.18513061,1.6541623,1.2300413,0.039997805,0.04,-8.773337,-4.295872688293457,1.0801264,0.16746587,-0.007051512598991394,-0.12590338
2657.48333333956,-0.36845082,-1.060214,0.3222298,-2.7797513,-0.18590726,1.6545109,1.2319007,0.039997783,0.04,-8.7637615,-4.312460899353027,1.0919495,0.16573773,-0.007078375667333603,-0.12458556
2657.500000006227,-0.36997154,-1.0613517,0.3235576,-2.781497,-0.18667528,1.6548555,1.2337395,0.03999777,0.04,-8.7547455,-4.328675270080566,1.1039299,0.16399442,-0.007102256640791893,-0.123253144
2657.5166666728937,-0.37147498,-1.0624764,0.32487038,-2.783223,-0.18743457,1.6551963,1.2355572,0.039997753,0.04,-8.745544,-4.344749927520752,1.1157162,0.16223513,-0.0071264514699578285,-0.1219075
2657.5333333395606,-0.37296093,-1.063588,0.32616788,-2.7849288,-0.18818504,1.6555328,1.237354,0.039997727,0.04,-8.7363615,-4.360604763031006,1.1274325,0.16046229,-0.007148587144911289,-0.12054906
2657.5500000062275,-0.37442937,-1.0646868,0.3274501,-2.7866142,-0.18892667,1.6558656,1.2391298,0.039997697,0.04,-8.726952,-4.376286506652832,1.1389437,0.1586745,-0.0071726576425135136,-0.119176485
2657.5666666728944,-0.37588024,-1.065772,0.32871693,-2.7882798,-0.18965943,1.6561942,1.2408838,0.03999768,0.04,-8.71815,-4.391617774963379,1.1505871,0.15687074,-0.0071917371824383736,-0.11779258
2657.5833333395612,-0.37731335,-1.0668441,0.3299682,-2.7899246,-0.1903832,1.6565189,1.2426163,0.039997656,0.04,-8.709225,-4.406792640686035,1.1620332,0.15505594,-0.007210996933281422,-0.116391785
2657.600000006228,-0.37872872,-1.0679028,0.33120385,-2.791549,-0.19109797,1.6568395,1.2443274,0.03999763,0.04,-8.7002945,-4.421761512756348,1.1733843,0.15322784,-0.007229307666420937,-0.114981055
2657.616666672895,-0.38012615,-1.068948,0.33242384,-2.7931528,-0.19180372,1.6571561,1.2460169,0.03999761,0.04,-8.691122,-4.43654727935791,1.1845146,0.15138595,-0.00724773807451129,-0.113557205
2657.633333339562,-0.38150543,-1.0699801,0.33362803,-2.7947373,-0.19250026,1.6574686,1.2476842,0.039997596,0.04,-8.682682,-4.4510111808776855,1.1957868,0.14953147,-0.007263933774083853,-0.11212218
2657.6500000062288,-0.3828665,-1.0709984,0.33481637,-2.7962992,-0.19318768,1.6577768,1.2493299,0.039997563,0.04,-8.674157,-4.465345859527588,1.2068886,0.14766732,-0.007284863386303186,-0.110676385
2657.6666666728956,-0.38420933,-1.0720031,0.33598867,-2.797841,-0.19386587,1.658081,1.2509534,0.039997537,0.04,-8.664966,-4.479453086853027,1.2176802,0.1457901,-0.007298027165234089,-0.10922017
2657.6833333395625,-0.38553384,-1.0729941,0.33714497,-2.7993612,-0.19453485,1.6583813,1.2525549,0.03999752,0.04,-8.656891,-4.4932732582092285,1.2286571,0.14390273,-0.007314902730286121,-0.10775337
2657.7000000062294,-0.38683996,-1.0739714,0.33828518,-2.80086,-0.19519462,1.6586771,1.254134,0.0399975,0.04,-8.648318,-4.50691032409668,1.2393785,0.14200446,-0.0073264408856630325,-0.10628114
2657.7166666728963,-0.38812757,-1.0749347,0.3394092,-2.802338,-0.19584498,1.6589686,1.2556906,0.039997485,0.04,-8.639895,-4.520299434661865,1.2500113,0.14009582,-0.007336825132369995,-0.104796655
2657.733333339563,-0.38939667,-1.0758841,0.34051713,-2.8037944,-0.19648603,1.659256,1.2572252,0.039997466,0.04,-8.631325,-4.533579349517822,1.2604243,0.13818014,-0.00735001266002655,-0.103301644
2657.75000000623,-0.39064714,-1.0768195,0.34160885,-2.80523,-0.19711766,1.6595391,1.258737,0.03999745,0.04,-8.62343,-4.546506404876709,1.2709206,0.1362539,-0.007360619492828846,-0.101798475
2657.766666672897,-0.39187893,-1.0777413,0.34268415,-2.8066435,-0.19773982,1.6598182,1.2602259,0.039997436,0.04,-8.615335,-4.5592827796936035,1.2812166,0.13432097,-0.007372083142399788,-0.10028701
2657.783333339564,-0.39309207,-1.0786488,0.34374312,-2.8080351,-0.19835253,1.660093,1.261692,0.03999741,0.04,-8.607228,-4.571793079376221,1.2913532,0.13238105,-0.0073788901790976524,-0.09876641
2657.8000000062307,-0.39428636,-1.079542,0.34478566,-2.8094056,-0.19895576,1.6603633,1.2631365,0.039997384,0.04,-8.598876,-4.584201812744141,1.3012836,0.1304337,-0.007385704200714827,-0.0972415
2657.8166666728976,-0.3954618,-1.0804213,0.34581175,-2.8107545,-0.1995495,1.6606295,1.2645586,0.039997365,0.04,-8.591397,-4.59625244140625,1.3113074,0.1284763,-0.007392922881990671,-0.095708854
2657.8333333395644,-0.39661843,-1.0812868,0.34682137,-2.8120816,-0.2001337,1.6608913,1.2659576,0.03999734,0.04,-8.583659,-4.608148097991943,1.3211025,0.12651181,-0.007399932015687227,-0.09416807
2657.8500000062313,-0.3977561,-1.0821381,0.3478144,-2.8133872,-0.20070836,1.6611488,1.2673323,0.039997317,0.04,-8.575957,-4.619812965393066,1.3307793,0.12454125,-0.0074056885205209255,-0.09262247
2657.866666672898,-0.39887473,-1.082975,0.34879088,-2.814671,-0.20127343,1.6614022,1.2686844,0.0399973,0.04,-8.567991,-4.63134241104126,1.3401951,0.122572914,-0.007410159334540367,-0.09106975
2657.883333339565,-0.39997438,-1.0837975,0.3497508,-2.8159335,-0.20182891,1.6616515,1.2700137,0.039997287,0.04,-8.56092,-4.642563343048096,1.349703,0.12059982,-0.007415356580168009,-0.08951421
2657.900000006232,-0.40105507,-1.084606,0.35069412,-2.817174,-0.20237486,1.6618961,1.27132,0.039997272,0.04,-8.5535555,-4.6536126136779785,1.3589562,0.118623175,-0.00742073031142354,-0.08795316
2657.916666672899,-0.40211672,-1.0854003,0.35162085,-2.8183923,-0.20291114,1.6621363,1.2726034,0.03999726,0.04,-8.545835,-4.66448450088501,1.367981,0.11664228,-0.007424122653901577,-0.086387284
2657.9333333395657,-0.40315935,-1.0861807,0.352531,-2.8195887,-0.20343786,1.6623725,1.2738639,0.039997246,0.04,-8.539041,-4.675041675567627,1.3770838,0.114659086,-0.007428172044456005,-0.08481824
2657.9500000062326,-0.40418297,-1.0869465,0.35342446,-2.8207633,-0.2039549,1.6626043,1.2751012,0.039997235,0.04,-8.531878,-4.685439109802246,1.3859316,0.11267259,-0.007428220938891172,-0.08324709
2657.9666666728995,-0.4051875,-1.087698,0.35430127,-2.821916,-0.20446238,1.662832,1.2763156,0.039997216,0.04,-8.524936,-4.695649147033691,1.3946462,0.1106859,-0.0074300263077020645,-0.08167396
2657.9833333395663,-0.40617308,-1.0884355,0.3551615,-2.8230472,-0.20496023,1.6630555,1.2775068,0.039997194,0.04,-8.517629,-4.705720901489258,1.4031012,0.10869849,-0.007430167403072119,-0.080100164
2658.000000006233,-0.40713963,-1.0891585,0.3560051,-2.824156,-0.20544846,1.6632745,1.2786751,0.03999717,0.04,-8.5112705,-4.715391159057617,1.4116517,0.10671013,-0.007428677752614021,-0.07851953
2658.0166666729,-0.40808716,-1.0898675,0.35683218,-2.8252437,-0.20592712,1.6634889,1.2798204,0.039997153,0.04,-8.504544,-4.724983215332031,1.4199178,0.10472315,-0.007426304277032614,-0.07694007
2658.033333339567,-0.40901566,-1.0905623,0.35764256,-2.8263087,-0.20639619,1.663699,1.2809429,0.039997138,0.04,-8.498062,-4.7343597412109375,1.4280931,0.10273739,-0.007427137345075607,-0.07535736
2658.050000006234,-0.40992513,-1.0912434,0.35843632,-2.8273525,-0.20685573,1.6639051,1.2820425,0.039997123,0.04,-8.49109,-4.743590354919434,1.4359758,0.1007517,-0.00742457527667284,-0.073779486
2658.0666666729007,-0.41081575,-1.0919095,0.3592135,-2.8283746,-0.20730564,1.6641071,1.2831188,0.0399971,0.04,-8.485152,-4.752478122711182,1.443941,0.09876763,-0.007420300040394068,-0.072201565
2658.0833333395676,-0.41168746,-1.0925618,0.35997435,-2.8293748,-0.20774603,1.6643047,1.2841725,0.03999708,0.04,-8.478949,-4.7612714767456055,1.4516195,0.09679016,-0.007418430410325527,-0.070624195
2658.1000000062345,-0.41254035,-1.0932,0.3607187,-2.8303537,-0.20817691,1.664498,1.2852033,0.039997067,0.04,-8.472741,-4.769816875457764,1.45918,0.094814174,-0.007413064129650593,-0.06904705
2658.1166666729014,-0.41337436,-1.093824,0.36144665,-2.8313105,-0.20859826,1.6646866,1.2862114,0.039997056,0.04,-8.466412,-4.778270721435547,1.4665009,0.09284383,-0.007410402875393629,-0.067469776
2658.1333333395683,-0.41418964,-1.0944341,0.36215824,-2.8322458,-0.20901011,1.6648709,1.2871966,0.03999704,0.04,-8.460769,-4.78636360168457,1.4738371,0.09087843,-0.0074059315957129,-0.0658978
2658.150000006235,-0.4149862,-1.0950301,0.36285347,-2.8331594,-0.20941254,1.6650511,1.2881596,0.039997038,0.04,-8.455004,-4.794339656829834,1.4809526,0.08891838,-0.007402475457638502,-0.06432822
2658.166666672902,-0.41576418,-1.095612,0.36353245,-2.8340516,-0.20980558,1.6652273,1.2891,0.039997023,0.04,-8.448845,-4.8021931648254395,1.4877887,0.08696359,-0.00739663653075695,-0.062763914
2658.183333339569,-0.41652364,-1.0961802,0.36419526,-2.834923,-0.21018927,1.6653994,1.2900181,0.039997015,0.04,-8.443659,-4.809708595275879,1.4946882,0.085015595,-0.007390528451651335,-0.0612035
2658.2000000062358,-0.4172646,-1.0967348,0.36484197,-2.8357732,-0.21056361,1.6655674,1.2909138,0.039997008,0.04,-8.438215,-4.8171162605285645,1.5013417,0.08307536,-0.007384355179965496,-0.059647053
2658.2166666729026,-0.4179872,-1.097275,0.36547267,-2.8366022,-0.21092863,1.6657313,1.2917874,0.039996993,0.04,-8.432866,-4.824341297149658,1.5078574,0.08114303,-0.007379063870757818,-0.05809792
2658.2333333395695,-0.4186915,-1.0978023,0.3660873,-2.8374102,-0.21128443,1.665891,1.2926387,0.039996978,0.04,-8.427184,-4.831444263458252,1.5140886,0.07922007,-0.007372581399977207,-0.056554556
2658.2500000062364,-0.41937757,-1.0983156,0.366686,-2.8381972,-0.21163104,1.6660463,1.2934681,0.039996963,0.04,-8.42242,-4.838173866271973,1.5203879,0.077306174,-0.007364298216998577,-0.05501722
2658.2666666729033,-0.42004558,-1.0988153,0.3672689,-2.838963,-0.21196851,1.6661966,1.2942756,0.03999695,0.04,-8.417376,-4.8448357582092285,1.5264326,0.07540173,-0.007358321454375982,-0.053487442
2658.28333333957,-0.42069557,-1.0993016,0.36783612,-2.8397088,-0.2122969,1.6663431,1.2950613,0.03999694,0.04,-8.412398,-4.851274013519287,1.5323145,0.07350842,-0.007352849002927542,-0.051962692
2658.300000006237,-0.42132768,-1.0997746,0.36838776,-2.8404346,-0.21261624,1.6664858,1.2958254,0.03999693,0.04,-8.407311,-4.857666969299316,1.5379767,0.07162834,-0.007349526043981314,-0.050444834
2658.316666672904,-0.421942,-1.1002345,0.36892387,-2.8411396,-0.21292661,1.6666247,1.2965677,0.03999692,0.04,-8.403005,-4.863730430603027,1.5436507,0.06976068,-0.00734614348039031,-0.04893856
2658.333333339571,-0.42253864,-1.1006813,0.3694446,-2.8418243,-0.21322808,1.6667597,1.2972887,0.039996903,0.04,-8.398358,-4.869646072387695,1.5490739,0.067906894,-0.0073402016423642635,-0.0474423
2658.3500000062377,-0.4231179,-1.101115,0.36995012,-2.8424888,-0.21352081,1.6668906,1.2979885,0.039996896,0.04,-8.393823,-4.8754048347473145,1.5543463,0.066066556,-0.007331650238484144,-0.04595763
2658.3666666729046,-0.42367974,-1.1015356,0.37044042,-2.8431334,-0.21380466,1.6670177,1.2986673,0.03999688,0.04,-8.389103,-4.8810577392578125,1.559396,0.06424054,-0.00732466159388423,-0.044480525
2658.3833333395714,-0.42422435,-1.1019433,0.37091577,-2.843758,-0.21407989,1.667141,1.2993253,0.039996874,0.04,-8.385167,-4.886414527893066,1.5644525,0.062430717,-0.007316918112337589,-0.043018226
2658.4000000062383,-0.424752,-1.1023381,0.37137616,-2.8443637,-0.21434647,1.6672604,1.299963,0.039996866,0.04,-8.381013,-4.891663074493408,1.5692872,0.060636356,-0.007308448199182749,-0.041566662
2658.416666672905,-0.42526266,-1.1027203,0.37182182,-2.8449492,-0.21460454,1.667376,1.3005804,0.039996855,0.04,-8.3766165,-4.896810054779053,1.5738801,0.058858167,-0.00730068888515234,-0.040128138
2658.433333339572,-0.42575666,-1.10309,0.37225297,-2.8455155,-0.21485418,1.6674879,1.3011776,0.039996855,0.04,-8.372977,-4.901662826538086,1.578492,0.057096507,-0.00729194562882185,-0.038703535
2658.450000006239,-0.42623407,-1.1034474,0.37266967,-2.8460631,-0.2150955,1.6675957,1.3017546,0.03999684,0.04,-8.369108,-4.906402111053467,1.5828859,0.05535255,-0.007281668484210968,-0.037293296
2658.466666672906,-0.4266952,-1.1037927,0.37307197,-2.8465915,-0.21532854,1.6676998,1.302312,0.039996836,0.04,-8.365406,-4.911004066467285,1.5871335,0.05362933,-0.0072731077671051025,-0.03589657
2658.4833333395727,-0.42714012,-1.1041256,0.3734602,-2.8471022,-0.21555337,1.6678002,1.3028498,0.039996825,0.04,-8.361367,-4.915472984313965,1.5911647,0.051923268,-0.0072638471610844135,-0.03451629
2658.5000000062396,-0.42756903,-1.1044466,0.37383455,-2.8475938,-0.21577011,1.6678969,1.3033684,0.03999682,0.04,-8.3583145,-4.919709205627441,1.5952032,0.05023993,-0.00725820055231452,-0.033148278
2658.5166666729065,-0.4279822,-1.1047558,0.3741952,-2.8480675,-0.21597892,1.6679897,1.3038677,0.039996818,0.04,-8.354757,-4.923839092254639,1.5990039,0.048575535,-0.0072493222542107105,-0.031801097
2658.5333333395733,-0.42837986,-1.1050535,0.37454215,-2.848524,-0.21617983,1.6680804,1.3043481,0.039996814,0.04,-8.351496,-4.9278106689453125,1.6026876,0.04693614,-0.007243590895086527,-0.030467397
2658.55000000624,-0.42876214,-1.1053398,0.3748758,-2.8489623,-0.21637301,1.6681676,1.3048104,0.039996807,0.04,-8.347983,-4.931717872619629,1.6061424,0.04531879,-0.007235006429255009,-0.029155849
2658.566666672907,-0.4291293,-1.1056147,0.37519634,-2.8493836,-0.21655858,1.6682513,1.3052545,0.0399968,0.04,-8.345071,-4.9353227615356445,1.6096009,0.043723073,-0.0072233774699270725,-0.02786378
2658.583333339574,-0.42948166,-1.1058784,0.37550384,-2.8497882,-0.21673661,1.6683315,1.30568,0.03999679,0.04,-8.342063,-4.93886137008667,1.6128715,0.04215105,-0.007212408818304539,-0.026590442
2658.600000006241,-0.42981946,-1.1061312,0.3757985,-2.8501754,-0.21690731,1.6684083,1.306088,0.03999679,0.04,-8.339206,-4.942258834838867,1.6160042,0.04060735,-0.007204829715192318,-0.02533366
2658.6166666729077,-0.4301427,-1.1063732,0.37608054,-2.850546,-0.21707065,1.6684815,1.3064785,0.039996788,0.04,-8.335973,-4.9455413818359375,1.6189235,0.03908752,-0.00719532510265708,-0.024099518
2658.6333333395746,-0.43045178,-1.1066048,0.37635028,-2.8509004,-0.21722686,1.6685512,1.306852,0.039996784,0.04,-8.333521,-4.948606491088867,1.6218565,0.03759471,-0.007186629343777895,-0.022885999
2658.6500000062415,-0.43074703,-1.1068258,0.37660787,-2.8512392,-0.21737604,1.6686186,1.3072088,0.039996777,0.04,-8.330869,-4.951590061187744,1.6246152,0.03612951,-0.007179526146501303,-0.02169488
2658.6666666729084,-0.43102863,-1.107037,0.3768536,-2.8515623,-0.21751833,1.6686827,1.3075491,0.039996773,0.04,-8.328026,-4.954512119293213,1.6271436,0.03469239,-0.007171414326876402,-0.02052677
2658.6833333395753,-0.43129689,-1.1072377,0.37708768,-2.85187,-0.21765392,1.6687435,1.3078732,0.039996773,0.04,-8.325775,-4.957160949707031,1.6296957,0.03328319,-0.007161006331443787,-0.019382987
2658.700000006242,-0.4315521,-1.1074288,0.37731037,-2.8521628,-0.21778294,1.6688012,1.3081816,0.039996773,0.04,-8.323435,-4.959774017333984,1.6320623,0.03190519,-0.00715458020567894,-0.018260224
2658.716666672909,-0.43179452,-1.1076102,0.37752196,-2.8524413,-0.21790545,1.6688563,1.3084748,0.039996766,0.04,-8.321092,-4.962246417999268,1.6343083,0.03055787,-0.007148046977818012,-0.017163128
2658.733333339576,-0.4320245,-1.1077826,0.37772268,-2.8527055,-0.21802168,1.6689087,1.3087529,0.03999676,0.04,-8.318634,-4.964680194854736,1.6363846,0.029242074,-0.007143033668398857,-0.016090754
2658.7500000062428,-0.4322423,-1.1079457,0.37791273,-2.852955,-0.21813181,1.668958,1.3090163,0.039996758,0.04,-8.316713,-4.966865062713623,1.6384497,0.0279571,-0.007136285305023193,-0.015045459
2658.7666666729097,-0.43244827,-1.1080999,0.37809244,-2.8531911,-0.21823591,1.6690042,1.3092653,0.039996758,0.04,-8.314551,-4.968972206115723,1.6403285,0.026704969,-0.007128480821847916,-0.014026699
2658.7833333395765,-0.4326427,-1.1082458,0.3782621,-2.8534143,-0.21833423,1.6690485,1.3095002,0.039996754,0.04,-8.312559,-4.970998287200928,1.6421252,0.025488073,-0.007123143877834082,-0.013035492
2658.8000000062434,-0.43282595,-1.1083832,0.37842205,-2.853624,-0.21842684,1.66909,1.3097216,0.03999675,0.04,-8.310406,-4.972962856292725,1.6437672,0.024306444,-0.007116065360605717,-0.012073387
2658.8166666729103,-0.4329983,-1.1085123,0.37857243,-2.853822,-0.21851398,1.669129,1.3099301,0.039996747,0.04,-8.30871,-4.97471809387207,1.645381,0.023159714,-0.0071084084920585155,-0.011140592
2658.833333339577,-0.43316016,-1.1086335,0.3787137,-2.8540068,-0.21859583,1.669166,1.3101258,0.039996743,0.04,-8.306999,-4.976439476013184,1.6468699,0.02204996,-0.007103761658072472,-0.010235406
2658.850000006244,-0.4333119,-1.1087472,0.37884608,-2.854181,-0.21867256,1.6692001,1.3103092,0.03999674,0.04,-8.305077,-4.978037357330322,1.648221,0.020976331,-0.0070929271169006824,-0.009364852
2658.866666672911,-0.43345377,-1.1088536,0.37896988,-2.854343,-0.21874435,1.6692324,1.3104807,0.03999674,0.04,-8.303381,-4.9795966148376465,1.6495099,0.019942911,-0.007089662365615368,-0.008520369
2658.883333339578,-0.43358624,-1.1089529,0.3790855,-2.854496,-0.21881133,1.6692624,1.3106409,0.039996736,0.04,-8.301824,-4.980978012084961,1.65071,0.018947395,-0.00708093773573637,-0.007711094
2658.9000000062447,-0.4337097,-1.1090456,0.3791933,-2.8546362,-0.21887377,1.6692905,1.31079,0.039996732,0.04,-8.300512,-4.982359886169434,1.6518656,0.01799377,-0.007080369628965855,-0.0069298744
2658.9166666729116,-0.4338245,-1.1091319,0.37929356,-2.854767,-0.21893182,1.6693165,1.3109287,0.039996725,0.04,-8.298469,-4.983608722686768,1.6527791,0.017079001,-0.007068297825753689,-0.006189039
2658.9333333395784,-0.43393102,-1.1092118,0.37938663,-2.8548896,-0.2189857,1.6693407,1.3110576,0.039996725,0.04,-8.297293,-4.984745502471924,1.6537982,0.016205672,-0.007059677504003048,-0.0054792967
2658.9500000062453,-0.43402976,-1.1092861,0.37947276,-2.855004,-0.21903563,1.6693631,1.3111768,0.039996725,0.04,-8.296034,-4.985890865325928,1.6546801,0.015376455,-0.007056265138089657,-0.004801708
2658.966666672912,-0.434121,-1.1093546,0.37955242,-2.8551104,-0.21908183,1.6693839,1.3112872,0.039996725,0.04,-8.294778,-4.986928462982178,1.6554763,0.0145918885,-0.007055747788399458,-0.0041586063
2658.983333339579,-0.43420523,-1.1094182,0.37962595,-2.8552089,-0.21912445,1.6694028,1.3113889,0.03999672,0.04,-8.293368,-4.987951278686523,1.6561725,0.013851545,-0.007058240938931704,-0.0035505795
2659.000000006246,-0.43428287,-1.1094764,0.3796937,-2.8552997,-0.21916375,1.6694205,1.3114825,0.03999672,0.04,-8.292267,-4.988823890686035,1.656853,0.013157457,-0.007061397656798363,-0.0029786432
2659.016666672913,-0.43435442,-1.10953,0.37975603,-2.855383,-0.21919993,1.6694367,1.3115689,0.03999672,0.04,-8.290979,-4.98967981338501,1.6574018,0.012509716,-0.007063583936542273,-0.002445285
2659.0333333395797,-0.43442023,-1.1095796,0.3798135,-2.8554585,-0.2192332,1.6694515,1.3116482,0.03999672,0.04,-8.289739,-4.9904680252075195,1.6579043,0.011908877,-0.007065847050398588,-0.0019510214
2659.0500000062466,-0.43448085,-1.109625,0.37986633,-2.8555272,-0.21926384,1.6694652,1.3117217,0.039996717,0.04,-8.288282,-4.991206169128418,1.6583368,0.011353951,-0.0070631192065775394,-0.0014983256
2659.0666666729135,-0.43453655,-1.109667,0.37991494,-2.855589,-0.21929204,1.6694778,1.3117889,0.039996717,0.04,-8.287202,-4.991849422454834,1.6587594,0.010840887,-0.007057437673211098,-0.0010829931
2659.0833333395803,-0.43458787,-1.1097053,0.37995958,-2.855649,-0.21931797,1.6694896,1.311851,0.039996717,0.04,-8.286012,-4.992437839508057,1.6591401,0.010368733,-0.007045752834528685,-0.00070416613
2659.1000000062472,-0.43463507,-1.1097407,0.38000083,-2.8557022,-0.2193419,1.6695001,1.3119079,0.039996717,0.04,-8.285549,-4.993081569671631,1.6595917,0.009936611,-0.0070484778843820095,-0.0003489377
2659.116666672914,-0.4346785,-1.1097738,0.38003862,-2.8557513,-0.21936385,1.66951,1.3119605,0.039996713,0.04,-8.284327,-4.993584632873535,1.6598674,0.009538355,-0.007043075282126665,-2.5170299e-05
2659.133333339581,-0.4347184,-1.1098038,0.38007352,-2.8557966,-0.21938407,1.6695191,1.3120089,0.039996713,0.04,-8.283636,-4.994032859802246,1.660215,0.009169595,-0.007036765571683645,0.00027125166
2659.150000006248,-0.43475515,-1.1098312,0.38010556,-2.8558383,-0.21940267,1.6695275,1.3120536,0.039996713,0.04,-8.282949,-4.994505882263184,1.6605089,0.008831517,-0.007032345049083233,0.00054534065
2659.1666666729147,-0.43478897,-1.109857,0.38013506,-2.8558762,-0.21941978,1.6695353,1.3120946,0.03999671,0.04,-8.282251,-4.994941234588623,1.660755,0.008520053,-0.007029333151876926,0.00079658476
2659.1833333395816,-0.43482006,-1.1098803,0.38016218,-2.8559134,-0.21943554,1.6695423,1.312132,0.03999671,0.04,-8.281619,-4.995266437530518,1.6610218,0.008232238,-0.00702254381030798,0.0010268497
2659.2000000062485,-0.43484873,-1.109902,0.38018733,-2.8559444,-0.21945004,1.6695486,1.3121662,0.03999671,0.04,-8.281385,-4.995675563812256,1.6613024,0.007971988,-0.007027058396488428,0.0012444635
2659.2166666729154,-0.4348751,-1.1099218,0.38021043,-2.8559742,-0.21946341,1.6695545,1.3121982,0.03999671,0.04,-8.280429,-4.995934963226318,1.6614287,0.007729968,-0.007017992902547121,0.0014384146
2659.2333333395823,-0.43489933,-1.1099403,0.38023168,-2.8560026,-0.21947567,1.66956,1.3122276,0.03999671,0.04,-8.280099,-4.996268272399902,1.661654,0.007506786,-0.0070152184925973415,0.0016197661
2659.250000006249,-0.43492165,-1.1099572,0.38025117,-2.856027,-0.21948694,1.669565,1.3122543,0.03999671,0.04,-8.279821,-4.996539115905762,1.6618644,0.007301618,-0.007015124894678593,0.0017880483
2659.266666672916,-0.43494213,-1.1099727,0.38026905,-2.8560493,-0.21949732,1.6695697,1.3122795,0.03999671,0.04,-8.279187,-4.9967522621154785,1.6619779,0.0071128444,-0.0070086210034787655,0.0019388442
2659.283333339583,-0.434961,-1.1099871,0.38028556,-2.8560712,-0.21950693,1.6695741,1.312302,0.03999671,0.04,-8.278837,-4.996983528137207,1.6621389,0.0069368146,-0.007002356927841902,0.0020772493
2659.30000000625,-0.43497846,-1.1100003,0.38030067,-2.8560917,-0.21951573,1.6695782,1.3123233,0.03999671,0.04,-8.278637,-4.997222900390625,1.6623082,0.006778645,-0.007000841200351715,0.0022076892
2659.3166666729167,-0.43499443,-1.1100124,0.38031465,-2.8561094,-0.21952389,1.6695821,1.3123424,0.03999671,0.04,-8.278407,-4.997417449951172,1.6624367,0.0066303783,-0.007001817226409912,0.0023280648
2659.3333333395835,-0.43500915,-1.1100236,0.38032755,-2.8561254,-0.21953131,1.6695855,1.3123604,0.03999671,0.04,-8.277942,-4.997575759887695,1.6625313,0.006495647,-0.006996212527155876,0.0024361666
2659.3500000062504,-0.43502268,-1.110034,0.38033947,-2.8561401,-0.21953815,1.6695883,1.3123766,0.03999671,0.04,-8.2776575,-4.997731685638428,1.6626498,0.006369243,-0.006991288624703884,0.0025355737
2659.3666666729173,-0.43503514,-1.1100433,0.3803504,-2.8561544,-0.21954447,1.6695908,1.3123915,0.03999671,0.04,-8.277415,-4.997888088226318,1.6627575,0.0062546683,-0.0069875759072601795,0.002627752
2659.383333339584,-0.43504658,-1.110052,0.38036048,-2.8561687,-0.2195503,1.6695933,1.3124055,0.03999671,0.04,-8.277325,-4.998040199279785,1.6628624,0.0061504953,-0.006988183129578829,0.0027146789
2659.400000006251,-0.4350571,-1.11006,0.3803697,-2.8561811,-0.21955565,1.6695956,1.3124185,0.03999671,0.04,-8.277255,-4.998194694519043,1.6629736,0.0060544726,-0.006992039270699024,0.002796684
2659.416666672918,-0.43506682,-1.1100674,0.38037807,-2.856192,-0.21956056,1.6695977,1.31243,0.03999671,0.04,-8.276931,-4.9983015060424805,1.6630192,0.0059645744,-0.006992744281888008,0.0028702084
2659.433333339585,-0.43507573,-1.1100742,0.38038582,-2.8562016,-0.2195651,1.6695997,1.3124408,0.03999671,0.04,-8.276717,-4.998387813568115,1.6630783,0.005882785,-0.006991735193878412,0.002936438
2659.4500000062517,-0.435084,-1.1100805,0.3803931,-2.8562105,-0.21956925,1.6696014,1.3124508,0.03999671,0.04,-8.102581,-4.895977020263672,1.6195552,0.0,-0.0,0.0
2659.4666666729186,-0.435084,-1.1100805,0.3803931,-2.8562105,-0.21956925,1.6696014,1.3124508,0.03999671,0.04,-8.275495,-4.99869441986084,1.6629349,0.0,-0.0,0.0
2659.4833333395854,-0.435084,-1.1100805,0.3803931,-2.8562105,-0.21956925,1.6696014,1.3124508,0.03999671,0.04,-8.275495,-4.99869441986084,1.6629349,0.0,-0.0,0.0
2659.5000000062523,-0.435084,-1.1100805,0.3803931,-2.8562105,-0.21956925,1.6696014,1.3124508,0.03999671,0.04,-8.275495,-4.99869441986084,1.6629349,0.0,-0.0,0.0
2659.516666672919,-0.435084,-1.1100805,0.3803931,-2.8562105,-0.21956925,1.6696014,1.3124508,0.03999671,0.04,-8.275495,-4.99869441986084,1.6629349,0.0,-0.0,0.0
2659.533333339586,-0.435084,-1.1100805,0.3803931,-2.8562105,-0.21956925,1.6696014,1.3124508,0.03999671,0.04,-8.275495,-4.99869441986084,1.6629349,0.0,-0.0,0.0
2659.550000006253,-0.435084,-1.1100805,0.3803931,-2.8562105,-0.21956925,1.6696014,1.3124508,0.03999671,0.04,-8.275495,-4.99869441986084,1.6629349,0.0,-0.0,0.0
2659.56666667292,-0.435084,-1.1100805,0.3803931,-2.8562105,-0.21956925,1.6696014,1.3124508,0.03999671,0.04,-8.275495,-4.99869441986084,1.6629349,0.0,-0.0,0.0
2659.5833333395867,-0.435084,-1.1100805,0.3803931,-2.8562105,-0.21956925,1.6696014,1.3124508,0.03999671,0.04,-8.275495,-4.99869441986084,1.6629349,0.0,-0.0,0.0
2659.6000000062536,-0.435084,-1.1100805,0.3803931,-2.8562105,-0.21956925,1.6696014,1.3124508,0.03999671,0.04,-8.275495,-4.99869441986084,1.6629349,0.0,-0.0,0.0
2659.6166666729205,-0.435084,-1.1100805,0.3803931,-2.8562105,-0.21956925,1.6696014,1.3124508,0.03999671,0.04,-8.275495,-4.99869441986084,1.6629349,0.0,-0.0,0.0
2659.6333333395874,-0.435084,-1.1100805,0.3803931,-2.8562105,-0.21956925,1.6696014,1.3124508,0.03999671,0.04,-8.275495,-4.99869441986084,1.6629349,0.0,-0.0,0.0
2659.6500000062542,-0.435084,-1.1100805,0.3803931,-2.8562105,-0.21956925,1.6696014,1.3124508,0.03999671,0.04,-8.275495,-4.99869441986084,1.6629349,0.0,-0.0,0.0
2659.666666672921,-0.435084,-1.1100805,0.3803931,-2.8562105,-0.21956925,1.6696014,1.3124508,0.03999671,0.04,-8.275495,-4.99869441986084,1.6629349,0.0,-0.0,0.0
2659.683333339588,-0.435084,-1.1100805,0.3803931,-2.8562105,-0.21956925,1.6696014,1.3124508,0.03999671,0.04,-8.275495,-4.99869441986084,1.6629349,0.0,-0.0,0.0
2659.700000006255,-0.435084,-1.1100805,0.3803931,-2.8562105,-0.21956925,1.6696014,1.3124508,0.03999671,0.04,-8.275495,-4.99869441986084,1.6629349,0.0,-0.0,0.0
2659.7166666729217,-0.435084,-1.1100805,0.3803931,-2.8562105,-0.21956925,1.6696014,1.3124508,0.03999671,0.04,-8.275495,-4.99869441986084,1.6629349,0.0,-0.0,0.0
2659.7333333395886,-0.435084,-1.1100805,0.3803931,-2.8562105,-0.21956925,1.6696014,1.3124508,0.03999671,0.04,-8.275495,-4.99869441986084,1.6629349,0.0,-0.0,0.0
2659.7500000062555,-0.435084,-1.1100805,0.3803931,-2.8562105,-0.21956925,1.6696014,1.3124508,0.03999671,0.04,-8.275495,-4.99869441986084,1.6629349,0.0,-0.0,0.0
2659.7666666729224,-0.435084,-1.1100805,0.3803931,-2.8562105,-0.21956925,1.6696014,1.3124508,0.03999671,0.04,-8.275495,-4.99869441986084,1.6629349,0.0,-0.0,0.0
2659.7833333395893,-0.435084,-1.1100805,0.3803931,-2.8562105,-0.21956925,1.6696014,1.3124508,0.03999671,0.04,-8.275495,-4.99869441986084,1.6629349,0.0,-0.0,0.0
2659.800000006256,-0.435084,-1.1100805,0.3803931,-2.8562105,-0.21956925,1.6696014,1.3124508,0.03999671,0.04,-8.275495,-4.99869441986084,1.6629349,0.0,-0.0,0.0
2659.816666672923,-0.435084,-1.1100805,0.3803931,-2.8562105,-0.21956925,1.6696014,1.3124508,0.03999671,0.04,-8.275495,-4.99869441986084,1.6629349,0.0,-0.0,0.0
2659.83333333959,-0.435084,-1.1100805,0.3803931,-2.8562105,-0.21956925,1.6696014,1.3124508,0.03999671,0.04,-8.275495,-4.99869441986084,1.6629349,0.0,-0.0,0.0
2659.850000006257,-0.435084,-1.1100805,0.3803931,-2.8562105,-0.21956925,1.6696014,1.3124508,0.03999671,0.04,-8.275495,-4.99869441986084,1.6629349,0.0,-0.0,0.0
2659.8666666729237,-0.435084,-1.1100805,0.3803931,-2.8562105,-0.21956925,1.6696014,1.3124508,0.03999671,0.04,-8.275495,-4.99869441986084,1.6629349,0.0,-0.0,0.0
2659.8833333395905,-0.435084,-1.1100805,0.3803931,-2.8562105,-0.21956925,1.6696014,1.3124508,0.03999671,0.04,-8.275495,-4.99869441986084,1.6629349,0.0,-0.0,0.0
2659.9000000062574,-0.435084,-1.1100805,0.3803931,-2.8562105,-0.21956925,1.6696014,1.3124508,0.03999671,0.04,-8.275495,-4.99869441986084,1.6629349,0.0,-0.0,0.0
2659.9166666729243,-0.435084,-1.1100805,0.3803931,-2.8562105,-0.21956925,1.6696014,1.3124508,0.03999671,0.04,-8.275495,-4.99869441986084,1.6629349,0.0,-0.0,0.0
2659.933333339591,-0.435084,-1.1100805,0.3803931,-2.8562105,-0.21956925,1.6696014,1.3124508,0.03999671,0.04,-8.275495,-4.99869441986084,1.6629349,0.0,-0.0,0.0
2659.950000006258,-0.435084,-1.1100805,0.3803931,-2.8562105,-0.21956925,1.6696014,1.3124508,0.03999671,0.04,-8.275495,-4.99869441986084,1.6629349,0.0,-0.0,0.0
2659.966666672925,-0.435084,-1.1100805,0.3803931,-2.8562105,-0.21956925,1.6696014,1.3124508,0.03999671,0.04,-8.275495,-4.99869441986084,1.6629349,0.0,-0.0,0.0
2659.983333339592,-0.435084,-1.1100805,0.3803931,-2.8562105,-0.21956925,1.6696014,1.3124508,0.03999671,0.04,-8.275495,-4.99869441986084,1.6629349,0.0,-0.0,0.0
2660.0000000062587,-0.435084,-1.1100805,0.3803931,-2.8562105,-0.21956925,1.6696014,1.3124508,0.03999671,0.04,-8.275495,-4.99869441986084,1.6629349,0.0,-0.0,0.0
2660.0166666729256,-0.435084,-1.1100805,0.3803931,-2.8562105,-0.21956925,1.6696014,1.3124508,0.03999671,0.04,-8.275495,-4.99869441986084,1.6629349,0.0,-0.0,0.0
2660.0333333395924,-0.435084,-1.1100805,0.3803931,-2.8562105,-0.21956925,1.6696014,1.3124508,0.03999671,0.04,-8.275495,-4.99869441986084,1.6629349,0.0,-0.0,0.0
2660.0500000062593,-0.435084,-1.1100805,0.3803931,-2.8562105,-0.21956925,1.6696014,1.3124508,0.03999671,0.04,-8.275495,-4.99869441986084,1.6629349,0.0,-0.0,0.0
2660.066666672926,-0.435084,-1.1100805,0.3803931,-2.8562105,-0.21956925,1.6696014,1.3124508,0.03999671,0.04,-8.275495,-4.99869441986084,1.6629349,0.0,-0.0,0.0
2660.083333339593,-0.435084,-1.1100805,0.3803931,-2.8562105,-0.21956925,1.6696014,1.3124508,0.03999671,0.04,-8.275495,-4.99869441986084,1.6629349,0.0,-0.0,0.0
2660.10000000626,-0.435084,-1.1100805,0.3803931,-2.8562105,-0.21956925,1.6696014,1.3124508,0.03999671,0.04,-8.275495,-4.99869441986084,1.6629349,0.0,-0.0,0.0
2660.116666672927,-0.435084,-1.1100805,0.3803931,-2.8562105,-0.21956925,1.6696014,1.3124508,0.03999671,0.04,-8.275495,-4.99869441986084,1.6629349,0.0,-0.0,0.0
2660.1333333395937,-0.435084,-1.1100805,0.3803931,-2.8562105,-0.21956925,1.6696014,1.3124508,0.03999671,0.04,-8.275495,-4.99869441986084,1.6629349,0.0,-0.0,0.0
2660.1500000062606,-0.435084,-1.1100805,0.3803931,-2.8562105,-0.21956925,1.6696014,1.3124508,0.03999671,0.04,-8.275495,-4.99869441986084,1.6629349,0.0,-0.0,0.0
2660.1666666729275,-0.435084,-1.1100805,0.3803931,-2.8562105,-0.21956925,1.6696014,1.3124508,0.03999671,0.04,-8.275495,-4.99869441986084,1.6629349,0.0,-0.0,0.0
2660.1833333395944,-0.435084,-1.1100805,0.3803931,-2.8562105,-0.21956925,1.6696014,1.3124508,0.03999671,0.04,-8.275495,-4.99869441986084,1.6629349,0.0,-0.0,0.0
2660.2000000062612,-0.435084,-1.1100805,0.3803931,-2.8562105,-0.21956925,1.6696014,1.3124508,0.03999671,0.04,-8.275495,-4.99869441986084,1.6629349,0.0,-0.0,0.0
2660.216666672928,-0.435084,-1.1100805,0.3803931,-2.8562105,-0.21956925,1.6696014,1.3124508,0.03999671,0.04,-8.275495,-4.99869441986084,1.6629349,0.0,-0.0,0.0
2660.233333339595,-0.435084,-1.1100805,0.3803931,-2.8562105,-0.21956925,1.6696014,1.3124508,0.03999671,0.04,-8.275495,-4.99869441986084,1.6629349,0.0,-0.0,0.0
2660.250000006262,-0.435084,-1.1100805,0.3803931,-2.8562105,-0.21956925,1.6696014,1.3124508,0.03999671,0.04,-8.275495,-4.99869441986084,1.6629349,0.0,-0.0,0.0
2660.2666666729287,-0.435084,-1.1100805,0.3803931,-2.8562105,-0.21956925,1.6696014,1.3124508,0.03999671,0.04,-8.275495,-4.99869441986084,1.6629349,0.0,-0.0,0.0
2660.2833333395956,-0.435084,-1.1100805,0.3803931,-2.8562105,-0.21956925,1.6696014,1.3124508,0.03999671,0.04,-8.275495,-4.99869441986084,1.6629349,0.0,-0.0,0.0
2660.3000000062625,-0.435084,-1.1100805,0.3803931,-2.8562105,-0.21956925,1.6696014,1.3124508,0.03999671,0.04,-8.275495,-4.99869441986084,1.6629349,0.0,-0.0,0.0
2660.3166666729294,-0.435084,-1.1100805,0.3803931,-2.8562105,-0.21956925,1.6696014,1.3124508,0.03999671,0.04,-8.275495,-4.99869441986084,1.6629349,0.0,-0.0,0.0
2660.3333333395963,-0.435084,-1.1100805,0.3803931,-2.8562105,-0.21956925,1.6696014,1.3124508,0.03999671,0.04,-8.275495,-4.99869441986084,1.6629349,0.0,-0.0,0.0
2660.350000006263,-0.435084,-1.1100805,0.3803931,-2.8562105,-0.21956925,1.6696014,1.3124508,0.03999671,0.04,-8.275495,-4.99869441986084,1.6629349,0.0,-0.0,0.0
2660.36666667293,-0.435084,-1.1100805,0.3803931,-2.8562105,-0.21956925,1.6696014,1.3124508,0.03999671,0.04,-8.275495,-4.99869441986084,1.6629349,0.0,-0.0,0.0
2660.383333339597,-0.435084,-1.1100805,0.3803931,-2.8562105,-0.21956925,1.6696014,1.3124508,0.03999671,0.04,-8.275495,-4.99869441986084,1.6629349,0.0,-0.0,0.0
2660.400000006264,-0.435084,-1.1100805,0.3803931,-2.8562105,-0.21956925,1.6696014,1.3124508,0.03999671,0.04,-8.275495,-4.99869441986084,1.6629349,0.0,-0.0,0.0
2660.4166666729307,-0.435084,-1.1100805,0.3803931,-2.8562105,-0.21956925,1.6696014,1.3124508,0.03999671,0.04,-8.275495,-4.99869441986084,1.6629349,0.0,-0.0,0.0
2660.4333333395975,-0.435084,-1.1100805,0.3803931,-2.8562105,-0.21956925,1.6696014,1.3124508,0.03999671,0.04,-8.275495,-4.99869441986084,1.6629349,0.0,-0.0,0.0
2660.4500000062644,-0.435084,-1.1100805,0.3803931,-2.8562105,-0.21956925,1.6696014,1.3124508,0.03999671,0.04,-8.275495,-4.99869441986084,1.6629349,0.0,-0.0,0.0
2660.4666666729313,-0.435084,-1.1100805,0.3803931,-2.8562105,-0.21956925,1.6696014,1.3124508,0.03999671,0.04,-8.275495,-4.99869441986084,1.6629349,0.0,-0.0,0.0
2660.483333339598,-0.435084,-1.1100805,0.3803931,-2.8562105,-0.21956925,1.6696014,1.3124508,0.03999671,0.04,-8.275495,-4.99869441986084,1.6629349,0.0,-0.0,0.0
2660.500000006265,-0.435084,-1.1100805,0.3803931,-2.8562105,-0.21956925,1.6696014,1.3124508,0.03999671,0.04,-8.275495,-4.99869441986084,1.6629349,0.0,-0.0,0.0
2660.516666672932,-0.435084,-1.1100805,0.3803931,-2.8562105,-0.21956925,1.6696014,1.3124508,0.03999671,0.04,-8.275495,-4.99869441986084,1.6629349,0.0,-0.0,0.0
2660.533333339599,-0.435084,-1.1100805,0.3803931,-2.8562105,-0.21956925,1.6696014,1.3124508,0.03999671,0.04,-8.275495,-4.99869441986084,1.6629349,0.0,-0.0,0.0
2660.5500000062657,-0.435084,-1.1100805,0.3803931,-2.8562105,-0.21956925,1.6696014,1.3124508,0.03999671,0.04,-8.275495,-4.99869441986084,1.6629349,0.0,-0.0,0.0
2660.5666666729326,-0.435084,-1.1100805,0.3803931,-2.8562105,-0.21956925,1.6696014,1.3124508,0.03999671,0.04,-8.275495,-4.99869441986084,1.6629349,0.0,-0.0,0.0
2660.5833333395994,-0.435084,-1.1100805,0.3803931,-2.8562105,-0.21956925,1.6696014,1.3124508,0.03999671,0.04,-8.275495,-4.99869441986084,1.6629349,0.0,-0.0,0.0
2660.6000000062663,-0.435084,-1.1100805,0.3803931,-2.8562105,-0.21956925,1.6696014,1.3124508,0.03999671,0.04,-8.275495,-4.99869441986084,1.6629349,0.0,-0.0,0.0
2660.616666672933,-0.435084,-1.1100805,0.3803931,-2.8562105,-0.21956925,1.6696014,1.3124508,0.03999671,0.04,-8.275495,-4.99869441986084,1.6629349,0.0,-0.0,0.0
2660.6333333396,-0.435084,-1.1100805,0.3803931,-2.8562105,-0.21956925,1.6696014,1.3124508,0.03999671,0.04,-8.275495,-4.99869441986084,1.6629349,0.0,-0.0,0.0
2660.650000006267,-0.435084,-1.1100805,0.3803931,-2.8562105,-0.21956925,1.6696014,1.3124508,0.03999671,0.04,-8.275495,-4.99869441986084,1.6629349,0.0,-0.0,0.0
2660.666666672934,-0.435084,-1.1100805,0.3803931,-2.8562105,-0.21956925,1.6696014,1.3124508,0.03999671,0.04,-8.275495,-4.99869441986084,1.6629349,0.0,-0.0,0.0
2660.6833333396007,-0.435084,-1.1100805,0.3803931,-2.8562105,-0.21956925,1.6696014,1.3124508,0.03999671,0.04,-8.275495,-4.99869441986084,1.6629349,0.0,-0.0,0.0
2660.7000000062676,-0.435084,-1.1100805,0.3803931,-2.8562105,-0.21956925,1.6696014,1.3124508,0.03999671,0.04,-8.275495,-4.99869441986084,1.6629349,0.0,-0.0,0.0
2660.7166666729345,-0.435084,-1.1100805,0.3803931,-2.8562105,-0.21956925,1.6696014,1.3124508,0.03999671,0.04,-8.275495,-4.99869441986084,1.6629349,0.0,-0.0,0.0
2660.7333333396014,-0.435084,-1.1100805,0.3803931,-2.8562105,-0.21956925,1.6696014,1.3124508,0.03999671,0.04,-8.275495,-4.99869441986084,1.6629349,0.0,-0.0,0.0
2660.7500000062682,-0.435084,-1.1100805,0.3803931,-2.8562105,-0.21956925,1.6696014,1.3124508,0.03999671,0.04,-8.275495,-4.99869441986084,1.6629349,0.0,-0.0,0.0
2660.766666672935,-0.435084,-1.1100805,0.3803931,-2.8562105,-0.21956925,1.6696014,1.3124508,0.03999671,0.04,-8.275495,-4.99869441986084,1.6629349,0.0,-0.0,0.0
2660.783333339602,-0.435084,-1.1100805,0.3803931,-2.8562105,-0.21956925,1.6696014,1.3124508,0.03999671,0.04,-8.275495,-4.99869441986084,1.6629349,0.0,-0.0,0.0
2660.800000006269,-0.435084,-1.1100805,0.3803931,-2.8562105,-0.21956925,1.6696014,1.3124508,0.03999671,0.04,-8.275495,-4.99869441986084,1.6629349,0.0,-0.0,0.0
2660.8166666729358,-0.435084,-1.1100805,0.3803931,-2.8562105,-0.21956925,1.6696014,1.3124508,0.03999671,0.04,-8.275495,-4.99869441986084,1.6629349,0.0,-0.0,0.0
2660.8333333396026,-0.435084,-1.1100805,0.3803931,-2.8562105,-0.21956925,1.6696014,1.3124508,0.03999671,0.04,-8.275495,-4.99869441986084,1.6629349,0.0,-0.0,0.0
2660.8500000062695,-0.435084,-1.1100805,0.3803931,-2.8562105,-0.21956925,1.6696014,1.3124508,0.03999671,0.04,-8.275495,-4.99869441986084,1.6629349,0.0,-0.0,0.0
2660.8666666729364,-0.435084,-1.1100805,0.3803931,-2.8562105,-0.21956925,1.6696014,1.3124508,0.03999671,0.04,-8.275495,-4.99869441986084,1.6629349,0.0,-0.0,0.0
2660.8833333396033,-0.435084,-1.1100805,0.3803931,-2.8562105,-0.21956925,1.6696014,1.3124508,0.03999671,0.04,-8.275495,-4.99869441986084,1.6629349,0.0,-0.0,0.0
2660.90000000627,-0.435084,-1.1100805,0.3803931,-2.8562105,-0.21956925,1.6696014,1.3124508,0.03999671,0.04,-8.275495,-4.99869441986084,1.6629349,0.0,-0.0,0.0
2660.916666672937,-0.435084,-1.1100805,0.3803931,-2.8562105,-0.21956925,1.6696014,1.3124508,0.03999671,0.04,-8.275495,-4.99869441986084,1.6629349,0.0,-0.0,0.0
2660.933333339604,-0.435084,-1.1100805,0.3803931,-2.8562105,-0.21956925,1.6696014,1.3124508,0.03999671,0.04,-8.275495,-4.99869441986084,1.6629349,0.0,-0.0,0.0
2660.950000006271,-0.435084,-1.1100805,0.3803931,-2.8562105,-0.21956925,1.6696014,1.3124508,0.03999671,0.04,-8.275495,-4.99869441986084,1.6629349,0.0,-0.0,0.0
2660.9666666729377,-0.435084,-1.1100805,0.3803931,-2.8562105,-0.21956925,1.6696014,1.3124508,0.03999671,0.04,-8.275495,-4.99869441986084,1.6629349,0.0,-0.0,0.0
2660.9833333396045,-0.435084,-1.1100805,0.3803931,-2.8562105,-0.21956925,1.6696014,1.3124508,0.03999671,0.04,-8.275495,-4.99869441986084,1.6629349,0.0,-0.0,0.0
2661.0000000062714,-0.435084,-1.1100805,0.3803931,-2.8562105,-0.21956925,1.6696014,1.3124508,0.03999671,0.04,-8.275495,-4.99869441986084,1.6629349,0.0,-0.0,0.0
2661.0166666729383,-0.435084,-1.1100805,0.3803931,-2.8562105,-0.21956925,1.6696014,1.3124508,0.03999671,0.04,-8.275495,-4.99869441986084,1.6629349,0.0,-0.0,0.0
2661.033333339605,-0.435084,-1.1100805,0.3803931,-2.8562105,-0.21956925,1.6696014,1.3124508,0.03999671,0.04,-8.275495,-4.99869441986084,1.6629349,0.0,-0.0,0.0
2661.050000006272,-0.435084,-1.1100805,0.3803931,-2.8562105,-0.21956925,1.6696014,1.3124508,0.03999671,0.04,-8.275495,-4.99869441986084,1.6629349,0.0,-0.0,0.0
