rsonawane2002/My_IMU/logs_2/traj_491/imu_400hz_491.csv
time,j1,j2,j3,j4,j5,j6,j7,gripper1,gripper2,imu_ax,imu_ay,imu_az,imu_gx,imu_gy,imu_gz
0.0,0.00016700293,-0.785875,4.0107683e-05,-2.3551247,9.29385e-05,1.570997,0.786,0.04,0.04,-9.489605,0.0287497825920581,0.08465458,-3.7903015e-07,-0.0011641274904832,1.9319293e-07
0.0025,0.00016700222049999998,-0.7858577739999998,4.010968955000003e-05,-2.3551391900000005,9.294326925000007e-05,1.570996565,0.786,0.04,0.04,-9.54128675000075,0.024531355660230854,0.07333260774983524,-2.2920115749781966e-07,-0.0013252836011839052,2.4104557000069634e-07
0.005,0.00016700151099999997,-0.7858405479999995,4.011169610000006e-05,-2.355153680000001,9.294803850000014e-05,1.57099613,0.786,0.04,0.04,-9.592968500001504,0.020312928728403606,0.06201063549967048,-7.937216499563934e-08,-0.0014864397118846103,2.888982100013927e-07
0.0075,0.00016700080149999996,-0.7858233219999993,4.011370265000009e-05,-2.3551681700000007,9.295280775000022e-05,1.570995695,0.786,0.04,0.04,-9.644650250002256,0.01609450179657636,0.05068866324950573,7.045682750654094e-08,-0.0016475958225853154,3.3675085000208906e-07
0.01,0.00016700009199999995,-0.7858060959999991,4.0115709200000116e-05,-2.355182660000001,9.295757700000028e-05,1.57099526,0.786,0.04,0.04,-9.696332000003007,0.011876074864749113,0.03936669099934097,2.2028582000872132e-07,-0.0018087519332860204,3.846034900027854e-07
0.0125,0.00016699938249999994,-0.7857888699999988,4.011771575000015e-05,-2.3551971500000013,9.296234625000035e-05,1.570994825,0.786,0.04,0.04,-9.748013750003759,0.007657647932921868,0.02804471874917621,3.701148125109016e-07,-0.0019699080439867255,4.324561300034818e-07
0.015,0.00016699867299999993,-0.7857716439999985,4.011972230000018e-05,-2.3552116400000016,9.296711550000041e-05,1.57099439,0.786,0.04,0.04,-9.799695500004512,0.0034392210010946236,0.016722746499011468,5.199438050130819e-07,-0.0021310641546874306,4.803087700041781e-07
0.0175,0.0001669953669999992,-0.7857548669999985,4.01239249000008e-05,-2.355225735000001,9.297045725000004e-05,1.57099396,0.786,0.04,0.04,-9.834067149999976,0.000627180826268158,0.00909194311497695,8.519359800645969e-07,-0.00228796203156446,3.6869270346005796e-07
0.02,0.0001669868679999993,-0.7857389879999988,4.013251960000069e-05,-2.355239040000001,9.297094400000004e-05,1.57099354,0.786,0.04,0.04,-9.83381859999998,0.0006279141642153187,0.008843477459980114,1.5482545200557304e-06,-0.002436343440797856,-6.186077603445964e-08
0.0225,0.00016697836899999942,-0.785723108999999,4.014111430000058e-05,-2.355252345000001,9.297143075000003e-05,1.57099312,0.786,0.04,0.04,-9.833570049999983,0.0006286475021624793,0.008595011804983278,2.2445730600468636e-06,-0.002584724850031251,-4.924142555289772e-07
0.025,0.00016696986999999953,-0.7857072299999992,4.014970900000047e-05,-2.3552656500000007,9.297191750000002e-05,1.5709927,0.786,0.04,0.04,-9.833321499999986,0.0006293808401096401,0.008346546149986441,2.9408916000379984e-06,-0.002733106259264647,-9.229677350234955e-07
0.0275,0.00016696137099999963,-0.7856913509999993,4.015830370000036e-05,-2.3552789550000006,9.297240425000003e-05,1.57099228,0.786,0.04,0.04,-9.83307294999999,0.0006301141780568007,0.008098080494989605,3.6372101400291316e-06,-0.002881487668498043,-1.353521214518013e-06
0.03,0.00016695287199999974,-0.7856754719999995,4.016689840000025e-05,-2.35529226,9.297289100000002e-05,1.57099186,0.786,0.04,0.04,-9.832824399999993,0.0006308475160039614,0.007849614839992768,4.333528680020265e-06,-0.0030298690777314386,-1.7840746940125307e-06
0.0325,0.00016694437299999987,-0.7856595929999998,4.017549310000014e-05,-2.355305565,9.297337775000001e-05,1.57099144,0.786,0.04,0.04,-9.832575849999996,0.000631580853951122,0.0076011491849959315,5.0298472200114e-06,-0.0031782504869648344,-2.2146281735070487e-06
0.035,0.00016692222899999988,-0.785644573,4.0195781400000095e-05,-2.3553181,9.296679199999997e-05,1.57099101,0.786,0.04,0.04,-9.832301399999999,0.0006313288235104973,0.00737722116999923,6.51305276000683e-06,-0.0033186356304217464,-3.1911732000045475e-06
0.0375,0.00016689326250000027,-0.7856299825000002,4.022191649999976e-05,-2.3553302499999997,9.29566700000001e-05,1.570990575,0.786,0.04,0.04,-9.832014000000003,0.0006305841088760068,0.007165561975001925,8.389701799982932e-06,-0.0034550226409906346,-4.440713999988635e-06
0.04,0.00016686429600000063,-0.7856153920000003,4.024805159999943e-05,-2.3553423999999996,9.294654800000022e-05,1.57099014,0.786,0.04,0.04,-9.831726600000007,0.0006298393942415163,0.00695390278000462,1.0266350839959037e-05,-0.0035914096515595227,-5.690254799972726e-06
0.0425,0.000166835329500001,-0.7856008015000006,4.0274186699999096e-05,-2.3553545499999995,9.293642600000035e-05,1.5709897050000001,0.786,0.04,0.04,-9.831439200000009,0.0006290946796070258,0.0067422435850073145,1.2142999879935144e-05,-0.0037277966621284114,-6.939795599956817e-06
0.045,0.00016680636300000137,-0.7855862110000007,4.030032179999877e-05,-2.3553666999999994,9.292630400000048e-05,1.57098927,0.786,0.04,0.04,-9.831151800000013,0.0006283499649725353,0.00653058439001001,1.4019648919911244e-05,-0.0038641836726972995,-8.189336399940904e-06
0.0475,0.00016677739650000173,-0.7855716205000008,4.032645689999843e-05,-2.3553788499999992,9.29161820000006e-05,1.570988835,0.786,0.04,0.04,-9.830864400000017,0.0006276052503380447,0.006318925195012705,1.5896297959887352e-05,-0.004000570683266188,-9.438877199924994e-06
0.05,0.00016674843000000211,-0.7855570300000011,4.03525919999981e-05,-2.355390999999999,9.290606000000073e-05,1.5709884,0.786,0.04,0.04,-9.830577000000021,0.0006268605357035542,0.0061072660000154,1.7772946999863457e-05,-0.004136957693835076,-1.0688417999909085e-05
0.0525,0.00016668093450000578,-0.7855436305000011,4.0411964699994926e-05,-2.3554021599999992,9.287629040000254e-05,1.5709879800000002,0.786,0.04,0.04,-9.830300850000024,0.0006261425209231414,0.005911650700016724,2.1442164199686307e-05,-0.004261995642435255,-1.3107494549793185e-05
0.055,0.00016661343900000662,-0.7855302310000013,4.0471337399994167e-05,-2.355413319999999,9.284652080000292e-05,1.57098756,0.786,0.04,0.04,-9.830024700000028,0.0006254245061427306,0.005716035400019214,2.511138139963959e-05,-0.004387033591034608,-1.5526571099762384e-05
0.0575,0.0001665459435000075,-0.7855168315000015,4.0530710099993414e-05,-2.3554244799999986,9.28167512000033e-05,1.5709871400000002,0.786,0.04,0.04,-9.82974855000003,0.0006247064913623197,0.005520420100021705,2.8780598599592873e-05,-0.004512071539633961,-1.7945647649731586e-05
0.06,0.00016647844800000836,-0.7855034320000016,4.0590082799992654e-05,-2.3554356399999987,9.278698160000367e-05,1.57098672,0.786,0.04,0.04,-9.829472400000034,0.0006239884765819088,0.005324804800024197,3.244981579954615e-05,-0.0046371094882333135,-2.036472419970078e-05
0.0625,0.0001664109525000092,-0.7854900325000018,4.06494554999919e-05,-2.3554467999999984,9.275721200000405e-05,1.5709863000000002,0.786,0.04,0.04,-9.829196250000036,0.000623270461801498,0.005129189500026687,3.611903299949943e-05,-0.004762147436832667,-2.278380074966998e-05
0.065,0.00016634345700001008,-0.785476633000002,4.070882819999114e-05,-2.355457959999998,9.272744240000444e-05,1.57098588,0.786,0.04,0.04,-9.82892010000004,0.0006225524470210871,0.004933574200029178,3.9788250199452715e-05,-0.004887185385432019,-2.520287729963918e-05
0.0675,0.00016625547450002087,-0.7854636000000019,4.078593749998177e-05,-2.3554687999999984,9.268719350000991e-05,1.570985455,0.786000095,0.04,0.04,-9.828636800000048,0.0006214535882466463,0.004746330450027603,4.4227964449031795e-05,-0.005008780863117429,-2.811643494936823e-05
0.07,0.00016612651800002252,-0.7854513000000022,4.089851999998034e-05,-2.355478999999998,9.262598600001069e-05,1.5709850200000002,0.7860003799999999,0.04,0.04,-9.828339200000052,0.000619593041483605,0.004575829800029773,5.020867279895565e-05,-0.005123491398970069,-3.2018954799318545e-05
0.0725,0.00016599756150002416,-0.7854390000000023,4.101110249997891e-05,-2.3554891999999983,9.256477850001146e-05,1.5709845850000002,0.786000665,0.04,0.04,-9.828041600000056,0.0006177324947205636,0.004405329150031945,5.618938114887947e-05,-0.005238201934822708,-3.5921474649268834e-05
0.075,0.0001658686050000258,-0.7854267000000025,4.1123684999977475e-05,-2.355499399999998,9.250357100001225e-05,1.5709841500000001,0.7860009499999999,0.04,0.04,-9.82774400000006,0.0006158719479575223,0.004234828500034116,6.217008949880332e-05,-0.005352912470675347,-3.982399449921915e-05
0.0775,0.00016573964850002745,-0.7854144000000026,4.123626749997604e-05,-2.3555095999999978,9.244236350001303e-05,1.5709837150000001,0.786001235,0.04,0.04,-9.827446400000063,0.000614011401194481,0.0040643278500362865,6.815079784872717e-05,-0.005467623006527987,-4.3726514349169465e-05
0.08,0.0001656106920000291,-0.7854021000000028,4.1348849999974606e-05,-2.355519799999998,9.23811560000138e-05,1.57098328,0.78600152,0.04,0.04,-9.827148800000067,0.0006121508544314397,0.003893827200038457,7.413150619865103e-05,-0.005582333542380627,-4.7629034199119774e-05
0.0825,0.00016548173550003074,-0.7853898000000029,4.1461432499973174e-05,-2.3555299999999977,9.23199485000146e-05,1.570982845,0.7860018049999999,0.04,0.04,-9.826851200000071,0.0006102903076683983,0.003723326550040628,8.011221454857488e-05,-0.005697044078233266,-5.153155404907009e-05
0.085,0.00016529359100005465,-0.7853782340000027,4.162534219995241e-05,-2.3555399299999977,9.222882240002663e-05,1.57098268,0.78600209,0.04,0.04,-9.826606400000056,0.0006081276573245707,0.0035416294800470144,8.70945175981216e-05,-0.0058051228988652125,-5.66114105985771e-05
0.08750000000000001,0.00016507585250005743,-0.7853670350000029,4.181491549995e-05,-2.3555497249999973,9.212273700002798e-05,1.5709826500000001,0.7860023749999999,0.04,0.04,-9.826388000000058,0.0006058139551901852,0.003354334200049399,9.457761799802633e-05,-0.005909885861883193,-6.227993549850493e-05
0.09,0.0001648581140000602,-0.785355836000003,4.2004488799947586e-05,-2.3555595199999972,9.201665160002933e-05,1.57098262,0.78600266,0.04,0.04,-9.82616960000006,0.0006035002530557997,0.003167038920051785,0.00010206071839793101,-0.006014648824901174,-6.794846039843272e-05
0.0925,0.00016464037550006298,-0.7853446370000032,4.219406209994517e-05,-2.355569314999997,9.191056620003069e-05,1.57098259,0.7860029449999999,0.04,0.04,-9.825951200000063,0.0006011865509214141,0.0029797436400541694,0.00010954381879783573,-0.006119411787919155,-7.361698529836054e-05
0.095,0.00016442263700006574,-0.7853334380000033,4.238363539994276e-05,-2.3555791099999968,9.180448080003203e-05,1.57098256,0.7860032299999999,0.04,0.04,-9.825732800000067,0.0005988728487870286,0.0027924483600565543,0.00011702691919774047,-0.006224174750937137,-7.928551019828837e-05
0.0975,0.00016420489850006852,-0.7853222390000035,4.2573208699940346e-05,-2.3555889049999967,9.169839540003338e-05,1.57098253,0.786003515,0.04,0.04,-9.825514400000069,0.0005965591466526431,0.0026051530800589385,0.0001245100195976452,-0.006328937713955118,-8.49540350982162e-05
0.1,0.00016398716000007128,-0.7853110400000036,4.276278199993793e-05,-2.3555986999999967,9.159231000003473e-05,1.5709825,0.7860037999999999,0.04,0.04,-9.82529600000007,0.0005942454445182576,0.0024178578000613234,0.0001319931199975499,-0.0064337006769731,-9.062255999814402e-05
0.10250000000000001,0.0001636494305001149,-0.7853008040000035,4.305659569990006e-05,-2.355607564999997,9.142563210005669e-05,1.5709825149999999,0.7860040909999999,0.04,0.04,-9.825104300000065,0.0005899735115249431,0.0022490362800574246,0.0001427933674963263,-0.006529372278568342,-9.831275999738419e-05
0.105,0.0001633117010001192,-0.7852905680000036,4.335040939989632e-05,-2.355616429999997,9.125895420005881e-05,1.57098253,0.7860043819999999,0.04,0.04,-9.824912600000067,0.0005857015785309875,0.0020802147600595747,0.00015359361499618873,-0.006625043880160609,-0.00010600295999728623
0.1075,0.00016297397150012347,-0.7852803320000037,4.3644223099892575e-05,-2.3556252949999967,9.109227630006093e-05,1.570982545,0.7860046729999999,0.04,0.04,-9.82472090000007,0.0005814296455370319,0.0019113932400617244,0.00016439386249605123,-0.006720715481752876,-0.00011369315999718832
0.11,0.00016263624200012777,-0.7852700960000039,4.393803679988883e-05,-2.3556341599999966,9.092559840006306e-05,1.57098256,0.7860049639999999,0.04,0.04,-9.824529200000073,0.0005771577125430763,0.0017425717200638736,0.00017519410999591373,-0.0068163870833451426,-0.0001213833599970904
0.1125,0.00016229851250013208,-0.785259860000004,4.4231850499885095e-05,-2.3556430249999964,9.075892050006518e-05,1.570982575,0.7860052549999998,0.04,0.04,-9.824337500000075,0.0005728857795491208,0.001573750200066023,0.0001859943574957762,-0.006912058684937409,-0.0001290735599969925
0.115,0.00016196078300013638,-0.7852496240000042,4.452566419988135e-05,-2.3556518899999963,9.05922426000673e-05,1.57098259,0.7860055459999999,0.04,0.04,-9.824145800000078,0.0005686138465551651,0.0014049286800681725,0.0001967946049956387,-0.007007730286529676,-0.00013676375999689458
0.11750000000000001,0.00016157148150020513,-0.7852397150000039,4.486430769982159e-05,-2.355660684999996,9.039999305010138e-05,1.5709826199999999,0.7860059304999998,0.04,0.03999999975,-9.823926750000114,0.0005643906857602236,0.0012446153265596898,0.00020889055149388204,-0.007100322307051382,-0.0001451648654959083
0.12,0.00016107903600021142,-0.785230460000004,4.5292610799816134e-05,-2.3556693399999964,9.015660020010448e-05,1.57098268,0.7860065019999998,0.04,0.039999999,-9.823653000000117,0.0005602650693634911,0.0011013183060615151,0.00022357789599369496,-0.007186755165420535,-0.0001549877819957832
0.1225,0.00016058659050021768,-0.7852212050000041,4.572091389981068e-05,-2.355677994999996,8.991320735010757e-05,1.57098274,0.7860070734999998,0.04,0.03999999825,-9.823379250000121,0.0005561394529667586,0.0009580212855633394,0.00023826524049350796,-0.007273188023789691,-0.0001648106984956581
0.125,0.00016009414500022393,-0.7852119500000042,4.614921699980523e-05,-2.355686649999996,8.966981450011068e-05,1.5709828,0.7860076449999998,0.04,0.0399999975,-9.823105500000125,0.0005520138365700261,0.0008147242650651639,0.00025295258499332096,-0.007359620882158845,-0.00017463361499553306
0.1275,0.00015960169950023022,-0.7852026950000043,4.6577520099799774e-05,-2.355695304999996,8.942642165011377e-05,1.57098286,0.7860082164999997,0.04,0.03999999675,-9.822831750000129,0.0005478882201732936,0.0006714272445669883,0.00026763992949313395,-0.007446053740527999,-0.000184456531495408
0.13,0.00015910925400023648,-0.7851934400000045,4.700582319979432e-05,-2.355703959999996,8.918302880011688e-05,1.57098292,0.7860087879999997,0.04,0.039999996,-9.822558000000132,0.0005437626037765611,0.0005281302240688128,0.00028232727399294695,-0.007532486598897154,-0.00019427944799528293
0.1325,0.00015861680850024273,-0.7851841850000045,4.743412629978887e-05,-2.355712614999996,8.893963595011998e-05,1.57098298,0.7860093594999996,0.04,0.03999999525,-9.822284250000136,0.0005396369873798286,0.00038483320357063724,0.00029701461849275995,-0.007618919457266308,-0.00020410236449515786
0.135,0.00015799600700034638,-0.7851755330000042,4.79741212996987e-05,-2.355720869999996,8.863137650017228e-05,1.5709830599999999,0.7860101249999996,0.04,0.039999995,-9.822099100000072,0.000532950044729959,0.00023428802707795964,0.00031370934199105035,-0.007701088953722747,-0.00021563607799373515
0.1375,0.0001573110275003551,-0.7851671825000043,4.856996224969111e-05,-2.3557289249999958,8.829068375017662e-05,1.57098315,0.7860109874999995,0.04,0.039999995,-9.821958250000073,0.0005249824389506555,8.011877257992252e-05,0.000331407754990825,-0.0077811267692180575,-0.0002280251899935774
0.14,0.00015662604800036382,-0.7851588320000045,4.916580319968352e-05,-2.3557369799999957,8.794999100018096e-05,1.57098324,0.7860118499999995,0.04,0.039999995,-9.821817400000075,0.0005170148331713519,-7.405048191811461e-05,0.00034910616799059964,-0.007861164584713368,-0.00024041430199341966
0.14250000000000002,0.00015594106850037255,-0.7851504815000045,4.976164414967594e-05,-2.3557450349999955,8.76092982501853e-05,1.57098333,0.7860127124999995,0.04,0.039999995,-9.821676550000076,0.0005090472273920483,-0.00022821973641615174,0.00036680458099037433,-0.00794120240020868,-0.00025280341399326194
0.145,0.00015525608900038128,-0.7851421310000046,5.035748509966835e-05,-2.3557530899999954,8.726860550018964e-05,1.57098342,0.7860135749999995,0.04,0.039999995,-9.821535700000078,0.0005010796216127449,-0.00038238899091418713,0.00038450299399014876,-0.00802124021570399,-0.00026519252599310403
0.1475,0.00015457110950038998,-0.7851337805000047,5.095332604966076e-05,-2.3557611449999953,8.692791275019398e-05,1.5709835099999998,0.7860144374999994,0.04,0.039999995,-9.82139485000008,0.0004931120158334413,-0.0005365582454122243,0.00040220140698992346,-0.0081012780311993,-0.0002775816379929463
0.15,0.0001538861300003987,-0.7851254300000049,5.154916699965318e-05,-2.3557691999999952,8.658722000019832e-05,1.5709836,0.7860152999999994,0.04,0.039999995,-9.821254000000081,0.0004851444100541378,-0.0006907274999102615,0.0004198998199896981,-0.008181315846694612,-0.00028997074999278854
0.1525,0.0001529680580005461,-0.7851179645000045,5.234798044952486e-05,-2.3557768799999956,8.612716550027365e-05,1.5709836899999998,0.7860164399999993,0.04,0.03999999575,-9.82103605000013,0.00047526462149691663,-0.0008291317499176756,0.0004410402619874254,-0.008253538235979036,-0.00030509631349100316
0.155,0.00015204998600055778,-0.7851104990000045,5.314679389951469e-05,-2.355784559999995,8.56671110002795e-05,1.57098378,0.7860175799999993,0.04,0.0399999965,-9.820818100000132,0.0004653848329385824,-0.0009675359999159135,0.0004621807039871563,-0.008325760625258912,-0.0003202218769908106
0.1575,0.00015113191400056944,-0.7851030335000047,5.394560734950452e-05,-2.355792239999995,8.520705650028537e-05,1.5709838699999998,0.7860187199999993,0.04,0.03999999725,-9.820600150000136,0.0004555050443802482,-0.0011059402499141514,0.0004833211459868871,-0.008397983014538786,-0.000335347440490618
0.16,0.00015021384200058114,-0.7850955680000047,5.4744420799494347e-05,-2.355799919999995,8.474700200029122e-05,1.57098396,0.7860198599999992,0.04,0.039999998,-9.820382200000138,0.000445625255821914,-0.0012443444999123891,0.0005044615879866179,-0.008470205403818662,-0.0003504730039904254
0.1625,0.00014929577000059283,-0.7850881025000048,5.5543234249484176e-05,-2.355807599999995,8.428694750029708e-05,1.5709840499999999,0.7860209999999992,0.04,0.03999999875,-9.82016425000014,0.0004357454672635798,-0.001382748749910627,0.0005256020299863488,-0.008542427793098538,-0.00036559856749023283
0.165,0.00014837769800060452,-0.7850806370000049,5.6342047699474006e-05,-2.355815279999995,8.382689300030293e-05,1.57098414,0.7860221399999993,0.04,0.0399999995,-9.819946300000144,0.0004258656787052456,-0.001521152999908865,0.0005467424719860797,-0.008614650182378412,-0.00038072413099004025
0.1675,0.00014736758450080155,-0.7850734570000044,5.7221028499302405e-05,-2.3558229299999947,8.332043900040221e-05,1.570984245,0.786023376999999,0.04,0.04,-9.81974065000012,0.00041558045778235773,-0.0016559660949143338,0.0005691993099831597,-0.00868482566434179,-0.00039673622298806255
0.17,0.00014617338800081676,-0.7850668480000045,5.826034399928917e-05,-2.3558305199999947,8.272118600040985e-05,1.5709843799999998,0.786024807999999,0.04,0.04,-9.819559600000124,0.000404484372127929,-0.0017835968799127088,0.0005942889399828404,-0.008750907331659884,-0.00041452137198783615
0.17250000000000001,0.00014497919150083195,-0.7850602390000045,5.929965949927594e-05,-2.3558381099999948,8.212193300041748e-05,1.570984515,0.786026238999999,0.04,0.04,-9.819378550000126,0.0003933882864735003,-0.0019112276649110838,0.0006193785699825209,-0.008816988998977978,-0.0004323065209876097
0.17500000000000002,0.00014378499500084717,-0.7850536300000047,6.0338974999262706e-05,-2.3558456999999944,8.15226800004251e-05,1.57098465,0.786027669999999,0.04,0.04,-9.819197500000127,0.00038229220081907155,-0.002038858449909459,0.0006444681999822014,-0.008883070666296072,-0.00045009166998738324
0.1775,0.00014259079850086238,-0.7850470210000048,6.137829049924946e-05,-2.3558532899999944,8.092342700043274e-05,1.5709847849999998,0.786029100999999,0.04,0.04,-9.819016450000131,0.000371196115164643,-0.0021664892349078325,0.0006695578299818817,-0.008949152333614164,-0.0004678768189871566
0.18,0.00014139660200087757,-0.7850404120000049,6.241760599923623e-05,-2.3558608799999945,8.032417400044037e-05,1.57098492,0.786030531999999,0.04,0.04,-9.818835400000133,0.00036010002951021423,-0.002294120019906207,0.0006946474599815622,-0.009015234000932258,-0.00048566196798693017
0.1825,0.0001402024055008928,-0.785033803000005,6.3456921499223e-05,-2.3558684699999946,7.9724921000448e-05,1.5709850549999997,0.786031962999999,0.04,0.04,-9.818654350000134,0.0003490039438557855,-0.002421750804904582,0.0007197370899812428,-0.00908131566825035,-0.0005034471169867037
0.185,0.00013879404700115224,-0.7850277500000045,6.46828729989969e-05,-2.3558759999999945,7.901767840057879e-05,1.5709851899999998,0.7860336459999987,0.04,0.04,-9.818478700000131,0.00033507964400343235,-0.0025407545899127962,0.0007477109599776339,-0.009143841080321331,-0.0005231776799842586
0.1875,0.00013727860750117153,-0.7850219750000045,6.600214249898011e-05,-2.3558834999999942,7.825644100058848e-05,1.5709853249999999,0.7860354549999986,0.04,0.04,-9.818305750000134,0.0003197412370473327,-0.002655444874911336,0.0007771269499772593,-0.009204588364762737,-0.000543880949983995
0.19,0.00013576316800119082,-0.7850162000000046,6.732141199896331e-05,-2.355890999999994,7.749520360059818e-05,1.57098546,0.7860372639999986,0.04,0.04,-9.818132800000136,0.00030440283009123295,-0.002770135159909876,0.0008065429399768848,-0.009265335649204145,-0.0005645842199837313
0.1925,0.00013424772850121014,-0.7850104250000046,6.864068149894652e-05,-2.355898499999994,7.673396620060787e-05,1.5709855949999998,0.7860390729999986,0.04,0.04,-9.817959850000138,0.0002890644231351332,-0.002884825444908416,0.0008359589299765103,-0.009326082933645551,-0.0005852874899834677
0.195,0.00013273228900122943,-0.7850046500000047,6.995995099892972e-05,-2.355905999999994,7.597272880061756e-05,1.5709857299999999,0.7860408819999986,0.04,0.04,-9.81778690000014,0.00027372601617903355,-0.0029995157299069555,0.0008653749199761358,-0.009386830218086957,-0.0006059907599832041
0.1975,0.00013121684950124872,-0.7849988750000048,7.127922049891293e-05,-2.3559134999999936,7.521149140062726e-05,1.570985865,0.7860426909999986,0.04,0.04,-9.817613950000142,0.0002583876092229338,-0.0031142060149054952,0.0008947909099757612,-0.009447577502528365,-0.0006266940299829405
0.2,0.00012970141000126804,-0.7849931000000049,7.259848999889614e-05,-2.3559209999999937,7.445025400063695e-05,1.5709859999999998,0.7860444999999985,0.04,0.04,-9.817441000000144,0.0002430492022668341,-0.003228896299904035,0.0009242068999753868,-0.009508324786969771,-0.0006473972999826769
0.2025,0.0001278177496016001,-0.7849881650000042,7.423872499860668e-05,-2.3559284999999934,7.350285040080478e-05,1.5709861499999997,0.7860467859999981,0.03999999925,0.04,-9.817298650000122,0.0002231688624474526,-0.003358950124889524,0.0009580317199712671,-0.009563913149711875,-0.0006712213154797624
0.20500000000000002,0.0001259340892016241,-0.7849832300000043,7.58789599985858e-05,-2.3559359999999936,7.255544680081684e-05,1.5709863,0.7860490719999981,0.0399999985,0.04,-9.817156300000123,0.00020328852262427072,-0.003489003949887868,0.0009918565399708364,-0.009619501512449662,-0.000695045330979459
0.20750000000000002,0.00012405042880164809,-0.7849782950000043,7.751919499856492e-05,-2.3559434999999933,7.160804320082891e-05,1.57098645,0.786051357999998,0.03999999775,0.04,-9.817013950000124,0.00018340818280108886,-0.0036190577748862122,0.0010256813599704058,-0.00967508987518745,-0.0007188693464791557
0.21,0.00012216676840167207,-0.7849733600000044,7.915942999854402e-05,-2.355950999999993,7.066063960084098e-05,1.5709866,0.786053643999998,0.039999997,0.04,-9.816871600000127,0.00016352784297790719,-0.003749111599884555,0.0010595061799699747,-0.009730678237925236,-0.0007426933619788521
0.2125,0.00012028310800169606,-0.7849684250000044,8.079966499852314e-05,-2.355958499999993,6.971323600085304e-05,1.5709867499999999,0.786055929999998,0.03999999625,0.04,-9.816729250000128,0.0001436475031547253,-0.0038791654248828992,0.001093330999969544,-0.009786266600663023,-0.0007665173774785487
0.215,0.00011839944760172004,-0.7849634900000045,8.243989999850225e-05,-2.355965999999993,6.87658324008651e-05,1.5709868999999999,0.7860582159999979,0.0399999955,0.04,-9.81658690000013,0.00012376716333154344,-0.004009219249881244,0.0011271558199691134,-0.009841854963400811,-0.0007903413929782454
0.2175,0.00011637684980215086,-0.7849588265000038,8.420129199812661e-05,-2.355973519999993,6.774834050108237e-05,1.5709870449999999,0.7860606729999974,0.039999994750000004,0.03999999975,-9.81644195000014,0.00010275661227192056,-0.004133690444894063,0.0011623942099644102,-0.009895913721945832,-0.0008151974614748306
0.22,0.00011407637720224291,-0.784954706000004,8.620499799804643e-05,-2.3559810799999923,6.65906720011287e-05,1.5709871799999997,0.7860634719999973,0.039999994000000004,0.039999999,-9.816291800000146,7.94856387300411e-05,-0.004246996379889529,0.001200459739962887,-0.009946913272092637,-0.0008421176359737533
0.2225,0.00011177590460233497,-0.7849505855000042,8.820870399796625e-05,-2.355988639999992,6.543300350117503e-05,1.5709873149999998,0.7860662709999972,0.039999993250000004,0.03999999825,-9.816141650000153,5.6214665188161634e-05,-0.004360302314884995,0.0012385252699613637,-0.009997912822239441,-0.0008690378104726762
0.225,0.00010947543200242703,-0.7849464650000043,9.021240999788606e-05,-2.355996199999992,6.427533500122135e-05,1.5709874499999998,0.786069069999997,0.039999992500000005,0.0399999975,-9.815991500000159,3.294369164628217e-05,-0.0044736082498804605,0.0012765907999598405,-0.010048912372386245,-0.0008959579849715989
0.2275,0.00010717495940251909,-0.7849423445000044,9.221611599780588e-05,-2.3560037599999917,6.311766650126768e-05,1.570987585,0.7860718689999969,0.03999999175,0.03999999675,-9.815841350000165,9.672718104402722e-06,-0.004586914184875926,0.0013146563299583172,-0.01009991192253305,-0.0009228781594705217
0.23,0.00010487448680261113,-0.7849382240000047,9.42198219977257e-05,-2.3560113199999915,6.1959998001314e-05,1.5709877199999998,0.7860746679999968,0.039999991,0.039999996,-9.81569120000017,-1.3598255437476754e-05,-0.004700220119871392,0.001352721859956794,-0.010150911472679854,-0.0009497983339694444
0.2325,0.00010257401420270319,-0.7849341035000048,9.622352799764551e-05,-2.356018879999991,6.080232950136034e-05,1.5709878549999998,0.7860774669999967,0.03999999025,0.03999999525,-9.815541050000176,-3.68692289793562e-05,-0.004813526054866858,0.0013907873899552706,-0.010201911022826658,-0.0009767185084683671
0.23500000000000001,9.996235500326176e-05,-0.7849305070000039,9.849864339715836e-05,-2.356026459999991,5.948770400164205e-05,1.5709883499999993,0.7860806299999961,0.039999989799999996,0.0399999943,-9.815392650000174,-6.170676858054492e-05,-0.0049247004698702145,0.0014319189899497113,-0.010249976627473694,-0.001005675549964668
0.23750000000000002,9.719510250322148e-05,-0.7849271725000039,0.00010090946349719344,-2.356034049999991,5.809460000162178e-05,1.5709890249999992,0.786083974999996,0.0399999895,0.039999993250000004,-9.815245125000171,-8.732759121557708e-05,-0.005034809124871817,0.0014745836249503322,-0.010296575259363002,-0.0010356510249651043
0.24,9.442785000318124e-05,-0.7849238380000038,0.00010332028359722851,-2.3560416399999915,5.670149600160152e-05,1.5709896999999993,0.7860873199999961,0.0399999892,0.0399999922,-9.815097600000168,-0.00011294841385060895,-0.005144917779873418,0.0015172482599509526,-0.01034317389125231,-0.0010656264999655402
0.2425,9.166059750314097e-05,-0.7849205035000038,0.00010573110369726359,-2.3560492299999916,5.5308392001581247e-05,1.5709903749999992,0.7860906649999961,0.0399999889,0.039999991150000004,-9.814950075000167,-0.0001385692364856411,-0.005255026434875021,0.0015599128949515735,-0.010389772523141619,-0.0010956019749659763
0.245,8.88933450031007e-05,-0.7849171690000037,0.00010814192379729867,-2.3560568199999916,5.391528800156097e-05,1.5709910499999993,0.7860940099999962,0.0399999886,0.0399999901,-9.814802550000165,-0.00016419005912067327,-0.0053651350898766235,0.0016025775299521943,-0.010436371155030927,-0.0011255774499664127
0.2475,8.612609250306044e-05,-0.7849138345000036,0.00011055274389733377,-2.3560644099999917,5.25221840015407e-05,1.5709917249999992,0.7860973549999963,0.0399999883,0.039999989050000004,-9.814655025000162,-0.00018981088175570542,-0.005475243744878226,0.0016452421649528152,-0.010482969786920236,-0.0011555529249668488
0.25,8.335884000302017e-05,-0.7849105000000036,0.00011296356399736885,-2.3560719999999917,5.112908000152042e-05,1.5709923999999993,0.7861006999999963,0.039999988,0.039999988,-9.814507500000161,-0.00021543170439073758,-0.005585352399879828,0.001687906799953436,-0.010529568418809544,-0.001185528399967285
0.2525,8.007371700362718e-05,-0.7849079950000027,0.00011582616939683933,-2.3560796799999917,4.947456575182679e-05,1.570993089999999,0.7861046494999956,0.0399999874,0.0399999874,-9.814333125000193,-0.0002483604126245926,-0.005696014764877815,0.0017353222799476474,-0.010569372121200687,-0.0012189372399631125
0.255,7.678859400366902e-05,-0.7849054900000028,0.00011868877479680289,-2.3560873599999916,4.782005150184786e-05,1.5709937799999991,0.7861085989999955,0.0399999868,0.0399999868,-9.814158750000194,-0.0002812891208664233,-0.005806677129876406,0.0017827377599470436,-0.010609175823584414,-0.0012523460799626872
0.2575,7.350347100371084e-05,-0.7849029850000028,0.00012155138019676643,-2.356095039999991,4.616553725186892e-05,1.5709944699999991,0.7861125484999955,0.039999986200000004,0.039999986200000004,-9.813984375000196,-0.00031421782910825405,-0.005917339494874997,0.00183015323994644,-0.010648979525968143,-0.0012857549199622618
0.26,7.021834800375267e-05,-0.7849004800000028,0.00012441398559673,-2.356102719999991,4.4511023001889985e-05,1.5709951599999992,0.7861164979999955,0.0399999856,0.0399999856,-9.813810000000199,-0.0003471465373500848,-0.006028001859873588,0.0018775687199458363,-0.01068878322835187,-0.0013191637599618364
0.2625,6.693322500379449e-05,-0.7848979750000029,0.00012727659099669354,-2.356110399999991,4.285650875191105e-05,1.5709958499999992,0.7861204474999954,0.039999985,0.039999985,-9.8136356250002,-0.0003800752455919155,-0.006138664224872179,0.0019249841999452327,-0.0107285869307356,-0.001352572599961411
0.265,6.364810200383631e-05,-0.7848954700000029,0.00013013919639665708,-2.356118079999991,4.120199450193212e-05,1.5709965399999992,0.7861243969999954,0.0399999844,0.0399999844,-9.813461250000204,-0.0004130039538337463,-0.00624932658987077,0.001972399679944629,-0.010768390633119327,-0.0013859814399609857
0.2675,6.0172993854550984e-05,-0.784893243000002,0.00013316757049603356,-2.3561259549999902,3.945160785229272e-05,1.5709972399999992,0.7861285884999945,0.039999984,0.039999984,-9.81329720000017,-0.00044800824684818627,-0.006358591359874311,0.0020214339099382922,-0.010806746687698198,-0.001420511859956588
0.27,5.6317915404600066e-05,-0.7848915720000019,0.00013652748199599078,-2.35613421999999,3.750947640231745e-05,1.570997959999999,0.7861332639999944,0.039999984,0.039999984,-9.81315380000017,-0.0004871637094298177,-0.006465060939872955,0.0020737056399376267,-0.010842207446652026,-0.00145728543995612
0.2725,5.2462836954649154e-05,-0.784889901000002,0.000139887393495948,-2.3561424849999897,3.5567344952342176e-05,1.570998679999999,0.7861379394999943,0.039999984,0.039999984,-9.813010400000174,-0.0005263191720114492,-0.0065715305198716,0.002125977369936961,-0.010877668205605854,-0.0014940590199556518
0.275,4.8607758504698236e-05,-0.784888230000002,0.00014324730499590523,-2.3561507499999896,3.3625213502366906e-05,1.5709993999999992,0.7861426149999943,0.039999984,0.039999984,-9.812867000000175,-0.0005654746345930806,-0.006678000099870244,0.0021782490999362955,-0.010913128964559683,-0.0015308325999551836
0.2775,4.475268005474732e-05,-0.784886559000002,0.00014660721649586246,-2.3561590149999896,3.168308205239163e-05,1.571000119999999,0.7861472904999942,0.039999984,0.039999984,-9.812723600000176,-0.0006046300971747122,-0.006784469679868888,0.00223052082993563,-0.010948589723513511,-0.0015676061799547154
0.28,4.08976016047964e-05,-0.784884888000002,0.00014996712799581968,-2.3561672799999895,2.974095060241636e-05,1.571000839999999,0.7861519659999942,0.039999984,0.039999984,-9.812580200000179,-0.0006437855597563436,-0.0068909392598675324,0.0022827925599349643,-0.01098405048246734,-0.0016043797599542473
0.28250000000000003,3.704252315484549e-05,-0.7848832170000021,0.0001533270394957769,-2.3561755449999895,2.7798819152441083e-05,1.571001559999999,0.7861566414999942,0.039999984,0.039999984,-9.81243680000018,-0.0006829410223379751,-0.006997408839866177,0.002335064289934299,-0.011019511241421169,-0.001641153339953779
0.28500000000000003,3.277223623568532e-05,-0.784882100000001,0.000157049312995044,-2.356184119999989,2.5647219502864737e-05,1.571002269999999,0.7861617999999931,0.039999983600000004,0.0399999833,-9.812323100000125,-0.0007256713113181785,-0.007096139369879561,0.0023904766599276523,-0.011053413897710635,-0.0016801166299491405
0.28750000000000003,2.8294345080742332e-05,-0.784881260000001,0.0001609527674949943,-2.3561928499999887,2.3390885752893464e-05,1.571002974999999,0.7861671999999931,0.039999983,0.03999998225,-9.812224250000126,-0.0007701890135078116,-0.007191000374878353,0.0024474593499269268,-0.011086537502663498,-0.0017201747749486305
0.29,2.3816453925799445e-05,-0.784880420000001,0.00016485622199494452,-2.3562015799999885,2.113455200292224e-05,1.571003679999999,0.786172599999993,0.0399999824,0.0399999812,-9.812125400000127,-0.0008147067156974438,-0.007285861379877143,0.0025044420399262,-0.011119661107616361,-0.0017602329199481197
0.2925,1.9338562770856456e-05,-0.7848795800000011,0.0001687596764948948,-2.3562103099999887,1.8878218252950968e-05,1.571004384999999,0.7861779999999929,0.0399999818,0.03999998015,-9.81202655000013,-0.000859224417887077,-0.007380722384875935,0.0025614247299254747,-0.011152784712569225,-0.0018002910649476097
0.295,1.486067161591347e-05,-0.7848787400000011,0.0001726631309948451,-2.3562190399999885,1.6621884502979698e-05,1.571005089999999,0.7861833999999929,0.0399999812,0.0399999791,-9.811927700000131,-0.0009037421200767102,-0.007475583389874727,0.002618407419924749,-0.011185908317522088,-0.0018403492099470997
0.2975,1.0382780460970482e-05,-0.7848779000000011,0.00017656658549479543,-2.3562277699999883,1.4365550753008426e-05,1.571005794999999,0.7861887999999928,0.0399999806,0.03999997805,-9.811828850000133,-0.0009482598222663435,-0.007570444394873519,0.0026753901099240236,-0.011219031922474951,-0.0018804073549465897
0.3,5.904889306027493e-06,-0.7848770600000011,0.00018047003999474573,-2.3562364999999885,1.2109217003037153e-05,1.571006499999999,0.7861941999999927,0.03999998,0.039999977,-9.811730000000134,-0.0009927775244559767,-0.007665305399872311,0.002732372799923298,-0.011252155527427815,-0.0019204654999460794
0.3025,7.507077620034426e-07,-0.784877081,0.00018496378799389394,-2.356245319999988,9.511519178529723e-06,1.5710077449999982,0.7862004249999915,0.039999979549999995,0.0399999764,-9.811611650000161,-0.0010451359906452908,-0.00775942568987211,0.0027944100249157047,-0.011282314453232946,-0.001964106769940701
0.305,-4.403473782930934e-06,-0.784877102,0.00018945753599383672,-2.356254139999988,6.913821353562797e-06,1.5710089899999982,0.7862066499999915,0.0399999791,0.039999975800000004,-9.811493300000162,-0.0010974944568451592,-0.007853545979870912,0.0028564472499149145,-0.011312473379034087,-0.002007748039940145
0.3075,-9.55765532786531e-06,-0.784877123,0.00019395128399377952,-2.356262959999988,4.3161235285958714e-06,1.5710102349999981,0.7862128749999914,0.03999997865,0.0399999752,-9.811374950000165,-0.0011498529230450276,-0.007947666269869714,0.002918484474914125,-0.011342632304835228,-0.0020513893099395894
0.31,-1.4711836872799688e-05,-0.784877144,0.0001984450319937223,-2.3562717799999877,1.718425703628945e-06,1.5710114799999981,0.7862190999999913,0.0399999782,0.0399999746,-9.811256600000165,-0.001202211389244896,-0.008041786559868515,0.002980521699913335,-0.01137279123063637,-0.0020950305799390338
0.3125,-1.9866018417734066e-05,-0.784877165,0.0002029387799936651,-2.356280599999988,-8.792721213379799e-07,1.5710127249999981,0.7862253249999912,0.03999997775,0.039999974,-9.811138250000166,-0.0012545698554447644,-0.008135906849867317,0.003042558924912545,-0.011402950156437509,-0.002138671849938478
0.315,-2.5020199962668444e-05,-0.784877186,0.00020743252799360786,-2.3562894199999875,-3.476969946304908e-06,1.571013969999998,0.7862315499999911,0.039999977299999996,0.0399999734,-9.811019900000169,-0.0013069283216446328,-0.008230027139866118,0.003104596149911755,-0.01143310908223865,-0.0021823131199379224
0.3175,-3.0417794441554795e-05,-0.7848774849999989,0.0002121387619926358,-2.356298584999986,-6.197501320742968e-06,1.571015219999998,0.7862380699999898,0.0399999768,0.03999997285,-9.810881350000257,-0.0013612400041057016,-0.0083228744248704,0.0031682670099039316,-0.011461015092175363,-0.0022271173749323597
0.32,-3.630221479147987e-05,-0.7848783399999988,0.00021726996799257045,-2.356308439999986,-9.163699795705203e-06,1.5710164799999982,0.7862451799999897,0.0399999762,0.0399999724,-9.81070240000026,-0.0014194581191143254,-0.008413175699869251,0.0032352051399030793,-0.011484415270354199,-0.0022742475999317597
0.3225,-4.218663514140495e-05,-0.7848791949999988,0.0002224011739925051,-2.3563182949999857,-1.2129898270667439e-05,1.571017739999998,0.7862522899999896,0.0399999756,0.039999971950000004,-9.810523450000261,-0.0014776762341229491,-0.008503476974868102,0.0033021432699022273,-0.011507815448533036,-0.0023213778249311593
0.325,-4.807105549133003e-05,-0.7848800499999988,0.0002275323799924398,-2.3563281499999857,-1.5096096745629671e-05,1.5710189999999982,0.7862593999999895,0.039999975,0.0399999715,-9.810344500000264,-0.0015358943491315727,-0.008593778249866952,0.003369081399901375,-0.011531215626711873,-0.0023685080499305593
0.3275,-5.3955475841255105e-05,-0.7848809049999987,0.00023266358599237445,-2.3563380049999854,-1.8062295220591907e-05,1.571020259999998,0.7862665099999895,0.0399999744,0.03999997105,-9.810165550000267,-0.0015941124641401965,-0.008684079524865803,0.0034360195299005226,-0.01155461580489071,-0.0024156382749299593
0.33,-5.983989619118019e-05,-0.7848817599999988,0.00023779479199230913,-2.3563478599999854,-2.102849369555414e-05,1.571021519999998,0.7862736199999893,0.039999973800000005,0.039999970600000004,-9.809986600000268,-0.0016523305791488203,-0.008774380799864652,0.0035029576598996706,-0.011578015983069546,-0.0024627684999293594
0.3325,-6.572431654110527e-05,-0.7848826149999988,0.00024292599799224379,-2.3563577149999855,-2.3994692170516376e-05,1.571022779999998,0.7862807299999892,0.039999973200000004,0.03999997015,-9.809807650000272,-0.001710548694157444,-0.008864682074863503,0.0035698957898988182,-0.011601416161248384,-0.0025098987249287594
0.335,-7.213174898971319e-05,-0.7848840569999974,0.00024851385499102856,-2.3563677099999847,-2.7224846794813928e-05,1.571024059999998,0.7862884599999876,0.039999972700000004,0.039999969600000004,-9.809710800000087,-0.0017757163149176496,-0.008959018049851376,0.003640192609888977,-0.011624453961813865,-0.0025593659599218947
0.3375,-7.880068748944633e-05,-0.7848857924999973,0.0002543300374907958,-2.3563777749999844,-3.0586979494679384e-05,1.571025349999998,0.7862964999999873,0.03999997225,0.039999969,-9.809655000000088,-0.0018443586885773476,-0.00905537137484752,0.0037121687748860968,-0.01164731057357143,-0.0026100016999198684
0.34,-8.546962598917946e-05,-0.7848875279999972,0.00026014621999056304,-2.3563878399999836,-3.394911219454484e-05,1.571026639999998,0.786304539999987,0.039999971800000006,0.0399999684,-9.809599200000092,-0.0019130010622370457,-0.009151724699843664,0.0037841449398832165,-0.011670167185328994,-0.002660637439917842
0.3425,-9.213856448891258e-05,-0.7848892634999971,0.0002659624024903303,-2.3563979049999833,-3.73112448944103e-05,1.5710279299999979,0.7863125799999866,0.03999997135,0.0399999678,-9.809543400000093,-0.001981643435896744,-0.009248078024839809,0.0038561211048803363,-0.01169302379708656,-0.002711273179915816
0.34500000000000003,-9.880750298864572e-05,-0.784890998999997,0.00027177858499009757,-2.356407969999983,-4.067337759427576e-05,1.5710292199999978,0.7863206199999864,0.0399999709,0.0399999672,-9.809487600000095,-0.002050285809556442,-0.009344431349835952,0.003928097269877456,-0.011715880408844125,-0.0027619089199137897
0.34750000000000003,-0.00010547644148837885,-0.784892734499997,0.00027759476748986483,-2.3564180349999826,-4.403551029414122e-05,1.5710305099999977,0.786328659999986,0.039999970450000005,0.0399999666,-9.809431800000098,-0.00211892818321614,-0.009440784674832097,0.004000073434874575,-0.01173873702060169,-0.0028125446599117634
0.35000000000000003,-0.00011214537998811198,-0.7848944699999969,0.0002834109499896321,-2.3564280999999823,-4.739764299400667e-05,1.5710317999999979,0.7863366999999857,0.03999997,0.039999966,-9.8093760000001,-0.002187570556875838,-0.009537137999828242,0.004072049599871695,-0.011761593632359256,-0.002863180399909737
0.3525,-0.00011965333448672544,-0.7848970994999954,0.0002899597024884214,-2.3564391549999804,-5.1183182793306913e-05,1.571033599999997,0.7863457959999839,0.03999997,0.039999966,-9.809214150000287,-0.0022636521839122276,-0.009621652349850573,0.0041490665148638285,-0.01178032006133758,-0.0029173375099042467
0.355,-0.00012716128898683472,-0.7848997289999954,0.00029650845498851666,-2.3564502099999807,-5.496872259336201e-05,1.5710353999999969,0.786354891999984,0.03999997,0.039999966,-9.809052300000284,-0.0023397338109618798,-0.009706166699851804,0.0042260834298649495,-0.011799046490308543,-0.0029714946199050347
0.3575,-0.00013466924348694395,-0.7849023584999955,0.000303057207488612,-2.356461264999981,-5.8754262393417094e-05,1.571037199999997,0.7863639879999842,0.03999997,0.039999966,-9.808890450000282,-0.002415815438011532,-0.009790681049853034,0.00430310034486607,-0.011817772919279506,-0.003025651729905823
0.36,-0.00014217719798705324,-0.7849049879999955,0.00030960595998870725,-2.356472319999981,-6.253980219347219e-05,1.571038999999997,0.7863730839999843,0.03999997,0.039999966,-9.80872860000028,-0.002491897065061184,-0.009875195399854262,0.004380117259867191,-0.011836499348250469,-0.003079808839906611
0.3625,-0.00014968515248716248,-0.7849076174999956,0.00031615471248880257,-2.356483374999981,-6.632534199352727e-05,1.571040799999997,0.7863821799999844,0.03999997,0.039999966,-9.808566750000276,-0.0025679786921108364,-0.009959709749855493,0.004457134174868312,-0.01185522577722143,-0.003133965949907399
0.365,-0.00015719310698727174,-0.7849102469999956,0.0003227034649888979,-2.3564944299999815,-7.011088179358237e-05,1.5710425999999968,0.7863912759999845,0.03999997,0.039999966,-9.808404900000275,-0.0026440603191604886,-0.010044224099856723,0.004534151089869433,-0.011873952206192393,-0.003188123059908187
0.3675,-0.00016499892448587912,-0.7849131679999941,0.00032951234748768155,-2.3565058399999796,-7.404673794287953e-05,1.5710444199999969,0.7864007254999829,0.03999997,0.039999966,-9.808268300000144,-0.002723092341187054,-0.010127767749862846,0.004612795299862349,-0.011891524633366969,-0.0032434568399030425
0.37,-0.0001734004679860014,-0.7849166719999942,0.0003368414899877882,-2.35651795999998,-7.828322679294118e-05,1.571046279999997,0.786410881999983,0.03999997,0.039999966,-9.808182200000143,-0.0028080251532122055,-0.010209369999864035,0.00469469409986354,-0.011906789056931266,-0.003301143959903882
0.3725,-0.00018180201148612364,-0.7849201759999942,0.00034417063248789483,-2.35653007999998,-8.251971564300284e-05,1.571048139999997,0.7864210384999832,0.03999997,0.039999966,-9.808096100000142,-0.0028929579652373564,-0.010290972249865221,0.004776592899864733,-0.011922053480495564,-0.0033588310799047214
0.375,-0.0001902035549862459,-0.7849236799999942,0.0003514997749880015,-2.3565421999999803,-8.675620449306448e-05,1.571049999999997,0.7864311949999834,0.03999997,0.039999966,-9.80801000000014,-0.0029778907772625074,-0.01037257449986641,0.004858491699865924,-0.011937317904059861,-0.0034165181999055608
0.3775,-0.00019860509848636818,-0.7849271839999943,0.00035882891748810817,-2.3565543199999803,-9.099269334312614e-05,1.571051859999997,0.7864413514999835,0.03999997,0.039999966,-9.807923900000139,-0.0030628235892876583,-0.010454176749867598,0.004940390499867117,-0.011952582327624157,-0.0034742053199064006
0.38,-0.00020700664198649045,-0.7849306879999943,0.00036615805998821486,-2.3565664399999804,-9.522918219318779e-05,1.571053719999997,0.7864515079999836,0.03999997,0.039999966,-9.807837800000138,-0.003147756401312809,-0.010535778999868784,0.005022289299868308,-0.011967846751188454,-0.00353189243990724
0.3825,-0.00021540818548661272,-0.7849341919999944,0.0003734872024883215,-2.3565785599999804,-9.946567104324945e-05,1.571055579999997,0.7864616644999838,0.03999997,0.039999966,-9.807751700000136,-0.0032326892133379605,-0.010617381249869972,0.005104188099869501,-0.011983111174752752,-0.0035895795599080794
0.385,-0.00022444182698489783,-0.7849383239999927,0.00038136840198682397,-2.356591209999979,-0.0001040211525923841,1.571057459999997,0.7864725849999817,0.03999997,0.039999966,-9.807678200000108,-0.003325151791640608,-0.010707982099846388,0.005189480789859489,-0.01199797280130395,-0.0036496164399011273
0.3875,-0.00023379151748452367,-0.7849427699999926,0.00038952562998649753,-2.3566041249999787,-0.00010873613049219542,1.5710593499999967,0.7864838874999813,0.03999997,0.039999966,-9.807611000000112,-0.003421379253108917,-0.010803082249842583,0.005276470424856008,-0.012012633029347158,-0.0037108281998986777
0.39,-0.00024314120798414954,-0.7849472159999925,0.0003976828579861711,-2.356617039999978,-0.00011345110839200674,1.5710612399999968,0.7864951899999808,0.03999997,0.039999966,-9.807543800000113,-0.0035176067145772263,-0.010898182399838778,0.005363460059852528,-0.012027293257390366,-0.003772039959896228
0.3925,-0.0002524908984837754,-0.7849516619999923,0.00040584008598584467,-2.3566299549999776,-0.00011816608629181806,1.5710631299999966,0.7865064924999804,0.03999997,0.039999966,-9.807476600000117,-0.0036138341760455356,-0.010993282549834971,0.005450449694849047,-0.012041953485433575,-0.003833251719893779
0.395,-0.0002618405889834012,-0.7849561079999922,0.0004139973139855183,-2.3566428699999773,-0.00012288106419162937,1.5710650199999965,0.78651779499998,0.03999997,0.039999966,-9.80740940000012,-0.003710061637513845,-0.011088382699831166,0.005537439329845566,-0.012056613713476784,-0.0038944634798913293
0.3975,-0.0002711902794830271,-0.784960553999992,0.00042215454198519186,-2.3566557849999765,-0.0001275960420914407,1.5710669099999965,0.7865290974999795,0.03999997,0.039999966,-9.807342200000122,-0.003806289098982154,-0.011183482849827361,0.005624428964842085,-0.012071273941519993,-0.00395567523988888
0.4,-0.0002805399699826529,-0.7849649999999918,0.0004303117699848654,-2.356668699999976,-0.000132311019991252,1.5710687999999964,0.786540399999979,0.03999997,0.039999966,-9.807275000000125,-0.0039025165604504634,-0.011278582999823554,0.0057114185998386035,-0.0120859341695632,-0.0040168869998864305
0.4025,-0.00029089228448037844,-0.7849703999999897,0.00043934473848287916,-2.3566822449999743,-0.0001375319934901043,1.5710712149999955,0.7865529099999763,0.03999997,0.039999966,-9.807167750000204,-0.0040087294879218765,-0.011357988949849495,0.005803417184825629,-0.012098695756843268,-0.004081620294877306
0.405,-0.0003012445989799642,-0.7849757999999896,0.0004483777069825177,-2.3566957899999736,-0.00014275296698989536,1.5710736299999952,0.7865654199999758,0.03999997,0.039999966,-9.807060500000208,-0.004114942415411816,-0.011437394899846317,0.005895415769821947,-0.012111457344119812,-0.004146353589874716
0.40750000000000003,-0.0003115969134795499,-0.7849811999999893,0.0004574106754821562,-2.356709334999973,-0.00014797394048968643,1.5710760449999952,0.7865779299999753,0.03999997,0.039999966,-9.806953250000213,-0.0042211553429017555,-0.011516800849843141,0.005987414354818265,-0.012124218931396357,-0.004211086884872125
0.41000000000000003,-0.00032194922797913565,-0.7849865999999891,0.00046644364398179474,-2.356722879999973,-0.0001531949139894775,1.5710784599999952,0.7865904399999748,0.03999997,0.039999966,-9.806846000000215,-0.004327368270391695,-0.011596206799839963,0.006079412939814584,-0.0121369805186729,-0.004275820179869535
0.41250000000000003,-0.0003323015424787214,-0.7849919999999889,0.00047547661248143326,-2.3567364249999723,-0.00015841588748926856,1.571080874999995,0.7866029499999743,0.03999997,0.039999966,-9.80673875000022,-0.004433581197881635,-0.011675612749836785,0.006171411524810902,-0.012149742105949445,-0.004340553474866945
0.41500000000000004,-0.0003426538569783071,-0.7849973999999886,0.0004845095809810718,-2.3567499699999717,-0.00016363686098905963,1.571083289999995,0.7866154599999737,0.03999997,0.039999966,-9.806631500000224,-0.004539794125371575,-0.011755018699833607,0.006263410109807221,-0.012162503693225989,-0.004405286769864354
0.4175,-0.0003533584659758432,-0.7850031249999865,0.0004938502719789199,-2.3567638999999687,-0.0001690355999878164,1.5710857099999949,0.7866283949999708,0.03999997,0.0399999657,-9.806510350000314,-0.004649318195633477,-0.01183811044980846,0.006357103999794442,-0.012173488084211044,-0.004471148584855771
0.42,-0.0003647676639760092,-0.7850094999999866,0.0005038064079790647,-2.356778599999969,-0.00017478986998790014,1.571088139999995,0.786642179999971,0.03999997,0.0399999648,-9.806361400000313,-0.0047654645515025525,-0.011928573799809777,0.0064541884997958545,-0.012180918082579177,-0.004539267439856763
0.4225,-0.00037617686197617526,-0.7850158749999867,0.0005137625439792095,-2.3567932999999694,-0.0001805441399879839,1.5710905699999949,0.7866559649999713,0.03999997,0.0399999639,-9.806212450000311,-0.004881610907371627,-0.012019037149811094,0.006551272999797268,-0.01218834808094731,-0.004607386294857754
0.425,-0.0003875860599763413,-0.7850222499999867,0.0005237186799793545,-2.3568079999999694,-0.00018629840998806764,1.571092999999995,0.7866697499999714,0.03999997,0.039999963,-9.806063500000308,-0.004997757263240703,-0.01210950049981241,0.0066483574997986804,-0.012195778079315442,-0.004675505149858745
0.4275,-0.0003989952579765073,-0.7850286249999868,0.0005336748159794993,-2.3568226999999697,-0.00019205267998815138,1.5710954299999949,0.7866835349999716,0.03999997,0.0399999621,-9.805914550000306,-0.005113903619109778,-0.012199963849813728,0.006745441999800093,-0.012203208077683575,-0.004743624004859737
0.43,-0.00041040445597667337,-0.7850349999999869,0.0005436309519796442,-2.35683739999997,-0.00019780694998823513,1.571097859999995,0.7866973199999718,0.03999997,0.0399999612,-9.805765600000305,-0.005230049974978853,-0.012290427199815044,0.0068425264998015056,-0.01221063807605171,-0.0048117428598607286
0.4325,-0.0004218136539768394,-0.785041374999987,0.0005535870879797891,-2.3568520999999705,-0.00020356121998831887,1.571100289999995,0.786711104999972,0.03999997,0.039999960300000005,-9.805616650000303,-0.005346196330847928,-0.012380890549816361,0.006939610999802919,-0.012218068074419842,-0.004879861714861719
0.435,-0.00043396342197453885,-0.785048419999985,0.0005641902199777793,-2.356867569999968,-0.00020968936098715747,1.571103059999994,0.7867257839999693,0.03999997,0.0399999606,-9.805522900000135,-0.005471136234437586,-0.012452324899874079,0.007039976449792557,-0.012224932480590004,-0.004950481029853844
0.4375,-0.00044648347497437945,-0.7850557999999849,0.0005751168499776401,-2.3568834249999675,-0.00021600443748707708,1.571105999999994,0.786740909999969,0.03999997,0.0399999615,-9.805456750000134,-0.005600472911927605,-0.01251424474987329,0.007141982374791259,-0.012231514090658606,-0.005022350574852929
0.44,-0.00045900352797422004,-0.7850631799999848,0.000586043479977501,-2.3568992799999675,-0.00022231951398699667,1.571108939999994,0.7867560359999689,0.03999997,0.0399999624,-9.805390600000136,-0.005729809589417623,-0.012576164599872501,0.00724398829978996,-0.012238095700727208,-0.005094220119852014
0.4425,-0.00047152358097406064,-0.7850705599999847,0.0005969701099773619,-2.356915134999967,-0.00022863459048691627,1.571111879999994,0.7867711619999687,0.03999997,0.0399999633,-9.805324450000137,-0.005859146266907642,-0.012638084449871712,0.007345994224788661,-0.012244677310795808,-0.005166089664851099
0.445,-0.00048404363397390124,-0.7850779399999847,0.0006078967399772227,-2.356930989999967,-0.00023494966698683586,1.5711148199999938,0.7867862879999685,0.03999997,0.039999964199999995,-9.805258300000137,-0.00598848294439766,-0.012700004299870924,0.007448000149787362,-0.01225125892086441,-0.0052379592098501845
0.4475,-0.0004965636869737418,-0.7850853199999845,0.0006188233699770837,-2.3569468449999667,-0.00024126474348675546,1.571117759999994,0.7868014139999683,0.03999997,0.0399999651,-9.805192150000138,-0.006117819621887678,-0.012761924149870136,0.007550006074786063,-0.012257840530933012,-0.005309828754849269
0.45,-0.0005090837399735824,-0.7850926999999844,0.0006297499999769445,-2.3569626999999667,-0.00024757981998667507,1.5711206999999938,0.7868165399999681,0.03999997,0.039999966,-9.80512600000014,-0.0062471562993776965,-0.012823843999869347,0.007652011999784765,-0.012264422141001612,-0.005381698299848354
0.4525,-0.0005227682789709511,-0.7851010849999822,0.0006416939899746458,-2.356979724999964,-0.00025448242698534746,1.5711237149999937,0.7868330894999649,0.03999997,0.0399999651,-9.80502205000022,-0.006387765099927267,-0.012921220549793293,0.0077590150997728586,-0.012267945753402945,-0.00545678450484061
0.455,-0.0005364528179707768,-0.7851094699999821,0.0006536379799744938,-2.3569967499999636,-0.0002613850339852596,1.5711267299999936,0.7868496389999646,0.03999997,0.0399999642,-9.804918100000222,-0.006528373900500622,-0.013018597099792053,0.007866018199771497,-0.012271469365797826,-0.005531870709839654
0.4575,-0.0005501373569706026,-0.785117854999982,0.0006655819699743417,-2.357013774999963,-0.0002682876409851717,1.5711297449999935,0.7868661884999645,0.03999997,0.039999963300000003,-9.804814150000222,-0.006668982701073976,-0.013115973649790813,0.007973021299770134,-0.012274992978192706,-0.0056069569148386985
0.46,-0.0005638218959704284,-0.7851262399999819,0.0006775259599741897,-2.357030799999963,-0.00027519024798508383,1.5711327599999936,0.7868827379999642,0.03999997,0.0399999624,-9.804710200000224,-0.006809591501647332,-0.013213350199789574,0.008080024399768772,-0.012278516590587586,-0.0056820431198377425
0.4625,-0.0005775064349702541,-0.7851346249999818,0.0006894699499740375,-2.3570478249999627,-0.00028209285498499595,1.5711357749999935,0.786899287499964,0.03999997,0.0399999615,-9.804606250000225,-0.006950200302220686,-0.013310726749788334,0.00818702749976741,-0.012282040202982467,-0.0057571293248367865
0.465,-0.0005911909739700799,-0.7851430099999817,0.0007014139399738855,-2.3570648499999627,-0.000288995461984908,1.5711387899999933,0.7869158369999638,0.03999997,0.0399999606,-9.804502300000227,-0.007090809102794041,-0.013408103299787094,0.008294030599766047,-0.012285563815377347,-0.0058322155298358306
0.4675,-0.0006052814099672279,-0.7851517549999791,0.0007137125599713938,-2.3570822999999597,-0.0002961029449834685,1.5711419349999924,0.7869328764999604,0.03999997,0.03999996,-9.80440557500018,-0.0072360920250740335,-0.013498939049829007,0.008402656949753977,-0.012288761604571647,-0.005908493684827011
0.47000000000000003,-0.0006201836399670381,-0.785161219999979,0.0007267204399712282,-2.3571005999999595,-0.00030362017998337277,1.5711453399999924,0.7869508959999602,0.03999997,0.03999996,-9.804323300000181,-0.007390723190859635,-0.013576693199828018,0.008514529799752552,-0.012291307747358348,-0.0059871557398260096
0.47250000000000003,-0.0006350858699668483,-0.7851706849999789,0.0007397283199710625,-2.3571188999999593,-0.0003111374149832771,1.5711487449999924,0.7869689154999598,0.03999997,0.03999996,-9.804241025000183,-0.007545354356645236,-0.013654447349827027,0.008626402649751128,-0.012293853890145052,-0.006065817794825007
0.47500000000000003,-0.0006499880999666586,-0.7851801499999788,0.0007527361999708969,-2.357137199999959,-0.00031865464998318135,1.5711521499999923,0.7869869349999596,0.03999997,0.03999996,-9.804158750000184,-0.007699985522430837,-0.013732201499826038,0.008738275499749704,-0.012296400032931754,-0.006144479849824006
0.47750000000000004,-0.0006648903299664689,-0.7851896149999786,0.0007657440799707313,-2.357155499999959,-0.00032617188498308567,1.5711555549999923,0.7870049544999594,0.03999997,0.03999996,-9.804076475000185,-0.007854616688216439,-0.013809955649825047,0.008850148349748278,-0.012298946175718457,-0.0062231419048230045
0.48,-0.0006797925599662789,-0.7851990799999785,0.0007787519599705653,-2.3571737999999587,-0.00033368911998298977,1.5711589599999922,0.7870229739999592,0.03999997,0.03999996,-9.803994200000187,-0.008009247854002036,-0.013887709799824056,0.008962021199746852,-0.012301492318505159,-0.006301803959822001
0.4825,-0.0006946947899660891,-0.7852085449999784,0.0007917598399703997,-2.3571920999999585,-0.0003412063549828941,1.5711623649999922,0.787040993499959,0.03999997,0.03999996,-9.803911925000188,-0.008163879019787637,-0.013965463949823065,0.009073894049745427,-0.012304038461291862,-0.006380466014820999
0.485,-0.0007104439639629923,-0.7852187399999758,0.0008055077999676939,-2.357211649999954,-0.0003491510239813312,1.5711658899999916,0.7870600399999553,0.03999997,0.03999996,-9.803824650000205,-0.008326755184298018,-0.01404525899981507,0.009189006499732883,-0.012304903101175876,-0.00646140882981217
0.4875,-0.0007266166099627864,-0.7852292999999757,0.0008196257999675141,-2.3572318249999538,-0.00035730940998122734,1.5711694749999916,0.787079599999955,0.03999997,0.03999996,-9.803734875000208,-0.008493753848213081,-0.014126074499814041,0.009305738749731396,-0.01230492698959992,-0.006543492024811124
0.49,-0.0007427892559625804,-0.7852398599999756,0.0008337437999673344,-2.3572519999999533,-0.0003654677959811235,1.5711730599999916,0.7870991599999548,0.03999997,0.03999996,-9.803645100000209,-0.008660752512128146,-0.014206889999813012,0.00942247099972991,-0.012304950878023965,-0.006625575219810079
0.4925,-0.0007589619019623745,-0.7852504199999754,0.0008478617999671546,-2.3572721749999532,-0.0003736261819810196,1.5711766449999915,0.7871187199999545,0.03999997,0.03999996,-9.80355532500021,-0.00882775117604321,-0.014287705499811983,0.009539203249728423,-0.012304974766448009,-0.006707658414809034
0.495,-0.0007751345479621686,-0.7852609799999752,0.0008619797999669748,-2.3572923499999527,-0.0003817845679809157,1.5711802299999915,0.7871382799999542,0.03999997,0.03999996,-9.80346555000021,-0.008994749839958273,-0.014368520999810954,0.009655935499726938,-0.012304998654872053,-0.006789741609807989
0.4975,-0.0007913071939619626,-0.7852715399999751,0.0008760977999667951,-2.3573125249999527,-0.00038994295398081183,1.5711838149999915,0.787157839999954,0.03999997,0.03999996,-9.80337577500021,-0.009161748503873338,-0.014449336499809924,0.00977266774972545,-0.012305022543296098,-0.006871824804806944
0.5,-0.0008074798399617567,-0.785282099999975,0.0008902157999666154,-2.3573326999999527,-0.00039810133998070796,1.5711873999999915,0.7871773999999537,0.03999997,0.03999996,-9.803286000000213,-0.009328747167788401,-0.014530151999808895,0.009889399999723965,-0.012305046431720142,-0.006953907999805899
0.5025000000000001,-0.0008249751499579294,-0.785293754999972,0.0009054895499632715,-2.3573541199999486,-0.0004069272349787765,1.5711914049999902,0.7871985499999492,0.03999997,0.03999996,-9.803292899999983,-0.009510369738127116,-0.014591450549852596,0.010010992999707606,-0.012306433636691748,-0.007039372554794485
0.505,-0.0008424704599572289,-0.7853054099999716,0.00092076329996266,-2.3573755399999476,-0.00041575312997842314,1.57119540999999,0.7872196999999483,0.03999997,0.03999996,-9.803299799999984,-0.009691992308500404,-0.014652749099850142,0.010132585999702739,-0.012307820841666579,-0.007124837109791063
0.5075000000000001,-0.0008599657699565292,-0.785317064999971,0.0009360370499620492,-2.3573969599999467,-0.0004245790249780702,1.57119941499999,0.7872408499999475,0.03999997,0.03999996,-9.803306699999982,-0.0098736148788737,-0.01471404764984769,0.010254178999697876,-0.012309208046641408,-0.007210301664787645
0.51,-0.0008774610799558286,-0.7853287199999706,0.0009513107999614376,-2.357418379999946,-0.0004334049199777168,1.5712034199999898,0.7872619999999466,0.03999997,0.03999996,-9.803313599999981,-0.010055237449246988,-0.014775346199845236,0.010375771999693008,-0.012310595251616237,-0.007295766219784223
0.5125,-0.0008949563899551281,-0.7853403749999701,0.000966584549960826,-2.3574397999999452,-0.0004422308149773634,1.5712074249999897,0.7872831499999458,0.03999997,0.03999996,-9.803320499999982,-0.010236860019620276,-0.014836644749842783,0.010497364999688138,-0.012311982456591068,-0.007381230774780801
0.515,-0.0009124516999544284,-0.7853520299999697,0.0009818582999602153,-2.3574612199999443,-0.0004510567099770104,1.5712114299999895,0.7873042999999449,0.03999997,0.03999996,-9.803327399999981,-0.010418482589993571,-0.014897943299840332,0.010618957999683275,-0.012313369661565897,-0.007466695329777383
0.5175,-0.0009304050779504366,-0.7853640674999665,0.0009975323599567272,-2.3574830749999403,-0.00046011379447499583,1.571215489999989,0.7873260049999401,0.03999997,0.03999996,-9.803292000000315,-0.01060512405768522,-0.014973092549729849,0.010742136949668121,-0.012313765753064662,-0.007553277614766708
0.52,-0.0009492745919507117,-0.7853768699999666,0.0010140070399569671,-2.3575057999999407,-0.0004696332579751346,1.571219659999989,0.7873488199999403,0.03999997,0.03999996,-9.803172000000313,-0.010801803320132461,-0.01507594319973135,0.010868487799669964,-0.012312179617587822,-0.0076420953597680025
0.5225,-0.0009681441059509858,-0.7853896724999668,0.0010304817199572067,-2.357528524999941,-0.0004791527214752729,1.5712238299999892,0.7873716349999407,0.03999997,0.03999996,-9.803052000000312,-0.010998482582579695,-0.015178793849732843,0.010994838649671799,-0.012310593482110985,-0.007730913104769293
0.525,-0.0009870136199512608,-0.785402474999967,0.0010469563999574466,-2.357551249999941,-0.0004886721849754116,1.5712279999999892,0.787394449999941,0.03999997,0.03999996,-9.80293200000031,-0.011195161845026936,-0.015281644499734341,0.011121189499673641,-0.012309007346634147,-0.007819730849770588
0.5275,-0.0010058831339515351,-0.7854152774999672,0.001063431079957686,-2.3575739749999416,-0.00049819164847555,1.5712321699999892,0.7874172649999414,0.03999997,0.03999996,-9.802812000000307,-0.011391841107474168,-0.015384495149735836,0.011247540349675476,-0.012307421211157308,-0.007908548594771877
0.53,-0.0010247526479518101,-0.7854280799999673,0.0010799057599579262,-2.357596699999942,-0.0005077111119756887,1.5712363399999894,0.7874400799999417,0.03999997,0.03999996,-9.802692000000306,-0.01158852036992141,-0.015487345799737335,0.011373891199677319,-0.01230583507568047,-0.007997366339773172
0.5325,-0.0010436221619520842,-0.7854408824999676,0.0010963804399581655,-2.357619424999942,-0.0005172305754758271,1.5712405099999893,0.787462894999942,0.03999997,0.03999996,-9.802572000000303,-0.011785199632368643,-0.015590196449738828,0.011500242049679156,-0.012304248940203632,-0.008086184084774463
0.535,-0.0010634418099483918,-0.7854544749999645,0.0011136854999549387,-2.3576431299999383,-0.0005272295209739637,1.5712449999999882,0.7874868629999375,0.03999997,0.03999996,-9.802468800000241,-0.01199199762141466,-0.01567693439979992,0.011629761799666611,-0.012301579583444404,-0.008177213499765705
0.5375,-0.001083736524948133,-0.7854684624999643,0.0011314057499547125,-2.3576673249999383,-0.0005374682074738331,1.5712496499999882,0.7875114074999372,0.03999997,0.03999996,-9.802374000000242,-0.012203854973817757,-0.015755615999798914,0.011760865999664938,-0.012298368616037806,-0.008269348749764531
0.54,-0.001104031239947875,-0.7854824499999641,0.0011491259999544872,-2.3576915199999378,-0.000547706893973703,1.5712542999999881,0.787535951999937,0.03999997,0.03999996,-9.802279200000243,-0.012415712326220865,-0.015834297599797913,0.011891970199663272,-0.012295157648631207,-0.00836148399976336
0.5425,-0.0011243259549476162,-0.7854964374999639,0.0011668462499542613,-2.3577157149999377,-0.0005579455804735724,1.571258949999988,0.7875604964999366,0.03999997,0.03999996,-9.802184400000245,-0.012627569678623963,-0.015912979199796912,0.012023074399661599,-0.012291946681224608,-0.008453619249762186
0.545,-0.0011446206699473583,-0.7855104249999637,0.001184566499954036,-2.357739909999937,-0.0005681842669734423,1.571263599999988,0.7875850409999363,0.03999997,0.03999996,-9.802089600000246,-0.01283942703102707,-0.01599166079979591,0.012154178599659933,-0.012288735713818008,-0.008545754499761015
0.5475,-0.0011649153849470995,-0.7855244124999635,0.00120228674995381,-2.357764104999937,-0.0005784229534733117,1.571268249999988,0.7876095854999361,0.03999997,0.03999996,-9.801994800000246,-0.01305128438343017,-0.016070342399794907,0.012285282799658261,-0.01228552474641141,-0.008637889749759839
0.55,-0.0011852100999468415,-0.7855383999999633,0.0012200069999535848,-2.3577882999999367,-0.0005886616399731815,1.5712728999999879,0.7876341299999358,0.03999997,0.03999996,-9.801900000000249,-0.013263141735833275,-0.01614902399979391,0.012416386999656595,-0.01228231377900481,-0.008730024999758668
0.5525,-0.001206980319942699,-0.7855535499999601,0.0012390168299499646,-2.3578144149999316,-0.0005996450239710908,1.5712776699999875,0.7876604504999307,0.03999997,0.03999996,-9.80181615000022,-0.013489708070978214,-0.016233669899777207,0.012552148549642664,-0.012276727100848895,-0.008825435049748873
0.555,-0.0012287505399424224,-0.7855686999999599,0.0012580266599497229,-2.357840529999931,-0.0006106284079709513,1.5712824399999874,0.7876867709999305,0.03999997,0.03999996,-9.801732300000221,-0.013716274406161688,-0.01631831579977613,0.012687910099640938,-0.012271140422686755,-0.00892084509974766
0.5575,-0.0012505207599421446,-0.7855838499999597,0.0012770364899494806,-2.357866644999931,-0.0006216117919708112,1.5712872099999873,0.7877130914999301,0.03999997,0.03999996,-9.801648450000224,-0.013942840741345153,-0.01640296169977505,0.012823671649639207,-0.012265553744524616,-0.009016255149746443
0.56,-0.001272290979941868,-0.7855989999999595,0.001296046319949239,-2.35789275999993,-0.0006325951759706715,1.5712919799999874,0.7877394119999297,0.03999997,0.03999996,-9.801564600000225,-0.014169407076528629,-0.016487607599773975,0.012959433199637481,-0.012259967066362478,-0.00911166519974523
0.5625,-0.0012940611999415904,-0.7856141499999594,0.0013150561499489966,-2.35791887499993,-0.0006435785599705315,1.5712967499999873,0.7877657324999294,0.03999997,0.03999996,-9.801480750000225,-0.014395973411712094,-0.016572253499772892,0.01309519474963575,-0.012254380388200339,-0.009207075249744014
0.5650000000000001,-0.0013158314199413137,-0.7856292999999591,0.001334065979948755,-2.3579449899999294,-0.0006545619439703919,1.5713015199999871,0.787792052999929,0.03999997,0.03999996,-9.801396900000226,-0.01462253974689557,-0.016656899399771816,0.013230956299634025,-0.0122487937100382,-0.009302485299742801
0.5675,-0.0013381100299369052,-0.7856448649999556,0.001353520149944902,-2.3579715649999256,-0.0006658018799681672,1.5713064649999857,0.7878189949999237,0.03999997,0.03999996,-9.801337350000031,-0.014854702306252174,-0.016734592599827233,0.013368268349619695,-0.012243531830621317,-0.009398971749732837
0.5700000000000001,-0.0013614054199366091,-0.7856612599999554,0.0013738629999446434,-2.357999059999925,-0.0006775549199680178,1.5713117599999855,0.7878471799999233,0.03999997,0.03999996,-9.80132640000003,-0.015098057314091267,-0.01679838039982642,0.01350868139961791,-0.01223891954870285,-0.009497610999731584
0.5725,-0.001384700809936312,-0.7856776549999551,0.001394205849944384,-2.358026554999925,-0.0006893079599678679,1.5713170549999855,0.787875364999923,0.03999997,0.03999996,-9.80131545000003,-0.015341412321930347,-0.016862168199825608,0.01364909444961612,-0.012234307266784384,-0.009596250249730326
0.5750000000000001,-0.0014079961999360158,-0.785694049999955,0.0014145486999441255,-2.3580540499999243,-0.0007010609999677185,1.5713223499999855,0.7879035499999226,0.03999997,0.03999996,-9.80130450000003,-0.01558476732976944,-0.016925955999824795,0.013789507499614335,-0.012229694984865917,-0.009694889499729072
0.5775,-0.0014312915899357187,-0.7857104449999547,0.001434891549943866,-2.358081544999924,-0.0007128140399675686,1.5713276449999853,0.7879317349999222,0.03999997,0.03999996,-9.80129355000003,-0.01582812233760852,-0.016989743799823983,0.013929920549612545,-0.012225082702947452,-0.009793528749727814
0.58,-0.0014545869799354216,-0.7857268399999545,0.0014552343999436066,-2.358109039999924,-0.0007245670799674187,1.5713329399999854,0.7879599199999219,0.03999997,0.03999996,-9.80128260000003,-0.016071477345447602,-0.01705353159982317,0.014070333599610753,-0.012220470421028985,-0.009892167999726557
0.5825,-0.0014778823699351255,-0.7857432349999544,0.001475577249943348,-2.3581365349999235,-0.0007363201199672694,1.5713382349999852,0.7879881049999216,0.03999997,0.03999996,-9.80127165000003,-0.016314832353286693,-0.017117319399822358,0.014210746649608969,-0.01221585813911052,-0.009990807249725302
0.585,-0.001502227059930425,-0.7857604559999506,0.0014968372999392395,-2.3581653699999174,-0.0007486028199648968,1.5713437499999843,0.788017539999916,0.0399999703,0.039999960599999995,-9.801182900000358,-0.01657043993399826,-0.01720847229970671,0.01435411419959478,-0.012209041975460732,-0.010091574699715115
0.5875,-0.001527096399930109,-0.7857780899999505,0.0015185559499389634,-2.358194874999917,-0.0007611503499647374,1.5713493749999843,0.7880475999999156,0.03999997075,0.0399999615,-9.801055250000358,-0.016832173801222965,-0.017313307749705378,0.014498958999592939,-0.012201123870931451,-0.01019340624971382
0.59,-0.001551965739929792,-0.7857957239999502,0.0015402745999386865,-2.3582243799999167,-0.0007736978799645773,1.571354999999984,0.7880776599999152,0.0399999712,0.0399999624,-9.80092760000036,-0.017093907668447664,-0.017418143199704042,0.014643803799591092,-0.012193205766402173,-0.01029523779971252
0.5925,-0.0015768350799294758,-0.78581335799995,0.0015619932499384105,-2.3582538849999164,-0.0007862454099644179,1.571360624999984,0.7881077199999148,0.03999997165,0.0399999633,-9.800799950000362,-0.017355641535672373,-0.017522978649702706,0.01478864859958925,-0.012185287661872895,-0.010397069349711227
0.595,-0.0016017044199291585,-0.7858309919999498,0.0015837118999381334,-2.358283389999916,-0.0007987929399642578,1.571366249999984,0.7881377799999144,0.0399999721,0.039999964199999995,-9.800672300000363,-0.017617375402897067,-0.01762781409970137,0.014933493399587402,-0.012177369557343614,-0.010498900899709928
0.5975,-0.0016265737599288426,-0.7858486259999495,0.0016054305499378573,-2.3583128949999157,-0.0008113404699640984,1.5713718749999839,0.788167839999914,0.03999997255,0.03999996509999999,-9.800544650000365,-0.017879109270121776,-0.01773264954970004,0.015078338199585562,-0.012169451452814336,-0.010600732449708633
0.6,-0.0016514430999285254,-0.7858662599999494,0.0016271491999375802,-2.3583423999999154,-0.0008238879999639383,1.5713774999999839,0.7881978999999136,0.039999973,0.039999966,-9.800417000000367,-0.01814084313734647,-0.017837484999698703,0.015223182999583714,-0.012161533348285056,-0.010702563999707334
0.6025,-0.0016779345399235267,-0.7858851869999454,0.0016502857849332111,-2.3583734499999105,-0.000837254379961415,1.571383409999983,0.7882299249999075,0.039999973,0.039999967049999995,-9.800387000000086,-0.018420899006660958,-0.017924266299749487,0.015372693549568404,-0.012153849238551962,-0.010807945749695791
0.605,-0.0017044259799231887,-0.7859041139999452,0.001673422369932916,-2.35840449999991,-0.0008506207599612445,1.5713893199999829,0.7882619499999072,0.039999973,0.0399999681,-9.800357000000087,-0.018700954876028082,-0.01801104759974838,0.015522204099566497,-0.01214616512881954,-0.010913327499694448
0.6075,-0.001730917419922852,-0.7859230409999449,0.001696558954932622,-2.3584355499999097,-0.0008639871399610746,1.571395229999983,0.7882939749999067,0.039999973,0.039999969149999995,-9.800327000000086,-0.018981010745395224,-0.018097828899747277,0.015671714649564596,-0.012138481019087117,-0.011018709249693108
0.61,-0.001757408859922514,-0.7859419679999446,0.001719695539932327,-2.3584665999999093,-0.0008773535199609042,1.5714011399999828,0.7883259999999063,0.039999973,0.0399999702,-9.800297000000088,-0.019261066614762352,-0.01818461019974617,0.01582122519956269,-0.012130796909354695,-0.011124090999691765
0.6125,-0.0017839002999221773,-0.7859608949999444,0.0017428321249320327,-2.358497649999909,-0.0008907198999607343,1.5714070499999826,0.7883580249999059,0.039999973,0.039999971249999995,-9.800267000000089,-0.019541122484129494,-0.01827139149974507,0.015970735749560788,-0.012123112799622273,-0.011229472749690425
0.615,-0.0018103917399218395,-0.7859798219999442,0.0017659687099317377,-2.3585286999999084,-0.0009040862799605638,1.5714129599999827,0.7883900499999055,0.039999973,0.0399999723,-9.800237000000088,-0.019821178353496623,-0.01835817279974396,0.016120246299558882,-0.012115428689889851,-0.011334854499689082
0.6175,-0.001837439654916556,-0.78599919649994,0.0017895916949271199,-2.3585604149999018,-0.0009177333049578991,1.571419029999981,0.7884227499998991,0.039999973,0.03999997265000001,-9.80019225000022,-0.02010457320052859,-0.018438052949804204,0.016271208949544074,-0.012107141222832832,-0.011440997399680975
0.62,-0.001865600519916197,-0.7860194659999397,0.0018141874799268063,-2.3585934599999017,-0.0009319416199577179,1.571425419999981,0.7884567999998987,0.039999973,0.0399999716,-9.800118000000221,-0.02039464600297912,-0.018504130799803363,0.01642507579954211,-0.012097647041110554,-0.011548662599679602
0.6225,-0.001893761384915839,-0.7860397354999394,0.0018387832649264936,-2.358626504999901,-0.0009461499349575373,1.5714318099999809,0.7884908499998983,0.039999973,0.03999997055000001,-9.800043750000222,-0.020684718805429665,-0.018570208649802522,0.016578942649540157,-0.012088152859388275,-0.011656327799678234
0.625,-0.00192192224991548,-0.7860600049999392,0.0018633790499261798,-2.3586595499999006,-0.000960358249957356,1.571438199999981,0.7885248999998978,0.039999973,0.0399999695,-9.799969500000222,-0.020974791607880194,-0.018636286499801678,0.016732809499538193,-0.012078658677665995,-0.011763992999676861
0.6275000000000001,-0.001950083114915122,-0.7860802744999389,0.0018879748349258673,-2.3586925949999,-0.0009745665649571755,1.5714445899999807,0.7885589499998974,0.039999973,0.03999996845,-9.799895250000223,-0.021264864410330736,-0.018702364349800837,0.016886676349536237,-0.012069164495943717,-0.011871658199675493
0.63,-0.001978243979914763,-0.7861005439999387,0.0019125706199255535,-2.3587256399999,-0.0009887748799569942,1.5714509799999807,0.7885929999998968,0.039999973,0.0399999674,-9.799821000000223,-0.021554937212781268,-0.018768442199799996,0.017040543199534276,-0.012059670314221439,-0.01197932339967412
0.6325000000000001,-0.0020064048449144048,-0.7861208134999383,0.0019371664049252408,-2.3587586849998994,-0.0010029831949568135,1.5714573699999805,0.7886270499998964,0.039999973,0.03999996635,-9.799746750000224,-0.02184501001523181,-0.018834520049799155,0.01719441004953232,-0.012050176132499158,-0.012086988599672752
0.635,-0.0020357095299082654,-0.7861419729999337,0.001962762199919874,-2.3587929899998925,-0.001017769049953714,1.5714640199999792,0.788662475999889,0.039999973,0.039999966399999996,-9.799671100000234,-0.022154908067496107,-0.018925989399680165,0.017351122099514456,-0.012039854936334601,-0.012197126299658032
0.6375000000000001,-0.0020655861249070707,-0.7861635774999328,0.00198885799991883,-2.358827924999891,-0.001032843674953111,1.5714707999999789,0.7886985899998876,0.039999973,0.039999967,-9.799594750000237,-0.02247471874480307,-0.019030154499676,0.01750925674950813,-0.01202912023294324,-0.012308500249653577
0.64,-0.0020954627199058743,-0.7861851819999319,0.0020149537999177855,-2.3588628599998898,-0.0010479182999525076,1.5714775799999787,0.7887347039998862,0.039999973,0.0399999676,-9.79951840000024,-0.02279452942211002,-0.019134319599671826,0.017667391399501797,-0.01201838552955188,-0.012419874199649118
0.6425,-0.002125339314904678,-0.786206786499931,0.0020410495999167405,-2.3588977949998884,-0.001062992924951904,1.5714843599999784,0.7887708179998848,0.039999973,0.0399999682,-9.799442050000243,-0.023114340099416972,-0.019238484699667657,0.017825526049495468,-0.01200765082616052,-0.01253124814964466
0.645,-0.002155215909903483,-0.7862283909999301,0.0020671453999156967,-2.358932729999887,-0.0010780675499513011,1.571491139999978,0.7888069319998834,0.039999973,0.0399999688,-9.799365700000246,-0.023434150776723936,-0.01934264979966349,0.017983660699489142,-0.01199691612276916,-0.012642622099640205
0.6475,-0.0021850925049022867,-0.7862499954999294,0.002093241199914652,-2.358967664999886,-0.0010931421749506977,1.571497919999978,0.7888430459998819,0.039999973,0.0399999694,-9.79928935000025,-0.023753961454030886,-0.019446814899659323,0.01814179534948281,-0.011986181419377798,-0.012753996049635745
0.65,-0.002214969099901092,-0.7862715999999285,0.0021193369999136084,-2.3590025999998847,-0.0011082167999500946,1.5715046999999776,0.7888791599998805,0.039999973,0.03999997,-9.799213000000252,-0.02407377213133785,-0.019550979999655153,0.018299929999476487,-0.011975446715986438,-0.01286536999963129
0.6525,-0.0022466070548957206,-0.7862945649999242,0.0021469725799089126,-2.3590394699998787,-0.0011241801149473845,1.5715117799999767,0.788917400999874,0.039999973,0.0399999694,-9.799152850000198,-0.02440652949625836,-0.0196404204997052,0.01846244359946435,-0.011963864183091491,-0.012979349149624321
0.655,-0.0022782450098961815,-0.7863175299999247,0.002174608159909315,-2.359076339999879,-0.0011401434299476172,1.5715188599999768,0.7889556419998746,0.039999973,0.0399999688,-9.799092700000198,-0.024739286861221746,-0.019729860999706503,0.01862495719946672,-0.011952281650193738,-0.013093328299625983
0.6575,-0.0023098829648966414,-0.786340494999925,0.002202243739909717,-2.3591132099998795,-0.0011561067449478491,1.5715259399999768,0.788993882999875,0.039999973,0.0399999682,-9.799032550000197,-0.025072044226185117,-0.019819301499707804,0.018787470799469082,-0.011940699117295984,-0.013207307449627639
0.66,-0.0023415209198971026,-0.7863634599999253,0.00222987931991012,-2.35915007999988,-0.0011720700599480818,1.5715330199999769,0.7890321239998757,0.039999973,0.0399999676,-9.798972400000196,-0.0254048015911485,-0.019908741999709108,0.01894998439947145,-0.01192911658439823,-0.013321286599629301
0.6625,-0.002373158874897562,-0.7863864249999256,0.0022575148999105215,-2.3591869499998803,-0.0011880333749483137,1.5715400999999771,0.7890703649998762,0.039999973,0.039999967000000004,-9.798912250000194,-0.02573755895611187,-0.019998182499710408,0.019112497999473812,-0.011917534051500476,-0.013435265749630956
0.665,-0.0024047968298980234,-0.7864093899999259,0.002285150479910924,-2.359223819999881,-0.0012039966899485464,1.5715471799999772,0.7891086059998766,0.039999973,0.0399999664,-9.798852100000193,-0.026070316321075256,-0.020087622999711712,0.01927501159947618,-0.011905951518602723,-0.013549244899632619
0.6675,-0.0024370368448923835,-0.7864328249999215,0.0023133123999059934,-2.359261404999874,-0.0012202639249456993,1.5715544299999755,0.7891475799998698,0.039999973,0.03999996669999999,-9.79879020000021,-0.026411283015054812,-0.02017673824971534,0.019438923149463567,-0.011894103093112587,-0.013664468499621225
0.67,-0.0024704809798919585,-0.7864571999999213,0.002342526999905622,-2.3593004199998737,-0.001237138999945485,1.5715620199999756,0.7891880199998693,0.039999973,0.039999968799999994,-9.798724800000212,-0.026768668367304186,-0.020265202999714214,0.019605630599461448,-0.011881722882429994,-0.013782180999619729
0.6725,-0.0025039251148915318,-0.786481574999921,0.0023717415999052497,-2.3593394349998733,-0.0012540140749452697,1.5715696099999754,0.7892284599998688,0.039999973,0.039999970899999994,-9.798659400000211,-0.027126053719553542,-0.020353667749713086,0.019772338049459322,-0.011869342671747402,-0.013899893499618227
0.675,-0.0025373692498911068,-0.7865059499999206,0.0024009561999048783,-2.359378449999873,-0.0012708891499450552,1.5715771999999752,0.7892688999998684,0.039999973,0.039999972999999994,-9.798594000000213,-0.027483439071802913,-0.02044213249971196,0.019939045499457204,-0.011856962461064808,-0.014017605999616732
0.6775,-0.00257081338489068,-0.7865303249999204,0.0024301707999045056,-2.3594174649998725,-0.00128776422494484,1.5715847899999753,0.7893093399998679,0.039999973,0.03999997509999999,-9.798528600000214,-0.027840824424052273,-0.020530597249710833,0.020105752949455078,-0.011844582250382216,-0.01413531849961523
0.68,-0.002604257519890255,-0.78655469999992,0.0024593853999041342,-2.359456479999872,-0.0013046392999446256,1.5715923799999751,0.7893497799998673,0.039999973,0.03999997719999999,-9.798463200000214,-0.028198209776301643,-0.02061906199970971,0.02027246039945296,-0.011832202039699624,-0.014253030999613734
0.6825,-0.0026377016548898282,-0.7865790749999197,0.0024885999999037615,-2.3594954949998717,-0.0013215143749444104,1.571599969999975,0.7893902199998668,0.039999973,0.03999997929999999,-9.798397800000215,-0.028555595128551,-0.02070752674970858,0.020439167849450834,-0.011819821829017032,-0.014370743499612234
0.685,-0.0026723791298839277,-0.7866044059999151,0.002518892839898603,-2.359535799999865,-0.0013390116499414335,1.5716078299999736,0.7894321399998597,0.0399999734,0.039999979000000005,-9.79836560000005,-0.028917833230190225,-0.0207863150997568,0.02060859099943835,-0.011807096283925247,-0.014489506899607693
0.6875,-0.0027076732748844406,-0.7866302149999155,0.002549724799899051,-2.359576749999866,-0.0013568200249416923,1.5716158249999739,0.7894747999998604,0.039999974,0.039999977500000006,-9.79835000000005,-0.029282497706560374,-0.020860265249757873,0.02077937199944083,-0.011794198071626306,-0.014608795749609427
0.6900000000000001,-0.0027429674198849547,-0.7866560239999159,0.0025805567598995,-2.3596176999998666,-0.0013746283999419519,1.571623819999974,0.789517459999861,0.0399999746,0.039999976000000007,-9.798334400000051,-0.02964716218293054,-0.020934215399758954,0.02095015299944332,-0.011781299859327363,-0.014728084599611165
0.6925,-0.0027782615648854676,-0.7866818329999162,0.002611388719899948,-2.3596586499998673,-0.0013924367749422106,1.5716318149999742,0.7895601199998615,0.039999975199999996,0.03999997450000001,-9.79831880000005,-0.03001182665930069,-0.021008165549760028,0.021120933999445802,-0.011768401647028422,-0.0148473734496129
0.6950000000000001,-0.002813555709885982,-0.7867076419999166,0.0026422206799003975,-2.3596995999998676,-0.00141024514994247,1.5716398099999742,0.7896027799998622,0.0399999758,0.03999997300000001,-9.798303200000051,-0.03037649113567085,-0.021082115699761105,0.02129171499944829,-0.011755503434729479,-0.014966662299614637
0.6975,-0.002848849854886495,-0.786733450999917,0.0026730526399008454,-2.3597405499998683,-0.001428053524942729,1.5716478049999743,0.7896454399998628,0.0399999764,0.03999997150000001,-9.79828760000005,-0.030741155612041,-0.02115606584976218,0.021462495999450774,-0.011742605222430536,-0.015085951149616372
0.7000000000000001,-0.0028841439998870096,-0.7867592599999174,0.0027038845999012946,-2.359781499999869,-0.0014458618999429883,1.5716557999999745,0.7896880999998634,0.039999977,0.03999997000000001,-9.79827200000005,-0.031105820088411167,-0.021230015999763256,0.021633276999453263,-0.011729707010131592,-0.01520523999961811
0.7025,-0.0029213310398794605,-0.7867865209999116,0.0027363715998946956,-2.35982459499986,-0.0014646246649391817,1.5716642149999727,0.7897330849998542,0.039999977,0.039999974499999986,-9.798162050000357,-0.03151021953541085,-0.02134117964963967,0.021808121799433252,-0.011714964360046444,-0.015328932999599058
0.705,-0.0029585180798779717,-0.7868137819999105,0.002768858599893395,-2.3598676899998585,-0.0014833874299384304,1.5716726299999724,0.7897780699998523,0.039999977,0.039999978999999984,-9.798052100000362,-0.03191461898253774,-0.02145234329963522,0.02198296659942625,-0.011700221709955388,-0.015452625999594105
0.7075,-0.0029957051198764846,-0.7868410429999094,0.0028013455998920954,-2.359910784999857,-0.00150215019493768,1.571681044999972,0.7898230549998506,0.039999977,0.03999998349999999,-9.797942150000365,-0.03231901842966464,-0.021563506949630773,0.022157811399419258,-0.011685479059864333,-0.015576318999589158
0.71,-0.0030328921598749953,-0.7868683039999084,0.0028338325998907947,-2.359953879999855,-0.001520912959936929,1.5716894599999718,0.7898680399998488,0.039999977,0.039999987999999986,-9.79783220000037,-0.032723417876791526,-0.021674670599626324,0.022332656199412257,-0.011670736409773277,-0.015700011999584207
0.7125,-0.0030700791998735082,-0.7868955649999073,0.0028663195998894953,-2.3599969749998535,-0.0015396757249361785,1.5716978749999713,0.789913024999847,0.039999977,0.039999992499999984,-9.797722250000374,-0.03312781732391844,-0.021785834249621876,0.022507500999405263,-0.011655993759682222,-0.015823704999579257
0.715,-0.0031072662398720194,-0.7869228259999062,0.0028988065998881945,-2.360040069999852,-0.0015584384899354272,1.571706289999971,0.7899580099998452,0.039999977,0.03999999699999999,-9.79761230000038,-0.03353221677104532,-0.021896997899617427,0.022682345799398262,-0.011641251109591166,-0.015947397999574307
0.7175,-0.0031450982948641507,-0.7869505869999002,0.0029318575498813158,-2.360083889999843,-0.0015775266549314577,1.5717148499999691,0.7900037699998358,0.0399999768,0.03999999975,-9.79752275000017,-0.03393866550034774,-0.02200257284967221,0.02285847239937951,-0.011626361962460514,-0.016071722249563908
0.72,-0.003184220379863652,-0.7869793479998998,0.00296603639988088,-2.3601291599998424,-0.0015972656199312058,1.571723699999969,0.7900510799998351,0.0399999762,0.039999999,-9.79747400000017,-0.03434921279406512,-0.022096970399671005,0.02303716259937723,-0.011611179821246093,-0.016197308999562305
0.7225,-0.0032233424648631546,-0.7870081089998994,0.003000215249880446,-2.3601744299998417,-0.001617004584930955,1.571732549999969,0.7900983899998345,0.0399999756,0.03999999825,-9.79742525000017,-0.034759760087782525,-0.022191367949669808,0.023215852799374957,-0.01159599768003167,-0.01632289574956071
0.725,-0.003262464549862656,-0.7870368699998991,0.00303439409988001,-2.360219699999841,-0.0016367435499307034,1.571741399999969,0.790145699999834,0.039999975,0.0399999975,-9.797376500000171,-0.03517030738149991,-0.022285765499668604,0.02339454299937268,-0.011580815538817249,-0.016448482499559106
0.7275,-0.0033015866348621585,-0.7870656309998987,0.0030685729498795755,-2.3602649699998404,-0.0016564825149304524,1.5717502499999687,0.7901930099998333,0.039999974400000006,0.03999999675,-9.797327750000171,-0.035580854675217315,-0.022380163049667404,0.023573233199370408,-0.011565633397602828,-0.01657406924955751
0.73,-0.00334070871986166,-0.7870943919998983,0.0031027517998791394,-2.36031023999984,-0.0016762214799302007,1.5717590999999687,0.7902403199998327,0.039999973800000005,0.039999996,-9.797279000000172,-0.035991401968934696,-0.0224745605996662,0.02375192339936813,-0.011550451256388405,-0.01669965599955591
0.7325,-0.0033798308048611624,-0.7871231529998979,0.003136930649878705,-2.3603555099998395,-0.0016959604449299497,1.5717679499999686,0.790287629999832,0.039999973200000004,0.03999999525,-9.797230250000172,-0.0364019492626521,-0.022568958149665,0.02393061359936586,-0.011535269115173984,-0.016825242749554315
0.735,-0.0034202702198536258,-0.7871529259998922,0.0031722613398721153,-2.3604022899998305,-0.0017163635999261496,1.5717770899999668,0.7903365349998229,0.039999973,0.039999995,-9.797177800000194,-0.03683008849465194,-0.022662528299668215,0.02411192429934958,-0.011519565712717337,-0.016952657199542948
0.7375,-0.0034613682998531035,-0.7871832049998918,0.0032081679498716592,-2.3604498249998302,-0.001737098849925886,1.5717863749999668,0.7903862374998224,0.039999973,0.039999995,-9.797123500000195,-0.03726702369593367,-0.02275568474966703,0.02429454524934726,-0.011503601679635411,-0.017080985499541318
0.74,-0.003502466379852579,-0.7872134839998914,0.003244074559871201,-2.3604973599998296,-0.0017578340999256216,1.5717956599999667,0.7904359399998218,0.039999973,0.039999995,-9.797069200000195,-0.037703958897215374,-0.022848841199665845,0.02447716619934493,-0.011487637646553485,-0.01720931379953968
0.7425,-0.003543564459852057,-0.787243762999891,0.0032799811698707446,-2.360544894999829,-0.001778569349925358,1.5718049449999665,0.7904856424998211,0.039999973,0.039999995,-9.797014900000196,-0.0381408940984971,-0.022941997649664658,0.02465978714934261,-0.011471673613471556,-0.01733764209953805
0.745,-0.0035846625398515326,-0.7872740419998906,0.003315887779870287,-2.360592429999828,-0.0017993045999250936,1.5718142299999665,0.7905353449998205,0.039999973,0.039999995,-9.796960600000196,-0.03857782929977881,-0.02303515409966347,0.024842408099340282,-0.01145570958038963,-0.01746597039953641
0.7475,-0.0036257606198510104,-0.7873043209998902,0.0033517943898698304,-2.3606399649998275,-0.00182003984992483,1.5718235149999662,0.7905850474998198,0.039999973,0.039999995,-9.796906300000197,-0.039014764501060534,-0.023128310549662287,0.025025029049337958,-0.011439745547307704,-0.017594298699534782
0.75,-0.003666858699850486,-0.7873345999998899,0.0033877009998693726,-2.3606874999998273,-0.0018407750999245656,1.5718327999999662,0.7906347499998192,0.039999973,0.039999995,-9.796852000000197,-0.03945169970234224,-0.023221466999661097,0.02520764999933563,-0.011423781514225777,-0.017722626999533145
0.7525000000000001,-0.003709972944841427,-0.787366422499883,0.0034253705298614525,-2.3607373449998166,-0.0018625274849199953,1.571842534999964,0.7906868824998083,0.03999997405,0.03999999575,-9.796829350000083,-0.03990806974302762,-0.023298045749718346,0.025394115449314185,-0.011407281877533607,-0.017853507399518628
0.755,-0.003753087189839701,-0.7873982449998816,0.003463040059859944,-2.3607871899998147,-0.0018842798699191244,1.5718522699999637,0.7907390149998063,0.039999975099999995,0.0399999965,-9.796806700000085,-0.04036443978378369,-0.02337462449971528,0.02558058089930672,-0.011390782240839486,-0.017984387799513387
0.7575000000000001,-0.0037962014348379763,-0.7874300674998804,0.0035007095898584376,-2.3608370349998125,-0.0019060322549182545,1.5718620049999634,0.7907911474998042,0.03999997615,0.03999999725,-9.796784050000085,-0.04082080982453978,-0.023451203249712217,0.02576704634929926,-0.011374282604145367,-0.018115268199508153
0.76,-0.00383931567983625,-0.7874618899998791,0.0035383791198569294,-2.3608868799998106,-0.0019277846399173835,1.571871739999963,0.7908432799998021,0.039999977199999995,0.039999998,-9.796761400000086,-0.041277179865295846,-0.02352778199970915,0.025953511799291798,-0.011357782967451246,-0.018246148599502913
0.7625000000000001,-0.0038824299248345255,-0.7874937124998779,0.0035760486498554226,-2.3609367249998083,-0.0019495370249165136,1.5718814749999626,0.7908954124998,0.03999997824999999,0.03999999875,-9.796738750000086,-0.04173354990605194,-0.023604360749706087,0.026139977249284338,-0.011341283330757127,-0.018377028999497676
0.765,-0.003925544169832799,-0.7875255349998765,0.0036137181798539145,-2.3609865699998065,-0.001971289409915643,1.5718912099999622,0.7909475449997978,0.039999979299999995,0.0399999995,-9.796716100000088,-0.042189919946808006,-0.02368093949970302,0.02632644269927687,-0.011324783694063006,-0.018507909399492435
0.7675000000000001,-0.003969343584823843,-0.7875578774998698,0.003651986864846083,-2.3610372099997963,-0.001993386629911134,1.5719011099999602,0.791000514999787,0.03999998,0.04,-9.796675050000305,-0.04265563320179614,-0.023772351949527804,0.02651414209925837,-0.011308078933573922,-0.018639713749478773
0.77,-0.004014513339824499,-0.7875912599998702,0.003691453859846657,-2.361089439999797,-0.002016173519911465,1.5719113399999602,0.7910551599997877,0.03999998,0.04,-9.796597200000303,-0.0431400328855767,-0.02389343179952956,0.026704309399261134,-0.011290963925487698,-0.018773365999480714
0.7725,-0.004059683094825156,-0.7876246424998707,0.0037309208548472303,-2.361141669999798,-0.002038960409911796,1.5719215699999605,0.7911098049997884,0.03999998,0.04,-9.796519350000302,-0.043624432569357253,-0.02401451164953132,0.026894476699263897,-0.011273848917401474,-0.018907018249482658
0.775,-0.004104852849825814,-0.7876580249998713,0.0037703878498478055,-2.3611938999997983,-0.002061747299912128,1.5719317999999605,0.7911644499997893,0.03999998,0.04,-9.7964415000003,-0.04410883225313784,-0.024135591499533086,0.027084643999266668,-0.01125673390931525,-0.019040670499484606
0.7775,-0.004150022604826471,-0.7876914074998718,0.003809854844848379,-2.3612461299997993,-0.0020845341899124593,1.5719420299999607,0.79121909499979,0.03999998,0.04,-9.796363650000298,-0.044593231936918394,-0.024256671349534846,0.02727481129926943,-0.011239618901229027,-0.019174322749486546
0.78,-0.004195192359827129,-0.7877247899998723,0.003849321839848954,-2.3612983599998003,-0.0021073210799127913,1.5719522599999607,0.7912737399997909,0.03999998,0.04,-9.796285800000298,-0.04507763162069897,-0.02437775119953661,0.027464978599272202,-0.011222503893142801,-0.019307974999488494
0.7825,-0.004240362114827785,-0.7877581724998727,0.0038887888348495274,-2.361350589999801,-0.0021301079699131225,1.571962489999961,0.7913283849997916,0.03999998,0.04,-9.796207950000296,-0.045562031304479535,-0.02449883104953837,0.027655145899274966,-0.011205388885056579,-0.019441627249490435
0.785,-0.004286927629820492,-0.7877926249998671,0.0039294763498431496,-2.3614043999997927,-0.0021535992399094417,1.5719730399999592,0.791384699999783,0.039999980399999996,0.04,-9.796148900000189,-0.04606000520097231,-0.02460639359961714,0.02784768709926421,-0.011187887843765383,-0.01957699999948258
0.7875,-0.004334191024821178,-0.7878276124998677,0.00397077412484375,-2.3614589999997935,-0.002177442699909788,1.5719837499999594,0.7914418499997837,0.039999981,0.04,-9.796099250000188,-0.04656476620393746,-0.024707197499618607,0.028041415249267027,-0.011170193785868397,-0.019713232999484562
0.79,-0.004381454419821867,-0.7878625999998681,0.004012071899844351,-2.3615135999997943,-0.0022012861599101357,1.5719944599999596,0.7914989999997846,0.0399999816,0.04,-9.796049600000188,-0.04706952720690263,-0.024808001399620076,0.02823514339926985,-0.011152499727971407,-0.019849465999486546
0.7925,-0.0044287178148225545,-0.7878975874998686,0.004053369674844951,-2.361568199999795,-0.002225129619910482,1.5720051699999598,0.7915561499997854,0.0399999822,0.04,-9.795999950000187,-0.04757428820986778,-0.024908805299621542,0.028428871549272667,-0.01113480567007442,-0.019985698999488526
0.795,-0.004475981209823243,-0.7879325749998691,0.004094667449845553,-2.361622799999796,-0.0022489730799108297,1.57201587999996,0.7916132999997862,0.0399999828,0.04,-9.795950300000186,-0.04807904921283295,-0.02500960919962301,0.02862259969927549,-0.011117111612177433,-0.020121931999490514
0.7975,-0.00452324460482393,-0.7879675624998697,0.004135965224846153,-2.3616773999997966,-0.002272816539911176,1.5720265899999601,0.7916704499997871,0.0399999834,0.04,-9.795900650000185,-0.0485838102157981,-0.025110413099624477,0.028816327849278303,-0.011099417554280445,-0.020258164999492494
0.8,-0.004570507999824619,-0.7880025499998702,0.004177262999846755,-2.3617319999997974,-0.0022966599999115233,1.5720372999999603,0.7917275999997879,0.039999984,0.04,-9.795851000000185,-0.04908857121876327,-0.025211216999625946,0.02901005599928113,-0.011081723496383457,-0.02039439799949448
0.8025,-0.004619902744814732,-0.7880391349998628,0.004220424449838112,-2.361789044999786,-0.002321579169906534,1.572048534999958,0.7917873449997759,0.039999984,0.04,-9.795807800000162,-0.04961741119424823,-0.025313472899616465,0.02920745389925961,-0.011063590506159671,-0.020533266349479138
0.805,-0.0046692974898127565,-0.7880757199998613,0.004263585899836385,-2.361846089999784,-0.0023464983399055376,1.5720597699999574,0.7918470899997735,0.039999984,0.04,-9.795764600000163,-0.050146251169822555,-0.025415728799612375,0.029404851799251713,-0.011045457515934257,-0.020672134699473585
0.8075,-0.004718692234810779,-0.7881123049998598,0.004306747349834657,-2.3619031349997814,-0.00237141750990454,1.5720710049999571,0.7919068349997711,0.039999984,0.04,-9.795721400000165,-0.05067509114539687,-0.02551798469960828,0.02960224969924381,-0.011027324525708843,-0.020811003049468025
0.81,-0.004768086979808804,-0.7881488899998584,0.004349908799832931,-2.3619601799997794,-0.002396336679903543,1.5720822399999566,0.7919665799997687,0.039999984,0.04,-9.795678200000168,-0.05120393112097119,-0.02562024059960419,0.029799647599235916,-0.011009191535483428,-0.020949871399462472
0.8125,-0.004817481724806826,-0.7881854749998569,0.004393070249831202,-2.362017224999777,-0.0024212558499025452,1.5720934749999562,0.7920263249997663,0.039999984,0.04,-9.79563500000017,-0.0517327710965455,-0.025722496499600095,0.029997045499228013,-0.010991058545258014,-0.021088739749456912
0.8150000000000001,-0.00486687646980485,-0.7882220599998555,0.004436231699829476,-2.3620742699997748,-0.002446175019901549,1.5721047099999557,0.792086069999764,0.039999984,0.04,-9.795591800000171,-0.05226161107211983,-0.02582475239959601,0.030194443399220117,-0.0109729255550326,-0.021227608099451355
0.8175,-0.004916993734794222,-0.7882591974998474,0.0044800248498201856,-2.362132134999763,-0.0024714579248961963,1.5721160899999536,0.7921466829997512,0.039999984,0.04,-9.795556600000076,-0.05279731917907066,-0.02592207549965097,0.03039299164919844,-0.010954567696974234,-0.021367257649436443
0.8200000000000001,-0.00496855603979216,-0.7882974399998459,0.0045250813998183835,-2.3621916399997605,-0.002497468299895156,1.572127759999953,0.7922090319997487,0.039999984,0.04,-9.795537400000077,-0.05334676354902043,-0.026009532999647474,0.030593840599190406,-0.01093576010324191,-0.021508469599430795
0.8225,-0.005020118344790095,-0.7883356824998443,0.004570137949816579,-2.362251144999758,-0.0025234786748941146,1.5721394299999525,0.7922713809997463,0.039999984,0.04,-9.795518200000078,-0.05389620791897018,-0.026096990499643972,0.030794689549182366,-0.010916952509509588,-0.02164968154942514
0.8250000000000001,-0.005071680649788033,-0.7883739249998428,0.004615194499814778,-2.3623106499997557,-0.0025494890498930743,1.572151099999952,0.7923337299997437,0.039999984,0.04,-9.795499000000078,-0.05444565228891995,-0.026184447999640474,0.030995538499174333,-0.010898144915777267,-0.021790893499419494
0.8275,-0.005123242954785968,-0.7884121674998413,0.004660251049812973,-2.3623701549997533,-0.0025754994248920328,1.5721627699999516,0.7923960789997412,0.039999984,0.04,-9.795479800000079,-0.05499509665886969,-0.026271905499636972,0.03119638744916629,-0.010879337322044944,-0.02193210544941384
0.8300000000000001,-0.005174805259783906,-0.7884504099998397,0.004705307599811171,-2.362429659999751,-0.0026015097998909925,1.572174439999951,0.7924584279997386,0.039999984,0.04,-9.79546060000008,-0.055544541028819464,-0.026359362999633474,0.03139723639915826,-0.010860529728312621,-0.022073317399408193
