rsonawane2002/My_IMU/logs_2/traj_315/imu_315.csv
time,j1,j2,j3,j4,j5,j6,j7,gripper1,gripper2,imu_ax,imu_ay,imu_az,imu_gx,imu_gy,imu_gz
708.2333333330179,0.00016700293,-0.785875,4.0107683e-05,-2.3551247,9.29385e-05,1.570997,0.786,0.04,0.04,-9.488261,0.025593843311071396,0.095031396,1.3874315e-07,-0.0011641276068985462,2.9379174e-07
708.2499999996845,0.0001670007,-0.78576016,4.0112373e-05,-2.3552213,9.297421e-05,1.5709941,0.786,0.04,0.04,-9.83443,0.0006306787254288793,0.009100923,3.164916e-07,-0.0022387132048606873,1.0935232e-06
708.2666666663512,0.00016696309,-0.7856542,4.010107e-05,-2.35531,9.300836e-05,1.5709913,0.786,0.04,0.04,-9.832491,0.0005725823575630784,0.007622511,4.178095e-06,-0.0032271412201225758,2.2244935e-06
708.2833333330178,0.00016683077,-0.7855566,4.0048068e-05,-2.355391,9.3052506e-05,1.5709884,0.786,0.04,0.039999995,-9.8307905,0.00047514744801446795,0.0063481745,1.4285105e-05,-0.00413857214152813,5.221221e-06
708.2999999996845,0.00016651815,-0.78546655,3.9916555e-05,-2.3554645,9.3098766e-05,1.5709856,0.786,0.04,0.039999995,-9.829172,0.0003299912204965949,0.0052392497,3.3441458e-05,-0.004975137300789356,9.011908e-06
708.3166666663511,0.00016591593,-0.7853831,3.9659728e-05,-2.3555312,9.313643e-05,1.5709827,0.786,0.04,0.04,-9.827674,0.00013819901505485177,0.0042485953,6.453019e-05,-0.005740388296544552,1.3479185e-05
708.3333333330178,0.00016489292,-0.7853057,3.9221228e-05,-2.3555906,9.318585e-05,1.5709798,0.786,0.04,0.04,-9.826385,-6.534572457894683e-05,0.003370883,0.000109698114,-0.006442414131015539,2.2454342e-05
708.3499999996844,0.00016329925,-0.7852335,3.8536848e-05,-2.3556466,9.324791e-05,1.570977,0.786,0.04,0.04,-9.82515,-0.0003146451781503856,0.0026075975,0.00017147236,-0.00708256009966135,3.3610937e-05
708.3666666663511,0.00016096768,-0.785166,3.7534894e-05,-2.3556967,9.332817e-05,1.5709741,0.7860019,0.04,0.04,-9.824504,-0.0005887623410671949,0.0019578638,0.00025140613,-0.0076816994696855545,4.7908183e-05
708.3833333330177,0.000157716,-0.78510225,3.6137593e-05,-2.3557396,9.3430695e-05,1.5709713,0.7860038,0.04,0.04,-9.823548,-0.0008803803939372301,0.0013700421,0.0003432259,-0.008227743208408356,6.564166e-05
708.3999999996844,0.00015334827,-0.7850415,3.4260986e-05,-2.3557763,9.356088e-05,1.5709684,0.78600574,0.04,0.04,-9.822611,-0.0011952295899391174,0.0008580424,0.0004569932,-0.008722806349396706,8.7047025e-05
708.416666666351,0.00014765695,-0.7849833,3.181621e-05,-2.3558087,9.372418e-05,1.5709654,0.7860079,0.04,0.04,-9.821857,-0.0015263393288478255,0.00042676728,0.0005946884,-0.009172039106488228,0.00011234872
708.4333333330177,0.00014042387,-0.7849269,2.8710016e-05,-2.3558354,9.392608e-05,1.5709624,0.7860117,0.04,0.04,-9.821444,-0.0018648292170837522,7.757463e-05,0.0007562585,-0.009588373824954033,0.00014175342
708.4499999996843,0.00013142206,-0.7848717,2.4845434e-05,-2.355855,9.416113e-05,1.5709592,0.7860155,0.039999995,0.04,-9.820927,-0.002223770599812269,-0.00023114699,0.0009371773,-0.009967207908630371,0.00017464081
708.466666666351,0.000120416466,-0.78481686,2.0121928e-05,-2.3558676,9.444423e-05,1.5709552,0.78602123,0.03999999,0.03999999,-9.82027,-0.0025608320720493793,-0.0004756779,0.0011459803,-0.010305056348443031,0.00021367586
708.4833333330176,0.00010716552,-0.7847619,1.4436014e-05,-2.3558748,9.478321e-05,1.5709485,0.78602695,0.03999999,0.03999999,-9.819836,-0.0029412712901830673,-0.0006604581,0.0013749311,-0.010611000470817089,0.00025641304
708.4999999996843,9.142191e-05,-0.7847065,7.68205e-06,-2.355876,9.518441e-05,1.5709417,0.7860346,0.039999984,0.03999998,-9.819649,-0.0033019965048879385,-0.0007704426,0.0016343214,-0.010900169610977173,0.00030467034
708.516666666351,7.293367e-05,-0.7846496,-2.4775025e-07,-2.3558707,9.565311e-05,1.5709347,0.7860439,0.03999998,0.039999977,-9.81942,-0.0036739667411893606,-0.0008879523,0.0019160089,-0.011161350645124912,0.0003568404
708.5333333330176,5.1444855e-05,-0.78459084,-9.462852e-06,-2.355859,9.619671e-05,1.5709268,0.78605384,0.039999973,0.039999966,-9.819211,-0.004034352023154497,-0.0009890028,0.002222471,-0.011396645568311214,0.00041469684
708.5499999996842,2.6696818e-05,-0.7845298,-2.0073907e-05,-2.3558397,9.682064e-05,1.5709163,0.7860653,0.039999966,0.039999958,-9.819076,-0.004398762714117765,-0.001054138,0.0025585904,-0.011610188521444798,0.00047657144
708.5666666663509,-1.5716915e-06,-0.7844658,-3.2192573e-05,-2.3558128,9.7532655e-05,1.5709054,0.78607863,0.03999996,0.03999995,-9.818916,-0.004742806777358055,-0.0010328668,0.0029220688,-0.011807028204202652,0.00054424617
708.5833333330175,-3.3623415e-05,-0.7843983,-4.5931327e-05,-2.3557777,9.833798e-05,1.5708935,0.7860939,0.039999966,0.039999954,-9.818788,-0.005094851832836866,-0.0010667855,0.0033111162,-0.011980784125626087,0.00061601686
708.5999999996842,-6.972213e-05,-0.784327,-6.1403014e-05,-2.355734,9.924388e-05,1.5708791,0.78611106,0.039999966,0.039999954,-9.818658,-0.005427667871117592,-0.0010571033,0.0037266253,-0.01213276106864214,0.00069277064
708.6166666663509,-0.00011013214,-0.7842508,-7.8720535e-05,-2.3556814,0.00010025696,1.570864,0.78613013,0.03999997,0.039999958,-9.818558,-0.005747473798692226,-0.0009856122,0.0041691745,-0.012269774451851845,0.0007745115
708.6333333330175,-0.00015511761,-0.78416955,-9.7997254e-05,-2.3556201,0.00010138375,1.5708458,0.7861514,0.039999973,0.03999996,-9.818454,-0.0060549150221049786,-0.0009641014,0.0046395916,-0.012385775335133076,0.0008612246
708.6499999996842,-0.00020494223,-0.7840828,-0.00011934565,-2.3555498,0.000102631384,1.5708272,0.786175,0.039999973,0.039999958,-9.818529,-0.006340222433209419,-0.000882111,0.005136459,-0.012494241818785667,0.00095378084
708.6666666663508,-0.00025986866,-0.78398997,-0.00014287826,-2.3554702,0.000104005405,1.5708054,0.786201,0.039999973,0.039999958,-9.8185425,-0.006616632454097271,-0.00083676213,0.005660257,-0.0125839002430439,0.0010504134
708.6833333330175,-0.00032015814,-0.7838907,-0.00016870674,-2.35538,0.00010551306,1.5707828,0.7862295,0.039999977,0.03999996,-9.818635,-0.006876280531287193,-0.00073287124,0.006210892,-0.01266765221953392,0.0011519747
708.6999999996841,-0.0003860705,-0.7837845,-0.00019694243,-2.35528,0.00010716125,1.5707569,0.7862607,0.03999998,0.03999996,-9.818575,-0.007108142599463463,-0.00066876924,0.0067882403,-0.012730673886835575,0.0012592613
708.7166666663508,-0.00045786318,-0.7836711,-0.00022769542,-2.35517,0.00010895519,1.5707301,0.7862945,0.039999984,0.039999966,-9.818686,-0.00729068648070097,-0.0005733408,0.007391594,-0.012789471074938774,0.0013705436
708.7333333330174,-0.0005357914,-0.7835497,-0.00026107495,-2.3550484,0.0001109017,1.5707003,0.7863315,0.03999998,0.03999996,-9.818854,-0.007525073364377022,-0.0004777573,0.008022183,-0.012835018336772919,0.0014866065
708.7499999996841,-0.0006201082,-0.7834196,-0.00029718928,-2.354916,0.00011300857,1.5706686,0.7863713,0.039999984,0.03999996,-9.8188925,-0.007683098316192627,-0.000384185,0.008677299,-0.01287128496915102,0.001608257
708.7666666663507,-0.0007110632,-0.78328115,-0.00033614537,-2.3547714,0.000115280425,1.5706344,0.7864142,0.039999988,0.039999966,-9.819095,-0.007837262935936451,-0.00034371857,0.00935897,-0.012901060283184052,0.0017337267
708.7833333330174,-0.0008089032,-0.78313327,-0.0003780487,-2.3546157,0.0001177239,1.5705969,0.78646046,0.039999984,0.039999958,-9.819092,-0.007947823032736778,-0.0002362961,0.010065885,-0.012917298823595047,0.0018646374
708.799999999684,-0.00091387186,-0.7829759,-0.0004230035,-2.354447,0.00012034515,1.5705576,0.78651,0.039999988,0.03999996,-9.819394,-0.008042078465223312,-0.00016993843,0.0107972,-0.012934665195643902,0.0019992592
708.8166666663507,-0.0010262094,-0.78280866,-0.00047111287,-2.354265,0.00012315002,1.5705154,0.78656304,0.039999988,0.039999958,-9.819415,-0.008103422820568085,-0.00010816567,0.011553866,-0.012938407249748707,0.002139167
708.8333333330173,-0.001146152,-0.7826313,-0.0005224776,-2.3540711,0.00012614457,1.5704697,0.78661966,0.03999999,0.03999996,-9.819519,-0.008145480416715145,-4.845299e-05,0.012334417,-0.012934315018355846,0.0022826036
708.849999999684,-0.0012739323,-0.7824433,-0.00057719776,-2.3538632,0.00012933482,1.5704216,0.78668,0.03999999,0.039999958,-9.819799,-0.008144944906234741,3.25758e-05,0.013139195,-0.012930030934512615,0.00243114
708.8666666663506,-0.0014097792,-0.78224415,-0.0006353711,-2.3536413,0.0001327261,1.5703706,0.7867441,0.039999995,0.03999996,-9.819866,-0.008125247433781624,6.86124e-05,0.013967315,-0.012915674597024918,0.0025822243
708.8833333330173,-0.001553918,-0.7820337,-0.00069709396,-2.3534055,0.00013632499,1.5703164,0.78681207,0.039999995,0.039999958,-9.819959,-0.00806114450097084,9.7692944e-05,0.014818547,-0.012893241830170155,0.002739145
708.8999999996839,-0.0017065695,-0.78181124,-0.00076246104,-2.3531551,0.00014013586,1.570259,0.786884,0.04,0.039999966,-9.820176,-0.007976598106324673,0.0001311535,0.015692813,-0.012867005541920662,0.0028983906
708.9166666663506,-0.0018679494,-0.78157693,-0.0008315647,-2.35289,0.00014416488,1.5701979,0.7869601,0.04,0.039999966,-9.820309,-0.007844054140150547,0.00012751762,0.016589578,-0.012836196459829807,0.0030634233
708.9333333330172,-0.0020382707,-0.78133005,-0.0009044961,-2.3526096,0.00014841696,1.5701337,0.7870404,0.04,0.03999997,-9.8204775,-0.007692163810133934,0.00015275087,0.017507702,-0.012802490964531898,0.0032315652
708.9499999996839,-0.002217741,-0.7810704,-0.0009813445,-2.3523135,0.00015289873,1.570066,0.78712505,0.04,0.039999958,-9.820641,-0.007488176692277193,0.000121536665,0.018447665,-0.012764045037329197,0.0034046222
708.9666666663505,-0.002406563,-0.7807977,-0.0010621964,-2.3520017,0.00015761457,1.5699948,0.78721404,0.04,0.03999996,-9.820711,-0.007205416448414326,5.0909817e-05,0.019408653,-0.012720033526420593,0.003581282
708.9833333330172,-0.0026049365,-0.78051174,-0.0011471377,-2.3516746,0.00016256914,1.5699201,0.7873075,0.04,0.039999958,-9.82089,-0.007003732956945896,4.5893714e-05,0.020390289,-0.012671689502894878,0.0037606496
708.9999999996838,-0.0028130556,-0.7802121,-0.0012362512,-2.351331,0.00016776643,1.5698416,0.7874056,0.04,0.039999958,-9.821163,-0.00669889897108078,-5.6279823e-06,0.021392034,-0.01262373011559248,0.003943329
709.0166666663505,-0.0030311104,-0.7798984,-0.0013296185,-2.350971,0.00017321364,1.5697595,0.7875085,0.04,0.03999995,-9.82129,-0.006364054977893829,-8.932687e-05,0.022413189,-0.0125711215659976,0.004129232
709.0333333330171,-0.003259286,-0.7795705,-0.0014273187,-2.350593,0.00017891359,1.5696735,0.787616,0.04,0.039999947,-9.8215,-0.005985110066831112,-0.0001898529,0.023453288,-0.012517792172729969,0.0043188157
709.0499999996838,-0.0034977624,-0.779228,-0.0015294297,-2.3501983,0.0001848716,1.5695838,0.7877284,0.039999995,0.039999936,-9.821522,-0.005571125075221062,-0.00030566473,0.024512712,-0.01245714072138071,0.004511384
709.0666666663504,-0.003746716,-0.77887076,-0.001636026,-2.3497865,0.00019109117,1.56949,0.7878458,0.04,0.03999994,-9.82172,-0.005120735615491867,-0.00043735188,0.02559038,-0.012395918369293213,0.0047067306
709.0833333330171,-0.0040063187,-0.7784986,-0.0017471818,-2.3493562,0.00019757806,1.5693923,0.7879682,0.039999995,0.039999932,-9.821936,-0.004620079882442951,-0.00058022235,0.026685659,-0.01233474351465702,0.004905688
709.0999999996837,-0.0042767343,-0.778111,-0.0018629677,-2.3489082,0.00020433475,1.5692906,0.7880956,0.039999995,0.03999993,-9.821979,-0.0040865372866392136,-0.00075424276,0.027798183,-0.01226653903722763,0.0051070373
709.1166666663504,-0.0045581283,-0.7777079,-0.0019834538,-2.3484416,0.00021136647,1.5691849,0.7882281,0.039999988,0.039999917,-9.8221655,-0.003511706367135048,-0.00094258785,0.02892821,-0.01219866145402193,0.005311272
709.133333333017,-0.004850655,-0.7772891,-0.0021087069,-2.347957,0.00021867694,1.5690751,0.7883659,0.039999984,0.039999913,-9.8222885,-0.0028979405760765076,-0.0011532912,0.030075079,-0.012127636931836605,0.005517285
709.1499999996837,-0.0051544677,-0.7768542,-0.002238792,-2.3474529,0.00022626971,1.5689609,0.7885091,0.039999984,0.039999913,-9.822442,-0.0022448115050792694,-0.0013684146,0.03123741,-0.01205490343272686,0.005725698
709.1666666663504,-0.005469713,-0.7764032,-0.0023737722,-2.34693,0.00023414865,1.5688423,0.78865767,0.039999984,0.03999991,-9.822532,-0.0015372391790151596,-0.0016199863,0.032415163,-0.011979972012341022,0.005937319
709.183333333017,-0.005796535,-0.7759359,-0.0025137092,-2.3463874,0.00024231766,1.5687193,0.7888117,0.03999999,0.039999913,-9.822684,-0.0007960665971040726,-0.0018779077,0.033608,-0.011904818005859852,0.006151163
709.1999999996837,-0.00613507,-0.7754519,-0.0026586629,-2.345826,0.0002507795,1.5685918,0.7889711,0.03999999,0.03999991,-9.822694,-1.0220333933830261e-05,-0.0021527791,0.03481555,-0.011824211105704308,0.006367138
709.2166666663503,-0.0064854515,-0.7749508,-0.0028086896,-2.3452444,0.00025953798,1.5684602,0.78913623,0.04,0.039999917,-9.822882,0.0008854586631059647,-0.0025208946,0.036037482,-0.01174677349627018,0.0065851402
709.233333333017,-0.006847811,-0.77443296,-0.0029638447,-2.3446429,0.00026859573,1.5683237,0.78930694,0.039999995,0.03999991,-9.82303,0.0016772225499153137,-0.0028228788,0.037272964,-0.011667348444461823,0.006804421
709.2499999996836,-0.00722227,-0.77389795,-0.0031241816,-2.3440216,0.00027795692,1.5681828,0.7894833,0.04,0.039999913,-9.82306,0.00259317085146904,-0.0031497506,0.038521577,-0.011584977619349957,0.007025859
709.2666666663503,-0.007608947,-0.77334553,-0.0032897512,-2.3433793,0.00028762396,1.5680374,0.78966546,0.04,0.039999913,-9.823242,0.0035482794046401978,-0.003515292,0.039783347,-0.011503779329359531,0.00724797
709.2833333330169,-0.0080079585,-0.77277565,-0.003460603,-2.3427167,0.00029760023,1.5678875,0.7898534,0.04,0.039999913,-9.823249,0.004557445645332336,-0.003922958,0.041057434,-0.011418471112847328,0.0074735223
709.2999999996836,-0.008419414,-0.7721882,-0.0036367837,-2.3420331,0.00030788805,1.5677328,0.7900472,0.04,0.039999913,-9.823342,0.005594149231910706,-0.004332684,0.042343423,-0.011331317014992237,0.0076997955
709.3166666663502,-0.008843419,-0.7715826,-0.003818339,-2.3413293,0.0003184899,1.5675734,0.79024696,0.04,0.03999991,-9.82338,0.006679397076368332,-0.0047632046,0.04364074,-0.011242345906794071,0.007926728
709.3333333330169,-0.009280074,-0.77095896,-0.004005312,-2.340604,0.0003294086,1.5674092,0.7904526,0.04,0.039999913,-9.823561,0.007809918373823166,-0.005251702,0.04494908,-0.011156555265188217,0.008154905
709.3499999996835,-0.009729475,-0.7703174,-0.0041977433,-2.3398573,0.00034064666,1.5672401,0.7906643,0.04,0.039999913,-9.823592,0.00899210013449192,-0.00573173,0.04626814,-0.011069117113947868,0.008385209
709.3666666663502,-0.010191715,-0.7696575,-0.0043956735,-2.3390896,0.00035220612,1.5670662,0.790882,0.04,0.03999991,-9.823612,0.010205037891864777,-0.0062252264,0.04759708,-0.010978865437209606,0.00861581
709.3833333330168,-0.010666879,-0.7689791,-0.0045991386,-2.3383005,0.00036409,1.5668875,0.7911058,0.04,0.039999902,-9.823696,0.011475840583443642,-0.006762011,0.0489363,-0.010889633558690548,0.008847558
709.3999999996835,-0.011155049,-0.76828235,-0.0048081763,-2.3374894,0.00037629975,1.566704,0.7913357,0.04,0.039999902,-9.823783,0.012786444276571274,-0.0073301867,0.050284233,-0.010800345800817013,0.009080195
709.4166666663501,-0.011656309,-0.7675668,-0.0050228187,-2.3366566,0.000388837,1.5665153,0.7915718,0.04,0.039999902,-9.823783,0.01413671113550663,-0.007896163,0.05164129,-0.010708218440413475,0.009312891
709.4333333330168,-0.012170726,-0.7668324,-0.0052430974,-2.335802,0.00040170408,1.5663218,0.791814,0.04,0.0399999,-9.823841,0.01554100401699543,-0.008506143,0.053006403,-0.010617848485708237,0.009546684
709.4499999996834,-0.012698371,-0.7660792,-0.0054690405,-2.3349252,0.00041490255,1.5661235,0.79206246,0.04,0.039999895,-9.823887,0.016973670572042465,-0.009150781,0.0543798,-0.010527024045586586,0.00978018
709.4666666663501,-0.013239307,-0.76530725,-0.0057006786,-2.3340268,0.00042843493,1.56592,0.7923173,0.04,0.039999884,-9.823842,0.018551591783761978,-0.009867014,0.055760957,-0.010434914380311966,0.010015232
709.4833333330167,-0.013793601,-0.76451606,-0.005938038,-2.3331056,0.00044230177,1.5657116,0.7925783,0.04,0.039999884,-9.823955,0.02000102587044239,-0.010463102,0.057148643,-0.010343516245484352,0.010249915
709.4999999996834,-0.014361303,-0.7637059,-0.006181142,-2.3321624,0.00045650435,1.5654985,0.7928457,0.04,0.03999988,-9.823934,0.021576503291726112,-0.011190994,0.05854368,-0.01025063544511795,0.010484139
709.51666666635,-0.014942469,-0.76287645,-0.0064300117,-2.3311965,0.00047104465,1.5652798,0.7931195,0.04,0.039999872,-9.82394,0.023194611072540283,-0.011902677,0.059944194,-0.010156393982470036,0.01071892
709.5333333330167,-0.015537146,-0.7620278,-0.006684667,-2.3302085,0.00048592334,1.5650562,0.7933995,0.04,0.039999872,-9.823938,0.024858755990862846,-0.012658991,0.061350603,-0.01006309688091278,0.010952739
709.5499999996833,-0.01614537,-0.7611598,-0.00694513,-2.3291981,0.00050114235,1.5648273,0.7936859,0.04,0.03999987,-9.823971,0.026578884571790695,-0.01342966,0.06276296,-0.009970680810511112,0.011188037
709.56666666635,-0.016767187,-0.7602723,-0.007211414,-2.328165,0.00051670143,1.5645934,0.79397875,0.04,0.03999987,-9.8239975,0.028326664119958878,-0.014235301,0.06418041,-0.009880171157419682,0.01142165
709.5833333330166,-0.017402632,-0.75936526,-0.007483538,-2.3271093,0.00053260225,1.5643544,0.79427797,0.04,0.03999987,-9.82398,0.03011932782828808,-0.0150755625,0.06560241,-0.009789036586880684,0.011655314
709.5999999996833,-0.018051738,-0.75843894,-0.0077615106,-2.3260312,0.0005488454,1.5641103,0.79458374,0.04,0.03999987,-9.823964,0.0319659449160099,-0.015950436,0.0670289,-0.009698287583887577,0.0118884845
709.6166666663499,-0.018714523,-0.7574932,-0.0080453465,-2.32493,0.0005654317,1.563861,0.7948959,0.04,0.039999872,-9.823974,0.033847928047180176,-0.016809797,0.06845849,-0.009608917869627476,0.012121
709.6333333330166,-0.019391019,-0.756528,-0.008335054,-2.3238058,0.00058236177,1.5636067,0.7952144,0.04,0.039999872,-9.823882,0.035771582275629044,-0.017718052,0.0698918,-0.009516960941255093,0.012352678
709.6499999996832,-0.020081239,-0.7555431,-0.0086306445,-2.322659,0.00059963565,1.5633471,0.79553944,0.04,0.039999865,-9.823849,0.03774440288543701,-0.01864716,0.071328714,-0.009424678981304169,0.012582566
709.6666666663499,-0.020785205,-0.7545385,-0.008932118,-2.3214893,0.0006172544,1.5630825,0.79587096,0.04,0.039999865,-9.823809,0.03975992649793625,-0.019607486,0.07276791,-0.00933345127850771,0.012812926
709.6833333330165,-0.021502918,-0.7535144,-0.009239487,-2.320297,0.0006352178,1.5628126,0.7962089,0.04,0.039999858,-9.823784,0.041810110211372375,-0.020603197,0.074209355,-0.009243439882993698,0.013041797
709.6999999996832,-0.022234382,-0.7524706,-0.0095527535,-2.3190818,0.0006535261,1.5625373,0.79655343,0.04,0.03999986,-9.8237295,0.043907906860113144,-0.021606466,0.07565281,-0.009153536520898342,0.013269531
709.7166666663499,-0.022979617,-0.75140715,-0.009871915,-2.3178437,0.0006721795,1.5622572,0.7969045,0.04,0.03999986,-9.8236265,0.04613344371318817,-0.022717096,0.077097416,-0.009064830839633942,0.013495998
709.7333333330165,-0.023738611,-0.75032395,-0.010196971,-2.3165827,0.00069117796,1.5619719,0.79726213,0.04,0.039999858,-9.823613,0.04822099581360817,-0.023727002,0.07854289,-0.008975770324468613,0.013721068
709.7499999996832,-0.024511352,-0.7492213,-0.010527918,-2.3152988,0.00071052165,1.5616815,0.79762596,0.04,0.039999858,-9.823571,0.050442274659872055,-0.024825428,0.07998871,-0.0088882464915514,0.0139446305
709.7666666663498,-0.025297845,-0.748099,-0.010864757,-2.3139923,0.00073021126,1.5613856,0.7979961,0.04,0.039999895,-9.823437,0.052711762487888336,-0.025932068,0.0814363,-0.008798850700259209,0.014168079
709.7833333330165,-0.026098067,-0.74695706,-0.011207482,-2.3126628,0.0007502441,1.5610845,0.798373,0.04,0.039999906,-9.823412,0.05500463396310806,-0.02707681,0.08288445,-0.008713159710168839,0.014388874
709.7999999996831,-0.026912006,-0.7457957,-0.011556085,-2.3113112,0.0007706205,1.5607786,0.79875624,0.04,0.039999906,-9.8233385,0.05734404921531677,-0.028245682,0.08433109,-0.00862931553274393,0.014606921
709.8166666663498,-0.027739644,-0.74461466,-0.01191056,-2.3099372,0.00079134124,1.5604674,0.79914594,0.04,0.039999902,-9.823277,0.05973009765148163,-0.02944945,0.08577724,-0.008544722571969032,0.014824793
709.8333333330164,-0.02858095,-0.7434141,-0.012270893,-2.30854,0.00081240374,1.5601511,0.7995421,0.04,0.0399999,-9.823267,0.06214587390422821,-0.030690081,0.08722246,-0.00846563745290041,0.015039936
709.8499999996831,-0.029435905,-0.74219424,-0.012637074,-2.30712,0.00083380874,1.5598296,0.7999447,0.04,0.03999989,-9.8231125,0.06459671258926392,-0.031949952,0.08866587,-0.008385028690099716,0.015252187
709.8666666663497,-0.030304478,-0.7409549,-0.013009094,-2.3056767,0.0008555556,1.5595031,0.8003537,0.04,0.039999895,-9.822945,0.0670977532863617,-0.033227593,0.09010803,-0.008302733302116394,0.015463204
709.8833333330164,-0.031186635,-0.739696,-0.013386935,-2.304211,0.0008776431,1.5591714,0.80076915,0.04,0.03999989,-9.822744,0.06962891668081284,-0.034537673,0.09154756,-0.00821857899427414,0.015671926
709.899999999683,-0.03208233,-0.738418,-0.013770579,-2.3027227,0.0009000703,1.5588347,0.8011909,0.04,0.039999895,-9.822644,0.07220014184713364,-0.035875037,0.09298454,-0.008136026561260223,0.01587847
709.9166666663497,-0.032991532,-0.73712057,-0.014160012,-2.3012118,0.0009228361,1.5584929,0.80161905,0.04,0.039999887,-9.82252,0.07480166107416153,-0.03722568,0.09441895,-0.008053882047533989,0.016082067
709.9333333330163,-0.033914186,-0.735804,-0.014555218,-2.2996788,0.000945939,1.558146,0.80205345,0.04,0.039999884,-9.8223715,0.07745219767093658,-0.038625054,0.095850095,-0.007972381077706814,0.016283985
709.949999999683,-0.034850266,-0.7344682,-0.01495617,-2.2981236,0.0009693786,1.557794,0.8024943,0.04,0.03999988,-9.822265,0.08013296872377396,-0.040023934,0.097277835,-0.007893123663961887,0.016483912
709.9666666663496,-0.035799693,-0.73311347,-0.015362847,-2.2965465,0.0009931523,1.5574371,0.8029413,0.04,0.039999876,-9.822078,0.08292759954929352,-0.04154995,0.09870142,-0.007815207354724407,0.01668072
709.9833333330163,-0.036762428,-0.7317396,-0.015775226,-2.2949471,0.00101726,1.5570751,0.8033946,0.04,0.039999876,-9.822008,0.08557971566915512,-0.042943083,0.100120954,-0.0077386717312037945,0.01687407
709.9999999996829,-0.037738405,-0.7303468,-0.016193287,-2.2933257,0.0010417008,1.5567082,0.80385417,0.04,0.03999988,-9.821882,0.08836562931537628,-0.04445599,0.10153609,-0.007664540782570839,0.017065505
710.0166666663496,-0.038727567,-0.72893524,-0.016617,-2.2916825,0.0010664713,1.5563362,0.80432,0.04,0.039999876,-9.821674,0.09117942303419113,-0.045984972,0.10294604,-0.007589784916490316,0.017254088
710.0333333330162,-0.039729852,-0.72750485,-0.017046338,-2.2900171,0.0010915708,1.5559591,0.804792,0.04,0.039999876,-9.821555,0.09401868283748627,-0.047531098,0.10435071,-0.007518017198890448,0.017439306
710.0499999996829,-0.0407452,-0.7260559,-0.017481273,-2.2883303,0.0011169981,1.5555772,0.8052702,0.04,0.039999872,-9.821371,0.09690217673778534,-0.049118906,0.105749704,-0.007447564508765936,0.017622162
710.0666666663495,-0.041773513,-0.7245887,-0.017921776,-2.2866218,0.0011427508,1.5551904,0.8057543,0.04,0.03999987,-9.821196,0.09981363266706467,-0.050729565,0.107142806,-0.007377733942121267,0.017801924
710.0833333330162,-0.042814746,-0.7231028,-0.018367821,-2.2848918,0.0011688279,1.554799,0.80624455,0.04,0.03999987,-9.820975,0.10275007784366608,-0.052348252,0.10853042,-0.007307054009288549,0.017978605
710.0999999996828,-0.043868802,-0.7215988,-0.018819366,-2.2831407,0.0011952261,1.5544027,0.8067408,0.04,0.039999865,-9.820796,0.10571736097335815,-0.05402846,0.109911345,-0.007237411569803953,0.01815156
710.1166666663495,-0.044935618,-0.7200764,-0.019276377,-2.2813685,0.0012219436,1.5540017,0.8072432,0.04,0.03999986,-9.820627,0.10871592909097672,-0.055706225,0.11128544,-0.007169405464082956,0.018321801
710.1333333330161,-0.0460151,-0.71853596,-0.01973882,-2.2795753,0.0012489789,1.553596,0.8077516,0.04,0.039999858,-9.8204565,0.11174390465021133,-0.057434976,0.11265192,-0.007104211486876011,0.01848934
710.1499999996828,-0.047107164,-0.71697754,-0.020206658,-2.2777612,0.0012763299,1.5531853,0.80826586,0.04,0.039999858,-9.820267,0.1147940456867218,-0.05918327,0.11401079,-0.007039363961666822,0.018652717
710.1666666663494,-0.048211727,-0.7154013,-0.020679858,-2.2759264,0.0013039939,1.55277,0.80878603,0.04,0.039999854,-9.820065,0.11788266897201538,-0.060947582,0.11536212,-0.006977410055696964,0.018813608
710.1833333330161,-0.049328696,-0.71380734,-0.021158382,-2.2740705,0.0013319687,1.5523503,0.809312,0.04,0.039999858,-9.819854,0.12097977101802826,-0.062751606,0.11670507,-0.006916069891303778,0.018969493
710.1999999996827,-0.05045796,-0.71219575,-0.021642182,-2.2721934,0.001360252,1.5519259,0.80984366,0.04,0.039999854,-9.819581,0.12411774694919586,-0.06458342,0.11804,-0.006853617262095213,0.01912285
710.2166666663494,-0.05159944,-0.7105667,-0.02213122,-2.2702975,0.0013888419,1.5514969,0.81038123,0.04,0.03999985,-9.8192215,0.12736044824123383,-0.06649685,0.11936684,-0.006788548547774553,0.019272555
710.233333333016,-0.052753028,-0.7089203,-0.022625465,-2.2683816,0.0014177355,1.5510633,0.8109244,0.04,0.03999985,-9.819251,0.13045728206634521,-0.06830913,0.120683804,-0.006732997950166464,0.019419009
710.2499999996827,-0.053918637,-0.70725703,-0.023124857,-2.266445,0.0014469301,1.5506251,0.81147325,0.04,0.039999846,-9.819035,0.13366220891475677,-0.07022814,0.121992014,-0.006679224781692028,0.019561613
710.2666666663494,-0.05509614,-0.7055765,-0.023629354,-2.2644885,0.0014764232,1.5501823,0.81202763,0.04,0.039999843,-9.818694,0.13688541948795319,-0.07213613,0.123290524,-0.006623034365475178,0.019699847
710.283333333016,-0.056285437,-0.7038793,-0.02413891,-2.2625127,0.0015062123,1.5497352,0.8125877,0.04,0.03999984,-9.81847,0.14014099538326263,-0.07412677,0.12457941,-0.006569071672856808,0.019835228
710.2999999996827,-0.057486415,-0.70216537,-0.024653474,-2.2605176,0.0015362941,1.5492835,0.81315315,0.04,0.039999843,-9.81826,0.14340510964393616,-0.07608916,0.12585787,-0.0065176221542060375,0.019966535
710.3166666663493,-0.05869897,-0.70043504,-0.02517301,-2.2585034,0.0015666657,1.5488278,0.8137241,0.04,0.039999843,-9.818023,0.1466977447271347,-0.078109235,0.12712593,-0.006468706298619509,0.020093588
710.333333333016,-0.059922975,-0.6986882,-0.025697462,-2.2564695,0.0015973247,1.5483676,0.81430036,0.04,0.039999843,-9.817787,0.15001031756401062,-0.08014609,0.12838344,-0.00641991151496768,0.020217268
710.3499999996826,-0.061158318,-0.6969254,-0.026226783,-2.254418,0.0016282673,1.5479032,0.814882,0.04,0.03999984,-9.817441,0.15333256125450134,-0.08221777,0.12963018,-0.00637068459764123,0.020337071
710.3666666663493,-0.062404882,-0.6951465,-0.02676092,-2.2523468,0.0016594911,1.5474346,0.81546885,0.04,0.039999846,-9.817307,0.15667769312858582,-0.08429997,0.13086565,-0.006326588802039623,0.020452384
710.3833333330159,-0.06366252,-0.69335157,-0.027299816,-2.2502577,0.0016909947,1.5469617,0.81606096,0.04,0.039999906,-9.816947,0.1600591242313385,-0.086425655,0.13208948,-0.006280712317675352,0.020566517
710.3999999996826,-0.06493114,-0.69154096,-0.027843427,-2.24815,0.0017227724,1.5464848,0.8166582,0.04,0.0399999,-9.816766,0.1634080857038498,-0.08859148,0.13330176,-0.006239806767553091,0.020673612
710.4166666663492,-0.06621059,-0.68971485,-0.028391695,-2.2460248,0.0017548219,1.5460038,0.8172606,0.04,0.039999902,-9.816469,0.1668158620595932,-0.090775624,0.1345018,-0.006198933348059654,0.020778544
710.4333333330159,-0.06750076,-0.68787354,-0.028944558,-2.243882,0.0017871392,1.5455189,0.8178682,0.04,0.039999895,-9.816217,0.17021019756793976,-0.092973486,0.13568944,-0.006161497440189123,0.020877691
710.4499999996825,-0.06880148,-0.6860173,-0.02950196,-2.2417207,0.0018197215,1.5450299,0.81848055,0.04,0.03999989,-9.815972,0.17362795770168304,-0.09520104,0.13686372,-0.006125483196228743,0.020972632
710.4666666663492,-0.07011265,-0.6841459,-0.030063849,-2.2395427,0.0018525666,1.5445367,0.81909794,0.04,0.03999989,-9.815554,0.1771397739648819,-0.09748862,0.13802613,-0.006087846122682095,0.021064052
710.4833333330158,-0.071434125,-0.68225974,-0.030630166,-2.2373474,0.0018856702,1.5440397,0.8197202,0.04,0.0399999,-9.815379,0.18051156401634216,-0.09971045,0.13917492,-0.0060556125827133656,0.021150941
710.4999999996825,-0.07276579,-0.6803593,-0.03120085,-2.235135,0.0019190281,1.5435389,0.82034713,0.04,0.0399999,-9.815078,0.18396912515163422,-0.10203885,0.14030997,-0.00602449057623744,0.02123451
710.5166666663491,-0.0741075,-0.67844445,-0.03177584,-2.232906,0.0019526377,1.5430349,0.82097894,0.04,0.039999895,-9.8147745,0.1874355971813202,-0.10434496,0.14143221,-0.00599445728585124,0.021313652
710.5333333330158,-0.07545908,-0.6765155,-0.032355078,-2.230661,0.0019864948,1.5425272,0.8216153,0.04,0.039999895,-9.814423,0.19091051816940308,-0.10671398,0.14253937,-0.005961588118225336,0.021388516
710.5499999996824,-0.0768204,-0.6745726,-0.032938503,-2.2283995,0.0020205958,1.5420157,0.82225627,0.04,0.03999989,-9.814184,0.19438914954662323,-0.10908134,0.14363325,-0.005933195352554321,0.02145846
710.5666666663491,-0.07819131,-0.672616,-0.033526048,-2.2261226,0.0020549372,1.5415004,0.8229017,0.04,0.039999887,-9.8138895,0.19788317382335663,-0.1114887,0.14471218,-0.005906741134822369,0.021525037
710.5833333330157,-0.07957166,-0.67064595,-0.034117654,-2.2238297,0.002089515,1.5409814,0.82355165,0.04,0.03999989,-9.813639,0.20138154923915863,-0.11391136,0.14577687,-0.005884374491870403,0.021586724
710.5999999996824,-0.08096128,-0.6686627,-0.03471325,-2.2215214,0.0021243254,1.5404592,0.8242059,0.04,0.03999989,-9.813286,0.20488135516643524,-0.11636162,0.14682658,-0.00586313009262085,0.021644881
710.616666666349,-0.08236004,-0.66666645,-0.035312768,-2.2191978,0.0021593648,1.5399332,0.8248645,0.04,0.0399999,-9.812977,0.2083917111158371,-0.11882483,0.14786144,-0.005842291750013828,0.021698758
710.6333333330157,-0.0837678,-0.6646573,-0.035916157,-2.2168593,0.0021946284,1.5394038,0.8255273,0.04,0.03999989,-9.8126545,0.211897075176239,-0.121321924,0.14888059,-0.0058242278173565865,0.021748237
710.6499999996823,-0.085184366,-0.6626354,-0.036523346,-2.2145064,0.0022301145,1.5388713,0.8261943,0.04,0.039999884,-9.812334,0.2154155969619751,-0.12384644,0.1498844,-0.005807832349091768,0.021793675
710.666666666349,-0.08660958,-0.6606011,-0.037134252,-2.212139,0.0022658168,1.5383356,0.8268653,0.04,0.039999884,-9.81205,0.21891649067401886,-0.12641144,0.15087214,-0.005793983116745949,0.021833664
710.6833333330156,-0.0880433,-0.6585547,-0.037748814,-2.2097573,0.0023017323,1.5377965,0.8275404,0.04,0.039999887,-9.811732,0.22244557738304138,-0.12898582,0.15184426,-0.00578132551163435,0.021870634
710.6999999996823,-0.08948539,-0.6564966,-0.038366966,-2.2073612,0.0023378574,1.5372541,0.8282195,0.04,0.039999887,-9.811379,0.22595787048339844,-0.13155867,0.15280011,-0.0057705543003976345,0.021902805
710.7166666663489,-0.090935655,-0.6544266,-0.038988646,-2.2049522,0.0023741876,1.5367091,0.82890236,0.04,0.03999988,-9.810961,0.22953428328037262,-0.13420264,0.15373872,-0.00575877632945776,0.021930987
710.7333333330156,-0.09239392,-0.65234506,-0.039613783,-2.2025301,0.002410718,1.5361608,0.829589,0.04,0.03999988,-9.810744,0.23299521207809448,-0.13681495,0.15466093,-0.005751251708716154,0.021955227
710.7499999996822,-0.093860045,-0.6502524,-0.040242303,-2.200095,0.0024474445,1.5356096,0.8302793,0.04,0.03999989,-9.810442,0.23650000989437103,-0.13947898,0.15556653,-0.005746627226471901,0.021974636
710.7666666663489,-0.095333844,-0.64814895,-0.04087412,-2.1976466,0.0024843637,1.5350556,0.83097327,0.04,0.039999876,-9.810097,0.240019291639328,-0.14215024,0.15645507,-0.005743880290538073,0.021990443
710.7833333330155,-0.09681516,-0.6460346,-0.041509178,-2.195186,0.0025214716,1.5344986,0.8316709,0.04,0.039999876,-9.809705,0.24351933598518372,-0.14484717,0.15732622,-0.005739904008805752,0.022001877
710.7999999996822,-0.09830381,-0.64390975,-0.04214739,-2.192713,0.0025587627,1.533939,0.8323719,0.04,0.039999876,-9.809382,0.24701768159866333,-0.1475687,0.15817904,-0.005739320535212755,0.022008667
710.8166666663489,-0.099799596,-0.64177454,-0.042788684,-2.190228,0.0025962337,1.5333767,0.8330759,0.04,0.039999876,-9.809057,0.2505158483982086,-0.15032752,0.15901467,-0.0057404134422540665,0.022011964
710.8333333330155,-0.1013024,-0.6396294,-0.043432996,-2.187732,0.0026338787,1.5328116,0.83378327,0.04,0.039999876,-9.808693,0.25399285554885864,-0.15310109,0.15983452,-0.005742539186030626,0.022010412
710.8499999996822,-0.102812015,-0.6374746,-0.04408026,-2.1852243,0.0026716944,1.5322443,0.83449405,0.04,0.03999988,-9.808423,0.2574741542339325,-0.15587637,0.16063541,-0.005749090109020472,0.022004887
710.8666666663488,-0.10432825,-0.63531035,-0.04473039,-2.1827056,0.002709677,1.5316741,0.83520824,0.04,0.039999872,-9.808023,0.2609546482563019,-0.1586968,0.16141716,-0.005754249636083841,0.021995686
710.8833333330155,-0.10585094,-0.63313687,-0.045383293,-2.180176,0.0027478219,1.5311017,0.8359249,0.04,0.039999876,-9.807668,0.2644163966178894,-0.16149616,0.16217925,-0.005762418266385794,0.021981679
710.8999999996821,-0.10737993,-0.6309545,-0.046038907,-2.1776364,0.0027861232,1.530527,0.83664495,0.04,0.03999987,-9.807307,0.2678699791431427,-0.16434413,0.16292524,-0.0057712821289896965,0.021964373
710.9166666663488,-0.10891502,-0.6287633,-0.046697166,-2.1750872,0.0028245768,1.52995,0.8373673,0.04,0.039999872,-9.807,0.27131304144859314,-0.16720827,0.16365066,-0.005782240070402622,0.021942457
710.9333333330154,-0.110456035,-0.62656355,-0.04735797,-2.1725268,0.0028631787,1.5293705,0.83809304,0.04,0.039999876,-9.806751,0.27474257349967957,-0.17010158,0.16435955,-0.005799120292067528,0.02191735
710.9499999996821,-0.11200276,-0.6243558,-0.048021242,-2.1699574,0.0029019236,1.528789,0.8388208,0.04,0.039999876,-9.806206,0.278160035610199,-0.1729978,0.16504657,-0.0058123208582401276,0.02188721
710.9666666663487,-0.11355504,-0.62214005,-0.048686914,-2.167379,0.0029408073,1.5282056,0.8395523,0.04,0.039999876,-9.805914,0.28160423040390015,-0.17594421,0.16571718,-0.005828185938298702,0.021853251
710.9833333330154,-0.11511268,-0.61991686,-0.049354926,-2.1647918,0.0029798262,1.5276202,0.84028566,0.04,0.03999987,-9.805582,0.2849563956260681,-0.17884022,0.16636361,-0.005846085958182812,0.02181634
710.999999999682,-0.11667549,-0.61768603,-0.05002517,-2.1621962,0.0030189739,1.5270327,0.84102094,0.04,0.039999876,-9.805249,0.2883320450782776,-0.18177241,0.16699317,-0.00586593197658658,0.02177536
711.0166666663487,-0.11824329,-0.6154479,-0.050697576,-2.159592,0.0030582473,1.5264436,0.8417588,0.04,0.03999991,-9.804894,0.29169198870658875,-0.18475895,0.1676052,-0.005888181738555431,0.021730488
711.0333333330153,-0.1198159,-0.61320305,-0.051372062,-2.1569798,0.0030976413,1.5258524,0.8424998,0.04,0.03999993,-9.804541,0.2950315773487091,-0.18776694,0.1681965,-0.0059115164913237095,0.021681989
711.049999999682,-0.12139313,-0.61095166,-0.05204855,-2.15436,0.0031371491,1.5252596,0.8432427,0.04,0.03999993,-9.804189,0.2983629107475281,-0.19074473,0.1687634,-0.0059372312389314175,0.021629145
711.0666666663486,-0.12297477,-0.60869396,-0.05272695,-2.1517332,0.0031767683,1.524665,0.8439875,0.04,0.039999925,-9.803814,0.3016680181026459,-0.19376038,0.16931148,-0.005963582545518875,0.021573054
711.0833333330153,-0.12456067,-0.6064302,-0.053407192,-2.149099,0.0032164932,1.5240688,0.84473425,0.04,0.039999925,-9.803512,0.30495452880859375,-0.19678417,0.16984007,-0.005993690341711044,0.021513054
711.0999999996819,-0.1261506,-0.60416055,-0.054089192,-2.1464581,0.0032563189,1.523471,0.8454829,0.04,0.039999925,-9.803123,0.3082306683063507,-0.19983552,0.17034817,-0.006024536211043596,0.021448988
711.1166666663486,-0.12774435,-0.6018856,-0.054772858,-2.1438105,0.0032962412,1.522872,0.8462334,0.04,0.039999925,-9.802737,0.3114801347255707,-0.2029005,0.17083555,-0.006056631915271282,0.021382317
711.1333333330152,-0.12934177,-0.59960526,-0.055458117,-2.1411572,0.0033362543,1.5222714,0.84698546,0.04,0.039999925,-9.802329,0.31471240520477295,-0.20595822,0.17130204,-0.006087703630328178,0.021311095
711.1499999996819,-0.13094267,-0.5973201,-0.056144882,-2.138498,0.0033763538,1.5216696,0.84773874,0.04,0.03999992,-9.80205,0.3179188668727875,-0.20906022,0.17174865,-0.006123322527855635,0.021236647
711.1666666663485,-0.13254675,-0.5950301,-0.056833077,-2.1358337,0.0034165354,1.5210665,0.8484937,0.04,0.03999992,-9.801682,0.3211095929145813,-0.21214095,0.17217608,-0.006160148419439793,0.021159394
711.1833333330152,-0.13415398,-0.5927358,-0.057522606,-2.1331642,0.0034567933,1.5204626,0.8492503,0.04,0.039999917,-9.801337,0.32426080107688904,-0.21527167,0.17258175,-0.006198860239237547,0.021078158
711.1999999996818,-0.13576406,-0.5904375,-0.058213398,-2.13049,0.0034971219,1.5198572,0.85000855,0.04,0.039999925,-9.800976,0.32741373777389526,-0.2183969,0.17296503,-0.0062379734590649605,0.020993778
711.2166666663485,-0.13737682,-0.588135,-0.058905356,-2.1278112,0.0035375184,1.519251,0.8507675,0.04,0.039999925,-9.800661,0.33054810762405396,-0.22153783,0.17332579,-0.006281793117523193,0.02090589
711.2333333330151,-0.13899203,-0.5858293,-0.05959841,-2.1251283,0.0035779765,1.518644,0.851528,0.04,0.03999992,-9.800274,0.3336116075515747,-0.22470166,0.17366754,-0.006325335707515478,0.020815661
711.2499999996818,-0.14060952,-0.58352005,-0.060292464,-2.1224415,0.0036184906,1.5180361,0.85228914,0.04,0.03999992,-9.799883,0.3366777300834656,-0.22782409,0.17398629,-0.00636828038841486,0.020721419
711.2666666663484,-0.1422291,-0.58120805,-0.06098746,-2.1197517,0.0036590563,1.5174273,0.8530516,0.04,0.03999992,-9.79955,0.33971428871154785,-0.23102614,0.17428532,-0.006413910072296858,0.020624284
711.2833333330151,-0.1438506,-0.57889336,-0.06168329,-2.1170583,0.0036996698,1.5168178,0.85381466,0.04,0.039999925,-9.799239,0.3427390456199646,-0.23416895,0.17456089,-0.0064622568897902966,0.02052402
711.2999999996817,-0.1454738,-0.5765762,-0.062379856,-2.114362,0.0037403249,1.5162077,0.854579,0.04,0.03999993,-9.798808,0.3457227051258087,-0.23735279,0.17481598,-0.006509596947580576,0.020420782
711.3166666663484,-0.14709845,-0.5742567,-0.0630771,-2.1116638,0.003781017,1.515597,0.85534364,0.04,0.039999925,-9.798483,0.348678857088089,-0.24055429,0.17504682,-0.006559794768691063,0.020314634
711.333333333015,-0.14872439,-0.57193536,-0.06377493,-2.1089633,0.003821741,1.5149859,0.8561089,0.04,0.03999992,-9.798216,0.35160258412361145,-0.24377206,0.17525771,-0.006613878533244133,0.02020581
711.3499999996817,-0.1503514,-0.5696126,-0.06447324,-2.1062605,0.0038624916,1.5143743,0.8568751,0.04,0.03999992,-9.797821,0.354505330324173,-0.24698077,0.17544653,-0.00666789012029767,0.020094141
711.3666666663484,-0.15197933,-0.5672885,-0.06517197,-2.1035564,0.0039032644,1.5137626,0.85764146,0.04,0.039999917,-9.797408,0.3573784828186035,-0.2501781,0.17561133,-0.006720839533954859,0.019979563
711.383333333015,-0.15360793,-0.5649634,-0.06587101,-2.1008515,0.003944054,1.5131505,0.858408,0.04,0.039999917,-9.797084,0.36022090911865234,-0.25341722,0.17575519,-0.006775130517780781,0.019862156
711.3999999996817,-0.155237,-0.56263757,-0.066570304,-2.0981455,0.003984856,1.5125382,0.85917467,0.04,0.039999917,-9.796824,0.3630284368991852,-0.2566391,0.17587738,-0.006834784522652626,0.019742774
711.4166666663483,-0.1568664,-0.5603113,-0.067269765,-2.0954392,0.004025665,1.5119258,0.85994154,0.04,0.039999917,-9.796399,0.3658129870891571,-0.2598739,0.17597777,-0.00689234072342515,0.019620564
711.433333333015,-0.15849589,-0.55798507,-0.0679693,-2.092733,0.004066477,1.5113134,0.8607084,0.04,0.039999917,-9.796105,0.3685603737831116,-0.2631137,0.17605558,-0.006953012198209763,0.019495841
711.4499999996816,-0.16012529,-0.555659,-0.06866881,-2.0900266,0.004107283,1.5107011,0.8614753,0.04,0.039999917,-9.795771,0.3712874948978424,-0.2663455,0.17611097,-0.007015164941549301,0.019368742
711.4666666663483,-0.16175441,-0.5533333,-0.06936823,-2.0873206,0.0041480823,1.5100888,0.862242,0.04,0.039999917,-9.795424,0.37398022413253784,-0.26959792,0.17614368,-0.007077630143612623,0.01923972
711.4833333330149,-0.163383,-0.5510083,-0.07006745,-2.0846152,0.0041888687,1.5094767,0.86300856,0.04,0.039999917,-9.7950325,0.37662452459335327,-0.2728434,0.17615399,-0.007140208035707474,0.019107928
711.4999999996816,-0.16501087,-0.54868436,-0.07076641,-2.0819116,0.0042296364,1.508865,0.86377496,0.04,0.039999917,-9.794667,0.37924981117248535,-0.27609223,0.1761412,-0.00720320176333189,0.018973785
711.5166666663482,-0.16663782,-0.54636157,-0.071465015,-2.0792105,0.0042703818,1.5082535,0.8645412,0.04,0.039999917,-9.794415,0.38182443380355835,-0.27934435,0.1761056,-0.0072690690867602825,0.018837309
711.5333333330149,-0.16826363,-0.54404044,-0.072163165,-2.076511,0.004311099,1.5076424,0.8653064,0.04,0.03999992,-9.794261,0.3843843340873718,-0.28262907,0.17604588,-0.007343651261180639,0.018699974
711.5499999996815,-0.16988817,-0.5417211,-0.07286079,-2.0738122,0.004351783,1.5070317,0.866071,0.04,0.03999992,-9.793837,0.3868989646434784,-0.285889,0.17596625,-0.007415081840008497,0.018560374
711.5666666663482,-0.17151122,-0.5394038,-0.07355781,-2.0711174,0.0043924265,1.5064216,0.8668353,0.04,0.03999992,-9.7933855,0.3893890082836151,-0.28915617,0.17586367,-0.007484368979930878,0.018418314
711.5833333330148,-0.17313254,-0.53708905,-0.07425414,-2.068425,0.0044330284,1.505812,0.86759824,0.04,0.039999925,-9.793238,0.39183878898620605,-0.29243127,0.17573655,-0.007561079226434231,0.018275358
711.5999999996815,-0.17475198,-0.5347769,-0.07494969,-2.0657358,0.0044735842,1.5052036,0.8683607,0.04,0.039999925,-9.792818,0.3942520022392273,-0.29568627,0.17558946,-0.007634888868778944,0.01813009
711.6166666663481,-0.1763693,-0.5324677,-0.07564436,-2.0630498,0.004514086,1.5045959,0.8691218,0.04,0.03999993,-9.792577,0.39663493633270264,-0.29896384,0.17541799,-0.007711932063102722,0.017983327
711.6333333330148,-0.1779843,-0.530162,-0.07633808,-2.0603683,0.0045545283,1.5039889,0.8698822,0.04,0.039999925,-9.792186,0.39896920323371887,-0.3022317,0.17522576,-0.007787431590259075,0.017834652
711.6499999996814,-0.1795968,-0.5278598,-0.077030785,-2.0576901,0.0045949076,1.5033828,0.8706411,0.04,0.03999993,-9.791935,0.4012890160083771,-0.3054789,0.17500873,-0.007866517640650272,0.017684238
711.6666666663481,-0.18120664,-0.52556145,-0.07772235,-2.055017,0.00463522,1.5027776,0.87139887,0.04,0.039999925,-9.791533,0.4035617709159851,-0.30872947,0.17477104,-0.00794351939111948,0.01753261
711.6833333330147,-0.18281354,-0.5232672,-0.07841271,-2.0523486,0.004675459,1.5021737,0.8721555,0.04,0.039999925,-9.791301,0.40579620003700256,-0.3119851,0.17451,-0.008024760521948338,0.01737988
711.6999999996814,-0.1844174,-0.5209773,-0.079101786,-2.0496845,0.004715622,1.5015708,0.8729103,0.04,0.03999992,-9.790999,0.407993882894516,-0.3152414,0.17422579,-0.008106246590614319,0.01722576
711.716666666348,-0.18601798,-0.5186921,-0.07978949,-2.0470266,0.0047557,1.5009692,0.8736635,0.04,0.03999992,-9.790604,0.41014155745506287,-0.3184698,0.17392038,-0.008185331709682941,0.017069384
711.7333333330147,-0.18761508,-0.51641184,-0.08047576,-2.0443752,0.0047956933,1.5003691,0.87441504,0.04,0.03999992,-9.790381,0.41229066252708435,-0.32173145,0.17359303,-0.008268438279628754,0.01691282
711.7499999996813,-0.18920848,-0.5141368,-0.0811605,-2.0417292,0.0048355917,1.49977,0.8751656,0.04,0.03999992,-9.7901745,0.4143824577331543,-0.3249768,0.17324306,-0.008355416357517242,0.016755465
711.766666666348,-0.19079801,-0.5118672,-0.08184364,-2.0390892,0.0048753936,1.4991726,0.8759142,0.04,0.03999993,-9.78982,0.4164336323738098,-0.3281978,0.1728676,-0.008441761136054993,0.016596897
711.7833333330146,-0.19238347,-0.5096036,-0.08252506,-2.036456,0.0049150926,1.4985765,0.87666094,0.04,0.039999932,-9.789441,0.41844919323921204,-0.33143336,0.17247002,-0.008525336161255836,0.016436411
711.7999999996813,-0.19396469,-0.5073459,-0.0832047,-2.0338304,0.0049546864,1.497982,0.87740576,0.04,0.039999925,-9.78919,0.4204320013523102,-0.33462495,0.17205045,-0.008611717261373997,0.01627563
711.8166666663479,-0.1955415,-0.50509447,-0.08388245,-2.031212,0.0049941675,1.4973894,0.87814766,0.04,0.03999992,-9.788953,0.4223746955394745,-0.3378591,0.17160809,-0.008700735867023468,0.016114457
711.8333333330146,-0.19711365,-0.50284964,-0.08455828,-2.0286014,0.005033533,1.4967988,0.87888724,0.04,0.03999992,-9.788672,0.42427679896354675,-0.34107706,0.17114748,-0.00878958310931921,0.015952444
711.8499999996812,-0.198681,-0.50061184,-0.085232064,-2.025999,0.005072778,1.4962097,0.8796244,0.04,0.03999992,-9.788398,0.42614123225212097,-0.34427947,0.17066552,-0.008878613822162151,0.01578963
711.8666666663479,-0.20024334,-0.4983811,-0.085903734,-2.0234046,0.0051118974,1.4956228,0.8803597,0.04,0.039999925,-9.788145,0.42796948552131653,-0.34744474,0.17016192,-0.008969695307314396,0.015625877
711.8833333330145,-0.20180048,-0.4961578,-0.0865732,-2.0208185,0.0051508844,1.4950374,0.8810931,0.04,0.039999913,-9.787817,0.4297706186771393,-0.35062918,0.16963468,-0.009059322066605091,0.015461735
711.8999999996812,-0.20335221,-0.4939422,-0.08724041,-2.0182421,0.0051897354,1.4944543,0.881823,0.04,0.03999988,-9.787531,0.4315124452114105,-0.3537842,0.16908291,-0.009149841032922268,0.015296122
711.9166666663479,-0.20489836,-0.4917345,-0.08790531,-2.0156744,0.0052284473,1.4938731,0.88255066,0.04,0.03999988,-9.787347,0.43323370814323425,-0.35695204,0.16851403,-0.0092430729418993,0.015131022
711.9333333330145,-0.20643878,-0.48953497,-0.08856774,-2.0131164,0.0052670143,1.4932945,0.8832759,0.04,0.03999988,-9.78702,0.4349188506603241,-0.36009708,0.16792156,-0.009334913454949856,0.014965672
711.9499999996812,-0.20797327,-0.48734388,-0.08922769,-2.0105686,0.0053054336,1.4927179,0.883998,0.04,0.03999987,-9.7867985,0.43655750155448914,-0.36324126,0.16730632,-0.009427729994058609,0.014800252
711.9666666663478,-0.20950164,-0.4851616,-0.08988507,-2.0080304,0.005343699,1.4921434,0.8847174,0.04,0.039999876,-9.786629,0.43813180923461914,-0.36633542,0.16667117,-0.009523933753371239,0.014634478
711.9833333330145,-0.21102369,-0.48298824,-0.09053976,-2.005503,0.0053818054,1.4915713,0.8854338,0.04,0.039999876,-9.786252,0.4397418200969696,-0.36945632,0.16601406,-0.009617491625249386,0.0144685395
711.9999999996811,-0.2125393,-0.48082414,-0.091191724,-2.0029867,0.0054197498,1.491002,0.8861469,0.04,0.039999876,-9.786066,0.44127345085144043,-0.37256697,0.1653357,-0.009713714942336082,0.014302993
712.0166666663478,-0.21404822,-0.47866958,-0.09184086,-2.0004811,0.0054575284,1.490435,0.88685733,0.04,0.03999988,-9.785862,0.44276854395866394,-0.37565628,0.1646374,-0.009811011143028736,0.01413692
712.0333333330144,-0.21555033,-0.47652474,-0.09248711,-1.9979874,0.0054951343,1.4898704,0.88756436,0.04,0.039999876,-9.785572,0.44422176480293274,-0.3787214,0.16391642,-0.00990681815892458,0.013970512
712.0499999996811,-0.21704549,-0.47438994,-0.0931304,-1.9955047,0.005532563,1.4893087,0.88826793,0.04,0.039999876,-9.785422,0.44564497470855713,-0.38177583,0.16317515,-0.010007196106016636,0.013805674
712.0666666663477,-0.21853341,-0.4722654,-0.09377066,-1.9930342,0.0055698142,1.4887495,0.888968,0.04,0.039999876,-9.785105,0.44704508781433105,-0.3848209,0.16241355,-0.01010441966354847,0.013640297
712.0833333330144,-0.220014,-0.4701513,-0.0944078,-1.9905759,0.00560688,1.4881933,0.88966465,0.04,0.03999988,-9.784899,0.44838258624076843,-0.38784045,0.1616325,-0.010203106328845024,0.013473935
712.099999999681,-0.22148703,-0.46804786,-0.09504176,-1.9881306,0.0056437566,1.4876397,0.89035803,0.04,0.039999876,-9.784681,0.4497082233428955,-0.39085972,0.16083045,-0.010301955975592136,0.013310087
712.1166666663477,-0.22295237,-0.4659555,-0.095672436,-1.9856974,0.005680441,1.487089,0.8910478,0.04,0.039999876,-9.784531,0.45097625255584717,-0.39386553,0.16000713,-0.010404356755316257,0.013145793
712.1333333330143,-0.2244099,-0.46387437,-0.09629978,-1.9832776,0.0057169273,1.4865414,0.89173377,0.04,0.039999876,-9.784219,0.4522157907485962,-0.39682773,0.15916394,-0.010503421537578106,0.01298178
712.149999999681,-0.2258593,-0.46180463,-0.096923724,-1.9808706,0.005753212,1.4859968,0.89241594,0.04,0.039999876,-9.78405,0.4534304738044739,-0.39979514,0.15830086,-0.010604496113955975,0.01281862
712.1666666663476,-0.22730051,-0.45974678,-0.09754419,-1.9784777,0.00578929,1.4854554,0.89309406,0.04,0.03999988,-9.783795,0.45458734035491943,-0.40273353,0.1574186,-0.01070417184382677,0.012654665
712.1833333330143,-0.22873335,-0.45770082,-0.0981611,-1.9760991,0.00582516,1.484917,0.8937682,0.04,0.039999876,-9.78362,0.45573487877845764,-0.40564963,0.15651743,-0.010804819874465466,0.012492552
712.1999999996809,-0.23015772,-0.455667,-0.0987744,-1.9737343,0.0058608158,1.4843818,0.8944384,0.04,0.039999876,-9.783472,0.4568272531032562,-0.40855816,0.15559755,-0.010907446034252644,0.012331158
712.2166666663476,-0.23157342,-0.45364556,-0.09938403,-1.9713838,0.005896254,1.4838499,0.8951046,0.04,0.039999876,-9.783255,0.4578472673892975,-0.41140267,0.15465754,-0.011009342037141323,0.01217003
712.2333333330142,-0.23298025,-0.45163676,-0.09998991,-1.9690481,0.0059314705,1.4833213,0.8957666,0.04,0.039999876,-9.783045,0.45894110202789307,-0.4143161,0.1536979,-0.011111871339380741,0.012010006
712.2499999996809,-0.23437808,-0.44964075,-0.10059194,-1.9667273,0.0059664603,1.4827962,0.8964244,0.04,0.039999876,-9.782848,0.45993372797966003,-0.41715768,0.15271994,-0.011214436031877995,0.011850358
712.2666666663475,-0.23576672,-0.44765788,-0.10119009,-1.9644216,0.0060012224,1.4822743,0.8970779,0.04,0.03999988,-9.782651,0.4609015882015228,-0.41999036,0.151723,-0.011316105723381042,0.011691911
712.2833333330142,-0.23714606,-0.44568834,-0.10178431,-1.9621317,0.0060357484,1.4817561,0.89772695,0.04,0.039999876,-9.782485,0.46182727813720703,-0.42278177,0.15070799,-0.011419437825679779,0.011534122
712.2999999996808,-0.23851594,-0.44373214,-0.10237448,-1.959858,0.0060700383,1.4812415,0.8983715,0.04,0.03999988,-9.782327,0.46273723244667053,-0.4255715,0.14967512,-0.011523164808750153,0.011377746
712.3166666663475,-0.23987618,-0.44178978,-0.10296056,-1.9575999,0.006104087,1.4807303,0.8990116,0.04,0.039999876,-9.782214,0.4635947644710541,-0.42835516,0.14862426,-0.011629524640738964,0.011222409
712.3333333330141,-0.24122672,-0.4398613,-0.10354251,-1.9553579,0.0061378917,1.4802228,0.899647,0.04,0.039999872,-9.782005,0.46442145109176636,-0.4310915,0.14755554,-0.011734369210898876,0.011068282
712.3499999996808,-0.2425673,-0.437947,-0.10412025,-1.9531323,0.006171448,1.4797192,0.9002778,0.04,0.039999876,-9.78182,0.4652358889579773,-0.4338091,0.14646938,-0.01183950062841177,0.010914854
712.3666666663474,-0.24389784,-0.43604708,-0.104693696,-1.9509236,0.006204753,1.4792193,0.9009038,0.04,0.039999876,-9.781656,0.4659980535507202,-0.43651155,0.14536637,-0.011943950317800045,0.0107627455
712.3833333330141,-0.2452182,-0.4341617,-0.10526282,-1.9487319,0.0062378026,1.4787234,0.90152514,0.04,0.03999988,-9.781501,0.4667375981807709,-0.4391776,0.14424588,-0.012048310600221157,0.010611485
712.3999999996807,-0.24652825,-0.4322911,-0.105827555,-1.9465573,0.006270594,1.4782313,0.9021415,0.04,0.039999872,-9.781369,0.467458039522171,-0.4418397,0.14310846,-0.012153280898928642,0.010462024
712.4166666663474,-0.24782781,-0.43043545,-0.10638781,-1.9444003,0.006303122,1.4777431,0.90275294,0.04,0.039999876,-9.781199,0.4681292474269867,-0.44446078,0.14195466,-0.012257866561412811,0.010313189
712.433333333014,-0.24911678,-0.4285949,-0.10694358,-1.9422606,0.0063353856,1.4772588,0.9033594,0.04,0.039999872,-9.781096,0.46877485513687134,-0.44706538,0.1407849,-0.012364408932626247,0.010166651
712.4499999996807,-0.25039494,-0.42676967,-0.107494764,-1.9401389,0.006367378,1.4767785,0.9039609,0.04,0.039999872,-9.780899,0.4693983197212219,-0.44963753,0.13959864,-0.012469428591430187,0.010020314
712.4666666663474,-0.25166228,-0.4249599,-0.10804133,-1.9380356,0.0063991016,1.4763025,0.9045573,0.04,0.039999865,-9.780824,0.4699134826660156,-0.45213577,0.13839695,-0.012575512751936913,0.009876275
712.483333333014,-0.2529187,-0.4231658,-0.108583204,-1.9359503,0.0064305495,1.4758307,0.9051484,0.04,0.039999872,-9.780704,0.4705441892147064,-0.4547411,0.13717882,-0.012682793661952019,0.009733288
712.4999999996807,-0.25416392,-0.4213876,-0.10912034,-1.9338833,0.006461717,1.4753628,0.9057342,0.04,0.039999872,-9.780532,0.47108012437820435,-0.45725423,0.13594629,-0.012788213789463043,0.00959191
712.5166666663473,-0.25539795,-0.4196255,-0.109652676,-1.9318349,0.0064926012,1.4748993,0.9063147,0.04,0.039999835,-9.780377,0.4715731739997864,-0.4597123,0.13469902,-0.01289382390677929,0.009450497
712.533333333014,-0.25662062,-0.4178796,-0.1101802,-1.9298054,0.0065232036,1.4744401,0.90688986,0.04,0.039999828,-9.780244,0.4720686972141266,-0.4621725,0.13343722,-0.01299869455397129,0.009312012
712.5499999996806,-0.25783175,-0.41615018,-0.11070283,-1.9277949,0.006553517,1.473985,0.9074596,0.04,0.03999983,-9.780122,0.47252002358436584,-0.46459258,0.13216062,-0.013103116303682327,0.009174586
712.5666666663473,-0.25903124,-0.41443735,-0.11122052,-1.9258039,0.0065835407,1.4735342,0.9080239,0.04,0.03999983,-9.779992,0.47294801473617554,-0.46697992,0.1308699,-0.013207516632974148,0.009039084
712.5833333330139,-0.26021904,-0.41274112,-0.11173319,-1.9238324,0.006613271,1.473088,0.9085828,0.04,0.03999983,-9.77989,0.4733290672302246,-0.4693537,0.12956603,-0.01331271231174469,0.008904864
712.5999999996806,-0.26139507,-0.41106182,-0.11224082,-1.9218808,0.0066427067,1.4726464,0.90913606,0.04,0.039999828,-9.779813,0.47370097041130066,-0.47170913,0.12824807,-0.013418183661997318,0.008772747
712.6166666663472,-0.26255918,-0.40939957,-0.11274338,-1.9199488,0.0066718427,1.472209,0.9096837,0.04,0.039999828,-9.779729,0.47405728697776794,-0.47402343,0.12691683,-0.013524288311600685,0.008642335
712.6333333330139,-0.26371118,-0.40775442,-0.11324079,-1.9180368,0.0067006773,1.4717764,0.9102256,0.04,0.03999983,-9.779583,0.47438177466392517,-0.47630465,0.12557243,-0.013629544526338577,0.0085130455
712.6499999996805,-0.2648511,-0.40612665,-0.11373301,-1.916145,0.0067292065,1.4713483,0.91076183,0.04,0.03999983,-9.779504,0.47467467188835144,-0.4785836,0.12421614,-0.013734142296016216,0.008385934
712.6666666663472,-0.26597872,-0.40451643,-0.114219986,-1.9142734,0.006757429,1.4709247,0.9112924,0.04,0.039999835,-9.77938,0.47494596242904663,-0.48081136,0.12284747,-0.013837968930602074,0.008259775
712.6833333330138,-0.26709408,-0.40292373,-0.11470169,-1.9124222,0.006785344,1.4705058,0.9118171,0.04,0.03999984,-9.779283,0.4751932919025421,-0.48300576,0.121466585,-0.013941957615315914,0.008135488
712.6999999996805,-0.2681969,-0.40134883,-0.1151781,-1.9105922,0.0068129487,1.4700917,0.912336,0.04,0.039999835,-9.779194,0.47543370723724365,-0.485187,0.12007396,-0.01404545921832323,0.008013309
712.7166666663471,-0.2692872,-0.3997918,-0.11564918,-1.9087825,0.0068402383,1.4696822,0.9128489,0.04,0.03999984,-9.779194,0.4755377173423767,-0.4872642,0.11866989,-0.014150511473417282,0.00789299
712.7333333330138,-0.27036497,-0.39825282,-0.116114855,-1.9069937,0.006867213,1.4692774,0.9133559,0.04,0.03999984,-9.779015,0.4758078157901764,-0.48945275,0.1172556,-0.014253219589591026,0.0077735838
712.7499999996804,-0.27143002,-0.39673194,-0.1165751,-1.9052263,0.00689387,1.4688773,0.913857,0.04,0.039999835,-9.778929,0.47598451375961304,-0.4915345,0.11583037,-0.014355754479765892,0.0076565226
712.7666666663471,-0.27248225,-0.39522928,-0.11702988,-1.9034802,0.0069202078,1.468482,0.9143519,0.04,0.03999983,-9.778893,0.47611716389656067,-0.49360424,0.11439434,-0.014459479600191116,0.007540927
712.7833333330137,-0.27352163,-0.39374503,-0.11747917,-1.901755,0.0069462224,1.4680917,0.91484076,0.04,0.03999983,-9.778809,0.47624093294143677,-0.49562663,0.11294936,-0.014562864787876606,0.007426977
712.7999999996804,-0.27454808,-0.39227927,-0.1179229,-1.9000517,0.006971913,1.4677061,0.9153235,0.04,0.03999983,-9.77869,0.4763406813144684,-0.49762794,0.11149461,-0.0146638173609972,0.00731452
712.816666666347,-0.27556148,-0.39083213,-0.11836109,-1.8983701,0.006997279,1.4673253,0.9158002,0.04,0.03999983,-9.778674,0.47641992568969727,-0.49959347,0.11003115,-0.014766672626137733,0.0072048316
712.8333333330137,-0.27656183,-0.38940364,-0.11879365,-1.8967098,0.0070223166,1.4669496,0.9162706,0.04,0.039999835,-9.778621,0.4764859974384308,-0.50153536,0.108558014,-0.014869790524244308,0.0070967646
712.8499999996803,-0.27754894,-0.387994,-0.11922056,-1.8950716,0.007047025,1.4665788,0.916735,0.04,0.039999835,-9.778481,0.47651582956314087,-0.50344115,0.10707756,-0.014969551004469395,0.006989082
712.866666666347,-0.27852285,-0.38660312,-0.11964184,-1.8934556,0.0070714024,1.4662131,0.9171931,0.04,0.039999835,-9.778469,0.4765394926071167,-0.50531584,0.10558843,-0.015070227906107903,0.006884521
712.8833333330136,-0.27948353,-0.38523123,-0.12005744,-1.8918617,0.0070954473,1.4658525,0.9176449,0.04,0.039999835,-9.778434,0.4765469431877136,-0.5071759,0.10409137,-0.015171507373452187,0.0067818547
712.8999999996803,-0.28043082,-0.38387847,-0.12046732,-1.8902898,0.007119158,1.4654968,0.91809046,0.04,0.039999835,-9.77839,0.4765426516532898,-0.50899637,0.10258725,-0.0152719272300601,0.0066801943
712.9166666663469,-0.28136477,-0.3825448,-0.120871454,-1.8887398,0.007142535,1.4651461,0.91852975,0.04,0.039999835,-9.778312,0.476514607667923,-0.5107656,0.10107635,-0.015371598303318024,0.006580819
712.9333333330136,-0.28228524,-0.38123035,-0.12126982,-1.8872123,0.0071655763,1.4648005,0.9189627,0.04,0.03999984,-9.778227,0.4764724373817444,-0.5125248,0.09955831,-0.015469486825168133,0.0064826086
712.9499999996802,-0.28319222,-0.37993506,-0.12166239,-1.8857074,0.007188279,1.4644598,0.9193893,0.04,0.03999983,-9.778192,0.4764043688774109,-0.51423717,0.09803471,-0.015566897578537464,0.00638646
712.9666666663469,-0.2840856,-0.37865922,-0.12204919,-1.8842252,0.007210641,1.4641244,0.9198096,0.04,0.039999835,-9.778222,0.4762274920940399,-0.5158555,0.09650507,-0.01566627435386181,0.0062914933
712.9833333330135,-0.28496543,-0.37740266,-0.122430176,-1.882766,0.007232665,1.4637941,0.92022336,0.04,0.03999983,-9.778177,0.4762378931045532,-0.5175971,0.09496996,-0.01576494239270687,0.0061992146
712.9999999996802,-0.28583157,-0.37616563,-0.12280533,-1.8813289,0.0072543495,1.4634687,0.92063075,0.04,0.03999983,-9.778189,0.4761333763599396,-0.51924455,0.093430266,-0.01586499623954296,0.006108946
713.0166666663469,-0.28668413,-0.3749481,-0.1231746,-1.8799137,0.0072756917,1.4631486,0.9210317,0.04,0.03999983,-9.778097,0.47601383924484253,-0.5208252,0.091886185,-0.015963729470968246,0.006020913
713.0333333330135,-0.28752297,-0.37375015,-0.12353801,-1.8785214,0.0072966903,1.4628333,0.92142624,0.04,0.039999828,-9.777941,0.4758741557598114,-0.5223843,0.090337805,-0.016056597232818604,0.0059319464
713.0499999996802,-0.2883481,-0.37257165,-0.123895526,-1.8771524,0.0073173475,1.4625236,0.9218143,0.04,0.039999824,-9.777964,0.47574350237846375,-0.5239133,0.088786006,-0.01615181565284729,0.0058478955
713.0666666663468,-0.28915936,-0.37141284,-0.12424716,-1.8758067,0.0073376596,1.4622188,0.92219603,0.04,0.03999983,-9.777997,0.47555306553840637,-0.5254313,0.08723077,-0.0162470955401659,0.005762076
713.0833333330135,-0.2899568,-0.37027368,-0.12459286,-1.8744837,0.007357629,1.4619193,0.92257106,0.04,0.03999983,-9.7780285,0.47538068890571594,-0.5268955,0.08567274,-0.016344644129276276,0.0056802714
713.0999999996801,-0.29074055,-0.36915416,-0.124932684,-1.8731833,0.007377253,1.461625,0.92293954,0.04,0.03999979,-9.77799,0.4751797318458557,-0.52833706,0.08411363,-0.016440797597169876,0.0055989115
713.1166666663468,-0.29151055,-0.3680544,-0.12526657,-1.8719058,0.0073965327,1.4613357,0.92330194,0.04,0.03999979,-9.7779255,0.4750053584575653,-0.5297442,0.082552366,-0.0165343526750803,0.005520173
713.1333333330134,-0.29226676,-0.3669743,-0.12559451,-1.8706511,0.007415465,1.4610517,0.9236576,0.04,0.039999794,-9.777931,0.47479766607284546,-0.53110623,0.08098764,-0.016628772020339966,0.0054432736
713.1499999996801,-0.29300913,-0.365914,-0.12591648,-1.8694196,0.007434055,1.460773,0.9240069,0.04,0.03999979,-9.777893,0.47457176446914673,-0.5324568,0.079423055,-0.016721080988645554,0.0053678546
713.1666666663467,-0.29373768,-0.36487326,-0.12623253,-1.8682107,0.0074522994,1.4604996,0.9243495,0.04,0.03999979,-9.777908,0.4743242859840393,-0.53375643,0.077857696,-0.016813479363918304,0.0052924408
713.1833333330134,-0.2944523,-0.36385232,-0.12654267,-1.8670245,0.007470198,1.4602313,0.9246857,0.04,0.039999798,-9.7778635,0.47408217191696167,-0.53504187,0.076292984,-0.016903309151530266,0.0052193888
713.19999999968,-0.29515326,-0.362851,-0.12684691,-1.8658613,0.0074877515,1.459968,0.9250154,0.04,0.039999794,-9.777838,0.47382545471191406,-0.536271,0.074728504,-0.016992267221212387,0.005148275
713.2166666663467,-0.29584047,-0.36186948,-0.12714523,-1.8647212,0.007504962,1.4597099,0.9253386,0.04,0.039999794,-9.777878,0.47348693013191223,-0.5373994,0.07316451,-0.01708167977631092,0.0050799474
713.2333333330133,-0.2965138,-0.3609075,-0.12743762,-1.863604,0.0075218272,1.4594569,0.92565525,0.04,0.039999798,-9.777871,0.4733075201511383,-0.5386645,0.071600996,-0.017171144485473633,0.0050103096
713.24999999968,-0.29717332,-0.35996518,-0.12772408,-1.8625093,0.0075383508,1.4592092,0.92596537,0.04,0.039999798,-9.777878,0.4730195105075836,-0.53982663,0.070040636,-0.01725991815328598,0.004944562
713.2666666663466,-0.29781917,-0.35904256,-0.12800458,-1.8614374,0.0075545283,1.4589667,0.9262692,0.04,0.039999798,-9.777849,0.47271522879600525,-0.54092735,0.068482965,-0.017346855252981186,0.0048784427
713.2833333330133,-0.29845124,-0.35813937,-0.12827924,-1.8603883,0.0075703654,1.4587293,0.92656636,0.04,0.0399998,-9.777851,0.4724200665950775,-0.5420006,0.0669268,-0.01743285544216633,0.004814294
713.2999999996799,-0.29906964,-0.35725567,-0.12854798,-1.8593622,0.007585859,1.458497,0.92685723,0.04,0.0399998,-9.77787,0.47212469577789307,-0.5430627,0.06537507,-0.017518403008580208,0.0047534513
713.3166666663466,-0.29967442,-0.35639152,-0.12881087,-1.8583589,0.0076010106,1.4582698,0.92714167,0.04,0.039999805,-9.777928,0.4717751741409302,-0.5440906,0.06382649,-0.017604835331439972,0.0046913335
713.3333333330132,-0.30026555,-0.35554686,-0.12906787,-1.8573781,0.007615825,1.4580481,0.9274197,0.04,0.039999805,-9.777948,0.4714862108230591,-0.54507023,0.06228201,-0.01769079454243183,0.004633533
713.3499999996799,-0.30084312,-0.3547215,-0.12931904,-1.8564197,0.0076302993,1.4578313,0.92769134,0.04,0.03999981,-9.777938,0.4711192846298218,-0.5460282,0.060742356,-0.017773663625121117,0.0045736474
713.3666666663465,-0.30140713,-0.3539154,-0.12956439,-1.8554837,0.0076444373,1.4576193,0.9279567,0.04,0.039999805,-9.777965,0.47080355882644653,-0.5469498,0.059208144,-0.017856648191809654,0.0045184884
713.3833333330132,-0.30195776,-0.35312843,-0.1298039,-1.8545698,0.0076582376,1.4574126,0.92821574,0.04,0.03999981,-9.777973,0.4704273045063019,-0.5478355,0.05767945,-0.01793951727449894,0.0044614994
713.3999999996798,-0.30249494,-0.3523606,-0.13003765,-1.8536783,0.007671705,1.457211,0.9284685,0.04,0.03999981,-9.778002,0.4700896143913269,-0.5487106,0.056156784,-0.01802089810371399,0.004407616
713.4166666663465,-0.30301872,-0.35161188,-0.13026568,-1.8528092,0.0076848385,1.4570142,0.92871493,0.04,0.03999981,-9.778032,0.46972203254699707,-0.54953796,0.054640397,-0.01810135878622532,0.004354439
713.4333333330131,-0.30352923,-0.3508821,-0.130488,-1.8519621,0.007697641,1.4568223,0.92895496,0.04,0.03999981,-9.778082,0.4693543016910553,-0.5503324,0.053132046,-0.018182257190346718,0.0043031503
713.4499999996798,-0.30402654,-0.3501712,-0.13070461,-1.8511368,0.0077101127,1.4566355,0.9291889,0.04,0.03999981,-9.77811,0.46899381279945374,-0.55109894,0.051631916,-0.018262648954987526,0.004254006
713.4666666663464,-0.30451074,-0.34947905,-0.13091555,-1.8503333,0.0077222553,1.4564536,0.92941666,0.04,0.039999813,-9.778161,0.46849554777145386,-0.5517519,0.05013944,-0.018340956419706345,0.004203004
713.4833333330131,-0.3049818,-0.34880546,-0.13112083,-1.8495512,0.0077340733,1.4562767,0.92963827,0.04,0.03999982,-9.778179,0.4682214558124542,-0.5525416,0.048656005,-0.01841917261481285,0.0041560405
713.4999999996797,-0.30543986,-0.3481503,-0.13132052,-1.8487905,0.007745566,1.4561044,0.9298539,0.04,0.039999817,-9.778175,0.4678165018558502,-0.5532063,0.04718223,-0.018494725227355957,0.0041093277
713.5166666663464,-0.30588517,-0.34751368,-0.13151465,-1.8480514,0.0077567366,1.4559371,0.9300634,0.04,0.039999817,-9.778227,0.46740010380744934,-0.5538555,0.04571768,-0.018570518121123314,0.0040619043
713.533333333013,-0.30631754,-0.3468952,-0.13170327,-1.8473336,0.007767588,1.4557748,0.9302669,0.04,0.039999817,-9.7782755,0.4670264720916748,-0.55446076,0.04426364,-0.018644699826836586,0.004018925
713.5499999996797,-0.30673718,-0.34629482,-0.13188641,-1.8466365,0.007778123,1.455617,0.9304644,0.04,0.03999982,-9.778332,0.4665980041027069,-0.5550545,0.042820983,-0.0187178086489439,0.003975665
713.5666666663464,-0.30714425,-0.34571236,-0.1320641,-1.8459609,0.007788343,1.455464,0.9306561,0.04,0.03999982,-9.778355,0.46616291999816895,-0.55558145,0.04139034,-0.018790805712342262,0.003931443
713.583333333013,-0.30753878,-0.3451478,-0.1322364,-1.8453052,0.0077982517,1.4553157,0.93084174,0.04,0.039999824,-9.778472,0.4657506048679352,-0.55612195,0.03997109,-0.01886371150612831,0.003889998
713.5999999996797,-0.307921,-0.34460092,-0.13240334,-1.8446707,0.007807852,1.4551722,0.93102163,0.04,0.03999982,-9.778436,0.4653351902961731,-0.556599,0.03856548,-0.01893291249871254,0.0038515076
713.6166666663463,-0.30829084,-0.3440715,-0.132565,-1.8440561,0.007817145,1.4550331,0.9311958,0.04,0.039999824,-9.778549,0.4648841619491577,-0.5570582,0.037172683,-0.01900283619761467,0.0038101047
713.633333333013,-0.3086485,-0.34355935,-0.13272136,-1.8434615,0.007826137,1.4548986,0.9313643,0.04,0.039999824,-9.778579,0.46445631980895996,-0.55748653,0.035793867,-0.019070858135819435,0.0037733521
713.6499999996796,-0.30899432,-0.3430644,-0.13287257,-1.8428872,0.0078348275,1.4547687,0.93152714,0.04,0.039999828,-9.778628,0.4639923572540283,-0.55787927,0.03442973,-0.019137507304549217,0.0037360913
713.6666666663463,-0.3093281,-0.34258625,-0.13301866,-1.8423326,0.007843221,1.4546431,0.9316844,0.04,0.03999983,-9.77871,0.4635523557662964,-0.5582506,0.03307984,-0.0192035511136055,0.0036968049
713.6833333330129,-0.3096501,-0.34212494,-0.13315967,-1.8417974,0.007851323,1.4545219,0.9318361,0.04,0.039999828,-9.778833,0.46311232447624207,-0.55860084,0.031746134,-0.019270945340394974,0.0036638868
713.6999999996796,-0.30996048,-0.34168023,-0.13329563,-1.841281,0.007859131,1.4544051,0.93198246,0.04,0.039999828,-9.778856,0.46263283491134644,-0.55890024,0.030428657,-0.019335545599460602,0.0036294595
713.7166666663462,-0.31025946,-0.34125176,-0.13342665,-1.8407841,0.007866656,1.4542924,0.9321234,0.04,0.03999983,-9.778917,0.46207916736602783,-0.5591027,0.029127851,-0.019398199394345284,0.003594981
713.7333333330129,-0.31054726,-0.3408395,-0.1335528,-1.8403058,0.007873898,1.454184,0.932259,0.04,0.039999835,-9.779022,0.4616900086402893,-0.5594381,0.027843865,-0.0194619819521904,0.003559507
713.7499999996795,-0.31082374,-0.34044302,-0.13367411,-1.839846,0.007880865,1.4540797,0.9323894,0.04,0.039999835,-9.77908,0.4612637758255005,-0.55966187,0.026577735,-0.01952306367456913,0.0035297056
713.7666666663462,-0.3110893,-0.3400623,-0.13379067,-1.8394045,0.007887556,1.4539798,0.93251467,0.04,0.039999835,-9.779193,0.4607323408126831,-0.5598675,0.025330829,-0.019585629925131798,0.003496485
713.7833333330128,-0.311344,-0.33969694,-0.13390255,-1.8389806,0.0078939805,1.4538839,0.93263483,0.04,0.03999984,-9.779249,0.4602847993373871,-0.5600405,0.024102246,-0.019644293934106827,0.0034679335
713.7999999996795,-0.31158802,-0.33934677,-0.13400984,-1.8385745,0.007900135,1.4537921,0.9327499,0.04,0.039999843,-9.77931,0.4597693979740143,-0.56018394,0.022893993,-0.0197015218436718,0.0034384008
713.8166666663461,-0.31182155,-0.33901152,-0.13411257,-1.8381857,0.007906029,1.453704,0.9328602,0.039999995,0.039999835,-9.779438,0.4592575430870056,-0.56029874,0.021706436,-0.019758768379688263,0.003407011
713.8333333330128,-0.31204492,-0.3386909,-0.13421084,-1.8378141,0.00791167,1.4536197,0.9329656,0.03999999,0.039999835,-9.779498,0.4587799310684204,-0.56038004,0.02053965,-0.01981385052204132,0.0033801806
713.8499999996794,-0.31225806,-0.33838466,-0.13430475,-1.8374587,0.007917054,1.4535391,0.9330663,0.03999999,0.039999835,-9.779648,0.4582800567150116,-0.56044376,0.019394124,-0.019870249554514885,0.003354212
713.8666666663461,-0.3124614,-0.33809257,-0.13439438,-1.8371199,0.007922194,1.4534622,0.9331623,0.03999999,0.03999984,-9.779673,0.4577425718307495,-0.5604776,0.018270917,-0.019922960549592972,0.0033270451
713.8833333330127,-0.31265506,-0.33781427,-0.13447978,-1.8367974,0.007927092,1.4533892,0.93325377,0.03999999,0.03999984,-9.7797985,0.45724719762802124,-0.5604791,0.017170966,-0.019975220784544945,0.0033013972
713.8999999996794,-0.31283906,-0.3375495,-0.13456108,-1.8364906,0.00793175,1.4533197,0.93334085,0.03999999,0.039999843,-9.779917,0.456712931394577,-0.5604722,0.01609386,-0.02002646215260029,0.0032758352
713.916666666346,-0.31301373,-0.33729792,-0.13463828,-1.836199,0.007936177,1.4532539,0.9334235,0.03999999,0.039999843,-9.780044,0.4561719298362732,-0.56043,0.015041333,-0.020076662302017212,0.0032518008
713.9333333330127,-0.31317937,-0.33705923,-0.13471162,-1.8359227,0.007940379,1.4531914,0.93350196,0.03999999,0.039999846,-9.7801285,0.4556156098842621,-0.5603609,0.014014418,-0.020124027505517006,0.0032276893
713.9499999996793,-0.31333622,-0.33683315,-0.13478112,-1.8356606,0.00794436,1.4531324,0.93357617,0.03999999,0.039999846,-9.780278,0.45509254932403564,-0.56027853,0.013012299,-0.02017182856798172,0.0032051941
713.966666666346,-0.31348443,-0.33661944,-0.13484685,-1.8354127,0.007948127,1.4530764,0.9336464,0.03999999,0.039999846,-9.780346,0.4544857144355774,-0.5601017,0.012036326,-0.020214922726154327,0.0031828554
713.9833333330126,-0.31362417,-0.33641765,-0.13490894,-1.835179,0.007951684,1.4530231,0.9337127,0.03999999,0.03999985,-9.780452,0.45398300886154175,-0.5599947,0.011087345,-0.02025791071355343,0.003160676
713.9999999996793,-0.31375575,-0.3362274,-0.1349675,-1.8349586,0.007955038,1.4529734,0.9337753,0.03999999,0.03999985,-9.78062,0.4534188210964203,-0.5598223,0.01016583,-0.020302562043070793,0.0031404397
714.0166666663459,-0.31387946,-0.33604833,-0.13502264,-1.8347514,0.007958194,1.4529266,0.9338342,0.03999999,0.039999854,-9.780724,0.4528396725654602,-0.5596463,0.009271887,-0.020343227311968803,0.003119835
714.0333333330126,-0.3139955,-0.3358803,-0.13507444,-1.8345565,0.007961161,1.4528824,0.93388945,0.03999999,0.039999854,-9.780883,0.45227375626564026,-0.5594404,0.0084066875,-0.020383451133966446,0.0031008087
714.0499999996792,-0.3141041,-0.33572268,-0.13512304,-1.8343738,0.0079639405,1.4528409,0.9339411,0.03999999,0.039999858,-9.780954,0.45168545842170715,-0.5591788,0.007571233,-0.020421339198946953,0.0030816097
714.0666666663459,-0.3142056,-0.3355753,-0.1351686,-1.834203,0.0079665445,1.4528025,0.93398947,0.03999999,0.039999858,-9.781119,0.45109662413597107,-0.55893177,0.0067661284,-0.02045847848057747,0.003063981
714.0833333330125,-0.31430024,-0.33543766,-0.13521114,-1.8340436,0.007968975,1.4527663,0.93403465,0.03999999,0.039999858,-9.7812395,0.45050519704818726,-0.55865073,0.005992083,-0.020492063835263252,0.003046656
714.0999999996792,-0.31438828,-0.3353094,-0.1352508,-1.8338951,0.007971247,1.4527327,0.9340768,0.03999999,0.03999986,-9.781416,0.4498903453350067,-0.5583373,0.0052487333,-0.02052684873342514,0.0030297632
714.1166666663458,-0.31447005,-0.33519006,-0.13528773,-1.8337569,0.007973354,1.4527018,0.9341159,0.03999999,0.039999865,-9.781563,0.4492725729942322,-0.558012,0.0045377244,-0.020559970289468765,0.0030135843
714.1333333330125,-0.31454566,-0.33507928,-0.13532206,-1.8336289,0.007975316,1.4526721,0.93415225,0.03999999,0.03999986,-9.78169,0.4486686885356903,-0.5576806,0.0038594936,-0.020588818937540054,0.0029992852
714.1499999996792,-0.31461555,-0.33497664,-0.13535386,-1.83351,0.0079771355,1.4526458,0.9341858,0.03999999,0.039999865,-9.781916,0.44801828265190125,-0.55729264,0.0032148843,-0.020622694864869118,0.002985147
714.1666666663458,-0.31468016,-0.33488175,-0.1353833,-1.8334004,0.007978819,1.4526201,0.934217,0.03999999,0.03999987,-9.782001,0.4473666250705719,-0.5569352,0.0026053945,-0.020647644996643066,0.0029707432
714.1833333330125,-0.3147396,-0.3347941,-0.13541053,-1.8332987,0.007980377,1.4525977,0.9342458,0.03999999,0.039999865,-9.782214,0.44675004482269287,-0.5564996,0.0020292178,-0.020677749067544937,0.0029595955
714.1999999996791,-0.31479418,-0.33471337,-0.13543566,-1.8332053,0.007981815,1.4525759,0.9342723,0.039999995,0.039999872,-9.782292,0.4460850954055786,-0.55610734,0.0014882806,-0.020698508247733116,0.0029465337
714.2166666663458,-0.31484425,-0.33463898,-0.13545887,-1.8331193,0.007983142,1.4525571,0.9342966,0.039999995,0.039999876,-9.782559,0.4453703761100769,-0.55559576,0.0009847903,-0.020725704729557037,0.0029340289
714.2333333330124,-0.3148902,-0.3345705,-0.13548023,-1.8330399,0.007984361,1.4525388,0.9343191,0.039999995,0.039999876,-9.7826805,0.4447440207004547,-0.5552013,0.0005183799,-0.02074432373046875,0.0029238565
714.2499999996791,-0.3149323,-0.33450752,-0.13549988,-1.8329673,0.007985487,1.4525225,0.9343398,0.039999995,0.039999876,-9.782852,0.4440654218196869,-0.5547078,8.846782e-05,-0.020764747634530067,0.0029144462
714.2666666663457,-0.31497085,-0.33444944,-0.13551798,-1.8329,0.007986522,1.4525079,0.9343589,0.039999995,0.039999876,-9.783062,0.44342049956321716,-0.5542748,-0.0003066104,-0.02078341320157051,0.0029059919
714.2833333330124,-0.31500602,-0.33439606,-0.13553467,-1.8328387,0.007987478,1.4524935,0.93437624,0.039999995,0.03999988,-9.783158,0.4428292512893677,-0.5538843,-0.00066947105,-0.020797619596123695,0.0028970707
714.299999999679,-0.3150382,-0.334347,-0.13555005,-1.8327818,0.00798836,1.4524801,0.9343922,0.039999995,0.03999988,-9.783377,0.44228076934814453,-0.5534828,-0.0010010905,-0.020816510543227196,0.0028904774
714.3166666663457,-0.3150677,-0.3343018,-0.13556425,-1.8327293,0.007989171,1.452469,0.9344073,0.039999995,0.03999988,-9.783443,0.4417833387851715,-0.5531289,-0.0013054668,-0.0208329688757658,0.0028841433
714.3333333330123,-0.31509495,-0.33426017,-0.13557734,-1.8326812,0.00798992,1.4524584,0.9344207,0.039999995,0.03999988,-9.783528,0.4413328468799591,-0.5528486,-0.001586983,-0.02084229327738285,0.0028774138
714.349999999679,-0.31511974,-0.33422187,-0.13558938,-1.8326368,0.007990612,1.452448,0.93443334,0.039999995,0.03999988,-9.78366,0.4409426748752594,-0.55254537,-0.0018443527,-0.020853111520409584,0.0028716307
714.3666666663456,-0.3151424,-0.33418664,-0.13560045,-1.8325962,0.007991247,1.4524378,0.9344448,0.039999995,0.039999884,-9.78377,0.4405393600463867,-0.5522591,-0.0020814214,-0.02086586505174637,0.0028659548
714.3833333330123,-0.31516317,-0.33415425,-0.13561071,-1.8325586,0.007991831,1.4524302,0.9344555,0.039999995,0.039999884,-9.783896,0.44018715620040894,-0.55200225,-0.002297886,-0.020881392061710358,0.002862174
714.3999999996789,-0.31518224,-0.33412442,-0.13562012,-1.8325245,0.007992368,1.4524232,0.93446505,0.039999995,0.039999884,-9.783909,0.4398656487464905,-0.5518187,-0.0024978712,-0.020886199548840523,0.0028569938
714.4166666663456,-0.31519973,-0.33409697,-0.1356288,-1.8324933,0.007992862,1.4524164,0.9344746,0.039999995,0.039999884,-9.784054,0.4395730197429657,-0.5516065,-0.0026800742,-0.020893488079309464,0.0028527845
714.4333333330122,-0.31521568,-0.33407155,-0.1356368,-1.832464,0.007993318,1.4524096,0.9344824,0.039999995,0.039999884,-9.784146,0.439306378364563,-0.5514087,-0.0028510778,-0.020902110263705254,0.002849153
714.4499999996789,-0.3152303,-0.33404824,-0.1356442,-1.8324375,0.007993741,1.4524031,0.93449,0.039999995,0.039999884,-9.784165,0.43904975056648254,-0.5512219,-0.003003369,-0.020910771563649178,0.0028460715
714.4666666663455,-0.31524384,-0.3340268,-0.13565099,-1.8324127,0.00799413,1.4523966,0.93449765,0.039999995,0.039999884,-9.784289,0.43881893157958984,-0.55105245,-0.0031454293,-0.02092202752828598,0.0028436244
714.4833333330122,-0.3152561,-0.33400714,-0.13565724,-1.8323901,0.007994489,1.4523902,0.93450356,0.039999995,0.039999884,-9.784286,0.4386322796344757,-0.5509001,-0.0032791726,-0.02093227580189705,0.0028413357
714.4999999996788,-0.31526735,-0.33398902,-0.13566299,-1.8323691,0.007994819,1.4523865,0.9345093,0.039999995,0.039999884,-9.784361,0.438424289226532,-0.5507551,-0.0033962333,-0.020944371819496155,0.0028396235
714.5166666663455,-0.3152777,-0.33397233,-0.1356683,-1.8323501,0.007995125,1.452383,0.934515,0.039999995,0.039999884,-9.784337,0.4382410943508148,-0.55068773,-0.0035051852,-0.020945101976394653,0.0028365147
714.5333333330121,-0.31528714,-0.33395705,-0.13567317,-1.8323323,0.007995403,1.4523798,0.93452066,0.039999995,0.039999884,-9.784431,0.43808722496032715,-0.550566,-0.0036075325,-0.020947540178894997,0.0028338723
714.5499999996788,-0.31529588,-0.33394295,-0.1356777,-1.8323163,0.00799566,1.4523767,0.9345247,0.039999995,0.039999887,-9.7844,0.43793216347694397,-0.55043614,-0.0037031525,-0.020947715267539024,0.0028305526
714.5666666663454,-0.31530377,-0.3339299,-0.13568184,-1.8323013,0.007995899,1.4523737,0.9345285,0.039999995,0.039999887,-9.784512,0.43781453371047974,-0.5503404,-0.0037861513,-0.020950747653841972,0.0028285247
714.5833333330121,-0.31531098,-0.3339179,-0.13568565,-1.8322873,0.007996119,1.4523708,0.93453234,0.039999995,0.039999887,-9.7845125,0.4376707375049591,-0.5502441,-0.003862274,-0.020953137427568436,0.0028265603
714.5999999996787,-0.3153177,-0.3339068,-0.13568918,-1.8322748,0.007996318,1.4523678,0.93453616,0.039999995,0.039999887,-9.784536,0.4375590980052948,-0.5501502,-0.0039334316,-0.020955799147486687,0.0028248671
714.6166666663454,-0.31532377,-0.33389664,-0.13569243,-1.8322631,0.007996504,1.452365,0.93454,0.039999995,0.039999887,-9.784611,0.43747007846832275,-0.55007094,-0.004000693,-0.020960936322808266,0.0028236837
714.633333333012,-0.31532925,-0.33388734,-0.13569543,-1.8322523,0.007996673,1.4523623,0.9345437,0.039999995,0.039999887,-9.784609,0.43736547231674194,-0.5499989,-0.004063593,-0.020964739844202995,0.0028225319
714.6499999996787,-0.31533438,-0.33387884,-0.1356982,-1.8322421,0.007996832,1.4523596,0.93454593,0.039999995,0.039999887,-9.235597,0.37929287552833557,-0.24336457,0.0,-0.0,0.0
714.6666666663453,-0.31533438,-0.33387884,-0.1356982,-1.8322421,0.007996832,1.4523596,0.93454593,0.039999995,0.039999887,-9.7849,0.43633148074150085,-0.5490571,0.0,-0.0,0.0
714.683333333012,-0.31533438,-0.33387884,-0.1356982,-1.8322421,0.007996832,1.4523596,0.93454593,0.039999995,0.039999887,-9.7849,0.43633148074150085,-0.5490571,0.0,-0.0,0.0
714.6999999996787,-0.31533438,-0.33387884,-0.1356982,-1.8322421,0.007996832,1.4523596,0.93454593,0.039999995,0.039999887,-9.7849,0.43633148074150085,-0.5490571,0.0,-0.0,0.0
714.7166666663453,-0.31533438,-0.33387884,-0.1356982,-1.8322421,0.007996832,1.4523596,0.93454593,0.039999995,0.039999887,-9.7849,0.43633148074150085,-0.5490571,0.0,-0.0,0.0
714.733333333012,-0.31533438,-0.33387884,-0.1356982,-1.8322421,0.007996832,1.4523596,0.93454593,0.039999995,0.039999887,-9.7849,0.43633148074150085,-0.5490571,0.0,-0.0,0.0
714.7499999996786,-0.31533438,-0.33387884,-0.1356982,-1.8322421,0.007996832,1.4523596,0.93454593,0.039999995,0.039999887,-9.7849,0.43633148074150085,-0.5490571,0.0,-0.0,0.0
714.7666666663453,-0.31533438,-0.33387884,-0.1356982,-1.8322421,0.007996832,1.4523596,0.93454593,0.039999995,0.039999887,-9.7849,0.43633148074150085,-0.5490571,0.0,-0.0,0.0
714.7833333330119,-0.31533438,-0.33387884,-0.1356982,-1.8322421,0.007996832,1.4523596,0.93454593,0.039999995,0.039999887,-9.7849,0.43633148074150085,-0.5490571,0.0,-0.0,0.0
714.7999999996786,-0.31533438,-0.33387884,-0.1356982,-1.8322421,0.007996832,1.4523596,0.93454593,0.039999995,0.039999887,-9.7849,0.43633148074150085,-0.5490571,0.0,-0.0,0.0
714.8166666663452,-0.31533438,-0.33387884,-0.1356982,-1.8322421,0.007996832,1.4523596,0.93454593,0.039999995,0.039999887,-9.7849,0.43633148074150085,-0.5490571,0.0,-0.0,0.0
714.8333333330119,-0.31533438,-0.33387884,-0.1356982,-1.8322421,0.007996832,1.4523596,0.93454593,0.039999995,0.039999887,-9.7849,0.43633148074150085,-0.5490571,0.0,-0.0,0.0
714.8499999996785,-0.31533438,-0.33387884,-0.1356982,-1.8322421,0.007996832,1.4523596,0.93454593,0.039999995,0.039999887,-9.7849,0.43633148074150085,-0.5490571,0.0,-0.0,0.0
714.8666666663452,-0.31533438,-0.33387884,-0.1356982,-1.8322421,0.007996832,1.4523596,0.93454593,0.039999995,0.039999887,-9.7849,0.43633148074150085,-0.5490571,0.0,-0.0,0.0
714.8833333330118,-0.31533438,-0.33387884,-0.1356982,-1.8322421,0.007996832,1.4523596,0.93454593,0.039999995,0.039999887,-9.7849,0.43633148074150085,-0.5490571,0.0,-0.0,0.0
714.8999999996785,-0.31533438,-0.33387884,-0.1356982,-1.8322421,0.007996832,1.4523596,0.93454593,0.039999995,0.039999887,-9.7849,0.43633148074150085,-0.5490571,0.0,-0.0,0.0
714.9166666663451,-0.31533438,-0.33387884,-0.1356982,-1.8322421,0.007996832,1.4523596,0.93454593,0.039999995,0.039999887,-9.7849,0.43633148074150085,-0.5490571,0.0,-0.0,0.0
714.9333333330118,-0.31533438,-0.33387884,-0.1356982,-1.8322421,0.007996832,1.4523596,0.93454593,0.039999995,0.039999887,-9.7849,0.43633148074150085,-0.5490571,0.0,-0.0,0.0
714.9499999996784,-0.31533438,-0.33387884,-0.1356982,-1.8322421,0.007996832,1.4523596,0.93454593,0.039999995,0.039999887,-9.7849,0.43633148074150085,-0.5490571,0.0,-0.0,0.0
714.9666666663451,-0.31533438,-0.33387884,-0.1356982,-1.8322421,0.007996832,1.4523596,0.93454593,0.039999995,0.039999887,-9.7849,0.43633148074150085,-0.5490571,0.0,-0.0,0.0
714.9833333330117,-0.31533438,-0.33387884,-0.1356982,-1.8322421,0.007996832,1.4523596,0.93454593,0.039999995,0.039999887,-9.7849,0.43633148074150085,-0.5490571,0.0,-0.0,0.0
714.9999999996784,-0.31533438,-0.33387884,-0.1356982,-1.8322421,0.007996832,1.4523596,0.93454593,0.039999995,0.039999887,-9.7849,0.43633148074150085,-0.5490571,0.0,-0.0,0.0
715.016666666345,-0.31533438,-0.33387884,-0.1356982,-1.8322421,0.007996832,1.4523596,0.93454593,0.039999995,0.039999887,-9.7849,0.43633148074150085,-0.5490571,0.0,-0.0,0.0
715.0333333330117,-0.31533438,-0.33387884,-0.1356982,-1.8322421,0.007996832,1.4523596,0.93454593,0.039999995,0.039999887,-9.7849,0.43633148074150085,-0.5490571,0.0,-0.0,0.0
715.0499999996783,-0.31533438,-0.33387884,-0.1356982,-1.8322421,0.007996832,1.4523596,0.93454593,0.039999995,0.039999887,-9.7849,0.43633148074150085,-0.5490571,0.0,-0.0,0.0
715.066666666345,-0.31533438,-0.33387884,-0.1356982,-1.8322421,0.007996832,1.4523596,0.93454593,0.039999995,0.039999887,-9.7849,0.43633148074150085,-0.5490571,0.0,-0.0,0.0
715.0833333330116,-0.31533438,-0.33387884,-0.1356982,-1.8322421,0.007996832,1.4523596,0.93454593,0.039999995,0.039999887,-9.7849,0.43633148074150085,-0.5490571,0.0,-0.0,0.0
715.0999999996783,-0.31533438,-0.33387884,-0.1356982,-1.8322421,0.007996832,1.4523596,0.93454593,0.039999995,0.039999887,-9.7849,0.43633148074150085,-0.5490571,0.0,-0.0,0.0
715.1166666663449,-0.31533438,-0.33387884,-0.1356982,-1.8322421,0.007996832,1.4523596,0.93454593,0.039999995,0.039999887,-9.7849,0.43633148074150085,-0.5490571,0.0,-0.0,0.0
715.1333333330116,-0.31533438,-0.33387884,-0.1356982,-1.8322421,0.007996832,1.4523596,0.93454593,0.039999995,0.039999887,-9.7849,0.43633148074150085,-0.5490571,0.0,-0.0,0.0
715.1499999996782,-0.31533438,-0.33387884,-0.1356982,-1.8322421,0.007996832,1.4523596,0.93454593,0.039999995,0.039999887,-9.7849,0.43633148074150085,-0.5490571,0.0,-0.0,0.0
715.1666666663449,-0.31533438,-0.33387884,-0.1356982,-1.8322421,0.007996832,1.4523596,0.93454593,0.039999995,0.039999887,-9.7849,0.43633148074150085,-0.5490571,0.0,-0.0,0.0
715.1833333330115,-0.31533438,-0.33387884,-0.1356982,-1.8322421,0.007996832,1.4523596,0.93454593,0.039999995,0.039999887,-9.7849,0.43633148074150085,-0.5490571,0.0,-0.0,0.0
715.1999999996782,-0.31533438,-0.33387884,-0.1356982,-1.8322421,0.007996832,1.4523596,0.93454593,0.039999995,0.039999887,-9.7849,0.43633148074150085,-0.5490571,0.0,-0.0,0.0
715.2166666663448,-0.31533438,-0.33387884,-0.1356982,-1.8322421,0.007996832,1.4523596,0.93454593,0.039999995,0.039999887,-9.7849,0.43633148074150085,-0.5490571,0.0,-0.0,0.0
715.2333333330115,-0.31533438,-0.33387884,-0.1356982,-1.8322421,0.007996832,1.4523596,0.93454593,0.039999995,0.039999887,-9.7849,0.43633148074150085,-0.5490571,0.0,-0.0,0.0
715.2499999996782,-0.31533438,-0.33387884,-0.1356982,-1.8322421,0.007996832,1.4523596,0.93454593,0.039999995,0.039999887,-9.7849,0.43633148074150085,-0.5490571,0.0,-0.0,0.0
715.2666666663448,-0.31533438,-0.33387884,-0.1356982,-1.8322421,0.007996832,1.4523596,0.93454593,0.039999995,0.039999887,-9.7849,0.43633148074150085,-0.5490571,0.0,-0.0,0.0
715.2833333330115,-0.31533438,-0.33387884,-0.1356982,-1.8322421,0.007996832,1.4523596,0.93454593,0.039999995,0.039999887,-9.7849,0.43633148074150085,-0.5490571,0.0,-0.0,0.0
715.2999999996781,-0.31533438,-0.33387884,-0.1356982,-1.8322421,0.007996832,1.4523596,0.93454593,0.039999995,0.039999887,-9.7849,0.43633148074150085,-0.5490571,0.0,-0.0,0.0
715.3166666663448,-0.31533438,-0.33387884,-0.1356982,-1.8322421,0.007996832,1.4523596,0.93454593,0.039999995,0.039999887,-9.7849,0.43633148074150085,-0.5490571,0.0,-0.0,0.0
715.3333333330114,-0.31533438,-0.33387884,-0.1356982,-1.8322421,0.007996832,1.4523596,0.93454593,0.039999995,0.039999887,-9.7849,0.43633148074150085,-0.5490571,0.0,-0.0,0.0
715.3499999996781,-0.31533438,-0.33387884,-0.1356982,-1.8322421,0.007996832,1.4523596,0.93454593,0.039999995,0.039999887,-9.7849,0.43633148074150085,-0.5490571,0.0,-0.0,0.0
715.3666666663447,-0.31533438,-0.33387884,-0.1356982,-1.8322421,0.007996832,1.4523596,0.93454593,0.039999995,0.039999887,-9.7849,0.43633148074150085,-0.5490571,0.0,-0.0,0.0
715.3833333330114,-0.31533438,-0.33387884,-0.1356982,-1.8322421,0.007996832,1.4523596,0.93454593,0.039999995,0.039999887,-9.7849,0.43633148074150085,-0.5490571,0.0,-0.0,0.0
715.399999999678,-0.31533438,-0.33387884,-0.1356982,-1.8322421,0.007996832,1.4523596,0.93454593,0.039999995,0.039999887,-9.7849,0.43633148074150085,-0.5490571,0.0,-0.0,0.0
715.4166666663447,-0.31533438,-0.33387884,-0.1356982,-1.8322421,0.007996832,1.4523596,0.93454593,0.039999995,0.039999887,-9.7849,0.43633148074150085,-0.5490571,0.0,-0.0,0.0
715.4333333330113,-0.31533438,-0.33387884,-0.1356982,-1.8322421,0.007996832,1.4523596,0.93454593,0.039999995,0.039999887,-9.7849,0.43633148074150085,-0.5490571,0.0,-0.0,0.0
715.449999999678,-0.31533438,-0.33387884,-0.1356982,-1.8322421,0.007996832,1.4523596,0.93454593,0.039999995,0.039999887,-9.7849,0.43633148074150085,-0.5490571,0.0,-0.0,0.0
715.4666666663446,-0.31533438,-0.33387884,-0.1356982,-1.8322421,0.007996832,1.4523596,0.93454593,0.039999995,0.039999887,-9.7849,0.43633148074150085,-0.5490571,0.0,-0.0,0.0
715.4833333330113,-0.31533438,-0.33387884,-0.1356982,-1.8322421,0.007996832,1.4523596,0.93454593,0.039999995,0.039999887,-9.7849,0.43633148074150085,-0.5490571,0.0,-0.0,0.0
715.4999999996779,-0.31533438,-0.33387884,-0.1356982,-1.8322421,0.007996832,1.4523596,0.93454593,0.039999995,0.039999887,-9.7849,0.43633148074150085,-0.5490571,0.0,-0.0,0.0
715.5166666663446,-0.31533438,-0.33387884,-0.1356982,-1.8322421,0.007996832,1.4523596,0.93454593,0.039999995,0.039999887,-9.7849,0.43633148074150085,-0.5490571,0.0,-0.0,0.0
715.5333333330112,-0.31533438,-0.33387884,-0.1356982,-1.8322421,0.007996832,1.4523596,0.93454593,0.039999995,0.039999887,-9.7849,0.43633148074150085,-0.5490571,0.0,-0.0,0.0
715.5499999996779,-0.31533438,-0.33387884,-0.1356982,-1.8322421,0.007996832,1.4523596,0.93454593,0.039999995,0.039999887,-9.7849,0.43633148074150085,-0.5490571,0.0,-0.0,0.0
715.5666666663445,-0.31533438,-0.33387884,-0.1356982,-1.8322421,0.007996832,1.4523596,0.93454593,0.039999995,0.039999887,-9.7849,0.43633148074150085,-0.5490571,0.0,-0.0,0.0
715.5833333330112,-0.31533438,-0.33387884,-0.1356982,-1.8322421,0.007996832,1.4523596,0.93454593,0.039999995,0.039999887,-9.7849,0.43633148074150085,-0.5490571,0.0,-0.0,0.0
715.5999999996778,-0.31533438,-0.33387884,-0.1356982,-1.8322421,0.007996832,1.4523596,0.93454593,0.039999995,0.039999887,-9.7849,0.43633148074150085,-0.5490571,0.0,-0.0,0.0
715.6166666663445,-0.31533438,-0.33387884,-0.1356982,-1.8322421,0.007996832,1.4523596,0.93454593,0.039999995,0.039999887,-9.7849,0.43633148074150085,-0.5490571,0.0,-0.0,0.0
715.6333333330111,-0.31533438,-0.33387884,-0.1356982,-1.8322421,0.007996832,1.4523596,0.93454593,0.039999995,0.039999887,-9.7849,0.43633148074150085,-0.5490571,0.0,-0.0,0.0
715.6499999996778,-0.31533438,-0.33387884,-0.1356982,-1.8322421,0.007996832,1.4523596,0.93454593,0.039999995,0.039999887,-9.7849,0.43633148074150085,-0.5490571,0.0,-0.0,0.0
715.6666666663444,-0.31533438,-0.33387884,-0.1356982,-1.8322421,0.007996832,1.4523596,0.93454593,0.039999995,0.039999887,-9.7849,0.43633148074150085,-0.5490571,0.0,-0.0,0.0
715.6833333330111,-0.31533438,-0.33387884,-0.1356982,-1.8322421,0.007996832,1.4523596,0.93454593,0.039999995,0.039999887,-9.7849,0.43633148074150085,-0.5490571,0.0,-0.0,0.0
715.6999999996777,-0.31533438,-0.33387884,-0.1356982,-1.8322421,0.007996832,1.4523596,0.93454593,0.039999995,0.039999887,-9.7849,0.43633148074150085,-0.5490571,0.0,-0.0,0.0
715.7166666663444,-0.31533438,-0.33387884,-0.1356982,-1.8322421,0.007996832,1.4523596,0.93454593,0.039999995,0.039999887,-9.7849,0.43633148074150085,-0.5490571,0.0,-0.0,0.0
715.733333333011,-0.31533438,-0.33387884,-0.1356982,-1.8322421,0.007996832,1.4523596,0.93454593,0.039999995,0.039999887,-9.7849,0.43633148074150085,-0.5490571,0.0,-0.0,0.0
715.7499999996777,-0.31533438,-0.33387884,-0.1356982,-1.8322421,0.007996832,1.4523596,0.93454593,0.039999995,0.039999887,-9.7849,0.43633148074150085,-0.5490571,0.0,-0.0,0.0
715.7666666663443,-0.31533438,-0.33387884,-0.1356982,-1.8322421,0.007996832,1.4523596,0.93454593,0.039999995,0.039999887,-9.7849,0.43633148074150085,-0.5490571,0.0,-0.0,0.0
715.783333333011,-0.31533438,-0.33387884,-0.1356982,-1.8322421,0.007996832,1.4523596,0.93454593,0.039999995,0.039999887,-9.7849,0.43633148074150085,-0.5490571,0.0,-0.0,0.0
715.7999999996777,-0.31533438,-0.33387884,-0.1356982,-1.8322421,0.007996832,1.4523596,0.93454593,0.039999995,0.039999887,-9.7849,0.43633148074150085,-0.5490571,0.0,-0.0,0.0
715.8166666663443,-0.31533438,-0.33387884,-0.1356982,-1.8322421,0.007996832,1.4523596,0.93454593,0.039999995,0.039999887,-9.7849,0.43633148074150085,-0.5490571,0.0,-0.0,0.0
715.833333333011,-0.31533438,-0.33387884,-0.1356982,-1.8322421,0.007996832,1.4523596,0.93454593,0.039999995,0.039999887,-9.7849,0.43633148074150085,-0.5490571,0.0,-0.0,0.0
715.8499999996776,-0.31533438,-0.33387884,-0.1356982,-1.8322421,0.007996832,1.4523596,0.93454593,0.039999995,0.039999887,-9.7849,0.43633148074150085,-0.5490571,0.0,-0.0,0.0
715.8666666663443,-0.31533438,-0.33387884,-0.1356982,-1.8322421,0.007996832,1.4523596,0.93454593,0.039999995,0.039999887,-9.7849,0.43633148074150085,-0.5490571,0.0,-0.0,0.0
715.8833333330109,-0.31533438,-0.33387884,-0.1356982,-1.8322421,0.007996832,1.4523596,0.93454593,0.039999995,0.039999887,-9.7849,0.43633148074150085,-0.5490571,0.0,-0.0,0.0
715.8999999996776,-0.31533438,-0.33387884,-0.1356982,-1.8322421,0.007996832,1.4523596,0.93454593,0.039999995,0.039999887,-9.7849,0.43633148074150085,-0.5490571,0.0,-0.0,0.0
715.9166666663442,-0.31533438,-0.33387884,-0.1356982,-1.8322421,0.007996832,1.4523596,0.93454593,0.039999995,0.039999887,-9.7849,0.43633148074150085,-0.5490571,0.0,-0.0,0.0
715.9333333330109,-0.31533438,-0.33387884,-0.1356982,-1.8322421,0.007996832,1.4523596,0.93454593,0.039999995,0.039999887,-9.7849,0.43633148074150085,-0.5490571,0.0,-0.0,0.0
715.9499999996775,-0.31533438,-0.33387884,-0.1356982,-1.8322421,0.007996832,1.4523596,0.93454593,0.039999995,0.039999887,-9.7849,0.43633148074150085,-0.5490571,0.0,-0.0,0.0
715.9666666663442,-0.31533438,-0.33387884,-0.1356982,-1.8322421,0.007996832,1.4523596,0.93454593,0.039999995,0.039999887,-9.7849,0.43633148074150085,-0.5490571,0.0,-0.0,0.0
715.9833333330108,-0.31533438,-0.33387884,-0.1356982,-1.8322421,0.007996832,1.4523596,0.93454593,0.039999995,0.039999887,-9.7849,0.43633148074150085,-0.5490571,0.0,-0.0,0.0
715.9999999996775,-0.31533438,-0.33387884,-0.1356982,-1.8322421,0.007996832,1.4523596,0.93454593,0.039999995,0.039999887,-9.7849,0.43633148074150085,-0.5490571,0.0,-0.0,0.0
716.0166666663441,-0.31533438,-0.33387884,-0.1356982,-1.8322421,0.007996832,1.4523596,0.93454593,0.039999995,0.039999887,-9.7849,0.43633148074150085,-0.5490571,0.0,-0.0,0.0
716.0333333330108,-0.31533438,-0.33387884,-0.1356982,-1.8322421,0.007996832,1.4523596,0.93454593,0.039999995,0.039999887,-9.7849,0.43633148074150085,-0.5490571,0.0,-0.0,0.0
716.0499999996774,-0.31533438,-0.33387884,-0.1356982,-1.8322421,0.007996832,1.4523596,0.93454593,0.039999995,0.039999887,-9.7849,0.43633148074150085,-0.5490571,0.0,-0.0,0.0
716.0666666663441,-0.31533438,-0.33387884,-0.1356982,-1.8322421,0.007996832,1.4523596,0.93454593,0.039999995,0.039999887,-9.7849,0.43633148074150085,-0.5490571,0.0,-0.0,0.0
716.0833333330107,-0.31533438,-0.33387884,-0.1356982,-1.8322421,0.007996832,1.4523596,0.93454593,0.039999995,0.039999887,-9.7849,0.43633148074150085,-0.5490571,0.0,-0.0,0.0
716.0999999996774,-0.31533438,-0.33387884,-0.1356982,-1.8322421,0.007996832,1.4523596,0.93454593,0.039999995,0.039999887,-9.7849,0.43633148074150085,-0.5490571,0.0,-0.0,0.0
716.116666666344,-0.31533438,-0.33387884,-0.1356982,-1.8322421,0.007996832,1.4523596,0.93454593,0.039999995,0.039999887,-9.7849,0.43633148074150085,-0.5490571,0.0,-0.0,0.0
716.1333333330107,-0.31533438,-0.33387884,-0.1356982,-1.8322421,0.007996832,1.4523596,0.93454593,0.039999995,0.039999887,-9.7849,0.43633148074150085,-0.5490571,0.0,-0.0,0.0
716.1499999996773,-0.31533438,-0.33387884,-0.1356982,-1.8322421,0.007996832,1.4523596,0.93454593,0.039999995,0.039999887,-9.7849,0.43633148074150085,-0.5490571,0.0,-0.0,0.0
716.166666666344,-0.31533438,-0.33387884,-0.1356982,-1.8322421,0.007996832,1.4523596,0.93454593,0.039999995,0.039999887,-9.7849,0.43633148074150085,-0.5490571,0.0,-0.0,0.0
716.1833333330106,-0.31533438,-0.33387884,-0.1356982,-1.8322421,0.007996832,1.4523596,0.93454593,0.039999995,0.039999887,-9.7849,0.43633148074150085,-0.5490571,0.0,-0.0,0.0
716.1999999996773,-0.31533438,-0.33387884,-0.1356982,-1.8322421,0.007996832,1.4523596,0.93454593,0.039999995,0.039999887,-9.7849,0.43633148074150085,-0.5490571,0.0,-0.0,0.0
716.2166666663439,-0.31533438,-0.33387884,-0.1356982,-1.8322421,0.007996832,1.4523596,0.93454593,0.039999995,0.039999887,-9.7849,0.43633148074150085,-0.5490571,0.0,-0.0,0.0
716.2333333330106,-0.31533438,-0.33387884,-0.1356982,-1.8322421,0.007996832,1.4523596,0.93454593,0.039999995,0.039999887,-9.7849,0.43633148074150085,-0.5490571,0.0,-0.0,0.0
716.2499999996772,-0.31533438,-0.33387884,-0.1356982,-1.8322421,0.007996832,1.4523596,0.93454593,0.039999995,0.039999887,-9.7849,0.43633148074150085,-0.5490571,0.0,-0.0,0.0
