rsonawane2002/My_IMU/logs_2/traj_442/clean_442.csv
time,j1,j2,j3,j4,j5,j6,j7,gripper1,gripper2,imu_ax,imu_ay,imu_az,imu_gx,imu_gy,imu_gz,quat_x,quat_y,quat_z,quat_w
2111.583333332609,0.00016700293,-0.785875,4.0107683e-05,-2.3551247,9.29385e-05,1.570997,0.786,0.04,0.04,0.0,-0.0,0.0,2.875329272945135e-08,-0.0011641195053377316,4.421952117202833e-08,0.9999995971961153,0.00020320632366974898,0.0008736418299892524,3.263050917662294e-05
2111.599999999276,0.00016700076,-0.78576016,4.010741e-05,-2.3552213,9.297981e-05,1.5709941,0.786,0.04,0.04,-0.29199845915106604,-2.554688916105467e-05,0.020128411043929262,1.3288490692941063e-07,-0.0022397222648334264,7.107939387932859e-07,0.9999996850575753,0.0002032122479722678,0.0007665025168563471,3.261018653452292e-05
2111.616666665943,0.00016696333,-0.7856543,4.0056922e-05,-2.35531,9.305802e-05,1.5709913,0.786,0.04,0.04,0.023328731254368407,7.068438606395717e-05,-0.0016704157337343872,2.0078917740495547e-06,-0.003235935955088556,5.064173348507334e-06,0.9999997558351347,0.0002032531705414371,0.0006677972368988965,3.2629280450602976e-05
2111.6333333326097,0.00016683026,-0.785557,3.9873983e-05,-2.355391,9.32478e-05,1.5709884,0.786,0.04,0.039999995,0.022394886732457486,0.00017903651474402197,-0.0014909992780420822,6.8475387188014026e-06,-0.004168529657103518,1.725570781858217e-05,0.9999998122185051,0.00020338837960900955,0.0005771683413984915,3.2754041637470556e-05
2111.6499999992766,0.0001665137,-0.7854675,3.944117e-05,-2.3554645,9.3620125e-05,1.5709856,0.786,0.04,0.04,0.021668823766307632,0.0003620164863663705,-0.0011055468374765454,1.5245255950528672e-05,-0.0050454870015360824,3.801907588277821e-05,0.9999998565456352,0.00020370333948723806,0.0004942879803745607,3.306132380287329e-05
2111.6666666659435,0.00016590049,-0.7853854,3.8608196e-05,-2.3555312,9.430412e-05,1.570986,0.786,0.04,0.04,0.020513233849150936,0.0005682137731187313,0.0012707026043390357,2.8304356346992155e-05,-0.005876258049140321,7.247661205878354e-05,0.9999998903287347,0.00020430788315466388,0.0004200799858830137,3.3669169391272106e-05
2111.6833333326103,0.00016485505,-0.7853099,3.7196143e-05,-2.3555913,9.544052e-05,1.5709866,0.7859981,0.04,0.04,0.018765170399759334,0.000825077944074709,-0.000745131210533323,4.630023580050225e-05,-0.006658233836231489,0.00012228034361929754,0.9999999163462157,0.0002043793982041495,0.00035260719569421,3.471007089757238e-05
2111.699999999277,0.0001632217,-0.78524095,3.4999928e-05,-2.3556485,9.72e-05,1.5709875,0.7859962,0.04,0.039999995,0.01212132156427348,0.0011128390829137776,-0.002253496353721296,7.829944535920582e-05,-0.007416503276785287,0.0001904135237498515,0.9999999362922235,0.00020502209104119286,0.00028993237688937227,3.6341545723403e-05
2111.716666665944,0.00016082714,-0.7851779,3.179182e-05,-2.3556986,9.973027e-05,1.5709884,0.7859939,0.04,0.04,0.01871778522737344,0.0014628916896307776,-7.789665332769147e-05,0.00011530807077736875,-0.008173182930234772,0.00027567689622642606,0.9999999506509325,0.00020619446981840476,0.00023384363138013575,3.871859010810835e-05
2111.733333332611,0.00015748147,-0.7851206,2.7322903e-05,-2.3557417,0.000103253,1.5709931,0.78599006,0.04,0.04,0.019313986804081473,0.001801496170628059,0.002554455858039262,0.00015962746033282486,-0.008919800941144557,0.0003847187977978315,0.9999999602904518,0.00020754322694092745,0.00018595025244721964,4.2040545556740724e-05
2111.749999999278,0.00015298119,-0.78506863,2.1326587e-05,-2.35578,0.00010796742,1.5709978,0.78598434,0.04,0.04,0.014410537030662418,0.0021937027047563007,-0.000688278802551956,0.00021555271223464592,-0.009643696837284372,0.000515730900185294,0.9999999668032604,0.00020905586343093413,0.00014327198255849612,4.65001378731149e-05
2111.7666666659447,0.00014711033,-0.7850216,1.3519836e-05,-2.3558142,0.00011409456,1.5710063,0.78597754,0.04,0.04,0.013122703551804449,0.002602074566479518,0.0016491832333764833,0.0002847297870253875,-0.010381211973819674,0.0006709370153744223,0.9999999705903524,0.00021135792421824264,0.00010682205891816813,5.23084097966507e-05
2111.7833333326116,0.00013964184,-0.7849795,3.6057243e-06,-2.3558419,0.000121851,1.5710174,0.7859692,0.03999999,0.03999999,0.017643899329167212,0.003042708571492336,0.002135602951880422,0.00036260511090649764,-0.011127734687482864,0.0008519054384299313,0.9999999722264964,0.0002144295541848961,7.749456134199426e-05,5.967885333062598e-05
2111.7999999992785,0.00013033923,-0.784942,-8.725184e-06,-2.3558636,0.00013149175,1.5710298,0.7859586,0.039999988,0.039999988,0.015551282161418989,0.003480312152768936,0.0010778744295114606,0.0004504781617432166,-0.01188002914385169,0.0010586861133003397,0.9999999723756029,0.00021814092985695952,5.4067642299834605e-05,6.884779043225131e-05
2111.8166666659454,0.00011895776,-0.78490895,-2.379283e-05,-2.35588,0.00014326653,1.571046,0.7859453,0.039999984,0.03999998,0.015128979370682138,0.0039433751392824595,0.0026253689774158318,0.000550918326563786,-0.01265397310646729,0.0012939388028614441,0.9999999713376202,0.0002225192310313837,3.7435462570066015e-05,8.005333654887632e-05
2111.8333333326123,0.00010524583,-0.78488016,-4.192606e-05,-2.3558915,0.00015742965,1.571066,0.78593004,0.03999998,0.039999977,0.014394369226367054,0.004421454755433304,0.002689261810839838,0.0006652397849582927,-0.013448477860854962,0.0015563999768119989,0.9999999692223132,0.00022816439215915865,2.732990272965232e-05,9.353854381248298e-05
2111.849999999279,8.8945635e-05,-0.7848556,-6.346177e-05,-2.3558958,0.00017424463,1.5710899,0.7859116,0.039999977,0.03999997,0.018040932106822005,0.0049094534739544515,0.003653082436749777,0.0007886070773825444,-0.01426795716648589,0.0018484130808144937,0.9999999661420709,0.0002347285730865568,2.4824095375492756e-05,0.00010955418017584845
2111.866666665946,6.979473e-05,-0.78483504,-8.8743014e-05,-2.3558936,0.0001939773,1.5711178,0.7858901,0.03999997,0.03999996,0.016638047761530217,0.005408583745433423,0.00364589176649055,0.0009259544452930818,-0.015110437756763274,0.002168782335767723,0.9999999619239691,0.00024249441592769064,2.9560700694915086e-05,0.0001283537442621184
2111.883333332613,4.7526504e-05,-0.7848186,-0.00011811806,-2.3558862,0.00021689928,1.5711516,0.785865,0.03999997,0.03999996,0.015349348958859643,0.005914669497649773,0.004465116506335853,0.001075256080936126,-0.015982877941358928,0.00251877442352512,0.9999999562192408,0.00025148042924042505,4.1957375300543245e-05,0.0001501955026471134
2111.8999999992798,2.1871092e-05,-0.7848062,-0.0001519395,-2.3558724,0.00024328496,1.5711907,0.78583604,0.039999966,0.039999954,0.01708396284259006,0.0064280240685425935,0.004499919367129124,0.0012382311564296175,-0.016886014953725905,0.002899561540300055,0.999999948423047,0.00026179749714791856,6.222328236415737e-05,0.00017534034571582767
2111.9166666659467,-7.443551e-06,-0.7847979,-0.00019056271,-2.355852,0.00027341006,1.5712348,0.78580296,0.03999997,0.039999958,0.017481312301326213,0.006946720262041089,0.004393987532824717,0.0014143255183396224,-0.01782383442898797,0.0033096544957910774,0.9999999376712887,0.0002735884627796959,9.038891914184432e-05,0.00020405052071554997
2111.9333333326135,-4.0691437e-05,-0.7847934,-0.00023434553,-2.355825,0.00030755348,1.571285,0.7857657,0.039999973,0.03999996,0.017023104623326013,0.007469009915839766,0.005286691703210167,0.001603458636849863,-0.01879961096971539,0.0037500536455568603,0.999999922777185,0.00028708765901123257,0.00012669355272692894,0.00023659045588014584
2111.9499999992804,-7.814741e-05,-0.7847927,-0.0002836474,-2.3557904,0.00034599478,1.5713418,0.7857237,0.039999973,0.039999958,0.019334961531236594,0.007995086010239459,0.006105748414464429,0.001804928422347662,-0.0198139189983772,0.004221677956254721,0.9999999021952418,0.0003022621286288856,0.00017203236169778985,0.0002732251434616016
2111.9666666659473,-0.00012008698,-0.78479606,-0.0003388279,-2.3557482,0.00038901297,1.5714054,0.78567666,0.039999977,0.03999996,0.019583978043846706,0.008523266569061896,0.006300128977310138,0.002019885701668055,-0.0208668601338411,0.004722805495263395,0.9999998739863487,0.0003192582254018456,0.00022664507141594137,0.0003142188470946592
2111.983333332614,-0.00016678555,-0.78480333,-0.00040024688,-2.3556979,0.00043688886,1.5714762,0.7856244,0.039999977,0.039999958,0.020408706827912404,0.009051676707203315,0.006719480453054594,0.0022477798057424308,-0.021958994878508057,0.00525507650205897,0.9999998357616307,0.0003382223914264607,0.0002908610719801016,0.00035983629937852527
2111.999999999281,-0.00021851785,-0.7848144,-0.00046826343,-2.35564,0.00048990047,1.5715548,0.7855665,0.039999977,0.039999958,0.01966093628682497,0.009581536259130156,0.0070103156583734005,0.002488826437658871,-0.023089388812548566,0.005816648390344488,0.9999997847868325,0.0003592410946248403,0.0003646822401173153,0.00041034008872164736
2112.016666665948,-0.00027555792,-0.78482944,-0.00054323545,-2.3555732,0.0005483268,1.5716413,0.7855027,0.03999998,0.03999996,0.021901071893437596,0.010111060529565796,0.007645985896020946,0.0027426531259674546,-0.024264781768735887,0.006408171309248584,0.9999997175615654,0.0003823999923323494,0.0004488856454252326,0.0004659921808277882
2112.033333332615,-0.00033817795,-0.78484845,-0.0006255187,-2.355498,0.00061244477,1.571736,0.78543264,0.039999984,0.03999996,0.02120176996127654,0.010637826292109066,0.007477253842491649,0.0030096657794929597,-0.02548091647911662,0.007030280022939225,0.9999996303390943,0.0004078427947173353,0.0005433248222149851,0.0005270522429860074
2112.0499999992817,-0.00040664856,-0.7848716,-0.00071546703,-2.3554142,0.00068252825,1.5718392,0.785356,0.039999988,0.039999966,0.02230412104948787,0.011165792594861872,0.007966607032461326,0.0032896829855073324,-0.026743140705033287,0.007680957670754113,0.9999995185293139,0.000435622532889289,0.0006485392005296474,0.0005937769402215644
2112.0666666659486,-0.00048123862,-0.7848988,-0.0008134314,-2.3553212,0.0007588509,1.5719519,0.7852726,0.039999984,0.039999958,0.022984438569606525,0.011690828869335328,0.008681138092381246,0.003582750839253539,-0.02805082143080947,0.008361578116597553,0.9999993767265739,0.0004659396292876147,0.0007650685618545178,0.0006664209040041657
2112.0833333326154,-0.0005622139,-0.7849304,-0.00091975945,-2.3552186,0.00084168336,1.5720743,0.785182,0.039999988,0.039999958,0.024184004646876645,0.012213011591017458,0.009009635683709938,0.0038883356453807303,-0.029402196100112684,0.009070904998476605,0.9999991987754175,0.000498812950966812,0.0008934532654811915,0.0007452351477562024
2112.0999999992823,-0.00064983784,-0.7849662,-0.0010347959,-2.3551064,0.00093129213,1.5722069,0.7850841,0.039999988,0.039999958,0.024518231095393972,0.012734599030440191,0.00946595145547846,0.004207241429588385,-0.030795303850862973,0.009807653020993394,0.9999989778527935,0.0005344681288220114,0.0010339062107198162,0.0008304668175408213
2112.116666665949,-0.0007443711,-0.78500617,-0.0011588808,-2.3549836,0.0010279432,1.5723499,0.7849785,0.039999995,0.03999996,0.025928860065427273,0.013251446504481193,0.009997431169317395,0.004537802399249265,-0.032234972925901516,0.010573080757216167,0.9999987060243262,0.0005729192047151939,0.0011869986252720996,0.0009223597572160853
2112.133333332616,-0.0008460711,-0.7850505,-0.0012923502,-2.354851,0.0011318963,1.5725038,0.78486484,0.03999999,0.039999958,0.024974447522030374,0.01376481840731753,0.009853828137251774,0.004880782775293085,-0.033715058339222316,0.01136499388120034,0.9999983751740065,0.0006142669162652971,0.0013526168138211958,0.0010211529059775811
2112.149999999283,-0.0009551915,-0.7850994,-0.0014355368,-2.3547072,0.0012434109,1.5726689,0.78474295,0.04,0.03999996,0.02773744040631687,0.014277286074038586,0.0106309836348073,0.005236642946215585,-0.035244153980619065,0.012184566041609755,0.9999979747898192,0.0006586684557299073,0.001531750331513693,0.0011270816507207594
2112.16666666595,-0.0010719824,-0.7851529,-0.0015887674,-2.3545525,0.0013627403,1.5728455,0.7846125,0.039999995,0.039999954,0.027560073549315334,0.014783526174279565,0.010605458977819282,0.005604450227398867,-0.036813900985087675,0.013029815836419706,0.9999974944889405,0.0007061882219076629,0.0017244656176996131,0.0012403758987960772
2112.1833333326167,-0.0011966905,-0.78521097,-0.0017523639,-2.3543866,0.0014901351,1.5730339,0.78447324,0.04,0.039999958,0.028007954737252483,0.015286749679895278,0.011102808345109239,0.005984093562865252,-0.03842813061587414,0.013901028227324062,0.9999969224607433,0.0007569768761623627,0.0019310681347488258,0.0013612607795886363
2112.1999999992836,-0.0013295581,-0.7852738,-0.0019266441,-2.3542092,0.0016258423,1.5732347,0.7843249,0.04,0.039999958,0.02881610943501478,0.01578664424352408,0.011304480152363183,0.006375443598164646,-0.040087660372538796,0.014797148322832387,0.9999962455557542,0.0008110922394558985,0.002151983412510791,0.0014899567668912705
2112.2166666659505,-0.0014708239,-0.78534126,-0.0021119197,-2.35402,0.0017701028,1.5734484,0.7841672,0.04,0.039999958,0.029345227167043575,0.01628461721557249,0.011972395696435711,0.006778633767621566,-0.04178996240690126,0.015717566051079115,0.9999954492682065,0.0008686484079567538,0.002387637691115705,0.001626677311907671
2112.2333333326173,-0.0016207222,-0.7854137,-0.0023084974,-2.3538196,0.0019231564,1.5736746,0.78399986,0.04,0.039999958,0.02910726150666676,0.01677050052854904,0.011212118214065647,0.007193237215826235,-0.04353617335962299,0.016662213692783236,0.9999945194975002,0.000929754643160672,0.0026377725856500042,0.0017716340067154201
2112.2499999992842,-0.0017794836,-0.785491,-0.0025166778,-2.3536053,0.0020852361,1.5739145,0.7838227,0.04,0.039999954,0.0335901176469644,0.01727238579189187,0.01332094409478568,0.007619066556353207,-0.045330063295450355,0.017629908525591646,0.9999934351726999,0.0009945180960205195,0.0029042763200323837,0.0019250257963803002
2112.266666665951,-0.0019473326,-0.7855733,-0.0027367563,-2.3533788,0.0022565713,1.5741683,0.7836353,0.04,0.039999943,0.030915793153507565,0.01774708585026631,0.012463079900904006,0.00805593969280302,-0.047158444213452555,0.018620037105623363,0.9999921806160785,0.0010629511028156073,0.003186385812250876,0.002087052253456222
2112.283333332618,-0.002124491,-0.78566086,-0.0029690228,-2.3531406,0.0024373867,1.5744362,0.7834376,0.039999995,0.039999936,0.0304810138861189,0.018224086941409038,0.012240620014192238,0.008504519729735285,-0.04903012009922367,0.01963190807388923,0.9999907369769749,0.0011352416790379753,0.0034841134336942824,0.002257906144594611
2112.299999999285,-0.0023111764,-0.7857536,-0.00321376,-2.3528883,0.0026279027,1.5747179,0.78322935,0.04,0.039999943,0.034438455181984295,0.01870974610893219,0.01309289529394242,0.008963518195280861,-0.05094859554746288,0.02066448541672633,0.9999890803714873,0.0012114838302734177,0.0037985157595763165,0.002437770034385445
2112.3166666659517,-0.0025076002,-0.7858516,-0.0034712453,-2.3526218,0.0028283345,1.5750144,0.7830102,0.039999995,0.039999932,0.035261548980702884,0.019186574195383457,0.01380796725398703,0.009432726545859514,-0.05290619703234489,0.02171714523383612,0.9999871861556348,0.00129170856673934,0.004130233296283902,0.0026268205939312533
2112.3333333326186,-0.0027139685,-0.7859548,-0.0037417503,-2.3523417,0.0030388932,1.575326,0.78277993,0.04,0.039999932,0.03413869371353684,0.019650121036167423,0.013724551636973281,0.009912727826410688,-0.0549009378675291,0.02278999711191219,0.9999850311429886,0.0013760316630813969,0.004479072938783633,0.0028252313935755165
2112.3499999992855,-0.0029304856,-0.78606343,-0.0040255394,-2.3520477,0.0032597843,1.5756532,0.78253853,0.04,0.03999993,0.035079255980408064,0.020118895774398366,0.013939825916975401,0.010403113741756618,-0.056935263868996194,0.023880624396001644,0.9999825875196505,0.0014646252552345407,0.004845557708779707,0.003033166803373781
2112.3666666659524,-0.0031573488,-0.7861779,-0.0043228716,-2.3517396,0.003491208,1.5759959,0.7822856,0.04,0.03999993,0.035830635628708585,0.02057876130633473,0.013706699913473841,0.01090307162647448,-0.059008172612719484,0.024989530580023137,0.9999798271275182,0.001557476520793021,0.00522991422843978,0.003250784838941811
2112.3833333326193,-0.0033947506,-0.78629804,-0.0046340004,-2.351417,0.0037333602,1.5763544,0.7820208,0.04,0.039999925,0.03671089976289288,0.021040517688494364,0.014043348611392226,0.011412969790267739,-0.06112014199801853,0.02611506407239757,0.9999767192479725,0.001654659195866017,0.005632489244111236,0.0034782366109891165
2112.399999999286,-0.003642879,-0.78642374,-0.004959172,-2.3510797,0.003986434,1.5767289,0.7817441,0.04,0.039999925,0.03709471687638466,0.021496377076126935,0.014427098175717745,0.011932863995938289,-0.06326923565221418,0.027257048269367805,0.9999732317505621,0.0017563026848925302,0.006053511259545813,0.003715667456359879
2112.416666665953,-0.0039019168,-0.7865552,-0.0052986266,-2.3507273,0.0042506144,1.5771204,0.7814553,0.04,0.03999992,0.03803533040485085,0.021954835695871082,0.014951793318651596,0.01246230370424501,-0.06545748289280422,0.02841483235706711,0.9999693280047371,0.0018624728930676435,0.006493627376422256,0.003963211825438072
2112.43333333262,-0.0041720443,-0.7866924,-0.0056525962,-2.3503597,0.004526082,1.5775282,0.7811541,0.04,0.039999917,0.03838123416288752,0.022399780061468227,0.014478621511715417,0.013001008131960822,-0.06767898793858379,0.029586962221203342,0.9999649739898578,0.00197325941819502,0.006952710981788391,0.0042210011531810315
2112.449999999287,-0.004453434,-0.7868357,-0.006021308,-2.3499763,0.0048130145,1.5779532,0.78084034,0.04,0.03999991,0.039870150547871575,0.022851807624028712,0.015023829666338528,0.013549109351524282,-0.06993775847913557,0.030772818866334966,0.9999601273043831,0.002088718937717269,0.007431590463802283,0.004489155575335732
2112.4666666659537,-0.0047462536,-0.7869851,-0.0064049843,-2.3495765,0.0051115826,1.5783952,0.7805139,0.04,0.039999906,0.04119461498879318,0.023301869494133515,0.015095353925653754,0.014106566301341522,-0.07222991312089663,0.03197155682192119,0.9999547459531438,0.002208962776536761,0.007930618392133219,0.004767789965384536
2112.4833333326205,-0.005050668,-0.78714055,-0.006803838,-2.3491607,0.0054219537,1.5788549,0.7801745,0.04,0.03999991,0.04052271083887504,0.02373967774880973,0.015278108481941999,0.014672416342963762,-0.07455208174930752,0.033182316849044755,0.9999487883890723,0.002334040560653865,0.008449821071822995,0.0050570127290364125
2112.4999999992874,-0.0053668353,-0.7873021,-0.0072180773,-2.3487291,0.0057442873,1.5793324,0.7798222,0.04,0.0399999,0.04030363110412161,0.024173810342966243,0.015102425496582583,0.015247294338198124,-0.07690735703585336,0.03440421672923333,0.9999422112520008,0.002464114957584654,0.008989195696224512,0.0053569258600260255
2112.5166666659543,-0.005694908,-0.78746974,-0.0076479027,-2.348282,0.0060787406,1.5798274,0.77945656,0.03999999,0.039999887,0.04000864711668495,0.024597434727083138,0.014745585423092678,0.015830150881510397,-0.07929768248574742,0.03563635755121214,0.9999349709755891,0.0025991644236492894,0.009548622493769273,0.005667624971547298
2112.533333332621,-0.0060350364,-0.78764385,-0.00809351,-2.3478186,0.0064254645,1.580341,0.77907753,0.03999999,0.039999884,0.04233733361131975,0.025050486370687026,0.015457521601103252,0.01642139659498451,-0.08172453374041051,0.036878269682129414,0.9999270102113607,0.002739285682099348,0.010129174414484392,0.0059891893777363585
2112.549999999288,-0.006387364,-0.78782433,-0.008555086,-2.3473377,0.0067846044,1.580873,0.7786848,0.039999988,0.039999876,0.043998833690639394,0.025493065340888993,0.015749904644679624,0.017021009522246118,-0.08418193717543973,0.0381281967948484,0.9999182739300427,0.0028844794628051637,0.01073133024960884,0.006321692025581759
2112.566666665955,-0.0067520286,-0.78801113,-0.009032819,-2.3468394,0.0071563018,1.5814235,0.7782783,0.039999988,0.039999872,0.044033141340360515,0.025924583055456085,0.015626482789143914,0.017629080427811937,-0.08666524708018236,0.03938580222673774,0.9999087090848888,0.0030348629407175856,0.011355092654320982,0.0066652062184220495
2112.583333332622,-0.0071291653,-0.78820443,-0.009526878,-2.3463252,0.0075406954,1.581993,0.777858,0.03999999,0.039999872,0.042045794034439865,0.02632153626042806,0.0151030349492709,0.018245141668040473,-0.08917748133257687,0.04065010374760218,0.9998982648461113,0.003190577186345973,0.012000107756153698,0.007019799768832733
2112.5999999992887,-0.007518903,-0.7884044,-0.010037433,-2.3457937,0.007937916,1.5825813,0.7774236,0.03999999,0.03999987,0.04435414187211606,0.026762872291177103,0.01524495339466636,0.01886880616761812,-0.09172232465187011,0.0419201835904994,0.9998868771674574,0.0033515802460375808,0.01266703742417717,0.0073855223958084895
2112.6166666659556,-0.007921369,-0.788611,-0.01056465,-2.3452435,0.008348086,1.5831889,0.7769751,0.04,0.039999872,0.047420941608278255,0.027228911521602617,0.016152622015530582,0.019500386375410725,-0.09429668449681794,0.04319509185291398,0.9998744722272417,0.003518008889463993,0.013356960764212398,0.007762409477194211
2112.6333333326224,-0.008336676,-0.7888242,-0.011108682,-2.344677,0.008771328,1.5838156,0.7765122,0.04,0.03999987,0.04296232188225613,0.0275815265303226,0.014686078041670214,0.020139071138888874,-0.09689061222545572,0.04447416036206512,0.9998610061724562,0.0036898681743736885,0.014068485842918324,0.008150516225791715
2112.6499999992893,-0.008764943,-0.78904414,-0.011669677,-2.3440928,0.009207759,1.5844623,0.776035,0.04,0.039999865,0.04598997305822472,0.028043243045840216,0.01572321400118426,0.020785691710354444,-0.09951967554800895,0.04575572149089969,0.9998463970976051,0.003867317510834947,0.014802902690478771,0.008549861878674092
2112.666666665956,-0.009206282,-0.7892709,-0.012247787,-2.34349,0.009657494,1.5851283,0.7755433,0.039999995,0.039999858,0.04798716991432084,0.02847990087668055,0.01545131876126149,0.021438809443222517,-0.10217291011836199,0.047040716815717726,0.9998305730242214,0.0040503589558584605,0.015560520587316282,0.00896047082677914
2112.683333332623,-0.009660794,-0.7895045,-0.012843143,-2.3428693,0.010120637,1.5858141,0.7750368,0.03999999,0.039999846,0.04636628567948886,0.028865920714222365,0.015019674693972362,0.022099078842821543,-0.10484732514979203,0.04832694068634155,0.9998134681175618,0.004239017664521918,0.01634108366387607,0.009382360292776571
2112.69999999929,-0.010128581,-0.78974503,-0.013455875,-2.3422308,0.010597288,1.5865203,0.77451557,0.039999995,0.039999846,0.0470461568744307,0.029294279075385565,0.01536979473433231,0.022766472972748898,-0.1075485868946194,0.04961293514589191,0.999795003336239,0.0044333791918081365,0.017145022146103847,0.009815531999909918
2112.716666665957,-0.010609734,-0.78999245,-0.014086116,-2.3415737,0.011087548,1.5872462,0.77397937,0.04,0.039999846,0.048236575081239685,0.029709323300030482,0.014871497810009515,0.023440720700352243,-0.11027385730879692,0.0508983909297275,0.999775102753015,0.004633460109745495,0.017972410672252404,0.010259991093449487
2112.7333333326237,-0.011104351,-0.7902466,-0.0147339795,-2.340898,0.011591502,1.5879929,0.7734283,0.04,0.039999843,0.04858840995007885,0.03015328357418648,0.015610439229263307,0.024122055484055265,-0.11302172555568077,0.052181943744760345,0.9997536785755865,0.004839433491798441,0.018823800130258826,0.010715717741596398
2112.7499999992906,-0.011612513,-0.7905078,-0.01539958,-2.3402047,0.012109247,1.5887597,0.7728621,0.04,0.03999984,0.04714237619514172,0.030504575353233754,0.014180937022656437,0.024809327970016865,-0.11579109806035157,0.05346427459813046,0.9997306644741532,0.00505121384858115,0.019698493962793225,0.011182713638553648
2112.7666666659575,-0.012134299,-0.7907762,-0.016083019,-2.3394918,0.012640856,1.5895473,0.77228075,0.04,0.039999835,0.0510650677818969,0.030977826006305803,0.01519815839778893,0.025503405782950093,-0.11858683108753454,0.054742760784638286,0.9997059484170261,0.005268957114962432,0.020597998698705527,0.0116609279280552
2112.7833333326244,-0.01266979,-0.7910515,-0.016784405,-2.3387606,0.013186417,1.5903552,0.77168417,0.04,0.03999983,0.048628600039135605,0.03134689635970328,0.014187994218084476,0.02620337683840524,-0.12139559400178046,0.056017017039485306,0.9996794647336759,0.005492671045988598,0.02152132141588733,0.01215035304367053
2112.7999999992912,-0.013219058,-0.79133403,-0.017503828,-2.3380105,0.013745993,1.5911839,0.77107227,0.04,0.039999824,0.05015094151841204,0.031775161490898984,0.014355595549897515,0.02690990315625843,-0.12422961311286812,0.05728698215377134,0.9996511106502142,0.00572241404058082,0.022469197289081533,0.012650933820313017
2112.816666665958,-0.013782171,-0.79162365,-0.018241374,-2.3372416,0.014319664,1.5920337,0.7704449,0.039999995,0.039999817,0.050265378384395376,0.0321784831724764,0.014311849266102072,0.02762218811551312,-0.12708166900585866,0.05855075680620131,0.9996207930628747,0.005958213884860373,0.023441737526315617,0.013162625323208587
2112.833333332625,-0.01435919,-0.79192054,-0.018997127,-2.3364537,0.014907485,1.5929044,0.76980215,0.039999995,0.039999813,0.05096285484498253,0.032584748344186704,0.013822486350312246,0.028340616118227538,-0.12995238698793826,0.059808277105962204,0.9995884153006727,0.006200148735895159,0.02443908330115478,0.013685370281508964
2112.849999999292,-0.014950174,-0.7922246,-0.019771175,-2.3356466,0.015509516,1.593796,0.76914376,0.039999995,0.03999981,0.051000634865694394,0.03299797336710486,0.013584382398357242,0.029064590118490344,-0.1328392076740707,0.06105760862400879,0.9995538821382658,0.006448210921036115,0.02546122921019731,0.014219109864733471
2112.8666666659587,-0.015555175,-0.79253584,-0.020563576,-2.3348203,0.016125813,1.5947089,0.7684698,0.03999999,0.0399998,0.05182448561531494,0.033401870203943196,0.013667471290523814,0.02979498989157077,-0.13574542893965671,0.062299322689034264,0.9995170839193306,0.006702501684549779,0.02650861577763091,0.014763763548648369
2112.8833333326256,-0.016174247,-0.7928544,-0.021374404,-2.333975,0.016756421,1.5956432,0.7677802,0.039999995,0.0399998,0.05131520084695751,0.033802143227656956,0.013074853879579962,0.030530500325211464,-0.1386658931331798,0.0635299792214931,0.9994779228502931,0.006963036496085579,0.02758111994202016,0.01531925847948992
2112.8999999992925,-0.01680743,-0.7931802,-0.02220371,-2.3331103,0.017401401,1.5965985,0.7670749,0.03999999,0.03999979,0.05251671227171073,0.034188143220219985,0.012912619251448376,0.03127197061113132,-0.1416025898291876,0.06475222645471607,0.999436289030722,0.007229873557840656,0.028678976085961917,0.015885509985437866
2112.9166666659594,-0.01745476,-0.79351336,-0.023051547,-2.3322263,0.018060781,1.5975754,0.766354,0.039999984,0.03999978,0.05259681180591613,0.03459833579608218,0.012737860246780919,0.03201861181642498,-0.14455406429576084,0.0659625593948041,0.9993920690160688,0.007503137337880776,0.02980241809046135,0.016462417618060683
2112.9333333326263,-0.018116292,-0.7938538,-0.023917964,-2.3313227,0.0187346,1.5985734,0.76561683,0.03999998,0.039999772,0.0530295739212594,0.03500170871722219,0.012118449500087003,0.03276993010800326,-0.14751917820121385,0.06716093160016456,0.999345158516654,0.0077825033707596795,0.030951390630362747,0.017049874153630615
2112.949999999293,-0.018792046,-0.79420173,-0.024803007,-2.3304,0.019422898,1.5995932,0.7648641,0.039999988,0.039999776,0.05274723325960906,0.035383520342950614,0.011918824416223828,0.03352887043537684,-0.15049706022985782,0.06834772658204805,0.9992954379417549,0.008068415008926858,0.032126064368633,0.017647786723051312
2112.96666666596,-0.01948205,-0.7945568,-0.025706714,-2.3294573,0.02012569,1.6006342,0.7640956,0.039999988,0.03999977,0.054131823864578266,0.03581337873631851,0.011821988723359489,0.03429188733638625,-0.1534879767179224,0.0695200095281762,0.9992427875867387,0.008360832795747678,0.033326647934199115,0.0182560255344744
2112.983333332627,-0.020186318,-0.79491925,-0.026629113,-2.3284955,0.020843012,1.6016968,0.76331115,0.03999998,0.039999757,0.053034571741017444,0.036145259287984066,0.011088236858292078,0.03505930595468421,-0.15648914365225403,0.0706780064113538,0.9991870979357762,0.008659680604911294,0.03455296442190094,0.01887447748048471
2112.999999999294,-0.020904884,-0.7952894,-0.027570227,-2.327514,0.021574877,1.6027809,0.7625108,0.039999977,0.03999975,0.05477392123585112,0.036574139812247525,0.010670834650894356,0.03583227291173637,-0.1595032187839406,0.07182072792034425,0.9991282329649794,0.008965034480607995,0.03580551964613796,0.019503000074582177
2113.0166666659607,-0.02163776,-0.79566664,-0.028530082,-2.326513,0.0223213,1.6038867,0.76169455,0.03999996,0.03999973,0.05356384523045321,0.03695739517894023,0.010624803874104138,0.036610423216094874,-0.1625252067211453,0.07294779624947528,0.9990660835497784,0.009276973938371081,0.03708395627159272,0.02014146574359922
2113.0333333326275,-0.022384956,-0.7960512,-0.029508688,-2.3254926,0.023082292,1.605014,0.7608623,0.039999947,0.039999712,0.05436895064439007,0.03733320675311305,0.009960072236170348,0.03739290462822318,-0.16555994390889062,0.07405797208619153,0.9990005212210576,0.00959543979069479,0.03838845566399715,0.020789723591509605
2113.0499999992944,-0.023146478,-0.7964432,-0.030506061,-2.3244522,0.023857865,1.6061629,0.7600141,0.039999936,0.039999694,0.05563484507127292,0.03775095942453108,0.009784411229829537,0.03818085108247265,-0.16860299670153878,0.07515154645643277,0.9989314013428691,0.009920528153346393,0.03971949434934378,0.02144761760576138
2113.0666666659613,-0.023922326,-0.7968427,-0.031522196,-2.3233929,0.02464801,1.6073333,0.75915,0.039999925,0.03999968,0.05368326664640932,0.03804642415237147,0.008728956252812559,0.03897354179866215,-0.17165185745404948,0.07622612464713141,0.9988586214193401,0.010252261683281218,0.041076418723133994,0.022115003312560815
2113.083333332628,-0.024712497,-0.7972495,-0.03255709,-2.3223135,0.025452737,1.6085254,0.75826997,0.039999917,0.039999668,0.0559299436560412,0.03849127112181966,0.008941142553542392,0.039770701430967684,-0.17471196871647357,0.07728247405490143,0.9987820232917747,0.010590639849162607,0.042459945539526874,0.022791694135243405
2113.099999999295,-0.025516994,-0.7976637,-0.033610746,-2.3212154,0.02627204,1.6097392,0.757374,0.0399999,0.039999645,0.05413657686337281,0.03881801952050762,0.008001824758396836,0.040572894964370824,-0.17777632086068068,0.07831750376327164,0.9987014947492836,0.010935723809847612,0.043869570407729055,0.023477545070619128
2113.116666665962,-0.026335804,-0.79808545,-0.034683138,-2.3200972,0.027105905,1.6109746,0.756462,0.039999884,0.039999623,0.05659564893334412,0.03922507649425436,0.007733129369458247,0.041379315564440064,-0.1808491641976602,0.07933366985177048,0.9986168730741757,0.011287460620189227,0.0453059806298749,0.02417234294537506
2113.133333332629,-0.027168911,-0.7985145,-0.035774276,-2.3189592,0.02795432,1.6122314,0.7555341,0.03999986,0.039999597,0.056016255876212284,0.039611491500465834,0.007255192164845603,0.0421908349998602,-0.18392395335337358,0.08032799709547209,0.9985280311922663,0.01164596738313361,0.046768908465334845,0.02487592345961603
2113.1499999992957,-0.0280163,-0.7989508,-0.0368841,-2.317802,0.02881727,1.6135095,0.75459045,0.039999854,0.039999586,0.05535965196417081,0.03989050820892223,0.0064970728749003115,0.043006554496799715,-0.18700377824744913,0.08130054794158086,0.9984348415603197,0.012011272733791326,0.04825811648211401,0.025588096438235685
2113.1666666659626,-0.02887795,-0.7993945,-0.038012624,-2.316625,0.029694734,1.6148094,0.75363076,0.039999846,0.039999574,0.056272997460204977,0.040334649791815,0.0062300321453712115,0.04382639062862718,-0.19008795173244805,0.08225049105412947,0.9983371450561088,0.012383283677551689,0.049774026163034335,0.026308656486045995
2113.1833333326294,-0.029753838,-0.7998456,-0.039159797,-2.315429,0.030586684,1.6161306,0.7526552,0.039999828,0.03999955,0.05594280273983898,0.040638072099956346,0.005361560177030711,0.04465118496749273,-0.19317440859519988,0.08317818973158714,0.9982348096041002,0.012762086456515203,0.05131639838903088,0.02703740557673288
2113.1999999992963,-0.030643933,-0.8003038,-0.040325575,-2.3142133,0.031493098,1.6174736,0.7516638,0.039999813,0.03999953,0.05649957538782502,0.04102143579318429,0.005393522609331569,0.04548073192043699,-0.19626422220899375,0.08408187896972856,0.9981276758535591,0.013147688444909142,0.05288553119352047,0.02777411698159817
2113.216666665963,-0.031548202,-0.80076945,-0.041509923,-2.3129785,0.032413926,1.6188378,0.75065666,0.039999794,0.039999507,0.05592947567318873,0.041317897343093324,0.004096523976238053,0.04631447949108317,-0.19935389724258495,0.08495963417196956,0.9980156150609154,0.013540140317374248,0.05448106652883927,0.028518591912099107
2113.23333333263,-0.032466616,-0.80124235,-0.042712793,-2.3117244,0.03334915,1.6202233,0.7496338,0.039999772,0.03999948,0.056437264052533465,0.04167346307672459,0.0036887001958918475,0.04715206592956404,-0.20244507819077137,0.08581391712031552,0.9978984732961953,0.01393944175050482,0.05610312360873708,0.029270607751628198
2113.249999999297,-0.033399142,-0.8017226,-0.043934133,-2.310451,0.034298714,1.62163,0.7485951,0.03999976,0.039999463,0.056731540359056254,0.042026568195044356,0.0030673219898025295,0.047994279289533634,-0.2055374109077132,0.08664170654724514,0.997776096736459,0.014345557423999098,0.057751791598905894,0.030029923920444047
2113.266666665964,-0.034345713,-0.8022101,-0.0451739,-2.3091583,0.035262592,1.6230582,0.747541,0.039999746,0.039999444,0.05703350536965246,0.04236625314517489,0.002767386607671618,0.04884080829584634,-0.2086274897410634,0.08744319768452968,0.9976483190322957,0.014758654166902332,0.05942727171507442,0.03079631529451862
2113.2833333326307,-0.0353063,-0.8027049,-0.04643201,-2.3078463,0.03624072,1.6245068,0.74647117,0.03999972,0.03999941,0.05678370230941532,0.04262453270095501,0.0013267490997836973,0.04969057771854081,-0.2117145502351527,0.08821863871340056,0.9975150208471477,0.015178553669949838,0.06112903130561966,0.031569545838346605
2113.2999999992976,-0.03628085,-0.8032067,-0.04770843,-2.3065152,0.03723305,1.6259778,0.74538577,0.039999697,0.039999384,0.0570814552045551,0.04309768510758483,0.0021344546434320932,0.0505454036148202,-0.21480226304889904,0.08896589085642749,0.9973759997973545,0.015605370786909933,0.06285783676000047,0.032349339849270346
2113.3166666659645,-0.0372693,-0.80371577,-0.04900305,-2.3051655,0.038239524,1.6274682,0.74428487,0.039999668,0.03999935,0.05563385446767377,0.04311658037760846,-0.0007106679732693522,0.05140359666168611,-0.21788030922676632,0.08968647905408327,0.9972311882722598,0.016039046834189805,0.06461225727623095,0.03313551453377154
2113.3333333326314,-0.038271602,-0.804232,-0.050315816,-2.3037972,0.039260108,1.6289804,0.74316865,0.03999964,0.039999317,0.0565877351053512,0.043607240480593445,0.00023638674198078746,0.052266794525667716,-0.22096399013239304,0.0903771041980568,0.9970803618321084,0.01647969808784649,0.0663933545549458,0.033927777272119375
2113.3499999992982,-0.039287694,-0.80475533,-0.05164665,-2.30241,0.040294718,1.6305131,0.7420371,0.039999623,0.0399993,0.05709796317234783,0.04388338163867078,-0.0010555859026872838,0.053133072487112354,-0.22403966168506137,0.09103907397805408,0.9969233835553684,0.016927277919003635,0.068200795298623,0.03472587080843508
2113.366666665965,-0.040317513,-0.8052857,-0.05299546,-2.3010035,0.041343287,1.6320666,0.7408902,0.039999608,0.039999276,0.05739783902729556,0.0442054865990249,-0.001425005874300389,0.054003507618139046,-0.22711014590531337,0.09167145491162339,0.9967600810223054,0.01738173112021018,0.07003478038039769,0.035529506621136374
2113.383333332632,-0.04136098,-0.80582315,-0.054362174,-2.299578,0.04240576,1.6336404,0.73972803,0.03999958,0.039999243,0.05744195821040243,0.04445264438758534,-0.0025511874237160725,0.054877709986548034,-0.23017209024278731,0.09227422491632724,0.9965903059686716,0.017843073559474416,0.07189509206495028,0.03633844399796375
2113.399999999299,-0.04241804,-0.80636764,-0.055746693,-2.298134,0.043482065,1.635235,0.7385508,0.03999955,0.039999206,0.0565220782138276,0.04471823653274948,-0.003065406086566469,0.055756535103935634,-0.23322652919298972,0.09284749218432128,0.9964139018351756,0.01831137045943705,0.07378162739379104,0.037152407736538266
2113.4166666659657,-0.04348861,-0.80691904,-0.057148926,-2.2966719,0.04457211,1.6368499,0.73735845,0.039999515,0.03999917,0.05644939099038737,0.04498152687031909,-0.003914040291874699,0.05663855246980701,-0.2362725597361215,0.09338924184489031,0.9962307197888228,0.01878657834978017,0.0756941964541823,0.037971121212140684
2113.4333333326326,-0.04457262,-0.8074774,-0.05856875,-2.295191,0.04567582,1.6384853,0.73615116,0.039999478,0.039999127,0.05720611353980942,0.04526376372580576,-0.004506718639074592,0.05752466522793137,-0.23931174898525326,0.09390049419859199,0.9960405767016222,0.019268710058388108,0.07763305015225513,0.03879427664801903
2113.4499999992995,-0.045669995,-0.8080427,-0.06000607,-2.293692,0.046793133,1.6401407,0.7349291,0.03999945,0.039999098,0.05625024453626004,0.04543268797081029,-0.005712112177258533,0.05841473326307699,-0.24233827656782542,0.0943790285988354,0.9958433444424719,0.019757803675527277,0.07959766702621039,0.039621634589402266
2113.4666666659664,-0.046780642,-0.8086148,-0.06146078,-2.2921755,0.047923937,1.6418163,0.7336922,0.03999942,0.039999064,0.05562033238941666,0.04568687742365907,-0.00622390597360134,0.05930769322577148,-0.2453558916224372,0.094827161653811,0.9956388650798186,0.020253819005933694,0.08158797000914386,0.04045288998369379
2113.4833333326333,-0.04790446,-0.8091937,-0.06293278,-2.2906406,0.049068164,1.6435115,0.7324406,0.039999392,0.03999903,0.05684249915960393,0.045936213355672606,-0.007164972167972294,0.06020465166286357,-0.24836593104296764,0.0952418886989006,0.9954269651894245,0.020756687629204826,0.08360406005577942,0.041287746785523376
2113.4999999993,-0.049041383,-0.8097796,-0.06442195,-2.2890875,0.050225712,1.6452266,0.73117447,0.03999936,0.03999899,0.05694790550845319,0.0461789139266755,-0.008064373005378656,0.061105956526567404,-0.25136166304816154,0.09562427929250214,0.9952074666295628,0.021266509013936147,0.08564602908352378,0.04212590249896112
2113.516666665967,-0.050191317,-0.81037164,-0.065928146,-2.2875166,0.05139649,1.6469616,0.72989386,0.039999325,0.039998952,0.05573232186670829,0.04639896789728343,-0.008130516554016864,0.06201013758235471,-0.25434274987099786,0.09597400301435552,0.9949802413448214,0.021783241851371822,0.08771340901134049,0.04296705234775802
2113.533333332634,-0.05135414,-0.810971,-0.06745126,-2.2859282,0.0525804,1.6487156,0.7285988,0.039999295,0.039998915,0.056101823691845354,0.046427193551609736,-0.010448711507216046,0.06291761109690466,-0.2573122141193611,0.09629137385082207,0.9947451239210896,0.022306772401558705,0.08980617674360412,0.043810922826820455
2113.549999999301,-0.05252979,-0.8115766,-0.068991184,-2.2843225,0.05377735,1.6504892,0.7272893,0.039999265,0.03999888,0.055175317342204266,0.04679110073538412,-0.010050481350365459,0.06382938684566974,-0.26026577529864414,0.09657459166121217,0.9945019708983244,0.022837158251758846,0.09192403688352586,0.0446572001514724
2113.5666666659677,-0.05371814,-0.81218916,-0.07054775,-2.2826993,0.05498722,1.6522819,0.725966,0.039999235,0.039998848,0.05605671752864083,0.046842121481049936,-0.011716155450014476,0.06474507821674487,-0.2632073277554798,0.09682410359533514,0.9942505945337506,0.02337451473418571,0.09406715616715863,0.045505576151150466
2113.5833333326345,-0.0549191,-0.812808,-0.07212082,-2.281059,0.056209914,1.6540935,0.7246284,0.0399992,0.039998807,0.054921658816819985,0.04702454139037804,-0.012092453662404523,0.06566313030707399,-0.2661308955236989,0.09703983962351409,0.9939908767804885,0.02391861640453891,0.09623503821141567,0.0463557341317717
2113.5999999993014,-0.056132548,-0.813433,-0.07371026,-2.2794015,0.057445336,1.6559241,0.72327715,0.03999915,0.039998755,0.055026965769577885,0.047179305354047574,-0.012827284407856965,0.06658526698375682,-0.2690395947307327,0.09722238444947856,0.9937226437939327,0.024469679190957553,0.09842766523326933,0.047207380018550245
2113.6166666659683,-0.057358388,-0.8140645,-0.07531593,-2.2777271,0.058693357,1.657773,0.72191185,0.0399991,0.0399987,0.054850532812933395,0.04727102140167916,-0.014300131653621762,0.06750968136853588,-0.27193109576027413,0.09736963537268399,0.9934457564088527,0.025027407922747588,0.10064480469946524,0.04806018323849105
2113.633333332635,-0.058596488,-0.8147026,-0.0769377,-2.2760358,0.059953846,1.6596406,0.72053313,0.039999053,0.039998647,0.05519029174712031,0.047463128448649305,-0.01499127512727405,0.06843922482336101,-0.27480601051760883,0.0974827538297792,0.9931600224081019,0.02559205107734699,0.10288660851906697,0.048913828304859214
2113.649999999302,-0.059846755,-0.81534684,-0.078575425,-2.2743282,0.06122673,1.6615264,0.71914077,0.039999012,0.039998602,0.05354115767821632,0.04751094612346907,-0.015832160912876425,0.0693705053511421,-0.27766060679704624,0.09756108772925431,0.9928653379619186,0.026163427542086018,0.1051524529144707,0.049768035716563366
2113.666666665969,-0.061109055,-0.8159971,-0.08022892,-2.272604,0.062511854,1.6634307,0.7177349,0.039998963,0.039998546,0.05434059822557735,0.04765938476012643,-0.01639960498480697,0.07030522138822952,-0.2804965746991134,0.09760582762393008,0.9925615210958575,0.026741493593197368,0.10744249494848601,0.050622422300074105
2113.683333332636,-0.062383287,-0.8166537,-0.08189803,-2.2708635,0.06380911,1.6653531,0.7163158,0.039998908,0.03999849,0.053874582380464275,0.04770753935958438,-0.0177095786979109,0.07124369852043057,-0.2833115207934537,0.09761427387939814,0.9922484182746851,0.027326341393904115,0.10975653353607696,0.051476701949071786
2113.6999999993027,-0.06366931,-0.81731635,-0.0835826,-2.2691069,0.06511836,1.6672932,0.71488357,0.039998863,0.03999844,0.053500265524553114,0.047757952725141495,-0.01853179904891533,0.07218468836708342,-0.2861033271589366,0.09758981508423731,0.9919258975416823,0.027917865885823453,0.11209425207366343,0.05233053795400266
2113.7166666659696,-0.064967014,-0.817985,-0.08528248,-2.2673345,0.06643947,1.6692507,0.71343845,0.039998814,0.03999839,0.052609362776179225,0.047782778904428835,-0.019687105594345944,0.07312862735989735,-0.2888738270874496,0.09752983493976286,0.9915938321680552,0.028516129492483912,0.11445523878961973,0.05318365048254815
2113.7333333326364,-0.06627625,-0.81865966,-0.08699747,-2.265546,0.067772314,1.6712258,0.7119804,0.039998755,0.039998323,0.05322423961202638,0.047843997337326805,-0.02039234887352137,0.07407542260925212,-0.2916241217291463,0.09743456858303791,0.9912520400589916,0.029120986609475628,0.11683967388593995,0.054035653267126754
2113.7499999993033,-0.06759689,-0.8193403,-0.08872744,-2.2637424,0.06911679,1.6732183,0.7105096,0.039998688,0.039998252,0.05193281034330255,0.047812526698531865,-0.021389435178442717,0.07502504826634111,-0.29434823642692043,0.0973049390013602,0.990900400534657,0.029732439253067375,0.11924711478032207,0.05488628146347256
2113.76666666597,-0.06892881,-0.8200267,-0.09047218,-2.261923,0.07047274,1.6752275,0.7090261,0.039998632,0.039998196,0.052415692715390705,0.04785732501264017,-0.022388971234166277,0.07597777316042227,-0.2970497277018548,0.09714027331834521,0.9905387688960071,0.030350397698384043,0.12167740895418575,0.05573516684938309
2113.783333332637,-0.07027187,-0.8207189,-0.092231534,-2.260089,0.07184002,1.6772537,0.70753014,0.03999858,0.039998136,0.05085515328731027,0.04780063330858397,-0.023318354685764042,0.07693388391273812,-0.29972439538036794,0.09694136350226333,0.9901670267558313,0.030974890651627635,0.12413013363314489,0.056582021869618394
2113.799999999304,-0.071625926,-0.8214168,-0.0940053,-2.2582395,0.07321848,1.6792965,0.7060224,0.03999853,0.039998084,0.05157911397750681,0.047783590441141666,-0.024260929109076734,0.07789264818654461,-0.3023747762314453,0.09670753792929315,0.9897850019943205,0.031606104480362246,0.12660528990650927,0.05742651438463154
2113.816666665971,-0.07299086,-0.82212037,-0.0957933,-2.256375,0.074608006,1.6813557,0.7045022,0.039998475,0.039998025,0.05111703416389446,0.04776311741112038,-0.025182376062016232,0.07885223999126625,-0.30499724408199935,0.09643899463681657,0.9893925674700027,0.032243648365090076,0.1291026795805701,0.058268282112494615
2113.8333333326377,-0.0743665,-0.8228294,-0.0975954,-2.2544956,0.07600846,1.6834309,0.70297015,0.03999842,0.039997965,0.05076002161796822,0.047742958305810324,-0.02619795288405502,0.07981523183006006,-0.3075919092837862,0.09613634472272668,0.9889895956510356,0.032887647385887946,0.13162195354994047,0.05910705276969741
2113.8499999993046,-0.07575269,-0.82354385,-0.09941136,-2.2526023,0.07741965,1.6855223,0.7014262,0.039998353,0.039997894,0.04864867562552888,0.047501809961292274,-0.026959105066737266,0.08078030847678873,-0.31015683768882873,0.09579931338585743,0.988576000402295,0.033537997327727304,0.13416255812777422,0.059942490442579
2113.8666666659715,-0.077149324,-0.82426375,-0.10124098,-2.2506943,0.078841455,1.6876293,0.69987077,0.039998297,0.03999784,0.05030587396328556,0.047533503048372006,-0.028161478365862358,0.0817486117140965,-0.3126962897277532,0.09542701396413134,0.9881515910817428,0.034194750080035155,0.1367247000261762,0.06077424217821686
2113.8833333326384,-0.078556225,-0.824989,-0.10308405,-2.2487726,0.080273695,1.6897517,0.6983039,0.039998237,0.03999777,0.04794212601790804,0.04722821666804655,-0.029215437792995402,0.08271773351603054,-0.3152022654588712,0.09502318675468974,0.9877163153434082,0.034857796448307415,0.13930758821974037,0.061602031586697824
2113.8999999993052,-0.07997327,-0.82571954,-0.10494041,-2.2468367,0.08171625,1.6918895,0.6967254,0.039998166,0.0399977,0.04915803074960756,0.0473281737454867,-0.029889010648287417,0.08368956373445648,-0.317681187843526,0.09458405650079726,0.9872699841539482,0.03552698175772057,0.14191149567731332,0.06242547036648675
2113.916666665972,-0.08140029,-0.8264554,-0.10680984,-2.2448874,0.083168946,1.6940424,0.695136,0.0399981,0.03999763,0.04749439953761758,0.04700169397394427,-0.03110211704222543,0.08466417599152075,-0.32012617063972754,0.09411222008458792,0.9868125100460047,0.03620244858927132,0.14453584453368631,0.0632443070780211
2113.933333332639,-0.08283714,-0.82719606,-0.10869215,-2.2429242,0.08463162,1.6962101,0.6935357,0.03999804,0.039997563,0.04751283644801596,0.04698792499990834,-0.03161793113606315,0.0856396250950583,-0.3225381555400816,0.09360710226154709,0.9863437794700524,0.03688411605646836,0.14718036381118585,0.06405818598643306
2113.949999999306,-0.08428362,-0.82794195,-0.11058715,-2.240948,0.08610413,1.6983925,0.69192463,0.039997973,0.039997496,0.04674942200715293,0.046657718979231655,-0.03302315314082094,0.08661645961279127,-0.32491829515564086,0.09306992502428375,0.9858636679436922,0.037571906100271515,0.1498448362730529,0.06486682621266383
2113.9666666659728,-0.08573962,-0.8286926,-0.11249457,-2.2389588,0.08758628,1.700589,0.690303,0.039997913,0.039997432,0.04546787584476242,0.046393521236773316,-0.03384310964991144,0.08759494814756884,-0.32726361985878805,0.0924989643225975,0.985372127405362,0.03826577005494657,0.15252856925295494,0.0656699089110051
2113.9833333326396,-0.087204956,-0.82944816,-0.11441426,-2.2369568,0.08907796,1.7027998,0.6886709,0.039997842,0.039997358,0.04580737974255733,0.04630500535539872,-0.034576409573694455,0.08857477793792991,-0.3295776913931284,0.0918954614346978,0.9848689812263351,0.03896558952745168,0.15523175639672857,0.06646709303832732
2113.9999999993065,-0.08867946,-0.8302084,-0.11634598,-2.2349427,0.090578966,1.7050244,0.68702847,0.039997783,0.039997295,0.04392695850863326,0.0458777655633541,-0.0357484149186682,0.08955605028602497,-0.33185347492211903,0.09126036302696457,0.9843542065185075,0.03967134665385065,0.15795355071288572,0.06725813096705605
2114.0166666659734,-0.09016295,-0.83097345,-0.11828949,-2.232916,0.092089154,1.7072624,0.68537605,0.03999771,0.03999722,0.0443111722722378,0.04559633577565503,-0.036747804975978404,0.0905386464880854,-0.3340964079426161,0.09059328431240324,0.9838276631110183,0.04038298098498407,0.16069392246389033,0.06804268827323245
2114.0333333326403,-0.0916553,-0.831743,-0.12024463,-2.2308767,0.09360831,1.7095143,0.6837139,0.039997645,0.03999715,0.04506696771686691,0.0457123411101934,-0.03715960980901212,0.09152280822693368,-0.3363032619557107,0.08989461930950374,0.9832891662012192,0.041100563607657646,0.16345309860370025,0.06882037386772281
2114.049999999307,-0.09315634,-0.832517,-0.122211166,-2.228826,0.0951363,1.7117786,0.6820421,0.039997563,0.039997064,0.04124270589964674,0.044908775243820975,-0.03880985421553795,0.09250597435912712,-0.3384678792848099,0.0891658906253139,0.9827388176422327,0.041823924910484714,0.1662295366203216,0.06959106809944784
2114.066666665974,-0.09466587,-0.8332956,-0.12418882,-2.2267637,0.09667294,1.7140561,0.68036073,0.039997492,0.03999699,0.04247283961094084,0.04473482760770087,-0.039283710657822546,0.09349006414303304,-0.3406004320717057,0.0884054305578458,0.9821764083460558,0.04255293118620442,0.16902372321316503,0.07035433126015339
2114.083333332641,-0.09618372,-0.8340784,-0.1261774,-2.22469,0.09821804,1.716346,0.67867,0.039997417,0.03999691,0.04126284689851545,0.04436532852012398,-0.04026918004571556,0.09447514372595082,-0.3426923923097408,0.08761561180064126,0.9816019096322253,0.04328754294033845,0.17183497602719913,0.0711099194647899
2114.099999999308,-0.09770974,-0.83486545,-0.12817673,-2.2226052,0.09977145,1.7186486,0.67697036,0.039997347,0.039996836,0.040537730083123336,0.044128675473864565,-0.041027912689828305,0.09546078181632196,-0.3447449669360644,0.0867962798374127,0.981015202237548,0.044027885361619175,0.17466312792597746,0.07185756767745866
2114.1166666659747,-0.09924373,-0.8356566,-0.13018645,-2.2205093,0.10133298,1.7209632,0.6752618,0.03999727,0.039996754,0.0403967217121437,0.04356729381180813,-0.04184508427542699,0.09644508676211336,-0.34675964450157337,0.08594687857585763,0.9804162181676659,0.04477369592603629,0.1775078707113736,0.07259690862873655
2114.1333333326415,-0.1007855,-0.83645177,-0.13220644,-2.2184021,0.10290244,1.7232894,0.6735444,0.039997198,0.039996684,0.03994325936247378,0.043247289672471156,-0.04307827352034721,0.09742994908019832,-0.34873101328786976,0.08506863993397498,0.9798048970119726,0.045524877742421935,0.18036878312545185,0.07332769853022175
2114.1499999993084,-0.10233492,-0.83725095,-0.13423641,-2.2162852,0.104479656,1.7256268,0.67181855,0.039997123,0.0399966,0.037107013125403654,0.042596397903188477,-0.0438964500674599,0.09841449186464857,-0.3506605306727594,0.08416452277794687,0.9791812586270825,0.04628145130019351,0.18324499144399226,0.07404973416374672
2114.1666666659753,-0.103891775,-0.838054,-0.13627622,-2.214158,0.106064446,1.7279756,0.6700844,0.039997056,0.039996535,0.03775394480642902,0.042427697042757284,-0.044561266314913084,0.0993993213540332,-0.3525527439334818,0.08323014141538895,0.9785451606576543,0.04704336782214399,0.18613658707835198,0.07476269824089529
2114.183333332642,-0.10545587,-0.83886087,-0.1383255,-2.2120209,0.107656635,1.7303354,0.6683422,0.03999699,0.039996464,0.03697545722203266,0.041715429936262094,-0.04543686745250852,0.10038211497834813,-0.3544002331889242,0.08226944698683367,0.9778965599521051,0.04781047610881135,0.18904315617713568,0.07546629387133483
2114.199999999309,-0.10702704,-0.83967155,-0.14038405,-2.209874,0.10925599,1.732706,0.666592,0.039996933,0.039996404,0.03636707452741028,0.041349829563086526,-0.04627891235950976,0.10136450490675361,-0.3562056590695209,0.08128228032516294,0.977235384731515,0.0485827171723428,0.1919644312563129,0.07616022290697591
2114.216666665976,-0.108605094,-0.84048575,-0.14245167,-2.2077177,0.110862374,1.735087,0.6648341,0.03999686,0.03999633,0.03483205899792452,0.04082042708213329,-0.04693442511138901,0.10234633886022036,-0.3579669620862736,0.08026856077471549,0.9765616324362228,0.049360021990399794,0.19489977195670513,0.0768442917452645
2114.233333332643,-0.11018988,-0.8413032,-0.1445281,-2.205552,0.11247559,1.7374784,0.6630688,0.03999678,0.039996248,0.034304364985038305,0.04035530509275964,-0.04756686758478068,0.10332646924523874,-0.35968392475524835,0.07923042342562979,0.9758752484562954,0.05014239812567104,0.19784884080148063,0.0775182272377334
2114.2499999993097,-0.11178118,-0.8421244,-0.14661309,-2.2033772,0.11409543,1.7398791,0.66129625,0.039996713,0.039996177,0.034224271901672765,0.039639004121622134,-0.0491436822202429,0.1043039993391621,-0.36135653356090724,0.0781671009012307,0.9751761814568171,0.0509296823480033,0.20081133483523578,0.07818177778052417
2114.2666666659766,-0.11337881,-0.8429487,-0.14870635,-2.2011936,0.11572173,1.7422899,0.6595167,0.03999664,0.0399961,0.03283725462783771,0.03918449406053459,-0.04891598302214639,0.10527919779391778,-0.3629815258479316,0.07707984088224816,0.9744643871039667,0.051721830772756446,0.20378691488955475,0.07883466120560469
2114.2833333326435,-0.11498258,-0.8437762,-0.15080771,-2.1990018,0.11735429,1.7447096,0.65773016,0.03999657,0.039996028,0.03098445941418504,0.038435724000479565,-0.050356038485821486,0.10625258939870987,-0.364561122260178,0.07596825161214008,0.9737399334564725,0.05251867338932046,0.20677470678968338,0.07947673602791336
2114.2999999993103,-0.11659232,-0.844607,-0.15291691,-2.1968014,0.11899287,1.7471384,0.65593714,0.0399965,0.039995953,0.031713906046082485,0.03804784548667173,-0.05093411111658508,0.1072238329257505,-0.36609640710169733,0.07483414375107618,0.9730026849896336,0.05332026367447696,0.2097748437420889,0.08010767389975902
2114.316666665977,-0.11820782,-0.84544075,-0.15503363,-2.1945932,0.12063734,1.749576,0.6541376,0.03999644,0.039995894,0.029834162081199267,0.03721257199260086,-0.05142369028579008,0.10819126840141993,-0.3675822798652429,0.07367792399036364,0.9722526853021388,0.054126397587501957,0.2127866451521806,0.08072727328393828
2114.333333332644,-0.119828865,-0.8462773,-0.15715769,-2.1923773,0.12228747,1.7520219,0.65233195,0.039996374,0.039995823,0.028736889822944534,0.03659796219709355,-0.052135344550707785,0.10915616940979528,-0.3690198674808782,0.07249975457372668,0.971489946280357,0.05493705963847991,0.21580955692752676,0.08133534836226822
2114.349999999311,-0.121455275,-0.84711665,-0.15928882,-2.1901543,0.12394305,1.754476,0.6505201,0.039996307,0.039995752,0.027551927584212876,0.03589085849455276,-0.052851650118768134,0.11011735051292967,-0.37041131334944954,0.07130085542811616,0.9707144781300863,0.05575203303058823,0.21884312821543556,0.08193166661598564
2114.366666665978,-0.12308687,-0.8479589,-0.16142674,-2.1879241,0.1256039,1.756938,0.6487025,0.039996244,0.03999569,0.027459973387955472,0.03521632628606386,-0.05363752563682933,0.1110759655161295,-0.3717555401065574,0.07008071409934997,0.9699262112777172,0.056571339813387314,0.22188722524219057,0.08251598307293512
2114.3833333326447,-0.12472346,-0.84880364,-0.16357118,-2.1856873,0.1272698,1.7594075,0.6468794,0.039996188,0.03999563,0.025547409045056924,0.0344638079219417,-0.05394920577672657,0.11203030006344049,-0.3730495748541224,0.06884263372150735,0.9691252336243535,0.05739488238380391,0.22494103713609845,0.08308813899003735
2114.3999999993116,-0.12636481,-0.8496509,-0.16572186,-2.183444,0.12894064,1.7618843,0.64505106,0.039996136,0.039995573,0.024940688259444954,0.033600511095166485,-0.054712276942781024,0.11297986083353057,-0.374295733579207,0.06758523545837367,0.9683115206062226,0.05822260078056491,0.22800426501822904,0.08364797040639417
2114.4166666659785,-0.12801075,-0.8505006,-0.16787861,-2.181194,0.1306161,1.764368,0.64321756,0.03999608,0.039995518,0.02473930743023267,0.033154900124743314,-0.05533736707283854,0.11392532471781867,-0.3754928682649835,0.06630813238446642,0.9674850606405657,0.05905432926177663,0.23107664100389833,0.08419518760070582
2114.4333333326454,-0.12966107,-0.85135263,-0.17004111,-2.1789384,0.13229603,1.7668582,0.64137924,0.03999602,0.039995458,0.02250785125239574,0.0320556515771564,-0.05597760500490878,0.11486512672357134,-0.3766381846540351,0.0650151701234699,0.9666459537763002,0.05989000229051507,0.234157346628963,0.08472971552668167
2114.4499999993122,-0.13131557,-0.85220677,-0.17220911,-2.1766768,0.1339802,1.7693547,0.63953614,0.039995965,0.0399954,0.022310745431131096,0.03147557613642493,-0.056275850682863116,0.11580067152886096,-0.37773527188548783,0.06370431444970753,0.9657941839108662,0.06072946707585904,0.2372461676981651,0.0852512877624736
2114.466666665979,-0.13297403,-0.8530631,-0.17438234,-2.1744096,0.13566843,1.7718576,0.6376885,0.039995898,0.039995328,0.021431291325191282,0.03064263446438953,-0.05676203422608772,0.11673025429758438,-0.3787809935726496,0.06237863133589348,0.9649297366069175,0.061572624394968946,0.24034285267202718,0.08575971377222116
2114.483333332646,-0.13463631,-0.8539213,-0.17656057,-2.1721375,0.1373605,1.7743659,0.6358368,0.039995838,0.039995268,0.019262349002646673,0.029737655700412535,-0.057351489424339874,0.11765466588386198,-0.37977344684446485,0.061037557987213914,0.9640527804738359,0.06241948636079574,0.24344635286788313,0.08625495613845405
2114.499999999313,-0.13630213,-0.8547815,-0.17874345,-2.1698606,0.13905625,1.7768797,0.6339811,0.039995775,0.0399952,0.018898188762683787,0.0287328532767972,-0.057831826490462035,0.11857235757187021,-0.3807195742296162,0.059681382568079464,0.9631632852551825,0.06326986406638967,0.24655655673640942,0.08673681206817786
2114.5166666659798,-0.13797139,-0.8556434,-0.18093084,-2.1675787,0.14075543,1.7793986,0.6321216,0.039995715,0.03999514,0.018448368274226468,0.02832608316060692,-0.058174455338755315,0.11948393206498482,-0.3816114558464406,0.05831111862082288,0.9622612774055508,0.06412370637503348,0.24967310625180947,0.08720507038663912
2114.5333333326466,-0.13964377,-0.8565072,-0.18312237,-2.1652925,0.14245789,1.7819225,0.6302585,0.039995655,0.039995078,0.017127382345183406,0.02704384266087878,-0.05870182325409257,0.12038760822939303,-0.38245154606439136,0.05692890634292771,0.9613468086867775,0.06498078914957225,0.25279557481838344,0.08765961340030266
2114.5499999993135,-0.14131913,-0.85737246,-0.1853178,-2.163002,0.14416334,1.7844505,0.6283921,0.0399956,0.03999502,0.015871383770837966,0.026246994781098376,-0.05906484586306604,0.12128458210249006,-0.3832377830550081,0.055534916962558266,0.9604200080462858,0.06584108411499444,0.2559232158741643,0.0881003255587654
2114.5666666659804,-0.14299732,-0.8582395,-0.18751688,-2.160708,0.1458716,1.7869828,0.6265226,0.039995555,0.039994974,0.014585587572124581,0.025384012252160915,-0.0595871800309844,0.12217436175446185,-0.38397216631317965,0.05412866831317795,0.9594809149937003,0.06670450800976543,0.2590556678222287,0.08852707689292591
2114.5833333326473,-0.14467806,-0.85910743,-0.18971932,-2.1584098,0.14758249,1.789519,0.62465036,0.039995503,0.039994918,0.014163893914131975,0.02454991777207649,-0.059222446347928503,0.12305604090305758,-0.3846546859752664,0.05271237865514691,0.9585295876590187,0.06757098916066762,0.2621925182699954,0.08893972323612566
2114.599999999314,-0.14636102,-0.8599768,-0.1919249,-2.156109,0.14929575,1.7920587,0.62277544,0.039995458,0.039994873,0.011589834922975939,0.0232734679091684,-0.059925697243845555,0.1239288485616886,-0.38528307737653683,0.051285615501253615,0.9575661863401346,0.06844028788325737,0.26533300555811706,0.08933824452027188
2114.616666665981,-0.14804628,-0.86084735,-0.1941333,-2.1538048,0.15101117,1.7946017,0.6208979,0.03999541,0.039994825,0.012547616387514893,0.022823932525301016,-0.06032659942190044,0.12479362149117773,-0.3858614627724978,0.04984975685593955,0.9565906817838538,0.06931231354872591,0.26847713765640463,0.08972233429112797
2114.633333332648,-0.14973341,-0.8617191,-0.19634426,-2.151498,0.15272863,1.7971478,0.6190182,0.039995372,0.039994784,0.010085725301323123,0.021389699693852293,-0.06035783815490081,0.12564945981387698,-0.38638174165886807,0.04840691879434522,0.9556032220564221,0.07018697933352352,0.2716241642102353,0.09009208258504887
2114.649999999315,-0.15142229,-0.8625918,-0.19855748,-2.1491885,0.15444787,1.7996966,0.6171366,0.03999533,0.039994743,0.010277331339958451,0.02068586013211915,-0.06070340430639476,0.126496178088634,-0.38685046946418644,0.046955645039881026,0.9546038294684379,0.07106420911379344,0.2747739036976723,0.09044727079335797
2114.6666666659817,-0.15311277,-0.86346537,-0.20077276,-2.1468773,0.15616862,1.8022478,0.61525327,0.039995294,0.039994705,0.0073422478948703684,0.01966142257618375,-0.06063827702602609,0.12733196703999994,-0.3872618844571272,0.045499522765300796,0.9535927333211633,0.07194392027160022,0.27792539621152174,0.09078791457950167
2114.6833333326485,-0.15480445,-0.8643395,-0.20298983,-2.144564,0.15789078,1.8048009,0.6133687,0.039995257,0.03999467,0.007333380573992798,0.01855110495903589,-0.06071601320591924,0.12815771412872795,-0.38762097877727103,0.04403625675253435,0.9525699864011412,0.0728260228281785,0.28107834123499537,0.09111398078968214
2114.6999999993154,-0.15649725,-0.8652143,-0.20520829,-2.142249,0.15961404,1.8073556,0.6114827,0.039995223,0.03999463,0.005810110862425333,0.017384625602229198,-0.061004887096127725,0.1289727293529423,-0.38792712228233567,0.042567207440559134,0.9515357382510485,0.07371019918271596,0.2842322337413555,0.0914252846310905
2114.7166666659823,-0.15819095,-0.8660895,-0.20742798,-2.139933,0.16133823,1.8099117,0.60959566,0.039995186,0.039994594,0.004503712520120828,0.016545649423549413,-0.06091603516651389,0.12977687136632426,-0.38817934600182946,0.04109533701650505,0.9504901184934005,0.0745964718471904,0.2873865043046976,0.09172185223750573
2114.733333332649,-0.15988538,-0.8669652,-0.20964856,-2.1376164,0.16306314,1.812469,0.60770786,0.03999514,0.039994553,0.00329022476424079,0.015427741665235972,-0.0609198865709093,0.1305712273050163,-0.38837894379270754,0.03961804303603059,0.9494332413375842,0.07548472561037942,0.29054072248800156,0.09200361416207636
2114.749999999316,-0.1615803,-0.86784124,-0.21186982,-2.1352985,0.1647886,1.8150271,0.6058194,0.0399951,0.039994508,0.0036864303681660715,0.014540949566532735,-0.06128220126295769,0.13135202992533818,-0.3885244774848188,0.03813945663545222,0.9483651302583288,0.07637477464540848,0.2936948033075342,0.09227045040593876
2114.766666665983,-0.16327551,-0.8687175,-0.21409148,-2.1329799,0.16651434,1.8175856,0.6039308,0.039995078,0.039994486,0.001928995448974291,0.013476568465276006,-0.06113772826119579,0.13212142402936275,-0.3886130800374983,0.03665896514971778,0.9472859820277365,0.07726662368871805,0.296848020848459,0.09252237370412458
2114.78333333265,-0.16497082,-0.86959386,-0.21631327,-2.1306612,0.1682401,1.820144,0.602042,0.039995052,0.039994456,2.342487923634451e-05,0.012308231366808808,-0.061024039148671605,0.1328767384121053,-0.3886468232614618,0.03517795807081729,0.9461960048146927,0.0781600695853799,0.299999702986741,0.09275937797866958
2114.7999999993167,-0.16666597,-0.8704702,-0.21853487,-2.1283429,0.16996576,1.8227025,0.60015345,0.039995033,0.039994437,-0.0008061766734179798,0.011173520552748561,-0.06074776855586883,0.13361951757005908,-0.3886267933226363,0.033695999922221144,0.9450952967168083,0.07905500635814215,0.30314953156643154,0.092981436881429
2114.8166666659836,-0.16836078,-0.87134653,-0.22075604,-2.126025,0.17169109,1.8252606,0.59826505,0.039995003,0.039994407,-0.001824419467899574,0.010156023758078891,-0.060727648652125765,0.13434891043426,-0.3885529799303399,0.032214047676775326,0.9439840116538414,0.0799512160308393,0.3062970647734002,0.09318850201773751
2114.8333333326505,-0.170055,-0.87222254,-0.22297649,-2.1237078,0.17341584,1.8278177,0.5963774,0.039994977,0.03999438,-0.0032813771164263983,0.00892580269795662,-0.06055394025366034,0.135065010294295,-0.3884232829942541,0.03073436794958933,0.9428623729207504,0.08084867311849298,0.3094415808136796,0.09338065029095645
2114.8499999993173,-0.17174846,-0.87309825,-0.22519594,-2.121391,0.17513986,1.8303736,0.5944905,0.03999496,0.039994363,-0.003089023638880306,0.008022772613647255,-0.06054625499603006,0.13576685029805513,-0.3882417425677527,0.02925549221174383,0.9417304118966414,0.08174722501690011,0.31258305321448154,0.09355777548729421
2114.866666665984,-0.173441,-0.8739737,-0.22741415,-2.1190753,0.1768629,1.8329283,0.5926047,0.03999494,0.039994344,-0.0043364492197106586,0.00697011766493949,-0.060470369491549825,0.13645381040064186,-0.38800351646706277,0.027780407515955192,0.9405882903985741,0.08264674671079607,0.3157210317910671,0.09371986613303135
2114.883333332651,-0.17513235,-0.8748483,-0.22963083,-2.1167617,0.17858471,1.8354809,0.5907201,0.03999492,0.039994325,-0.008068029105601227,0.005607279085251271,-0.05934918926888688,0.1371250655021478,-0.3877081583415014,0.026309468947924377,0.9394364543735415,0.0835471166649584,0.31885418065500004,0.0938671346631472
2114.899999999318,-0.1768223,-0.8757226,-0.23184569,-2.1144507,0.18030515,1.8380318,0.5888372,0.039994903,0.03999431,-0.008334679701604841,0.004387753883028367,-0.05958342168435049,0.13778215219268697,-0.38736301791422517,0.024841427281324442,0.9382749192582459,0.08444826951540253,0.3219825189160557,0.09399959137814355
2114.916666665985,-0.17851067,-0.8765959,-0.23405851,-2.1121414,0.182024,1.8405801,0.58695585,0.0399949,0.039994307,-0.00807077711062476,0.003636673122342504,-0.05920645304464678,0.1384230057672871,-0.3869666240402875,0.0233775607413158,0.9371038480818368,0.08534993595864737,0.3251057258045781,0.0941171259184375
2114.9333333326517,-0.18019728,-0.87746817,-0.23626901,-2.109834,0.18374106,1.8431256,0.5850766,0.03999489,0.0399943,-0.009137770722089655,0.0025500195406258364,-0.05888206345865399,0.13904809235177007,-0.3865155775976312,0.021920043899492495,0.9359234177931373,0.08625215071900622,0.3282233190651946,0.09421982458371489
2114.9499999993186,-0.18188179,-0.87833965,-0.23847687,-2.1075296,0.18545611,1.8456683,0.5831997,0.039994877,0.039994285,-0.011172829204220136,0.0010315512305347774,-0.0583766044913725,0.13965569500855446,-0.38601000743866665,0.02046916111527295,0.9347338376726599,0.08715473707356967,0.3313347874424135,0.09430781063023937
2114.9666666659855,-0.18356413,-0.8792102,-0.24068186,-2.1052272,0.18716885,1.8482075,0.581325,0.039994873,0.03999428,-0.009983184090600616,0.0003574112286131026,-0.05873338206365819,0.14024573142237867,-0.3854502939599335,0.019024756712891843,0.933535198343094,0.08805741183136333,0.3344400922493477,0.09438087927292024
2114.9833333326524,-0.18524408,-0.88007957,-0.24288367,-2.1029289,0.18887919,1.8507432,0.5794531,0.039994866,0.039994273,-0.01432671932088958,-0.001158827162528464,-0.057237808744670104,0.14081850602849752,-0.3848345508874649,0.017590403560328535,0.9323279008549776,0.08896025822672123,0.3375380782143636,0.09443941708280461
2114.9999999993192,-0.18692134,-0.88094753,-0.24508204,-2.100634,0.19058685,1.8532748,0.5775841,0.039994873,0.03999428,-0.014438272573524813,-0.002243964095638429,-0.05684351788091124,0.14137319351375208,-0.3841686099649273,0.016162600831145534,0.9311121380396838,0.08986300257838653,0.34062841305957225,0.0944833920817998
2115.016666665986,-0.18859583,-0.8818141,-0.24727675,-2.0983427,0.19229162,1.8558025,0.57571805,0.039994877,0.039994285,-0.014099391529498462,-0.0028953814489973695,-0.056696789330801245,0.14191053626557149,-0.3834512124317304,0.014744410830146385,0.9298879473345185,0.09076556614306068,0.34371116370946536,0.09451271526207718
2115.033333332653,-0.19026728,-0.88267916,-0.2494675,-2.0960553,0.1939933,1.8583252,0.57385564,0.039994884,0.039994292,-0.016561615836341304,-0.00452638678059003,-0.056038957200232886,0.14242813882830052,-0.3826771317132327,0.013337685930077729,0.928655731768449,0.09166791828419814,0.3467852844562378,0.09452772659730337
2115.04999999932,-0.1919355,-0.8835427,-0.25165403,-2.093773,0.19569173,1.8608433,0.57199657,0.03999489,0.039994303,-0.01824944461668032,-0.0056181679527589345,-0.05512598275458913,0.14292651891682354,-0.38185336441715184,0.011939968673730837,0.9274157068810397,0.09256973922114228,0.34985042893295426,0.09452844749755974
2115.0666666659868,-0.19360027,-0.88440454,-0.25383598,-2.0914953,0.19738664,1.8633562,0.5701414,0.0399949,0.03999431,-0.018620980481154348,-0.006743414228416178,-0.054562095863008864,0.14340640675526334,-0.3809796108218023,0.010553103293372557,0.9261680717971084,0.09347099992814255,0.35290622320930076,0.0945149330857645
2115.0833333326536,-0.19526142,-0.8852644,-0.2560132,-2.0892217,0.19907789,1.8658636,0.5682903,0.03999491,0.03999432,-0.01811869539523059,-0.007470234574724621,-0.05430174779090802,0.14386712168674506,-0.3800539733690682,0.009177499535958512,0.9249129327614243,0.09437162291953097,0.35595255889029254,0.09448724473518975
2115.0999999993205,-0.19691871,-0.8861224,-0.2581855,-2.086954,0.20076531,1.8683654,0.5664435,0.039994925,0.039994337,-0.021655625685879087,-0.008856124073586269,-0.0529968166817385,0.14430617509895455,-0.37907512401196186,0.00781564512047948,0.9236506730927426,0.09527149082352028,0.3589885639279569,0.09444568862860121
2115.1166666659874,-0.19857201,-0.88697827,-0.2603524,-2.0846922,0.20244858,1.8708609,0.56460124,0.039994933,0.039994348,-0.02229951371437444,-0.01016535802044194,-0.05235328680934792,0.14472433022294445,-0.3780469246709139,0.00646489469591845,0.9223815993191473,0.09617040022306236,0.3620136926359122,0.09439028394119257
2115.1333333326543,-0.20022099,-0.887832,-0.2625138,-2.0824358,0.2041275,1.8733501,0.5627637,0.03999494,0.039994355,-0.022089682233783492,-0.010982484510313473,-0.05188200764145723,0.1451228459642588,-0.37696949677090186,0.005127623021350686,0.9211058011421012,0.09706821130602297,0.3650279395514856,0.09432109415721579
2115.149999999321,-0.20186551,-0.8886836,-0.2646694,-2.0801847,0.20580196,1.8758327,0.560931,0.03999496,0.039994378,-0.021991975233692784,-0.01201342488588164,-0.05160222548821203,0.14549896117649253,-0.375841660087222,0.0038046635350578693,0.9198234185496444,0.09796477365379883,0.36803117548417297,0.094238185903291
2115.166666665988,-0.20350541,-0.88953286,-0.26681888,-2.0779405,0.20747168,1.8783084,0.55910355,0.039994974,0.039994396,-0.02569918832779905,-0.013331796754756375,-0.0497672097210744,0.14585358358755643,-0.37466064960620327,0.0024968457734865883,0.9185349378184192,0.09886003403854353,0.3710223336678659,0.09414185889635635
2115.183333332655,-0.2051405,-0.8903797,-0.26896203,-2.0757027,0.20913649,1.8807766,0.55728143,0.039994996,0.03999442,-0.025470388852832926,-0.01441207075261186,-0.04954140967061704,0.14618546588220055,-0.3734311967514521,0.001204841266631524,0.9172405461160443,0.09975379740370051,0.37400120835867573,0.09403221049477004
2115.199999999322,-0.20677051,-0.89122397,-0.2710986,-2.073472,0.21079618,1.8832374,0.55546504,0.039995026,0.039994452,-0.027259345477270713,-0.01543273986054361,-0.04814363747203121,0.14649592576975104,-0.3721535130416089,-7.234494109053038e-05,0.9159405406269991,0.10064602955304713,0.3769672560380804,0.09390948113075616
2115.2166666659887,-0.20839526,-0.8920655,-0.27322832,-2.0712483,0.21245058,1.8856901,0.5536544,0.039995052,0.03999448,-0.027345388594701703,-0.016587880406859767,-0.04755564758085473,0.14678343441423464,-0.3708275095791673,-0.0013338274014903229,0.9146351409040145,0.10153645077389203,0.3799202503026747,0.09377372551886662
2115.2333333326555,-0.21001461,-0.89290446,-0.2753509,-2.069032,0.21409948,1.8881346,0.5518498,0.03999507,0.0399945,-0.02848327699540576,-0.017620455175049177,-0.046746962581689644,0.14704779908012122,-0.3694543386925431,-0.0025775808917402263,0.9133245995102409,0.10242502555775283,0.3828597952889562,0.09362514203060222
2115.2499999993224,-0.21162836,-0.8937405,-0.27746615,-2.0668235,0.21574266,1.8905708,0.55005133,0.039995093,0.039994523,-0.029961070441819615,-0.018518549592883016,-0.04536822548060204,0.1472893616793548,-0.36803351864789036,-0.003805442728340415,0.9120092331832691,0.10331160235657304,0.3857853970595231,0.093463890474391
2115.2666666659893,-0.21323627,-0.8945736,-0.2795739,-2.0646229,0.21737999,1.8929981,0.5482593,0.039995126,0.03999456,-0.030360127999218278,-0.019576512355179432,-0.04477714193669158,0.14750674618305237,-0.366566013024026,-0.005014559283272553,0.9106892594377493,0.10419606495693143,0.38869678619653536,0.09329019880298142
2115.283333332656,-0.21483818,-0.89540374,-0.28167367,-2.06243,0.2190112,1.8954164,0.54647404,0.039995156,0.039994594,-0.030378360550287198,-0.02073892558205337,-0.0438187368703824,0.14770045864818232,-0.36505006461025424,-0.006206230120314973,0.9093648934694117,0.10507825714724894,0.39159376497839066,0.09310410103916375
2115.299999999323,-0.21643391,-0.8962306,-0.28376532,-2.0602455,0.22063608,1.8978254,0.54469573,0.039995182,0.03999462,-0.03272906325437752,-0.0216789796230632,-0.04223512837044918,0.1478690119085182,-0.36348737639994644,-0.0073778767221197444,0.9080365408815392,0.10595813363736473,0.3944756112132957,0.0929059013081086
2115.31666666599,-0.21802321,-0.89705426,-0.28584856,-2.0580702,0.2222545,1.9002246,0.5429244,0.039995223,0.039994664,-0.03388693373387319,-0.023020083061264796,-0.04128726139434047,0.14801321342141732,-0.3618796792408152,-0.00853183863603324,0.9067045276294902,0.10683539232687908,0.3973418908019678,0.09269584853952126
2115.333333332657,-0.21960597,-0.8978747,-0.28792328,-2.0559037,0.22386624,1.9026139,0.5411605,0.03999526,0.0399947,-0.033749163256047154,-0.023548072731249814,-0.040616196829224016,0.148133088738503,-0.360228233210781,-0.00966543213545408,0.9053689858259735,0.10771012334815029,0.400192543169807,0.09247408947406151
2115.3499999993237,-0.22118196,-0.8986916,-0.2899891,-2.053746,0.22547114,1.904993,0.53940403,0.039995305,0.03999475,-0.034380763520136526,-0.02463119450332174,-0.03917085513649443,0.14822790400498131,-0.3585310340703261,-0.010780684573625,0.9040302217355423,0.10858203596759805,0.4030272291771979,0.09224072959202008
2115.3666666659906,-0.22275105,-0.8995051,-0.29204586,-2.0515978,0.22706896,1.9073617,0.53765523,0.039995346,0.039994795,-0.03584821467672583,-0.025674802538211416,-0.03820180618361313,0.14829725616253303,-0.3567887613600066,-0.011874711246582424,0.9026885610760329,0.10945106107633701,0.4058454805529796,0.09199604799373957
2115.3833333326575,-0.22431296,-0.9003148,-0.29409322,-2.04946,0.22865954,1.9097198,0.53591436,0.0399954,0.039994847,-0.037711683482388736,-0.02679149756745769,-0.036228415405026304,0.14833990747297623,-0.35500215550719005,-0.012947233758046336,0.9013444034598513,0.11031706559338475,0.4086466929504396,0.09174034952592311
2115.3999999993243,-0.22586754,-0.90112096,-0.29613107,-2.0473313,0.23024268,1.9120669,0.5341819,0.039995436,0.039994888,-0.03610886675144975,-0.027368501266378242,-0.03626920260544342,0.1483582137544468,-0.3531748086395839,-0.014000264547133066,0.8999977633463156,0.11118006092641809,0.41143113478342563,0.09147371947641555
2115.416666665991,-0.22741467,-0.90192336,-0.29815906,-2.0452132,0.23181823,1.9144028,0.53245765,0.039995484,0.03999494,-0.03868569863052507,-0.02860029999859348,-0.034294396495404555,0.1483482620453705,-0.3513012751904854,-0.015031860763491785,0.8986491392020999,0.1120397552874175,0.4141980546382511,0.09119643293654056
2115.433333332658,-0.22895409,-0.90272164,-0.30017692,-2.043106,0.233386,1.916727,0.53074205,0.039995536,0.039994992,-0.04041274371786585,-0.0297356190696485,-0.03250706993285224,0.14831201403845898,-0.349387513389038,-0.01604122444779367,0.8972989771470169,0.11289607308825608,0.41694675666861825,0.09090887963058653
2115.449999999325,-0.23048566,-0.90351593,-0.30218455,-2.0410087,0.23494579,1.9190395,0.529035,0.03999559,0.03999505,-0.038024529527458384,-0.029935586985074814,-0.03248434802209932,0.14825091773318314,-0.34743555624227984,-0.017031127832994777,0.8959471817030018,0.11374882746642313,0.41967787284066327,0.0906108983312624
2115.466666665992,-0.23200919,-0.9043063,-0.30418167,-2.038923,0.23649742,1.9213398,0.52733696,0.039995644,0.039995108,-0.04195702951550473,-0.03149659644796632,-0.030365601979087664,0.14816160370234915,-0.3454368713394457,-0.01799610524535194,0.8945943995600405,0.114597987142347,0.4223902281725158,0.09030313816863275
2115.4833333326587,-0.23352447,-0.9050923,-0.3061681,-2.036848,0.23804067,1.9236274,0.5256481,0.039995696,0.03999516,-0.04098750229939441,-0.031928122906432765,-0.02943388495375565,0.14804661390418186,-0.34340209118584863,-0.01894072521742738,0.8932407967867233,0.11544342244121789,0.42508384799764626,0.08998565075828628
2115.4999999993256,-0.2350314,-0.90587413,-0.30814353,-2.034785,0.23957548,1.925903,0.5239686,0.039995752,0.03999522,-0.042507408703329475,-0.03292441542901425,-0.02764627311080403,0.14790428901846225,-0.3413277663367413,-0.019863068500476137,0.8918866349531813,0.11628502333577956,0.4277585120839414,0.08965868100424226
2115.5166666659925,-0.23652978,-0.9066515,-0.31010768,-2.0327327,0.24110155,1.9281651,0.52229846,0.039995797,0.039995264,-0.041666855891975274,-0.03387491140424137,-0.027165691028874228,0.14773326507229145,-0.33921377821884874,-0.02076155542353226,0.8905322405856698,0.11712250920417175,0.43041394282198325,0.08932236080411254
2115.5333333326594,-0.23801945,-0.90742445,-0.31206045,-2.0306926,0.24261874,1.9304142,0.52063817,0.03999585,0.03999532,-0.04391939312071713,-0.03450648496329256,-0.025157234920647475,0.14753582018704847,-0.33705991535862634,-0.02163615609232307,0.8891779393551185,0.1179559852326054,0.4330497110952173,0.0889771062259255
2115.5499999993262,-0.23950025,-0.90819293,-0.31400153,-2.028665,0.24412693,1.9326504,0.51898783,0.03999591,0.039995383,-0.044721322520402396,-0.03534650299942266,-0.023545079953124493,0.14731076237319365,-0.3348691220982024,-0.022488596014040158,0.8878240077329931,0.11878531757987612,0.4356656048228252,0.08862313690417624
2115.566666665993,-0.24097197,-0.90895665,-0.31593078,-2.0266497,0.24562591,1.9348723,0.5173475,0.03999597,0.039995447,-0.04525432574395971,-0.036373807348411,-0.02254464226902897,0.14705706676123773,-0.33264186585293765,-0.02331820507448064,0.886470926746468,0.11961021615739441,0.4382610225308831,0.08826079738040217
2115.58333333266,-0.24243446,-0.9097157,-0.3178479,-2.0246463,0.24711554,1.9370805,0.5157172,0.039996035,0.039995518,-0.044053547394806714,-0.03680598739006502,-0.021574809379232285,0.14677729092118047,-0.33037973978500856,-0.024124526934174752,0.885118673583106,0.12043054182758271,0.4408364384710517,0.08789000390122059
2115.599999999327,-0.24388754,-0.91047007,-0.31975272,-2.0226564,0.24859561,1.9392747,0.51409763,0.039996102,0.03999559,-0.04746535016391107,-0.03785147898036634,-0.019225426282964975,0.14646886783176602,-0.32807825034037974,-0.02490464760557943,0.8837678363587632,0.12124643014942166,0.4433908691815255,0.08751143765373157
2115.6166666659938,-0.2453311,-0.9112195,-0.3216451,-2.020679,0.25006595,1.9414544,0.5124885,0.039996162,0.03999565,-0.04579382129019649,-0.03812715336798389,-0.01868865582788093,0.14613241698978158,-0.32574386739863215,-0.02566321533447706,0.8824185255529122,0.1220575833161518,0.4459245693965475,0.08712502811792146
2115.6333333326606,-0.246765,-0.91196394,-0.32352477,-2.018715,0.25152647,1.9436195,0.5108902,0.03999622,0.039995715,-0.04758067359711404,-0.03913240120225758,-0.016808832395964757,0.14576778800914597,-0.32337351522418517,-0.0263964211787008,0.8810711536259507,0.12286398673386241,0.4484370159629851,0.08673122693880995
2115.6499999993275,-0.248189,-0.9127032,-0.32539156,-2.0167644,0.25297692,1.9457695,0.509303,0.039996292,0.03999579,-0.048500363909020905,-0.03977701973061354,-0.015100691367941899,0.14537441220945765,-0.3209691468799294,-0.027106009177610746,0.8797260958197323,0.12366553971149855,0.45092782410911714,0.08633034267192687
2115.6666666659944,-0.24960303,-0.91343737,-0.32724518,-2.0148273,0.25441727,1.9479046,0.5077269,0.039996356,0.039995857,-0.047853630174854445,-0.040461644744194114,-0.01413660200160205,0.14495338588210735,-0.31853406473039136,-0.027792554870470283,0.8783834902995238,0.12446208127566033,0.4533971305213471,0.08592250187678417
2115.6833333326613,-0.25100684,-0.9141664,-0.32908544,-2.0129044,0.2558474,1.9500242,0.506162,0.039996415,0.03999592,-0.04973945581929762,-0.041392261039019385,-0.012185894885963222,0.14450368299302277,-0.3160649210695073,-0.028454282222730214,0.8770438058700335,0.12525338847649095,0.4558443915856976,0.08550813949577826
2115.699999999328,-0.2524004,-0.91489017,-0.33091223,-2.0109954,0.25726685,1.9521284,0.5046087,0.039996482,0.039995987,-0.049102664974842725,-0.04145483075482792,-0.011355753929387369,0.1440264135346457,-0.31356538505894155,-0.029091837513495956,0.8757071987927769,0.12603958693238926,0.45826965353998483,0.08508730312310307
2115.716666665995,-0.25378346,-0.9156086,-0.33272532,-2.0091014,0.2586757,1.954217,0.50306714,0.039996546,0.039996054,-0.051295121912842134,-0.042425239161358874,-0.008916780125867163,0.14352045912847955,-0.3110340921833109,-0.02970532957168124,0.8743741417469859,0.12682052377719744,0.4606723441841098,0.08466053565278217
2115.733333332662,-0.25515592,-0.9163217,-0.33452445,-2.0072217,0.26007378,1.956289,0.5015375,0.03999661,0.03999612,-0.05037426993217409,-0.04323521863435209,-0.00838002868617238,0.14298618618634942,-0.3084744280474119,-0.030296082478656658,0.8730448597794356,0.12759599586470247,0.46305245256058175,0.08422802876495801
2115.749999999329,-0.2565175,-0.9170293,-0.33630952,-2.005356,0.2614609,1.9583449,0.50001997,0.039996684,0.0399962,-0.049902180071370594,-0.043469254072281416,-0.007007769291655919,0.1424249048120564,-0.3058857242162717,-0.030863292735869075,0.8717194996615221,0.12836593482607755,0.4654100892555731,0.08378991290849058
2115.7666666659957,-0.2578683,-0.9177311,-0.3380802,-2.0035057,0.26283684,1.9603846,0.49851435,0.039996754,0.039996274,-0.05227566663066341,-0.04397491819425614,-0.004372673318231435,0.14183416285964118,-0.303264751071584,-0.03140523791287368,0.8703986066112761,0.12913020818265972,0.46774461610554036,0.08334643992476687
2115.7833333326626,-0.25920802,-0.91842705,-0.33983642,-2.0016706,0.2642017,1.9624074,0.49702108,0.03999682,0.039996345,-0.05261058234022897,-0.04472504130638155,-0.0031354428631447107,0.1412158253959754,-0.300617911526778,-0.03192230881791566,0.8690824826667839,0.1298887567507578,0.4700557883400414,0.08289816065211458
2115.7999999993294,-0.26053652,-0.9191175,-0.34157798,-1.999851,0.26555514,1.9644133,0.4955401,0.039996892,0.03999642,-0.05246231111573074,-0.04527357099455287,-0.002198669796626973,0.14057069573981984,-0.297946038515588,-0.03241722969397171,0.8677713148682222,0.13064137197740022,0.4723437026430063,0.08244515506222705
2115.8166666659963,-0.26185364,-0.91980207,-0.34330475,-1.9980463,0.26689708,1.9664022,0.49407178,0.03999696,0.039996494,-0.05186357800504027,-0.04545533309612271,-0.0008367464373382205,0.13989893885422694,-0.2952465117087863,-0.032887825855992765,0.8664653002129958,0.13138806555113297,0.4746083495617325,0.08198764714164154
2115.833333332663,-0.2631594,-0.92048085,-0.3450165,-1.9962573,0.26822737,1.9683738,0.49261627,0.039997023,0.039996557,-0.05321532151376651,-0.04607376771713634,0.0008098236001785608,0.13919717488772754,-0.2925200478146769,-0.03333247352737317,0.8651648281085959,0.13212879135672187,0.4768493638631826,0.08152598899561965
2115.84999999933,-0.2644535,-0.92115355,-0.3467131,-1.9944842,0.26954594,1.9703281,0.4911736,0.039997093,0.039996635,-0.05357080236292333,-0.04648202338710661,0.002745855914043638,0.1384691111866426,-0.28976802689289516,-0.033755169940589615,0.8638701934981091,0.1328633843879967,0.4790666030739089,0.08106046936536279
2115.866666665997,-0.26573595,-0.92182034,-0.34839436,-1.992727,0.27085254,1.9722646,0.48974404,0.039997157,0.039996702,-0.053787885221812104,-0.04691369576504956,0.0036556567700962717,0.13771275378641026,-0.28699081283271355,-0.03415294481272565,0.8625816808650905,0.13359181883706903,0.4812599158163295,0.08059133454794269
2115.883333332664,-0.26700652,-0.9224808,-0.35006005,-1.9909861,0.27214715,1.9741832,0.48832765,0.039997224,0.039996773,-0.054563328228418584,-0.04754948179936935,0.005934973401333643,0.13692847759049687,-0.28419002944662125,-0.03452763127300113,0.8612996903905397,0.13431390431009868,0.4834289741281122,0.08011894542228717
2115.8999999993307,-0.26826522,-0.9231353,-0.35171008,-1.9892614,0.2734296,1.9760839,0.4869246,0.039997295,0.039996848,-0.05402955915987384,-0.04759614101316201,0.006519285307393652,0.13611792848449805,-0.2813677385798149,-0.03487902331628854,0.8600243093930061,0.13502966215135107,0.4855739921178065,0.07964342892637971
2115.9166666659976,-0.2695118,-0.92378366,-0.35334432,-1.9875534,0.27469975,1.9779663,0.485535,0.03999737,0.039996926,-0.05500684337502726,-0.04818893121348866,0.008350304859772173,0.13527993136535574,-0.27852234122028097,-0.03520661746484807,0.8587559342513635,0.13573894184583252,0.4876946366926198,0.07916518424089612
2115.9333333326645,-0.2707461,-0.9244258,-0.35496262,-1.9858617,0.27595747,1.9798305,0.48415905,0.039997436,0.039997,-0.05435812369984916,-0.0483353188076352,0.009566223083978809,0.13441599334736423,-0.2756548497073262,-0.03551211301611837,0.8574947205284913,0.13644169989427588,0.489791014292774,0.07868436384556032
2115.9499999993313,-0.2719682,-0.9250614,-0.35656473,-1.9841869,0.27720276,1.9816759,0.4827967,0.039997507,0.039997075,-0.055803826628819664,-0.04893412988296042,0.011662644319687665,0.13352350327181522,-0.2727647437730294,-0.03579324414612722,0.8562411719494649,0.1371377632054271,0.4918626164826877,0.07820138022070752
2115.966666665998,-0.27317774,-0.92569065,-0.35815066,-1.9825294,0.27843532,1.9835026,0.48144826,0.039997578,0.039997153,-0.05605204455063628,-0.048959934648384884,0.01300902781288249,0.13260666115695752,-0.2698559835231068,-0.03605240241286797,0.8549954779764773,0.1378271738318893,0.49390945491453453,0.07771649206774879
2115.983333332665,-0.27437484,-0.92631334,-0.35972017,-1.9808887,0.27965522,1.9853103,0.48011371,0.039997645,0.03999722,-0.055406211948838546,-0.04935059610546855,0.01406366109888424,0.13166205048295976,-0.26692969878270617,-0.03628886385218365,0.8537578645877013,0.1385097752351993,0.4959315432439833,0.07722988563104248
2115.999999999332,-0.27555922,-0.92692965,-0.36127305,-1.9792657,0.28086215,1.9870992,0.4787933,0.039997708,0.03999729,-0.0563360774926025,-0.049810912562320286,0.015902747017038088,0.13069309818403527,-0.2639838730379153,-0.03650350238162867,0.8525286381702215,0.13918548656625368,0.49792871949912654,0.07674185120846866
2116.016666665999,-0.276731,-0.9275393,-0.3628092,-1.9776598,0.2820562,1.9888686,0.47748703,0.039997768,0.039997358,-0.05594349807322985,-0.04985691024058658,0.016942283675192016,0.12969877524357395,-0.261019890732027,-0.03669589323253119,0.8513080449072242,0.1398542783249936,0.49990091904916584,0.07625263696577371
2116.0333333326657,-0.27789,-0.9281424,-0.36432847,-1.9760714,0.28323713,1.9906186,0.47619513,0.039997827,0.039997417,-0.05596881184910529,-0.05026590938703723,0.018207603192355037,0.12867712909435247,-0.25804042048567066,-0.036865291642368514,0.8500963100917488,0.1405160400487834,0.5018481401077005,0.07576245988511586
2116.0499999993326,-0.27903578,-0.92873883,-0.36583078,-1.9745009,0.28440493,1.9923491,0.4749176,0.03999789,0.03999749,-0.05703177159772643,-0.05056311286936177,0.02052214660128726,0.127631829170488,-0.2550424908528087,-0.03701297345986845,0.8488938019662234,0.14117060565068423,0.503770119138498,0.07527177523303535
2116.0666666659995,-0.28016865,-0.9293285,-0.36731595,-1.9729481,0.28555945,1.99406,0.47365466,0.039997958,0.039997563,-0.05631211839030037,-0.05048944579082448,0.0210987921180239,0.12656366794173385,-0.25203050943915917,-0.03713996101643227,0.8477006613638131,0.14181807967002302,0.5056669619122198,0.07478064343482521
2116.0833333326664,-0.28128842,-0.92991143,-0.36878398,-1.9714131,0.28670058,1.9957511,0.4724064,0.03999801,0.03999762,-0.05662307810747613,-0.050577508254046055,0.022487211426747145,0.12546881849530472,-0.24900244742190966,-0.037244707333417816,0.8465171418247415,0.14245838022733306,0.5075385958569117,0.0742893815795339
2116.0999999993332,-0.28239492,-0.93048763,-0.37023485,-1.9698964,0.2878283,1.9974222,0.4711728,0.03999807,0.039997682,-0.057191355546981626,-0.05074821051896938,0.023967608694719367,0.12435009511634187,-0.24596134023496075,-0.03732890464757612,0.8453435431963555,0.14309141333487957,0.5093848687179185,0.0737983531475256
2116.116666666,-0.28348807,-0.9310567,-0.37166813,-1.9683977,0.2889425,1.9990734,0.46995395,0.039998133,0.03999775,-0.05673052282060276,-0.05109575609708594,0.025843455781782154,0.12320807183018306,-0.24290658085765388,-0.037393282034462925,0.8441801086259627,0.1437170122419174,0.5112057885058735,0.07330761482003383
2116.133333332667,-0.2845679,-0.9316189,-0.37308383,-1.9669179,0.29004312,2.0007043,0.46875006,0.03999819,0.039997812,-0.057853392188089714,-0.05131264672004754,0.027009065197369786,0.12204355069794859,-0.23983899135175835,-0.037436214713919,0.8430271523647163,0.14433522197644133,0.5130011248948757,0.07281764847508432
2116.149999999334,-0.28563422,-0.9321744,-0.37448192,-1.9654564,0.29112998,2.0023146,0.4675612,0.039998252,0.03999788,-0.05706487778351921,-0.05137150309012517,0.02771588223307031,0.12085605996065336,-0.23676145997732262,-0.03746019385678281,0.8418848428739157,0.1449459192126902,0.514770984143973,0.07232859549442351
2116.1666666660008,-0.28668708,-0.93272287,-0.37586224,-1.964013,0.29220295,2.0039046,0.4663875,0.039998304,0.039997935,-0.056311252953777924,-0.05113357499300086,0.028842131805872917,0.11964655212665488,-0.23367302425962083,-0.0374644301185305,0.840753253629365,0.1455491708081005,0.5165155826447628,0.07184050580175616
2116.1833333326676,-0.28772622,-0.9332644,-0.3772247,-1.9625877,0.2932621,2.0054743,0.46522892,0.039998345,0.039997984,-0.05601280402220965,-0.05134493356434566,0.030102960980737947,0.11841401298062988,-0.2305717675894784,-0.037448388933952574,0.8396325579933756,0.14614477226573996,0.5182350175594166,0.07135362409917952
2116.1999999993345,-0.2887517,-0.9337986,-0.37856928,-1.9611815,0.29430738,2.007023,0.46408564,0.039998394,0.039998036,-0.05822069691752141,-0.051496241440074364,0.03247792152816231,0.11715885841646306,-0.22745848824382828,-0.03741094284555598,0.8385233396489769,0.14673277539129795,0.51992860152588,0.07086854595119187
2116.2166666660014,-0.28976345,-0.9343257,-0.3798958,-1.9597942,0.2953387,2.0085511,0.4629576,0.039998453,0.039998103,-0.057244420123714335,-0.05142572528116229,0.03313126831423485,0.11588423990741509,-0.22433883727147313,-0.03735698464783513,0.837425645232087,0.1473130780481538,0.5215966436679875,0.0703852758600231
2116.2333333326683,-0.29076132,-0.93484557,-0.38120422,-1.9584262,0.29635596,2.0100586,0.4618451,0.039998505,0.03999816,-0.05791370268228846,-0.05143116659366287,0.03496052261077187,0.11458898922151782,-0.22121320336098815,-0.037284515080492193,0.836339713912689,0.14788574521119774,0.523239041251893,0.06990418446394896
2116.249999999335,-0.29174536,-0.93535835,-0.3824944,-1.9570773,0.29735905,2.0115442,0.46074808,0.039998565,0.039998222,-0.05765888492859084,-0.05197930486923186,0.03534058055348899,0.11327235872531874,-0.21807964028397533,-0.03719462308651176,0.8352659282254709,0.14845051300927198,0.5248555717908391,0.06942552191404784
2116.266666666002,-0.29271552,-0.935864,-0.38376635,-1.9557476,0.29834795,2.0130093,0.45966652,0.03999862,0.039998285,-0.05713768116923923,-0.0511493540718444,0.03667766049855192,0.11193981877878775,-0.21494371157514575,-0.03708892614872546,0.8342041806882635,0.14900754203934782,0.526446704201729,0.06894929276469929
2116.283333332669,-0.2936716,-0.9363623,-0.3850199,-1.9544368,0.2993226,2.0144536,0.45860058,0.039998673,0.03999834,-0.05624482604780212,-0.05144026348600228,0.03767537633769802,0.11058530232344985,-0.21179982314177564,-0.03696431696517614,0.8331546231600141,0.1495566910190292,0.5280125512060666,0.06847565879489355
2116.299999999336,-0.29461375,-0.93685335,-0.3862551,-1.9531449,0.30028298,2.0158768,0.45755023,0.039998733,0.03999841,-0.05662282141121189,-0.051211656113470116,0.038641397887151374,0.10921318353134465,-0.20864998901632315,-0.03682232457957909,0.8321175329973133,0.15009796867279693,0.529552967837069,0.06800489198372124
2116.3166666660027,-0.29554176,-0.9373373,-0.38747185,-1.9518726,0.30122906,2.0172787,0.45651555,0.039998792,0.03999847,-0.057148562872377795,-0.051398874296126884,0.03993136763367211,0.10782058671951257,-0.2054946912955213,-0.03666248017970898,0.8310931358690968,0.15063129400788824,0.5310679053055557,0.06753734323431386
2116.3333333326696,-0.29645562,-0.93781376,-0.38867018,-1.9506193,0.30216068,2.0186594,0.4554966,0.039998844,0.03999853,-0.056448254859198244,-0.05098411518157375,0.04096171331924303,0.10641127569262968,-0.20233608535143677,-0.036486831092448116,0.8300815641839658,0.15115668743071126,0.5325574685754209,0.06707305950539631
2116.3499999993364,-0.29735526,-0.9382829,-0.38984978,-1.9493855,0.30307794,2.020018,0.45449346,0.039998904,0.039998595,-0.05701819322210255,-0.05172746704223963,0.042344362436941285,0.1049852244564086,-0.1991747411243619,-0.03629543905615726,0.8290831931377455,0.1516739305693467,0.5340214014744109,0.06661246437019644
2116.3666666660033,-0.29824075,-0.93874484,-0.3910108,-1.9481713,0.3039807,2.0213552,0.45350617,0.039998956,0.039998654,-0.056783697226681085,-0.05116264367166501,0.04292853884898529,0.1035436764231901,-0.1960132568761742,-0.03608799248993378,0.8280980813386202,0.15218313936747455,0.5354598830959653,0.06615567526985924
2116.38333333267,-0.299112,-0.9391993,-0.39215317,-1.9469765,0.30486897,2.0226707,0.4525347,0.03999901,0.03999871,-0.05659819120134024,-0.050824524392489856,0.04425347863636908,0.10208679272284585,-0.1928515293836699,-0.035866214349963565,0.8271263712513902,0.15268429805659792,0.5368729921674008,0.06570282633717743
2116.399999999337,-0.29996893,-0.9396463,-0.3932769,-1.9458011,0.30574277,2.0239646,0.45157912,0.03999906,0.039998766,-0.05611563785006268,-0.050781907132968485,0.045053078968315674,0.10061537417167639,-0.1896911627267063,-0.035630413837408406,0.8261681992938027,0.1531773538765599,0.5382608120307025,0.06525414137860659
2116.416666666004,-0.3008116,-0.94008595,-0.39438182,-1.9446455,0.30660194,2.0252376,0.45063946,0.039999105,0.03999882,-0.056002366530139014,-0.05052930203472972,0.046084837898907605,0.09912924054067632,-0.18652952943882906,-0.035380086453359154,0.8252236157555815,0.15366234393736922,0.5396235537574585,0.06480963111397368
2116.433333332671,-0.30164003,-0.9405182,-0.39546806,-1.9435093,0.30744663,2.026489,0.44971582,0.039999142,0.03999886,-0.055528452245523496,-0.05026466185236167,0.04651543132152547,0.09762829044244577,-0.18336970371211447,-0.035115191181089994,0.8242927367343811,0.15413932037242645,0.5409612836564457,0.06436958650512917
2116.4499999993377,-0.30245414,-0.94094324,-0.3965354,-1.9423928,0.30827665,2.027719,0.4488081,0.03999919,0.039998908,-0.055455276539229104,-0.050529668164456254,0.04752578197896318,0.09611151491247057,-0.18021067097086352,-0.034836448960039436,0.8233757591086025,0.15460807889371248,0.5422740381318657,0.06393409748552166
2116.4666666660046,-0.30325398,-0.94136065,-0.39758408,-1.9412962,0.30909207,2.028927,0.44791642,0.039999243,0.039998963,-0.056461214315506325,-0.04986535028135286,0.04899447476215402,0.09458291930030348,-0.17705291661943312,-0.03454377444028272,0.8224730176358834,0.15506878603815671,0.5435614978625954,0.06350358178046034
2116.4833333326715,-0.30403933,-0.94177043,-0.39861396,-1.9402192,0.30989295,2.0301137,0.4470407,0.0399993,0.039999023,-0.05517226450462154,-0.04984844732331961,0.049703775016884943,0.09304271864347306,-0.17390197302108568,-0.03424045745166866,0.821584457766202,0.15552130209931167,0.544824065318031,0.06307805641175322
2116.4999999993383,-0.30481032,-0.9421728,-0.39962497,-1.9391618,0.31067917,2.0312784,0.44618097,0.039999343,0.039999075,-0.055219792179617144,-0.049925684418838934,0.05014526758808646,0.09149198138229826,-0.1707539587761042,-0.03392507402761498,0.8207102898842809,0.15596556733188385,0.5460616955165709,0.0626576936574514
2116.516666666005,-0.3055669,-0.9425678,-0.40061718,-1.9381238,0.3114507,2.0324214,0.44533724,0.039999384,0.039999116,-0.05444182288383281,-0.04948321805908762,0.05058011263016082,0.08992942166013708,-0.167613673512396,-0.0335972063914008,0.8198505036492753,0.1564016238881609,0.5472746552573223,0.06224255316224471
2116.533333332672,-0.30630916,-0.94295543,-0.40159053,-1.9371058,0.31220764,2.0335426,0.44450957,0.03999943,0.039999165,-0.054956931444039014,-0.049389092156615355,0.05180397763610012,0.08835765673102708,-0.16447797256620073,-0.033257550291455294,0.8190052956346247,0.15682949804605434,0.5484628727308906,0.06183293217083315
2116.549999999339,-0.30703703,-0.94333553,-0.40254518,-1.9361073,0.31295,2.0346422,0.44369784,0.039999466,0.03999921,-0.05431983991290856,-0.04879388354341874,0.0522166733166296,0.08677877346685708,-0.16135080581614186,-0.03290852227068555,0.8181747098784133,0.1572491931845903,0.549626532756641,0.061428900755934664
2116.566666666006,-0.3077507,-0.9437082,-0.40348107,-1.9351283,0.31367776,2.0357199,0.44290206,0.039999507,0.03999925,-0.05412711490575539,-0.04872225324332735,0.05272357458039334,0.08518832350614709,-0.15823054270938433,-0.032548088953035646,0.8173588826747427,0.15766071223454725,0.5507656708597934,0.06103058686227212
2116.5833333326727,-0.3084499,-0.9440734,-0.40439808,-1.9341688,0.3143908,2.0367758,0.44212222,0.039999552,0.039999295,-0.05352042880280017,-0.04870107103074339,0.053593677582641774,0.08359143608736883,-0.15512013994181878,-0.03217824539400684,0.8165578825410854,0.15806391875611142,0.5518804661137051,0.06063805050956021
2116.5999999993396,-0.30913484,-0.94443125,-0.40529633,-1.9332291,0.31508952,2.0378108,0.4413584,0.03999959,0.039999336,-0.053244641967431505,-0.04806600395501626,0.054096631474076506,0.08198821460592359,-0.15201888818379045,-0.03179767239946599,0.8157715878431004,0.15845903843221973,0.5529712540613959,0.06025148785590358
2116.6166666660065,-0.30980554,-0.9447817,-0.40617597,-1.9323088,0.3157736,2.0388248,0.44061047,0.03999963,0.039999377,-0.05264309260510913,-0.04735850904136196,0.05424048614874888,0.08037738301202907,-0.1489254384717866,-0.03140831183615692,0.8150000484838225,0.15884611641578383,0.5540381906408383,0.05987082413343401
2116.6333333326734,-0.31046206,-0.94512486,-0.40703696,-1.9314083,0.3164431,2.0398169,0.43987837,0.039999668,0.039999425,-0.05357486845518622,-0.047679697315738956,0.05524331804127591,0.07875958835610297,-0.14583989042670426,-0.031009701298835537,0.814243668937461,0.15922499661712056,0.555080915638461,0.05949642965345128
2116.6499999993403,-0.3111043,-0.9454606,-0.40787935,-1.930527,0.3170982,2.0407867,0.43916214,0.0399997,0.03999946,-0.05250853194409544,-0.04756719493073103,0.055423920908137525,0.07713763029304255,-0.14277021971091713,-0.030603687268999855,0.8135024368050673,0.15959562508493833,0.5560996698791458,0.059128495044863304
2116.666666666007,-0.3117324,-0.9457888,-0.40870324,-1.9296651,0.31773883,2.0417354,0.43846163,0.03999974,0.039999504,-0.05231793606381707,-0.046530643959075135,0.05621621920310904,0.07551490169481292,-0.13971222282722673,-0.030190957311004445,0.8127763033996146,0.15995819821571888,0.557094703050433,0.05876688939180228
2116.683333332674,-0.31234634,-0.94610965,-0.40950868,-1.9288224,0.3183651,2.0426629,0.43777683,0.039999783,0.039999552,-0.05146279611896176,-0.04642308811164675,0.05615944609589363,0.07388793533987771,-0.13666837903172777,-0.02977075970195562,0.8120652176611274,0.16031266240895123,0.5580663058940811,0.058411734797669736
