rsonawane2002/My_IMU/logs_2/traj_442/imu_442.csv
time,j1,j2,j3,j4,j5,j6,j7,gripper1,gripper2,imu_ax,imu_ay,imu_az,imu_gx,imu_gy,imu_gz
2111.583333332609,0.00016700293,-0.785875,4.0107683e-05,-2.3551247,9.29385e-05,1.570997,0.786,0.04,0.04,-9.492296,-0.021856149658560753,0.06657381,6.156094e-08,-0.001164127141237259,1.093675e-06
2111.599999999276,0.00016700076,-0.78576016,4.010741e-05,-2.3552213,9.297981e-05,1.5709941,0.786,0.04,0.04,-9.834531,0.0006298502557910979,0.009063977,-1.1234894e-08,-0.0022397777065634727,1.6197303e-06
2111.616666665943,0.00016696333,-0.7856543,4.0056922e-05,-2.35531,9.305802e-05,1.5709913,0.786,0.04,0.04,-9.83232,0.0005380556103773415,0.0076615545,1.805225e-06,-0.0032359007745981216,6.374731e-06
2111.6333333326097,0.00016683026,-0.785557,3.9873983e-05,-2.355391,9.32478e-05,1.5709884,0.786,0.04,0.039999995,-9.831094,0.00038322570617310703,0.0062290765,6.597718e-06,-0.004168546758592129,1.8939521e-05
2111.6499999992766,0.0001665137,-0.7854675,3.944117e-05,-2.3554645,9.3620125e-05,1.5709856,0.786,0.04,0.04,-9.829688,0.0001460312632843852,0.005024049,1.4956058e-05,-0.005045498721301556,4.0050534e-05
2111.6666666659435,0.00016590049,-0.7853854,3.8608196e-05,-2.3555312,9.430412e-05,1.570986,0.786,0.04,0.04,-9.828428,-0.00013385823694989085,0.0039464487,2.7979188e-05,-0.0058762733824551105,7.483785e-05
2111.6833333326103,0.00016485505,-0.7853099,3.7196143e-05,-2.3555913,9.544052e-05,1.5709866,0.7859981,0.04,0.04,-9.827106,-0.00045038689859211445,0.0029781633,4.593854e-05,-0.0066581773571670055,0.000124955
2111.699999999277,0.0001632217,-0.78524095,3.4999928e-05,-2.3556485,9.72e-05,1.5709875,0.7859962,0.04,0.039999995,-9.826566,-0.0008363440865650773,0.0020474112,7.7891294e-05,-0.0074165211990475655,0.00019338203
2111.716666665944,0.00016082714,-0.7851779,3.179182e-05,-2.3556986,9.973027e-05,1.5709884,0.7859939,0.04,0.04,-9.826332,-0.0012548695085570216,0.0013061557,0.000114829105,-0.008173096925020218,0.00027895058
2111.733333332611,0.00015748147,-0.7851206,2.7322903e-05,-2.3557417,0.000103253,1.5709931,0.78599006,0.04,0.04,-9.825734,-0.001671408535912633,0.0006281906,0.00015905256,-0.008919683285057545,0.00038831195
2111.749999999278,0.00015298119,-0.78506863,2.1326587e-05,-2.35578,0.00010796742,1.5709978,0.78598434,0.04,0.04,-9.8249035,-0.0020842580124735832,5.7104044e-05,0.00021484996,-0.009643511846661568,0.0005196405
2111.7666666659447,0.00014711033,-0.7850216,1.3519836e-05,-2.3558142,0.00011409456,1.5710063,0.78597754,0.04,0.04,-9.825039,-0.0025795649271458387,-0.00041786535,0.00028384128,-0.010380903258919716,0.00067518
2111.7833333326116,0.00013964184,-0.7849795,3.6057243e-06,-2.3558419,0.000121851,1.5710174,0.7859692,0.03999999,0.03999999,-9.825133,-0.003039498347789049,-0.0008474996,0.0003614807,-0.011127484031021595,0.00085650914
2111.7999999992785,0.00013033923,-0.784942,-8.725184e-06,-2.3558636,0.00013149175,1.5710298,0.7859586,0.039999988,0.039999988,-9.824752,-0.0034238346852362156,-0.0010696084,0.00044904323,-0.011879623867571354,0.0010636864
2111.8166666659454,0.00011895776,-0.78490895,-2.379283e-05,-2.35588,0.00014326653,1.571046,0.7859453,0.039999984,0.03999998,-9.825022,-0.003918325994163752,-0.0012429196,0.0005490923,-0.012653484009206295,0.0012993715
2111.8333333326123,0.00010524583,-0.78488016,-4.192606e-05,-2.3558915,0.00015742965,1.571066,0.78593004,0.03999998,0.039999977,-9.825252,-0.004338473081588745,-0.0013065338,0.00066293357,-0.013447768054902554,0.0015623008
2111.849999999279,8.8945635e-05,-0.7848556,-6.346177e-05,-2.3558958,0.00017424463,1.5710899,0.7859116,0.039999977,0.03999997,-9.825553,-0.004712952300906181,-0.0012537218,0.0007857155,-0.014267230406403542,0.0018548496
2111.866666665946,6.979473e-05,-0.78483504,-8.8743014e-05,-2.3558936,0.0001939773,1.5711178,0.7858901,0.03999997,0.03999996,-9.825481,-0.00495501421391964,-0.001037611,0.0009223649,-0.015109541825950146,0.0021757935
2111.883333332613,4.7526504e-05,-0.7848186,-0.00011811806,-2.3558862,0.00021689928,1.5711516,0.785865,0.03999997,0.03999996,-9.826047,-0.0053628310561180115,-0.000731649,0.0010708538,-0.015981895849108696,0.0025264237
2111.8999999992798,2.1871092e-05,-0.7848062,-0.0001519395,-2.3558724,0.00024328496,1.5711907,0.78583604,0.039999966,0.039999954,-9.826552,-0.005601877346634865,-0.00030160922,0.0012328799,-0.016884945333003998,0.0029079171
2111.9166666659467,-7.443551e-06,-0.7847979,-0.00019056271,-2.355852,0.00027341006,1.5712348,0.78580296,0.03999997,0.039999958,-9.827009,-0.005796571262180805,0.00030682847,0.0014078883,-0.0178225040435791,0.0033187806
2111.9333333326135,-4.0691437e-05,-0.7847934,-0.00023434553,-2.355825,0.00030755348,1.571285,0.7857657,0.039999973,0.03999996,-9.827263,-0.005770335905253887,0.0010934051,0.0015957784,-0.018798142671585083,0.0037600172
2111.9499999992804,-7.814741e-05,-0.7847927,-0.0002836474,-2.3557904,0.00034599478,1.5713418,0.7857237,0.039999973,0.039999958,-9.828079,-0.005959662143141031,0.0019626138,0.0017958452,-0.019812151789665222,0.004232578
2111.9666666659473,-0.00012008698,-0.78479606,-0.0003388279,-2.3557482,0.00038901297,1.5714054,0.78567666,0.039999977,0.03999996,-9.828631,-0.005934411659836769,0.003019176,0.0020092346,-0.02086501568555832,0.0047347182
2111.983333332614,-0.00016678555,-0.78480333,-0.00040024688,-2.3556979,0.00043688886,1.5714762,0.7856244,0.039999977,0.039999958,-9.8292055,-0.0058126566000282764,0.004251652,0.0022353856,-0.02195693552494049,0.0052680834
2111.999999999281,-0.00021851785,-0.7848144,-0.00046826343,-2.35564,0.00048990047,1.5715548,0.7855665,0.039999977,0.039999958,-9.829448,-0.005424825940281153,0.0056669684,0.0024745031,-0.023086989298462868,0.0058308314
2112.016666665948,-0.00027555792,-0.78482944,-0.00054323545,-2.3555732,0.0005483268,1.5716413,0.7855027,0.03999998,0.03999996,-9.830442,-0.005296450108289719,0.007260145,0.0027262066,-0.024262214079499245,0.006423647
2112.033333332615,-0.00033817795,-0.78484845,-0.0006255187,-2.355498,0.00061244477,1.571736,0.78543264,0.039999984,0.03999996,-9.831029,-0.0048805782571434975,0.009044641,0.0029908996,-0.025478066876530647,0.007047123
2112.0499999992817,-0.00040664856,-0.7848716,-0.00071546703,-2.3554142,0.00068252825,1.5718392,0.785356,0.039999988,0.039999966,-9.83141,-0.004149823449552059,0.011027259,0.0032683774,-0.02674008347094059,0.007699287
2112.0666666659486,-0.00048123862,-0.7848988,-0.0008134314,-2.3553212,0.0007588509,1.5719519,0.7852726,0.039999984,0.039999958,-9.83242,-0.0037193428725004196,0.013228884,0.003558684,-0.028047412633895874,0.00838151
2112.0833333326154,-0.0005622139,-0.7849304,-0.00091975945,-2.3552186,0.00084168336,1.5720743,0.785182,0.039999988,0.039999958,-9.833109,-0.0029546432197093964,0.015641484,0.003861279,-0.02939852885901928,0.009092525
2112.0999999992823,-0.00064983784,-0.7849662,-0.0010347959,-2.3551064,0.00093129213,1.5722069,0.7850841,0.039999988,0.039999958,-9.833755,-0.0020703552290797234,0.018278074,0.0041769794,-0.030791370198130608,0.009831073
2112.116666665949,-0.0007443711,-0.78500617,-0.0011588808,-2.3549836,0.0010279432,1.5723499,0.7849785,0.039999995,0.03999996,-9.834146,-0.0007889624685049057,0.021121789,0.0045040804,-0.03223077580332756,0.010598433
2112.133333332616,-0.0008460711,-0.7850505,-0.0012923502,-2.354851,0.0011318963,1.5725038,0.78486484,0.03999999,0.039999958,-9.835105,0.000117473304271698,0.024230737,0.004843352,-0.03371056541800499,0.011392388
2112.149999999283,-0.0009551915,-0.7850994,-0.0014355368,-2.3547072,0.0012434109,1.5726689,0.78474295,0.04,0.03999996,-9.835915,0.0014293845742940903,0.027580963,0.0051952437,-0.03523926064372063,0.012214105
2112.16666666595,-0.0010719824,-0.7851529,-0.0015887674,-2.3545525,0.0013627403,1.5728455,0.7846125,0.039999995,0.039999954,-9.83652,0.0028871092945337296,0.031184677,0.0055588204,-0.03680861368775368,0.013061644
2112.1833333326167,-0.0011966905,-0.78521097,-0.0017523639,-2.3543866,0.0014901351,1.5730339,0.78447324,0.04,0.039999958,-9.836822,0.00478602759540081,0.035052568,0.005933974,-0.0384225957095623,0.013935239
2112.1999999992836,-0.0013295581,-0.7852738,-0.0019266441,-2.3542092,0.0016258423,1.5732347,0.7843249,0.04,0.039999958,-9.837935,0.0062668099999427795,0.039204333,0.0063205436,-0.04008176922798157,0.014833912
2112.2166666659505,-0.0014708239,-0.78534126,-0.0021119197,-2.35402,0.0017701028,1.5734484,0.7841672,0.04,0.039999958,-9.838596,0.008203374221920967,0.043624256,0.00671864,-0.04178380221128464,0.01575698
2112.2333333326173,-0.0016207222,-0.7854137,-0.0023084974,-2.3538196,0.0019231564,1.5736746,0.78399986,0.04,0.039999958,-9.839327,0.010308824479579926,0.04831239,0.007127864,-0.043529532849788666,0.0167044
2112.2499999992842,-0.0017794836,-0.785491,-0.0025166778,-2.3536053,0.0020852361,1.5739145,0.7838227,0.04,0.039999954,-9.83963,0.012909645214676857,0.053294897,0.0075479606,-0.04532307758927345,0.017675068
2112.266666665951,-0.0019473326,-0.7855733,-0.0027367563,-2.3533788,0.0022565713,1.5741683,0.7836353,0.04,0.039999943,-9.840559,0.015035364776849747,0.058576807,0.007978833,-0.04715113341808319,0.01866827
2112.283333332618,-0.002124491,-0.78566086,-0.0029690228,-2.3531406,0.0024373867,1.5744362,0.7834376,0.039999995,0.039999936,-9.841247,0.01767563819885254,0.064186774,0.008421048,-0.04902251809835434,0.019683287
2112.299999999285,-0.0023111764,-0.7857536,-0.00321376,-2.3528883,0.0026279027,1.5747179,0.78322935,0.04,0.039999943,-9.841571,0.020840032026171684,0.07007706,0.008873304,-0.05094054713845253,0.020719234
2112.3166666659517,-0.0025076002,-0.7858516,-0.0034712453,-2.3526218,0.0028283345,1.5750144,0.7830102,0.039999995,0.039999932,-9.842569,0.023502828553318977,0.076343365,0.009335448,-0.05289781093597412,0.021775385
2112.3333333326186,-0.0027139685,-0.7859548,-0.0037417503,-2.3523417,0.0030388932,1.575326,0.78277993,0.04,0.039999932,-9.843077,0.026716144755482674,0.08288633,0.009807994,-0.05489226058125496,0.022851894
2112.3499999992855,-0.0029304856,-0.78606343,-0.0040255394,-2.3520477,0.0032597843,1.5756532,0.78253853,0.04,0.03999993,-9.843678,0.03011215850710869,0.08977077,0.01029055,-0.05692625418305397,0.023946296
2112.3666666659524,-0.0031573488,-0.7861779,-0.0043228716,-2.3517396,0.003491208,1.5759959,0.7822856,0.04,0.03999993,-9.843743,0.034091517329216,0.09697432,0.01078229,-0.05899877846240997,0.02505915
2112.3833333326193,-0.0033947506,-0.78629804,-0.0046340004,-2.351417,0.0037333602,1.5763544,0.7820208,0.04,0.039999925,-9.844832,0.037520840764045715,0.10460134,0.011283533,-0.06111043319106102,0.026188763
2112.399999999286,-0.003642879,-0.78642374,-0.004959172,-2.3510797,0.003986434,1.5767289,0.7817441,0.04,0.039999925,-9.84532,0.04153519123792648,0.11255081,0.011794337,-0.06325938552618027,0.027334992
2112.416666665953,-0.0039019168,-0.7865552,-0.0052986266,-2.3507273,0.0042506144,1.5771204,0.7814553,0.04,0.03999992,-9.84587,0.04575829207897186,0.120839685,0.012314206,-0.06544733792543411,0.028497176
2112.43333333262,-0.0041720443,-0.7866924,-0.0056525962,-2.3503597,0.004526082,1.5775282,0.7811541,0.04,0.039999917,-9.845755,0.05059642344713211,0.12946463,0.0128429225,-0.06766869127750397,0.029673833
2112.449999999287,-0.004453434,-0.7868357,-0.006021308,-2.3499763,0.0048130145,1.5779532,0.78084034,0.04,0.03999991,-9.846757,0.05485007166862488,0.13853289,0.01338048,-0.06992737203836441,0.030864423
2112.4666666659537,-0.0047462536,-0.7869851,-0.0064049843,-2.3495765,0.0051115826,1.5783952,0.7805139,0.04,0.039999906,-9.84714,0.05971827358007431,0.14795348,0.013926956,-0.0722193643450737,0.032068033
2112.4833333326205,-0.005050668,-0.78714055,-0.006803838,-2.3491607,0.0054219537,1.5788549,0.7801745,0.04,0.03999991,-9.847406,0.06480931490659714,0.15777998,0.014481314,-0.07454134523868561,0.0332838
2112.4999999992874,-0.0053668353,-0.7873021,-0.0072180773,-2.3487291,0.0057442873,1.5793324,0.7798222,0.04,0.0399999,-9.847191,0.07055451720952988,0.16793343,0.015044112,-0.07689665257930756,0.03451082
2112.5166666659543,-0.005694908,-0.78746974,-0.0076479027,-2.348282,0.0060787406,1.5798274,0.77945656,0.03999999,0.039999887,-9.848166,0.07567313313484192,0.1785552,0.015614256,-0.0792870745062828,0.03574831
2112.533333332621,-0.0060350364,-0.78764385,-0.00809351,-2.3478186,0.0064254645,1.580341,0.77907753,0.03999999,0.039999884,-9.848538,0.08144564926624298,0.18955761,0.01619209,-0.0817139744758606,0.036995772
2112.549999999288,-0.006387364,-0.78782433,-0.008555086,-2.3473377,0.0067846044,1.580873,0.7786848,0.039999988,0.039999876,-9.848203,0.08788751065731049,0.20091015,0.01677766,-0.08417149633169174,0.038251445
2112.566666665955,-0.0067520286,-0.78801113,-0.009032819,-2.3468394,0.0071563018,1.5814235,0.7782783,0.039999988,0.039999872,-9.84889,0.09367590397596359,0.21275578,0.017371066,-0.08665505051612854,0.03951488
2112.583333332622,-0.0071291653,-0.78820443,-0.009526878,-2.3463252,0.0075406954,1.581993,0.777858,0.03999999,0.039999872,-9.849026,0.10014133155345917,0.22497956,0.017971743,-0.08916767686605453,0.04078514
2112.5999999992887,-0.007518903,-0.7884044,-0.010037433,-2.3457937,0.007937916,1.5825813,0.7774236,0.03999999,0.03999987,-9.849268,0.10683789849281311,0.23762114,0.018579166,-0.09171301126480103,0.04206142
2112.6166666659556,-0.007921369,-0.788611,-0.01056465,-2.3452435,0.008348086,1.5831889,0.7769751,0.04,0.039999872,-9.848745,0.1142425388097763,0.2506703,0.019193659,-0.09428799152374268,0.043342747
2112.6333333326224,-0.008336676,-0.7888242,-0.011108682,-2.344677,0.008771328,1.5838156,0.7765122,0.04,0.03999987,-9.849199,0.12095039337873459,0.2641979,0.019814579,-0.096882663667202,0.04462821
2112.6499999992893,-0.008764943,-0.78904414,-0.011669677,-2.3440928,0.009207759,1.5844623,0.776035,0.04,0.039999865,-9.849374,0.12836796045303345,0.27815768,0.020442301,-0.09951266646385193,0.045916483
2112.666666665956,-0.009206282,-0.7892709,-0.012247787,-2.34349,0.009657494,1.5851283,0.7755433,0.039999995,0.039999858,-9.8493,0.13603119552135468,0.29251152,0.021075677,-0.10216689109802246,0.047208413
2112.683333332623,-0.009660794,-0.7895045,-0.012843143,-2.3428693,0.010120637,1.5858141,0.7750368,0.03999999,0.039999846,-9.848369,0.14440344274044037,0.3072915,0.021715252,-0.104842409491539,0.048501674
2112.69999999929,-0.010128581,-0.78974503,-0.013455875,-2.3422308,0.010597288,1.5865203,0.77451557,0.039999995,0.039999846,-9.848896,0.15205708146095276,0.32261172,0.02236082,-0.10754498094320297,0.0497949
2112.716666665957,-0.010609734,-0.78999245,-0.014086116,-2.3415737,0.011087548,1.5872462,0.77397937,0.04,0.039999846,-9.848682,0.16043591499328613,0.3383209,0.023012126,-0.11027193069458008,0.051087696
2112.7333333326237,-0.011104351,-0.7902466,-0.0147339795,-2.340898,0.011591502,1.5879929,0.7734283,0.04,0.039999843,-9.848322,0.16905316710472107,0.35450032,0.023669286,-0.11302153766155243,0.052378796
2112.7499999992906,-0.011612513,-0.7905078,-0.01539958,-2.3402047,0.012109247,1.5887597,0.7728621,0.04,0.03999984,-9.847272,0.17842361330986023,0.37106317,0.024331158,-0.11579303443431854,0.053668827
2112.7666666659575,-0.012134299,-0.7907762,-0.016083019,-2.3394918,0.012640856,1.5895473,0.77228075,0.04,0.039999835,-9.847608,0.18702808022499084,0.38820598,0.024998443,-0.11859091371297836,0.054955304
2112.7833333326244,-0.01266979,-0.7910515,-0.016784405,-2.3387606,0.013186417,1.5903552,0.77168417,0.04,0.03999983,-9.846911,0.1963805854320526,0.40576148,0.02567035,-0.12140226364135742,0.056237556
2112.7999999992912,-0.013219058,-0.79133403,-0.017503828,-2.3380105,0.013745993,1.5911839,0.77107227,0.04,0.039999824,-9.845702,0.2064824253320694,0.42373323,0.026347188,-0.12423921376466751,0.057515834
2112.816666665958,-0.013782171,-0.79162365,-0.018241374,-2.3372416,0.014319664,1.5920337,0.7704449,0.039999995,0.039999817,-9.845705,0.21581533551216125,0.4422743,0.027028238,-0.12709437310695648,0.058788024
2112.833333332625,-0.01435919,-0.79192054,-0.018997127,-2.3364537,0.014907485,1.5929044,0.76980215,0.039999995,0.039999813,-9.84496,0.22589413821697235,0.46122602,0.027713856,-0.12996844947338104,0.06005414
2112.849999999292,-0.014950174,-0.7922246,-0.019771175,-2.3356466,0.015509516,1.593796,0.76914376,0.039999995,0.03999981,-9.844056,0.23620715737342834,0.48067328,0.028403262,-0.13285915553569794,0.061312225
2112.8666666659587,-0.015555175,-0.79253584,-0.020563576,-2.3348203,0.016125813,1.5947089,0.7684698,0.03999999,0.0399998,-9.842442,0.24729138612747192,0.5005452,0.02909725,-0.13576968014240265,0.06256286
2112.8833333326256,-0.016174247,-0.7928544,-0.021374404,-2.333975,0.016756421,1.5956432,0.7677802,0.039999995,0.0399998,-9.842077,0.25756919384002686,0.5209818,0.029794388,-0.13869468867778778,0.06380265
2112.8999999992925,-0.01680743,-0.7931802,-0.02220371,-2.3331103,0.017401401,1.5965985,0.7670749,0.03999999,0.03999979,-9.84098,0.26862090826034546,0.54186845,0.030495496,-0.14163647592067719,0.065034136
2112.9166666659594,-0.01745476,-0.79351336,-0.023051547,-2.3322263,0.018060781,1.5975754,0.766354,0.039999984,0.03999978,-9.8397255,0.27989423274993896,0.5632273,0.031199627,-0.1445934921503067,0.06625392
2112.9333333326263,-0.018116292,-0.7938538,-0.023917964,-2.3313227,0.0187346,1.5985734,0.76561683,0.03999998,0.039999772,-9.837642,0.2919272780418396,0.5850304,0.031906135,-0.14756456017494202,0.06746199
2112.949999999293,-0.018792046,-0.79420173,-0.024803007,-2.3304,0.019422898,1.5995932,0.7648641,0.039999988,0.039999776,-9.83689,0.3031665086746216,0.6074185,0.032618046,-0.15054918825626373,0.068658404
2112.96666666596,-0.01948205,-0.7945568,-0.025706714,-2.3294573,0.02012569,1.6006342,0.7640956,0.039999988,0.03999977,-9.835364,0.3151504397392273,0.6302553,0.033331417,-0.15354718267917633,0.06984052
2112.983333332627,-0.020186318,-0.79491925,-0.026629113,-2.3284955,0.020843012,1.6016968,0.76331115,0.03999998,0.039999757,-9.8336115,0.3273715376853943,0.6535614,0.03404668,-0.15655623376369476,0.071008526
2112.999999999294,-0.020904884,-0.7952894,-0.027570227,-2.327514,0.021574877,1.6027809,0.7625108,0.039999977,0.03999975,-9.831089,0.34034261107444763,0.67732406,0.034764715,-0.1595785766839981,0.07216153
2113.0166666659607,-0.02163776,-0.79566664,-0.028530082,-2.326513,0.0223213,1.6038867,0.76169455,0.03999996,0.03999973,-9.829839,0.3524967432022095,0.7017051,0.035485107,-0.1626095473766327,0.0732988
2113.0333333326275,-0.022384956,-0.7960512,-0.029508688,-2.3254926,0.023082292,1.605014,0.7608623,0.039999947,0.039999712,-9.827862,0.36540645360946655,0.7264851,0.036206696,-0.16565407812595367,0.07441952
2113.0499999992944,-0.023146478,-0.7964432,-0.030506061,-2.3244522,0.023857865,1.6061629,0.7600141,0.039999936,0.039999694,-9.824846,0.3790687322616577,0.75171775,0.03693065,-0.16870760917663574,0.07552368
2113.0666666659613,-0.023922326,-0.7968427,-0.031522196,-2.3233929,0.02464801,1.6073333,0.75915,0.039999925,0.03999968,-9.823205,0.39189398288726807,0.7775658,0.037656117,-0.1717677265405655,0.076608896
2113.083333332628,-0.024712497,-0.7972495,-0.03255709,-2.3223135,0.025452737,1.6085254,0.75826997,0.039999917,0.039999668,-9.820806,0.4054747223854065,0.80386335,0.038382553,-0.17483997344970703,0.07767613
2113.099999999295,-0.025516994,-0.7976637,-0.033610746,-2.3212154,0.02627204,1.6097392,0.757374,0.0399999,0.039999645,-9.818103,0.419259250164032,0.8306323,0.03911027,-0.1779175102710724,0.07872204
2113.116666665962,-0.026335804,-0.79808545,-0.034683138,-2.3200972,0.027105905,1.6109746,0.756462,0.039999884,0.039999623,-9.814583,0.43379873037338257,0.8578612,0.039838575,-0.18100401759147644,0.07974944
2113.133333332629,-0.027168911,-0.7985145,-0.035774276,-2.3189592,0.02795432,1.6122314,0.7555341,0.03999986,0.039999597,-9.812329,0.44749027490615845,0.88568795,0.040568057,-0.18409383296966553,0.08075491
2113.1499999992957,-0.0280163,-0.7989508,-0.0368841,-2.317802,0.02881727,1.6135095,0.75459045,0.039999854,0.039999586,-9.809174,0.4619216024875641,0.91394913,0.041297723,-0.18718942999839783,0.08173865
2113.1666666659626,-0.02887795,-0.7993945,-0.038012624,-2.316625,0.029694734,1.6148094,0.75363076,0.039999846,0.039999574,-9.805888,0.47656476497650146,0.9427143,0.04202706,-0.190290629863739,0.082699984
2113.1833333326294,-0.029753838,-0.7998456,-0.039159797,-2.315429,0.030586684,1.6161306,0.7526552,0.039999828,0.03999955,-9.801602,0.49193134903907776,0.97192,0.042757075,-0.1933952122926712,0.08363909
2113.1999999992963,-0.030643933,-0.8003038,-0.040325575,-2.3142133,0.031493098,1.6174736,0.7516638,0.039999813,0.03999953,-9.798752,0.5064527988433838,1.0017313,0.04348712,-0.19650426506996155,0.08455425
2113.216666665963,-0.031548202,-0.80076945,-0.041509923,-2.3129785,0.032413926,1.6188378,0.75065666,0.039999794,0.039999507,-9.794882,0.5216850638389587,1.0319525,0.044216562,-0.19961433112621307,0.08544346
2113.23333333263,-0.032466616,-0.80124235,-0.042712793,-2.3117244,0.03334915,1.6202233,0.7496338,0.039999772,0.03999948,-9.790849,0.5371267795562744,1.0626997,0.04494495,-0.202727273106575,0.08630929
2113.249999999297,-0.033399142,-0.8017226,-0.043934133,-2.310451,0.034298714,1.62163,0.7485951,0.03999976,0.039999463,-9.7858305,0.5532692074775696,1.0938797,0.045672487,-0.20584264397621155,0.08714878
2113.266666665964,-0.034345713,-0.8022101,-0.0451739,-2.3091583,0.035262592,1.6230582,0.747541,0.039999746,0.039999444,-9.782141,0.5685631036758423,1.1256481,0.046399202,-0.20895719528198242,0.087961875
2113.2833333326307,-0.0353063,-0.8027049,-0.04643201,-2.3078463,0.03624072,1.6245068,0.74647117,0.03999972,0.03999941,-9.777485,0.584567666053772,1.1578511,0.047123674,-0.21207012236118317,0.08874898
2113.2999999992976,-0.03628085,-0.8032067,-0.04770843,-2.3065152,0.03723305,1.6259778,0.74538577,0.039999697,0.039999384,-9.771799,0.6012450456619263,1.1905138,0.04784714,-0.2151852250099182,0.08950798
2113.3166666659645,-0.0372693,-0.80371577,-0.04900305,-2.3051655,0.038239524,1.6274682,0.74428487,0.039999668,0.03999935,-9.767462,0.6170909404754639,1.2236989,0.048568673,-0.21829207241535187,0.09024001
2113.3333333326314,-0.038271602,-0.804232,-0.050315816,-2.3037972,0.039260108,1.6289804,0.74316865,0.03999964,0.039999317,-9.762258,0.6336134672164917,1.2574112,0.049287956,-0.22140634059906006,0.090942465
2113.3499999992982,-0.039287694,-0.80475533,-0.05164665,-2.30241,0.040294718,1.6305131,0.7420371,0.039999623,0.0399993,-9.756699,0.6502994298934937,1.2915204,0.050004408,-0.2245142012834549,0.09161606
2113.366666665965,-0.040317513,-0.8052857,-0.05299546,-2.3010035,0.041343287,1.6320666,0.7408902,0.039999608,0.039999276,-9.750082,0.6676592826843262,1.3260925,0.05071822,-0.22761863470077515,0.09226018
2113.383333332632,-0.04136098,-0.80582315,-0.054362174,-2.299578,0.04240576,1.6336404,0.73972803,0.03999958,0.039999243,-9.744798,0.684163510799408,1.3612233,0.05142929,-0.23071616888046265,0.09287437
2113.399999999299,-0.04241804,-0.80636764,-0.055746693,-2.298134,0.043482065,1.635235,0.7385508,0.03999955,0.039999206,-9.738475,0.7013342976570129,1.3968017,0.052137993,-0.23380830883979797,0.09345898
2113.4166666659657,-0.04348861,-0.80691904,-0.057148926,-2.2966719,0.04457211,1.6368499,0.73735845,0.039999515,0.03999917,-9.731942,0.7186541557312012,1.4328253,0.05284262,-0.23689375817775726,0.09401211
2113.4333333326326,-0.04457262,-0.8074774,-0.05856875,-2.295191,0.04567582,1.6384853,0.73615116,0.039999478,0.039999127,-9.7243805,0.7366138696670532,1.4692794,0.053543877,-0.23997440934181213,0.0945345
2113.4499999992995,-0.045669995,-0.8080427,-0.06000607,-2.293692,0.046793133,1.6401407,0.7349291,0.03999945,0.039999098,-9.718056,0.7537156939506531,1.5062888,0.054241393,-0.24304459989070892,0.095023856
2113.4666666659664,-0.046780642,-0.8086148,-0.06146078,-2.2921755,0.047923937,1.6418163,0.7336922,0.03999942,0.039999064,-9.710735,0.7714663743972778,1.5437275,0.05493407,-0.2461077719926834,0.09548299
2113.4833333326333,-0.04790446,-0.8091937,-0.06293278,-2.2906406,0.049068164,1.6435115,0.7324406,0.039999392,0.03999903,-9.70323,0.7893462181091309,1.5816085,0.055622175,-0.24916572868824005,0.09590856
2113.4999999993,-0.049041383,-0.8097796,-0.06442195,-2.2890875,0.050225712,1.6452266,0.73117447,0.03999936,0.03999899,-9.69444,0.8078180551528931,1.6198735,0.056306582,-0.2522116005420685,0.09630147
2113.516666665967,-0.050191317,-0.81037164,-0.065928146,-2.2875166,0.05139649,1.6469616,0.72989386,0.039999325,0.039998952,-9.686994,0.8254517316818237,1.6587346,0.056985393,-0.25524505972862244,0.09666156
2113.533333332634,-0.05135414,-0.810971,-0.06745126,-2.2859282,0.0525804,1.6487156,0.7285988,0.039999295,0.039998915,-9.678586,0.8437075614929199,1.697917,0.057659,-0.25826936960220337,0.09698898
2113.549999999301,-0.05252979,-0.8115766,-0.068991184,-2.2843225,0.05377735,1.6504892,0.7272893,0.039999265,0.03999888,-9.668931,0.8625165820121765,1.7375836,0.05832768,-0.2612801194190979,0.097281836
2113.5666666659677,-0.05371814,-0.81218916,-0.07054775,-2.2826993,0.05498722,1.6522819,0.725966,0.039999235,0.039998848,-9.660735,0.8805193305015564,1.7777078,0.05899082,-0.26428157091140747,0.097540945
2113.5833333326345,-0.0549191,-0.812808,-0.07212082,-2.281059,0.056209914,1.6540935,0.7246284,0.0399992,0.039998807,-9.651278,0.8990777134895325,1.8182737,0.05964707,-0.26726752519607544,0.09776593
2113.5999999993014,-0.056132548,-0.813433,-0.07371026,-2.2794015,0.057445336,1.6559241,0.72327715,0.03999915,0.039998755,-9.641576,0.9177420735359192,1.8592209,0.0602979,-0.270241379737854,0.09795733
2113.6166666659683,-0.057358388,-0.8140645,-0.07531593,-2.2777271,0.058693357,1.657773,0.72191185,0.0399991,0.0399987,-9.630756,0.9369397163391113,1.9005047,0.060940802,-0.27320045232772827,0.098113485
2113.633333332635,-0.058596488,-0.8147026,-0.0769377,-2.2760358,0.059953846,1.6596406,0.72053313,0.039999053,0.039998647,-9.62119,0.9553247094154358,1.9423827,0.061578657,-0.2761460840702057,0.09823489
2113.649999999302,-0.059846755,-0.81534684,-0.078575425,-2.2743282,0.06122673,1.6615264,0.71914077,0.039999012,0.039998602,-9.610478,0.9742447733879089,1.9845946,0.062208124,-0.2790740430355072,0.09832122
2113.666666665969,-0.061109055,-0.8159971,-0.08022892,-2.272604,0.062511854,1.6634307,0.7177349,0.039998963,0.039998546,-9.599458,0.9932546615600586,2.027204,0.06283052,-0.2819864749908447,0.09837357
2113.683333332636,-0.062383287,-0.8166537,-0.08189803,-2.2708635,0.06380911,1.6653531,0.7163158,0.039998908,0.03999849,-9.587293,1.0127426385879517,2.07012,0.06344582,-0.28488075733184814,0.09838913
2113.6999999993027,-0.06366931,-0.81731635,-0.0835826,-2.2691069,0.06511836,1.6672932,0.71488357,0.039998863,0.03999844,-9.576325,1.0314468145370483,2.113601,0.06405329,-0.2877548933029175,0.09837116
2113.7166666659696,-0.064967014,-0.817985,-0.08528248,-2.2673345,0.06643947,1.6692507,0.71343845,0.039998814,0.03999839,-9.564249,1.0506367683410645,2.15738,0.06465253,-0.2906109392642975,0.09831729
2113.7333333326364,-0.06627625,-0.81865966,-0.08699747,-2.265546,0.067772314,1.6712258,0.7119804,0.039998755,0.039998323,-9.551863,1.0698885917663574,2.2015605,0.06524282,-0.2934498190879822,0.09822788
2113.7499999993033,-0.06759689,-0.8193403,-0.08872744,-2.2637424,0.06911679,1.6732183,0.7105096,0.039998688,0.039998252,-9.538204,1.0895904302597046,2.2460322,0.06582489,-0.2962658405303955,0.098103374
2113.76666666597,-0.06892881,-0.8200267,-0.09047218,-2.261923,0.07047274,1.6752275,0.7090261,0.039998632,0.039998196,-9.525896,1.108525276184082,2.29102,0.06639821,-0.2990625202655792,0.09794336
2113.783333332637,-0.07027187,-0.8207189,-0.092231534,-2.260089,0.07184002,1.6772537,0.70753014,0.03999858,0.039998136,-9.512279,1.1278942823410034,2.3362887,0.06696335,-0.301835834980011,0.09774808
2113.799999999304,-0.071625926,-0.8214168,-0.0940053,-2.2582395,0.07321848,1.6792965,0.7060224,0.03999853,0.039998084,-9.497639,1.1477112770080566,2.38184,0.06751891,-0.30458831787109375,0.09751742
2113.816666665971,-0.07299086,-0.82212037,-0.0957933,-2.256375,0.074608006,1.6813557,0.7045022,0.039998475,0.039998025,-9.484074,1.166747808456421,2.4278975,0.068063386,-0.3073161244392395,0.097251706
2113.8333333326377,-0.0743665,-0.8228294,-0.0975954,-2.2544956,0.07600846,1.6834309,0.70297015,0.03999842,0.039997965,-9.469388,1.186205506324768,2.4741995,0.06859897,-0.3100197911262512,0.09695109
2113.8499999993046,-0.07575269,-0.82354385,-0.09941136,-2.2526023,0.07741965,1.6855223,0.7014262,0.039998353,0.039997894,-9.454233,1.2056865692138672,2.5208502,0.06912434,-0.31269729137420654,0.096615024
2113.8666666659715,-0.077149324,-0.82426375,-0.10124098,-2.2506943,0.078841455,1.6876293,0.69987077,0.039998297,0.03999784,-9.438125,1.225548267364502,2.5677426,0.06963962,-0.3153532147407532,0.096243255
2113.8833333326384,-0.078556225,-0.824989,-0.10308405,-2.2487726,0.080273695,1.6897517,0.6983039,0.039998237,0.03999777,-9.422891,1.2446686029434204,2.6151035,0.07014429,-0.31797903776168823,0.09583899
2113.8999999993052,-0.07997327,-0.82571954,-0.10494041,-2.2468367,0.08171625,1.6918895,0.6967254,0.039998166,0.0399977,-9.406698,1.2641527652740479,2.662719,0.07063786,-0.3205815255641937,0.09539892
2113.916666665972,-0.08140029,-0.8264554,-0.10680984,-2.2448874,0.083168946,1.6940424,0.695136,0.0399981,0.03999763,-9.3899555,1.2836449146270752,2.7106135,0.07112183,-0.32315388321876526,0.094924636
2113.933333332639,-0.08283714,-0.82719606,-0.10869215,-2.2429242,0.08463162,1.6962101,0.6935357,0.03999804,0.039997563,-9.372102,1.3034601211547852,2.7587485,0.0715938,-0.32569727301597595,0.09441634
2113.949999999306,-0.08428362,-0.82794195,-0.11058715,-2.240948,0.08610413,1.6983925,0.69192463,0.039997973,0.039997496,-9.355352,1.3225897550582886,2.8072836,0.07205408,-0.3282124400138855,0.09387524
2113.9666666659728,-0.08573962,-0.8286926,-0.11249457,-2.2389588,0.08758628,1.700589,0.690303,0.039997913,0.039997432,-9.337411,1.342016577720642,2.8560698,0.07250269,-0.3306966722011566,0.0932992
2113.9833333326396,-0.087204956,-0.82944816,-0.11441426,-2.2369568,0.08907796,1.7027998,0.6886709,0.039997842,0.039997358,-9.319112,1.3614287376403809,2.905094,0.07293903,-0.33315369486808777,0.09269008
2113.9999999993065,-0.08867946,-0.8302084,-0.11634598,-2.2349427,0.090578966,1.7050244,0.68702847,0.039997783,0.039997295,-9.299568,1.381124496459961,2.9542925,0.07336385,-0.3355764150619507,0.092047766
2114.0166666659734,-0.09016295,-0.83097345,-0.11828949,-2.232916,0.092089154,1.7072624,0.68537605,0.03999771,0.03999722,-9.281174,1.4001531600952148,3.0039222,0.07377619,-0.3379703760147095,0.09137281
2114.0333333326403,-0.0916553,-0.831743,-0.12024463,-2.2308767,0.09360831,1.7095143,0.6837139,0.039997645,0.03999715,-9.261551,1.4194449186325073,3.0537155,0.07417644,-0.3403322100639343,0.09066516
2114.049999999307,-0.09315634,-0.832517,-0.122211166,-2.228826,0.0951363,1.7117786,0.6820421,0.039997563,0.039997064,-9.240692,1.4389896392822266,3.1036236,0.07456331,-0.342655748128891,0.0899258
2114.066666665974,-0.09466587,-0.8332956,-0.12418882,-2.2267637,0.09667294,1.7140561,0.68036073,0.039997492,0.03999699,-9.221007,1.4579029083251953,3.1539757,0.07493654,-0.34495118260383606,0.08915471
2114.083333332641,-0.09618372,-0.8340784,-0.1261774,-2.22469,0.09821804,1.716346,0.67867,0.039997417,0.03999691,-9.200081,1.4770320653915405,3.2044296,0.07529742,-0.34721019864082336,0.088352345
2114.099999999308,-0.09770974,-0.83486545,-0.12817673,-2.2226052,0.09977145,1.7186486,0.67697036,0.039997347,0.039996836,-9.1786995,1.4961038827896118,3.2550862,0.07564552,-0.3494342863559723,0.08751914
2114.1166666659747,-0.09924373,-0.8356566,-0.13018645,-2.2205093,0.10133298,1.7209632,0.6752618,0.03999727,0.039996754,-9.156303,1.5154030323028564,3.3058681,0.07597847,-0.351624071598053,0.0866554
2114.1333333326415,-0.1007855,-0.83645177,-0.13220644,-2.2184021,0.10290244,1.7232894,0.6735444,0.039997198,0.039996684,-9.13468,1.534042477607727,3.3569818,0.07629876,-0.353774756193161,0.085761204
2114.1499999993084,-0.10233492,-0.83725095,-0.13423641,-2.2162852,0.104479656,1.7256268,0.67181855,0.039997123,0.0399966,-9.111946,1.5528995990753174,3.4082084,0.07660621,-0.3558878004550934,0.084839046
2114.1666666659753,-0.103891775,-0.838054,-0.13627622,-2.214158,0.106064446,1.7279756,0.6700844,0.039997056,0.039996535,-9.088932,1.5716804265975952,3.4596272,0.07689881,-0.3579678535461426,0.08388619
2114.183333332642,-0.10545587,-0.83886087,-0.1383255,-2.2120209,0.107656635,1.7303354,0.6683422,0.03999699,0.039996464,-9.064685,1.5906178951263428,3.511063,0.07717701,-0.36000707745552063,0.08290555
2114.199999999309,-0.10702704,-0.83967155,-0.14038405,-2.209874,0.10925599,1.732706,0.666592,0.039996933,0.039996404,-9.041341,1.6089630126953125,3.5628643,0.07744128,-0.36200839281082153,0.081896946
2114.216666665976,-0.108605094,-0.84048575,-0.14245167,-2.2077177,0.110862374,1.735087,0.6648341,0.03999686,0.03999633,-9.016884,1.6274460554122925,3.6147091,0.0776917,-0.36396968364715576,0.08086014
2114.233333332643,-0.11018988,-0.8413032,-0.1445281,-2.205552,0.11247559,1.7374784,0.6630688,0.03999678,0.039996248,-8.992003,1.6458686590194702,3.6666632,0.07792778,-0.36589086055755615,0.07979762
2114.2499999993097,-0.11178118,-0.8421244,-0.14661309,-2.2033772,0.11409543,1.7398791,0.66129625,0.039996713,0.039996177,-8.966054,1.664367437362671,3.7186294,0.07814847,-0.36777129769325256,0.078708544
2114.2666666659766,-0.11337881,-0.8429487,-0.14870635,-2.2011936,0.11572173,1.7422899,0.6595167,0.03999664,0.0399961,-8.940783,1.682323694229126,3.7709293,0.07835446,-0.3696083128452301,0.07759417
2114.2833333326435,-0.11498258,-0.8437762,-0.15080771,-2.1990018,0.11735429,1.7447096,0.65773016,0.03999657,0.039996028,-8.914595,1.700390100479126,3.8232005,0.07854557,-0.37140393257141113,0.07645377
2114.2999999993103,-0.11659232,-0.844607,-0.15291691,-2.1968014,0.11899287,1.7471384,0.65593714,0.0399965,0.039995953,-8.887352,1.718538761138916,3.8754942,0.07872201,-0.3731595277786255,0.075289376
2114.316666665977,-0.11820782,-0.84544075,-0.15503363,-2.1945932,0.12063734,1.749576,0.6541376,0.03999644,0.039995894,-8.860766,1.7361801862716675,3.9280412,0.078882776,-0.374869167804718,0.0741016
2114.333333332644,-0.119828865,-0.8462773,-0.15715769,-2.1923773,0.12228747,1.7520219,0.65233195,0.039996374,0.039995823,-8.833172,1.753875732421875,3.9805565,0.07902898,-0.3765346109867096,0.072889686
2114.349999999311,-0.121455275,-0.84711665,-0.15928882,-2.1901543,0.12394305,1.754476,0.6505201,0.039996307,0.039995752,-8.805211,1.7714507579803467,4.0331264,0.07915948,-0.37815767526626587,0.07165581
2114.366666665978,-0.12308687,-0.8479589,-0.16142674,-2.1879241,0.1256039,1.756938,0.6487025,0.039996244,0.03999569,-8.776252,1.789050579071045,4.08565,0.079275146,-0.37973764538764954,0.070399
2114.3833333326447,-0.12472346,-0.84880364,-0.16357118,-2.1856873,0.1272698,1.7594075,0.6468794,0.039996188,0.03999563,-8.747867,1.8061892986297607,4.1384225,0.07937599,-0.38127079606056213,0.06912241
2114.3999999993116,-0.12636481,-0.8496509,-0.16572186,-2.183444,0.12894064,1.7618843,0.64505106,0.039996136,0.039995573,-8.718593,1.823357343673706,4.1911,0.07946075,-0.38275980949401855,0.06782517
2114.4166666659785,-0.12801075,-0.8505006,-0.16787861,-2.181194,0.1306161,1.764368,0.64321756,0.03999608,0.039995518,-8.688851,1.8403620719909668,4.243799,0.07952948,-0.3842034637928009,0.06650684
2114.4333333326454,-0.12966107,-0.85135263,-0.17004111,-2.1789384,0.13229603,1.7668582,0.64137924,0.03999602,0.039995458,-8.658091,1.8573625087738037,4.296373,0.079583034,-0.38559871912002563,0.06517084
2114.4499999993122,-0.13131557,-0.85220677,-0.17220911,-2.1766768,0.1339802,1.7693547,0.63953614,0.039995965,0.0399954,-8.628026,1.8739497661590576,4.3491974,0.07962107,-0.38694941997528076,0.063815236
2114.466666665979,-0.13297403,-0.8530631,-0.17438234,-2.1744096,0.13566843,1.7718576,0.6376885,0.039995898,0.039995328,-8.596943,1.8905099630355835,4.401848,0.07964386,-0.3882518410682678,0.06244339
2114.483333332646,-0.13463631,-0.8539213,-0.17656057,-2.1721375,0.1373605,1.7743659,0.6358368,0.039995838,0.039995268,-8.565471,1.906915307044983,4.454502,0.079651766,-0.38950470089912415,0.06105363
2114.499999999313,-0.13630213,-0.8547815,-0.17874345,-2.1698606,0.13905625,1.7768797,0.6339811,0.039995775,0.0399952,-8.533173,1.9232715368270874,4.5070057,0.07964268,-0.3907141089439392,0.05964814
2114.5166666659798,-0.13797139,-0.8556434,-0.18093084,-2.1675787,0.14075543,1.7793986,0.6321216,0.039995715,0.03999514,-8.5013,1.9392424821853638,4.5596786,0.07961861,-0.39187243580818176,0.058226574
2114.5333333326466,-0.13964377,-0.8565072,-0.18312237,-2.1652925,0.14245789,1.7819225,0.6302585,0.039995655,0.039995078,-8.468547,1.9551860094070435,4.612168,0.07957841,-0.39298215508461,0.056791674
2114.5499999993135,-0.14131913,-0.85737246,-0.1853178,-2.163002,0.14416334,1.7844505,0.6283921,0.0399956,0.03999502,-8.434951,1.9709877967834473,4.6644955,0.07952381,-0.39404070377349854,0.055342633
2114.5666666659804,-0.14299732,-0.8582395,-0.18751688,-2.160708,0.1458716,1.7869828,0.6265226,0.039995555,0.039994974,-8.401822,1.9865055084228516,4.716971,0.079453245,-0.39505067467689514,0.053879607
2114.5833333326473,-0.14467806,-0.85910743,-0.18971932,-2.1584098,0.14758249,1.789519,0.62465036,0.039995503,0.039994918,-8.3678875,2.0019266605377197,4.769259,0.07936732,-0.39601120352745056,0.052405525
2114.599999999314,-0.14636102,-0.8599768,-0.1919249,-2.156109,0.14929575,1.7920587,0.62277544,0.039995458,0.039994873,-8.333491,2.017139196395874,4.821376,0.07926549,-0.39692020416259766,0.050919067
2114.616666665981,-0.14804628,-0.86084735,-0.1941333,-2.1538048,0.15101117,1.7946017,0.6208979,0.03999541,0.039994825,-8.298457,2.032257556915283,4.8733335,0.07914826,-0.39778169989585876,0.049422484
2114.633333332648,-0.14973341,-0.8617191,-0.19634426,-2.151498,0.15272863,1.7971478,0.6190182,0.039995372,0.039994784,-8.2635765,2.0470831394195557,4.9253693,0.079017125,-0.3985876142978668,0.047915854
2114.649999999315,-0.15142229,-0.8625918,-0.19855748,-2.1491885,0.15444787,1.7996966,0.6171366,0.03999533,0.039994743,-8.228128,2.0617873668670654,4.9771953,0.07887039,-0.39934423565864563,0.046399433
2114.6666666659817,-0.15311277,-0.86346537,-0.20077276,-2.1468773,0.15616862,1.8022478,0.61525327,0.039995294,0.039994705,-8.192113,2.0763003826141357,5.028846,0.07870897,-0.4000455439090729,0.044876363
2114.6833333326485,-0.15480445,-0.8643395,-0.20298983,-2.144564,0.15789078,1.8048009,0.6133687,0.039995257,0.03999467,-8.155549,2.090632677078247,5.0802445,0.07853205,-0.4006960988044739,0.04334483
2114.6999999993154,-0.15649725,-0.8652143,-0.20520829,-2.142249,0.15961404,1.8073556,0.6114827,0.039995223,0.03999463,-8.119256,2.1047921180725098,5.131718,0.07833919,-0.40129613876342773,0.041806404
2114.7166666659823,-0.15819095,-0.8660895,-0.20742798,-2.139933,0.16133823,1.8099117,0.60959566,0.039995186,0.039994594,-8.082246,2.1187384128570557,5.18291,0.0781326,-0.4018435776233673,0.04026328
2114.733333332649,-0.15988538,-0.8669652,-0.20964856,-2.1376164,0.16306314,1.812469,0.60770786,0.03999514,0.039994553,-8.04492,2.1325109004974365,5.233915,0.07791126,-0.40234044194221497,0.03871317
2114.749999999316,-0.1615803,-0.86784124,-0.21186982,-2.1352985,0.1647886,1.8150271,0.6058194,0.0399951,0.039994508,-8.006932,2.1460764408111572,5.2846,0.077674724,-0.40278396010398865,0.03716093
2114.766666665983,-0.16327551,-0.8687175,-0.21409148,-2.1329799,0.16651434,1.8175856,0.6039308,0.039995078,0.039994486,-7.9690876,2.1594858169555664,5.335345,0.07742477,-0.40317249298095703,0.0356041
2114.78333333265,-0.16497082,-0.86959386,-0.21631327,-2.1306612,0.1682401,1.820144,0.602042,0.039995052,0.039994456,-7.9306517,2.17269229888916,5.3857436,0.07715989,-0.4035065174102783,0.034045953
2114.7999999993167,-0.16666597,-0.8704702,-0.21853487,-2.1283429,0.16996576,1.8227025,0.60015345,0.039995033,0.039994437,-7.891682,2.185650587081909,5.435824,0.07688058,-0.403787761926651,0.032485507
2114.8166666659836,-0.16836078,-0.87134653,-0.22075604,-2.126025,0.17169109,1.8252606,0.59826505,0.039995003,0.039994407,-7.8529,2.1985156536102295,5.4859295,0.07658717,-0.4040162265300751,0.030923864
2114.8333333326505,-0.170055,-0.87222254,-0.22297649,-2.1237078,0.17341584,1.8278177,0.5963774,0.039994977,0.03999438,-7.8134904,2.211137056350708,5.535659,0.07628113,-0.4041897654533386,0.029362127
2114.8499999993173,-0.17174846,-0.87309825,-0.22519594,-2.121391,0.17513986,1.8303736,0.5944905,0.03999496,0.039994363,-7.77385,2.223567247390747,5.585163,0.075960554,-0.40431150794029236,0.027800752
2114.866666665984,-0.173441,-0.8739737,-0.22741415,-2.1190753,0.1768629,1.8329283,0.5926047,0.03999494,0.039994344,-7.733611,2.235706329345703,5.634269,0.075627126,-0.4043768644332886,0.02624122
2114.883333332651,-0.17513235,-0.8748483,-0.22963083,-2.1167617,0.17858471,1.8354809,0.5907201,0.03999492,0.039994325,-7.693426,2.247828483581543,5.6833773,0.07528061,-0.404384970664978,0.024684023
2114.899999999318,-0.1768223,-0.8757226,-0.23184569,-2.1144507,0.18030515,1.8380318,0.5888372,0.039994903,0.03999431,-7.652973,2.259681224822998,5.732095,0.074920714,-0.40434369444847107,0.023129147
2114.916666665985,-0.17851067,-0.8765959,-0.23405851,-2.1121414,0.182024,1.8405801,0.58695585,0.0399949,0.039994307,-7.612202,2.271350622177124,5.780583,0.07454684,-0.4042505621910095,0.021578476
2114.9333333326517,-0.18019728,-0.87746817,-0.23626901,-2.109834,0.18374106,1.8431256,0.5850766,0.03999489,0.0399943,-7.570924,2.2826924324035645,5.828586,0.07416117,-0.4041023552417755,0.020032076
2114.9499999993186,-0.18188179,-0.87833965,-0.23847687,-2.1075296,0.18545611,1.8456683,0.5831997,0.039994877,0.039994285,-7.5296283,2.294081926345825,5.876548,0.07376254,-0.4038991928100586,0.018491706
2114.9666666659855,-0.18356413,-0.8792102,-0.24068186,-2.1052272,0.18716885,1.8482075,0.581325,0.039994873,0.03999428,-7.4879994,2.305145740509033,5.9241195,0.073351204,-0.4036407470703125,0.01695728
2114.9833333326524,-0.18524408,-0.88007957,-0.24288367,-2.1029289,0.18887919,1.8507432,0.5794531,0.039994866,0.039994273,-7.445986,2.315999746322632,5.9713535,0.0729297,-0.4033251106739044,0.015430225
2114.9999999993192,-0.18692134,-0.88094753,-0.24508204,-2.100634,0.19058685,1.8532748,0.5775841,0.039994873,0.03999428,-7.4039025,2.3265697956085205,6.0182066,0.072494455,-0.4029582440853119,0.013910442
2115.016666665986,-0.18859583,-0.8818141,-0.24727675,-2.0983427,0.19229162,1.8558025,0.57571805,0.039994877,0.039994285,-7.3616447,2.3371973037719727,6.0649424,0.072048515,-0.40253859758377075,0.012399033
2115.033333332653,-0.19026728,-0.88267916,-0.2494675,-2.0960553,0.1939933,1.8583252,0.57385564,0.039994884,0.039994292,-7.3189907,2.3474907875061035,6.1112103,0.071592085,-0.4020605683326721,0.010897321
2115.04999999932,-0.1919355,-0.8835427,-0.25165403,-2.093773,0.19569173,1.8608433,0.57199657,0.03999489,0.039994303,-7.276209,2.357445240020752,6.1570473,0.07112299,-0.4015309810638428,0.009405487
2115.0666666659868,-0.19360027,-0.88440454,-0.25383598,-2.0914953,0.19738664,1.8633562,0.5701414,0.0399949,0.03999431,-7.233322,2.3675408363342285,6.2028112,0.0706435,-0.400949627161026,0.007923604
2115.0833333326536,-0.19526142,-0.8852644,-0.2560132,-2.0892217,0.19907789,1.8658636,0.5682903,0.03999491,0.03999432,-7.190172,2.377265214920044,6.2480683,0.07015356,-0.4003142714500427,0.0064524477
2115.0999999993205,-0.19691871,-0.8861224,-0.2581855,-2.086954,0.20076531,1.8683654,0.5664435,0.039994925,0.039994337,-7.1467347,2.3868112564086914,6.2929354,0.06965309,-0.3996230959892273,0.004994545
2115.1166666659874,-0.19857201,-0.88697827,-0.2603524,-2.0846922,0.20244858,1.8708609,0.56460124,0.039994933,0.039994348,-7.103328,2.395993232727051,6.337387,0.069141045,-0.3988799452781677,0.0035487383
2115.1333333326543,-0.20022099,-0.887832,-0.2625138,-2.0824358,0.2041275,1.8733501,0.5627637,0.03999494,0.039994355,-7.0596304,2.405350685119629,6.3816843,0.06861968,-0.39808523654937744,0.0021155835
2115.149999999321,-0.20186551,-0.8886836,-0.2646694,-2.0801847,0.20580196,1.8758327,0.560931,0.03999496,0.039994378,-7.0157747,2.414355516433716,6.425479,0.06808828,-0.39723682403564453,0.0006971305
2115.166666665988,-0.20350541,-0.88953286,-0.26681888,-2.0779405,0.20747168,1.8783084,0.55910355,0.039994974,0.039994396,-6.9716964,2.423140525817871,6.468883,0.067548215,-0.3963320255279541,-0.0007074116
2115.183333332655,-0.2051405,-0.8903797,-0.26896203,-2.0757027,0.20913649,1.8807766,0.55728143,0.039994996,0.03999442,-6.9277196,2.4315483570098877,6.5118203,0.06699892,-0.39537522196769714,-0.002095314
2115.199999999322,-0.20677051,-0.89122397,-0.2710986,-2.073472,0.21079618,1.8832374,0.55546504,0.039995026,0.039994452,-6.8833685,2.440216064453125,6.554601,0.06644079,-0.39436694979667664,-0.0034687296
2115.2166666659887,-0.20839526,-0.8920655,-0.27322832,-2.0712483,0.21245058,1.8856901,0.5536544,0.039995052,0.03999448,-6.839034,2.4484927654266357,6.596858,0.06587335,-0.39330679178237915,-0.004825406
2115.2333333326555,-0.21001461,-0.89290446,-0.2753509,-2.069032,0.21409948,1.8881346,0.5518498,0.03999507,0.0399945,-6.7945848,2.4565799236297607,6.6387086,0.06529821,-0.3921951651573181,-0.006164071
2115.2499999993224,-0.21162836,-0.8937405,-0.27746615,-2.0668235,0.21574266,1.8905708,0.55005133,0.039995093,0.039994523,-6.750192,2.4642322063446045,6.680068,0.06471462,-0.39103198051452637,-0.0074866232
2115.2666666659893,-0.21323627,-0.8945736,-0.2795739,-2.0646229,0.21737999,1.8929981,0.5482593,0.039995126,0.03999456,-6.7054133,2.472252130508423,6.721226,0.06412342,-0.38981762528419495,-0.008789602
2115.283333332656,-0.21483818,-0.89540374,-0.28167367,-2.06243,0.2190112,1.8954164,0.54647404,0.039995156,0.039994594,-6.660654,2.47981595993042,6.7618556,0.063524924,-0.38855063915252686,-0.010074832
2115.299999999323,-0.21643391,-0.8962306,-0.28376532,-2.0602455,0.22063608,1.8978254,0.54469573,0.039995182,0.03999462,-6.616059,2.486936569213867,6.8019676,0.06291946,-0.3872317373752594,-0.011339618
2115.31666666599,-0.21802321,-0.89705426,-0.28584856,-2.0580702,0.2222545,1.9002246,0.5429244,0.039995223,0.039994664,-6.5710397,2.4944424629211426,6.8418746,0.062306356,-0.3858632445335388,-0.012585348
2115.333333332657,-0.21960597,-0.8978747,-0.28792328,-2.0559037,0.22386624,1.9026139,0.5411605,0.03999526,0.0399947,-6.526182,2.5015077590942383,6.881266,0.061687708,-0.38444578647613525,-0.013809803
2115.3499999993237,-0.22118196,-0.8986916,-0.2899891,-2.053746,0.22547114,1.904993,0.53940403,0.039995305,0.03999475,-6.481243,2.5084075927734375,6.920229,0.06106159,-0.38297760486602783,-0.015014815
2115.3666666659906,-0.22275105,-0.8995051,-0.29204586,-2.0515978,0.22706896,1.9073617,0.53765523,0.039995346,0.039994795,-6.4365897,2.5148611068725586,6.958647,0.060430374,-0.38145869970321655,-0.016198043
2115.3833333326575,-0.22431296,-0.9003148,-0.29409322,-2.04946,0.22865954,1.9097198,0.53591436,0.0399954,0.039994847,-6.3913183,2.5217363834381104,6.9968333,0.059793346,-0.37988948822021484,-0.017358487
2115.3999999993243,-0.22586754,-0.90112096,-0.29613107,-2.0473313,0.23024268,1.9120669,0.5341819,0.039995436,0.039994888,-6.346459,2.5281622409820557,7.034522,0.059150852,-0.3782743513584137,-0.018497828
2115.416666665991,-0.22741467,-0.90192336,-0.29815906,-2.0452132,0.23181823,1.9144028,0.53245765,0.039995484,0.03999494,-6.3014035,2.5344316959381104,7.071717,0.058502186,-0.37660664319992065,-0.019613931
2115.433333332658,-0.22895409,-0.90272164,-0.30017692,-2.043106,0.233386,1.916727,0.53074205,0.039995536,0.039994992,-6.256879,2.54022479057312,7.1084456,0.057849083,-0.3748922348022461,-0.02070617
2115.449999999325,-0.23048566,-0.90351593,-0.30218455,-2.0410087,0.23494579,1.9190395,0.529035,0.03999559,0.03999505,-6.2117352,2.5465214252471924,7.1448946,0.05719058,-0.37313419580459595,-0.021776317
2115.466666665992,-0.23200919,-0.9043063,-0.30418167,-2.038923,0.23649742,1.9213398,0.52733696,0.039995644,0.039995108,-6.1667075,2.5523183345794678,7.1807327,0.056529213,-0.371322363615036,-0.022822075
2115.4833333326587,-0.23352447,-0.9050923,-0.3061681,-2.036848,0.23804067,1.9236274,0.5256481,0.039995696,0.03999516,-6.12202,2.558002471923828,7.216261,0.055862915,-0.36946824193000793,-0.023844257
2115.4999999993256,-0.2350314,-0.90587413,-0.30814353,-2.034785,0.23957548,1.925903,0.5239686,0.039995752,0.03999522,-6.0776515,2.5631916522979736,7.251174,0.055192348,-0.3675679564476013,-0.024841726
2115.5166666659925,-0.23652978,-0.9066515,-0.31010768,-2.0327327,0.24110155,1.9281651,0.52229846,0.039995797,0.039995264,-6.0325627,2.5689237117767334,7.285827,0.054518472,-0.36562034487724304,-0.025813058
2115.5333333326594,-0.23801945,-0.90742445,-0.31206045,-2.0306926,0.24261874,1.9304142,0.52063817,0.03999585,0.03999532,-5.987888,2.574145793914795,7.3199115,0.05384275,-0.36362630128860474,-0.026759775
2115.5499999993262,-0.23950025,-0.90819293,-0.31400153,-2.028665,0.24412693,1.9326504,0.51898783,0.03999591,0.039995383,-5.9438634,2.5789055824279785,7.353531,0.05316315,-0.36158809065818787,-0.027681405
2115.566666665993,-0.24097197,-0.90895665,-0.31593078,-2.0266497,0.24562591,1.9348723,0.5173475,0.03999597,0.039995447,-5.8990607,2.584258556365967,7.386849,0.05247989,-0.35950595140457153,-0.028576626
2115.58333333266,-0.24243446,-0.9097157,-0.3178479,-2.0246463,0.24711554,1.9370805,0.5157172,0.039996035,0.039995518,-5.8547325,2.5890753269195557,7.4196,0.051795214,-0.3573816120624542,-0.029446736
2115.599999999327,-0.24388754,-0.91047007,-0.31975272,-2.0226564,0.24859561,1.9392747,0.51409763,0.039996102,0.03999559,-5.810471,2.5937745571136475,7.4519024,0.051109973,-0.3552103042602539,-0.030289864
2115.6166666659938,-0.2453311,-0.9112195,-0.3216451,-2.020679,0.25006595,1.9414544,0.5124885,0.039996162,0.03999565,-5.7670217,2.597994089126587,7.483756,0.050420947,-0.3529984652996063,-0.031106975
2115.6333333326606,-0.246765,-0.91196394,-0.32352477,-2.018715,0.25152647,1.9436195,0.5108902,0.03999622,0.039995715,-5.722506,2.602820634841919,7.5152125,0.04973169,-0.35074248909950256,-0.03189712
2115.6499999993275,-0.248189,-0.9127032,-0.32539156,-2.0167644,0.25297692,1.9457695,0.509303,0.039996292,0.03999579,-5.6787353,2.607170343399048,7.54619,0.049040306,-0.34844475984573364,-0.032659873
2115.6666666659944,-0.24960303,-0.91343737,-0.32724518,-2.0148273,0.25441727,1.9479046,0.5077269,0.039996356,0.039995857,-5.6351876,2.6113805770874023,7.576723,0.048347354,-0.34610825777053833,-0.033396028
2115.6833333326613,-0.25100684,-0.9141664,-0.32908544,-2.0129044,0.2558474,1.9500242,0.506162,0.039996415,0.03999592,-5.592268,2.6150693893432617,7.606746,0.04765379,-0.3437293469905853,-0.03410471
2115.699999999328,-0.2524004,-0.91489017,-0.33091223,-2.0109954,0.25726685,1.9521284,0.5046087,0.039996482,0.039995987,-5.5484767,2.619445562362671,7.6364274,0.046960145,-0.3413120210170746,-0.034786113
2115.716666665995,-0.25378346,-0.9156086,-0.33272532,-2.0091014,0.2586757,1.954217,0.50306714,0.039996546,0.039996054,-5.5053606,2.6233177185058594,7.665618,0.046265725,-0.33885452151298523,-0.035439957
2115.733333332662,-0.25515592,-0.9163217,-0.33452445,-2.0072217,0.26007378,1.956289,0.5015375,0.03999661,0.03999612,-5.4625688,2.6270902156829834,7.694374,0.04556995,-0.3363601863384247,-0.036066283
2115.749999999329,-0.2565175,-0.9170293,-0.33630952,-2.005356,0.2614609,1.9583449,0.50001997,0.039996684,0.0399962,-5.420503,2.630300283432007,7.722652,0.04487426,-0.3338288962841034,-0.036666054
2115.7666666659957,-0.2578683,-0.9177311,-0.3380802,-2.0035057,0.26283684,1.9603846,0.49851435,0.039996754,0.039996274,-5.377305,2.6342427730560303,7.7504873,0.04417933,-0.33125630021095276,-0.037237544
2115.7833333326626,-0.25920802,-0.91842705,-0.33983642,-2.0016706,0.2642017,1.9624074,0.49702108,0.03999682,0.039996345,-5.335151,2.6376819610595703,7.777912,0.043485735,-0.32864904403686523,-0.03778053
2115.7999999993294,-0.26053652,-0.9191175,-0.34157798,-1.999851,0.26555514,1.9644133,0.4955401,0.039996892,0.03999642,-5.293889,2.6405959129333496,7.804865,0.04279204,-0.3260088264942169,-0.038296748
2115.8166666659963,-0.26185364,-0.91980207,-0.34330475,-1.9980463,0.26689708,1.9664022,0.49407178,0.03999696,0.039996494,-5.251453,2.6442489624023438,7.8314233,0.04210023,-0.3233323395252228,-0.038786504
2115.833333332663,-0.2631594,-0.92048085,-0.3450165,-1.9962573,0.26822737,1.9683738,0.49261627,0.039997023,0.039996557,-5.2098746,2.6473777294158936,7.8574805,0.041410282,-0.3206191658973694,-0.039246127
2115.84999999933,-0.2644535,-0.92115355,-0.3467131,-1.9944842,0.26954594,1.9703281,0.4911736,0.039997093,0.039996635,-5.1686287,2.650413751602173,7.8831606,0.040720966,-0.31787240505218506,-0.03967979
2115.866666665997,-0.26573595,-0.92182034,-0.34839436,-1.992727,0.27085254,1.9722646,0.48974404,0.039997157,0.039996702,-5.1283827,2.65291428565979,7.908377,0.04003384,-0.3150913119316101,-0.040084865
2115.883333332664,-0.26700652,-0.9224808,-0.35006005,-1.9909861,0.27214715,1.9741832,0.48832765,0.039997224,0.039996773,-5.086916,2.6562225818634033,7.9331875,0.03934783,-0.3122774660587311,-0.040461898
2115.8999999993307,-0.26826522,-0.9231353,-0.35171008,-1.9892614,0.2734296,1.9760839,0.4869246,0.039997295,0.039996848,-5.0465403,2.6589691638946533,7.9575496,0.038664356,-0.30943363904953003,-0.040811762
2115.9166666659976,-0.2695118,-0.92378366,-0.35334432,-1.9875534,0.27469975,1.9779663,0.485535,0.03999737,0.039996926,-5.0063686,2.6616477966308594,7.981502,0.037983023,-0.30655747652053833,-0.041133817
2115.9333333326645,-0.2707461,-0.9244258,-0.35496262,-1.9858617,0.27595747,1.9798305,0.48415905,0.039997436,0.039997,-4.9673266,2.663780689239502,8.005059,0.037303936,-0.30365073680877686,-0.041429814
2115.9499999993313,-0.2719682,-0.9250614,-0.35656473,-1.9841869,0.27720276,1.9816759,0.4827967,0.039997507,0.039997075,-4.926956,2.6667559146881104,8.028132,0.03662738,-0.30071187019348145,-0.041696776
2115.966666665998,-0.27317774,-0.92569065,-0.35815066,-1.9825294,0.27843532,1.9835026,0.48144826,0.039997578,0.039997153,-4.88779,2.669168472290039,8.050832,0.035954,-0.29774603247642517,-0.041938078
2115.983333332665,-0.27437484,-0.92631334,-0.35972017,-1.9808887,0.27965522,1.9853103,0.48011371,0.039997645,0.03999722,-4.848922,2.671541213989258,8.0731325,0.03528296,-0.2947530150413513,-0.042150658
2115.999999999332,-0.27555922,-0.92692965,-0.36127305,-1.9792657,0.28086215,1.9870992,0.4787933,0.039997708,0.03999729,-4.811182,2.673341989517212,8.09503,0.034615073,-0.2917322814464569,-0.042338084
2116.016666665999,-0.276731,-0.9275393,-0.3628092,-1.9776598,0.2820562,1.9888686,0.47748703,0.039997768,0.039997358,-4.7721357,2.6759915351867676,8.116469,0.03395077,-0.28868457674980164,-0.042499173
2116.0333333326657,-0.27789,-0.9281424,-0.36432847,-1.9760714,0.28323713,1.9906186,0.47619513,0.039997827,0.039997417,-4.734252,2.678131580352783,8.137534,0.033289764,-0.2856115400791168,-0.042631168
2116.0499999993326,-0.27903578,-0.92873883,-0.36583078,-1.9745009,0.28440493,1.9923491,0.4749176,0.03999789,0.03999749,-4.697538,2.679678440093994,8.158239,0.03263293,-0.2825121283531189,-0.04273863
2116.0666666659995,-0.28016865,-0.9293285,-0.36731595,-1.9729481,0.28555945,1.99406,0.47365466,0.039997958,0.039997563,-4.659567,2.6821303367614746,8.178477,0.03198013,-0.2793898284435272,-0.04282166
2116.0833333326664,-0.28128842,-0.92991143,-0.36878398,-1.9714131,0.28670058,1.9957511,0.4724064,0.03999801,0.03999762,-4.622723,2.684051752090454,8.198337,0.03133084,-0.2762424945831299,-0.042876635
2116.0999999993332,-0.28239492,-0.93048763,-0.37023485,-1.9698964,0.2878283,1.9974222,0.4711728,0.03999807,0.039997682,-4.586279,2.685908317565918,8.217845,0.030685253,-0.2730734050273895,-0.04290613
2116.116666666,-0.28348807,-0.9310567,-0.37166813,-1.9683977,0.2889425,1.9990734,0.46995395,0.039998133,0.03999775,-4.551116,2.6872212886810303,8.237032,0.030043297,-0.2698822617530823,-0.042911094
2116.133333332667,-0.2845679,-0.9316189,-0.37308383,-1.9669179,0.29004312,2.0007043,0.46875006,0.03999819,0.039997812,-4.5145655,2.689406633377075,8.255662,0.02940678,-0.2666696608066559,-0.04289136
2116.149999999334,-0.28563422,-0.9321744,-0.37448192,-1.9654564,0.29112998,2.0023146,0.4675612,0.039998252,0.03999788,-4.4793143,2.6910815238952637,8.274056,0.028773665,-0.26343896985054016,-0.042846877
2116.1666666660008,-0.28668708,-0.93272287,-0.37586224,-1.964013,0.29220295,2.0039046,0.4663875,0.039998304,0.039997935,-4.444404,2.6926791667938232,8.292035,0.02814517,-0.2601889967918396,-0.042778157
2116.1833333326676,-0.28772622,-0.9332644,-0.3772247,-1.9625877,0.2932621,2.0054743,0.46522892,0.039998345,0.039997984,-4.4107666,2.6937167644500732,8.3097,0.02752148,-0.25691771507263184,-0.04268516
2116.1999999993345,-0.2887517,-0.9337986,-0.37856928,-1.9611815,0.29430738,2.007023,0.46408564,0.039998394,0.039998036,-4.3756866,2.6956772804260254,8.326835,0.02690395,-0.25362566113471985,-0.042567406
2116.2166666660014,-0.28976345,-0.9343257,-0.3798958,-1.9597942,0.2953387,2.0085511,0.4629576,0.039998453,0.039998103,-4.342054,2.697118043899536,8.343747,0.026290031,-0.25031977891921997,-0.042427942
2116.2333333326683,-0.29076132,-0.93484557,-0.38120422,-1.9584262,0.29635596,2.0100586,0.4618451,0.039998505,0.03999816,-4.308827,2.6984987258911133,8.36029,0.025681078,-0.24699990451335907,-0.04226486
2116.249999999335,-0.29174536,-0.93535835,-0.3824944,-1.9570773,0.29735905,2.0115442,0.46074808,0.039998565,0.039998222,-4.2769904,2.6993417739868164,8.376564,0.025075926,-0.24366395175457,-0.042078502
2116.266666666002,-0.29271552,-0.935864,-0.38376635,-1.9557476,0.29834795,2.0130093,0.45966652,0.03999862,0.039998285,-4.2436366,2.701101779937744,8.392332,0.024475833,-0.24031928181648254,-0.04187268
2116.283333332669,-0.2936716,-0.9363623,-0.3850199,-1.9544368,0.2993226,2.0144536,0.45860058,0.039998673,0.03999834,-4.2116413,2.702345609664917,8.407812,0.023880986,-0.2369580715894699,-0.041642852
2116.299999999336,-0.29461375,-0.93685335,-0.3862551,-1.9531449,0.30028298,2.0158768,0.45755023,0.039998733,0.03999841,-4.181053,2.7029991149902344,8.423049,0.023292063,-0.23358362913131714,-0.04139257
2116.3166666660027,-0.29554176,-0.9373373,-0.38747185,-1.9518726,0.30122906,2.0172787,0.45651555,0.039998792,0.03999847,-4.1489143,2.7046473026275635,8.437731,0.02270837,-0.23019561171531677,-0.041119363
2116.3333333326696,-0.29645562,-0.93781376,-0.38867018,-1.9506193,0.30216068,2.0186594,0.4554966,0.039998844,0.03999853,-4.1182413,2.705730676651001,8.452235,0.022130033,-0.22679737210273743,-0.040826283
2116.3499999993364,-0.29735526,-0.9382829,-0.38984978,-1.9493855,0.30307794,2.020018,0.45449346,0.039998904,0.039998595,-4.088011,2.7067782878875732,8.466381,0.021557,-0.22338949143886566,-0.040513538
2116.3666666660033,-0.29824075,-0.93874484,-0.3910108,-1.9481713,0.3039807,2.0213552,0.45350617,0.039998956,0.039998654,-4.05924,2.7072339057922363,8.480338,0.020990398,-0.21997465193271637,-0.040181283
2116.38333333267,-0.299112,-0.9391993,-0.39215317,-1.9469765,0.30486897,2.0226707,0.4525347,0.03999901,0.03999871,-4.0289283,2.708702802658081,8.493747,0.020428864,-0.2165530025959015,-0.039830137
2116.399999999337,-0.29996893,-0.9396463,-0.3932769,-1.9458011,0.30574277,2.0239646,0.45157912,0.03999906,0.039998766,-4.000087,2.7096240520477295,8.506965,0.019872662,-0.21312639117240906,-0.03946055
2116.416666666004,-0.3008116,-0.94008595,-0.39438182,-1.9446455,0.30660194,2.0252376,0.45063946,0.039999105,0.03999882,-3.971664,2.710494041442871,8.519839,0.019322162,-0.20969213545322418,-0.0390733
2116.433333332671,-0.30164003,-0.9405182,-0.39546806,-1.9435093,0.30744663,2.026489,0.44971582,0.039999142,0.03999886,-3.94477,2.7108168601989746,8.532564,0.018777616,-0.20625312626361847,-0.03866699
2116.4499999993377,-0.30245414,-0.94094324,-0.3965354,-1.9423928,0.30827665,2.027719,0.4488081,0.03999919,0.039998908,-3.916221,2.7121317386627197,8.544707,0.018238083,-0.2028081715106964,-0.03824167
2116.4666666660046,-0.30325398,-0.94136065,-0.39758408,-1.9412962,0.30909207,2.028927,0.44791642,0.039999243,0.039998963,-3.889187,2.7128634452819824,8.556708,0.017705282,-0.19935882091522217,-0.03780055
2116.4833333326715,-0.30403933,-0.94177043,-0.39861396,-1.9402192,0.30989295,2.0301137,0.4470407,0.0399993,0.039999023,-3.8627048,2.7136178016662598,8.568435,0.017176827,-0.19591091573238373,-0.037343267
2116.4999999993383,-0.30481032,-0.9421728,-0.39962497,-1.9391618,0.31067917,2.0312784,0.44618097,0.039999343,0.039999075,-3.8376946,2.7137856483459473,8.579974,0.016654294,-0.19246086478233337,-0.036871552
2116.516666666005,-0.3055669,-0.9425678,-0.40061718,-1.9381238,0.3114507,2.0324214,0.44533724,0.039999384,0.039999116,-3.811073,2.714953660964966,8.590974,0.016137961,-0.1890125423669815,-0.03638261
2116.533333332672,-0.30630916,-0.94295543,-0.40159053,-1.9371058,0.31220764,2.0335426,0.44450957,0.03999943,0.039999165,-3.785909,2.715547800064087,8.601809,0.015628051,-0.1855640560388565,-0.035880037
2116.549999999339,-0.30703703,-0.94333553,-0.40254518,-1.9361073,0.31295,2.0346422,0.44369784,0.039999466,0.03999921,-3.7623773,2.7156128883361816,8.612574,0.0151235685,-0.18211998045444489,-0.035365373
2116.566666666006,-0.3077507,-0.9437082,-0.40348107,-1.9351283,0.31367776,2.0357199,0.44290206,0.039999507,0.03999925,-3.7371335,2.7166991233825684,8.622715,0.014624652,-0.1786772459745407,-0.03483443
2116.5833333326727,-0.3084499,-0.9440734,-0.40439808,-1.9341688,0.3143908,2.0367758,0.44212222,0.039999552,0.039999295,-3.7134726,2.7172181606292725,8.632771,0.014131645,-0.1752404421567917,-0.0342915
2116.5999999993396,-0.30913484,-0.94443125,-0.40529633,-1.9332291,0.31508952,2.0378108,0.4413584,0.03999959,0.039999336,-3.6902585,2.7176764011383057,8.642538,0.013645874,-0.17180848121643066,-0.033736497
2116.6166666660065,-0.30980554,-0.9447817,-0.40617597,-1.9323088,0.3157736,2.0388248,0.44061047,0.03999963,0.039999377,-3.6685877,2.717632293701172,8.652226,0.013165159,-0.1683800369501114,-0.03316944
2116.6333333326734,-0.31046206,-0.94512486,-0.40703696,-1.9314083,0.3164431,2.0398169,0.43987837,0.039999668,0.039999425,-3.6452737,2.718578815460205,8.661322,0.012690147,-0.1649557501077652,-0.032590784
2116.6499999993403,-0.3111043,-0.9454606,-0.40787935,-1.930527,0.3170982,2.0407867,0.43916214,0.0399997,0.03999946,-3.6235669,2.718993902206421,8.670392,0.012220871,-0.16154374182224274,-0.03200094
2116.666666666007,-0.3117324,-0.9457888,-0.40870324,-1.9296651,0.31773883,2.0417354,0.43846163,0.03999974,0.039999504,-3.6022768,2.719337224960327,8.679169,0.011757667,-0.1581413894891739,-0.03140463
2116.683333332674,-0.31234634,-0.94610965,-0.40950868,-1.9288224,0.3183651,2.0426629,0.43777683,0.039999783,0.039999552,-3.5825539,2.7192063331604004,8.687872,0.011300282,-0.15474975109100342,-0.030797748
2116.699999999341,-0.3129462,-0.9464233,-0.4102954,-1.9279995,0.318977,2.0435686,0.43710783,0.039999817,0.0399996,-3.5611773,2.7200124263763428,8.695995,0.010848865,-0.15136685967445374,-0.030185422
2116.7166666660078,-0.31353202,-0.9467296,-0.4110637,-1.9271959,0.31957453,2.0444543,0.4364545,0.03999985,0.039999653,-3.5414536,2.720252513885498,8.704106,0.0104036145,-0.1480005532503128,-0.029568426
2116.7333333326746,-0.31410387,-0.9470286,-0.41181377,-1.9264113,0.32015786,2.0453184,0.43581668,0.039999884,0.039999723,-3.522082,2.720507860183716,8.711924,0.0099642435,-0.14464139938354492,-0.028946841
2116.7499999993415,-0.3146618,-0.94732034,-0.41254565,-1.9256456,0.32072705,2.0461614,0.43519443,0.039999917,0.03999981,-3.5042632,2.7202420234680176,8.719726,0.009530745,-0.1412973701953888,-0.02832441
2116.7666666660084,-0.31520584,-0.94760495,-0.4132593,-1.9248991,0.32128206,2.0469832,0.43458757,0.03999994,0.039999887,-3.4848444,2.7209513187408447,8.726941,0.009102752,-0.13796845078468323,-0.027693968
2116.7833333326753,-0.3157362,-0.94788235,-0.4139548,-1.9241713,0.321823,2.0477839,0.43399617,0.039999958,0.039999958,-3.4669828,2.72115421295166,8.734161,0.008681183,-0.13466055691242218,-0.027052835
2116.799999999342,-0.31625268,-0.9481526,-0.41463235,-1.9234625,0.32235,2.0485644,0.43342015,0.039999966,0.04,-3.450581,2.7208492755889893,8.741306,0.008265274,-0.13137374818325043,-0.026399322
2116.816666666009,-0.31675562,-0.94841564,-0.415292,-1.9227724,0.32286313,2.049325,0.43285912,0.03999997,0.04,-3.4326215,2.7215075492858887,8.7478895,0.007854963,-0.12810471653938293,-0.025731485
2116.833333332676,-0.31724492,-0.94867176,-0.41593394,-1.9221004,0.32336247,2.0500643,0.43231326,0.039999966,0.04,-3.4161808,2.72161865234375,8.754446,0.007451261,-0.12485472112894058,-0.025060674
2116.849999999343,-0.31772086,-0.9489208,-0.4165582,-1.9214474,0.32384816,2.0507832,0.43178242,0.039999958,0.04,-3.4001265,2.7216796875,8.760794,0.007054011,-0.12162644416093826,-0.024388531
2116.8666666660097,-0.31818333,-0.9491629,-0.4171649,-1.9208124,0.32432008,2.0514822,0.43126643,0.03999995,0.04,-3.3856745,2.7213048934936523,8.767175,0.006661298,-0.11842337995767593,-0.023714777
2116.8833333326766,-0.31863254,-0.94939816,-0.41775423,-1.9201958,0.32477853,2.0521612,0.4307653,0.039999943,0.04,-3.3695707,2.721787452697754,8.772929,0.006276214,-0.11523981392383575,-0.023037342
2116.8999999993434,-0.31906852,-0.9496267,-0.41832632,-1.9195973,0.32522354,2.05282,0.43027893,0.03999994,0.04,-3.355023,2.721827983856201,8.778741,0.0058959555,-0.11208338290452957,-0.022357795
2116.9166666660103,-0.31949157,-0.9498481,-0.41888124,-1.9190166,0.32565528,2.0534592,0.42980707,0.039999936,0.04,-3.340888,2.7218310832977295,8.784351,0.0055214125,-0.10895493626594543,-0.021674743
2116.933333332677,-0.31990162,-0.9500629,-0.41941926,-1.9184536,0.32607377,2.0540788,0.4293497,0.039999932,0.04,-3.3282065,2.721346378326416,8.789925,0.0051528034,-0.10585182160139084,-0.020995362
2116.949999999344,-0.3202986,-0.950271,-0.4199404,-1.9179083,0.3264791,2.0546792,0.4289065,0.03999993,0.04,-3.3140223,2.7217702865600586,8.794979,0.004789998,-0.10277705639600754,-0.020312475
2116.966666666011,-0.32068297,-0.9504723,-0.4204449,-1.9173806,0.3268715,2.0552602,0.42847762,0.039999917,0.04,-3.3013034,2.721693992614746,8.800048,0.0044340505,-0.09973203390836716,-0.019632157
2116.983333332678,-0.32105482,-0.95066714,-0.42093286,-1.9168696,0.32725114,2.055822,0.42806277,0.039999906,0.04,-3.2890658,2.72161865234375,8.804953,0.0040827007,-0.09672041982412338,-0.018953068
2116.9999999993447,-0.32141414,-0.95085543,-0.42140445,-1.9163762,0.32761803,2.056365,0.42766187,0.039999906,0.04,-3.2780545,2.7210428714752197,8.809821,0.0037382871,-0.09373847395181656,-0.018277893
2117.0166666660116,-0.3217612,-0.95103735,-0.4218599,-1.9158998,0.32797232,2.0568895,0.42727473,0.039999906,0.04,-3.2657971,2.7213759422302246,8.814234,0.0033990084,-0.09079192578792572,-0.017600775
2117.0333333326785,-0.32209602,-0.9512129,-0.42229947,-1.91544,0.3283142,2.0573955,0.4269011,0.039999902,0.04,-3.2548184,2.721212863922119,8.818625,0.0030658094,-0.08787936717271805,-0.016928757
2117.0499999993453,-0.32241887,-0.95138216,-0.4227231,-1.9149967,0.32864374,2.0578837,0.42654082,0.0399999,0.04,-3.245207,2.720637083053589,8.823055,0.002738358,-0.08500396460294724,-0.01626213
2117.066666666012,-0.32272968,-0.95154524,-0.4231312,-1.9145695,0.3289612,2.0583537,0.42619374,0.03999989,0.04,-3.2342207,2.720851421356201,8.82695,0.0024178901,-0.08216360211372375,-0.015597222
2117.083333332679,-0.32302886,-0.95170224,-0.42352393,-1.9141588,0.32926667,2.0588062,0.42585978,0.03999989,0.04,-3.2245154,2.720621109008789,8.830881,0.002104211,-0.07936156541109085,-0.014938102
2117.099999999346,-0.32331643,-0.9518533,-0.42390156,-1.9137636,0.32956037,2.0592413,0.42553872,0.039999887,0.04,-3.2153115,2.7204082012176514,8.834696,0.0017955706,-0.07660067826509476,-0.014284167
2117.116666666013,-0.3235926,-0.95199823,-0.42426422,-1.9133841,0.3298424,2.0596583,0.42523032,0.039999884,0.04,-3.2072837,2.719750165939331,8.83848,0.0014935249,-0.07387728989124298,-0.013638026
2117.1333333326797,-0.3238576,-0.95213735,-0.42461228,-1.9130198,0.33011308,2.0600588,0.42493448,0.03999988,0.04,-3.1980548,2.7198758125305176,8.841846,0.0011977646,-0.07120265066623688,-0.01299548
2117.1499999993466,-0.32411155,-0.9522706,-0.4249459,-1.9126706,0.3303725,2.0604436,0.42465097,0.039999876,0.04,-3.1900024,2.7195956707000732,8.845193,0.00090728217,-0.06856698542833328,-0.012361304
2117.1666666660135,-0.3243547,-0.95239824,-0.42526528,-1.9123362,0.33062086,2.0608118,0.42437953,0.03999987,0.04,-3.1823702,2.7192933559417725,8.848406,0.00062307133,-0.06597330421209335,-0.011733624
2117.1833333326804,-0.32458726,-0.95252043,-0.42557067,-1.9120166,0.33085832,2.061163,0.42411998,0.03999986,0.04,-3.1759362,2.7185957431793213,8.851671,0.00034498112,-0.06342548131942749,-0.01111377
2117.1999999993473,-0.32480934,-0.952637,-0.42586222,-1.9117116,0.3310851,2.0614986,0.42387202,0.03999986,0.04,-3.168343,2.7186036109924316,8.85453,7.3125615e-05,-0.06092999875545502,-0.010504478
2117.216666666014,-0.3250211,-0.95274836,-0.4261404,-1.9114202,0.33130142,2.0618188,0.42363554,0.039999854,0.04,-3.1619115,2.7182135581970215,8.857375,-0.0001915338,-0.05848296731710434,-0.009904176
2117.233333332681,-0.3252227,-0.9528545,-0.42640543,-1.9111428,0.33150753,2.0621238,0.42341033,0.039999854,0.04,-3.1557827,2.7178287506103516,8.86009,-0.00044999205,-0.056083615869283676,-0.009313896
2117.249999999348,-0.32541457,-0.9529554,-0.4266575,-1.9108791,0.33170357,2.0624137,0.42319605,0.03999985,0.04,-3.150836,2.7170817852020264,8.86287,-0.0007023768,-0.05373707413673401,-0.008735091
2117.2666666660148,-0.32559678,-0.95305127,-0.42689696,-1.9106283,0.33188978,2.062689,0.42299256,0.039999846,0.04,-3.144799,2.716994285583496,8.865244,-0.00094840163,-0.0514456108212471,-0.008167282
2117.2833333326817,-0.3257696,-0.9531423,-0.42712417,-1.9103907,0.33206645,2.0629504,0.4227994,0.03999984,0.04,-3.1397727,2.716541290283203,8.867609,-0.0011875862,-0.04920707270503044,-0.0076108887
2117.2999999993485,-0.32593325,-0.9532284,-0.42733932,-1.9101653,0.33223373,2.0631983,0.42261648,0.039999835,0.04,-3.135834,2.715782403945923,8.870061,-0.0014204152,-0.04702382534742355,-0.0070665507
2117.3166666660154,-0.32608795,-0.95330983,-0.42754284,-1.9099523,0.3323919,2.0634327,0.4224435,0.039999835,0.04,-3.1307943,2.715597152709961,8.872051,-0.0016456965,-0.04489414766430855,-0.006533482
2117.3333333326823,-0.32623404,-0.9533867,-0.42773497,-1.9097512,0.33254126,2.0636544,0.4222802,0.039999824,0.04,-3.1268504,2.7151057720184326,8.874156,-0.0018647744,-0.04282526671886444,-0.0060145617
2117.349999999349,-0.3263716,-0.95345944,-0.427916,-1.9095618,0.33268204,2.063863,0.4221263,0.039999824,0.04,-3.1231852,2.7145822048187256,8.876126,-0.0020769583,-0.040813036262989044,-0.005509132
2117.366666666016,-0.3265011,-0.95352745,-0.42808634,-1.9093835,0.33281448,2.064059,0.42198148,0.039999813,0.039999995,-3.1204383,2.713757038116455,8.878161,-0.00228196,-0.038862813264131546,-0.005016009
2117.383333332683,-0.32662266,-0.9535915,-0.42824632,-1.909216,0.3329388,2.0642438,0.42184556,0.039999817,0.04,-3.116874,2.713491439819336,8.879843,-0.0024806932,-0.036978431046009064,-0.004540812
2117.39999999935,-0.32673654,-0.9536516,-0.4283963,-1.9090592,0.33305532,2.0644166,0.42171812,0.039999813,0.04,-3.1140795,2.7129180431365967,8.881523,-0.0026719822,-0.0351535901427269,-0.004078323
2117.4166666660167,-0.326843,-0.9537079,-0.42853665,-1.9089127,0.33316433,2.0645783,0.42159894,0.039999813,0.04,-3.111646,2.712313413619995,8.883181,-0.0028561945,-0.03339531272649765,-0.0036335983
2117.4333333326836,-0.3269424,-0.9537604,-0.42866766,-1.9087756,0.3332661,2.0647292,0.42148766,0.039999813,0.04,-3.110042,2.711482286453247,8.8848505,-0.0030334394,-0.031705453991889954,-0.003201161
2117.4499999993504,-0.32703498,-0.95380926,-0.42878965,-1.9086479,0.33336097,2.0648696,0.42138395,0.03999981,0.04,-3.107598,2.711076498031616,8.8862,-0.0032030146,-0.030082719400525093,-0.0027883244
2117.4666666660173,-0.32712102,-0.9538547,-0.4289032,-1.908529,0.3334492,2.065,0.4212875,0.039999805,0.04,-3.1060052,2.710416316986084,8.887603,-0.0033646594,-0.028531504794955254,-0.0023924788
2117.483333332684,-0.32720083,-0.95389706,-0.4290085,-1.9084188,0.33353102,2.0651217,0.421198,0.0399998,0.04,-3.1046164,2.709754467010498,8.88894,-0.0035189711,-0.027051884680986404,-0.0020156591
2117.499999999351,-0.3272747,-0.95393634,-0.42910615,-1.9083167,0.3336068,2.0652347,0.42111504,0.039999805,0.04,-3.1038861,2.7088584899902344,8.890284,-0.0036649173,-0.02564133331179619,-0.0016547431
2117.516666666018,-0.32734305,-0.9539724,-0.42919636,-1.9082223,0.3336769,2.0653389,0.42103836,0.0399998,0.04,-3.1025345,2.7083704471588135,8.8914,-0.0038032383,-0.024304255843162537,-0.0013133294
2117.533333332685,-0.32740608,-0.95400596,-0.4292796,-1.908135,0.33374155,2.065435,0.42096758,0.039999798,0.04,-3.1018994,2.7076363563537598,8.892544,-0.00393356,-0.023044545203447342,-0.0009911488
2117.5499999993517,-0.32746413,-0.9540368,-0.42935646,-1.9080548,0.33380124,2.0655236,0.42090234,0.03999979,0.04,-3.1017487,2.7067086696624756,8.893717,-0.0040551974,-0.021861134096980095,-0.0006876217
2117.5666666660186,-0.3275175,-0.9540651,-0.42942712,-1.907981,0.3338562,2.0656054,0.4208423,0.03999979,0.04,-3.101173,2.7061469554901123,8.894699,-0.004169716,-0.020757749676704407,-0.00040558513
2117.5833333326855,-0.32756665,-0.9540913,-0.42949232,-1.9079129,0.33390662,2.0656803,0.42078704,0.03999979,0.04,-3.101102,2.7053661346435547,8.895695,-0.0042754924,-0.019735388457775116,-0.00014331903
2117.5999999993523,-0.32761186,-0.9541154,-0.4295521,-1.9078504,0.3339531,2.0657482,0.4207362,0.03999979,0.04,-3.1011138,2.7045958042144775,8.896638,-0.0043728575,-0.018792595714330673,9.905575e-05
2117.6166666660192,-0.32765332,-0.95413744,-0.4296072,-1.9077928,0.33399582,2.0658119,0.4206894,0.03999979,0.04,-3.1015704,2.7037060260772705,8.897605,-0.0044620424,-0.01793084293603897,0.00031977706
2117.633333332686,-0.3276915,-0.9541578,-0.42965794,-1.9077396,0.33403516,2.0658703,0.42064634,0.039999787,0.04,-3.101357,2.7031829357147217,8.898317,-0.004544088,-0.01713276468217373,0.0005238278
2117.649999999353,-0.32772654,-0.95417655,-0.4297047,-1.9076906,0.33407128,2.065923,0.42060676,0.039999787,0.04,-3.1014042,2.7025575637817383,8.899059,-0.004619361,-0.01639813371002674,0.0007123853
2117.66666666602,-0.32775882,-0.9541936,-0.42974764,-1.907646,0.3341045,2.0659733,0.42057028,0.039999783,0.04,-3.1015017,2.701993227005005,8.899764,-0.0046888124,-0.015726594254374504,0.0008844377
2117.6833333326867,-0.32778838,-0.9542094,-0.42978716,-1.9076045,0.33413517,2.0660179,0.42053673,0.039999787,0.04,-3.1017954,2.701392650604248,8.900407,-0.0047527687,-0.015102867968380451,0.0010436048
2117.6999999993536,-0.3278157,-0.954224,-0.42982355,-1.9075664,0.33416334,2.0660605,0.4205058,0.039999783,0.04,-3.1016564,2.700974941253662,8.9009695,-0.0048110797,-0.01453505177050829,0.0011895563
2117.7166666660205,-0.3278407,-0.9542372,-0.429857,-1.9075315,0.33418924,2.0660977,0.42047754,0.039999776,0.039999995,-3.1016629,2.700554609298706,8.901471,-0.004864691,-0.014005432836711407,0.0013262888
2117.7333333326874,-0.3278636,-0.95424956,-0.42988777,-1.9074996,0.33421302,2.0661328,0.4204514,0.03999978,0.04,-3.1018338,2.7001097202301025,8.90201,-0.0049147885,-0.013527792878448963,0.0014449083
2117.7499999993543,-0.32788467,-0.95426065,-0.4299162,-1.90747,0.33423492,2.0661664,0.42042726,0.03999978,0.04,-3.1020014,2.6997034549713135,8.902487,-0.0049602585,-0.013086162507534027,0.0015601871
2117.766666666021,-0.32790425,-0.95427114,-0.42994222,-1.9074428,0.3342551,2.0661957,0.42040512,0.03999978,0.04,-3.1018775,2.6994495391845703,8.902819,-0.0050021107,-0.012673774734139442,0.001666947
2117.783333332688,-0.3279221,-0.9542807,-0.42996615,-1.9074179,0.33427364,2.0662231,0.4203848,0.039999787,0.04,-3.1019177,2.699082374572754,8.903252,-0.0050404724,-0.01229972392320633,0.001761732
2117.799999999355,-0.32793865,-0.95428956,-0.42998818,-1.9073946,0.33429077,2.06625,0.4203662,0.039999776,0.04,-3.1020885,2.698749542236328,8.903615,-0.0050758054,-0.011955253779888153,0.0018511325
2117.816666666022,-0.32795367,-0.9542977,-0.4300085,-1.9073735,0.33430642,2.066272,0.42034885,0.03999978,0.04,-3.101896,2.6985416412353516,8.90385,-0.0051086587,-0.011628598906099796,0.0019357576
2117.8333333326887,-0.32796758,-0.95430505,-0.4300272,-1.907354,0.33432093,2.0662923,0.4203332,0.03999978,0.04,-3.1020641,2.6982736587524414,8.904249,-0.005137951,-0.011341994628310204,0.0020082353
2117.8499999993555,-0.32798046,-0.95431197,-0.4300444,-1.907336,0.33433434,2.066312,0.42031866,0.03999978,0.04,-3.102102,2.698049545288086,8.904501,-0.005166558,-0.011077809147536755,0.0020754326
2117.8666666660224,-0.32799226,-0.9543183,-0.43006024,-1.9073197,0.33434665,2.0663314,0.42030516,0.03999978,0.04,-3.1021414,2.6978209018707275,8.904739,-0.005192444,-0.01082889549434185,0.0021389786
2117.8833333326893,-0.32800308,-0.95432407,-0.43007478,-1.9073044,0.33435795,2.0663493,0.42029268,0.03999978,0.04,-3.1020904,2.6976773738861084,8.904941,-0.005215802,-0.01059637125581503,0.0021991334
2117.899999999356,-0.32801306,-0.95432925,-0.43008822,-1.9072905,0.33436838,2.0663633,0.4202812,0.03999978,0.04,-3.1020854,2.697486162185669,8.905139,-0.005236566,-0.010381176136434078,0.002254766
2117.916666666023,-0.32802215,-0.9543342,-0.43010068,-1.907278,0.33437803,2.0663767,0.42027065,0.039999776,0.04,-3.1022036,2.697316884994507,8.90541,-0.005256281,-0.010194428265094757,0.002302106
2117.93333333269,-0.32803053,-0.9543387,-0.4301121,-1.907266,0.33438674,2.0663888,0.420261,0.03999978,0.04,-3.1022887,2.697148561477661,8.905603,-0.0052751815,-0.01002073660492897,0.0023432304
2117.949999999357,-0.3280382,-0.95434296,-0.43012264,-1.9072549,0.33439466,2.066401,0.42025223,0.039999776,0.04,-3.102203,2.6970388889312744,8.905732,-0.0052916002,-0.009860777296125889,0.0023850852
2117.9666666660237,-0.32804528,-0.9543467,-0.43013233,-1.9072448,0.33440214,2.0664132,0.42024416,0.03999978,0.04,-3.10217,2.6969187259674072,8.905849,-0.0053070895,-0.009708535857498646,0.0024243332
2117.9833333326906,-0.3280518,-0.95435005,-0.43014115,-1.907236,0.33440897,2.0664248,0.42023653,0.039999776,0.04,-3.1021879,2.696812152862549,8.905971,-0.005321841,-0.009565001353621483,0.0024615403
2117.9999999993574,-0.32805777,-0.9543533,-0.43014923,-1.9072275,0.3344151,2.0664363,0.4202297,0.03999978,0.04,-2.8639991,2.5158214569091797,8.801241,0.0,-0.0,0.0
2118.0166666660243,-0.32805777,-0.9543533,-0.43014923,-1.9072275,0.3344151,2.0664363,0.4202297,0.03999978,0.04,-3.1049933,2.6954050064086914,8.906734,0.0,-0.0,0.0
2118.033333332691,-0.32805777,-0.9543533,-0.43014923,-1.9072275,0.3344151,2.0664363,0.4202297,0.03999978,0.04,-3.1049933,2.6954050064086914,8.906734,0.0,-0.0,0.0
2118.049999999358,-0.32805777,-0.9543533,-0.43014923,-1.9072275,0.3344151,2.0664363,0.4202297,0.03999978,0.04,-3.1049933,2.6954050064086914,8.906734,0.0,-0.0,0.0
2118.066666666025,-0.32805777,-0.9543533,-0.43014923,-1.9072275,0.3344151,2.0664363,0.4202297,0.03999978,0.04,-3.1049933,2.6954050064086914,8.906734,0.0,-0.0,0.0
2118.083333332692,-0.32805777,-0.9543533,-0.43014923,-1.9072275,0.3344151,2.0664363,0.4202297,0.03999978,0.04,-3.1049933,2.6954050064086914,8.906734,0.0,-0.0,0.0
2118.0999999993587,-0.32805777,-0.9543533,-0.43014923,-1.9072275,0.3344151,2.0664363,0.4202297,0.03999978,0.04,-3.1049933,2.6954050064086914,8.906734,0.0,-0.0,0.0
2118.1166666660256,-0.32805777,-0.9543533,-0.43014923,-1.9072275,0.3344151,2.0664363,0.4202297,0.03999978,0.04,-3.1049933,2.6954050064086914,8.906734,0.0,-0.0,0.0
2118.1333333326925,-0.32805777,-0.9543533,-0.43014923,-1.9072275,0.3344151,2.0664363,0.4202297,0.03999978,0.04,-3.1049933,2.6954050064086914,8.906734,0.0,-0.0,0.0
2118.1499999993594,-0.32805777,-0.9543533,-0.43014923,-1.9072275,0.3344151,2.0664363,0.4202297,0.03999978,0.04,-3.1049933,2.6954050064086914,8.906734,0.0,-0.0,0.0
2118.1666666660262,-0.32805777,-0.9543533,-0.43014923,-1.9072275,0.3344151,2.0664363,0.4202297,0.03999978,0.04,-3.1049933,2.6954050064086914,8.906734,0.0,-0.0,0.0
2118.183333332693,-0.32805777,-0.9543533,-0.43014923,-1.9072275,0.3344151,2.0664363,0.4202297,0.03999978,0.04,-3.1049933,2.6954050064086914,8.906734,0.0,-0.0,0.0
2118.19999999936,-0.32805777,-0.9543533,-0.43014923,-1.9072275,0.3344151,2.0664363,0.4202297,0.03999978,0.04,-3.1049933,2.6954050064086914,8.906734,0.0,-0.0,0.0
2118.216666666027,-0.32805777,-0.9543533,-0.43014923,-1.9072275,0.3344151,2.0664363,0.4202297,0.03999978,0.04,-3.1049933,2.6954050064086914,8.906734,0.0,-0.0,0.0
2118.2333333326937,-0.32805777,-0.9543533,-0.43014923,-1.9072275,0.3344151,2.0664363,0.4202297,0.03999978,0.04,-3.1049933,2.6954050064086914,8.906734,0.0,-0.0,0.0
2118.2499999993606,-0.32805777,-0.9543533,-0.43014923,-1.9072275,0.3344151,2.0664363,0.4202297,0.03999978,0.04,-3.1049933,2.6954050064086914,8.906734,0.0,-0.0,0.0
2118.2666666660275,-0.32805777,-0.9543533,-0.43014923,-1.9072275,0.3344151,2.0664363,0.4202297,0.03999978,0.04,-3.1049933,2.6954050064086914,8.906734,0.0,-0.0,0.0
2118.2833333326944,-0.32805777,-0.9543533,-0.43014923,-1.9072275,0.3344151,2.0664363,0.4202297,0.03999978,0.04,-3.1049933,2.6954050064086914,8.906734,0.0,-0.0,0.0
2118.2999999993613,-0.32805777,-0.9543533,-0.43014923,-1.9072275,0.3344151,2.0664363,0.4202297,0.03999978,0.04,-3.1049933,2.6954050064086914,8.906734,0.0,-0.0,0.0
2118.316666666028,-0.32805777,-0.9543533,-0.43014923,-1.9072275,0.3344151,2.0664363,0.4202297,0.03999978,0.04,-3.1049933,2.6954050064086914,8.906734,0.0,-0.0,0.0
2118.333333332695,-0.32805777,-0.9543533,-0.43014923,-1.9072275,0.3344151,2.0664363,0.4202297,0.03999978,0.04,-3.1049933,2.6954050064086914,8.906734,0.0,-0.0,0.0
2118.349999999362,-0.32805777,-0.9543533,-0.43014923,-1.9072275,0.3344151,2.0664363,0.4202297,0.03999978,0.04,-3.1049933,2.6954050064086914,8.906734,0.0,-0.0,0.0
2118.366666666029,-0.32805777,-0.9543533,-0.43014923,-1.9072275,0.3344151,2.0664363,0.4202297,0.03999978,0.04,-3.1049933,2.6954050064086914,8.906734,0.0,-0.0,0.0
2118.3833333326957,-0.32805777,-0.9543533,-0.43014923,-1.9072275,0.3344151,2.0664363,0.4202297,0.03999978,0.04,-3.1049933,2.6954050064086914,8.906734,0.0,-0.0,0.0
2118.3999999993625,-0.32805777,-0.9543533,-0.43014923,-1.9072275,0.3344151,2.0664363,0.4202297,0.03999978,0.04,-3.1049933,2.6954050064086914,8.906734,0.0,-0.0,0.0
2118.4166666660294,-0.32805777,-0.9543533,-0.43014923,-1.9072275,0.3344151,2.0664363,0.4202297,0.03999978,0.04,-3.1049933,2.6954050064086914,8.906734,0.0,-0.0,0.0
2118.4333333326963,-0.32805777,-0.9543533,-0.43014923,-1.9072275,0.3344151,2.0664363,0.4202297,0.03999978,0.04,-3.1049933,2.6954050064086914,8.906734,0.0,-0.0,0.0
2118.449999999363,-0.32805777,-0.9543533,-0.43014923,-1.9072275,0.3344151,2.0664363,0.4202297,0.03999978,0.04,-3.1049933,2.6954050064086914,8.906734,0.0,-0.0,0.0
2118.46666666603,-0.32805777,-0.9543533,-0.43014923,-1.9072275,0.3344151,2.0664363,0.4202297,0.03999978,0.04,-3.1049933,2.6954050064086914,8.906734,0.0,-0.0,0.0
2118.483333332697,-0.32805777,-0.9543533,-0.43014923,-1.9072275,0.3344151,2.0664363,0.4202297,0.03999978,0.04,-3.1049933,2.6954050064086914,8.906734,0.0,-0.0,0.0
2118.499999999364,-0.32805777,-0.9543533,-0.43014923,-1.9072275,0.3344151,2.0664363,0.4202297,0.03999978,0.04,-3.1049933,2.6954050064086914,8.906734,0.0,-0.0,0.0
2118.5166666660307,-0.32805777,-0.9543533,-0.43014923,-1.9072275,0.3344151,2.0664363,0.4202297,0.03999978,0.04,-3.1049933,2.6954050064086914,8.906734,0.0,-0.0,0.0
2118.5333333326976,-0.32805777,-0.9543533,-0.43014923,-1.9072275,0.3344151,2.0664363,0.4202297,0.03999978,0.04,-3.1049933,2.6954050064086914,8.906734,0.0,-0.0,0.0
2118.5499999993644,-0.32805777,-0.9543533,-0.43014923,-1.9072275,0.3344151,2.0664363,0.4202297,0.03999978,0.04,-3.1049933,2.6954050064086914,8.906734,0.0,-0.0,0.0
2118.5666666660313,-0.32805777,-0.9543533,-0.43014923,-1.9072275,0.3344151,2.0664363,0.4202297,0.03999978,0.04,-3.1049933,2.6954050064086914,8.906734,0.0,-0.0,0.0
2118.583333332698,-0.32805777,-0.9543533,-0.43014923,-1.9072275,0.3344151,2.0664363,0.4202297,0.03999978,0.04,-3.1049933,2.6954050064086914,8.906734,0.0,-0.0,0.0
2118.599999999365,-0.32805777,-0.9543533,-0.43014923,-1.9072275,0.3344151,2.0664363,0.4202297,0.03999978,0.04,-3.1049933,2.6954050064086914,8.906734,0.0,-0.0,0.0
2118.616666666032,-0.32805777,-0.9543533,-0.43014923,-1.9072275,0.3344151,2.0664363,0.4202297,0.03999978,0.04,-3.1049933,2.6954050064086914,8.906734,0.0,-0.0,0.0
2118.633333332699,-0.32805777,-0.9543533,-0.43014923,-1.9072275,0.3344151,2.0664363,0.4202297,0.03999978,0.04,-3.1049933,2.6954050064086914,8.906734,0.0,-0.0,0.0
2118.6499999993657,-0.32805777,-0.9543533,-0.43014923,-1.9072275,0.3344151,2.0664363,0.4202297,0.03999978,0.04,-3.1049933,2.6954050064086914,8.906734,0.0,-0.0,0.0
2118.6666666660326,-0.32805777,-0.9543533,-0.43014923,-1.9072275,0.3344151,2.0664363,0.4202297,0.03999978,0.04,-3.1049933,2.6954050064086914,8.906734,0.0,-0.0,0.0
2118.6833333326995,-0.32805777,-0.9543533,-0.43014923,-1.9072275,0.3344151,2.0664363,0.4202297,0.03999978,0.04,-3.1049933,2.6954050064086914,8.906734,0.0,-0.0,0.0
2118.6999999993664,-0.32805777,-0.9543533,-0.43014923,-1.9072275,0.3344151,2.0664363,0.4202297,0.03999978,0.04,-3.1049933,2.6954050064086914,8.906734,0.0,-0.0,0.0
2118.7166666660332,-0.32805777,-0.9543533,-0.43014923,-1.9072275,0.3344151,2.0664363,0.4202297,0.03999978,0.04,-3.1049933,2.6954050064086914,8.906734,0.0,-0.0,0.0
2118.7333333327,-0.32805777,-0.9543533,-0.43014923,-1.9072275,0.3344151,2.0664363,0.4202297,0.03999978,0.04,-3.1049933,2.6954050064086914,8.906734,0.0,-0.0,0.0
2118.749999999367,-0.32805777,-0.9543533,-0.43014923,-1.9072275,0.3344151,2.0664363,0.4202297,0.03999978,0.04,-3.1049933,2.6954050064086914,8.906734,0.0,-0.0,0.0
2118.766666666034,-0.32805777,-0.9543533,-0.43014923,-1.9072275,0.3344151,2.0664363,0.4202297,0.03999978,0.04,-3.1049933,2.6954050064086914,8.906734,0.0,-0.0,0.0
2118.7833333327007,-0.32805777,-0.9543533,-0.43014923,-1.9072275,0.3344151,2.0664363,0.4202297,0.03999978,0.04,-3.1049933,2.6954050064086914,8.906734,0.0,-0.0,0.0
2118.7999999993676,-0.32805777,-0.9543533,-0.43014923,-1.9072275,0.3344151,2.0664363,0.4202297,0.03999978,0.04,-3.1049933,2.6954050064086914,8.906734,0.0,-0.0,0.0
2118.8166666660345,-0.32805777,-0.9543533,-0.43014923,-1.9072275,0.3344151,2.0664363,0.4202297,0.03999978,0.04,-3.1049933,2.6954050064086914,8.906734,0.0,-0.0,0.0
2118.8333333327014,-0.32805777,-0.9543533,-0.43014923,-1.9072275,0.3344151,2.0664363,0.4202297,0.03999978,0.04,-3.1049933,2.6954050064086914,8.906734,0.0,-0.0,0.0
2118.8499999993683,-0.32805777,-0.9543533,-0.43014923,-1.9072275,0.3344151,2.0664363,0.4202297,0.03999978,0.04,-3.1049933,2.6954050064086914,8.906734,0.0,-0.0,0.0
2118.866666666035,-0.32805777,-0.9543533,-0.43014923,-1.9072275,0.3344151,2.0664363,0.4202297,0.03999978,0.04,-3.1049933,2.6954050064086914,8.906734,0.0,-0.0,0.0
2118.883333332702,-0.32805777,-0.9543533,-0.43014923,-1.9072275,0.3344151,2.0664363,0.4202297,0.03999978,0.04,-3.1049933,2.6954050064086914,8.906734,0.0,-0.0,0.0
2118.899999999369,-0.32805777,-0.9543533,-0.43014923,-1.9072275,0.3344151,2.0664363,0.4202297,0.03999978,0.04,-3.1049933,2.6954050064086914,8.906734,0.0,-0.0,0.0
2118.916666666036,-0.32805777,-0.9543533,-0.43014923,-1.9072275,0.3344151,2.0664363,0.4202297,0.03999978,0.04,-3.1049933,2.6954050064086914,8.906734,0.0,-0.0,0.0
2118.9333333327027,-0.32805777,-0.9543533,-0.43014923,-1.9072275,0.3344151,2.0664363,0.4202297,0.03999978,0.04,-3.1049933,2.6954050064086914,8.906734,0.0,-0.0,0.0
2118.9499999993695,-0.32805777,-0.9543533,-0.43014923,-1.9072275,0.3344151,2.0664363,0.4202297,0.03999978,0.04,-3.1049933,2.6954050064086914,8.906734,0.0,-0.0,0.0
2118.9666666660364,-0.32805777,-0.9543533,-0.43014923,-1.9072275,0.3344151,2.0664363,0.4202297,0.03999978,0.04,-3.1049933,2.6954050064086914,8.906734,0.0,-0.0,0.0
2118.9833333327033,-0.32805777,-0.9543533,-0.43014923,-1.9072275,0.3344151,2.0664363,0.4202297,0.03999978,0.04,-3.1049933,2.6954050064086914,8.906734,0.0,-0.0,0.0
2118.99999999937,-0.32805777,-0.9543533,-0.43014923,-1.9072275,0.3344151,2.0664363,0.4202297,0.03999978,0.04,-3.1049933,2.6954050064086914,8.906734,0.0,-0.0,0.0
2119.016666666037,-0.32805777,-0.9543533,-0.43014923,-1.9072275,0.3344151,2.0664363,0.4202297,0.03999978,0.04,-3.1049933,2.6954050064086914,8.906734,0.0,-0.0,0.0
2119.033333332704,-0.32805777,-0.9543533,-0.43014923,-1.9072275,0.3344151,2.0664363,0.4202297,0.03999978,0.04,-3.1049933,2.6954050064086914,8.906734,0.0,-0.0,0.0
2119.049999999371,-0.32805777,-0.9543533,-0.43014923,-1.9072275,0.3344151,2.0664363,0.4202297,0.03999978,0.04,-3.1049933,2.6954050064086914,8.906734,0.0,-0.0,0.0
2119.0666666660377,-0.32805777,-0.9543533,-0.43014923,-1.9072275,0.3344151,2.0664363,0.4202297,0.03999978,0.04,-3.1049933,2.6954050064086914,8.906734,0.0,-0.0,0.0
2119.0833333327046,-0.32805777,-0.9543533,-0.43014923,-1.9072275,0.3344151,2.0664363,0.4202297,0.03999978,0.04,-3.1049933,2.6954050064086914,8.906734,0.0,-0.0,0.0
2119.0999999993714,-0.32805777,-0.9543533,-0.43014923,-1.9072275,0.3344151,2.0664363,0.4202297,0.03999978,0.04,-3.1049933,2.6954050064086914,8.906734,0.0,-0.0,0.0
2119.1166666660383,-0.32805777,-0.9543533,-0.43014923,-1.9072275,0.3344151,2.0664363,0.4202297,0.03999978,0.04,-3.1049933,2.6954050064086914,8.906734,0.0,-0.0,0.0
2119.133333332705,-0.32805777,-0.9543533,-0.43014923,-1.9072275,0.3344151,2.0664363,0.4202297,0.03999978,0.04,-3.1049933,2.6954050064086914,8.906734,0.0,-0.0,0.0
2119.149999999372,-0.32805777,-0.9543533,-0.43014923,-1.9072275,0.3344151,2.0664363,0.4202297,0.03999978,0.04,-3.1049933,2.6954050064086914,8.906734,0.0,-0.0,0.0
2119.166666666039,-0.32805777,-0.9543533,-0.43014923,-1.9072275,0.3344151,2.0664363,0.4202297,0.03999978,0.04,-3.1049933,2.6954050064086914,8.906734,0.0,-0.0,0.0
2119.183333332706,-0.32805777,-0.9543533,-0.43014923,-1.9072275,0.3344151,2.0664363,0.4202297,0.03999978,0.04,-3.1049933,2.6954050064086914,8.906734,0.0,-0.0,0.0
2119.1999999993727,-0.32805777,-0.9543533,-0.43014923,-1.9072275,0.3344151,2.0664363,0.4202297,0.03999978,0.04,-3.1049933,2.6954050064086914,8.906734,0.0,-0.0,0.0
2119.2166666660396,-0.32805777,-0.9543533,-0.43014923,-1.9072275,0.3344151,2.0664363,0.4202297,0.03999978,0.04,-3.1049933,2.6954050064086914,8.906734,0.0,-0.0,0.0
2119.2333333327065,-0.32805777,-0.9543533,-0.43014923,-1.9072275,0.3344151,2.0664363,0.4202297,0.03999978,0.04,-3.1049933,2.6954050064086914,8.906734,0.0,-0.0,0.0
2119.2499999993734,-0.32805777,-0.9543533,-0.43014923,-1.9072275,0.3344151,2.0664363,0.4202297,0.03999978,0.04,-3.1049933,2.6954050064086914,8.906734,0.0,-0.0,0.0
2119.2666666660402,-0.32805777,-0.9543533,-0.43014923,-1.9072275,0.3344151,2.0664363,0.4202297,0.03999978,0.04,-3.1049933,2.6954050064086914,8.906734,0.0,-0.0,0.0
2119.283333332707,-0.32805777,-0.9543533,-0.43014923,-1.9072275,0.3344151,2.0664363,0.4202297,0.03999978,0.04,-3.1049933,2.6954050064086914,8.906734,0.0,-0.0,0.0
2119.299999999374,-0.32805777,-0.9543533,-0.43014923,-1.9072275,0.3344151,2.0664363,0.4202297,0.03999978,0.04,-3.1049933,2.6954050064086914,8.906734,0.0,-0.0,0.0
2119.316666666041,-0.32805777,-0.9543533,-0.43014923,-1.9072275,0.3344151,2.0664363,0.4202297,0.03999978,0.04,-3.1049933,2.6954050064086914,8.906734,0.0,-0.0,0.0
2119.3333333327078,-0.32805777,-0.9543533,-0.43014923,-1.9072275,0.3344151,2.0664363,0.4202297,0.03999978,0.04,-3.1049933,2.6954050064086914,8.906734,0.0,-0.0,0.0
2119.3499999993746,-0.32805777,-0.9543533,-0.43014923,-1.9072275,0.3344151,2.0664363,0.4202297,0.03999978,0.04,-3.1049933,2.6954050064086914,8.906734,0.0,-0.0,0.0
2119.3666666660415,-0.32805777,-0.9543533,-0.43014923,-1.9072275,0.3344151,2.0664363,0.4202297,0.03999978,0.04,-3.1049933,2.6954050064086914,8.906734,0.0,-0.0,0.0
2119.3833333327084,-0.32805777,-0.9543533,-0.43014923,-1.9072275,0.3344151,2.0664363,0.4202297,0.03999978,0.04,-3.1049933,2.6954050064086914,8.906734,0.0,-0.0,0.0
2119.3999999993753,-0.32805777,-0.9543533,-0.43014923,-1.9072275,0.3344151,2.0664363,0.4202297,0.03999978,0.04,-3.1049933,2.6954050064086914,8.906734,0.0,-0.0,0.0
2119.416666666042,-0.32805777,-0.9543533,-0.43014923,-1.9072275,0.3344151,2.0664363,0.4202297,0.03999978,0.04,-3.1049933,2.6954050064086914,8.906734,0.0,-0.0,0.0
2119.433333332709,-0.32805777,-0.9543533,-0.43014923,-1.9072275,0.3344151,2.0664363,0.4202297,0.03999978,0.04,-3.1049933,2.6954050064086914,8.906734,0.0,-0.0,0.0
2119.449999999376,-0.32805777,-0.9543533,-0.43014923,-1.9072275,0.3344151,2.0664363,0.4202297,0.03999978,0.04,-3.1049933,2.6954050064086914,8.906734,0.0,-0.0,0.0
2119.466666666043,-0.32805777,-0.9543533,-0.43014923,-1.9072275,0.3344151,2.0664363,0.4202297,0.03999978,0.04,-3.1049933,2.6954050064086914,8.906734,0.0,-0.0,0.0
2119.4833333327097,-0.32805777,-0.9543533,-0.43014923,-1.9072275,0.3344151,2.0664363,0.4202297,0.03999978,0.04,-3.1049933,2.6954050064086914,8.906734,0.0,-0.0,0.0
2119.4999999993765,-0.32805777,-0.9543533,-0.43014923,-1.9072275,0.3344151,2.0664363,0.4202297,0.03999978,0.04,-3.1049933,2.6954050064086914,8.906734,0.0,-0.0,0.0
2119.5166666660434,-0.32805777,-0.9543533,-0.43014923,-1.9072275,0.3344151,2.0664363,0.4202297,0.03999978,0.04,-3.1049933,2.6954050064086914,8.906734,0.0,-0.0,0.0
2119.5333333327103,-0.32805777,-0.9543533,-0.43014923,-1.9072275,0.3344151,2.0664363,0.4202297,0.03999978,0.04,-3.1049933,2.6954050064086914,8.906734,0.0,-0.0,0.0
2119.549999999377,-0.32805777,-0.9543533,-0.43014923,-1.9072275,0.3344151,2.0664363,0.4202297,0.03999978,0.04,-3.1049933,2.6954050064086914,8.906734,0.0,-0.0,0.0
2119.566666666044,-0.32805777,-0.9543533,-0.43014923,-1.9072275,0.3344151,2.0664363,0.4202297,0.03999978,0.04,-3.1049933,2.6954050064086914,8.906734,0.0,-0.0,0.0
2119.583333332711,-0.32805777,-0.9543533,-0.43014923,-1.9072275,0.3344151,2.0664363,0.4202297,0.03999978,0.04,-3.1049933,2.6954050064086914,8.906734,0.0,-0.0,0.0
2119.599999999378,-0.32805777,-0.9543533,-0.43014923,-1.9072275,0.3344151,2.0664363,0.4202297,0.03999978,0.04,-3.1049933,2.6954050064086914,8.906734,0.0,-0.0,0.0
