rsonawane2002/My_IMU/logs_2/traj_509/clean_509.csv
time,j1,j2,j3,j4,j5,j6,j7,gripper1,gripper2,imu_ax,imu_ay,imu_az,imu_gx,imu_gy,imu_gz,quat_x,quat_y,quat_z,quat_w
2851.933333342036,0.00016700293,-0.785875,4.0107683e-05,-2.3551247,9.29385e-05,1.570997,0.786,0.04,0.04,0.0,-0.0,0.0,2.875329272945135e-08,-0.0011641195053377316,4.421952117202833e-08,0.9999995971961153,0.00020320632366974898,0.0008736418299892524,3.263050917662294e-05
2851.950000008703,0.00016699536,-0.78576016,4.0125145e-05,-2.3552213,9.2967275e-05,1.5709941,0.786,0.04,0.04,-0.291998461218812,-3.1223393755653445e-05,0.020128409528541447,-3.4411146723897696e-07,-0.002237268374020038,-7.387411830915031e-07,0.9999996850587058,0.00020320867805947776,0.0007665025215609303,3.259764844553035e-05
2851.9666666753697,0.0001669163,-0.7856542,4.0214723e-05,-2.35531,9.294676e-05,1.5709913,0.786,0.04,0.04,0.023196966700900212,3.022158139641233e-05,-0.0016027080798508564,-3.675033804568149e-06,-0.003220650189018404,-6.368111725912253e-06,0.9999997558850972,0.00020322090064016674,0.000667737674054418,3.251784263128582e-05
2851.9833333420365,0.00016665002,-0.78555673,4.0495797e-05,-2.355391,9.280073e-05,1.5709884,0.786,0.04,0.04,0.022394844485651433,7.3725916133557e-05,-0.0014910865854034228,-1.2173122931226972e-05,-0.004117381992787568,-2.1286682395726862e-05,0.9999998123280067,0.00020325865303806386,0.0005770492983734626,3.231065742468488e-05
2852.0000000087034,0.00016603153,-0.78546685,4.1139527e-05,-2.3554652,9.241878e-05,1.5709856,0.786,0.04,0.04,0.020123644767955362,0.00013595671748626702,-0.0012560659102822669,-2.894990267319446e-05,-0.004923692482353359,-4.9491387326338026e-05,0.9999998569961336,0.00020334392125647414,0.0004936029767615882,3.186006230891263e-05
2852.0166666753703,0.00016485185,-0.7853838,4.2363583e-05,-2.355532,9.16636e-05,1.5709826,0.7859981,0.04,0.04,0.020104492757178072,0.00021181149206735725,-0.0007149147436047443,-5.691598399940395e-05,-0.005644748005988843,-9.459310023603053e-05,0.9999998919692596,0.00020255052119250738,0.00041721998269968256,3.102001746827624e-05
2852.033333342037,0.00016286204,-0.7853073,4.442735e-05,-2.3555958,9.038016e-05,1.5709794,0.7859962,0.04,0.039999995,0.011971237813845903,0.0002964939618476932,-0.00261709787141573,-8.972731607807606e-05,-0.006275575058179379,-0.00015906503551292442,0.999999919537037,0.0002018649678698848,0.00034539695493316584,2.9620899459615192e-05
2852.050000008704,0.00015977773,-0.7852365,4.762787e-05,-2.355654,8.836659e-05,1.5709754,0.7859924,0.04,0.039999995,0.01582559337376388,0.0004097722144727478,-0.001246843878943693,-0.00013919866144489746,-0.006835301801126416,-0.0002473527899269754,0.9999999406454855,0.00020037058243203374,0.00027893865798559456,2.7456881003186663e-05
2852.066666675371,0.00015528279,-0.7851705,5.229551e-05,-2.3557055,8.540444e-05,1.5709687,0.78598845,0.04,0.04,0.015814773445810282,0.0005316221440429905,-0.0018161977811681496,-0.0001991021888760771,-0.0073123249214272065,-0.0003619979612214389,0.9999999563892051,0.00019900255782831974,0.00021686166394074025,2.4302027993743563e-05
2852.083333342038,0.00014903271,-0.78510916,5.879019e-05,-2.3557556,8.127438e-05,1.5709617,0.78598255,0.04,0.04,0.00745905617351994,0.0006510386203470453,-0.0022815654183938605,-0.00028053981443611675,-0.007711685287780433,-0.000503725085529347,0.9999999679941854,0.0001968821005598296,0.0001576461458656894,1.9918814632183797e-05
2852.1000000087047,0.0001406581,-0.7850517,6.749829e-05,-2.3557992,7.573001e-05,1.5709512,0.78597367,0.04,0.04,0.014128383250122667,0.0007860581843392961,-0.0019056822312180088,-0.0003779307398511972,-0.008042434809719879,-0.0006753854068982145,0.9999999759828881,0.00019355036379967467,0.0001018584099582206,1.4047927711061877e-05
2852.1166666753716,0.00012976743,-0.78499764,7.8829486e-05,-2.3558416,6.8509406e-05,1.5709395,0.7859622,0.039999995,0.04,0.005405798919499993,0.0009305445377964848,-0.002294157832505306,-0.0004893037769053693,-0.008294174937171762,-0.0008793535071524572,0.9999999809274641,0.0001892669357443857,4.776994571823814e-05,6.413336645764947e-06
2852.1333333420384,0.00011594981,-0.78494644,9.321372e-05,-2.3558793,5.934004e-05,1.5709249,0.785948,0.03999999,0.03999999,0.010323436401526997,0.0010795716109807487,-0.0017174000607633744,-0.0006190328138994003,-0.008479373943679671,-0.001115399211035744,0.9999999830649638,0.0001839657982890137,-3.993400147902922e-06,-3.2725810218219704e-06
2852.1500000087053,9.877759e-05,-0.7848975,0.00011109872,-2.3559146,4.7935173e-05,1.5709064,0.78593034,0.039999988,0.039999988,0.005349113439390152,0.0012376486283473915,-0.003068119572802175,-0.000769060041037412,-0.008589579703233608,-0.001386687739778475,0.9999999826154086,0.00017740441393050777,-5.5339026584543554e-05,-1.5311710274178306e-05
2852.166666675372,7.7808596e-05,-0.7848507,0.00013294753,-2.355949,3.4002336e-05,1.5708841,0.7859087,0.039999984,0.03999998,0.0027872021754582477,0.001397894241213693,-0.003640892643175242,-0.0009391675810841037,-0.008636999803205696,-0.0016929784277911147,0.9999999794822325,0.0001693420861996151,-0.00010704191641149997,-3.0013672317049068e-05
2852.183333342039,5.2588137e-05,-0.7848054,0.0001592365,-2.3559783,1.7235023e-05,1.5708574,0.7858827,0.039999984,0.03999998,0.008761073788443596,0.001565556062422353,-0.0018940341603101984,-0.0011294372026217374,-0.008624197584286796,-0.002036905626903946,0.9999999736820568,0.0001596587311554493,-0.00015770156952206837,-4.769895520529006e-05
2852.200000008706,2.2650976e-05,-0.7847613,0.00019045283,-2.356006,-2.6785112e-06,1.5708258,0.78585166,0.039999984,0.03999998,0.002609834659583754,0.0017377412157469619,-0.003577115421671273,-0.0013408026311971398,-0.008535417723281554,-0.002418445286282168,0.9999999647611201,0.0001480571631209686,-0.00020937467581148806,-6.869556249618368e-05
2852.216666675373,-1.247681e-05,-0.78471786,0.00022709301,-2.3560326,-2.6053473e-05,1.5707883,0.7858154,0.03999998,0.039999977,0.00046309967201008106,0.0019109007112609719,-0.004393823595960633,-0.0015723076153469789,-0.008385386541867941,-0.0028383682433419993,0.9999999519503523,0.0001345392758313327,-0.0002632239777625275,-9.333602648502603e-05
2852.2333333420397,-5.3276337e-05,-0.7846745,0.00026966128,-2.3560567,-5.321096e-05,1.5707457,0.7857733,0.03999998,0.039999977,0.003008496425782603,0.002086250746718705,-0.0026296709497941606,-0.0018262985251037073,-0.008181056440700274,-0.003297203364888126,0.9999999348774319,0.00011880967773570386,-0.0003182070312037827,-0.00012195768861700024
2852.2500000087066,-0.000100234276,-0.78463113,0.0003186676,-2.3560781,-8.4476094e-05,1.5706962,0.7857248,0.03999998,0.039999977,0.00220849250447408,0.00226502827380814,-0.003949623381349632,-0.002101863347846838,-0.007908436899672426,-0.0037953856789623864,0.9999999124795811,0.00010072302673102907,-0.0003753677435700999,-0.0001549024180171763
2852.2666666753735,-0.0001538417,-0.78458744,0.0003746265,-2.3560982,-0.00012017671,1.5706402,0.78566945,0.039999977,0.039999973,3.4327921705212816e-05,0.002445546304965786,-0.0040835397643324,-0.0023994653646626112,-0.007576240499315847,-0.004333233407780836,0.9999998835469265,8.004515731249983e-05,-0.0004352436295506418,-0.00019251464641609304
2852.2833333420404,-0.00021459251,-0.7845429,0.00043805604,-2.3561175,-0.00016064367,1.5705769,0.7856067,0.039999977,0.039999977,-0.001997970924705328,0.002627835762524114,-0.004635077182268965,-0.002719324398408743,-0.007182215393805943,-0.004911813246022474,0.9999998463419375,5.660184581831695e-05,-0.0004988195048418848,-0.00023514130628920105
2852.3000000087072,-0.00028298266,-0.78449726,0.00050947565,-2.3561366,-0.00020620646,1.5705057,0.78553605,0.039999973,0.03999997,-0.0033234471364940177,0.002809847281259343,-0.005125969156338783,-0.00306111470204556,-0.00673432331773932,-0.0055286671811687615,0.9999997988412389,3.0219495557857773e-05,-0.000566782473975708,-0.0002831287536219898
2852.316666675374,-0.00035950885,-0.78445,0.00058940635,-2.3561542,-0.0002571988,1.5704263,0.785457,0.039999973,0.03999997,-0.0019358783628131704,0.0029932525785306826,-0.004587745529471832,-0.0034250908918195214,-0.006235486877613301,-0.006186402528433387,0.9999997391418001,6.945642328864253e-07,-0.0006389557383078732,-0.00033682549460177155
2852.333333342041,-0.0004446677,-0.78440094,0.0006783688,-2.3561697,-0.00031395195,1.5703378,0.78536904,0.03999997,0.039999966,-0.0012170258025356873,0.0031755896755636544,-0.004876551268195861,-0.0038114788960759063,-0.005680479115270807,-0.00688409650608552,0.999999664838913,-3.217609535384068e-05,-0.000715550335983539,-0.0003965784629586785
2852.350000008708,-0.000538955,-0.78434986,0.0007768826,-2.3561842,-0.0003767971,1.57024,0.78527164,0.03999997,0.039999966,-0.003501914564130182,0.003359603543377583,-0.005278958004928391,-0.004219733734907347,-0.005066679241092416,-0.007621616045668248,0.9999995727568166,-6.856580705465022e-05,-0.000797284386451563,-0.00046273374786279616
2852.3666666753747,-0.00064286403,-0.7842965,0.00088546565,-2.356198,-0.00044606454,1.5701321,0.78516436,0.039999973,0.03999997,-0.004467323741130791,0.0035424490986225897,-0.005963938479469633,-0.004649859410054389,-0.004397780597476164,-0.008398761767110244,0.9999994591415376,-0.00010864813301696542,-0.0008848765077105404,-0.0005356358664653314
2852.3833333420416,-0.00075688644,-0.7842404,0.0010046327,-2.3562107,-0.0005220826,1.5700141,0.78504664,0.039999973,0.03999997,-0.004179854790686832,0.0037251803376761226,-0.005481334933743476,-0.005102393664089707,-0.0036789527337746314,-0.009215257562226457,0.999999320288902,-0.00015262629125121157,-0.0009783306314704817,-0.0006156266114591979
2852.4000000087085,-0.0008815104,-0.78418136,0.0011348962,-2.356223,-0.00060517737,1.569885,0.7849179,0.03999997,0.039999966,-0.006358266417572089,0.003907345179267755,-0.006489210385440813,-0.00557654933315703,-0.0029061252230655824,-0.010070761223416434,0.999999150893481,-0.0002007336179519574,-0.0010787242086612609,-0.0007030451005557181
2852.4166666753754,-0.00101722,-0.784119,0.0012767636,-2.3562348,-0.00069567293,1.5697443,0.7847776,0.03999997,0.039999966,-0.006021976349779301,0.004088381856956914,-0.006463953841384651,-0.006071764474173749,-0.0020859149493683213,-0.010964890091280578,0.9999989458188334,-0.00025317382584721964,-0.001186211479336814,-0.0007982271367228973
2852.4333333420423,-0.0011644947,-0.78405315,0.0014307385,-2.3562462,-0.0007938897,1.5695916,0.7846254,0.03999997,0.039999966,-0.007238236379869534,0.004267960204491729,-0.006902432381861168,-0.006587835939998278,-0.0012165633556519978,-0.011897208108528769,0.9999986987703875,-0.00031003199550424116,-0.0013013943452540578,-0.0009015045488464224
2852.450000008709,-0.0013238101,-0.7839836,0.0015973189,-2.3562577,-0.00090014527,1.5694269,0.7844607,0.03999997,0.039999966,-0.00783263563968184,0.004447795351292289,-0.006911920062302457,-0.0071253059336110446,-0.00030055251267061857,-0.012867221244971553,0.9999984030902961,-0.0003715719567879078,-0.00142448820358267,-0.001013205061454013
2852.466666675376,-0.0014956358,-0.78391,0.001776998,-2.3562691,-0.001014754,1.5692492,0.78428316,0.03999997,0.039999966,-0.008518931335155244,0.004625339984539595,-0.007424976715264542,-0.007683117512870305,0.0006611110861547524,-0.013874387870631987,0.9999980507215029,-0.00043790909221710374,-0.0015561561993755163,-0.001133651932606731
2852.483333342043,-0.0016804358,-0.7838323,0.0019702623,-2.3562803,-0.0011380258,1.5690581,0.78409225,0.03999997,0.03999996,-0.008216749494605047,0.004801083223814344,-0.007587878167192308,-0.008261536267076066,0.0016656517687842817,-0.014917367100817513,0.9999976335553203,-0.0005092185774343935,-0.0016964663832129455,-0.0012631634930910783
2852.50000000871,-0.0018786679,-0.78375024,0.002177592,-2.3562915,-0.0012702665,1.568853,0.7838874,0.03999997,0.03999996,-0.00919266687691156,0.004976061265252645,-0.007942660929360912,-0.008860173462782412,0.0027175864993390884,-0.01599709183835138,0.9999971416748498,-0.0005857357756924143,-0.0018460242963622725,-0.0014020520777844301
2852.5166666753767,-0.0020907838,-0.78366333,0.0023994606,-2.3563025,-0.00141178,1.5686336,0.78366816,0.03999997,0.03999997,-0.009386222479257356,0.005150974559158428,-0.007960200120060712,-0.009478439031009605,0.0038129458263139286,-0.01711471147424843,0.9999965645744308,-0.0006676069650110509,-0.002005168188554851,-0.0015506259421032163
2852.5333333420435,-0.0023172277,-0.7835717,0.002636335,-2.3563135,-0.0015628599,1.5683992,0.78343415,0.03999997,0.039999966,-0.009795206857821093,0.0053191716099181,-0.00849600821255514,-0.010116127958431174,0.004949197740333783,-0.018263547223484184,0.9999958907490198,-0.0007549789986571926,-0.0021742075849827936,-0.0017091849412062476
2852.5500000087104,-0.0025584374,-0.783475,0.0028886735,-2.3563244,-0.0017238006,1.5681496,0.7831848,0.03999997,0.03999999,-0.01035299267695411,0.005492275992772947,-0.008533442871727637,-0.010772828077214584,0.006127775885029035,-0.019453079056827208,0.9999951073166734,-0.0008480584504305053,-0.0023535426746063206,-0.0018780246160368058
2852.5666666753773,-0.0028148424,-0.783373,0.0031569283,-2.3563352,-0.0018948795,1.5678842,0.78291976,0.039999973,0.04,-0.010213218813270863,0.005649568212818612,-0.008720411620810609,-0.01144784031444163,0.007347836074857034,-0.02066994744689036,0.9999942007210766,-0.0009469938242783899,-0.002543366148834877,-0.002057429353556382
2852.583333342044,-0.0030868666,-0.7832656,0.0034415426,-2.356346,-0.0020763827,1.5676029,0.78263855,0.039999973,0.04,-0.010871820183511183,0.005821319624375572,-0.008912134698624286,-0.012140996262807839,0.008609400472428851,-0.021919273465785906,0.9999931558308077,-0.0010519325826530655,-0.00274402099287861,-0.0022476828455561745
2852.600000008711,-0.0033749242,-0.7831526,0.0037429514,-2.3563566,-0.0022685956,1.5673051,0.78234076,0.039999973,0.04,-0.011198885875640663,0.005991369206217686,-0.00917469377050839,-0.012851811643232913,0.009912465808382832,-0.02320023151865322,0.9999919561685561,-0.0011630236128171026,-0.0029558515316489725,-0.0024490643077411073
2852.616666675378,-0.0036794227,-0.7830339,0.004061583,-2.3563673,-0.0024717737,1.5669899,0.78202605,0.03999997,0.039999995,-0.011541431599226826,0.006141357851591547,-0.009861246262365952,-0.013580075535045767,0.011255761260663674,-0.024512102852345008,0.9999905833464487,-0.0012803855255041413,-0.0031793822026581512,-0.0026618339814075513
2852.633333342045,-0.00400076,-0.7829087,0.0043978565,-2.356378,-0.0026862202,1.5666573,0.7816939,0.039999973,0.04,-0.012504355295406278,0.0063292360904447335,-0.009367166257456816,-0.014325503941381258,0.012637295914241457,-0.025853907770538934,0.9999890173484302,-0.0014042295508190795,-0.0034150795799634294,-0.0028862697989500397
2852.6500000087117,-0.004339328,-0.78277713,0.0047521805,-2.3563888,-0.002912152,1.566307,0.7813437,0.039999973,0.039999995,-0.012327970345360484,0.006457216536231818,-0.00977764544369819,-0.015087373668771912,0.01405445982649992,-0.02722487493834856,0.9999872379693625,-0.0015347640091715954,-0.003663024309727257,-0.0031226032005707612
2852.6666666753786,-0.004695511,-0.78263956,0.0051249578,-2.3563995,-0.0031498708,1.5659385,0.7809756,0.039999966,0.04,-0.012083721673272763,0.006648388159404559,-0.010221967278423172,-0.015864111450881627,0.015507867966760482,-0.028626624171267483,0.9999852240729379,-0.0016718996546794523,-0.003923267993299549,-0.0033711059896763705
2852.6833333420454,-0.0050696796,-0.7824955,0.0055165812,-2.3564103,-0.003399592,1.5655513,0.78058875,0.039999966,0.04,-0.012766341844461238,0.006774975111494648,-0.010410077928479922,-0.016657871254093383,0.01700121014654282,-0.030053230421167774,0.9999829505131423,-0.0018159681156434161,-0.004196371672819633,-0.0036319977445999733
2852.7000000087123,-0.0054622036,-0.7823444,0.0059274337,-2.356421,-0.0036615657,1.5651453,0.7801829,0.03999996,0.04,-0.013363680884093121,0.006939632887392657,-0.010209494811763697,-0.017465949424189824,0.01853138120298321,-0.03150717840517875,0.999980391388467,-0.0019670598353182258,-0.004482688795992656,-0.0039055108924485635
2852.716666675379,-0.005873435,-0.78218675,0.006357892,-2.3564317,-0.003936035,1.5647198,0.77975774,0.039999958,0.04,-0.012989787961670274,0.007085396109378188,-0.010934633097781088,-0.018288668498933503,0.020095757432519318,-0.03298673578829048,0.9999775202377018,-0.002125268457861025,-0.004782306294854777,-0.004191873058787631
2852.733333342046,-0.006303726,-0.7820218,0.006808318,-2.3564427,-0.0042232373,1.5642745,0.77931273,0.039999954,0.04,-0.01425677065562958,0.007250473455084,-0.010922849840011573,-0.01912553857184326,0.02169703278923959,-0.034490898820634344,0.9999743057589158,-0.0022908036817185663,-0.005095909420900752,-0.0044912968773314355
2852.750000008713,-0.006753414,-0.7818498,0.0072790706,-2.3564537,-0.004523426,1.5638093,0.7788477,0.039999954,0.04,-0.013691536252946612,0.0074113273823291515,-0.0111065028681967,-0.01997547499862549,0.0233299420642044,-0.03602034607773345,0.999970718582114,-0.002463700106940684,-0.005423439527886822,-0.004804004979284289
2852.76666667538,-0.00722283,-0.7816706,0.0077704964,-2.3564646,-0.0048367907,1.5633237,0.7783624,0.039999958,0.04,-0.013856513604726395,0.007534987689495178,-0.011232450927178839,-0.020838471685937762,0.02499723208691875,-0.03757088415153664,0.9999667264099764,-0.0026440209972180104,-0.005765108012344267,-0.005130180843566921
2852.7833333420467,-0.007712296,-0.78148377,0.008282933,-2.356476,-0.00516352,1.5628175,0.7778563,0.039999954,0.04,-0.015161327302815053,0.007665718898875341,-0.011622890927109886,-0.021714858392838484,0.026700272870374322,-0.03914244884159329,0.9999622917706922,-0.0028319789808825373,-0.006121605749994786,-0.005469997696394089
2852.8000000087136,-0.0082221255,-0.7812894,0.008816712,-2.3564878,-0.0055038542,1.56229,0.7773291,0.03999995,0.04,-0.014858395228989352,0.007827838198760755,-0.011887756156259144,-0.02260304610328566,0.02843284970532595,-0.0407357380380034,0.9999573781332366,-0.0030276679634406245,-0.006493088737874801,-0.0058236536854924985
2852.8166666753805,-0.008752623,-0.7810874,0.009372145,-2.3564997,-0.0058580143,1.5617411,0.7767805,0.039999947,0.04,-0.01491175404655376,0.007989526251302084,-0.011961284613182244,-0.02350271760554682,0.030196143511426198,-0.04234961597202039,0.9999519472688212,-0.003231180019331492,-0.006879685143546831,-0.006191329526128841
2852.8333333420474,-0.009304081,-0.78087765,0.00994955,-2.3565125,-0.006226175,1.5611706,0.7762102,0.039999943,0.04,-0.016310144976405816,0.008110321950991883,-0.012509599441923314,-0.024413105220945162,0.031991731289768725,-0.04398150620692798,0.9999459554190945,-0.003442612529957615,-0.007282031696129152,-0.0065731784046578045
2852.8500000087142,-0.009876789,-0.78066,0.010549226,-2.3565261,-0.0066085192,1.5605779,0.7756179,0.039999943,0.04,-0.01619457741468544,0.008245178018867049,-0.012678256408715782,-0.025334243698982288,0.033813738151194386,-0.045630463670310026,0.9999393589772397,-0.0036620584250191875,-0.00770037979304687,-0.006969350566682711
2852.866666675381,-0.010471029,-0.7804342,0.011171465,-2.3565402,-0.007005243,1.5599629,0.7750034,0.039999943,0.04,-0.01596659581848403,0.008393646636334438,-0.012579586389560582,-0.02626531665351184,0.03566290698963482,-0.047297183416005806,0.9999321135641484,-0.0038895806793303083,-0.008134803995593189,-0.007379999270144862
2852.883333342048,-0.01108706,-0.78020024,0.011816545,-2.3565547,-0.007416545,1.5593252,0.77436626,0.039999943,0.04,-0.016079964399606794,0.00853458113545388,-0.012836691048123683,-0.027206100591087308,0.037540743938315385,-0.04898063362670618,0.9999241709955355,-0.004125308210047936,-0.008585560187791014,-0.007805270483780902
2852.900000008715,-0.011725147,-0.7799582,0.012484744,-2.35657,-0.007842577,1.558665,0.7737064,0.03999994,0.04,-0.01631700632829247,0.008656120998200637,-0.012913302385397785,-0.02815576309099797,0.039445127443249434,-0.05067892494849522,0.9999154828378769,-0.004369275619357561,-0.009052726904280375,-0.008245286365790637
2852.9166666753817,-0.012385539,-0.77970755,0.013176325,-2.356586,-0.0082835015,1.5579818,0.7730233,0.03999994,0.04,-0.01691849688105762,0.008783826834933475,-0.013030506223432603,-0.029114233250730006,0.0413775770294197,-0.05239022682986405,0.9999059938185971,-0.004621640407868214,-0.009536832766070539,-0.008700160135075543
2852.9333333420486,-0.01306848,-0.7794487,0.013891536,-2.3566034,-0.008739478,1.557275,0.772317,0.039999936,0.04,-0.017841037900434564,0.008932619834639902,-0.014033907526678213,-0.0300799392650511,0.04333552503223474,-0.05411443656361767,0.9998956465146283,-0.004882371468453832,-0.010038407152198009,-0.00917000064254912
2852.9500000087155,-0.013774199,-0.7791812,0.014630628,-2.3566208,-0.009210685,1.556545,0.77158743,0.039999936,0.04,-0.01570412342106753,0.009045388289272756,-0.012898145297413066,-0.03105354549057649,0.04531486566383706,-0.05585383261924637,0.9998843926702135,-0.005151425069386102,-0.010556819030055313,-0.00965493066983218
2852.9666666753824,-0.014502925,-0.77890503,0.0153938355,-2.3566384,-0.009697309,1.5557905,0.7708339,0.039999954,0.04,-0.016387773564763286,0.009210760804195372,-0.013931603108541246,-0.03203570845399112,0.04732460199870561,-0.057609089989084164,0.9998721661184864,-0.005429097827407637,-0.0110928436580185,-0.010155054794788447
2852.9833333420493,-0.015254873,-0.7786202,0.01618138,-2.356656,-0.010199389,1.5550123,0.770056,0.039999958,0.04,-0.015757433879715066,0.00925790270432502,-0.013277815013679195,-0.03302329346606163,0.049357300729534904,-0.05936419870615127,0.9998589117323049,-0.005715547895168664,-0.011646094599924876,-0.010670408723129148
2853.000000008716,-0.016030252,-0.7783264,0.016993491,-2.356674,-0.010717119,1.5542101,0.769254,0.03999995,0.04,-0.016443968173729395,0.009412541318921247,-0.013554495636891595,-0.034015018512288754,0.051419240363661876,-0.061130771870685996,0.9998445639395661,-0.006010577526565511,-0.012217048733303143,-0.011201099880992606
2853.016666675383,-0.016829254,-0.7780238,0.017830366,-2.356692,-0.011250633,1.5533834,0.7684276,0.039999943,0.04,-0.016332815742270412,0.009541340961798962,-0.013919794683703302,-0.035012886099126714,0.05350595724021527,-0.06290515972608657,0.9998290564479871,-0.006314309987923521,-0.012805890146290863,-0.01174719325053198
2853.03333334205,-0.017652068,-0.7777122,0.01869221,-2.3567102,-0.011800064,1.5525318,0.7675765,0.03999994,0.04,-0.01607786861845817,0.009654724438119301,-0.014042961316396152,-0.036015304511746574,0.055619442644266916,-0.06468628843674618,0.9998123207058778,-0.006626813378217664,-0.0134128046451708,-0.012308752200275516
2853.050000008717,-0.018498879,-0.7773915,0.019579208,-2.3567286,-0.012365537,1.5516554,0.76670057,0.039999932,0.04,-0.016680416016434663,0.009791611280464928,-0.014145209430371786,-0.03702183051033918,0.0577573648731807,-0.06647400766500401,0.9997942834735557,-0.006948122055985476,-0.014038158630498536,-0.01288582305323024
2853.0666666753837,-0.019369865,-0.7770617,0.020491542,-2.3567472,-0.012947142,1.5507544,0.7657995,0.03999993,0.04,-0.01634629753695105,0.00988788506974779,-0.013974795786775296,-0.03803207385890123,0.059919507707257395,-0.06826414296268961,0.9997748762384239,-0.007278303115496933,-0.014681784684324678,-0.013478439994534032
2853.0833333420505,-0.020265179,-0.7767228,0.021429388,-2.3567672,-0.013545011,1.5498279,0.7648734,0.03999992,0.04,-0.018592188506549867,0.01003559416468125,-0.015256376502326141,-0.039044821066837265,0.06210710245663898,-0.07006049777510534,0.9997540091242548,-0.00761730411058707,-0.015344856860858512,-0.014086635012876823
2853.1000000087174,-0.021184979,-0.77637476,0.022392914,-2.356788,-0.014159258,1.548876,0.763922,0.039999917,0.04,-0.01724667453470996,0.010136391651226206,-0.014868443723026203,-0.0400608574395785,0.06431028976479344,-0.07185873395659448,0.999731610581516,-0.007965164148483537,-0.016027032919924127,-0.014710444587402451
2853.1166666753843,-0.022129409,-0.7760173,0.02338226,-2.3568091,-0.014789968,1.5478987,0.7629451,0.03999991,0.04,-0.017096005984873486,0.010247467115497878,-0.014720790418043528,-0.04107897285870073,0.06653562908853786,-0.07365884975056916,0.9997075998590225,-0.008321918826348761,-0.016728478913775477,-0.015349867894917586
2853.133333342051,-0.023098616,-0.7756506,0.024397584,-2.3568313,-0.015437217,1.5468955,0.76194257,0.03999991,0.04,-0.01765481674573799,0.010350689367098764,-0.015263356481720614,-0.04209920156443711,0.06878205355887612,-0.07545963718752703,0.9996818901617935,-0.008687632223562617,-0.01744954255343914,-0.016004905297051
2853.150000008718,-0.024092725,-0.7752743,0.025439017,-2.3568544,-0.016101107,1.5458665,0.76091427,0.039999902,0.04,-0.01802393881924491,0.010475321419969007,-0.015166875119421164,-0.04312011479391682,0.07104710795600963,-0.07726110554918622,0.999654392317586,-0.00906228502954698,-0.01819057204251874,-0.016675550934440474
2853.166666675385,-0.025111862,-0.7748886,0.026506687,-2.3568785,-0.016781718,1.5448116,0.7598601,0.0399999,0.04,-0.017573661183867273,0.010581712416328666,-0.01537276008909405,-0.04414175179613218,0.07332903971302492,-0.07906053485728416,0.9996250216648613,-0.009445880258642281,-0.01895150109909845,-0.017361797538145454
2853.183333342052,-0.026156133,-0.77449346,0.027600713,-2.3569026,-0.017479125,1.5437306,0.75877994,0.03999989,0.04,-0.015983145977727098,0.010652052023790715,-0.015109929852519244,-0.045163524995369415,0.0756285978094984,-0.0808586449903686,0.999593695147512,-0.009838428056773077,-0.019732086442898426,-0.01806362973836218
2853.2000000087187,-0.02722565,-0.7740889,0.028721211,-2.3569267,-0.018193396,1.5426238,0.75767356,0.03999988,0.04,-0.01578507930406481,0.01074651144547991,-0.014971134829244725,-0.04618454253315414,0.07795097048495672,-0.08265297653784474,0.9995603236451299,-0.010239996324302872,-0.02053229656891336,-0.01878101880430701
2853.2166666753856,-0.02832051,-0.77367485,0.029868282,-2.356951,-0.018924601,1.5414908,0.7565409,0.039999876,0.04,-0.01624813885037213,0.010858504940062727,-0.015243518749863405,-0.04720416083010237,0.08029545448185353,-0.08444313852563254,0.9995248082298459,-0.010650562264583475,-0.021352517283160247,-0.019513924828452704
2853.2333333420524,-0.029440802,-0.7732511,0.03104202,-2.3569756,-0.019672815,1.5403314,0.755382,0.03999987,0.04,-0.016340499847422585,0.010968187609550206,-0.015494654739867109,-0.0482219764906487,0.0826613079387974,-0.08622990339453715,0.9994870487484331,-0.011070041027620348,-0.022193075417735048,-0.020262304392560066
2853.2500000087193,-0.030586604,-0.7728177,0.032242518,-2.357,-0.020438073,1.5391457,0.7541967,0.039999872,0.04,-0.015796884271468414,0.011029513365523602,-0.015212722596236183,-0.04923761105301395,0.08504540769885734,-0.08800903181828067,0.999446951071356,-0.011498476800594452,-0.023053854764799327,-0.02102609820961325
2853.266666675386,-0.031758,-0.7723745,0.03346985,-2.3570251,-0.02122042,1.5379336,0.75298494,0.039999876,0.04,-0.016513118402072813,0.011145298430965261,-0.015669606416612858,-0.05025092644477892,0.08744997555074295,-0.08978126172546307,0.9994044070088133,-0.011935839342252157,-0.023935305776391785,-0.021805231664648265
2853.283333342053,-0.032955043,-0.77192175,0.03472408,-2.3570507,-0.022019895,1.5366948,0.7517466,0.03999987,0.04,-0.01629782888605824,0.01122351726473153,-0.015963754096626204,-0.051261126443091276,0.08987181514716451,-0.09154964803721453,0.9993593117134393,-0.012382136043919575,-0.024837583157238545,-0.02259962967701127
2853.30000000872,-0.034177784,-0.77145904,0.036005266,-2.3570774,-0.022836572,1.5354294,0.75048167,0.039999884,0.04,-0.017685060132532904,0.011364049234046172,-0.016076706842982347,-0.05226749248388814,0.0923107686537484,-0.09331091264118113,0.9993115477505571,-0.012837322277586502,-0.025761258987116304,-0.023409212385860724
2853.316666675387,-0.03542628,-0.77098674,0.037313454,-2.357105,-0.023670424,1.5341372,0.7491901,0.039999876,0.04,-0.016771060960785178,0.011410949631146527,-0.016297846905244384,-0.0532698578060483,0.09476178803634375,-0.09505677854483682,0.9992610133476413,-0.01330136260165338,-0.026706192110152467,-0.02423386595985424
2853.3333333420537,-0.036700584,-0.77050465,0.03864871,-2.3571336,-0.024521511,1.5328182,0.74787176,0.03999987,0.04,-0.016862422042485115,0.011504069364014907,-0.016436295863142547,-0.05426725673663192,0.09722704970204582,-0.09679284153341494,0.9992075915205252,-0.01377426764055345,-0.027672691167488262,-0.025073507179220814
2853.3500000087206,-0.03800072,-0.77001303,0.040011067,-2.3571632,-0.025389882,1.5314726,0.7465268,0.039999858,0.04,-0.016331960789761624,0.01159504568303063,-0.016346664853528203,-0.055259679293872266,0.09970561637694456,-0.09851822898890977,0.9991511782928618,-0.014255927731974644,-0.02866055684100718,-0.025928052800974623
2853.3666666753875,-0.03932673,-0.7695117,0.041400537,-2.3571942,-0.026275527,1.5301003,0.745155,0.03999986,0.04,-0.017142339843223553,0.011707690893377615,-0.016539348949407007,-0.05624657746017747,0.1021980889203653,-0.10022849368927979,0.9990916496530066,-0.01474637045640673,-0.029670219358301646,-0.026797355004301453
2853.3833333420544,-0.040678624,-0.7690004,0.04281716,-2.3572252,-0.027178468,1.5287014,0.7437564,0.039999858,0.04,-0.014878288121322747,0.0117023575005034,-0.015858170694604823,-0.05722736951303478,0.10470181689470193,-0.1019274995886417,0.9990289046971452,-0.015245527543084092,-0.030701243821915337,-0.027681313143394448
2853.4000000087212,-0.042056415,-0.7684792,0.04426094,-2.3572562,-0.028098699,1.5272756,0.742331,0.03999985,0.04,-0.014697236703864469,0.011774162673376665,-0.01612590637203315,-0.05820121515795261,0.10722253770673963,-0.1036122120568076,0.9989628232124586,-0.015753367386359542,-0.031753823144179794,-0.028579782558875024
2853.416666675388,-0.0434601,-0.76794827,0.045731883,-2.3572874,-0.029036252,1.5258225,0.74087906,0.03999984,0.04,-0.014839106206410158,0.011866603209611734,-0.016543969593274532,-0.05916810812140569,0.10975723667568911,-0.10528353304709463,0.9988932813118614,-0.016269715760242307,-0.03282823675845054,-0.02949263925854406
2853.433333342055,-0.04488968,-0.7674075,0.047229994,-2.3573186,-0.029991116,1.5243424,0.73940027,0.03999984,0.04,-0.014285123390789245,0.011903782386998504,-0.016359273847976752,-0.06012786036030118,0.1123049301209401,-0.10693657845131027,0.9988201599180062,-0.0167946435194355,-0.03392444391943023,-0.030419733647439395
2853.450000008722,-0.046345152,-0.7668571,0.04875526,-2.35735,-0.030963255,1.5228364,0.7378946,0.039999835,0.04,-0.01391229900182811,0.011948077768336382,-0.015747760030193625,-0.06107967971363948,0.11486675117832351,-0.10857388042293027,0.9987433554479547,-0.017328138069893168,-0.03504195594581052,-0.03136091362003182
2853.4666666753888,-0.047826495,-0.76629674,0.050307676,-2.3573818,-0.031952675,1.5213035,0.7363618,0.039999824,0.04,-0.014384812880852138,0.012016150597463082,-0.016434785847030398,-0.062021798446955455,0.1174470695248198,-0.11019367829793762,0.9986627167852469,-0.017870261152260033,-0.03618159752044516,-0.03231600022169205
2853.4833333420556,-0.04933368,-0.76572657,0.051887188,-2.3574142,-0.032959376,1.5197436,0.7348026,0.039999817,0.04,-0.014867531162399139,0.012138685968887675,-0.016886738370036625,-0.06295303421540864,0.12003868215375618,-0.11179521677876003,0.9985781143127648,-0.01842058850262652,-0.03734370206002855,-0.03328482313655404
2853.5000000087225,-0.050866693,-0.7651468,0.053493783,-2.357448,-0.03398333,1.5181566,0.73321646,0.03999981,0.04,-0.015547298069162885,0.012214605409434365,-0.017339843839980773,-0.06387682316823506,0.12263942749854631,-0.11337841950301868,0.9984894060419013,-0.018979330691846968,-0.038528564919304065,-0.03426719588527268
2853.5166666753894,-0.052425485,-0.76455724,0.05512743,-2.3574831,-0.03502452,1.5165433,0.73160374,0.039999817,0.04,-0.015005295978154365,0.012234282175157402,-0.016823702122414907,-0.06479027346365324,0.12524451171433382,-0.11494734360322244,0.9983964725347542,-0.019546276250948836,-0.03973601984558112,-0.035262947150133846
2853.5333333420563,-0.05401,-0.76395786,0.05678808,-2.3575191,-0.03608292,1.5149032,0.7299643,0.039999817,0.04,-0.014517439458772152,0.012273259771723374,-0.016918878120297798,-0.0656932724909134,0.12786002938765265,-0.11649321421219463,0.9982991779829479,-0.020121432140917543,-0.04096620629377488,-0.03627187821253747
2853.550000008723,-0.055620212,-0.7633488,0.058475655,-2.3575566,-0.03715844,1.5132365,0.72829837,0.039999817,0.04,-0.014856308869304335,0.012348814283379833,-0.01722613050183508,-0.06658478211607592,0.1304818021235628,-0.11801214946827615,0.9981973869125487,-0.020704634580639817,-0.04221931798609793,-0.03729375358730528
2853.56666667539,-0.05725605,-0.76272994,0.060190123,-2.357594,-0.038251106,1.511543,0.726606,0.0399998,0.04,-0.01252690646993404,0.012313568204970829,-0.016655779947849503,-0.06746538722458101,0.1331079153816016,-0.11951210845384926,0.9980909831129853,-0.02129578636786596,-0.043494955601295765,-0.038328419596558506
2853.583333342057,-0.05891744,-0.7621013,0.06193139,-2.3576314,-0.039360844,1.5098233,0.724887,0.0399998,0.04,-0.012085058256516845,0.012335651505218648,-0.016288613627302162,-0.06833452690549727,0.13574308722272896,-0.12098704747127939,0.9979798420359761,-0.02189496045632995,-0.0447929038724904,-0.039375644237699
2853.600000008724,-0.060604323,-0.7614631,0.06369941,-2.3576689,-0.04048761,1.5080774,0.7231416,0.039999787,0.04,-0.011600078635054523,0.012341624620090114,-0.01647116360743439,-0.06919021378683318,0.13838988229787663,-0.12244110135538348,0.9978638336820624,-0.022501983221303423,-0.04611314841600806,-0.040435228744361014
2853.6166666753907,-0.06231663,-0.7608153,0.06549409,-2.3577065,-0.041631322,1.5063049,0.7213701,0.039999783,0.04,-0.0119094078273152,0.012384915201035102,-0.016897333210041943,-0.07003287641946353,0.14104837277790214,-0.1238676679999006,0.9977428094690403,-0.023116638004942708,-0.047456117470889625,-0.04150691646899319
2853.6333333420575,-0.06405425,-0.76015794,0.067315355,-2.3577442,-0.042791996,1.5045062,0.71957225,0.039999772,0.04,-0.01115691817052955,0.012398451791327536,-0.016467702659705985,-0.0708633296489575,0.14371265543506506,-0.12527336036281533,0.9976166405236898,-0.02373901767446444,-0.04882156737666711,-0.042590517124871406
2853.6500000087244,-0.065817125,-0.759491,0.06916308,-2.357782,-0.043969512,1.5026813,0.71774834,0.03999977,0.04,-0.01091176553733586,0.012439458068526366,-0.016743550368181204,-0.07167880594134454,0.14638709226976612,-0.1266510418465905,0.9974851878682026,-0.024368887755630224,-0.05020968707045389,-0.043685748447030624
2853.6666666753913,-0.06760515,-0.75881463,0.07103722,-2.3578203,-0.04516383,1.5008304,0.71589845,0.039999757,0.04,-0.011652068521050829,0.012436506530193875,-0.016832888599593865,-0.07248098391515363,0.14906801842370274,-0.12800335311629982,0.997348303189536,-0.025006197728871228,-0.051620672336920526,-0.044792392072564025
2853.683333342058,-0.06941819,-0.75812876,0.072937615,-2.3578594,-0.04637487,1.4989537,0.7140226,0.039999753,0.04,-0.011397842401494884,0.012462500249695724,-0.01689683493442118,-0.07326874089194485,0.15175436470350545,-0.1293282126710964,0.997205843852642,-0.025650894680850297,-0.05305462672506336,-0.045910164139068184
2853.700000008725,-0.07125614,-0.7574335,0.07486415,-2.3579,-0.04760256,1.4970514,0.71212095,0.03999974,0.04,-0.012183337066407063,0.012530196016462963,-0.017178515757088064,-0.07404107374462175,0.15444494628905034,-0.1306263182747298,0.9970576570564396,-0.02630280607449121,-0.05451185775902603,-0.047038795279969514
2853.716666675392,-0.073118925,-0.7567289,0.07681673,-2.3579414,-0.048846837,1.495123,0.7101936,0.03999973,0.04,-0.01110175715237638,0.012522916846977039,-0.017333796467577933,-0.07479915041128468,0.15713673994490807,-0.13190194229825336,0.996903602124847,-0.02696185429127277,-0.055992351866126666,-0.0481780345819615
2853.733333342059,-0.07500639,-0.75601494,0.078795224,-2.3579853,-0.050107643,1.4931692,0.7082407,0.039999742,0.04,-0.013104419829867986,0.012612553929208792,-0.0177472955107838,-0.07554131237481179,0.159827795494125,-0.13314731737189647,0.9967435056693826,-0.027627897269121248,-0.057496710594396566,-0.04932759338565478
2853.7500000087257,-0.07691839,-0.75529176,0.080799475,-2.358029,-0.051384844,1.4911897,0.7062624,0.039999735,0.04,-0.008482160924638826,0.012382137088682438,-0.01659195833665361,-0.07626765341590871,0.162514713248526,-0.1343597804313748,0.9965772947332467,-0.028300817214316966,-0.0590237227325153,-0.05048722137294026
2853.7666666753926,-0.07885485,-0.7545592,0.082829386,-2.3580725,-0.052678347,1.4891853,0.7042588,0.039999735,0.04,-0.008566968828338517,0.012376415997918805,-0.016157578968978292,-0.07697731658179921,0.16520533016003774,-0.13554209491667746,0.9964048337298904,-0.02898054771505144,-0.060573310369248394,-0.051656647633733156
2853.7833333420594,-0.0808156,-0.7538177,0.08488478,-2.3581161,-0.053988095,1.4871557,0.70223,0.039999723,0.04,-0.007997466046005819,0.012384864410688173,-0.016674862216614628,-0.07766965181408536,0.16790246833831463,-0.13669577476124345,0.9962259781514877,-0.029666958301093827,-0.06214556957385156,-0.05283559617922719
2853.8000000087263,-0.08280054,-0.75306684,0.086965494,-2.35816,-0.05531396,1.4851011,0.7001762,0.039999716,0.04,-0.00834697574878529,0.012417736924093259,-0.016430718839299807,-0.07834410657308395,0.17060224206073943,-0.13781725741897483,0.9960405812999308,-0.030359871651681754,-0.06374067994682206,-0.054023738457332236
2853.816666675393,-0.08480943,-0.752307,0.08907138,-2.358204,-0.056655847,1.4830217,0.69809747,0.0399997,0.04,-0.007344929535579858,0.01226523856743822,-0.01641536786540776,-0.07900134761567591,0.1733041789156473,-0.13890859171067543,0.9958485150848801,-0.031059246339012136,-0.0653584072483569,-0.055220800628475626
2853.83333334206,-0.08684217,-0.75153804,0.09120232,-2.3582478,-0.058013666,1.4809173,0.69599414,0.039999694,0.04,-0.007245598939031872,0.012246044864829692,-0.016595423888299266,-0.07964012429214559,0.1760078100607839,-0.13996919232007196,0.9956496251245539,-0.03176487078953961,-0.06699901706612121,-0.056426489215905956
2853.850000008727,-0.08889857,-0.7507601,0.0933581,-2.3582916,-0.059387293,1.4787885,0.6938663,0.039999682,0.04,-0.00670863717537884,0.012196941477286144,-0.016246282148180136,-0.08026076204124209,0.1787105754535374,-0.14099710230026843,0.9954437896290818,-0.032476649679528215,-0.06866223971137336,-0.05764048709287092
2853.866666675394,-0.09097848,-0.7499734,0.09553853,-2.358336,-0.060776625,1.4766355,0.691714,0.03999967,0.04,-0.006825748033789658,0.012235031354900644,-0.016521402418745446,-0.08086243751276659,0.18141497354720457,-0.1419926047713247,0.9952308640100455,-0.03319451056115418,-0.07034813704162389,-0.05886247875511672
2853.8833333420607,-0.09308174,-0.7491778,0.09774347,-2.3583813,-0.062181555,1.4744579,0.68953806,0.039999668,0.04,-0.007629422182020562,0.012209538366049488,-0.016992780608027225,-0.08144410737336814,0.18411806911968304,-0.14295528740086488,0.9950106786291713,-0.033917964735037734,-0.07205730420632711,-0.06009214584840336
2853.9000000087276,-0.095208175,-0.7483734,0.099972725,-2.3584285,-0.06360195,1.472257,0.687338,0.039999656,0.04,-0.008461777775070622,0.01222472550301626,-0.016602638763396627,-0.08200976972472884,0.18681572856903628,-0.14388529014812543,0.9947830907380035,-0.03464726525772162,-0.07378960525987743,-0.06132914109538459
2853.9166666753945,-0.09735756,-0.74756044,0.10222609,-2.3584774,-0.065037705,1.4700315,0.685114,0.03999965,0.04,-0.0077619807149709175,0.012154293381431286,-0.01780077947883818,-0.08255595809702565,0.18950490317439145,-0.1447852373152117,0.9945479242332008,-0.03538219631087497,-0.07554555939389482,-0.06257311757866565
2853.9333333420614,-0.09952972,-0.7467388,0.10450338,-2.3585272,-0.06648868,1.4677829,0.6828659,0.039999645,0.04,-0.006187140519320344,0.011999530146485082,-0.016165696274805796,-0.0830824484357089,0.1921808933059692,-0.14565185030370276,0.9943050983582459,-0.03612288868332279,-0.07732421647280545,-0.06382377173779501
2853.9500000087282,-0.10172449,-0.74590856,0.10680438,-2.358577,-0.0679548,1.4655108,0.680595,0.03999964,0.04,-0.004290573460119518,0.011904609953685558,-0.015941825667353804,-0.08358512558280398,0.19485159315583608,-0.1464799879115435,0.9940545206386271,-0.036868613987235704,-0.07912520003718179,-0.0650808575515531
2853.966666675395,-0.103941664,-0.7450699,0.10912887,-2.3586266,-0.06943581,1.4632154,0.6783008,0.03999963,0.04,-0.003466225701065362,0.011713270467249293,-0.016036577462164026,-0.08407008029228785,0.19751827450470705,-0.14727321484832037,0.9937960552252185,-0.0376195232627806,-0.08094844619937151,-0.06634396088705413
2853.983333342062,-0.10618101,-0.7442226,0.111476675,-2.3586762,-0.07093167,1.4608972,0.67598367,0.039999615,0.04,-0.0036886782364575765,0.011661679494024552,-0.015408801045513343,-0.08453373283119718,0.20018244236800145,-0.1480319876373214,0.9935295701921684,-0.038375486717384465,-0.08279387105130975,-0.06761279530760436
2854.000000008729,-0.10844234,-0.7433672,0.11384756,-2.358726,-0.07244219,1.4585563,0.67364365,0.039999608,0.04,-0.0031184755711732848,0.011553032554491999,-0.015998648494797152,-0.08497608612620482,0.2028414548275701,-0.1487551214470218,0.993254938011949,-0.03913638823449403,-0.08466139532794226,-0.06888700437647437
2854.0166666753958,-0.11072543,-0.74250376,0.116241306,-2.3587759,-0.073967256,1.4561929,0.67128104,0.0399996,0.04,-0.0023940422232637815,0.01146327332408742,-0.015720328491153346,-0.08539689229430232,0.205494590193005,-0.149445932800278,0.9929720406896647,-0.03990204022234946,-0.08655083985688884,-0.07016627191723998
2854.0333333420626,-0.113030076,-0.74163216,0.11865766,-2.3588254,-0.075506695,1.453807,0.6688962,0.039999597,0.04,-0.001824920847237621,0.011327932984608186,-0.015474292866080042,-0.08579474936377685,0.20814189477115094,-0.15009844233550879,0.9926807572286056,-0.04067222712207775,-0.08846213450286493,-0.07145022692874661
2854.0500000087295,-0.11535605,-0.74075186,0.12109642,-2.3588748,-0.07706038,1.4513991,0.6664892,0.039999582,0.04,-0.002015255443121866,0.01125051471420127,-0.014969513605889162,-0.0861715592959103,0.21078377774397178,-0.1507160467049098,0.9923809413807015,-0.04144691372280261,-0.09039542422693773,-0.07273848916522163
2854.0666666753964,-0.11770313,-0.7398636,0.12355733,-2.3589244,-0.07862816,1.4489695,0.66406053,0.039999563,0.04,-0.0016623501681189978,0.01115558729039845,-0.015337949425942021,-0.086526003350452,0.2134150170003692,-0.15129969239187618,0.9920724894478257,-0.042225773110265236,-0.09235045479880684,-0.07403075890795607
2854.0833333420633,-0.12007108,-0.73896736,0.12604012,-2.3589761,-0.080209896,1.4465181,0.66161025,0.039999556,0.04,-0.004315009562660954,0.01130995291639264,-0.016580710029767687,-0.08685846492933477,0.21603846931963455,-0.1518453653267952,0.9917551792809517,-0.04300873806573827,-0.09432825499997255,-0.07532657650564131
2854.10000000873,-0.122459635,-0.73806375,0.1285446,-2.359029,-0.0818054,1.4440453,0.6591385,0.039999545,0.04,-0.001871847295564777,0.010917483092665048,-0.015956564366814696,-0.08716950151992901,0.21864013632987878,-0.15235524557067381,0.9914289574008746,-0.043795716737500295,-0.09632789456431846,-0.0766256768405285
2854.116666675397,-0.12486857,-0.7371526,0.1310705,-2.359084,-0.083414525,1.4415513,0.65664583,0.039999533,0.04,-0.0028450672086233197,0.010959009154241917,-0.016225528561730762,-0.08745785272003143,0.22122873206210839,-0.15282941663781108,0.9910936659514845,-0.04458638830697154,-0.098349782863272,-0.0779276555488137
2854.133333342064,-0.12729765,-0.7362337,0.13361754,-2.359139,-0.085037075,1.4390365,0.6541321,0.039999522,0.04,1.2301307772411008e-05,0.010626665724877693,-0.01496885728049513,-0.08772466413229563,0.22379792765897547,-0.1532652939281169,0.9907492563122245,-0.045380791064285525,-0.10039301840305458,-0.07923217007679066
2854.150000008731,-0.12974666,-0.7353072,0.13618548,-2.3591943,-0.0866729,1.4365014,0.6515979,0.039999515,0.04,0.0004737052152536947,0.010492499524653032,-0.01455209996843454,-0.0879687607022401,0.2263550042367997,-0.1536723715149279,0.990395638365042,-0.046178639107161974,-0.10245729733830708,-0.08053890376607672
2854.1666666753977,-0.13221529,-0.7343733,0.13877404,-2.3592496,-0.088321865,1.4339457,0.6490434,0.039999522,0.04,0.0012722573572654383,0.010320762833160302,-0.014807804900462962,-0.08818959481304925,0.22889816337765687,-0.15403988706959462,0.9900326908767523,-0.046979791966297084,-0.104542616624755,-0.08184748897425108
2854.1833333420645,-0.13470334,-0.733432,0.141383,-2.359305,-0.08998374,1.4313699,0.64646876,0.03999951,0.04,0.001776844134826483,0.01008333496426983,-0.01440775801364591,-0.08838662902693925,0.2314267195852225,-0.15436926601233183,0.9896603259084227,-0.04778411854780416,-0.10664864736138971,-0.08315758145490941
2854.2000000087314,-0.13721049,-0.7324836,0.14401197,-2.3593602,-0.091658376,1.4287741,0.64387435,0.039999496,0.04,0.0023262221377162717,0.010031565319636171,-0.01454763820087912,-0.08856002623297513,0.2339425967170769,-0.15466114687920998,0.9892784429597833,-0.04859139947127209,-0.10877528288576405,-0.08446878728626497
2854.2166666753983,-0.13973644,-0.7315281,0.14666076,-2.3594158,-0.093345635,1.4261589,0.64126015,0.039999485,0.04,0.002282782570173225,0.009785166828725489,-0.01419175323578159,-0.08871033424839342,0.23644216434420995,-0.1549177188322661,0.9888869262968574,-0.04940167839702522,-0.11092240267216999,-0.08578077731137417
2854.233333342065,-0.142281,-0.73056555,0.14932905,-2.3594713,-0.09504529,1.4235245,0.63862693,0.039999474,0.04,0.0030969501701116897,0.009636980455803024,-0.013937892919613226,-0.08883507986033358,0.2389255525494584,-0.15513724892098743,0.9884857101023048,-0.05021450514133618,-0.11308969920387586,-0.08709319336739259
2854.250000008732,-0.14484389,-0.729596,0.15201665,-2.3595264,-0.09675716,1.4208713,0.6359747,0.03999946,0.04,0.004228878446221884,0.009308095880916634,-0.013403369713715918,-0.08893735251445152,0.2413933048719223,-0.15532126385265804,0.9880747196872354,-0.051029884870237165,-0.11527674985971874,-0.08840571308971645
2854.266666675399,-0.14742477,-0.7286197,0.15472314,-2.3595817,-0.098481074,1.4181992,0.6333039,0.039999444,0.04,0.00360369821583717,0.009300024058093992,-0.013922860601822684,-0.08901461573392266,0.24384599431321552,-0.15546808177945745,0.9876538272665423,-0.05184755865791989,-0.11748380748863604,-0.08971790860769024
2854.283333342066,-0.15002346,-0.7276365,0.15744826,-2.359637,-0.10021687,1.4155089,0.63061464,0.03999944,0.04,0.004283304320029657,0.009143504485641107,-0.013287638226922027,-0.08906855212715481,0.24627883201482337,-0.15557816783255157,0.987222963828353,-0.05266741030819463,-0.1197104955608619,-0.09102945036615051
2854.3000000087327,-0.1526396,-0.7266468,0.16019176,-2.3596938,-0.10196432,1.4128002,0.62790734,0.03999942,0.04,0.0026491806318640343,0.008996857987995932,-0.014368608076353873,-0.08909848002398614,0.24869308697034562,-0.15565349572571233,0.986781956927589,-0.053489251702471895,-0.12195741756843319,-0.09233990326238393
2854.3166666753996,-0.15527295,-0.7256507,0.1629533,-2.3597522,-0.10372326,1.4100738,0.6251821,0.039999407,0.04,0.002910129077116075,0.00893372637465889,-0.014161602703111065,-0.08910564797997104,0.25108001873262287,-0.15569431975828155,0.9863307298379049,-0.05431297825422826,-0.1242242785062881,-0.09364892097709238
2854.3333333420665,-0.15792316,-0.72464806,0.16573264,-2.3598127,-0.10549345,1.4073299,0.6224394,0.039999403,0.04,0.0022102573037807716,0.008685798019900104,-0.014025532332340163,-0.08908837001606648,0.25344024726800685,-0.15569642299895345,0.9858691602841351,-0.055138404919980684,-0.1265112504418791,-0.09495608782572527
2854.3500000087333,-0.16058993,-0.72363925,0.16852932,-2.3598733,-0.107274726,1.4045689,0.6196796,0.0399994,0.04,0.006297314647141228,0.008288803616861296,-0.012779858491662743,-0.08904780018238281,0.25576734186676114,-0.15566286438082141,0.9853973227727898,-0.055965287612641496,-0.1288168938706449,-0.09626115887610952
2854.3666666754,-0.163273,-0.7226243,0.17134318,-2.3599336,-0.10906683,1.4017911,0.6169029,0.039999377,0.04,0.006954863342634177,0.007880411882556226,-0.012327568745207351,-0.08898387109955819,0.25807437601649497,-0.15559700221713055,0.9849151562252717,-0.05679353445682035,-0.13114089410637017,-0.09756380155894141
2854.383333342067,-0.16597202,-0.7216034,0.17417379,-2.359994,-0.110869616,1.3989966,0.61410964,0.039999362,0.04,0.007069158767958328,0.007798663296380848,-0.012454076778256606,-0.08889510097526425,0.2603602367770984,-0.15549427517479708,0.9844225792266602,-0.057622957700674896,-0.13348318694470968,-0.09886363870321449
2854.400000008734,-0.16868679,-0.7205764,0.17702095,-2.3600543,-0.112682894,1.3961861,0.6113001,0.039999347,0.04,0.007292766083821789,0.007570041202074884,-0.01180835319105622,-0.08878256331624913,0.2626215570609028,-0.155356952101541,0.983919537396885,-0.058453425095713954,-0.13584345169949635,-0.1001603596920768
2854.416666675401,-0.17141688,-0.71954364,0.1798842,-2.3601143,-0.11450643,1.3933594,0.6084747,0.03999934,0.04,0.008186643653984582,0.007305322043181517,-0.01197728995603331,-0.0886452462983667,0.26485987452873927,-0.1551846243392847,0.98340597815516,-0.0592847196337067,-0.1382214860794789,-0.1014535604728888
2854.4333333420677,-0.17416206,-0.7185051,0.1827633,-2.3601742,-0.11634,1.390517,0.6056336,0.039999336,0.04,0.008484733024172186,0.0070344179183862154,-0.01156883327215752,-0.08848367603434261,0.2670717842273912,-0.15497717207172393,0.9828818504740381,-0.06011669590206315,-0.1406170164896051,-0.10274291000410475
2854.4500000087346,-0.17692201,-0.717461,0.18565789,-2.3602343,-0.118183404,1.3876593,0.60277724,0.039999317,0.04,0.008313296931050651,0.0068897788075228394,-0.01156596116380637,-0.08829914791126342,0.2692591123011383,-0.15473901127858322,0.9823470932205032,-0.06094919870682501,-0.14302987822248572,-0.10402806137713423
2854.4666666754015,-0.17969635,-0.7164115,0.18856768,-2.3602943,-0.12003647,1.3847867,0.59990585,0.039999302,0.04,0.00907761744852742,0.006532244843300561,-0.011152447955331546,-0.08809006529395508,0.2714171509691516,-0.1544650938325663,0.9818016752951815,-0.061782119574903545,-0.14545966565038415,-0.10530871643546717
2854.4833333420684,-0.18248484,-0.7153565,0.19149233,-2.3603542,-0.12189893,1.3818992,0.59702015,0.039999302,0.04,0.009667213669772856,0.006289596743075387,-0.010980037690466737,-0.08785628538123733,0.2735490596354177,-0.15415683447473458,0.9812455643234963,-0.06261506001333064,-0.1479061794569302,-0.10658451497963778
2854.5000000087352,-0.1852871,-0.7142962,0.19443145,-2.360414,-0.12377059,1.378998,0.5941199,0.03999929,0.04,0.009730989608702778,0.0061070844770125254,-0.01016799308990457,-0.08760075769052836,0.2756517325612167,-0.1538174148923388,0.9806787444019484,-0.06344819822062277,-0.15036888729803072,-0.10785510722041274
2854.516666675402,-0.18810278,-0.713231,0.19738476,-2.360474,-0.12565124,1.3760829,0.5912059,0.03999928,0.04,0.010048796413975047,0.005760290662684686,-0.010674794794707232,-0.08732004344306389,0.2777278134820237,-0.15344552684647106,0.9801011651301997,-0.06428113639081542,-0.1528477006926943,-0.1091202181435083
2854.533333342069,-0.19093166,-0.7121609,0.20035185,-2.3605344,-0.12754063,1.3731537,0.5882781,0.039999276,0.04,0.010204448401474053,0.0056662696739526175,-0.010723698029768691,-0.087016271447697,0.279773429977014,-0.15304089765331602,0.9795127591572614,-0.06511378286850561,-0.15534265026678656,-0.11037939543579957
2854.550000008736,-0.1937733,-0.71108574,0.20333241,-2.3605967,-0.12943858,1.3702118,0.5853371,0.039999265,0.04,0.00802863199882431,0.0055782817202421064,-0.010550646249862794,-0.0866894661106168,0.2817844496328311,-0.15260313310640605,0.9789134431293621,-0.06594602627654392,-0.1578537920513023,-0.11163231079743403
2854.5666666754028,-0.19662742,-0.71000594,0.20632608,-2.3606608,-0.13134484,1.3672558,0.5823832,0.03999926,0.04,0.008479063008315357,0.005361491322695977,-0.01193150117086983,-0.08633943760285981,0.2837581506822239,-0.15213417353806208,0.9783030896896242,-0.06677751641641033,-0.16038162418083252,-0.1128785304214634
2854.5833333420696,-0.19949368,-0.70892155,0.20933254,-2.360726,-0.1332592,1.3642881,0.5794165,0.039999258,0.04,0.010033855567015415,0.004940708513137548,-0.009448884988438877,-0.08596940314429273,0.2856860932772544,-0.1516338511255681,0.9776818608479726,-0.06760841397139664,-0.16292447585979586,-0.11411790610999056
2854.6000000087365,-0.20237175,-0.70783263,0.21235138,-2.3607912,-0.13518144,1.3613088,0.5764378,0.039999243,0.04,0.01241256535835511,0.004487483392591474,-0.008430705384809833,-0.08557550276156947,0.28757785367258704,-0.1511033852531732,0.9770498552714566,-0.06843832545193333,-0.16548143976400195,-0.11535020163395521
2854.6166666754034,-0.20526123,-0.7067395,0.21538231,-2.3608563,-0.13711132,1.3583175,0.5734471,0.039999228,0.04,0.01250340957770213,0.004116218660658866,-0.00903114396626492,-0.08515826809823598,0.28944180779794,-0.15054216869855086,0.9764069956360536,-0.06926718367830971,-0.16805263695751502,-0.11657507173438282
2854.6333333420703,-0.20816188,-0.70564216,0.21842486,-2.3609211,-0.13904864,1.3553145,0.57044476,0.039999213,0.04,0.013138296464965116,0.004004243180120992,-0.008581499032578321,-0.0847185677628233,0.29126991385012324,-0.1499519786314531,0.9757533043481308,-0.07009481810618987,-0.17063765443104167,-0.11779217469185577
2854.650000008737,-0.21107323,-0.7045407,0.22147875,-2.360986,-0.14099312,1.3522999,0.5674315,0.03999921,0.04,0.013024496832048094,0.0035578492131677075,-0.008587188262265677,-0.08425559339675205,0.293063065824207,-0.14932973735148827,0.9750887573167878,-0.07092093201133659,-0.17323638546088754,-0.11900122482349847
2854.666666675404,-0.21399504,-0.7034354,0.22454359,-2.3610508,-0.1429445,1.3492742,0.56440747,0.039999202,0.04,0.013452241761524597,0.0033330539576700846,-0.008350896612818737,-0.08377200443093519,0.29481892267207654,-0.14867874652918275,0.9744133732374137,-0.07174543498196043,-0.1758484476285852,-0.1202018888451868
2854.683333342071,-0.21692686,-0.70232624,0.22761907,-2.3611155,-0.14490256,1.3462387,0.56137305,0.039999194,0.04,0.014058151981521938,0.0028885649424881255,-0.006867861195947178,-0.08326744595479176,0.2965371023448973,-0.14800082557198382,0.9737272606222567,-0.07256830977211277,-0.17847285328971788,-0.12139399893125397
2854.700000008738,-0.21986847,-0.7012134,0.23070484,-2.3611798,-0.14686711,1.3431929,0.5583284,0.039999176,0.04,0.014412555371556834,0.0027233005160068324,-0.007490110461860766,-0.08274042246975302,0.2982228132877858,-0.14729629365409652,0.9730303628486017,-0.07338937688890505,-0.18110974300898758,-0.12257721371362433
2854.7166666754047,-0.22281939,-0.7000969,0.23380041,-2.3612444,-0.14883794,1.3401374,0.5552742,0.039999165,0.04,0.0138647005646364,0.0025668591539421137,-0.007234391113364325,-0.08219191678469928,0.299869104833129,-0.14656426687150925,0.9723226895606969,-0.07420836238067811,-0.18375893049731126,-0.12375120920910264
2854.7333333420715,-0.22577938,-0.69897705,0.23690547,-2.361309,-0.15081474,1.3370725,0.55221057,0.039999153,0.04,0.01470630545361562,0.002198303694103676,-0.006776260711349735,-0.08162314076537801,0.30147614806342204,-0.1458041940834719,0.9716043115652532,-0.0750252019115681,-0.18641979574645237,-0.12491573391606763
2854.7500000087384,-0.22874796,-0.697854,0.24001965,-2.3613737,-0.1527973,1.3339987,0.5491379,0.039999146,0.04,0.014978154638178864,0.001783436087635093,-0.00645270475112536,-0.08103354784627415,0.30304345474668637,-0.14501887230268132,0.9708752583810283,-0.07583982096145851,-0.1890919718340147,-0.12607053743055738
2854.7666666754053,-0.23172484,-0.6967279,0.24314258,-2.3614383,-0.15478544,1.3309163,0.54605675,0.03999913,0.04,0.015312803118705531,0.0016092158846583993,-0.006172938485571322,-0.08042227787960962,0.3045727955806724,-0.14420732300558867,0.9701355811505847,-0.07665192269725966,-0.19177506243861167,-0.12721541714390203
2854.783333342072,-0.2347097,-0.69559854,0.24627383,-2.3615026,-0.1567788,1.3278258,0.54296714,0.03999913,0.04,0.015594129798857104,0.0012672215913486773,-0.0054841200858524175,-0.07979115432179545,0.30606064027401586,-0.14336891880949315,0.9693853319685866,-0.07746155957581025,-0.19446868082982596,-0.12834997907496487
2854.800000008739,-0.23770215,-0.69446653,0.24941309,-2.361567,-0.1587773,1.3247272,0.5398698,0.039999124,0.04,0.015916591684850268,0.0010365397390285636,-0.005783418021487741,-0.07913920693067256,0.3075082889361117,-0.14250699783683826,0.9686245416776131,-0.07826837298020278,-0.1971725409631651,-0.12947412151080476
2854.816666675406,-0.24070175,-0.69333184,0.25256,-2.3616312,-0.16078052,1.321621,0.53676486,0.03999912,0.04,0.016333603136420294,0.00046795025334667173,-0.005142262275392717,-0.07846851979178268,0.3089141960432967,-0.14162048780651632,0.9678532862432812,-0.07907239589004435,-0.1998861484198861,-0.13058751925874357
2854.833333342073,-0.24370827,-0.69219434,0.25571403,-2.3616953,-0.16278833,1.318508,0.5336529,0.03999911,0.04,0.01604058338715575,0.0005773624016755519,-0.004431280006533811,-0.07777840422947001,0.3102780553818334,-0.1407119533267961,0.9670716472054266,-0.07987338029381702,-0.20260906489989985,-0.1316899355008209
2854.8500000087397,-0.24672121,-0.69105434,0.258875,-2.36176,-0.16480048,1.3153881,0.5305343,0.0399991,0.04,0.01571291968238686,3.399346509280754e-05,-0.005041841838426819,-0.07706992843819427,0.3116012833424089,-0.13978075557668113,0.9662795825505709,-0.08067121176294582,-0.2053413988558735,-0.13278115022285975
2854.8666666754066,-0.24974032,-0.68991214,0.26204234,-2.3618264,-0.16681662,1.3122619,0.5274092,0.03999909,0.04,0.014075982092509598,0.0002648716920045091,-0.005416645761924244,-0.07634368069030499,0.31287664387760716,-0.13882685381623946,0.9654770988157478,-0.08146580675785367,-0.20808316225256385,-0.13386071708530442
2854.8833333420735,-0.25276512,-0.68876785,0.26521572,-2.3618946,-0.16883662,1.3091295,0.5242783,0.03999908,0.04,0.014639535614757726,-0.00018596953994254317,-0.005304078709444937,-0.07560003858678088,0.3141007365136686,-0.1378516943175379,0.9646642416432917,-0.08225687690570807,-0.2108340569659778,-0.134928527449754
2854.9000000087403,-0.25579524,-0.68762136,0.26839486,-2.3619635,-0.1708602,1.3059918,0.5211417,0.03999907,0.04,0.015946145326584116,-0.0007552287843104466,-0.0036456301051979167,-0.07484156272677014,0.3152715937514159,-0.13685543803045264,0.9638411983633346,-0.08304454669104835,-0.21359301782877602,-0.13598444888002983
2854.916666675407,-0.25883052,-0.68647325,0.27157936,-2.3620327,-0.17288712,1.3028485,0.5179999,0.039999057,0.04,0.01723786446843345,-0.0010088399251609315,-0.0037910750129155346,-0.07406524433410355,0.3163942044331566,-0.1358398745689353,0.9630080850762496,-0.08382846597214152,-0.21635955775432827,-0.13702831145016667
2854.933333342074,-0.26187032,-0.6853232,0.27476865,-2.3621016,-0.17491716,1.2997005,0.51485336,0.03999905,0.04,0.01764860176201033,-0.0013773058732763355,-0.002456826963070924,-0.07327295108149842,0.31746978491533867,-0.1348036066754481,0.9621650541148882,-0.08460860545917763,-0.21913295135802416,-0.13805992232168388
2854.950000008741,-0.26491445,-0.68417144,0.27796245,-2.3621702,-0.17695005,1.2965482,0.51170236,0.039999045,0.04,0.017946907863031214,-0.0016532430237678475,-0.0021993760035199372,-0.07246446202616151,0.3185007500351029,-0.13374929491185672,0.9613122100643601,-0.0853848489566843,-0.22191274494228239,-0.13907909973105667
2854.966666675408,-0.26796246,-0.6830183,0.2811604,-2.362239,-0.17898543,1.2933921,0.5085475,0.039999034,0.04,0.017884672411638824,-0.0021278328602353236,-0.002080740170162798,-0.07163972212685699,0.3194864162875781,-0.13267602548629687,0.9604496527212449,-0.08615701622277394,-0.22469855086983453,-0.14008566800434968
2854.9833333420747,-0.27101392,-0.6818639,0.28436214,-2.3623073,-0.18102315,1.2902322,0.50538886,0.039999012,0.04,0.018318122995664154,-0.002404635710701042,-0.0016537111134473648,-0.07079873659516425,0.3204268854058606,-0.13158357059986014,0.9595774736384669,-0.08692512189816237,-0.22748995828138308,-0.14107946041058386
2855.0000000087416,-0.27406856,-0.68070817,0.28756723,-2.3623757,-0.183063,1.2870688,0.5022269,0.039998997,0.04,0.018009262194329523,-0.0025060268346477343,-0.0015426769441884147,-0.06994239116304456,0.32132091044607913,-0.13047487016849285,0.9586957361592562,-0.08768898118543486,-0.23028679830697388,-0.1420602638820774
2855.0166666754085,-0.27712598,-0.6795515,0.29077527,-2.362444,-0.18510468,1.2839025,0.49906206,0.039998982,0.04,0.01865709360644452,-0.0029204890581890908,-0.0010380701070733522,-0.06906360563558941,0.32216548816765905,-0.12933465148773343,0.9578046167404651,-0.08844844263508136,-0.2330883742597091,-0.1430279655558496
2855.0333333420754,-0.28018585,-0.67839366,0.29398578,-2.3625119,-0.18714789,1.2807338,0.4958948,0.039998956,0.04,0.018461790834689573,-0.0030868497676223017,-0.00040600569266580067,-0.06817132822766783,0.3229631093067513,-0.12818064859383413,0.9569042433969067,-0.08920338922753043,-0.23589429406141899,-0.14398231262408567
2855.0500000087422,-0.28324762,-0.67723525,0.29719844,-2.3625793,-0.18919244,1.277563,0.49272534,0.039998926,0.04,0.01928107030275683,-0.0036211323765023007,-0.00013524013389165646,-0.06726505396378742,0.3237125118502827,-0.12701027201375348,0.9559947642674702,-0.08995381154521771,-0.23870391182480977,-0.14492330717039703
2855.066666675409,-0.28631118,-0.6760763,0.30041292,-2.3626466,-0.19123806,1.2743905,0.48955423,0.039998885,0.03999995,0.018950002916651165,-0.0037005851427435177,0.00013899310742360171,-0.06634166653603218,0.32441583778418415,-0.12582121815185662,0.9550763006631166,-0.09069946250731444,-0.24151691512474435,-0.1458507700396802
2855.083333342076,-0.28937596,-0.6749169,0.30362874,-2.3627138,-0.19328447,1.2712168,0.4863817,0.03999884,0.03999977,0.01868796412878293,-0.004029391874410537,0.00041606179701503265,-0.06540421278880645,0.32507164604481953,-0.12461543364031394,0.9541489645677833,-0.09144037158063313,-0.2443329422405037,-0.14676452294584444
2855.100000008743,-0.2924417,-0.673757,0.30684552,-2.362781,-0.1953315,1.268042,0.48320827,0.03999879,0.039999552,0.01855884424979415,-0.004122955651911231,0.0006414254207776082,-0.06445153476470732,0.3256779700671164,-0.12339271242687191,0.9532128448260122,-0.09217634162791805,-0.24715180789030802,-0.1476644112822937
2855.1166666754098,-0.295508,-0.672597,0.31006294,-2.362848,-0.19737878,1.2648667,0.4800343,0.03999872,0.03999933,0.019148032786753255,-0.0046688459329397025,0.001241928760631339,-0.06348635380327437,0.3262338578958439,-0.12215646890033845,0.9522681574581346,-0.09290731282347497,-0.2499727376242582,-0.1485503886223266
2855.1333333420766,-0.29857424,-0.6714369,0.31328052,-2.362915,-0.19942622,1.2616911,0.47686014,0.039998647,0.039999112,0.01887045779676022,-0.0048937471505638985,0.0012521642708707148,-0.06251136469976028,0.3267415935403776,-0.12091079836389693,0.951314975604176,-0.09363325775211923,-0.25279555895922495,-0.1494223397101122
2855.1500000087435,-0.30164033,-0.670277,0.31649786,-2.3629818,-0.20147346,1.2585158,0.47368628,0.039998572,0.039998915,0.019281493797396188,-0.005025436627861812,0.0019666170829824026,-0.06152505965936974,0.32719822541298926,-0.1196556711417573,0.9503535441788833,-0.09435393985737496,-0.25561953305381474,-0.15028016975428204
2855.1666666754104,-0.30470574,-0.66911733,0.31971464,-2.3630483,-0.20352031,1.2553412,0.47051308,0.039998498,0.03999872,0.019256215683793876,-0.005450327337752636,0.0022627164058430793,-0.060529144324494986,0.3276050941484786,-0.11839026834500162,0.9493839762983481,-0.09506937034792158,-0.25844432649240595,-0.15112382496970458
2855.1833333420773,-0.3077702,-0.667958,0.32293043,-2.363115,-0.20556645,1.2521673,0.46734083,0.03999843,0.03999858,0.018608368740902215,-0.0055373349992032805,0.0021442852275788127,-0.059526903733968496,0.3279631133421993,-0.11712169089474408,0.9484063710390583,-0.09577943010498276,-0.2612698158622935,-0.15195308309005146
2855.200000008744,-0.31083328,-0.66679925,0.32614473,-2.3631816,-0.2076117,1.2489954,0.4641699,0.039998353,0.039998416,0.01928628013752043,-0.005754936184473869,0.003357354130306689,-0.05851466508574292,0.3282670056450478,-0.11584302834459756,0.9474210216394364,-0.09648410907215359,-0.264094998006471,-0.15276798251008392
2855.216666675411,-0.31389454,-0.6656412,0.32935727,-2.363248,-0.20965573,1.245825,0.46100077,0.03999827,0.039998274,0.019015633000418752,-0.006213439955524147,0.0029527782898775,-0.057495075344815696,0.32852401539451964,-0.11456023941636206,0.9464279929537975,-0.0971832534543588,-0.2669198668636109,-0.1535684019418867
2855.233333342078,-0.31695375,-0.66448367,0.3325676,-2.3633146,-0.21169832,1.242657,0.4578339,0.039998196,0.039998144,0.018708768285580213,-0.006220067567283549,0.0036602566667598424,-0.05646730184220062,0.3287279702341327,-0.11326989945284567,0.9454274698621379,-0.09787676204357004,-0.26974397658797006,-0.1543542217642634
2855.250000008745,-0.32001045,-0.6633273,0.33577532,-2.3633811,-0.2137392,1.2394911,0.4546695,0.03999811,0.039998002,0.019125990593682474,-0.006590303383063878,0.003522656280074976,-0.05543329940449273,0.32887984884612204,-0.11197356448440748,0.9444196306633804,-0.09856454490382226,-0.2725668713812795,-0.15512540839903627
2855.2666666754117,-0.32306427,-0.66217196,0.33898014,-2.3634474,-0.21577811,1.2363285,0.45150816,0.039998036,0.0399979,0.019177915941503976,-0.006964596129060974,0.00459937858519055,-0.05439487410664175,0.3289790765168144,-0.11067511494070531,0.9434047149897338,-0.09924659438699687,-0.27538781972580795,-0.1558820258541312
2855.2833333420785,-0.32611483,-0.66101795,0.3421816,-2.3635135,-0.21781495,1.2331694,0.44835013,0.039997958,0.039997797,0.019280511682606694,-0.007006550692884028,0.004862123271498486,-0.05334932493743309,0.32902911647643884,-0.10937131739076786,0.9423829054818704,-0.09992283907339498,-0.278206373384574,-0.15662407061260875
2855.3000000087454,-0.32916182,-0.65986514,0.34537926,-2.3635793,-0.21984936,1.230014,0.44519573,0.03999788,0.039997697,0.01899434438334957,-0.007232257218253713,0.004982595004587864,-0.052297399657842025,0.3290295782047309,-0.10806244826368619,0.9413543345043577,-0.10059319942676319,-0.2810223851611593,-0.15735133992844907
2855.3166666754123,-0.33220476,-0.65871394,0.34857276,-2.3636448,-0.22188109,1.2268628,0.44204554,0.039997805,0.03999761,0.019153756487266804,-0.007574429987472486,0.005495463045723792,-0.051240806499400576,0.3289766172258275,-0.10675043763606278,0.9403192619572546,-0.10125758170373879,-0.2838351268107176,-0.15806393810106845
2855.333333342079,-0.33524334,-0.6575644,0.35176176,-2.3637104,-0.22390988,1.2237158,0.43889993,0.039997745,0.03999754,0.018738817697538934,-0.0077444974602020045,0.005284719158782369,-0.05017947487471164,0.32887427057037183,-0.10543546656507802,0.9392777877803257,-0.10191585074668538,-0.286644552982875,-0.1587617617511363
2855.350000008746,-0.33827716,-0.65641665,0.35494578,-2.3637757,-0.22593549,1.2205733,0.43575913,0.039997667,0.039997462,0.018964903478435602,-0.007976056293310108,0.005769296880631103,-0.04911541854342826,0.32871816911053736,-0.10411806538434887,0.9382301329394477,-0.10256802513194882,-0.28945014354607407,-0.15944476242923614
2855.366666675413,-0.3413059,-0.6552707,0.35812452,-2.363841,-0.22795767,1.2174362,0.4326236,0.039997593,0.039997388,0.01839927499998062,-0.008096485366149153,0.006347054340105629,-0.04804780732304868,0.32851007665836923,-0.10279810770240923,0.9371764987626955,-0.10321406563267388,-0.29225143711490564,-0.1601129736365602
2855.38333334208,-0.3443292,-0.654127,0.36129758,-2.3639061,-0.2299762,1.2143052,0.42949378,0.03999752,0.039997317,0.01889094291196436,-0.008341724136615158,0.0069841613387633394,-0.046976771570873314,0.3282482395024043,-0.1014760804871197,0.9361171960626853,-0.10385388808467667,-0.2950475918344732,-0.1607665503707454
2855.4000000087467,-0.3473467,-0.65298545,0.3644645,-2.3639712,-0.23199083,1.2111797,0.42636994,0.039997455,0.03999725,0.018328536670986217,-0.008452871347575108,0.006528860563881356,-0.045901874246679214,0.3279394934201667,-0.10015193800274438,0.9350522827631227,-0.1044874061237449,-0.2978388009288001,-0.1614052636139834
2855.4166666754136,-0.35035798,-0.65184647,0.36762494,-2.3640363,-0.23400128,1.208061,0.4232525,0.03999739,0.039997198,0.01838180136524148,-0.008719015143426878,0.007312296418571229,-0.044827260376130905,0.32757460979475594,-0.09882835024416181,0.9339820730611857,-0.10511461864618504,-0.3006242017792909,-0.16202929812771893
2855.4333333420805,-0.35336262,-0.6507099,0.37077847,-2.3641012,-0.23600733,1.2049496,0.4201418,0.03999734,0.03999715,0.018308432653335593,-0.008902139725699976,0.00817085710941301,-0.04374949263504363,0.32716121501291817,-0.09750339443902913,0.9329068190980605,-0.10573560070251836,-0.3034032117686849,-0.16263868147787836
2855.4500000087473,-0.3563604,-0.64957607,0.3739248,-2.364166,-0.23800875,1.2018448,0.41703832,0.039997272,0.039997086,0.018088752827205568,-0.009046266984877316,0.0072925008123170265,-0.042669074984927745,0.326697658688268,-0.0961785604988905,0.9318265850356998,-0.10635002665597879,-0.3061760403345832,-0.16323332863117726
2855.466666675414,-0.35935092,-0.64844483,0.37706354,-2.3642309,-0.24000528,1.1987474,0.41394243,0.039997213,0.039997038,0.017722392107444307,-0.009241623088346307,0.00805472517484418,-0.04158983750083801,0.32618105587077684,-0.09485430324051647,0.9307416098040048,-0.10695799468711799,-0.3089421438562557,-0.16381329281062804
2855.483333342081,-0.36233354,-0.6473164,0.38019434,-2.3642955,-0.24199668,1.1956578,0.4108545,0.039997153,0.03999698,0.017898102217506207,-0.009699392738032886,0.008641955736921059,-0.04051076386529284,0.3256099547429513,-0.09353085075755235,0.9296521505460099,-0.10755959294613117,-0.3117009078392495,-0.16437869996635604
2855.500000008748,-0.3653083,-0.64619106,0.3833166,-2.36436,-0.24398275,1.1925769,0.4077748,0.039997093,0.03999693,0.017579738391004796,-0.00921419538601198,0.008871636463958499,-0.039430759080270196,0.3249883126629979,-0.0922085825676066,0.9285584915841812,-0.10815458536744546,-0.31445184447613794,-0.16492953306324745
2855.516666675415,-0.36827475,-0.64506894,0.38643023,-2.3644247,-0.2459632,1.189505,0.40470377,0.039997034,0.039996877,0.017337331989053517,-0.009768003357543686,0.00933270521413787,-0.038352394108510136,0.32431652926374843,-0.09088917300341699,0.9274608364883505,-0.10874309809619523,-0.3171945043844033,-0.1654659535526964
2855.5333333420817,-0.37123227,-0.6439502,0.38953465,-2.364489,-0.24793775,1.1864414,0.40164176,0.039996985,0.039996836,0.0176445296341754,-0.010095694054021442,0.008914975853235863,-0.037274412065216506,0.32359410548236767,-0.08957146060922203,0.9263593424040819,-0.10932498520209126,-0.31992880817791625,-0.1659878731989099
2855.5500000087486,-0.37418061,-0.6428349,0.39262938,-2.3645532,-0.24990627,1.1833875,0.39858928,0.039996937,0.03999679,0.017271481375491504,-0.009908576137834801,0.009966949446171824,-0.03619854521361748,0.32281983019437005,-0.08825675779651115,0.9252543477243346,-0.10990022222454376,-0.32265398250339583,-0.16649546764675083
2855.5666666754155,-0.37711954,-0.6417232,0.39571428,-2.3646173,-0.25186837,1.1803435,0.3955464,0.039996896,0.03999676,0.016813197144127656,-0.01022195559694239,0.009956610115280373,-0.03512555375945589,0.3219964884977027,-0.08694591754185367,0.9241460266136617,-0.11046891344239816,-0.3253697929179485,-0.1669887376848165
2855.5833333420824,-0.38004857,-0.6406151,0.398789,-2.3646812,-0.25382406,1.1773099,0.39251375,0.03999686,0.03999673,0.016821571840663907,-0.010314772527808547,0.010596080284797083,-0.03405393599097655,0.32112259037929314,-0.08563902284929292,0.923034615378961,-0.11103100638021021,-0.32807575294673713,-0.1674679514499497
2855.6000000087492,-0.38296753,-0.63951087,0.40185308,-2.364745,-0.2557729,1.1742862,0.38949156,0.039996814,0.039996695,0.016789769326241988,-0.01047819539489736,0.010196941877171906,-0.032985278705721634,0.3201990171520148,-0.08433662667501318,0.9219203151550118,-0.11158633462029985,-0.3307717309975164,-0.1679329759261027
2855.616666675416,-0.385876,-0.63841057,0.40490612,-2.3648086,-0.25771475,1.1712734,0.3864803,0.039996784,0.039996665,0.01622606285833772,-0.010404243987949258,0.010583743440850668,-0.03192073676883995,0.31922447912116864,-0.08303833672377453,0.9208033626194888,-0.11213488181902502,-0.3334573104020745,-0.16838395947206503
2855.633333342083,-0.38877356,-0.6373143,0.40794787,-2.364872,-0.2596493,1.1682718,0.3834802,0.039996758,0.039996643,0.016208113759730303,-0.010801814009228639,0.011256813860349713,-0.03086144463475999,0.3181996382896599,-0.08174513923144625,0.9196840394286225,-0.11267681773668282,-0.33613190396669534,-0.16882104578727886
2855.65000000875,-0.39165986,-0.6362223,0.41097778,-2.3649354,-0.26157632,1.1652818,0.38049167,0.039996725,0.039996617,0.015766599260169656,-0.010721804366817245,0.011182299949008545,-0.02980645698122647,0.3171255948922685,-0.08045829105765571,0.9185625703941502,-0.11321201513884636,-0.338795256101284,-0.16924425645308858
2855.6666666754168,-0.3945347,-0.63513494,0.4139957,-2.3649986,-0.26349562,1.1623045,0.37751505,0.03999669,0.039996587,0.01593648539073289,-0.010873189406770956,0.012188504721410975,-0.028756633199677265,0.3160014686355434,-0.07917805828648308,0.9174393435615452,-0.1137405582308236,-0.3414464325515666,-0.16965397135496146
2855.6833333420836,-0.39739764,-0.63405186,0.4170012,-2.3650615,-0.265407,1.1593391,0.37455082,0.039996658,0.03999656,0.015510546525754343,-0.010997032209084101,0.011577039037524717,-0.027710448108386923,0.3148347379649492,-0.07790378825720311,0.9163143955972193,-0.11426227531249565,-0.34408580931270477,-0.17005004172694338
2855.7000000087505,-0.40024835,-0.63297355,0.41999382,-2.3651245,-0.26731026,1.1563859,0.3715992,0.039996643,0.039996546,0.015282754628609396,-0.010972651229124164,0.011591432035118476,-0.026670979001720066,0.31361640900059207,-0.07663572085197251,0.9151879861913849,-0.1147771571703164,-0.3467129517125364,-0.17043263548287435
2855.7166666754174,-0.40308648,-0.63189995,0.4229733,-2.365187,-0.26920506,1.1534464,0.36866057,0.039996628,0.039996535,0.015213463178231912,-0.011218106909080539,0.013126566534038542,-0.02563987320555397,0.3123485310426115,-0.0753750698726814,0.9140605511082228,-0.11528541390495418,-0.3493268630628629,-0.17080200523165712
2855.7333333420843,-0.40591177,-0.6308312,0.42593923,-2.3652492,-0.2710913,1.15052,0.3657353,0.039996605,0.039996516,0.014902352833545685,-0.011115008614004385,0.012312638742373316,-0.024613522181908216,0.3110387289247605,-0.07412271556019236,0.9129321658562727,-0.1157868206161617,-0.35192778104910805,-0.17115814220313
2855.750000008751,-0.40872368,-0.62976736,0.42889133,-2.3653114,-0.2729688,1.1476072,0.3628236,0.03999659,0.039996505,0.014287481693142645,-0.01132743155931315,0.012698416063861018,-0.023595310458053638,0.30967973922613873,-0.07287753819890459,0.9118030555651596,-0.11628159436073127,-0.3545153003668726,-0.17150125504132882
2855.766666675418,-0.4115221,-0.6287086,0.4318293,-2.3653736,-0.27483717,1.1447082,0.35992604,0.039996576,0.03999649,0.014023927652151436,-0.01138546687234343,0.012622256461436443,-0.02258438071709453,0.30827280309498617,-0.0716409880318038,0.9106734549160997,-0.11676952693288946,-0.3570892187607507,-0.17183138809856638
2855.783333342085,-0.41430664,-0.6276552,0.43475276,-2.3654356,-0.27669623,1.1418234,0.35704285,0.03999657,0.03999649,0.014164623197565618,-0.011470380700562277,0.013149131906009526,-0.021583219007921983,0.30681752158142883,-0.07041396979721902,0.9095436962949945,-0.11725068534584801,-0.3596489094978561,-0.17214878220007962
2855.800000008752,-0.41707698,-0.6266073,0.43766132,-2.365497,-0.2785458,1.1389536,0.35417432,0.039996557,0.03999648,0.014130961433189704,-0.011542081166276974,0.013736864479518829,-0.020590037754100215,0.3053173543920545,-0.06919508564096845,0.9084140991548397,-0.11772514100852834,-0.36219381311623905,-0.17245363832503588
2855.8166666754187,-0.41983283,-0.62556493,0.4405547,-2.3655584,-0.28038564,1.1360986,0.35132074,0.039996546,0.03999647,0.013573068792505083,-0.011563502643494039,0.013519008104778685,-0.019605629831641755,0.303774164312859,-0.067985729747405,0.9072848151954629,-0.11819286951840147,-0.3647238916112253,-0.17274603497245392
2855.8333333420856,-0.42257386,-0.6245282,0.44343248,-2.365619,-0.2822156,1.1332589,0.34848255,0.039996542,0.03999647,0.013874440557049006,-0.011613135452556711,0.01407776653939985,-0.018630649686189597,0.30218547982284305,-0.06678601821301769,0.9061561872436525,-0.11865382675609279,-0.3672385771269414,-0.17302618641685824
2855.8500000087524,-0.42529976,-0.6234972,0.44629437,-2.3656793,-0.28403547,1.1304352,0.34566012,0.039996535,0.039996464,0.012855137522471694,-0.011510791557423072,0.014256202749507452,-0.017664295401744724,0.30055590465185933,-0.06559547711065761,0.9050284141367406,-0.11910809154248063,-0.36973764631262857,-0.17329427293895774
2855.8666666754193,-0.4280101,-0.62247187,0.44914004,-2.3657393,-0.28584498,1.1276277,0.34285352,0.039996535,0.039996464,0.012496110686410766,-0.01168991176823675,0.01440560607851582,-0.016709137311246375,0.2988836351991411,-0.06441535145230412,0.9039017134395396,-0.11955585136756186,-0.37222085095798635,-0.17355036432388882
2855.883333342086,-0.43070465,-0.62145257,0.45196927,-2.3657992,-0.28764406,1.1248364,0.34006333,0.03999653,0.039996464,0.012469760877076297,-0.011693667291778898,0.014271752252292824,-0.015763090598536988,0.2971661555004994,-0.06324692001886983,0.9027763060384926,-0.11999690396454683,-0.37468795306909536,-0.17379477011495117
2855.900000008753,-0.43338314,-0.62043947,0.45478162,-2.365859,-0.28943238,1.1220618,0.33728978,0.039996546,0.03999648,0.011877284149597322,-0.011614102528276216,0.01432064030419955,-0.014827003222895575,0.2954071130150846,-0.06208746820953798,0.9016524533535296,-0.1204312940671149,-0.377138659831175,-0.17402754963403502
2855.91666667542,-0.43604523,-0.6194325,0.45757684,-2.3659189,-0.29120973,1.1193041,0.33453313,0.039996557,0.03999649,0.011469484535120422,-0.011690353500162787,0.01440702660281401,-0.013902258437821044,0.29360690641553744,-0.06093914870433282,0.9005303415289434,-0.12085908749660697,-0.37957282974292844,-0.17424882173546571
2855.933333342087,-0.4386906,-0.61843187,0.46035454,-2.3659782,-0.29297593,1.1165639,0.33179384,0.039996564,0.0399965,0.011685377760017879,-0.011724180422201247,0.015301358269437237,-0.01299050500811938,0.29176137237910715,-0.05980287299284296,0.8994103885010347,-0.12128030880755993,-0.3819896835225674,-0.17445893910685603
2855.9500000087537,-0.44131908,-0.61743766,0.4631145,-2.3660376,-0.29473087,1.1138408,0.32907206,0.03999657,0.039996512,0.011048007325586973,-0.011642839819198114,0.014377316441382959,-0.012089185500023594,0.28987778816088455,-0.05867775166768627,0.8982926137891392,-0.12169488246110265,-0.384389579510423,-0.17465791352943355
2855.9666666754206,-0.4439302,-0.61645,0.46585628,-2.3660967,-0.29647422,1.111136,0.32636806,0.039996576,0.039996516,0.010798309234782977,-0.01170371185803265,0.015378556608458549,-0.011201540991727495,0.28795025165108906,-0.057564075404293376,0.8971774463110866,-0.12210302695399596,-0.386771709387415,-0.17484600497845518
2855.9833333420875,-0.44652382,-0.615469,0.46857968,-2.3661554,-0.29820582,1.1084492,0.3236823,0.03999658,0.039996523,0.01082116073867212,-0.011762826054370623,0.015396426353742054,-0.010324976546821206,0.2859843819814357,-0.056462332587577276,0.8960651031406007,-0.12250462636218062,-0.3891358988648488,-0.17502342605529486
2856.0000000087543,-0.44909963,-0.6144947,0.47128433,-2.366214,-0.2999256,1.1057808,0.3210149,0.03999661,0.039996553,0.010037171999943695,-0.011499702401854273,0.015083789495140554,-0.009461010021465915,0.28398040815241576,-0.055372496552487625,0.8949557269087024,-0.12289973798535621,-0.39148213819608396,-0.17519028725893745
2856.016666675421,-0.45165733,-0.6135273,0.47397006,-2.3662724,-0.30163324,1.1031313,0.3183663,0.039996628,0.03999657,0.009960681930265558,-0.011755927613552042,0.015542496232834324,-0.00861081272008176,0.28193556375716844,-0.054295109413702386,0.8938496341054656,-0.12328842646434875,-0.3938099357325785,-0.17534688485334576
2856.033333342088,-0.45419657,-0.61256665,0.47663647,-2.3663306,-0.30332854,1.1005008,0.3157368,0.039996654,0.0399966,0.009428613348472226,-0.011664558235388589,0.01570423015668787,-0.007774421123938197,0.27985272159692404,-0.0532304124530767,0.892747035828764,-0.12367073213237473,-0.39611914477570526,-0.17549331376141317
2856.050000008755,-0.4567172,-0.6116133,0.4792834,-2.3663886,-0.30501142,1.0978893,0.31312662,0.039996676,0.039996624,0.009591732419522714,-0.01171906572543513,0.015357453862407944,-0.006951034361641878,0.2777312437078817,-0.05217789787828724,0.8916481469569023,-0.12404658092747836,-0.3984095600576256,-0.17562986717302392
2856.066666675422,-0.45921883,-0.610667,0.48191047,-2.3664465,-0.3066816,1.0952975,0.310536,0.039996702,0.03999665,0.008651487407673741,-0.01159097487828109,0.01570055548651972,-0.006141734605893755,0.2755722886358478,-0.051137439593195194,0.8905531966120098,-0.12441616906328717,-0.40068094822592826,-0.1757566459867668
2856.0833333420887,-0.46170127,-0.6097281,0.48451737,-2.3665013,-0.3083389,1.0927259,0.30796525,0.03999673,0.039996676,0.011922079638115868,-0.012297785250112159,0.018395543197513575,-0.005346541821755268,0.27337638359204525,-0.05011061830266605,0.8894630401718201,-0.1247795688795197,-0.4029314715440686,-0.1758743545769983
2856.1000000087556,-0.46416417,-0.6087966,0.48710385,-2.3665552,-0.30998328,1.090174,0.30541474,0.039996747,0.039996695,0.009339074744740827,-0.011807811006009361,0.016192959215910463,-0.0045608346492166316,0.2711592838677448,-0.049096087826383646,0.888377391950218,-0.1251366472573122,-0.4051622674759178,-0.17598285711597145
2856.1166666754225,-0.46660733,-0.6078725,0.48966977,-2.3666081,-0.31161457,1.087643,0.30288455,0.03999677,0.039996717,0.00868776833513607,-0.01164227636124282,0.017124917140243223,-0.0037902998746773484,0.2689074943044161,-0.04809357370156407,0.8872965886640742,-0.12548771960144703,-0.4073727415558822,-0.1760824960396965
2856.1333333420894,-0.4690306,-0.6069559,0.49221462,-2.36666,-0.3132325,1.0851325,0.30037495,0.039996795,0.039996743,0.008575980282721218,-0.011508377004390558,0.016459102208354892,-0.003030754179806871,0.2666271714963921,-0.047103854891087205,0.8862207976860603,-0.1258325842545544,-0.40956301154281294,-0.17617320472899645
2856.1500000087563,-0.4714336,-0.60604674,0.49473825,-2.3667114,-0.31483695,1.0826432,0.29788634,0.03999682,0.03999677,0.0077216707316196675,-0.011441848693230505,0.01687770611729089,-0.0022867458084191335,0.26431384969412386,-0.04612788145363486,0.8851502483486723,-0.12617141627904707,-0.4117327789176501,-0.17625529872084061
2856.166666675423,-0.4738161,-0.60514534,0.49724042,-2.3667626,-0.31642774,1.0801748,0.29541892,0.039996862,0.03999681,0.006901565118599962,-0.011346652339605523,0.015939989797897347,-0.0015561029859847558,0.26197037374864984,-0.045165487340735146,0.8840849890742639,-0.1265041729327587,-0.4138822924694959,-0.1763288810840465
2856.18333334209,-0.47617796,-0.60425186,0.49972084,-2.3668137,-0.3180046,1.0777277,0.2929729,0.0399969,0.039996848,0.0068886104902299294,-0.011283640760925695,0.016102782072857647,-0.0008415648613000135,0.2595912121978502,-0.044216279665724154,0.8830253219561234,-0.12683083815551563,-0.41601122343069236,-0.1763941077722066
2856.200000008757,-0.4785188,-0.60336614,0.50217944,-2.3668642,-0.3195675,1.0753024,0.29054868,0.03999694,0.03999689,0.006559543090700615,-0.011409982276050501,0.016786277363922686,-0.00014316257128271087,0.25718087750306284,-0.043280690143889175,0.8819714810492123,-0.12715161124186794,-0.4181192186713033,-0.17645139090456213
2856.2166666754238,-0.48083848,-0.6024892,0.50461584,-2.3669145,-0.32111627,1.0728991,0.28814623,0.039996985,0.039996933,0.006746235592758332,-0.011281540744140228,0.016260837414672213,0.0005406590934083876,0.2547395520122065,-0.04235813125948913,0.8809237810636582,-0.12746644303906418,-0.42020588613860266,-0.17650102297139397
2856.2333333420906,-0.48313677,-0.6016202,0.5070298,-2.3669646,-0.32265085,1.0705179,0.28576598,0.03999701,0.03999696,0.005850311071986525,-0.01096146351154681,0.016415070312325586,0.0012104949915621756,0.25227141572503975,-0.041447916507185156,0.879882288248877,-0.12777536271320725,-0.4222714494823437,-0.17654302155992715
2856.2500000087575,-0.48541346,-0.6007592,0.5094209,-2.3670146,-0.32417098,1.0681591,0.28340816,0.039997045,0.039996993,0.005143621745329341,-0.010778697357835543,0.016350373668483353,0.0018639508816990086,0.24977197555238978,-0.040550888957208944,0.8788472106298216,-0.12807843403401248,-0.4243157957135689,-0.17657746348709946
2856.2666666754244,-0.4876683,-0.59990627,0.511789,-2.3670645,-0.3256765,1.065823,0.2810729,0.03999708,0.039997026,0.005065714700513979,-0.010876765290759871,0.016617862434220587,0.002500820652159952,0.2472429683306767,-0.03966777224882585,0.8778187744688657,-0.12837581076265453,-0.4263386702913611,-0.17660461096812843
2856.2833333420913,-0.48990107,-0.599062,0.5141341,-2.3671143,-0.32716727,1.0635093,0.27876052,0.03999712,0.039997067,0.005036420738657732,-0.011008334616469106,0.0160211272000943,0.0031212199804923693,0.24468287388046384,-0.03879913671601375,0.8767971662780403,-0.12866738481287662,-0.42833995190342133,-0.17662479694422423
2856.300000008758,-0.49211144,-0.5982261,0.5164561,-2.367164,-0.3286432,1.061219,0.27647123,0.039997157,0.039997105,0.004465164426403767,-0.011054153075970574,0.01685862324340981,0.0037258173805032775,0.24209589534268283,-0.03794305176424356,0.875782587622526,-0.12895348220635786,-0.4303193626490552,-0.17663834457262653
2856.316666675425,-0.49429944,-0.5973988,0.51875424,-2.3672135,-0.33010405,1.0589517,0.2742052,0.03999721,0.039997153,0.004290642392978938,-0.01039206992281827,0.016099438878636185,0.004316256612840998,0.23948123114377695,-0.03709939746026268,0.8747753176414481,-0.12923379318967118,-0.43227684011028866,-0.17664513536289914
2856.333333342092,-0.4964647,-0.59657985,0.5210286,-2.3672626,-0.33154985,1.0567082,0.2719627,0.039997242,0.03999719,0.004050078615880359,-0.01058605056654116,0.017078923236257815,0.004887490015159774,0.2368399954852778,-0.03627071053396077,0.8737755463408029,-0.12950868011355812,-0.4342120691475963,-0.17664562094385125
2856.350000008759,-0.49860713,-0.59576976,0.5232791,-2.3673117,-0.33298028,1.0544883,0.26974368,0.039997287,0.03999723,0.0036333865961912792,-0.010688892737745204,0.016284106316977187,0.005444226921529606,0.23417366278957524,-0.035455110342824364,0.8727834060492119,-0.12977814804310384,-0.4361250936639811,-0.17663991930541198
2856.3666666754257,-0.5007264,-0.5949682,0.5255054,-2.3673606,-0.33439544,1.0522927,0.26754865,0.039997328,0.039997272,0.0032390969514572987,-0.010364631355824772,0.017019854769040332,0.005985628985996222,0.23148228386061453,-0.03465324426996453,0.8717991394848027,-0.1300423111349045,-0.43801559319123906,-0.1766284173896634
2856.3833333420926,-0.5028225,-0.5941756,0.5277073,-2.3674095,-0.33579504,1.0501205,0.2653776,0.039997373,0.039997317,0.0032246638999033905,-0.01027976841080358,0.015755301620545836,0.006512455293557148,0.2287685058796856,-0.03386405895412939,0.8708228221698195,-0.13030092005174543,-0.439883901394706,-0.17661097337264164
2856.4000000087594,-0.50489527,-0.59339184,0.5298845,-2.367458,-0.33717903,1.0479728,0.26323083,0.039997432,0.039997377,0.0028346071402118866,-0.010115966458026926,0.016754576128286125,0.00701964760691472,0.22602737316967875,-0.033088761091448204,0.8698547971983258,-0.1305542411029841,-0.4417294286155424,-0.17658803418145183
2856.4166666754263,-0.5069445,-0.59261686,0.532037,-2.3675032,-0.33854732,1.0458493,0.2611084,0.039997485,0.039997425,0.006123082759224019,-0.011020831764360639,0.01910171285266493,0.007512189907271885,0.22326557920019713,-0.03232638483715047,0.8688957517323008,-0.1308024167519264,-0.44355090266903235,-0.1765601799243013
2856.433333342093,-0.50896984,-0.591851,0.53416467,-2.3675468,-0.33989975,1.0437505,0.25901046,0.039997533,0.03999747,0.0036547415072307743,-0.010524305106821008,0.017519459397508097,0.007992354531336045,0.22049496132310747,-0.031576969025217935,0.8679455374902194,-0.13104553918266917,-0.4453489275687345,-0.17652745770705447
2856.45000000876,-0.5109713,-0.5910942,0.53626704,-2.3675895,-0.34123614,1.0416769,0.25693738,0.03999759,0.039997526,0.0026737111223029686,-0.009976084785606742,0.017288871166798447,0.008458663848988114,0.21770915618613695,-0.03084045384483206,0.8670043350382503,-0.13128354936737882,-0.447123498890127,-0.17648991311300158
2856.466666675427,-0.5129487,-0.59034663,0.53834444,-2.367631,-0.34255645,1.039628,0.25488925,0.039997645,0.039997578,0.0028561889875211577,-0.010428982040755486,0.017155331286944353,0.008910054092530708,0.21490814675590927,-0.03011718792606457,0.8660722177597258,-0.13151656062569544,-0.44887463743366485,-0.176447918023234
2856.483333342094,-0.51490164,-0.5896081,0.5403962,-2.3676724,-0.34386066,1.0376042,0.2528662,0.039997697,0.039997626,0.001169612242257756,-0.009601565631417452,0.016233165363421787,0.009347304686939695,0.21209166749543762,-0.02940615172996964,0.8651491433916766,-0.1317446192754185,-0.45060280122520363,-0.1764013336361797
2856.5000000087607,-0.5168304,-0.5888787,0.54242235,-2.367714,-0.34514865,1.0356057,0.25086838,0.039997756,0.039997686,0.0009497327852159287,-0.009351240696936491,0.016176287563252068,0.00976826263315567,0.20925499143068144,-0.02870852042859253,0.8642353076216848,-0.13196767279419896,-0.4523078783351569,-0.1763503603435056
2856.5166666754276,-0.51873446,-0.5881587,0.5444228,-2.3677554,-0.34642017,1.0336323,0.24889587,0.03999781,0.039997738,0.000820503738152567,-0.009779735507370324,0.015955564605341088,0.010172037456343996,0.20639947821425864,-0.02802370613357798,0.8633308414571943,-0.13218590134482935,-0.45398980250228177,-0.1762952208609388
2856.5333333420945,-0.5206141,-0.587448,0.54639757,-2.3677967,-0.3476753,1.0316845,0.24694891,0.03999787,0.039997794,0.0006029678744301492,-0.00934766574527679,0.016399745953243894,0.010560750615669662,0.20352614862285673,-0.02735175773471027,0.8624359460243544,-0.13239930062542776,-0.45564839648612726,-0.17623621358448233
2856.5500000087613,-0.52246886,-0.58674663,0.5483464,-2.367838,-0.3489138,1.0297624,0.24502757,0.039997924,0.039997846,0.00013440639441419933,-0.009448447633361723,0.016054336402382408,0.010933250506004267,0.20063501451737223,-0.02669183504441091,0.8615507288767362,-0.13260803009718808,-0.457283690651815,-0.1761734321331202
2856.566666675428,-0.52429867,-0.5860547,0.550269,-2.367879,-0.35013574,1.027866,0.24313197,0.039997976,0.039997894,0.0002486135637358444,-0.009152086788571934,0.01613753566536147,0.01129110335547341,0.19772870242903487,-0.026044800458698565,0.8606753880303969,-0.13281209531429175,-0.4588955289742967,-0.17610711872140197
2856.583333342095,-0.52610356,-0.58537203,0.5521655,-2.36792,-0.351341,1.0259957,0.24126224,0.039998036,0.039997954,-0.0005055780604168447,-0.009016702638980911,0.016144996720834914,0.011633007204776195,0.194807138744231,-0.025410254962786885,0.8598100136383543,-0.13301161450946936,-0.4604839504828289,-0.17603744544989577
2856.600000008762,-0.52788323,-0.58469903,0.55403566,-2.3679607,-0.35252953,1.0241512,0.23941855,0.039998088,0.039998,-8.785280862788625e-05,-0.009150964520493465,0.015819447910825346,0.011959863293198114,0.1918694633946461,-0.02478820812129342,0.8589547754445456,-0.13320653676789132,-0.46204886393665645,-0.17596465451379645
2856.616666675429,-0.5296379,-0.58403546,0.55587924,-2.3680012,-0.35370126,1.0223328,0.23760094,0.039998144,0.03999806,-0.0005808346623670246,-0.008585817872464041,0.015939693573452374,0.012271132105825375,0.18892001396348265,-0.024178055128405256,0.8581098321641806,-0.13339689397213675,-0.4635902499826691,-0.1758887851534453
2856.6333333420957,-0.531367,-0.58338153,0.55769646,-2.3680413,-0.3548561,1.0205407,0.23580952,0.0399982,0.039998107,-0.0005176127728434565,-0.009175337268288453,0.01626189866386074,0.012566121827691746,0.18595668616558744,-0.02358012026514729,0.857275340371342,-0.1335829976008529,-0.4651078385145983,-0.17581032988834516
2856.6500000087626,-0.53307074,-0.5827372,0.5594869,-2.368081,-0.355994,1.018775,0.23404445,0.039998256,0.039998163,-0.0009982450714041136,-0.00855873727230172,0.015823595937947132,0.012849074919594429,0.18298433837354378,-0.02299350237631302,0.8564514185024292,-0.13376470253197065,-0.4666017666918523,-0.17572923325887585
2856.6666666754295,-0.5347491,-0.5821025,0.56125075,-2.3681195,-0.3571149,1.0170355,0.23230574,0.03999831,0.03999821,5.065059371922587e-05,-0.008877172608401374,0.016614464378883476,0.013116719275479626,0.18000095268203575,-0.022418481844339984,0.85563834752046,-0.1339421193295201,-0.46807163118626127,-0.17564587954348862
2856.6833333420964,-0.536402,-0.58147746,0.56298757,-2.368156,-0.35821873,1.0153228,0.23059343,0.039998367,0.039998267,0.00021263458713782768,-0.008639142263491828,0.017173954366622723,0.013370743014208309,0.17701298177712232,-0.02185510243888044,0.8548364901299175,-0.13411535253360574,-0.46951695406847604,-0.17556046593527516
2856.7000000087633,-0.53802925,-0.5808621,0.56469744,-2.368191,-0.3593054,1.0136367,0.22890767,0.039998427,0.039998326,-0.0004778068626754006,-0.0086172741756263,0.0165695727400772,0.013611221982272086,0.17402411599573636,-0.021304276100666507,0.8540457768083624,-0.13428445580298268,-0.47093808623664346,-0.17547311753446856
2856.71666667543,-0.53963083,-0.5802565,0.56638056,-2.368225,-0.36037496,1.011977,0.22724855,0.039998487,0.039998386,-0.0010207602499257007,-0.008624056517339551,0.015914593704868807,0.01383958883717629,0.17103325602887057,-0.020764243486657112,0.8532661423300576,-0.13444945601452316,-0.4723353470344331,-0.17538401886273042
2856.733333342097,-0.5412068,-0.5796607,0.5680367,-2.3682585,-0.36142737,1.0103436,0.22561614,0.039998546,0.03999844,-0.0014276978899108173,-0.008187801333187084,0.015522858231409309,0.014055710688849732,0.16803666446369686,-0.020234154505382733,0.852497661938758,-0.13461028621153115,-0.4737088736864737,-0.1752932121495105
2856.750000008764,-0.5427569,-0.57907456,0.56966585,-2.3682919,-0.36246252,1.008737,0.22401038,0.03999861,0.03999851,-0.0026516988059333,-0.008019983864090974,0.015261865947824305,0.01425544255276719,0.16503387981328357,-0.019715423001731673,0.8517403069717162,-0.1347672465461447,-0.4750588630783487,-0.17520078581103382
2856.7666666754308,-0.5442812,-0.5784982,0.5712677,-2.3683252,-0.3634804,1.0071571,0.22243136,0.03999865,0.039998554,-0.0026731162083848403,-0.007709233599745291,0.014922536477901538,0.014442328832884325,0.1620259988950949,-0.019207840438435254,0.8509942135440962,-0.13492024355068963,-0.47638533305635655,-0.17510679839307136
2856.7833333420976,-0.5457796,-0.5779315,0.5728422,-2.3683581,-0.364481,1.0056041,0.22087918,0.03999872,0.03999863,-0.0024568771932909073,-0.007544116806357248,0.015351072580804814,0.014614394833178843,0.1590106160387275,-0.018711742133215647,0.8502595963793113,-0.13506934443459445,-0.47768804555432415,-0.17501149131811142
2856.8000000087645,-0.547252,-0.5773749,0.5743896,-2.3683906,-0.36546427,1.0040784,0.21935381,0.03999879,0.039998706,-0.002566900416423046,-0.007892598950498542,0.015425597401019786,0.014771484265694305,0.15599336721306628,-0.01822761547827757,0.8495365504503093,-0.1352147714963551,-0.4789668762154697,-0.17491525521398182
2856.8166666754314,-0.5486984,-0.57682806,0.57590973,-2.368423,-0.36643028,1.0025795,0.2178553,0.03999885,0.039998796,-0.0031792239530981092,-0.007464988016012142,0.014682515056363421,0.014916007432300172,0.1529763780284468,-0.017754583816098554,0.8488249820299612,-0.13535645465475976,-0.48022227418244096,-0.17481804095737496
2856.8333333420983,-0.5501188,-0.57629097,0.5774027,-2.3684554,-0.3673789,1.0011073,0.21638364,0.03999891,0.039998874,-0.0035136732659424297,-0.007513672930911652,0.014633186788093333,0.015048248523943295,0.14995570348271564,-0.01729115218058329,0.848124939893969,-0.13549454841501343,-0.48145432064208654,-0.17471992105861903
2856.850000008765,-0.5515134,-0.57576364,0.5788684,-2.3684876,-0.36831027,0.99966186,0.21493886,0.039998967,0.039998963,-0.0032284434341889323,-0.00711634879137224,0.01448904622830538,0.015166499597781966,0.14693253203098056,-0.01683922648911733,0.8474365326888584,-0.13562889727010555,-0.4826630424443941,-0.17462105470962488
2856.866666675432,-0.5528817,-0.57524633,0.5803069,-2.3685193,-0.36922425,0.9982435,0.21352099,0.039999027,0.03999907,-0.0032207054535327018,-0.007564597948039875,0.014941721237282657,0.015268348311869854,0.1439073651872883,-0.016398519924787653,0.846759959056488,-0.13575984436503533,-0.48384808268738644,-0.1745218303719516
2856.883333342099,-0.5542242,-0.57473874,0.58171815,-2.3685503,-0.3701209,0.99685204,0.21212997,0.039999083,0.03999917,-0.0032356895640850425,-0.0071196864804973226,0.014871746156353005,0.015362332060078034,0.14088455411903295,-0.01596610096305764,0.8460952624508733,-0.1358873104061111,-0.48500962384133167,-0.17442221908366737
2856.900000008766,-0.5555408,-0.5742409,0.5831021,-2.368581,-0.37100026,0.9954874,0.21076582,0.039999135,0.03999928,-0.0037954747602819694,-0.00685543489605811,0.014295213610848734,0.015442193578523427,0.13786619360379576,-0.015545133721268055,0.84544241491878,-0.13601128566833992,-0.4861479193083875,-0.1743222698890542
2856.9166666754327,-0.55683136,-0.5737529,0.5844588,-2.3686101,-0.3718622,0.99414945,0.20942855,0.039999194,0.03999944,-0.0025179107409067925,-0.007408788830182145,0.015313968200036943,0.015504533977261354,0.13484829814598143,-0.015136597554440983,0.8448017402650251,-0.1361319547958405,-0.48726244166376775,-0.1742223391890702
2856.9333333420996,-0.558096,-0.57327473,0.5857884,-2.3686383,-0.372707,0.9928386,0.20811804,0.039999258,0.03999962,-0.00331625483274145,-0.006893083995371252,0.014909114443817373,0.015557239521170236,0.13184097920974366,-0.014737899411909294,0.8441731759991082,-0.13624941160621898,-0.48835340200639965,-0.17412266225082118
2856.9500000087664,-0.5593348,-0.57280624,0.5870909,-2.368665,-0.37353456,0.99155444,0.20683433,0.039999306,0.03999981,-0.003062804229636562,-0.006946138467711638,0.014905054214564561,0.01560012200388322,0.1288413606596403,-0.014348304027567397,0.8435567900565626,-0.1363636188282313,-0.48942090841098496,-0.17402321632386755
2856.9666666754333,-0.5605478,-0.5723475,0.5883662,-2.3686905,-0.37434474,0.9902969,0.20557743,0.039999332,0.039999988,-0.0034016974041595205,-0.006832742687370996,0.014543252930532269,0.015636585695312184,0.1258503642475632,-0.013965317103108405,0.8429526314360322,-0.13647459400073841,-0.49046505913958627,-0.17392404120938734
2856.9833333421,-0.56173515,-0.57189864,0.5896144,-2.3687155,-0.37513775,0.9890662,0.20434716,0.03999935,0.04,-0.004171191382895678,-0.006344656323020725,0.013972629125424962,0.015676785972584553,0.12286916148827792,-0.013583200074993744,0.842360597541039,-0.13658241141731506,-0.491486170857718,-0.17382523538702072
2857.000000008767,-0.5628967,-0.5714594,0.5908355,-2.3687403,-0.37591365,0.9878621,0.2031435,0.039999366,0.04,-0.004591376219420518,-0.0062368052503980476,0.013650245243135295,0.015707309291939364,0.11989705496197209,-0.013210208324478626,0.8417806074210606,-0.13668715496491468,-0.4924845280448308,-0.17372685536176627
