rsonawane2002/My_IMU/logs_2/traj_314/clean_314.csv
time,j1,j2,j3,j4,j5,j6,j7,gripper1,gripper2,imu_ax,imu_ay,imu_az,imu_gx,imu_gy,imu_gz,quat_x,quat_y,quat_z,quat_w
697.1833333330279,0.00016700293,-0.785875,4.0107683e-05,-2.3551247,9.29385e-05,1.570997,0.786,0.04,0.04,0.0,-0.0,0.0,2.875329272945135e-08,-0.0011641195053377316,4.421952117202833e-08,0.9999995971961153,0.00020320632366974898,0.0008736418299892524,3.263050917662294e-05
697.1999999996946,0.00016700893,-0.78576016,4.0118735e-05,-2.3552213,9.2972325e-05,1.5709941,0.786,0.04,0.04,-0.2919984604472292,-4.2390335462140494e-05,0.02012840650196246,-3.253436378183548e-07,-0.0022381869600627386,-1.8406339904732338e-07,0.9999996850594687,0.00020320416266896298,0.0007665025195679176,3.2602443802127085e-05
697.2166666663612,0.0001670371,-0.78565425,4.015782e-05,-2.35531,9.2991555e-05,1.5709913,0.786,0.04,0.04,0.023262847162786038,-4.700379350439142e-05,-0.0016365882363311712,-2.641509596133385e-06,-0.0032273973039556466,-1.993572131303619e-06,0.9999997558720092,0.00020318061741703478,0.0006677674586787559,3.256040250281766e-05
697.2333333330279,0.00016712554,-0.7855569,4.0272127e-05,-2.355391,9.2977294e-05,1.5709884,0.786,0.04,0.04,0.022460736705531836,-0.00013084165675870062,-0.0015249572141051715,-8.698236646462338e-06,-0.004137674189601396,-6.832601788122108e-06,0.9999998123032668,0.00020309996490472317,0.000577138635713039,3.2478156801670006e-05
697.2499999996945,0.00016733022,-0.78546727,4.0529434e-05,-2.3554652,9.290261e-05,1.5709856,0.786,0.04,0.04,0.020255429174542705,-0.00025275536808182057,-0.0013237807472199492,-2.0071631365219598e-05,-0.004971663245931241,-1.6014895338346177e-05,0.9999998569666201,0.00020291029011870135,0.0004938114028313442,3.23179833587833e-05
697.2666666663612,0.00016772292,-0.7853848,4.1016116e-05,-2.3555322,9.273441e-05,1.5709827,0.786,0.04,0.04,0.020066548360153647,-0.000409664535798226,-0.0009018622424861178,-3.815106490131275e-05,-0.005737542606903512,-3.069876826935046e-05,0.9999998917644438,0.00020254514111125722,0.00041763676585325975,3.2032767943928325e-05
697.2833333330278,0.00016838947,-0.7853088,4.183509e-05,-2.355597,9.243043e-05,1.5709826,0.786,0.04,0.04,0.011701368509742238,-0.000594418178913455,-0.0007169461654354947,-6.443077308897897e-05,-0.006433887246324614,-5.19682170452882e-05,0.9999999188568064,0.0002019254012551382,0.00034715443199704113,3.1564431332260454e-05
697.2999999996945,0.0001694284,-0.7852387,4.3104254e-05,-2.3556552,9.194692e-05,1.5709827,0.786,0.04,0.04,0.017946133880153425,-0.0008104281172952965,-0.00021127872611437226,-9.970096909698302e-05,-0.007076574337178091,-8.073099223555039e-05,0.9999999392646477,0.00020095992421613094,0.000283079679607095,3.0849714691330384e-05
697.3166666663611,0.00017094966,-0.78517425,4.4954682e-05,-2.3557098,9.124824e-05,1.5709832,0.786,0.04,0.03999999,0.012452069707347135,-0.001059925174504736,-0.0013674713563505136,-0.0001451541580065303,-0.007656761600895058,-0.0001163373050790807,0.999999954601736,0.00019954746213807984,0.00022380320642424693,2.9823835000491567e-05
697.3333333330278,0.00017307363,-0.78511524,4.7529742e-05,-2.3557603,9.023866e-05,1.5709838,0.786,0.04,0.04,0.012922828970118871,-0.0012911185629066045,-0.0011915166281628586,-0.0002015745323931885,-0.008190012418509819,-0.0001641735591933003,0.999999965743216,0.0001975770792035703,0.0001693250497320354,2.8388235821423105e-05
697.3499999996944,0.00017592893,-0.7850609,5.0982486e-05,-2.355809,8.8887544e-05,1.5709846,0.786,0.04,0.039999995,0.008457266749317682,-0.0015910821806085261,-0.0016204762176119658,-0.00026935563015247673,-0.008674164914556436,-0.00021939575179333643,0.9999999736597802,0.00019493038360972854,0.00011824452738573972,2.6472936575778307e-05
697.3666666663611,0.00017965255,-0.7850108,5.5475983e-05,-2.3558526,8.7119384e-05,1.5709854,0.7860015,0.04,0.039999995,0.013253161348769638,-0.001879366865673596,-0.0002034308867360224,-0.0003495976150531184,-0.009123985462055402,-0.0002857625025018223,0.9999999786583808,0.00019222614541592346,7.181335841083396e-05,2.3983091238163252e-05
697.3833333330277,0.0001843885,-0.78496474,6.118109e-05,-2.355895,8.485957e-05,1.5709864,0.7860034,0.04,0.04,0.006478749001082029,-0.002184245991838235,-0.001652273324759257,-0.000449332092317525,-0.009527385228487688,-0.00036375242978972265,0.9999999815684016,0.0001887955751481752,2.803484934171248e-05,2.082005180137935e-05
697.3999999996944,0.00019028634,-0.78492236,6.827568e-05,-2.355937,8.2039136e-05,1.5709873,0.7860053,0.04,0.04,0.004896082335159591,-0.0025081301096073517,-0.001891306545176441,-0.0005642552025363229,-0.00990002466780359,-0.00045303332778843706,0.9999999827823325,0.0001842923566524301,-1.3657188029540275e-05,1.688618000517237e-05
697.416666666361,0.00019750069,-0.7848833,7.6943346e-05,-2.3559744,7.8617115e-05,1.5709916,0.7860072,0.04,0.03999999,0.012445044565478902,-0.0028667144612904783,0.002618343146898461,-0.0006924434655093946,-0.01024959563774738,-0.00055083199615164,0.999999982745133,0.00017857411661584402,-4.974602835950799e-05,1.2097566562457361e-05
697.4333333330277,0.00020619147,-0.78484744,8.7373846e-05,-2.3560102,7.448245e-05,1.5709963,0.78600913,0.04,0.039999995,0.0064412958021398126,-0.003183941723584004,-0.0007825608892897407,-0.0008343627661076158,-0.010542191666378667,-0.0006638515348899501,0.9999999818103192,0.00017149378656247246,-8.324163033257226e-05,6.330334780188574e-06
697.4499999996943,0.00021652176,-0.7848143,9.976076e-05,-2.3560455,6.955936e-05,1.571001,0.78601104,0.04,0.04,0.0038788981396864486,-0.0035360689583819045,-0.0012579452633554311,-0.0009901305114843652,-0.010805648943329542,-0.0007891072886897243,0.9999999801111383,0.00016290136478909527,-0.00011506778661584074,-5.222575615832332e-07
697.466666666361,0.0002286577,-0.7847838,0.00011430123,-2.3560808,6.377898e-05,1.5710058,0.78601295,0.04,0.04,0.0028991320378368712,-0.0039009968099357304,-0.001492810185466098,-0.0011600724479841952,-0.011047839595434948,-0.0009260643722393566,0.9999999777161597,0.00015264403076102,-0.000145582034172612,-8.564549177112356e-06
697.4833333330276,0.00024276806,-0.78475565,0.00013119575,-2.356116,5.706327e-05,1.571014,0.78601676,0.04,0.04,0.003729881123559764,-0.004266969983600361,0.0012189836732012793,-0.0013441815980888712,-0.01127087602527838,-0.0010757238946172564,0.999999974830945,0.00014152008641061913,-0.00017317492214399686,-1.7905881975992472e-05
697.4999999996943,0.00025902357,-0.78472966,0.00015064683,-2.3561513,4.9339887e-05,1.5710225,0.7860206,0.04,0.039999995,0.0024471792330560405,-0.004640106455077234,-0.0010447685814485297,-0.001551167432462491,-0.01146120021100331,-0.0012374656651113324,0.999999971428693,0.0001284188312956913,-0.00019957485606843762,-2.8654735715434098e-05
697.516666666361,0.00027759702,-0.7847057,0.0001728594,-2.3561866,4.049178e-05,1.5710311,0.7860244,0.039999995,0.04,0.002277616192847276,-0.004985717975480495,-0.0010661966995284544,-0.001772139275231628,-0.011633163882328225,-0.0014152852062665458,0.9999999674666579,0.00011318132391238793,-0.00022490088255984285,-4.094220347451214e-05
697.5333333330276,0.00029866124,-0.7846835,0.00019803866,-2.3562222,3.0482219e-05,1.5710431,0.7860282,0.03999999,0.03999999,0.002665110050248387,-0.00539257041089038,0.0014492013571176798,-0.002007205242807839,-0.011788389709380705,-0.0016021285476541076,0.9999999632377838,9.564846883020745e-05,-0.0002477223226671697,-5.4858473372141096e-05
697.5499999996943,0.00032239078,-0.78466314,0.00022639181,-2.356258,1.9189732e-05,1.5710555,0.7860339,0.039999988,0.04,0.0016840418583630168,-0.005738605949309457,-0.0008613017988823302,-0.0022561625732531085,-0.011913331387708526,-0.0018060769587161356,0.999999958238338,7.661334029652053e-05,-0.00026958861122010797,-7.053863384378862e-05
697.5666666663609,0.00034895987,-0.78464437,0.00025812542,-2.3562953,6.5536233e-06,1.5710682,0.78603965,0.039999984,0.039999995,-0.0009819119215714878,-0.006128777887448697,-0.0014927551139187756,-0.0025278125892170536,-0.012021918476442638,-0.0020206232612244614,0.9999999521635383,5.496211818221047e-05,-0.0002913638141324387,-8.808640353190785e-05
697.5833333330276,0.00037854296,-0.78462696,0.00029344647,-2.3563364,-7.5095604e-06,1.5710843,0.78604543,0.03999998,0.039999995,-0.0034679435649165313,-0.006503728499768343,0.0001823621076146864,-0.002812833903299249,-0.01212210302628515,-0.00224910979904301,0.9999999449106381,3.056404080423496e-05,-0.0003125112031104653,-0.00010761648672878113
697.5999999996942,0.000411314,-0.7846108,0.00033256147,-2.3563783,-2.308075e-05,1.5711005,0.78605306,0.039999977,0.03999999,-0.00020002273677377502,-0.006878938039878435,-0.0010606213139752185,-0.0031117252472354154,-0.012208383339519954,-0.002489793289937884,0.9999999360458544,4.153102435887095e-06,-0.0003334475690776606,-0.000129243017852726
697.6166666663609,0.00044744625,-0.78459585,0.0003756762,-2.3564212,-4.0242172e-05,1.5711204,0.7860607,0.039999973,0.039999988,0.0008650358069850483,-0.00725382190476403,0.0016374777721761546,-0.003432101866202545,-0.012284439729119046,-0.0027434743245500917,0.9999999258641458,-2.535432736243566e-05,-0.0003524142804655265,-0.00015307852889756443
697.6333333330275,0.00048711247,-0.784582,0.00042299548,-2.356465,-5.9075595e-05,1.5711406,0.7860694,0.039999966,0.039999984,-0.00025690773668429756,-0.007623354075323649,-0.00081852910489566,-0.0037653584914784264,-0.012332385057981645,-0.0030109581225053863,0.9999999134180168,-5.75805052469625e-05,-0.0003711095457605158,-0.00017923768935829213
697.6499999996942,0.0005304837,-0.78456914,0.00047472274,-2.3565145,-7.966074e-05,1.5711645,0.78607893,0.039999958,0.039999977,-0.007133185570218359,-0.00799076140662932,-0.0003587104615343506,-0.0041163191342687465,-0.012371004320400914,-0.003290432377372551,0.9999998979381679,-9.280226160066712e-05,-0.0003902779191798848,-0.00020783296100662847
697.6666666663608,0.0005777303,-0.78455704,0.00053105975,-2.356565,-0.000102078375,1.5711895,0.7860888,0.03999995,0.03999997,-0.0007939885730889884,-0.00835822937117238,-0.00010667498384631102,-0.004483462835590737,-0.012403611996990247,-0.003582639704376407,0.9999998791475984,-0.0001314147203327646,-0.0004090546040023384,-0.00023897550255282972
697.6833333330275,0.0006290206,-0.7845459,0.0005922066,-2.3566163,-0.0001264084,1.5712172,0.78610027,0.039999943,0.039999966,0.0006657233562412657,-0.008722223530988364,0.0010708652109059358,-0.004863882536798691,-0.012423646221637693,-0.0038883350022504756,0.9999998569295406,-0.00017297714966282285,-0.0004263957218255614,-0.0002727755350313845
697.6999999996941,0.0006845215,-0.7845353,0.000658361,-2.3566735,-0.0001527283,1.5712475,0.78611195,0.039999936,0.039999958,-0.008707253621520472,-0.009075385198926644,-0.001058299663303508,-0.0052634340397759195,-0.012421162426171145,-0.004205677811661347,0.9999998292548299,-0.00021829840049638263,-0.0004451319208320109,-0.00030934397101370554
697.7166666663608,0.0007443979,-0.7845256,0.0007297192,-2.356732,-0.0001811166,1.5712792,0.7861253,0.039999932,0.039999954,-0.0005880751495768166,-0.00943395693891228,-5.732098995459012e-06,-0.005675324707247515,-0.01242155451059532,-0.004535369413127202,0.999999796256864,-0.0002668153909668019,-0.00046329521150547716,-0.0003487883663747289
697.7333333330274,0.0008088128,-0.78451633,0.0008064745,-2.3567939,-0.00021165023,1.5713145,0.786139,0.03999993,0.039999954,-0.00442207289506058,-0.00978321646264279,0.0007516985633948536,-0.006105935970470505,-0.012406639103026244,-0.004878111437731734,0.9999997567051653,-0.00031933407113824395,-0.0004812127128416943,-0.00039121565191506944
697.7499999996941,0.000877927,-0.7845075,0.0008888173,-2.3568597,-0.00024440401,1.5713519,0.78615427,0.039999925,0.03999995,-0.0053457909573007,-0.010126425808162712,-0.0003933450894999524,-0.006548716535886051,-0.01237995375597187,-0.005232041233416926,0.9999997092938904,-0.00037540615119218486,-0.0004997474548001908,-0.0004367319978576695
697.7666666663607,0.00095189863,-0.7844994,0.0009769363,-2.3569279,-0.00027945384,1.5713912,0.7861702,0.03999992,0.03999995,-0.0026619745571832,-0.0104675092682068,-9.973424566211975e-05,-0.007008914782404015,-0.012348042446697502,-0.005598696383065205,0.999999653047331,-0.00043562466731687777,-0.0005181534342940813,-0.00048544143374011113
697.7833333330274,0.0010308841,-0.7844917,0.0010710167,-2.3570013,-0.00031687215,1.5714341,0.78618735,0.039999917,0.039999947,-0.0073252878806773225,-0.010800379062132727,1.734655838969701e-05,-0.007481883540813958,-0.012304508019641688,-0.005976184407081538,0.9999995863793146,-0.0004998357142608248,-0.0005371743421845782,-0.0005374469131293641
697.799999999694,0.0011150368,-0.7844844,0.001171241,-2.3570774,-0.0003567324,1.5714796,0.7862056,0.039999917,0.03999995,-0.0032754375004273584,-0.011132349111088327,0.0004271384560050606,-0.007970119973410269,-0.01225740519503952,-0.00636602850478145,0.9999995081957583,-0.00056827034250329,-0.0005560638041185433,-0.0005928491418759253
697.8166666663607,0.0012045078,-0.7844773,0.001277789,-2.3571587,-0.0003991048,1.5715278,0.7862248,0.039999917,0.03999995,-0.007750573449638587,-0.011451539486936673,-0.00042865646492362686,-0.008472505995817042,-0.012196925143489858,-0.006766326060211752,0.9999994161943736,-0.0006411273450060869,-0.0005760124729036454,-0.0006517486252943871
697.8333333330273,0.0012994453,-0.7844706,0.001390836,-2.3572464,-0.00044406037,1.5715787,0.78624535,0.039999917,0.039999954,-0.009654338260034478,-0.011762382223623469,-0.001253255131872244,-0.008987681248334382,-0.012135260925928867,-0.0071785863913599555,0.9999993083355216,-0.0007183342604430068,-0.0005976444504415955,-0.0007142446915873312
697.849999999694,0.0013999959,-0.7844641,0.0015105553,-2.3573358,-0.0004916667,1.5716331,0.78626704,0.039999917,0.039999954,-0.0015542899523435239,-0.012090120081319124,0.0016468283542847573,-0.009517831789176482,-0.012079135859858346,-0.0076008619385846184,0.9999991842156771,-0.0008001462535083928,-0.0006182758532247943,-0.000780428678758712
697.8666666663606,0.0015063017,-0.78445786,0.0016371175,-2.3574321,-0.00054199225,1.5716904,0.78629005,0.039999917,0.039999958,-0.010551132847824718,-0.012378734412904968,-0.0011187971695081345,-0.010060723718229657,-0.012001752565136595,-0.008034745209803979,0.9999990401039576,-0.0008866047953210389,-0.0006407359289648337,-0.0008504002410329006
697.8833333330273,0.0016185023,-0.78445184,0.0017706886,-2.35753,-0.000595102,1.5717511,0.7863143,0.039999917,0.039999958,-0.0015282946552286347,-0.012694128383390997,0.0015067047337780082,-0.01061715318651173,-0.01193045474459318,-0.008478203797924912,0.9999988755008371,-0.0009778695554356195,-0.0006622212334532557,-0.000924246304722567
697.8999999996939,0.0017367358,-0.78444594,0.0019114311,-2.3576348,-0.0006510616,1.571815,0.7863399,0.039999917,0.03999996,-0.01020491060894635,-0.012969744214543742,-0.0007867377719295021,-0.011186541036886672,-0.011837220878636971,-0.008932852197588756,0.9999986863031792,-0.0010740369320510871,-0.0006853521262705153,-0.0010020623968754253
697.9166666663606,0.001861136,-0.78444034,0.0020595046,-2.3577464,-0.00070993346,1.5718824,0.7863669,0.039999917,0.03999996,-0.010338297014467202,-0.01325359759619298,-0.0008295856521733924,-0.011768602835604262,-0.01174930435717365,-0.009396663002450123,0.9999984699491925,-0.0011751711240795158,-0.0007100367579136909,-0.001083937224075311
697.9333333330272,0.0019918347,-0.7844348,0.0022150658,-2.3578596,-0.00077178027,1.5719532,0.786395,0.039999917,0.039999966,-0.0016923022731152315,-0.01355387704792951,0.001663895689030248,-0.0123635624310299,-0.01166339892321193,-0.009871143631546854,0.9999982252176892,-0.0012815439839876954,-0.0007337693510438959,-0.0011699525752766555
697.9499999996939,0.0021289587,-0.7844294,0.0023782668,-2.3579795,-0.00083666196,1.5720273,0.78642464,0.039999913,0.03999996,-0.01017147316293432,-0.013804206374855472,-0.0007350422872365314,-0.012969424686509454,-0.011557367650407551,-0.010354434810252361,0.9999979474914337,-0.0013930935270632303,-0.0007590801751853509,-0.0012601986480569214
697.9666666663605,0.0022726352,-0.7844242,0.0025492564,-2.3581064,-0.00090463826,1.5721046,0.7864558,0.03999991,0.03999996,-0.010521556595577408,-0.01406717653361974,-0.0011024106807422385,-0.013587559395206507,-0.01145283132767585,-0.010847952800194668,0.9999976333895669,-0.0015099064136646742,-0.0007861450745501322,-0.0013547596867696955
697.9833333330272,0.0024229854,-0.78441906,0.0027281796,-2.3582358,-0.0009757661,1.5721854,0.7864883,0.039999906,0.039999958,-0.0032796253974565204,-0.01434682090666441,0.0012816269769455602,-0.014217887523957487,-0.011353700956850496,-0.011350568385015658,0.9999972810824634,-0.001632215583876365,-0.0008126663318564497,-0.0014537102191908122
697.9999999996938,0.0025801288,-0.78441393,0.002915179,-2.358372,-0.0010501011,1.5722699,0.7865221,0.039999906,0.03999996,-0.010195432245252434,-0.014581110967788139,-0.00044631348596890774,-0.014858729749958902,-0.011237217391923213,-0.011861334786470742,0.999996885294547,-0.0017601312477920172,-0.0008406374158561124,-0.0015571345254482053
698.0166666663605,0.002744182,-0.7844088,0.0031103916,-2.358515,-0.0011276997,1.5723583,0.78655744,0.039999906,0.039999966,-0.010564770673093804,-0.014821406337414689,-0.00048282929874243763,-0.015510023847647809,-0.011120807193400487,-0.012381641279909717,0.9999964422078905,-0.0018936416115971331,-0.000870114254297089,-0.001665110864869447
698.0333333330271,0.0029152576,-0.7844037,0.003313952,-2.358665,-0.0012086137,1.5724503,0.78659445,0.039999906,0.039999966,-0.010604407820458128,-0.015057360896827618,-0.0005902109527111676,-0.016172017454924997,-0.011007443688642711,-0.012909545838120968,0.9999959476990239,-0.0020327915285390206,-0.0009011526299962256,-0.0017777142823888093
698.0499999996938,0.003093464,-0.7843985,0.0035259915,-2.3588185,-0.0012928959,1.5725464,0.786633,0.039999906,0.03999997,-0.0048890555498060095,-0.0153093281102956,0.0012051228886811316,-0.016845230189016323,-0.010895821818568525,-0.013446515012682715,0.9999953989217385,-0.002177743492992962,-0.0009319307769088395,-0.0018950128387193938
698.0666666663604,0.00327891,-0.7843932,0.003746635,-2.358978,-0.0013805962,1.5726465,0.78667307,0.039999906,0.039999973,-0.009007642194736043,-0.01551779435334166,0.0001380227252489874,-0.017528394238714013,-0.010769205104276453,-0.013991552238474987,0.9999947901034767,-0.0023286259891821836,-0.0009636665042762671,-0.0020170805077111345
698.0833333330271,0.003471698,-0.7843879,0.0039760075,-2.3591447,-0.0014717635,1.5727507,0.7867147,0.03999991,0.039999977,-0.010903458479294414,-0.01572524430823799,-0.0004911536735319189,-0.018221266484689243,-0.010639300832210544,-0.014543541882436568,0.9999941158732552,-0.0024855050884475373,-0.0009968918369910654,-0.0021439892693673576
698.0999999996938,0.003671929,-0.7843826,0.004214228,-2.3593187,-0.0015664453,1.5728588,0.7867579,0.039999913,0.039999984,-0.011348582238546179,-0.01593004295611976,-0.0007110888312178432,-0.01892327489473915,-0.01051171978879313,-0.015103903842763692,0.9999933709131655,-0.0026484444116041364,-0.0010317809352313025,-0.0022758075543204024
698.1166666663604,0.0038797006,-0.7843773,0.0044614114,-2.3594985,-0.0016646875,1.5729711,0.7868027,0.039999913,0.039999988,-0.008440754492156088,-0.016143681942881218,0.00020186948532785465,-0.0196345753908575,-0.010386673103537507,-0.015671558891481398,0.999992550765082,-0.0028175348324313834,-0.0010673753131116453,-0.002412596475591426
698.133333333027,0.0040951055,-0.7843719,0.0047176713,-2.359684,-0.0017665338,1.5730876,0.7868492,0.039999917,0.03999999,-0.00850941745667022,-0.016340056366408173,0.00021162255208206915,-0.02035485384008125,-0.01025520685576939,-0.016245469253769435,0.9999916498298089,-0.002992834473802125,-0.0011036996451955399,-0.00255441961363342
698.1499999996937,0.0043182364,-0.7843664,0.0049831155,-2.3598757,-0.0018720189,1.5732082,0.78689736,0.03999992,0.03999999,-0.009388300199253408,-0.016530367558699292,3.075103371941168e-06,-0.021083782643211063,-0.010118485494986838,-0.016825368557230148,0.9999906618929675,-0.0031744286867601804,-0.0011410168673249362,-0.0027013348341007586
698.1666666663604,0.004549181,-0.7843609,0.0052578477,-2.3600745,-0.0019811885,1.5733329,0.7869472,0.039999925,0.039999995,-0.010983095773253737,-0.016695258615340852,-0.000579964682279055,-0.021821024654577272,-0.0099773355049452,-0.017412940127008992,0.9999895801240162,-0.0033623985531450865,-0.0011798280648664527,-0.0028534058773748453
698.183333333027,0.004788024,-0.78435516,0.00554197,-2.3602798,-0.0020940828,1.5734618,0.78699875,0.039999932,0.04,-0.009865323120816782,-0.01687582335651236,-0.00012640886057901923,-0.022566046679122084,-0.009838643044574692,-0.018006906235033537,0.9999883984975202,-0.0035567942318307597,-0.0012197697412575917,-0.003010688780872874
698.1999999996937,0.0050348467,-0.7843493,0.00583558,-2.3604925,-0.002210727,1.5735949,0.78705204,0.039999936,0.04,-0.011385346527359452,-0.017041969926978075,-0.0005347913214270861,-0.023319273695808936,-0.009697482794457677,-0.01860552916923167,0.9999871097403003,-0.0037576921029201286,-0.0012612233120132307,-0.003173234794007344
698.2166666663603,0.0052897288,-0.78434336,0.006138769,-2.3607125,-0.0023311735,1.5737326,0.7871071,0.03999994,0.04,-0.011313590817785268,-0.01718672124873203,-0.0003875446066059496,-0.024079859764812136,-0.009557814082140917,-0.019211710696303286,0.9999857069699593,-0.003965135683326568,-0.0013040631423077555,-0.0033411037284897162
698.233333333027,0.0055527454,-0.78433716,0.0064516296,-2.360939,-0.0024554306,1.5738748,0.787164,0.039999943,0.04,-0.009828941815448466,-0.01737274296888785,8.26745697901643e-05,-0.0248477944946981,-0.009419474838380864,-0.019822143969791713,0.9999841833933724,-0.004179197576354261,-0.001347865523370581,-0.003514331976209515
698.2499999996936,0.005823968,-0.78433096,0.0067742467,-2.3611722,-0.0025835708,1.5740215,0.78722256,0.039999936,0.04,-0.010011396616715906,-0.017480293385104505,-0.000280129771179638,-0.025622942883092324,-0.009276955326089771,-0.020441278802821213,0.9999825310967081,-0.004399973911070923,-0.0013926832494784477,-0.0036929885418135857
698.2666666663603,0.0061034686,-0.78432477,0.0071067037,-2.3614125,-0.0027156207,1.5741724,0.7872829,0.039999932,0.04,-0.010862779259102062,-0.01761766931357798,-0.000620745496004993,-0.026404492994375646,-0.009132077497908087,-0.021064910999840133,0.9999807416791149,-0.004627531106892101,-0.0014388072910426822,-0.0038771201066492146
698.2833333330269,0.006391311,-0.78431845,0.0074490802,-2.3616602,-0.0028516203,1.5743276,0.78734505,0.039999925,0.04,-0.011403423975298033,-0.017734531820975605,-0.0006985035238216142,-0.027192137495969174,-0.008986367347573772,-0.02169435554661408,0.9999788068322789,-0.004861871079075041,-0.0014864088735615948,-0.004066778155088374
698.2999999996936,0.006687561,-0.7843121,0.0078014517,-2.361915,-0.0029915879,1.5744874,0.787409,0.039999917,0.039999995,-0.010758194962079415,-0.01787414535959469,-0.0004254395294056579,-0.02798611289122756,-0.00884256709208296,-0.022327768424565787,0.9999767183722446,-0.005103085160126171,-0.0015351229280236012,-0.0042619987002557565
698.3166666663602,0.006992278,-0.7843057,0.008163888,-2.3621771,-0.0031355757,1.5746522,0.7874748,0.03999991,0.04,-0.010819065125988736,-0.01797153116511914,-0.00021836336498992637,-0.028785766106414597,-0.008696493886543597,-0.02296734517331582,0.999974467631361,-0.0053512004348695895,-0.0015848817859918025,-0.0044628341898663
698.3333333330269,0.0073055206,-0.78429914,0.00853646,-2.3624463,-0.0032835936,1.5748212,0.78754234,0.039999902,0.04,-0.011010890453611033,-0.018088989595451202,-0.000701956799886716,-0.029590834610911904,-0.008548206255172004,-0.0236105351147393,0.9999720446580919,-0.005606330879925457,-0.0016359756539095407,-0.004669319012433665
698.3499999996935,0.0076273424,-0.7842924,0.008919232,-2.362723,-0.0034356697,1.574995,0.78761184,0.039999895,0.04,-0.01174135504582452,-0.018185131175760608,-0.0005721024801896846,-0.030400714534237747,-0.008398925473369845,-0.02425782299511138,0.999969440541649,-0.005868409525054177,-0.001688425383299834,-0.004881492824199781
698.3666666663602,0.007957795,-0.78428555,0.009312261,-2.3630073,-0.0035918383,1.5751734,0.7876832,0.039999884,0.04,-0.01134980979160538,-0.01826736080931604,-0.0007149237308157197,-0.031216170704634075,-0.008251767439271862,-0.024910041342286394,0.9999666451897674,-0.006137543154694122,-0.0017421927391531925,-0.005099395690227685
698.3833333330268,0.0082969265,-0.78427845,0.009715612,-2.3632991,-0.0037521105,1.5753565,0.7877564,0.039999876,0.04,-0.011816529005881371,-0.01837026903183138,-0.0006234983323638588,-0.03203646051639418,-0.008105367696385488,-0.025564983898485605,0.9999636483716785,-0.006413781332127168,-0.0017973284272744716,-0.005323058777655352
698.3999999996935,0.008644783,-0.78427106,0.010129335,-2.363598,-0.0039165043,1.5755442,0.7878314,0.039999872,0.04,-0.011114632376463263,-0.0184551041649373,-0.0005038019127878712,-0.03286092358233368,-0.007959266736894564,-0.026222570194393627,0.9999604399600407,-0.006697166439222048,-0.001853674278544402,-0.00555251008790591
698.4166666663601,0.009001405,-0.7842635,0.010553487,-2.3639045,-0.0040850234,1.5757365,0.7879084,0.03999987,0.04,-0.011430373965737317,-0.018537736889665674,-0.0008138449888006605,-0.03368921775910615,-0.007812427532109267,-0.026883560878042723,0.9999570092482362,-0.006987709842215924,-0.0019113399405477974,-0.005787775575780758
698.4333333330268,0.009366841,-0.7842557,0.010988105,-2.3642182,-0.004257699,1.5759337,0.78798723,0.039999865,0.04,-0.011388922113186872,-0.018600606727857405,-0.0005600647645653822,-0.034521624302775895,-0.007665855522789056,-0.02754762622383241,0.999953345490248,-0.007285452684181326,-0.0019701666238282154,-0.006028885927059739
698.4499999996934,0.009741119,-0.7842479,0.01143324,-2.3645399,-0.0044345395,1.5761358,0.788068,0.03999986,0.04,-0.011940715538538704,-0.018651957666867766,-0.0009596971021874623,-0.035357850436748335,-0.007518845711085606,-0.028214722524663047,0.9999494371861535,-0.007590427159456577,-0.0020302635940341006,-0.0062758677782819555
698.4666666663601,0.010124275,-0.7842399,0.011888932,-2.3648689,-0.0046155723,1.5763426,0.78815067,0.03999986,0.04,-0.011370981445435469,-0.018708070026617063,-0.0007780814668567615,-0.036197033769445906,-0.0073731115516084645,-0.02888359602337969,0.9999452728731208,-0.007902668497183896,-0.0020915311363159245,-0.0065287507862804494
698.4833333330267,0.010516344,-0.78423184,0.01235522,-2.3652055,-0.0048008026,1.5765538,0.7882353,0.03999986,0.04,-0.011761809608268337,-0.018751063550061578,-0.0012710380568048407,-0.037039732888114456,-0.007226946856233153,-0.029555884130525473,0.9999408404065423,-0.008222176945251737,-0.002154196981019019,-0.006787556902583343
698.4999999996934,0.010917351,-0.7842237,0.012832132,-2.3655496,-0.0049902373,1.5767703,0.78832185,0.03999986,0.04,-0.011166677130769465,-0.01881115194530547,-0.00055573975021872,-0.03788535016263728,-0.007081912101833899,-0.030229652739287127,0.9999361285122391,-0.008549011865803851,-0.002217744009135576,-0.007052297752021178
698.51666666636,0.011327322,-0.7842152,0.013319705,-2.3659015,-0.0051839,1.5769917,0.78841037,0.039999858,0.04,-0.012292135942315596,-0.01882261316392339,-0.000997386152068458,-0.03873336700699829,-0.006934420080776968,-0.03090645100058001,0.999931123791228,-0.008883169332222786,-0.002282667523310497,-0.007323005203120448
698.5333333330267,0.01174628,-0.7842067,0.013817961,-2.366261,-0.0053818063,1.5772177,0.7885007,0.039999858,0.04,-0.01170385618260994,-0.01884069763815402,-0.0012493662386647841,-0.03958395104395923,-0.006788088477777709,-0.03158426664238678,0.9999258131977165,-0.009224729782699727,-0.002348837451254303,-0.007599698938072113
698.5499999996933,0.012174247,-0.7841979,0.014326931,-2.3666282,-0.0055839512,1.5774487,0.788593,0.03999985,0.04,-0.011795620150034658,-0.018886878105216914,-0.0009388573852353588,-0.0404361121279434,-0.006644407830230198,-0.03226462284525267,0.999920184144013,-0.00957368839356503,-0.0024161527486130526,-0.007882387826128427
698.56666666636,0.012611239,-0.7841889,0.01484663,-2.3670034,-0.005790368,1.5776845,0.7886872,0.03999985,0.04,-0.012685918305832544,-0.018857077800583585,-0.0013941472944090094,-0.0412900294479462,-0.006499458116011647,-0.03294562370407214,0.9999142225987074,-0.009930030528647094,-0.002484958864478457,-0.008171102616198044
698.5833333330266,0.013057273,-0.7841797,0.01537708,-2.367386,-0.0060010413,1.5779251,0.7887834,0.039999846,0.04,-0.011477204948429076,-0.018904772251906315,-0.001118426768798031,-0.04214573521390161,-0.006358149087863427,-0.03362875497697669,0.9999079156001904,-0.010293804071112687,-0.002554886558537003,-0.008465841511685234
698.5999999996933,0.013512363,-0.78417027,0.015918287,-2.3677764,-0.006215995,1.5781709,0.78888154,0.039999846,0.04,-0.011673032378300974,-0.018889070957288714,-0.0009633424288280068,-0.04300242498422632,-0.00621741543701365,-0.03431305367282313,0.9999012502400202,-0.010664963068197312,-0.0026257739764304015,-0.00876662091248695
698.61666666636,0.0139765125,-0.78416073,0.016470278,-2.3681743,-0.0064352183,1.5784214,0.7889817,0.039999843,0.04,-0.01180015263861911,-0.018893820969619057,-0.0015001192458230506,-0.04386084239700159,-0.006074651167395886,-0.03499827852091308,0.9998942113840125,-0.011043548465981934,-0.002697877115253938,-0.009073452325009938
698.6333333330266,0.014449733,-0.78415114,0.017033048,-2.3685799,-0.0066587212,1.5786767,0.7890838,0.039999835,0.04,-0.0116657778874929,-0.01886976939051571,-0.0014138618344095022,-0.04471994751752367,-0.005934372474905058,-0.035685045238001825,0.9998867850772213,-0.011429566954026298,-0.0027710342418631323,-0.009386340949088294
698.6499999996933,0.01493203,-0.7841414,0.017606603,-2.3689935,-0.0068865195,1.5789368,0.7891878,0.039999835,0.04,-0.012585103488538252,-0.018823494717291195,-0.0017540656389369857,-0.04557977739691957,-0.005794714503285368,-0.03637311495402837,0.9998789552943019,-0.011823054052542172,-0.0028455603721639464,-0.009705304663666578
698.6666666663599,0.015423403,-0.7841314,0.018190954,-2.3694148,-0.0071185944,1.5792019,0.7892938,0.03999983,0.04,-0.011905195058381501,-0.018845981180195398,-0.001317681484125366,-0.04643975914396104,-0.0056571155104410235,-0.0370598498126458,0.9998707085921006,-0.012223959484242935,-0.0029211736963509444,-0.010030336898330999
698.6833333330266,0.015923848,-0.78412133,0.0187861,-2.369844,-0.0073549706,1.579472,0.78940177,0.039999828,0.04,-0.012090010794096884,-0.018779924934147346,-0.001710622213479951,-0.04730039140059529,-0.005521163420927608,-0.037748366783246896,0.999862028812822,-0.012632340986320621,-0.0029979208126606448,-0.010361455993908373
698.6999999996932,0.016433368,-0.784111,0.01939203,-2.3702807,-0.0075956234,1.5797468,0.7895116,0.039999817,0.04,-0.011889581391022475,-0.018765120546050673,-0.0015651700068008978,-0.04816062047607175,-0.005386032287139575,-0.03843595800263089,0.9998529007690211,-0.013048198421043683,-0.003075758564026649,-0.010698647157223006
698.7166666663599,0.016951948,-0.78410053,0.020008747,-2.3707252,-0.007840559,1.5800266,0.7896235,0.039999817,0.04,-0.011830357240838474,-0.018720875828554667,-0.0016618089994091534,-0.049020209689154506,-0.005252592067761479,-0.039122439763911304,0.9998433096086242,-0.013471469664970016,-0.003154642632207042,-0.011041918574302433
698.7333333330265,0.017479593,-0.7840897,0.020636223,-2.3711777,-0.00808976,1.5803114,0.78973734,0.039999805,0.04,-0.012807614905430142,-0.01866046494415352,-0.0017661376665145667,-0.0498797408824493,-0.00512028326633554,-0.03980943485094258,0.9998332383409275,-0.013902179551818251,-0.003234827658123396,-0.011391259913856146
698.7499999996932,0.018016286,-0.78407866,0.02127446,-2.371638,-0.008343251,1.5806009,0.78985316,0.0399998,0.04,-0.01232281626180054,-0.01859015742862527,-0.002084093281951027,-0.05073835737635972,-0.0049913409053937065,-0.040495683894153464,0.9998226707182538,-0.014340320659735041,-0.0033162693265058104,-0.011746687999099397
698.7666666663598,0.018562017,-0.7840675,0.021923438,-2.372106,-0.008600997,1.5808951,0.7899709,0.039999798,0.04,-0.01182200184166593,-0.018559826482945213,-0.0019822227755206256,-0.05159639776047398,-0.004866541420170329,-0.04118026713190001,0.9998115909125451,-0.01478591291122294,-0.0033987453208206013,-0.012108178498503352
698.7833333330265,0.019116767,-0.7840562,0.022583136,-2.3725822,-0.008863003,1.5811946,0.7900905,0.03999979,0.04,-0.01251895358518329,-0.01847948421209028,-0.0017977453112161257,-0.05245277235604397,-0.004741821148716527,-0.04186480908725297,0.9997999824272402,-0.015238946169244573,-0.0034822112410471885,-0.012475730961095636
698.7999999996931,0.01968052,-0.78404474,0.023253541,-2.3730664,-0.009129261,1.5814987,0.7902121,0.039999787,0.04,-0.01271976866095148,-0.01838866418570964,-0.0025225178951648886,-0.05330776831382708,-0.004619766065063657,-0.04254729399517933,0.9997878275491998,-0.015699374923421165,-0.003567039277147224,-0.012849347931334718
698.8166666663598,0.020253247,-0.7840331,0.023934621,-2.3735583,-0.009399751,1.5818077,0.7903357,0.039999783,0.04,-0.011871453141920618,-0.018329030397683244,-0.0020658025316366846,-0.054161164412975395,-0.004502618961443527,-0.04322838403433667,0.9997751115123633,-0.01616714822178633,-0.0036528270220551394,-0.013229005010324604
698.8333333330264,0.020834934,-0.78402144,0.024626356,-2.3740575,-0.009674456,1.5821217,0.7904611,0.03999978,0.04,-0.011304936420986067,-0.018286202550708147,-0.0019977545004268293,-0.05501300905488205,-0.0043864685281625355,-0.04390804789223783,0.9997618162126243,-0.016642375403226824,-0.0037393226398906073,-0.013614685099832267
698.8499999996931,0.02142556,-0.7840096,0.025328714,-2.3745644,-0.009953383,1.5824403,0.79058844,0.039999776,0.04,-0.011996428207416976,-0.018157739826549918,-0.00247236917938487,-0.05586213289139003,-0.0042704334251167445,-0.044586977974174706,0.9997479236238966,-0.017124974965401378,-0.0038269270990189497,-0.01400639393708133
698.8666666663597,0.022025099,-0.78399754,0.026041666,-2.375079,-0.010236529,1.5827637,0.7907177,0.039999776,0.04,-0.011892133219570944,-0.01807224526184717,-0.002275703313792121,-0.05670915281982365,-0.0041573334894204755,-0.04526403658006656,0.9997334174818178,-0.017614897919160016,-0.003915445802168274,-0.014404118355290386
698.8833333330264,0.022633502,-0.78398514,0.026765162,-2.3756013,-0.010523861,1.583092,0.790849,0.039999776,0.04,-0.012501918764629139,-0.017938115967663232,-0.0023641340371360897,-0.0575536254182016,-0.004046752116231334,-0.045938971639077744,0.9997182798588671,-0.018112106243863193,-0.004005072266009251,-0.014807833048190982
698.899999999693,0.023250753,-0.7839726,0.027499182,-2.3761313,-0.010815352,1.583425,0.7909821,0.039999772,0.04,-0.011877989590103333,-0.0178835782291005,-0.0025408135505555762,-0.05839557927825763,-0.0039389482230357716,-0.04661099559754371,0.9997024931205417,-0.018616614478028617,-0.004095612510307998,-0.015217518592569283
698.9166666663597,0.023876814,-0.78396004,0.028243676,-2.3766687,-0.011110997,1.5837626,0.7911172,0.039999764,0.04,-0.01148765822507336,-0.017750997913418276,-0.0027073009198463893,-0.05923504841026677,-0.0038338091525225576,-0.04728150051266909,0.9996860397177115,-0.019128387051490805,-0.0041870210203518495,-0.015633158903483782
698.9333333330263,0.024511652,-0.7839472,0.028998606,-2.3772132,-0.011410774,1.5841051,0.7912541,0.03999976,0.04,-0.011176826792480554,-0.017678884239829412,-0.0023025046725244636,-0.06007126946535157,-0.0037317798056051323,-0.04794862440183749,0.9996689020478893,-0.019647430998771816,-0.004279073988508486,-0.016054727008487098
698.949999999693,0.02515523,-0.78393424,0.029763926,-2.3777654,-0.011714688,1.5844524,0.79139286,0.039999753,0.04,-0.011964122089036522,-0.01750918277856478,-0.0027238284316055683,-0.06090367873530984,-0.003630272742759847,-0.048614872749811244,0.9996510607189538,-0.020173711594196744,-0.004372023414652925,-0.016482219973241802
698.9666666663596,0.025807504,-0.78392106,0.030539582,-2.378325,-0.012022721,1.5848043,0.7915335,0.039999746,0.04,-0.011602911968022767,-0.017380485775991134,-0.0027705611620909565,-0.06173292447699616,-0.0035306832157188835,-0.049281613386772186,0.9996324985897921,-0.020707160697738394,-0.004465793310304567,-0.016915612583560585
698.9833333330263,0.026468435,-0.7839078,0.03132553,-2.378892,-0.012334845,1.5851606,0.79167604,0.039999746,0.04,-0.011617922241247136,-0.017255672281607515,-0.0030538737846530495,-0.06255818333120171,-0.0034338571179735426,-0.04994370101520211,0.9996131963919559,-0.02124777327476693,-0.0045604575003631576,-0.017354882808833426
698.9999999996929,0.027137978,-0.78389436,0.03212171,-2.3794665,-0.012651055,1.5855218,0.7918204,0.03999976,0.04,-0.011881635809629643,-0.017103288396578403,-0.002884765877375628,-0.06337977858778689,-0.003341207216725258,-0.05060249228481859,0.9995931363562814,-0.021795510433823575,-0.004655880635354599,-0.017800007018279027
699.0166666663596,0.027816078,-0.7838807,0.032928076,-2.3800485,-0.012971267,1.5858879,0.7919667,0.039999757,0.04,-0.01161731168204394,-0.01702661093986313,-0.002782239436038836,-0.06419698566570932,-0.0032513420170212325,-0.051254531063626735,0.9995723016463262,-0.022350302603493258,-0.00475198732993589,-0.018250927960362526
699.0333333330262,0.028502697,-0.78386676,0.033744562,-2.3806376,-0.013295497,1.5862582,0.79211485,0.03999975,0.04,-0.011504879729296036,-0.016839210549932093,-0.0032419069051270455,-0.06501017284793635,-0.0031622073530436987,-0.05190406845640704,0.9995506722631521,-0.022912106378897953,-0.004849028823074007,-0.018707642262882403
699.0499999996929,0.029197775,-0.7838527,0.03457111,-2.381234,-0.013623712,1.5866328,0.7922647,0.039999746,0.04,-0.01124044198639318,-0.016692652447278244,-0.003230923594066404,-0.06581931703223122,-0.0030775751046851207,-0.052549119875235945,0.999528228294842,-0.02348099191014847,-0.004946782818343815,-0.019170112165500994
699.0666666663595,0.029901268,-0.78383857,0.035407666,-2.3818374,-0.013955906,1.5870124,0.7924164,0.039999735,0.04,-0.011033822896955314,-0.016565978861482478,-0.00297906254385083,-0.06662328085556395,-0.002997399091849571,-0.053191974967191816,0.999504954328079,-0.02405683527139869,-0.005044962929304008,-0.019638312030099723
699.0833333330262,0.030613115,-0.78382427,0.036254156,-2.3824477,-0.014292054,1.5873965,0.79257,0.039999727,0.04,-0.010877620738947158,-0.016392622958087688,-0.0031392345662961674,-0.06742239656569951,-0.0029160001980051385,-0.053831016748136944,0.9994808323068186,-0.024639551844001194,-0.00514367153233154,-0.020112209708612876
699.0999999996928,0.031333264,-0.7838098,0.037110507,-2.3830657,-0.014632137,1.587785,0.79272527,0.03999972,0.04,-0.0121347909944447,-0.016161246944751406,-0.0036493449246499665,-0.06821687489942327,-0.002837327791745302,-0.05446500182285208,0.9994558385015461,-0.025229207610472846,-0.005243311627411565,-0.020591786024944755
699.1166666663595,0.032061666,-0.78379506,0.037976664,-2.3836908,-0.014976101,1.5881779,0.7928824,0.039999712,0.04,-0.01139851136418013,-0.01607133568021779,-0.003461420807981952,-0.06900571349613582,-0.00276421652116925,-0.055094704407994494,0.9994299576955564,-0.02582567324593812,-0.005343656818389439,-0.021076992049617646
699.1333333330261,0.03279824,-0.7837802,0.038852546,-2.3843224,-0.015323932,1.5885751,0.7930413,0.03999971,0.04,-0.010094854863029745,-0.0159035206444752,-0.0033326778580811123,-0.06978961114048465,-0.002695435985270049,-0.05571985349367414,0.9994031730926246,-0.026428913031054123,-0.005444334050590106,-0.021567786050863673
699.1499999996928,0.03354293,-0.78376526,0.039738093,-2.3849611,-0.01567557,1.5889767,0.793202,0.039999705,0.04,-0.011279967529032042,-0.015716949761782062,-0.003667391066630721,-0.07056783154833567,-0.0026259058079200932,-0.05633991226325734,0.9993754646930989,-0.02703887576228825,-0.005545625346358786,-0.02206412940684203
699.1666666663594,0.034295674,-0.78375,0.040633205,-2.3856065,-0.016031014,1.5893829,0.7933643,0.039999697,0.04,-0.010636391685614477,-0.015543328882808294,-0.0033207838377125043,-0.07134075779846302,-0.0025609750349857782,-0.056956014173149286,0.9993468129592098,-0.027655594227629084,-0.0056473077956501186,-0.022565979944334683
699.1833333330261,0.035056416,-0.7837345,0.041537818,-2.3862581,-0.01639024,1.5897932,0.7935284,0.039999694,0.04,-0.009876885663939738,-0.015391491099674137,-0.0034559414064494476,-0.07210681540995677,-0.0024978856809283086,-0.057567410509425175,0.9993172022723779,-0.0282789268611406,-0.005749273527669967,-0.023073304747990235
699.1999999996927,0.03582508,-0.783719,0.04245185,-2.3869169,-0.016753195,1.5902078,0.79369414,0.039999682,0.04,-0.011202356988637696,-0.015139003328308587,-0.004030920341513422,-0.07286732372047407,-0.002435371846439296,-0.05817400547284909,0.999286611198599,-0.02890886573725223,-0.005851806080502358,-0.023586066365584652
699.2166666663594,0.036601596,-0.78370345,0.04337521,-2.387583,-0.01711985,1.5906266,0.7938616,0.03999968,0.04,-0.011714728703493549,-0.014891195096811138,-0.004276163739502792,-0.07362129646329639,-0.0023771799589516994,-0.05877540388249568,0.9992550213649506,-0.029545310079723084,-0.005955097400229852,-0.024104226687018906
699.233333333026,0.03738587,-0.7836878,0.044307813,-2.3882558,-0.017490182,1.5910497,0.7940308,0.03999967,0.04,-0.01053536753357065,-0.014737792546448691,-0.0038715487929552594,-0.07436920172100245,-0.002324864081083934,-0.05937138355746294,0.9992224163564838,-0.030188224062105633,-0.006058745088466205,-0.02462773612492321
699.2499999996927,0.03817786,-0.783672,0.045249607,-2.3889356,-0.017864145,1.5914768,0.7942016,0.03999966,0.04,-0.011019853094440535,-0.014574849803762613,-0.004241757222867015,-0.07511059078031256,-0.0022749958934575078,-0.05996292611685308,0.9991887758413842,-0.03083756359064188,-0.006162971126356481,-0.025156563582588293
699.2666666663594,0.038977496,-0.78365606,0.04620045,-2.3896215,-0.01824172,1.5919081,0.79437405,0.039999653,0.04,-0.009772805768437642,-0.01437547149167745,-0.0038623444456709066,-0.07584531069695952,-0.002230216142095908,-0.06054770637956153,0.9991540846269674,-0.0314932812372072,-0.0062673438807444295,-0.025690636637525546
699.283333333026,0.03978468,-0.7836399,0.04716028,-2.3903139,-0.018622857,1.5923437,0.79454815,0.039999645,0.04,-0.01027942777578339,-0.014171419733312318,-0.003898117433442927,-0.07657264764242809,-0.002185971979516324,-0.061127103749970206,0.9991183251918975,-0.03215527859592388,-0.006371966483280572,-0.026229913596738916
699.2999999996927,0.04059935,-0.78362364,0.048129003,-2.3910124,-0.01900754,1.5927832,0.7947238,0.03999964,0.04,-0.009856704673860683,-0.013956974460610505,-0.00417431092871734,-0.07729340614683948,-0.002144494241387126,-0.061701661536109495,0.9990814776674181,-0.03282354900285554,-0.0064768243074367895,-0.02677436011627884
699.3166666663593,0.041421402,-0.7836072,0.049106523,-2.391717,-0.0193957,1.5932267,0.7949012,0.039999638,0.04,-0.00952400409017784,-0.01375793373702,-0.004089410749030797,-0.07800643057233167,-0.0021059926736014707,-0.06226938880676217,0.9990435292346134,-0.03349792044262302,-0.006581811365196296,-0.02732390491165228
699.333333333026,0.04225077,-0.7835904,0.05009274,-2.3924282,-0.019787319,1.5936742,0.79508,0.03999963,0.04,-0.010903034417308888,-0.013481827562134008,-0.004331381929523204,-0.07871274019424077,-0.002069084544339111,-0.06283121631935207,0.9990044543411045,-0.0341784774448152,-0.0066873031079548685,-0.027878519747801905
699.3499999996926,0.043087386,-0.78357345,0.05108756,-2.3931456,-0.020182358,1.5941256,0.79526037,0.039999623,0.04,-0.009871302947450644,-0.01330039811104633,-0.004369013433036528,-0.07941123764854616,-0.002038596374308914,-0.06338762334244936,0.9989642400523179,-0.03486508837223207,-0.006792985019889089,-0.02843814452475595
699.3666666663593,0.04393115,-0.7835564,0.05209088,-2.3938694,-0.020580763,1.5945809,0.79544246,0.03999962,0.04,-0.010317349562893874,-0.013043563262932212,-0.004640847552250804,-0.08010165243943405,-0.0020106528212215403,-0.06393585502048531,0.9989228716736309,-0.03555758134144727,-0.006899018716926553,-0.029002730857567143
699.3833333330259,0.04478198,-0.78353924,0.0531026,-2.3945994,-0.020982493,1.5950398,0.7956259,0.039999608,0.04,-0.009953234833726121,-0.012828050592572637,-0.004672694643415021,-0.0807853344126092,-0.0019870088015838255,-0.06447941182910241,0.9988803268179447,-0.03625605790661841,-0.00700533513034232,-0.02957222076306616
699.3999999996926,0.045639794,-0.78352207,0.054122616,-2.3953352,-0.02138752,1.5955026,0.7958109,0.0399996,0.04,-0.008979713447021531,-0.012642037181498367,-0.004463918245645182,-0.08146051184050399,-0.0019676913758602324,-0.06501548183503761,0.9988365938644435,-0.036960383110334304,-0.007111560620069106,-0.03014655109894296
699.4166666663592,0.0465045,-0.7835047,0.055150826,-2.3960767,-0.021795798,1.595969,0.7959973,0.039999593,0.04,-0.009254040435346944,-0.012397977755454481,-0.004610731996002038,-0.08212724140968945,-0.001950150854406748,-0.06554487072018242,0.998791655058628,-0.037670476674071154,-0.007217889400138466,-0.030725674036580528
699.4333333330259,0.047376,-0.7834873,0.056187116,-2.3968241,-0.022207273,1.596439,0.79618526,0.039999586,0.04,-0.009494639162688223,-0.012127870419881281,-0.0047593403148527,-0.08278591995237915,-0.0019352202016185288,-0.06606750442790961,0.9987454951626956,-0.038386247665845655,-0.007324308069833111,-0.03130952560573797
699.4499999996925,0.048254207,-0.78346974,0.057231374,-2.3975773,-0.022621911,1.5969127,0.79637456,0.039999574,0.04,-0.009224977479704854,-0.011914220824278676,-0.004636063151775005,-0.08343624182841905,-0.0019231944419754836,-0.06658331677695473,0.9986980965555385,-0.039107679598829,-0.007430744951709472,-0.03189804636967869
699.4666666663592,0.049139023,-0.78345203,0.058283493,-2.3983364,-0.023039682,1.59739,0.79656535,0.039999567,0.04,-0.009602367427397063,-0.011613361497639363,-0.004930171343575651,-0.08407773905798581,-0.0019151472750484969,-0.06709290755712648,0.998649444879892,-0.03983462215109569,-0.007537333184123222,-0.032491194616920106
699.4833333330258,0.050030358,-0.78343403,0.059343364,-2.3991008,-0.023460539,1.597871,0.79675764,0.03999956,0.04,-0.008590183331658174,-0.011463398275898817,-0.004533380478410898,-0.08471081258555947,-0.0019110920002275364,-0.06759513697696273,0.9985995273641032,-0.04056699993640592,-0.007643791569072677,-0.03308889413077944
699.4999999996925,0.05092812,-0.7834159,0.060410865,-2.399871,-0.023884423,1.5983555,0.7969513,0.039999552,0.04,-0.009573007443353099,-0.011137790226675715,-0.004950876553322381,-0.08533596892258773,-0.0019102762461491417,-0.06808929557777663,0.9985483255248702,-0.04130477927427209,-0.007750317824812702,-0.033691087459386385
699.5166666663591,0.051832195,-0.78339756,0.06148589,-2.4006464,-0.0243113,1.598843,0.7971462,0.039999545,0.04,-0.00834180069440027,-0.010911758639266245,-0.005078645493949985,-0.08595165499374081,-0.0019125108611318005,-0.06857702255952304,0.9984958226376894,-0.04204792082487164,-0.007856900878919158,-0.03429772059434761
699.5333333330258,0.052742504,-0.7833791,0.06256832,-2.4014273,-0.024741104,1.599334,0.7973425,0.03999954,0.04,-0.008806231677471743,-0.010690567384741279,-0.004900278651653878,-0.08655810953987335,-0.0019192373443952596,-0.06905621836934046,0.9984420085092357,-0.042796290333724694,-0.007963348242335012,-0.03490871327456952
699.5499999996924,0.053658947,-0.78336066,0.06365805,-2.4022133,-0.025173794,1.5998278,0.7975402,0.039999533,0.04,-0.00845813646341842,-0.01038585246217194,-0.0055382882114374254,-0.08715540854584901,-0.0019284486091225121,-0.0695287226415361,0.9983868688101781,-0.04354975599398657,-0.00806985426366255,-0.03552402556630635
699.5666666663591,0.054581404,-0.7833422,0.06475492,-2.4030044,-0.025609339,1.6003251,0.7977391,0.039999526,0.04,-0.007934034404866175,-0.0101569680086816,-0.004773716355210844,-0.08774430817741834,-0.0019433813053130883,-0.06999319039711395,0.99833039052407,-0.04430833779675666,-0.008175936228660972,-0.03614355578151449
699.5833333330257,0.055509783,-0.7833236,0.06585882,-2.4038005,-0.026047679,1.6008257,0.79793924,0.03999952,0.04,-0.008110600381305844,-0.009902021303609398,-0.0050593666796050485,-0.08832298546377132,-0.0019592699572020186,-0.07044921239705908,0.9982725596386745,-0.045071919827767884,-0.00828178966648167,-0.03676725003870482
699.5999999996924,0.056443993,-0.7833048,0.06696967,-2.404602,-0.026488768,1.6013296,0.79814076,0.039999507,0.04,-0.008952039903964426,-0.009641712777774814,-0.005235497908406828,-0.08889206950622655,-0.0019771900735315664,-0.07089839526865317,0.9982133627042157,-0.04584036848808644,-0.008387608623715384,-0.037395068621325925
699.616666666359,0.057383917,-0.78328604,0.06808729,-2.405408,-0.026932552,1.6018366,0.7983435,0.0399995,0.04,-0.006804764962509147,-0.009425895554457386,-0.004921660874446232,-0.08945215428960798,-0.0019999554962121524,-0.0713383637159742,0.9981527915446554,-0.04661364909071135,-0.008492821565280723,-0.038026890905252644
699.6333333330257,0.058329467,-0.783267,0.06921159,-2.406219,-0.02737897,1.6023468,0.7985474,0.039999496,0.04,-0.008652380635365553,-0.009121817720020298,-0.005255008006543882,-0.0900020671206633,-0.0020223351837638064,-0.07177063778599871,0.998090827446521,-0.047391689736872314,-0.008597953042386197,-0.03866268374652748
699.6499999996923,0.059280507,-0.78324795,0.07034243,-2.4070349,-0.027827986,1.6028599,0.7987525,0.039999485,0.04,-0.007753495844164959,-0.008815726956584724,-0.005395590088119739,-0.09054207715982257,-0.002050548422800686,-0.07219453444176403,0.9980274616362114,-0.048174366640337,-0.00870284441483301,-0.039302375473679825
699.666666666359,0.060236946,-0.783229,0.07147967,-2.407855,-0.02827956,1.6033756,0.7989586,0.039999474,0.04,-0.006818574043787606,-0.008569487860646263,-0.0054480151176372615,-0.09107221567362764,-0.002080522533413842,-0.07261189965312578,0.9979626810704794,-0.048961667549218324,-0.008807280677137956,-0.0399458897572008
699.6833333330256,0.061198674,-0.7832098,0.072623216,-2.4086797,-0.028733632,1.6038941,0.7991661,0.03999947,0.04,-0.00754845519950198,-0.008340896294070643,-0.00525869606420315,-0.09159156013516868,-0.0021141717084205633,-0.07301900376289759,0.9978964810825206,-0.04975333598735886,-0.008911423822601164,-0.040593166009879715
699.6999999996923,0.062165573,-0.78319055,0.07377291,-2.4095092,-0.029190136,1.6044157,0.7993747,0.039999463,0.04,-0.007719285859120184,-0.00800656843140124,-0.005410539116534885,-0.09210193463970633,-0.0021503728641661182,-0.07341762759929409,0.997828847510233,-0.05054937367568217,-0.009015240876042704,-0.041244118724289965
699.716666666359,0.063137546,-0.783171,0.07492861,-2.410343,-0.029649029,1.6049399,0.7995843,0.03999945,0.04,-0.007245204336481237,-0.007785633947393622,-0.0052572524082084016,-0.09260182925432857,-0.002190476960660402,-0.07380837236358745,0.9977597674413339,-0.05134974752762145,-0.009118725345040268,-0.041898672441338526
699.7333333330256,0.06411445,-0.7831513,0.0760902,-2.4111807,-0.030110253,1.6054665,0.799795,0.03999944,0.04,-0.00678609026512067,-0.007458781300520578,-0.0055997839747190525,-0.09309127584825122,-0.002233353695429277,-0.07418971177002913,0.9976892324082974,-0.05215432990749158,-0.00922189919396782,-0.042556761903357276
699.7499999996922,0.06509622,-0.7831316,0.07725755,-2.4120224,-0.030573776,1.605996,0.80000657,0.03999943,0.04,-0.006102096715721039,-0.007339033036740661,-0.005002703841983092,-0.09356977082282181,-0.0022807737659352456,-0.07456379116764042,0.9976172355979788,-0.05296308798866924,-0.00932424909162318,-0.04321829389770922
699.7666666663589,0.06608271,-0.78311175,0.07843052,-2.412868,-0.031039521,1.6065283,0.80021936,0.03999943,0.04,-0.0066433269253707294,-0.0069666465347312245,-0.005297066080367507,-0.09403735755122593,-0.0023285788321188994,-0.07492664410663552,0.9975437740773443,-0.053775772837428217,-0.009426031808011229,-0.04388319700773484
699.7833333330256,0.0670738,-0.7830919,0.07960896,-2.4137177,-0.03150744,1.6070629,0.8004329,0.03999942,0.04,-0.00661645230783936,-0.006629544097067064,-0.005641851375481899,-0.09449462142468881,-0.0023780629259958636,-0.07528261362592628,0.9974688280563281,-0.054592476372790945,-0.00952736816617498,-0.04455140665846563
699.7999999996922,0.06806938,-0.783072,0.08079274,-2.414571,-0.03197748,1.6075999,0.8006476,0.03999941,0.04,-0.005908562599388212,-0.006406896881303026,-0.005471822728719822,-0.09494029819426371,-0.002430033708597512,-0.0756294604356144,0.9973924020443964,-0.05541291573460456,-0.009628095215960052,-0.045222836005840775
699.8166666663589,0.069069356,-0.78305197,0.081981726,-2.4154286,-0.032449592,1.6081393,0.8008631,0.039999407,0.04,-0.007113016355519974,-0.006052715772436601,-0.00566305343259188,-0.09537584281456307,-0.002484986389156514,-0.07596639282081119,0.9973144752400529,-0.05623717419071751,-0.009728481869290564,-0.045897433002508606
699.8333333330255,0.07007359,-0.78303194,0.083175786,-2.4162896,-0.032923706,1.6086807,0.8010797,0.039999396,0.04,-0.005507716374175686,-0.005868027732000569,-0.0055894668651523816,-0.09579977504517899,-0.002544473440996932,-0.07629471476888573,0.9972350562203177,-0.057064954585705915,-0.009828217629171788,-0.046575097870266646
699.8499999996922,0.07108195,-0.7830119,0.084374756,-2.4171546,-0.033399783,1.6092246,0.80129707,0.039999384,0.04,-0.006608274537778236,-0.005445941614418137,-0.005707670470056492,-0.09621336507657118,-0.002605914818216995,-0.07661379301925844,0.9971541278292603,-0.057896313660937004,-0.009927484435164866,-0.047255764413787794
699.8666666663588,0.07209433,-0.78299177,0.085578516,-2.418023,-0.033877745,1.6097705,0.8015154,0.039999377,0.04,-0.006003318403591251,-0.005257517207790663,-0.00559545274694262,-0.09661557385414737,-0.0026707057513042087,-0.07692362017030288,0.9970716907163598,-0.05873106348700071,-0.010026214232385132,-0.04793934482105527
699.8833333330255,0.07311063,-0.7829717,0.0867869,-2.4188945,-0.034357555,1.6103185,0.8017345,0.039999366,0.04,-0.004625820691694926,-0.005065647572885523,-0.0053982123067619625,-0.09700703676538158,-0.0027398851973073415,-0.07722365478104043,0.9969877399385703,-0.05956918845708923,-0.0101240197291639,-0.04862573827993706
699.8999999996921,0.07413071,-0.7829515,0.08799977,-2.4197695,-0.034839164,1.6108689,0.8019545,0.039999355,0.04,-0.005924566728809921,-0.00465113962504482,-0.005428039934129991,-0.09738660604794451,-0.002809247090970503,-0.077514628179668,0.9969022725868324,-0.06041050581509118,-0.010221162987484038,-0.04931488138034105
699.9166666663588,0.07515448,-0.7829311,0.089217,-2.4206476,-0.035322495,1.6114211,0.8021752,0.039999347,0.04,-0.005359070610677641,-0.004477135442856883,-0.005610375226394737,-0.09775520028284915,-0.0028811272309121547,-0.07779514816891733,0.9968152771800607,-0.06125502059012668,-0.010317732862025576,-0.050006699766427604
699.9333333330254,0.076181784,-0.78291047,0.09043843,-2.4215283,-0.035807516,1.6119753,0.8023967,0.039999347,0.04,-0.004541735842611416,-0.004203235899261082,-0.005140784329027426,-0.09811164686825163,-0.002956118956311961,-0.07806756233203184,0.9967267587058406,-0.062102566826017835,-0.0104133994935964,-0.050701092536115926
699.9499999996921,0.07721246,-0.7828897,0.09166393,-2.4224122,-0.036294144,1.6125312,0.80261904,0.03999934,0.04,-0.005320763856309085,-0.003767191733985986,-0.005715350548229914,-0.09845700518601223,-0.0030326108234445467,-0.0783297290092557,0.9966367141845983,-0.06295297341523806,-0.010508517101654194,-0.05139799748853917
699.9666666663587,0.07824646,-0.78286904,0.09289334,-2.423299,-0.03678231,1.6130888,0.8028419,0.03999933,0.04,-0.005085590604836376,-0.003571324782727925,-0.005721158837679319,-0.09879103138172754,-0.0031139548783281276,-0.07858178053560738,0.9965451326284812,-0.0638063097923426,-0.01060294157604646,-0.052097323300736104
699.9833333330254,0.079283595,-0.7828483,0.09412651,-2.4241886,-0.03727196,1.6136483,0.8030656,0.03999933,0.04,-0.00440525823779403,-0.0032802804934339846,-0.005394387295054592,-0.09911247427580883,-0.0031970486401807843,-0.07882146447362101,0.9964520276257848,-0.06466228232397506,-0.010696487862296931,-0.05279896810098162
699.999999999692,0.08032379,-0.7828275,0.09536328,-2.4250803,-0.037763048,1.6142094,0.8032899,0.03999931,0.04,-0.003629244117830943,-0.003112169129554365,-0.00522773982822855,-0.09942325777053798,-0.003281876207805269,-0.0790558872351441,0.9963573924473959,-0.06552091959812952,-0.010788981907961275,-0.053502836184928654
700.0166666663587,0.0813669,-0.78280663,0.096603535,-2.425975,-0.038255505,1.6147718,0.8035148,0.0399993,0.04,-0.005343334933516353,-0.0025741640196669247,-0.005994249710394861,-0.09972138110023912,-0.003366813409267942,-0.0792780250503784,0.9962612189550729,-0.06638208022415633,-0.010881077364761339,-0.05420890320462292
700.0333333330253,0.08241279,-0.78278583,0.09784707,-2.426872,-0.03874929,1.6153357,0.8037403,0.039999295,0.04,-0.003555761354756548,-0.0024177618510756727,-0.005429031878256829,-0.10000775412623128,-0.0034583274761209037,-0.07948864564108366,0.9961635201819284,-0.06724561057482471,-0.010972179707430247,-0.054917030051118976
700.049999999692,0.08346135,-0.78276503,0.09909379,-2.4277706,-0.039244324,1.6159011,0.8039664,0.039999276,0.04,-0.002780572699090378,-0.002334844405341152,-0.005055219403482525,-0.10028274359481887,-0.0035507626606766374,-0.0796930844457157,0.9960642951493666,-0.06811148920486618,-0.011062025017189179,-0.05562712080820077
700.0666666663586,0.08451246,-0.7827441,0.1003435,-2.428672,-0.039740555,1.616468,0.80419296,0.039999265,0.04,-0.004953812855723605,-0.0017292501334364996,-0.00570828398009926,-0.10054497506854794,-0.003641174079257521,-0.07988618016418883,0.9959635358702873,-0.06897959964658598,-0.011151330390198699,-0.05633913275761588
700.0833333330253,0.085565954,-0.7827232,0.10159609,-2.4295757,-0.040237922,1.6170361,0.80442005,0.039999265,0.04,-0.003644113952394612,-0.0015592057737434661,-0.0054472247936310225,-0.10079518253844387,-0.0037373168340519222,-0.080066936227599,0.995861252515978,-0.06984979065549263,-0.01123973987835856,-0.057052964253913464
700.0999999996919,0.086621724,-0.7827022,0.102851376,-2.4304812,-0.040736366,1.6176054,0.8046478,0.03999925,0.04,-0.0033352060887059665,-0.0012945610051190437,-0.005358805168409475,-0.10103319103379434,-0.0038360000559004015,-0.08024097927707836,0.9957574538992239,-0.07072188418667469,-0.011327223115584022,-0.0577685218584613
700.1166666663586,0.08767967,-0.7826812,0.10410922,-2.431388,-0.04123583,1.6181759,0.80487597,0.03999924,0.04,-0.0020898698663618376,-0.0011678634519951547,-0.005068383079032124,-0.10126002428723552,-0.003934720424731981,-0.08040328682000616,0.995652139968473,-0.07159589737004657,-0.011413462399484675,-0.05848569510601242
700.1333333330252,0.088739626,-0.7826601,0.10536946,-2.432297,-0.041736264,1.6187475,0.80510443,0.039999235,0.04,-0.004193477921310418,-0.0005959984119230377,-0.005540186120867041,-0.10147390452119898,-0.00403432641925465,-0.08055368636883087,0.9955453032378251,-0.07247174771366487,-0.011499059736804023,-0.05920444754917469
700.1499999996919,0.08980149,-0.7826389,0.10663196,-2.4332075,-0.04223756,1.6193202,0.80533344,0.039999228,0.04,-0.002614758451757737,-0.0005515644669745745,-0.005094376428305125,-0.10167520384600681,-0.004137831446777575,-0.08069454452814766,0.9954369648535734,-0.0733492135276298,-0.011583598084355117,-0.059924637115328964
700.1666666663585,0.09086511,-0.7826178,0.10789656,-2.4341197,-0.042739697,1.6198939,0.80556285,0.03999921,0.04,-0.002746304407486022,-0.00016549033493573617,-0.00529429074440646,-0.1018645858484848,-0.004242541225289692,-0.08082702014584536,0.995327126216828,-0.07422821994218096,-0.011667084369820307,-0.06064620617543589
700.1833333330252,0.09193037,-0.78259665,0.10916309,-2.435033,-0.043242622,1.6204683,0.80579257,0.039999202,0.04,-0.002266441357190452,0.00012308906641445017,-0.005270128798562368,-0.10204185840641085,-0.004348884289097209,-0.08094802263463106,0.995215789845223,-0.07510869360420756,-0.011749616544989136,-0.061369066302689804
700.1999999996918,0.09299713,-0.78257537,0.11043141,-2.4359472,-0.04374624,1.6210436,0.8060226,0.039999194,0.04,-0.0014211256205820533,0.00020003781845967517,-0.004691355949515419,-0.10220623504937489,-0.004456220626079685,-0.08105793817951279,0.9951029695565986,-0.07599053518514035,-0.011830816772836678,-0.06209307784610581
700.2166666663585,0.09406527,-0.7825541,0.11170138,-2.4368634,-0.044250507,1.6216197,0.8062528,0.039999183,0.04,-0.0037313073872669023,0.0008253665655683085,-0.005579479095740858,-0.10235804855146058,-0.0045635605360768855,-0.08115870291197491,0.9949886562186141,-0.07687367267252848,-0.011911405703744595,-0.06281823668549115
700.2333333330251,0.09513466,-0.78253275,0.11297282,-2.4377806,-0.044755362,1.6221964,0.8064834,0.039999176,0.04,-0.0018447713634683893,0.0009125865735842842,-0.00503414420649495,-0.10249697439246166,-0.004676224889701583,-0.08124830534229928,0.9948728767541064,-0.07775785966336517,-0.011990938724912309,-0.0635444076853072
700.2499999996918,0.09620517,-0.78251123,0.11424556,-2.4386988,-0.04526076,1.6227738,0.8067142,0.039999165,0.04,-0.0019654818190995016,0.0012281234361227744,-0.0049354703550053,-0.10262379648013623,-0.004789129060544281,-0.08132757377097825,0.9947556311484557,-0.07864309074908754,-0.012069490370692564,-0.06427150206786982
700.2666666663584,0.09727664,-0.7824898,0.11551947,-2.4396174,-0.04576662,1.6233515,0.8069452,0.03999916,0.04,-0.0009634810145708883,0.0014186058582082994,-0.004914747521755913,-0.10273813533876848,-0.0049057708755176,-0.08139607439067396,0.9946369363427578,-0.07952920626355578,-0.012146829880112337,-0.06499942105622951
700.2833333330251,0.098348945,-0.78246826,0.11679439,-2.4405367,-0.046272874,1.6239296,0.8071765,0.039999146,0.04,-0.0014548763104249574,0.0017561741563226763,-0.004855896006494831,-0.10283971067416166,-0.00502191617921241,-0.08145436172421891,0.9945168028163904,-0.08041607794564007,-0.012223086363261934,-0.06572807226339376
700.2999999996917,0.09942198,-0.7824469,0.11807017,-2.4414568,-0.04677948,1.6245081,0.8074079,0.03999914,0.04,-0.0012168378698662607,0.002044935972231321,-0.005003295884997705,-0.10292904865739436,-0.00513937065575721,-0.08150287572065086,0.9943952389063279,-0.08130362134311013,-0.012298208992339063,-0.0664573852367369
700.3166666663584,0.10049561,-0.7824257,0.119346626,-2.4423773,-0.047286354,1.625087,0.8076394,0.039999127,0.04,-0.0008729807325025263,0.0022786758700182874,-0.00479385336107363,-0.10300584794027424,-0.0052573588338264005,-0.08154005485691428,0.9942722559327614,-0.08219176681614059,-0.012372124953880102,-0.0671872389233569
700.333333333025,0.1015697,-0.78240436,0.12062364,-2.4432979,-0.047793422,1.6256661,0.807871,0.039999124,0.04,-0.00036092503286067057,0.002406747938218934,-0.004470686522184408,-0.10306948035778507,-0.005375376531260946,-0.08156504826283123,0.9941478668046054,-0.0830804109124653,-0.012444785595952013,-0.06791753501076993
700.3499999996917,0.1026441,-0.7823829,0.12190102,-2.4442189,-0.048300654,1.6262457,0.8081026,0.039999116,0.04,-0.0010830809257456053,0.0028434638441571236,-0.004489555132058953,-0.10312010721977818,-0.005493744519408698,-0.08158260160440552,0.9940220843737109,-0.08396941343980382,-0.012516321194007802,-0.0686481979930062
700.3666666663584,0.1037187,-0.78236157,0.123178616,-2.4451401,-0.048807986,1.6268253,0.8083344,0.039999105,0.04,-0.0005466490837990889,0.003138479948677775,-0.004757610428018921,-0.10315767429117681,-0.0056126582525683685,-0.08158857147539182,0.9938949284882767,-0.08485857885785587,-0.012586737920132332,-0.06937915211386075
700.383333333025,0.10479336,-0.7823401,0.1244563,-2.4460614,-0.049315345,1.627405,0.8085662,0.03999909,0.04,-0.00036770989253476216,0.003277258942299688,-0.004385451631039317,-0.10318374906084207,-0.00573457960856924,-0.08158441850710604,0.9937664061996847,-0.08574789956701523,-0.012655995057920267,-0.07011029466420965
700.3999999996917,0.105867945,-0.7823186,0.12573387,-2.4469826,-0.049822662,1.6279846,0.808798,0.03999909,0.04,-0.00035778997065083473,0.0036716408378656418,-0.0045125990676186944,-0.10319631522381652,-0.005855050152668344,-0.08156655983169125,0.9936365360599627,-0.08663721512980399,-0.012724196551606101,-0.07084152725221583
700.4166666663583,0.10694233,-0.78229713,0.1270112,-2.4479039,-0.05032988,1.628564,0.80902964,0.03999907,0.04,-0.00025363770304043243,0.003916327825537191,-0.004598006220568607,-0.10319648066886665,-0.005978346900820615,-0.08154239620962797,0.9935053242016845,-0.08752650534962389,-0.012791359900363257,-0.07157277943525517
700.433333333025,0.10801638,-0.7822758,0.12828812,-2.4488246,-0.050836924,1.6291431,0.8092612,0.03999906,0.04,0.0006238667240809903,0.004087690800097521,-0.004288124964912932,-0.1031835696393319,-0.006103500792345375,-0.08150546942792206,0.993372799546677,-0.08841557881589325,-0.012857229634159693,-0.07230392928176581
700.4499999996916,0.109089956,-0.7822545,0.12956452,-2.4497452,-0.051343754,1.6297218,0.80949265,0.03999905,0.04,9.790225869998892e-05,0.004434098795935704,-0.004508355714349932,-0.10315757691391868,-0.006227624906466674,-0.08145839238212235,0.9932389698584667,-0.08930434837826753,-0.012922086514687141,-0.0730349354441553
700.4666666663583,0.11016292,-0.7822332,0.13084017,-2.4506652,-0.0518503,1.6303003,0.809724,0.039999045,0.04,0.00048409816395533767,0.004660250854315873,-0.0039767903504239754,-0.10311869652851696,-0.006354425425178972,-0.08139834821053558,0.993103862632083,-0.09019267687397572,-0.012985712817043072,-0.07376564461981373
700.4833333330249,0.11123517,-0.7822118,0.13211493,-2.4515846,-0.052356493,1.6308783,0.8099551,0.03999903,0.04,0.0007905608661706864,0.0048579445204532945,-0.004049030472907944,-0.10306730622163833,-0.006481883964779299,-0.08133059034104301,0.9929674911511422,-0.09108048619588245,-0.013048183489615417,-0.07449598283766107
700.4999999996916,0.11230651,-0.7821906,0.13338867,-2.4525032,-0.052862294,1.631456,0.8101862,0.039999016,0.04,0.0011631016873625555,0.0051912407075777045,-0.003994879851321187,-0.10300313955900504,-0.006610668170460257,-0.08125209262613789,0.992829886347475,-0.0919675599046152,-0.013109303473723835,-0.07522586565061687
700.5166666663582,0.113376886,-0.7821694,0.13466121,-2.453421,-0.053367633,1.6320332,0.81041676,0.03999901,0.04,0.0008115315405676782,0.005390646991138004,-0.003899269133378347,-0.10292671000783596,-0.0067380594384058926,-0.0811621825688159,0.9926910403447796,-0.0928540504750019,-0.013169313208755157,-0.07595520337142672
700.5333333330249,0.11444614,-0.78214824,0.13593243,-2.4543378,-0.053872444,1.6326098,0.8106472,0.03999901,0.04,0.0017188372215537484,0.00554092650951743,-0.003692229255136681,-0.1028358500486731,-0.0068657355105962645,-0.08106020192936808,0.9925509983454077,-0.09373962271601206,-0.01322797742466096,-0.07668389289705504
700.5499999996915,0.11551413,-0.78212714,0.13720213,-2.4552534,-0.054376617,1.633186,0.8108773,0.03999899,0.04,0.0017596147109388838,0.005802493985296309,-0.0035207331554154564,-0.10273232454249916,-0.006992790016136119,-0.08094959029656747,0.9924097799569489,-0.09462422328418926,-0.013285266482769575,-0.07741179954080674
700.5666666663582,0.11658074,-0.7821061,0.1384702,-2.4561677,-0.054880146,1.6337609,0.8111073,0.03999898,0.04,0.0015715360077273033,0.0061717298640184826,-0.00396868699024111,-0.10261603255680336,-0.007118164271260392,-0.0808290725757971,0.9922674017877555,-0.09550767181225683,-0.013341542527305081,-0.0781389225506167
700.5833333330248,0.117645815,-0.782085,0.13973641,-2.457081,-0.05538298,1.6343352,0.811337,0.039998967,0.04,0.00119076818685393,0.006517237057673819,-0.0035982783378907257,-0.10248782740385314,-0.007247494157006727,-0.08069793913520854,0.9921238900215099,-0.09638985420628671,-0.013396771777145261,-0.07886513399867408
700.5999999996915,0.11870926,-0.78206396,0.14100069,-2.4579928,-0.055885028,1.6349087,0.8115663,0.039998963,0.04,0.0025252831330035974,0.006430192753709152,-0.003187691458594877,-0.10234746495127497,-0.007376730973884374,-0.0805536441645392,0.9919792630393498,-0.09727078418574088,-0.013450563586973623,-0.07959031714343309
700.6166666663581,0.1197709,-0.7820429,0.14226282,-2.458903,-0.05638624,1.6354814,0.81179506,0.039998945,0.04,0.00204060175856835,0.006878563333972965,-0.0032767245255138633,-0.1021935692125044,-0.007504271543697795,-0.08040296173157163,0.9918335404364567,-0.09815035487199525,-0.013503153016075322,-0.08031438702006852
700.6333333330248,0.12083065,-0.78202194,0.14352266,-2.4598114,-0.05688655,1.6360527,0.8120235,0.039998934,0.04,0.0027832100094604684,0.0070242635505646245,-0.003305659787899984,-0.10202623907426657,-0.00763252832144648,-0.08023999965715996,0.991686757691968,-0.09902833743433309,-0.013554518310614586,-0.08103726326049546
700.6499999996914,0.12188837,-0.78200096,0.14478011,-2.4607182,-0.0573859,1.6366229,0.8122515,0.039998922,0.04,0.002358132627366949,0.007285322833405772,-0.0032449723702088207,-0.10184700856747586,-0.0077602977946971755,-0.08006668093750673,0.9915389273880203,-0.09990471276151644,-0.013604775414707641,-0.08175887675456586
700.6666666663581,0.12294391,-0.78198004,0.14603493,-2.4616234,-0.05788423,1.6371921,0.812479,0.039998915,0.04,0.002106949953506465,0.0076779144355332285,-0.0031134463719162397,-0.10165461749579682,-0.007888423416422971,-0.0798828458962277,0.9913900822531312,-0.100779321487645,-0.013653920383450499,-0.08247911025697477
700.6833333330247,0.12399716,-0.7819592,0.14728707,-2.4625263,-0.058381468,1.6377602,0.8127061,0.039998915,0.04,0.00364094585481034,0.0075126631424837775,-0.0026895908866064744,-0.10145010972220948,-0.008018022619596749,-0.07968574710235038,0.9912402521109407,-0.10165206907734776,-0.013701613039473206,-0.08319786804629807
700.6999999996914,0.125048,-0.78193843,0.14853632,-2.463427,-0.058877543,1.6383266,0.81293267,0.0399989,0.04,0.003222226091148528,0.00797512540811618,-0.00300027194588548,-0.10123250366830257,-0.00814424998815122,-0.07948256543929265,0.9910894584601928,-0.10252285016012387,-0.013748148868334914,-0.08391506972421796
700.716666666358,0.12609626,-0.78191775,0.14978252,-2.4643257,-0.059372436,1.638892,0.81315863,0.039998885,0.04,0.0033046316155527222,0.00817596267653209,-0.0025165151778416828,-0.10100257794661585,-0.008271686102742551,-0.07926871912065855,0.9909377296801309,-0.10339157995820887,-0.013793346446603032,-0.08463061316058815
700.7333333330247,0.12714188,-0.7818971,0.1510255,-2.4652216,-0.059866063,1.6394559,0.81338406,0.039998874,0.04,0.003981798644803192,0.008312401184024099,-0.002508389970934388,-0.10075963033320384,-0.008396649712418831,-0.07904427067304108,0.9907850984169257,-0.10425811275629045,-0.013837225849738921,-0.08534439559949153
700.7499999996913,0.12818466,-0.7818765,0.1522652,-2.4661155,-0.060358364,1.6400182,0.8136088,0.039998867,0.04,0.0031192770658439173,0.008655398005019688,-0.002663358840271357,-0.10050426630670413,-0.008521692127743796,-0.07880864917366405,0.9906315781988527,-0.10512239041775522,-0.013880080615428215,-0.08605639238439296
700.766666666358,0.12922448,-0.781856,0.15350139,-2.467007,-0.060849283,1.640579,0.8138329,0.039998863,0.04,0.003668301320303158,0.008919025999154506,-0.0024527713758049074,-0.10023628179036695,-0.008645414824875453,-0.07856297602119892,0.9904772055715965,-0.10598428800242474,-0.013921763421945016,-0.08676647072990638
700.7833333330246,0.13026126,-0.78183544,0.15473394,-2.4678955,-0.061338734,1.641138,0.8140564,0.039998848,0.04,0.004211516670604709,0.008932895390939555,-0.0022078680691706154,-0.09995566484414602,-0.008771023062945135,-0.07830864229067322,0.990322017782156,-0.10684363704771323,-0.013962259813036575,-0.08747453126029922
700.7999999996913,0.13129482,-0.78181493,0.1559627,-2.4687815,-0.06182671,1.6416954,0.81427926,0.03999883,0.04,0.004024251516421273,0.009278938006251902,-0.002091345656851651,-0.09966342038909475,-0.008895577900820628,-0.07804444983521552,0.9901660404133892,-0.10770035701095546,-0.014001540041093935,-0.0881805102517605
700.816666666358,0.13232514,-0.7817945,0.15718755,-2.4696648,-0.062313117,1.6422509,0.8145014,0.039998822,0.04,0.003931647679222827,0.009429968772195485,-0.00228522900203032,-0.09935863947554831,-0.009019604592353,-0.07776828993996902,0.9900092931407732,-0.10855440250680136,-0.014039805299490159,-0.08888433528159223
700.8333333330246,0.13335201,-0.7817742,0.15840827,-2.470545,-0.06279791,1.6428049,0.81472284,0.039998814,0.04,0.004976401610190528,0.009591541240450141,-0.001652526720063996,-0.09904134863524969,-0.009143106607737848,-0.07748201476823303,0.9898518264463306,-0.10940560465882737,-0.014076615312606743,-0.089585848499865
700.8499999996912,0.13437533,-0.781754,0.15962474,-2.4714224,-0.06328102,1.6433566,0.81494343,0.039998807,0.04,0.004257814703212404,0.009977978579128743,-0.0021721412828412667,-0.09871187537898606,-0.009263991734612398,-0.0771865232205346,0.989693652570871,-0.11025390256464289,-0.014112529976252612,-0.09028503490536867
700.8666666663579,0.13539499,-0.7817339,0.16083689,-2.4722965,-0.06376242,1.6439065,0.81516325,0.0399988,0.04,0.005194376125228217,0.00985920753288072,-0.0014592439360860965,-0.09837083674060798,-0.009387956254519852,-0.07688221256622235,0.9895348102164028,-0.11109920680764396,-0.014147096958886657,-0.0909817853437484
700.8833333330246,0.1364108,-0.7817137,0.16204454,-2.4731672,-0.06424202,1.6444541,0.8153822,0.039998785,0.04,0.005009540741229834,0.010259003810964007,-0.0016550177124763366,-0.0980167670867231,-0.009508407560170927,-0.07656955271918968,0.9893753276251439,-0.11194140246354249,-0.014180618831065542,-0.09167602495037767
700.8999999996912,0.13742273,-0.78169364,0.1632475,-2.4740353,-0.06471976,1.6449995,0.8156004,0.039998777,0.04,0.0038908408553028906,0.010681687397345874,-0.001989481842668006,-0.09765035438083713,-0.009628619669197362,-0.07624408966657084,0.989215240215959,-0.1127802951469546,-0.014213438110173365,-0.09236769851055425
700.9166666663579,0.13843058,-0.7816737,0.16444567,-2.4748993,-0.06519559,1.6455431,0.8158176,0.039998766,0.04,0.0065527467448145416,0.010295993798137282,-0.0007549807569118272,-0.0972731215921872,-0.00975170602978307,-0.07590824225577728,0.9890545865066328,-0.11361594597093844,-0.014244593349842053,-0.09305661336852872
700.9333333330245,0.13943428,-0.781654,0.16563886,-2.4757597,-0.06566945,1.6460842,0.816034,0.039998762,0.04,0.00557385666362098,0.010850119230076949,-0.0014319611162827428,-0.09688293078900145,-0.009869245462259604,-0.07556287183772875,0.9888934050753699,-0.11444808222360194,-0.014274691270767073,-0.09374274938844156
700.9499999996912,0.14043371,-0.7816344,0.16682696,-2.4766164,-0.066141285,1.6466234,0.8162495,0.039998747,0.04,0.00607811748092324,0.010782854570434708,-0.0007376405044778878,-0.09648147767231202,-0.009987216562191013,-0.07521060318672869,0.9887317246200166,-0.11527673008533132,-0.014303384126598949,-0.09442597859322537
700.9666666663578,0.14142878,-0.7816148,0.16800988,-2.4774692,-0.06661106,1.6471599,0.816464,0.039998736,0.04,0.005761515668556427,0.011090096469107413,-0.0011110014328519213,-0.09606790687743574,-0.01010108405111584,-0.07484881460823635,0.9885695672358783,-0.11610177579744924,-0.014331108356240062,-0.09510629697884773
700.9833333330245,0.14241934,-0.7815952,0.16918741,-2.4783175,-0.06707868,1.6476939,0.81667745,0.039998725,0.04,0.006968354226244422,0.011091111934419251,-0.0005717160231233365,-0.09564195055789551,-0.01021462265786191,-0.07447816943609638,0.9884069776161958,-0.11692314297906489,-0.01435755068622594,-0.09578353707086967
700.9999999996911,0.14340524,-0.7815756,0.1703594,-2.4791627,-0.06754415,1.6482257,0.81689006,0.039998714,0.04,0.004788759326479486,0.01176143007176611,-0.0009377731089665886,-0.0952040964917679,-0.01032659366146831,-0.0740977097888285,0.9882439928730288,-0.11774058924043398,-0.014383170086293185,-0.09645770375639871
701.0166666663578,0.1443864,-0.7815563,0.17152576,-2.4800034,-0.06800735,1.6487547,0.81710154,0.03999871,0.04,0.0072142647126183235,0.011491166508087458,-0.0005218690637631695,-0.09475543294840713,-0.01043826939192789,-0.07370595499037468,0.9880806453589612,-0.1185541570554211,-0.014407508419350627,-0.09712864568727267
701.0333333330244,0.14536272,-0.781537,0.17268634,-2.4808402,-0.06846823,1.649281,0.817312,0.039998706,0.04,0.005768100480652016,0.01189042792546502,-0.0007402675320733465,-0.0942948432442096,-0.010546227426838872,-0.07330483207114301,0.9879169650710744,-0.1193636960076091,-0.014431060750646615,-0.09779633268058602
701.0499999996911,0.14633407,-0.78151786,0.17384097,-2.4816725,-0.068926804,1.6498048,0.8175214,0.039998688,0.04,0.007245440201408826,0.011873586515098733,-7.569916833372048e-05,-0.09382313572033149,-0.010657087489354938,-0.0728974011453348,0.9877529989520427,-0.12016911937994085,-0.014453297419391888,-0.09846064189513533
701.0666666663577,0.14730033,-0.7814988,0.17498969,-2.4825008,-0.069382966,1.6503259,0.81772965,0.039998677,0.04,0.006241006252194481,0.012068609808812969,-0.0004166059503374342,-0.09333994857585703,-0.010763886353458655,-0.0724807242575828,0.9875887606358672,-0.12097039538005691,-0.014474660186862257,-0.09912157948589757
701.0833333330244,0.1482614,-0.7814799,0.1761321,-2.483325,-0.0698367,1.650844,0.8179369,0.03999866,0.04,0.006346470803286763,0.012605261899678588,-0.0004440015387352503,-0.09284525249497301,-0.010871453825975298,-0.07205603468337851,0.9874243119496543,-0.12176725458755835,-0.01449523994650109,-0.09977901532814304
701.099999999691,0.14921711,-0.78146094,0.17726825,-2.484144,-0.07028792,1.6513591,0.8181429,0.039998654,0.04,0.00806601306146959,0.012156008252844908,0.0004092476129979872,-0.09234064169090583,-0.010979221771315998,-0.07162058554803459,0.9872596780747576,-0.12255978051171942,-0.014514604617988142,-0.10043283577311107
701.1166666663577,0.1501675,-0.78144205,0.17839797,-2.484959,-0.07073659,1.6518716,0.8183478,0.03999865,0.04,0.0063154001122667225,0.012608191646673594,2.6811040387819673e-05,-0.09182388778810448,-0.011083458645239453,-0.07117514597537797,0.9870948928943462,-0.12334782188049476,-0.01453312522207064,-0.10108301306607677
701.1333333330243,0.15111233,-0.7814234,0.17952114,-2.4857686,-0.07118264,1.6523811,0.8185514,0.03999865,0.04,0.008411312598632925,0.012497066652367161,0.0005325666823541297,-0.09129641660268656,-0.011187759057794622,-0.07072065511533297,0.9869299991057316,-0.12413134546558757,-0.014550346846778011,-0.10172941238747954
701.149999999691,0.15205152,-0.7814049,0.18063757,-2.4865735,-0.07162602,1.6528878,0.8187538,0.03999864,0.04,0.007629633093508836,0.012848646802410268,0.0005853350236506571,-0.09075740006045746,-0.01128815116455548,-0.07026018810588833,0.9867650398055979,-0.12491020328453664,-0.01456644919806336,-0.1023719487488279
701.1666666663576,0.15298502,-0.7813865,0.1817472,-2.4873736,-0.07206672,1.6533908,0.818955,0.03999862,0.04,0.0072208007199536794,0.01316184928825681,-5.679856984741605e-05,-0.09020746570636215,-0.011386285872721072,-0.06979268212783832,0.9866000374225725,-0.12568424811625983,-0.014582034247004922,-0.10301068007953361
701.1833333330243,0.15391263,-0.78136814,0.18284987,-2.4881687,-0.072504625,1.6538911,0.8191549,0.03999861,0.04,0.007939877740081869,0.013002139644846533,0.0010778616083673143,-0.08964757509891669,-0.011484597101977224,-0.06931230968251148,0.9864350442905104,-0.12645347548862562,-0.014596448993819585,-0.10364538392614005
701.1999999996909,0.15483432,-0.78135,0.18394546,-2.4889588,-0.07293976,1.6543876,0.8193536,0.03999859,0.04,0.007837723376113992,0.013464017469633216,0.0002724971014833599,-0.0890767622224319,-0.011581510419571756,-0.0688276922181347,0.9862700869578198,-0.12721772279060983,-0.014610209737738352,-0.10427611592116996
701.2166666663576,0.15574992,-0.781332,0.18503387,-2.4897437,-0.07337207,1.6548814,0.819551,0.039998576,0.04,0.008394496558072895,0.013245487255958421,0.0013455850204069364,-0.08849633126808353,-0.011678316164394121,-0.06833226177868375,0.9861052168943831,-0.1279769425940517,-0.01462276454045416,-0.10490270794958038
701.2333333330242,0.15665938,-0.781314,0.186115,-2.4905236,-0.07380146,1.6553715,0.8197471,0.039998565,0.04,0.0076460150345125655,0.013609502799916129,0.0007406367671158876,-0.08790528610216103,-0.01177062631495153,-0.06782964858982746,0.9859404556710504,-0.12873105213588745,-0.014634735505781427,-0.10552515626060359
701.2499999996909,0.15756263,-0.78129625,0.18718867,-2.4912975,-0.07422788,1.6558588,0.81994176,0.03999856,0.04,0.009666088487825242,0.013239214373195196,0.0017570971317937278,-0.08730435592013126,-0.011864208273814458,-0.06731747415219493,0.9857758578206299,-0.12948004948012978,-0.014645278786028216,-0.10614325571558389
701.2666666663575,0.15845951,-0.78127867,0.18825483,-2.4920664,-0.07465128,1.6563425,0.8201352,0.03999855,0.04,0.007888019228197152,0.013880089404638696,0.0009997430135744168,-0.08669216036268226,-0.011950515697914069,-0.06679928135025841,0.985611454454374,-0.13022371176528574,-0.014655150837343927,-0.1067570714114054
701.2833333330242,0.15934995,-0.7812612,0.18931329,-2.49283,-0.07507167,1.6568226,0.82032716,0.039998546,0.04,0.008181801467332939,0.014088425939112748,0.0011333809019298258,-0.08607056834900118,-0.012037435335432927,-0.06627259994359472,0.9854472757281707,-0.13096201095293852,-0.01466442044439604,-0.10736653677994405
701.2999999996908,0.16023393,-0.78124386,0.19036396,-2.493588,-0.07548896,1.6572993,0.8205177,0.039998535,0.04,0.009068716267934818,0.013768448666334754,0.0017344229400695355,-0.0854399072553895,-0.012125818268873295,-0.06573837052333013,0.9852833645499851,-0.13169493811766475,-0.01467270553884982,-0.10797150794267726
701.3166666663575,0.1611112,-0.7812267,0.1914068,-2.4943397,-0.07590311,1.6577723,0.8207067,0.039998524,0.04,0.00983326685997099,0.013886716925420872,0.001878860488391254,-0.0847984252816188,-0.01220994815699895,-0.06519662944657321,0.9851197597052013,-0.13242239965644337,-0.014679959094655037,-0.10857193886347889
701.3333333330241,0.16198173,-0.7812096,0.19244163,-2.4950862,-0.0763141,1.6582416,0.8208943,0.03999851,0.04,0.00813590395933872,0.014447306765369428,0.0014928436770755837,-0.08414697111295026,-0.012291039118282068,-0.06464953989943327,0.9849564948024708,-0.13314423795519043,-0.014686734690694708,-0.10916782983043484
701.3499999996908,0.16284548,-0.78119266,0.19346832,-2.4958267,-0.07672187,1.6587074,0.8210805,0.039998498,0.04,0.009493624156209357,0.014177609378945855,0.0020454643768763603,-0.08348660089919695,-0.012373465146752097,-0.06409334825418037,0.9847936233236341,-0.13386037693514113,-0.01469258836819912,-0.10975903969574859
701.3666666663574,0.16370235,-0.7811758,0.19448684,-2.496561,-0.07712638,1.6591693,0.8212653,0.039998487,0.04,0.009697337134095818,0.01417553633296098,0.0021470960031910735,-0.08281717635327591,-0.01245189319921717,-0.06353089247051674,0.9846311728221676,-0.13457078621281185,-0.014697609344465646,-0.11034553586106668
701.3833333330241,0.16455217,-0.7811592,0.195497,-2.4972892,-0.0775276,1.6596276,0.82144856,0.03999848,0.04,0.010006700955456083,0.01447539980591328,0.0023241031615217622,-0.08213815735763222,-0.012528242829467868,-0.06296027816110798,0.9844691963994945,-0.1352753263245453,-0.014701663804206606,-0.11092722168029531
701.3999999996907,0.16539489,-0.7811428,0.19649875,-2.498011,-0.07792548,1.660082,0.82163024,0.039998468,0.04,0.009781584095902573,0.014496085595144814,0.0023798993040280436,-0.0814503806725049,-0.012601009223065014,-0.06238452437056759,0.9843077136422508,-0.13597402079588053,-0.01470493222515876,-0.11150406046965233
701.4166666663574,0.16623048,-0.7811263,0.19749196,-2.4987276,-0.07832,1.6605326,0.8218103,0.03999846,0.04,0.008472864609521125,0.014865433903182845,0.002103123737962065,-0.08075370963095489,-0.012671909451041508,-0.06180175234294249,0.9841467477497862,-0.13666680666137432,-0.014707854139440733,-0.1120760539861853
701.433333333024,0.16705877,-0.78111017,0.19847652,-2.499438,-0.07871108,1.6609792,0.8219889,0.039998457,0.04,0.00953189590038317,0.01495484566577665,0.002251534516228837,-0.08004791683340036,-0.012744037066662873,-0.06121260071439327,0.9839863640660558,-0.13735346932338993,-0.014710195839860423,-0.11264310868954729
701.4499999996907,0.16787976,-0.78109413,0.19945233,-2.5001419,-0.07909865,1.6614219,0.8221658,0.039998457,0.04,0.01059070319102684,0.014544116467524182,0.002968234502187528,-0.07933420792694944,-0.012814423116782932,-0.06061410794013976,0.9838265944197475,-0.13803410206983288,-0.014711615511445094,-0.11320506679146529
701.4666666663574,0.1686933,-0.7810782,0.2004194,-2.500839,-0.079482734,1.6618605,0.8223411,0.039998442,0.04,0.010500604091245869,0.01474583479601499,0.002829387744296419,-0.07861173233530155,-0.012881862001172573,-0.06001276229433905,0.9836674684344987,-0.13870858577502002,-0.014712308778950349,-0.11376197847414199
701.483333333024,0.16949935,-0.7810625,0.20137753,-2.5015297,-0.079863295,1.6622949,0.82251483,0.039998427,0.04,0.01018732362887409,0.015019146287703622,0.0027978307824527704,-0.07788033391136247,-0.012946768493702666,-0.05940588308488414,0.9835090331544527,-0.13937678882291646,-0.014712394160122487,-0.11431376950780163
701.4999999996907,0.17029782,-0.78104675,0.20232667,-2.5022137,-0.080240294,1.6627251,0.82268685,0.039998412,0.04,0.010389733319482453,0.014957436736234841,0.003093484521543566,-0.07714163462793408,-0.01301017176285316,-0.05879183397078465,0.9833513107529677,-0.1400387517669945,-0.01471188166923013,-0.11486038560667121
701.5166666663573,0.17108867,-0.7810311,0.2032667,-2.502891,-0.080613695,1.6631514,0.82285726,0.039998412,0.04,0.01052579311311419,0.014965330444022262,0.0033433144756678246,-0.07639401572747588,-0.01307126526111253,-0.05816897298462933,0.9831943507844833,-0.14069436425270965,-0.014710648037262365,-0.11540173866683293
701.533333333024,0.17187175,-0.7810156,0.20419753,-2.503562,-0.08098339,1.6635735,0.8230261,0.0399984,0.04,0.01019168422795591,0.015248610133478113,0.003105511343681755,-0.07563837256474897,-0.013129699387863927,-0.05754277127887668,0.9830381992318967,-0.14134346823271549,-0.014708903615306202,-0.11593778932381138
701.5499999996906,0.17264707,-0.7810004,0.2051191,-2.5042262,-0.08134941,1.6639916,0.82319325,0.039998394,0.04,0.01075905201270988,0.015126215621902306,0.003373562246555828,-0.07487601214625426,-0.013187326874318676,-0.05691082339794799,0.9828828758575019,-0.14198613697067772,-0.01470644320872092,-0.11646849265951309
701.5666666663573,0.17341445,-0.7809853,0.20603134,-2.504884,-0.08171171,1.6644053,0.8233588,0.039998386,0.04,0.010113231075781215,0.015484393289477705,0.0032635031351313515,-0.0741056055101328,-0.013241762079215465,-0.05627429980598281,0.982728425022297,-0.14262218355582393,-0.014703618554916724,-0.11699384177107792
701.5833333330239,0.17417394,-0.78097045,0.20693405,-2.505535,-0.082070276,1.6648148,0.82352245,0.039998382,0.04,0.011052300600522535,0.015335094438845287,0.003596298018182509,-0.07332884274029898,-0.013295239650303537,-0.05563025440866653,0.9825748745057699,-0.14325168780191916,-0.014700175617110015,-0.11751372161878984
701.5999999996906,0.17492542,-0.7809558,0.20782727,-2.506179,-0.082425036,1.6652199,0.8236845,0.03999838,0.04,0.01054809296228143,0.015446008812880496,0.0034638949252929763,-0.07254405035800607,-0.013346080320966205,-0.054982399967366744,0.982422266866851,-0.14387447912487325,-0.014696334306230515,-0.11802813892756248
701.6166666663572,0.17566882,-0.7809414,0.20871094,-2.5068164,-0.082776,1.6656204,0.8238447,0.039998367,0.04,0.011052944137546206,0.015467591233581102,0.003586896983431842,-0.07175342404204416,-0.01339715357813413,-0.054329509515484334,0.9822706165727165,-0.14449063845759436,-0.014692017973152716,-0.11853706518995921
701.6333333330239,0.17640403,-0.78092706,0.20958486,-2.507447,-0.08312312,1.6660168,0.8240031,0.03999836,0.04,0.01043734654524453,0.01566077566997892,0.003937780862783846,-0.0709547067036423,-0.013445011735651314,-0.05366993906334207,0.9821199828234916,-0.14509998450913272,-0.01468734681681571,-0.11904039515104457
701.6499999996905,0.17713104,-0.780913,0.21044904,-2.5080702,-0.08346638,1.6664089,0.8241598,0.03999835,0.04,0.01191758473426674,0.015326925032493888,0.004235330037483109,-0.07015022945311733,-0.013493390915592016,-0.05300699275189025,0.9819704021344352,-0.14570250658826744,-0.014681897145510275,-0.11953807260467415
701.6666666663572,0.17784981,-0.7808989,0.21130341,-2.508686,-0.083805755,1.6667966,0.82431465,0.03999834,0.04,0.011564648245832032,0.015363584379551876,0.004330684671072227,-0.06933897593617147,-0.013536077649393982,-0.05233952666944669,0.9818218920500853,-0.14629822940841158,-0.014675908850906704,-0.12003007149274846
701.6833333330238,0.17856026,-0.7808851,0.21214785,-2.5092945,-0.084141195,1.6671795,0.82446766,0.039998338,0.04,0.011741096538608886,0.015620949007461027,0.004120187591505342,-0.06852069391518584,-0.013576094097273656,-0.05166700078755603,0.9816744965855537,-0.1468870265277263,-0.01466947204742449,-0.1205163506798658
701.6999999996905,0.17926237,-0.78087145,0.21298239,-2.5098958,-0.08447261,1.6675577,0.824619,0.039998334,0.04,0.01129302024953649,0.015528146999133075,0.004108480731024322,-0.06769658845269996,-0.013613924521359368,-0.05098957284057062,0.981528248416174,-0.1474688262136829,-0.014662687441588948,-0.12099689439496546
701.7166666663571,0.17995599,-0.7808579,0.21380687,-2.5104902,-0.084800065,1.6679319,0.8247686,0.039998326,0.04,0.011012404808652398,0.015754428903097528,0.004580963974953889,-0.06686716129501659,-0.013652161551578123,-0.05031094740937993,0.9813831887905654,-0.14804356065548943,-0.014655445681784207,-0.12147163792249586
701.7333333330238,0.18064116,-0.7808445,0.21462128,-2.5110774,-0.08512353,1.6683015,0.8249163,0.03999832,0.04,0.011255575520019434,0.015725810932804007,0.004342951680680329,-0.06603226411812299,-0.01368654518840371,-0.04962713813467137,0.9812393229843054,-0.14861130217413576,-0.01464794829916075,-0.12194059826831657
701.7499999996904,0.18131775,-0.7808313,0.2154255,-2.5116572,-0.085442945,1.6686661,0.82506216,0.03999831,0.04,0.01165616491667354,0.015830519393605913,0.004413992395790878,-0.06519155012564629,-0.013720609189942397,-0.0489388059310123,0.9810967030003476,-0.14917190356508164,-0.014640197901640669,-0.12240370563842673
701.7666666663571,0.18198575,-0.78081816,0.21621951,-2.5122297,-0.08575833,1.669026,0.8252061,0.039998304,0.04,0.011630860283884381,0.015786931927569414,0.004590795707581918,-0.06434631482388034,-0.013753043457878622,-0.04824604762368918,0.9809553479674217,-0.1497253912506083,-0.014632187136872615,-0.12286094419529006
701.7833333330237,0.18264513,-0.7808051,0.21700332,-2.5127945,-0.08606963,1.6693815,0.82534826,0.039998293,0.04,0.012040770144938762,0.015494167622120969,0.005053287743450596,-0.06349579398172021,-0.013785336680398278,-0.04755099917991621,0.9808152989957214,-0.15027171711503876,-0.014623670333704616,-0.12331224009482064
701.7999999996904,0.18329582,-0.7807923,0.2177767,-2.5133522,-0.086376876,1.6697323,0.82548845,0.03999828,0.04,0.01141431013567118,0.016028938453638286,0.004694121989112787,-0.06264028978408431,-0.013813953774738628,-0.04685325582820161,0.980676578905074,-0.1508108374860473,-0.01461494945754943,-0.12375759425647583
701.816666666357,0.18393779,-0.7807797,0.21853979,-2.5139022,-0.086679995,1.6700783,0.82562673,0.039998285,0.04,0.012118232734881218,0.01568926964870543,0.004818824990238113,-0.061780011975876445,-0.01384134717795839,-0.0461503305013725,0.9805392135917136,-0.15134273895862235,-0.014605921256704709,-0.12419699286894692
701.8333333330237,0.18457098,-0.7807674,0.21929246,-2.5144448,-0.08697899,1.6704196,0.8257632,0.039998278,0.04,0.01179713600907295,0.015843571051610272,0.004954995701544895,-0.06091491011328064,-0.013865862217955167,-0.04544559427327976,0.9804032467125562,-0.15186730428873144,-0.014596606054850445,-0.12463039282306794
701.8499999996903,0.18519539,-0.78075534,0.22003464,-2.5149798,-0.087273784,1.6707563,0.82589775,0.03999827,0.04,0.012282984668776642,0.015679009376423636,0.005222681724492695,-0.06004635671025421,-0.013889374671685085,-0.04473578468053806,0.9802687036947433,-0.152384593819884,-0.014586837677842326,-0.12505769984106163
701.866666666357,0.18581094,-0.78074354,0.22076632,-2.5155072,-0.0875644,1.6710883,0.8260304,0.039998267,0.04,0.012162883636857025,0.015780661597464274,0.005155915085075513,-0.05917311428447786,-0.013909214846465078,-0.04402418145841882,0.9801356103782132,-0.15289453422120614,-0.014576777487496907,-0.12547893939577295
701.8833333330236,0.18641765,-0.7807318,0.22148749,-2.516027,-0.0878508,1.6714151,0.8261611,0.03999826,0.04,0.011843896941798882,0.01583024512999409,0.004915728178911394,-0.05829653622177124,-0.013927315692478114,-0.04331205198471198,0.9800039797497436,-0.15339711199029954,-0.014566764505390033,-0.1258941423559657
701.8999999996903,0.18701549,-0.7807202,0.22219804,-2.516539,-0.08813301,1.6717374,0.82628983,0.039998256,0.04,0.012133889258758579,0.01567781218947406,0.005585375498706746,-0.05741662517029294,-0.013945161324154593,-0.04259721815691525,0.9798738493177068,-0.15389234486549477,-0.014556390186572407,-0.12630319520833863
701.916666666357,0.18760431,-0.7807087,0.22289802,-2.5170436,-0.08841104,1.672055,0.82641673,0.039998244,0.04,0.012041799229556283,0.01583528763076103,0.005421343140410428,-0.05653257799301023,-0.013961250747750025,-0.04188227560728224,0.9797452468220701,-0.1543801082608601,-0.014545839777203362,-0.12670616420719996
701.9333333330236,0.18818425,-0.7806974,0.22358736,-2.5175402,-0.088684835,1.6723676,0.8265417,0.03999824,0.04,0.012502464267272195,0.015637984227045987,0.005364547876718362,-0.055646105245568206,-0.013974457908560119,-0.04116268121644561,0.9796181919886844,-0.15486045113964023,-0.01453507399051154,-0.1271029906089495
701.9499999996902,0.18875514,-0.7806864,0.22426598,-2.5180292,-0.0889544,1.6726753,0.82666487,0.039998233,0.04,0.012149571288033734,0.01591977909893294,0.005443432663221337,-0.054756636115272296,-0.013986658655575196,-0.04044118386220066,0.9794927264405098,-0.15533323778855304,-0.014524178037922239,-0.12749365607976132
701.9666666663569,0.18931703,-0.7806754,0.2249339,-2.51851,-0.08921967,1.6729785,0.8267861,0.039998233,0.04,0.012845981668196949,0.015334051962939688,0.006112083342046937,-0.05386524746530721,-0.013996885253078316,-0.03971821099169094,0.9793688694871665,-0.15579858203988808,-0.014512793676921446,-0.12787805962510074
701.9833333330236,0.1898699,-0.7806645,0.2255911,-2.5189834,-0.08948068,1.6732764,0.82690537,0.03999823,0.04,0.011834986418479687,0.015943865276685232,0.005253542209859852,-0.05297092636723746,-0.0140022705716226,-0.03899523041508492,0.9792466231187703,-0.1562564113329788,-0.014501638982372262,-0.12825633510532308
701.9999999996902,0.19041377,-0.7806539,0.22623752,-2.5194492,-0.08973744,1.6735694,0.8270226,0.039998222,0.04,0.011818385414508192,0.015828447853466487,0.005404490904603598,-0.05207541568590788,-0.014009557900617768,-0.0382711166475138,0.9791260045150876,-0.15670678260745985,-0.0144904980439731,-0.12862844566260068
702.0166666663569,0.19094853,-0.7806434,0.22687319,-2.5199072,-0.08998992,1.6738579,0.82713795,0.039998215,0.04,0.012498709076913528,0.015543347660462725,0.006078132252707036,-0.05117738648434367,-0.014016559820493497,-0.03754424675455102,0.9790070595668797,-0.15714961549948653,-0.014479067833579797,-0.12899431096465552
702.0333333330235,0.19147423,-0.7806331,0.22749805,-2.5203576,-0.090238154,1.6741413,0.82725126,0.039998204,0.04,0.01202979419359096,0.01580430073281347,0.005545801985840093,-0.0502776948496391,-0.014020147504792902,-0.036817394317323754,0.9788897864050415,-0.15758493748114435,-0.01446774456259778,-0.12935400232782612
702.0499999996902,0.19199088,-0.7806232,0.22811209,-2.5208004,-0.09048207,1.6744196,0.8273626,0.0399982,0.04,0.012310343326116246,0.01570309118666957,0.005588365740361034,-0.04937649337777582,-0.014023750868520028,-0.03608846513512728,0.9787742187614489,-0.15801270641175644,-0.014456368465221069,-0.12970746590364526
702.0666666663568,0.19249839,-0.7806134,0.22871529,-2.5212355,-0.0907217,1.6746935,0.8274721,0.039998192,0.04,0.012108810754285493,0.015596800471140426,0.006095063022093505,-0.04847455797417937,-0.01402601747134222,-0.03535900013292306,0.9786603885733901,-0.15843286412618082,-0.01444486632528351,-0.13005467019296504
702.0833333330235,0.19299684,-0.7806038,0.22930782,-2.521663,-0.09095701,1.6749622,0.8275797,0.039998185,0.04,0.01200328833947939,0.01547662432380692,0.005611592008869515,-0.04757223134233306,-0.014026116665319364,-0.03463080763235994,0.9785482799249319,-0.1588455026619066,-0.0144335012365004,-0.13039572148693926
702.0999999996901,0.19348617,-0.7805944,0.2298895,-2.5220826,-0.09118801,1.6752257,0.8276853,0.03999818,0.04,0.012418070456932107,0.015574813472718496,0.005880677668024248,-0.046669405928032766,-0.014027623465468035,-0.0339021312495838,0.9784379327992382,-0.1592505535565613,-0.01442218872988836,-0.13073053707424892
702.1166666663568,0.1939664,-0.7805851,0.23046035,-2.5224943,-0.09141471,1.6754848,0.8277889,0.03999818,0.04,0.012497895349627974,0.01526020765592051,0.006329746117250679,-0.04576623038130285,-0.014026027762919927,-0.033171286156293944,0.9783293582220516,-0.15964811595178383,-0.01441068216082094,-0.13105906360696395
702.1333333330234,0.19443752,-0.780576,0.2310203,-2.5228984,-0.091637105,1.6757389,0.8278905,0.039998174,0.04,0.012087709329677843,0.015545990274090649,0.0059922740939244434,-0.04486253051213907,-0.01402299855354877,-0.032443288590968566,0.9782225787504796,-0.16003809504675165,-0.014399256791184038,-0.1313813379458069
702.1499999996901,0.19489953,-0.78056693,0.23156947,-2.5232944,-0.091855206,1.675988,0.8279901,0.03999817,0.04,0.012676281954515645,0.015228223271629426,0.006146774717619152,-0.043959104691766226,-0.014019157075446565,-0.03171400788250524,0.978117595409352,-0.1604205654152266,-0.014387861664052093,-0.13169738486098442
702.1666666663567,0.19535245,-0.7805583,0.23210783,-2.5236826,-0.09206903,1.6762322,0.82808775,0.039998155,0.04,0.012761688952589445,0.01521043762262586,0.0061876383898651355,-0.043056244010439164,-0.014015195067827411,-0.03099013677042666,0.9780144340124175,-0.1607954976499068,-0.01437626980814935,-0.13200718793040256
702.1833333330234,0.19579633,-0.78054976,0.2326354,-2.5240624,-0.092278615,1.6764717,0.82818335,0.039998148,0.04,0.013230780389683616,0.01488155444418493,0.006584731174319458,-0.04215387533238741,-0.014008215345264802,-0.030264515672904464,0.9779131002998679,-0.1611629745116943,-0.014364404692288245,-0.13231072438120647
702.19999999969,0.1962311,-0.7805413,0.2331522,-2.5244343,-0.092483886,1.6767058,0.82827705,0.039998144,0.04,0.012215509811674963,0.015254667003233857,0.005935916597055169,-0.041250892362420785,-0.01399604556993666,-0.02954086229718947,0.9778136090242295,-0.16152287425880005,-0.014352830837660431,-0.13260808174893632
702.2166666663567,0.1966568,-0.7805329,0.23365825,-2.5247989,-0.09268492,1.6769353,0.8283687,0.039998133,0.04,0.011616036087014336,0.015213599779262399,0.006187911057953244,-0.04035065232949821,-0.013986682678883046,-0.028819134850979092,0.9777159544698232,-0.1618753171001016,-0.014341444469569604,-0.1328992741117507
702.2333333330233,0.19707344,-0.7805248,0.23415354,-2.5251558,-0.09288165,1.6771601,0.82845837,0.039998136,0.04,0.012258930637809584,0.01502338717284668,0.006273296198711087,-0.03945115541200681,-0.013975219342740253,-0.028096313148121162,0.9776201642892712,-0.16222029448446104,-0.014330027330396861,-0.13318423611337485
