rsonawane2002/My_IMU/logs_2/traj_314/imu_400hz_314.csv
time,j1,j2,j3,j4,j5,j6,j7,gripper1,gripper2,imu_ax,imu_ay,imu_az,imu_gx,imu_gy,imu_gz
0.0,0.00016700293,-0.785875,4.0107683e-05,-2.3551247,9.29385e-05,1.570997,0.786,0.04,0.04,-9.56736,-0.0245163701474666,0.096142724,-4.7632435e-07,-0.0011641273740679,5.812497e-07
0.0025,0.00016700383,-0.785857774,4.01093408e-05,-2.35513919,9.294357375e-05,1.570996565,0.786,0.04,0.04,-9.607416450000038,-0.020743384992234652,0.08308150429998812,-4.7549204649999925e-07,-0.0013252448756249165,6.028260510000196e-07
0.005,0.00016700473,-0.785840548,4.011099860000001e-05,-2.3551536800000004,9.294864750000002e-05,1.57099613,0.786,0.04,0.04,-9.647472900000073,-0.016970399837002707,0.07002028459997624,-4.7465974299999853e-07,-0.001486362377181933,6.244024020000392e-07
0.0075,0.00016700563,-0.7858233219999999,4.0112656400000006e-05,-2.3551681700000002,9.295372125000002e-05,1.570995695,0.786,0.04,0.04,-9.68752935000011,-0.01319741468177076,0.056959064899964364,-4.7382743949999775e-07,-0.0016474798787389495,6.459787530000589e-07
0.01,0.00016700653,-0.785806096,4.0114314200000005e-05,-2.35518266,9.295879500000002e-05,1.5709952600000001,0.786,0.04,0.04,-9.727585800000146,-0.009424429526538814,0.04389784519995248,-4.72995135999997e-07,-0.001808597380295966,6.675551040000785e-07
0.0125,0.00016700743,-0.78578887,4.011597200000001e-05,-2.3551971500000004,9.296386875000002e-05,1.570994825,0.786,0.04,0.04,-9.767642250000183,-0.005651444371306866,0.030836625499940595,-4.721628324999962e-07,-0.0019697148818529826,6.891314550000981e-07
0.015,0.00016700833000000002,-0.785771644,4.011762980000001e-05,-2.3552116400000003,9.296894250000004e-05,1.57099439,0.786,0.04,0.04,-9.807698700000218,-0.0018784592160749208,0.01777540579992873,-4.713305289999955e-07,-0.002130832383409999,7.107078060001177e-07
0.0175,0.00016701033850000005,-0.7857548645,4.012068925000004e-05,-2.3552257350000003,9.297328650000003e-05,1.57099396,0.786,0.04,0.04,-9.834300299999999,0.0006398180586984814,0.008995026614998607,-5.899005670022754e-07,-0.0022877022740440296,6.548688114986586e-07
0.02,0.00016701456400000005,-0.7857389779999999,4.0126552000000046e-05,-2.3552390400000003,9.297617100000002e-05,1.5709935400000001,0.786,0.04,0.04,-9.833992199999997,0.0006486795726232644,0.008776328459998409,-9.472752880026003e-07,-0.0024360769428323197,4.441991259984671e-07
0.0225,0.00016701878950000002,-0.7857230914999999,4.013241475000005e-05,-2.3552523450000002,9.297905550000003e-05,1.57099312,0.786,0.04,0.04,-9.833684099999997,0.0006575410865480476,0.00855763030499821,-1.304650009002925e-06,-0.0025844516116206094,2.3352944049827564e-07
0.025,0.00016702301500000002,-0.7857072049999999,4.013827750000005e-05,-2.35526565,9.298194000000002e-05,1.5709927,0.786,0.04,0.04,-9.833375999999998,0.0006664026004728306,0.00833893214999801,-1.6620247300032506e-06,-0.0027328262804088995,2.2859754998083845e-08
0.0275,0.00016702724050000003,-0.7856913184999998,4.014414025000006e-05,-2.355278955,9.298482450000003e-05,1.57099228,0.786,0.04,0.04,-9.833067899999998,0.0006752641143976136,0.008120233994997813,-2.0193994510035752e-06,-0.0028812009491971896,-1.8780993050210763e-07
0.03,0.00016703146600000003,-0.7856754319999998,4.015000300000006e-05,-2.35529226,9.298770900000004e-05,1.57099186,0.786,0.04,0.04,-9.832759799999998,0.0006841256283223967,0.007901535839997613,-2.3767741720039003e-06,-0.0030295756179854793,-3.984796160022991e-07
0.0325,0.00016703569150000003,-0.7856595454999998,4.015586575000007e-05,-2.355305565,9.299059350000003e-05,1.57099144,0.786,0.04,0.04,-9.832451699999996,0.0006929871422471797,0.007682837684997414,-2.7341488930042254e-06,-0.0031779502867737694,-6.091493015024909e-07
0.035,0.00016704594400000016,-0.7856445149999998,4.0169250700000216e-05,-2.3553181,9.299012889999997e-05,1.57099101,0.786,0.04,0.04,-9.832172199999997,0.0007060881005601338,0.007472720869997378,-3.4652844200116902e-06,-0.003318438073621849,-1.1256098770085237e-06
0.0375,0.00016705921000000016,-0.7856299124999998,4.0186396750000235e-05,-2.35533025,9.298798974999997e-05,1.570990575,0.786,0.04,0.04,-9.831906999999998,0.0007213087810670576,0.007266894724997192,-4.383300350012523e-06,-0.003454982419500038,-1.7949658975091312e-06
0.04,0.00016707247600000017,-0.7856153099999997,4.020354280000025e-05,-2.3553424,9.298585059999997e-05,1.57099014,0.786,0.04,0.04,-9.831641799999996,0.0007365294615739815,0.007061068579997005,-5.3013162800133596e-06,-0.003591526765378227,-2.464321918009741e-06
0.0425,0.00016708574200000018,-0.7856007074999998,4.0220688850000266e-05,-2.35535455,9.298371144999997e-05,1.5709897050000001,0.786,0.04,0.04,-9.831376599999997,0.0007517501420809053,0.006855242434996817,-6.219332210014195e-06,-0.0037280711112564167,-3.13367793851035e-06
0.045,0.00016709900800000022,-0.7855861049999998,4.023783490000028e-05,-2.3553667000000003,9.298157229999996e-05,1.57098927,0.786,0.04,0.04,-9.831111399999996,0.0007669708225878291,0.00664941628999663,-7.137348140015028e-06,-0.0038646154571346054,-3.8030339590109575e-06
0.0475,0.00016711227400000023,-0.7855715024999997,4.02549809500003e-05,-2.35537885,9.297943314999996e-05,1.570988835,0.786,0.04,0.04,-9.830846199999996,0.000782191503094753,0.006443590144996443,-8.055364070015864e-06,-0.004001159803012795,-4.472389979511567e-06
0.05,0.00016712554000000056,-0.7855568999999998,4.02721270000007e-05,-2.355391,9.29772939999998e-05,1.5709884,0.786,0.04,0.04,-9.830580999999995,0.000797412183601803,0.006237763999996673,-8.973380000031203e-06,-0.004137704148890776,-5.141746000024105e-06
0.0525,0.0001671562420000006,-0.7855434554999997,4.031072305000074e-05,-2.3554021300000003,9.29660913999998e-05,1.57098798,0.786,0.04,0.04,-9.830309949999995,0.0008195654925661581,0.006054875299996507,-1.068866090003276e-05,-0.00426280007232211,-6.466823725025308e-06
0.055,0.00016718694400000061,-0.7855300109999998,4.034931910000077e-05,-2.35541326,9.295488879999978e-05,1.57098756,0.786,0.04,0.04,-9.830038899999995,0.0008417188015305133,0.00587198659999634,-1.2403941800034322e-05,-0.004387895995753443,-7.791901450026515e-06
0.0575,0.00016721764600000064,-0.7855165664999998,4.038791515000081e-05,-2.35542439,9.294368619999977e-05,1.57098714,0.786,0.04,0.04,-9.829767849999994,0.0008638721104948684,0.005689097899996174,-1.4119222700035884e-05,-0.004512991919184777,-9.11697917502772e-06
0.06,0.00016724834800000066,-0.7855031219999997,4.0426511200000844e-05,-2.3554355200000003,9.293248359999976e-05,1.57098672,0.786,0.04,0.04,-9.829496799999994,0.0008860254194592236,0.005506209199996008,-1.5834503600037442e-05,-0.004638087842616111,-1.0442056900028925e-05
0.0625,0.0001672790500000007,-0.7854896774999998,4.046510725000088e-05,-2.35544665,9.292128099999974e-05,1.5709863,0.786,0.04,0.04,-9.829225749999994,0.0009081787284235787,0.005323320499995841,-1.7549784500039004e-05,-0.004763183766047445,-1.1767134625030129e-05
0.065,0.00016730975200000072,-0.7854762329999997,4.050370330000091e-05,-2.35545778,9.291007839999974e-05,1.57098588,0.786,0.04,0.04,-9.828954699999993,0.0009303320373879339,0.005140431799995675,-1.9265065400040566e-05,-0.0048882796894787785,-1.3092212350031337e-05
0.0675,0.00016734985500000145,-0.7854631464999997,4.055376810000179e-05,-2.35546855,9.289419999999939e-05,1.570985455,0.786,0.04,0.04,-9.828691999999993,0.000954127724981595,0.004962945549995906,-2.1315449200066814e-05,-0.005009970208632717,-1.4693715625052907e-05
0.07,0.0001674087600000015,-0.7854507759999997,4.0626770400001856e-05,-2.3554786,9.286896999999936e-05,1.57098502,0.786,0.04,0.04,-9.828445999999992,0.0009812081698335096,0.004796264199995755,-2.4036038800069292e-05,-0.005124849919232606,-1.6848070000054868e-05
0.0725,0.00016746766500000155,-0.7854384054999997,4.069977270000192e-05,-2.3554886500000003,9.284373999999934e-05,1.570984585,0.786,0.04,0.04,-9.828199999999992,0.0010082886146854243,0.0046295828499956036,-2.6756628400071754e-05,-0.005239729629832495,-1.9002424375056816e-05
0.075,0.0001675265700000016,-0.7854260349999996,4.077277500000199e-05,-2.3554987,9.281850999999931e-05,1.57098415,0.786,0.04,0.04,-9.827953999999993,0.0010353690595373388,0.004462901499995452,-2.9477218000074233e-05,-0.005354609340432384,-2.1156778750058778e-05
0.0775,0.00016758547500000164,-0.7854136644999997,4.084577730000206e-05,-2.3555087500000003,9.279327999999929e-05,1.5709837150000001,0.786,0.04,0.04,-9.827707999999992,0.0010624495043892535,0.0042962201499953,-3.219780760007671e-05,-0.005469489051032274,-2.331113312506074e-05
0.08,0.0001676443800000017,-0.7854012939999997,4.0918779600002125e-05,-2.3555188,9.276804999999926e-05,1.57098328,0.786,0.04,0.04,-9.827461999999992,0.0010895299492411682,0.0041295387999951486,-3.491839720007918e-05,-0.005584368761632164,-2.54654875000627e-05
0.0825,0.00016770328500000176,-0.7853889234999997,4.099178190000219e-05,-2.3555288500000002,9.274281999999924e-05,1.570982845,0.786,0.04,0.04,-9.827215999999991,0.001116610394093083,0.003962857449994996,-3.7638986800081665e-05,-0.005699248472232053,-2.7619841875064664e-05
0.085,0.00016778957500000307,-0.7853771999999997,4.1098013400003795e-05,-2.35553868,9.270401199999858e-05,1.5709826900000001,0.786,0.04,0.04,-9.826962299999991,0.0011471112724403462,0.003805223889995265,-4.1178840000122144e-05,-0.0058071766514363,-3.043569820009731e-05
0.08750000000000001,0.00016788955750000317,-0.7853657999999997,4.122085950000391e-05,-2.3555484,9.265841499999855e-05,1.570982675,0.786,0.04,0.04,-9.82670474999999,0.0011793223675350506,0.0036521142249951255,-4.5128325000125735e-05,-0.0059116290649432,-3.358230550010017e-05
0.09,0.00016798954000000327,-0.7853543999999997,4.1343705600004024e-05,-2.3555581200000004,9.261281799999851e-05,1.57098266,0.786,0.04,0.04,-9.826447199999992,0.0012115334626297547,0.003499004559994987,-4.907781000012931e-05,-0.006016081478450099,-3.672891280010302e-05
0.0925,0.00016808952250000337,-0.7853429999999997,4.1466551700004134e-05,-2.3555678400000004,9.256722099999846e-05,1.570982645,0.786,0.04,0.04,-9.826189649999991,0.001243744557724459,0.0033458948949948476,-5.302729500013291e-05,-0.006120533891957,-3.987552010010589e-05
0.095,0.00016818950500000347,-0.7853315999999996,4.1589397800004245e-05,-2.3555775600000004,9.252162399999842e-05,1.57098263,0.786,0.04,0.04,-9.82593209999999,0.0012759556528191634,0.0031927852299947082,-5.6976780000136506e-05,-0.0062249863054639,-4.3022127400108755e-05
0.0975,0.00016828948750000354,-0.7853201999999996,4.1712243900004356e-05,-2.3555872800000004,9.247602699999837e-05,1.570982615,0.786,0.04,0.04,-9.82567454999999,0.0013081667479138675,0.003039675564994569,-6.0926265000140097e-05,-0.006329438718970799,-4.616873470011162e-05
0.1,0.00016838947000000567,-0.7853087999999997,4.183509000000693e-05,-2.3555970000000004,9.243042999999735e-05,1.5709826,0.786,0.04,0.04,-9.825416999999995,0.0013403778430087423,0.002886565899994567,-6.487575000019272e-05,-0.006433891132477406,-4.931534200015552e-05
0.10250000000000001,0.00016854530950000582,-0.7852982849999997,4.20254646000071e-05,-2.35560573,9.23579034999973e-05,1.570982615,0.786,0.04,0.04,-9.825266249999995,0.0013772683450965408,0.002737230489994431,-7.017262590019753e-05,-0.006530288886282414,-5.358999070015941e-05
0.105,0.00016870114900000596,-0.7852877699999996,4.221583920000727e-05,-2.3556144600000004,9.228537699999722e-05,1.57098263,0.786,0.04,0.04,-9.825115499999994,0.0014141588471843392,0.0025878950799942957,-7.546950180020233e-05,-0.006626686640087422,-5.786463940016328e-05
0.1075,0.0001688569885000061,-0.7852772549999996,4.240621380000744e-05,-2.35562319,9.221285049999716e-05,1.570982645,0.786,0.04,0.04,-9.824964749999994,0.0014510493492721377,0.00243855966999416,-8.076637770020715e-05,-0.00672308439389243,-6.213928810016717e-05
0.11,0.00016901282800000625,-0.7852667399999995,4.259658840000762e-05,-2.3556319200000004,9.21403239999971e-05,1.57098266,0.786,0.04,0.04,-9.824813999999995,0.0014879398513599363,0.002289224259994024,-8.606325360021198e-05,-0.006819482147697438,-6.641393680017106e-05
0.1125,0.0001691686675000064,-0.7852562249999996,4.2786963000007794e-05,-2.3556406500000007,9.206779749999703e-05,1.570982675,0.786,0.04,0.04,-9.824663249999995,0.0015248303534477349,0.002139888849993888,-9.13601295002168e-05,-0.006915879901502445,-7.068858550017495e-05
0.115,0.00016932450700000653,-0.7852457099999995,4.2977337600007966e-05,-2.3556493800000005,9.199527099999697e-05,1.5709826900000001,0.786,0.04,0.04,-9.824512499999994,0.0015617208555355334,0.0019905534399937523,-9.665700540022162e-05,-0.007012277655307453,-7.496323420017884e-05
0.11750000000000001,0.00016950446300000976,-0.7852354774999996,4.319677540001187e-05,-2.3556579300000005,9.191198599999553e-05,1.5709827250000001,0.786,0.04,0.0399999995,-9.824332899999991,0.0016001055540999438,0.0018479412699944782,-0.00010246247170029167,-0.0071055571315846704,-7.958189800022685e-05
0.12,0.00016973265200000997,-0.7852258099999996,4.347433960001212e-05,-2.3556661200000004,9.180718399999543e-05,1.5709828000000001,0.786,0.04,0.039999998,-9.82409559999999,0.001641478645617006,0.0017187755799943614,-0.00010928511880029784,-0.007192600052807499,-8.488859200023165e-05
0.1225,0.00016996084100001017,-0.7852161424999995,4.375190380001237e-05,-2.3556743100000004,9.170238199999533e-05,1.5709828750000001,0.786,0.04,0.0399999965,-9.823858299999989,0.0016828517371340688,0.0015896098899942437,-0.00011610776590030405,-0.007279642974030329,-9.019528600023649e-05
0.125,0.00017018903000001038,-0.7852064749999995,4.4029468000012626e-05,-2.3556825000000003,9.159757999999523e-05,1.57098295,0.786,0.04,0.039999994999999997,-9.823620999999989,0.0017242248286511315,0.0014604441999941263,-0.00012293041300031026,-0.0073666858952531585,-9.550198000024132e-05
0.1275,0.00017041721900001058,-0.7851968074999995,4.4307032200012873e-05,-2.3556906900000003,9.149277799999514e-05,1.5709830249999999,0.786,0.04,0.0399999935,-9.823383699999988,0.001765597920168194,0.0013312785099940088,-0.00012975306010031646,-0.007453728816475987,-0.00010080867400024616
0.13,0.00017064540800001081,-0.7851871399999995,4.458459640001313e-05,-2.3556988800000003,9.138797599999504e-05,1.5709830999999999,0.786,0.04,0.039999992,-9.823146399999988,0.0018069710116852568,0.0012021128199938911,-0.0001365757072003227,-0.007540771737698817,-0.00010611536800025098
0.1325,0.00017087359700001102,-0.7851774724999995,4.486216060001338e-05,-2.3557070700000007,9.128317399999494e-05,1.5709831749999998,0.786,0.04,0.0399999905,-9.822909099999988,0.0018483441032023195,0.0010729471299937734,-0.00014339835430032891,-0.007627814658921646,-0.00011142206200025582
0.135,0.00017116205700001567,-0.7851683489999995,4.5212188000018975e-05,-2.3557148500000005,9.114728199999256e-05,1.57098326,0.786,0.04,0.039999991,-9.82271489999999,0.0018885948113184896,0.0009520191299942629,-0.00015131606900041579,-0.007710146950561718,-0.00011795516400035101
0.1375,0.00017148065250001594,-0.7851594974999996,4.559844700001933e-05,-2.3557224250000006,9.099584499999241e-05,1.57098335,0.786,0.04,0.0399999925,-9.82254224999999,0.0019282843277343355,0.0008352099749941565,-0.0001597813175004235,-0.007790123927410926,-0.0001251014700003575
0.14,0.00017179924800001623,-0.7851506459999995,4.5984706000019675e-05,-2.3557300000000003,9.084440799999228e-05,1.57098344,0.786,0.04,0.039999994,-9.822369599999991,0.0019679738441501816,0.0007184008199940502,-0.0001682465660004312,-0.007870100904260133,-0.000132247776000364
0.14250000000000002,0.00017211784350001653,-0.7851417944999995,4.637096500002003e-05,-2.3557375750000005,9.069297099999215e-05,1.57098353,0.786,0.04,0.0399999955,-9.822196949999991,0.002007663360566028,0.0006015916649939439,-0.0001767118145004389,-0.007950077881109342,-0.0001393940820003705
0.145,0.0001724364390000168,-0.7851329429999995,4.6757224000020375e-05,-2.3557451500000006,9.054153399999201e-05,1.57098362,0.786,0.04,0.039999997,-9.82202429999999,0.0020473528769818735,0.0004847825099938387,-0.0001851770630004465,-0.008030054857958548,-0.00014654038800037696
0.1475,0.0001727550345000171,-0.7851240914999995,4.714348300002073e-05,-2.3557527250000003,9.039009699999188e-05,1.57098371,0.786,0.04,0.0399999985,-9.82185164999999,0.0020870423933977197,0.0003679733549937324,-0.00019364231150045423,-0.008110031834807756,-0.00015368669400038347
0.15,0.00017307363000002336,-0.7851152399999995,4.7529742000028265e-05,-2.3557603000000005,9.023865999998895e-05,1.5709838,0.786,0.04,0.04,-9.821678999999989,0.002126731909813988,0.0002511641999943783,-0.00020210756000055475,-0.008190008811656563,-0.0001608330000004507
0.1525,0.00017350192500002377,-0.7851070889999995,4.804765360002874e-05,-2.3557676050000005,9.003599259998876e-05,1.57098392,0.786,0.04,0.03999999925,-9.82149179999999,0.002174159267454156,0.00014814103949428451,-0.000212274131000564,-0.008262639679018654,-0.00016909259100045823
0.155,0.00017393022000002415,-0.7850989379999995,4.85655652000292e-05,-2.3557749100000005,8.983332519998858e-05,1.5709840400000001,0.786,0.04,0.0399999985,-9.821304599999989,0.0022215866250943246,4.511787899419073e-05,-0.00022244070200057328,-0.008335270546380745,-0.00017735218200046576
0.1575,0.00017435851500002453,-0.7850907869999995,4.908347680002967e-05,-2.3557822150000005,8.963065779998838e-05,1.57098416,0.786,0.04,0.03999999775,-9.821117399999988,0.0022690139827344926,-5.790528150590308e-05,-0.00023260727300058253,-0.008407901413742836,-0.00018561177300047328
0.16,0.00017478681000002492,-0.7850826359999995,4.9601388400030144e-05,-2.3557895200000005,8.94279903999882e-05,1.57098428,0.786,0.04,0.039999997,-9.820930199999989,0.002316441340374661,-0.00016092844200599687,-0.00024277384400059177,-0.008480532281104928,-0.00019387136400048077
0.1625,0.00017521510500002533,-0.7850744849999994,5.0119300000030615e-05,-2.355796825,8.922532299998802e-05,1.5709844000000002,0.786,0.04,0.03999999625,-9.820742999999988,0.002363868698014829,-0.00026395160250609065,-0.00025294041500060105,-0.008553163148467019,-0.0002021309550004883
0.165,0.0001756434000000257,-0.7850663339999995,5.0637211600031086e-05,-2.35580413,8.902265559998783e-05,1.57098452,0.786,0.04,0.0399999955,-9.820555799999989,0.0024112960556549974,-0.0003669747630061845,-0.0002631069860006103,-0.00862579401582911,-0.00021039054600049582
0.1675,0.00017611511100003402,-0.7850583949999995,5.120716085004107e-05,-2.3558111800000003,8.879913599998383e-05,1.57098464,0.786000075,0.04,0.039999995,-9.820387349999992,0.002458170882894604,-0.00046870026650604104,-0.0002738954180007332,-0.008696707896892327,-0.0002192095480006056
0.17,0.00017667365400003454,-0.7850508799999995,5.188118540004169e-05,-2.35581772,8.853391199998359e-05,1.57098476,0.7860003000000001,0.04,0.039999995,-9.820256399999991,0.002503940649333391,-0.0005678304560061313,-0.0002859275720007442,-0.008764187805358734,-0.00022914737200061466
0.17250000000000001,0.00017723219700003506,-0.7850433649999995,5.2555209950042304e-05,-2.3558242600000003,8.826868799998335e-05,1.5709848800000001,0.7860005250000001,0.04,0.039999995,-9.820125449999992,0.0025497104157721777,-0.0006669606455062216,-0.00029795972600075516,-0.00883166771382514,-0.0002390851960006237
0.17500000000000002,0.00017779074000003558,-0.7850358499999995,5.3229234500042914e-05,-2.3558308,8.800346399998311e-05,1.570985,0.78600075,0.04,0.039999995,-9.819994499999991,0.0025954801822109645,-0.0007660908350063118,-0.00030999188000076607,-0.008899147622291546,-0.0002490230200006328
0.1775,0.00017834928300003607,-0.7850283349999995,5.3903259050043524e-05,-2.3558373400000003,8.773823999998288e-05,1.57098512,0.786000975,0.04,0.039999995,-9.819863549999992,0.0026412499486497504,-0.000865221024506401,-0.00032202403400077693,-0.008966627530757953,-0.0002589608440006417
0.18,0.00017890782600003658,-0.7850208199999995,5.4577283600044134e-05,-2.3558438800000006,8.747301599998264e-05,1.5709852400000002,0.7860012000000001,0.04,0.039999995,-9.819732599999991,0.002687019715088537,-0.0009643512140064911,-0.0003340561880007879,-0.00903410743922436,-0.0002688986680006507
0.1825,0.00017946636900003707,-0.7850133049999996,5.525130815004475e-05,-2.3558504200000003,8.72077919999824e-05,1.57098536,0.786001425,0.04,0.039999995,-9.819601649999992,0.002732789481527324,-0.0010634814035065815,-0.0003460883420007988,-0.009101587347690765,-0.0002788364920006598
0.185,0.00018012614500004782,-0.7850061939999996,5.60464937000576e-05,-2.3558568400000004,8.689340259997718e-05,1.5709855000000001,0.7860016900000001,0.04,0.0399999955,-9.819431199999988,0.0027792992536009153,-0.0011573672300061422,-0.00036006718000100634,-0.009164432156835094,-0.0002899399970007865
0.1875,0.00018083653750004846,-0.7849992849999996,5.6902259750058375e-05,-2.3558632000000004,8.655443049997688e-05,1.5709856500000001,0.786001975,0.04,0.03999999625,-9.819240999999987,0.0028261790284917977,-0.0012486308750062252,-0.0003750193600010199,-0.00922495941631908,-0.0003016263425007972
0.19,0.0001815469300000491,-0.7849923759999995,5.7758025800059156e-05,-2.3558695600000004,8.621545839997657e-05,1.5709858,0.7860022600000001,0.04,0.039999997,-9.819050799999987,0.0028730588033826806,-0.0013398945200063083,-0.00038997154000103355,-0.009285486675803064,-0.0003133126880008078
0.1925,0.00018225732250004974,-0.7849854669999995,5.861379185005993e-05,-2.3558759200000003,8.587648629997626e-05,1.57098595,0.786002545,0.04,0.03999999775,-9.818860599999987,0.002919938578273563,-0.0014311581650063914,-0.00040492372000104713,-0.00934601393528705,-0.00032499903350081846
0.195,0.0001829677150000504,-0.7849785579999995,5.946955790006071e-05,-2.3558822800000003,8.553751419997595e-05,1.5709861,0.78600283,0.04,0.0399999985,-9.818670399999986,0.002966818353164446,-0.0015224218100064746,-0.00041987590000106077,-0.009406541194771035,-0.00033668537900082907
0.1975,0.00018367810750005104,-0.7849716489999995,6.0325323950061494e-05,-2.3558886400000003,8.519854209997563e-05,1.57098625,0.7860031150000001,0.04,0.03999999925,-9.818480199999986,0.0030136981280553285,-0.0016136854550065575,-0.00043482808000107435,-0.00946706845425502,-0.00034837172450083974
0.2,0.00018438850000006437,-0.7849647399999996,6.118109000007744e-05,-2.3558950000000003,8.485956999996922e-05,1.5709864,0.7860034,0.04,0.04,-9.81828999999999,0.0030605779029462808,-0.0017049491000060296,-0.0004497802600012534,-0.009527595713738667,-0.00036005807000097405
0.2025,0.00018527317600006518,-0.7849583829999995,6.224527850007841e-05,-2.3559013,8.443650489996883e-05,1.570986535,0.7860036850000001,0.04,0.04,-9.81816399999999,0.003108412027362439,-0.0017878166900061052,-0.00046700593600126905,-0.009583484288309133,-0.00037344431450098625
0.20500000000000002,0.00018615785200006598,-0.7849520259999996,6.330946700007937e-05,-2.3559076000000005,8.401343979996844e-05,1.5709866700000001,0.78600397,0.04,0.04,-9.81803799999999,0.0031562461517785976,-0.0018706842800061806,-0.0004842316120012847,-0.0096393728628796,-0.0003868305590009984
0.20750000000000002,0.0001870425280000668,-0.7849456689999995,6.437365550008034e-05,-2.3559139000000004,8.359037469996807e-05,1.570986805,0.786004255,0.04,0.04,-9.817911999999989,0.003204080276194756,-0.001953551870006256,-0.0005014572880013004,-0.009695261437450064,-0.0004002168035010106
0.21,0.00018792720400006758,-0.7849393119999996,6.54378440000813e-05,-2.3559202000000004,8.316730959996768e-05,1.57098694,0.7860045400000001,0.04,0.04,-9.81778599999999,0.003251914400610914,-0.0020364194600063306,-0.000518682964001316,-0.009751150012020529,-0.0004136030480010226
0.2125,0.00018881188000006839,-0.7849329549999996,6.650203250008226e-05,-2.3559265000000003,8.27442444999673e-05,1.5709870750000001,0.786004825,0.04,0.04,-9.81765999999999,0.003299748525027073,-0.002119287050006406,-0.0005359086400013315,-0.009807038586590995,-0.0004269892925010348
0.215,0.0001896965560000692,-0.7849265979999995,6.756622100008323e-05,-2.3559328000000006,8.232117939996691e-05,1.5709872100000002,0.7860051100000001,0.04,0.04,-9.81753399999999,0.0033475826494432314,-0.0022021546400064814,-0.0005531343160013473,-0.009862927161161461,-0.000440375537001047
0.2175,0.00019064705750008565,-0.7849204069999995,6.870906330010288e-05,-2.3559388700000006,8.186803494995939e-05,1.5709875150000001,0.786005395,0.04,0.0399999995,-9.81741719999999,0.0033962460001969617,-0.002283526885006202,-0.00057102134700152,-0.00991766676307135,-0.00045419061000116095
0.22,0.00019172921000008662,-0.7849145479999996,7.000921320010406e-05,-2.3559444800000002,8.135473179995892e-05,1.5709881600000002,0.78600568,0.04,0.039999998,-9.817318799999992,0.0034465678036252473,-0.0023619084400062734,-0.0005902310880015375,-0.009970108419660896,-0.0004688633400011743
0.2225,0.0001928113625000876,-0.7849086889999995,7.130936310010524e-05,-2.3559500900000003,8.084142864995844e-05,1.570988805,0.7860059650000001,0.04,0.0399999965,-9.817220399999991,0.0034968896070535333,-0.0024402899950063447,-0.000609440829001555,-0.010022550076250445,-0.0004835360700011877
0.225,0.0001938935150000886,-0.7849028299999995,7.260951300010642e-05,-2.3559557000000004,8.032812549995798e-05,1.5709894500000001,0.78600625,0.04,0.039999994999999997,-9.81712199999999,0.0035472114104818193,-0.002518671550006416,-0.0006286505700015724,-0.010074991732839992,-0.0004982088000012011
0.2275,0.00019497566750008958,-0.7848969709999994,7.390966290010761e-05,-2.3559613100000005,7.981482234995752e-05,1.570990095,0.7860065350000001,0.04,0.0399999935,-9.817023599999992,0.003597533213910105,-0.0025970531050064877,-0.0006478603110015899,-0.01012743338942954,-0.0005128815300012144
0.23,0.00019605782000009056,-0.7848911119999995,7.520981280010878e-05,-2.3559669200000006,7.930151919995705e-05,1.57099074,0.78600682,0.04,0.039999992,-9.816925199999991,0.003647855017338391,-0.002675434660006559,-0.0006670700520016074,-0.010179875046019088,-0.0005275542600012278
0.2325,0.00019713997250009153,-0.7848852529999994,7.650996270010997e-05,-2.3559725300000003,7.878821604995658e-05,1.570991385,0.786007105,0.04,0.0399999905,-9.816826799999992,0.0036981768207666765,-0.00275381621500663,-0.0006862797930016249,-0.010232316702608636,-0.0005422269900012412
0.23500000000000001,0.00019836976800011147,-0.7848797139999995,7.798639600013376e-05,-2.3559779800000005,7.820364849994698e-05,1.57099207,0.786007393,0.04,0.0399999905,-9.816664699999983,0.003743932861838447,-0.002835882100007174,-0.000706858816001818,-0.01027905317023762,-0.0005584285450014506
0.23750000000000002,0.00019967338500011267,-0.7848743349999995,7.955097100013519e-05,-2.3559833500000007,7.75834487499464e-05,1.5709927750000001,0.7860076825,0.04,0.03999999125,-9.816470749999983,0.0037874060217328314,-0.0029197901500072503,-0.0007281224800018374,-0.010322937043387416,-0.0005753945125014661
0.24,0.00020097700200011383,-0.7848689559999995,8.11155460001366e-05,-2.3559887200000005,7.696324899994585e-05,1.57099348,0.786007972,0.04,0.039999992,-9.816276799999983,0.0038308791816272156,-0.0030036982000073258,-0.0007493861440018566,-0.010366820916537211,-0.0005923604800014813
0.2425,0.00020228061900011502,-0.7848635769999994,8.268012100013802e-05,-2.3559940900000007,7.634304924994529e-05,1.570994185,0.7860082615,0.04,0.039999992750000005,-9.816082849999983,0.0038743523415216002,-0.003087606250007402,-0.0007706498080018759,-0.010410704789687007,-0.0006093264475014967
0.245,0.0002035842360001162,-0.7848581979999995,8.424469600013944e-05,-2.3559994600000005,7.572284949994472e-05,1.5709948900000001,0.786008551,0.04,0.039999993500000004,-9.815888899999981,0.003917825501415985,-0.0031715143000074783,-0.0007919134720018952,-0.010454588662836802,-0.0006262924150015122
0.2475,0.00020488785300011738,-0.7848528189999995,8.580927100014087e-05,-2.3560048300000007,7.510264974994416e-05,1.570995595,0.7860088405,0.04,0.039999994250000004,-9.815694949999981,0.0039612986613103696,-0.003255422350007555,-0.0008131771360019146,-0.010498472535986597,-0.0006432583825015276
0.25,0.00020619147000014093,-0.7848474399999995,8.737384600016899e-05,-2.3560102000000005,7.448244999993283e-05,1.5709963,0.78600913,0.04,0.039999995,-9.815500999999987,0.0040047718212048835,-0.003339330400005535,-0.0008344408000021223,-0.010542356409135997,-0.0006602243500017108
0.2525,0.00020774101350014236,-0.7848424689999995,8.923188310017068e-05,-2.3560154950000007,7.374398649993216e-05,1.5709970050000002,0.7860094165,0.04,0.03999999575,-9.815372599999987,0.004049669206146499,-0.0034001903200055906,-0.0008577752500021435,-0.010581888118762347,-0.0006790351975017279
0.255,0.00020929055700014376,-0.7848374979999995,9.108992020017238e-05,-2.3560207900000005,7.30055229999315e-05,1.57099771,0.786009703,0.04,0.0399999965,-9.815244199999988,0.004094566591088115,-0.003461050240005646,-0.0008811097000021648,-0.010621419828388698,-0.0006978460450017451
0.2575,0.00021084010050014516,-0.7848325269999995,9.294795730017407e-05,-2.3560260850000003,7.226705949993083e-05,1.570998415,0.7860099895,0.04,0.03999999725,-9.815115799999989,0.004139463976029731,-0.0035219101600057015,-0.000904444150002186,-0.01066095153801505,-0.0007166568925017623
0.26,0.0002123896440001466,-0.7848275559999995,9.480599440017575e-05,-2.3560313800000006,7.152859599993015e-05,1.5709991200000002,0.786010276,0.04,0.039999998,-9.814987399999987,0.004184361360971347,-0.0035827700800057567,-0.0009277786000022072,-0.0107004832476414,-0.0007354677400017793
0.2625,0.000213939187500148,-0.7848225849999995,9.666403150017745e-05,-2.3560366750000004,7.079013249992948e-05,1.5709998250000001,0.7860105625,0.04,0.03999999875,-9.814858999999988,0.004229258745912963,-0.0036436300000058123,-0.0009511130500022284,-0.01074001495726775,-0.0007542785875017965
0.265,0.0002154887310001494,-0.7848176139999995,9.852206860017914e-05,-2.3560419700000006,7.00516689999288e-05,1.57100053,0.7860108490000001,0.04,0.0399999995,-9.814730599999988,0.004274156130854579,-0.0037044899200058675,-0.0009744475000022497,-0.010779546666894102,-0.0007730894350018137
0.2675,0.00021712855700017718,-0.7848127749999996,0.00010048778350021228,-2.3560472650000004,6.927034099991562e-05,1.5710012400000002,0.7860111355,0.04,0.04,-9.81461124999999,0.004317968897525483,-0.003764676190005726,-0.0009984884250024773,-0.010818015504631868,-0.0007924887875020026
0.27,0.00021894894800017882,-0.7848081999999995,0.00010266885400021425,-2.3560525600000006,6.840328399991483e-05,1.5710019600000003,0.7860114220000001,0.04,0.04,-9.81450999999999,0.004359612427655911,-0.00382351516000578,-0.0010239423000025004,-0.01085435859859339,-0.0008130651500020213
0.2725,0.0002207693390001805,-0.7848036249999996,0.00010484992450021625,-2.3560578550000004,6.753622699991404e-05,1.57100268,0.7860117085,0.04,0.04,-9.81440874999999,0.004401255957786339,-0.0038823541300058335,-0.0010493961750025235,-0.010890701692554914,-0.00083364151250204
0.275,0.00022258973000018214,-0.7847990499999995,0.00010703099500021823,-2.3560631500000007,6.666916999991324e-05,1.5710034000000002,0.7860119950000001,0.04,0.04,-9.81430749999999,0.004442899487916767,-0.003941193100005887,-0.0010748500500025468,-0.010927044786516437,-0.0008542178750020588
0.2775,0.0002244101210001838,-0.7847944749999995,0.00010921206550022021,-2.3560684450000005,6.580211299991246e-05,1.57100412,0.7860122815,0.04,0.04,-9.81420624999999,0.0044845430180471945,-0.004000032070005941,-0.00110030392500257,-0.01096338788047796,-0.0008747942375020775
0.28,0.00022623051200018545,-0.7847898999999996,0.0001113931360002222,-2.3560737400000007,6.493505599991167e-05,1.57100484,0.7860125680000001,0.04,0.04,-9.814104999999989,0.004526186548177623,-0.0040588710400059945,-0.001125757800002593,-0.010999730974439483,-0.0008953706000020962
0.28250000000000003,0.00022805090300018712,-0.7847853249999995,0.00011357420650022418,-2.3560790350000005,6.406799899991088e-05,1.5710055600000001,0.7860128545,0.04,0.04,-9.814003749999989,0.00456783007830805,-0.004117710010006048,-0.0011512116750026164,-0.011036074068401007,-0.000915946962502115
0.28500000000000003,0.00023006873600021948,-0.7847809849999996,0.00011599068200026279,-2.3560843200000003,6.310740899989555e-05,1.5710066200000001,0.7860133310000001,0.04,0.04,-9.81390639999999,0.004610153846447084,-0.004174330240005756,-0.001178076270002859,-0.011070489883426309,-0.0009378010350023323
0.28750000000000003,0.00023218529000022141,-0.7847767624999996,0.0001185248600002651,-2.3560896000000007,6.210005249989463e-05,1.5710078500000002,0.7860139025000001,0.04,0.04,-9.813810999999989,0.004652817733590263,-0.004229841100005806,-0.001205646225002884,-0.01110394205898395,-0.0009602939625023529
0.29,0.00023430184400022327,-0.7847725399999996,0.00012105903800026734,-2.3560948800000006,6.109269599989374e-05,1.57100908,0.7860144740000001,0.04,0.04,-9.81371559999999,0.004695481620733441,-0.004285351960005856,-0.0012332161800029085,-0.01113739423454159,-0.0009827868900023728
0.2925,0.0002364183980002252,-0.7847683174999995,0.00012359321600026964,-2.3561001600000004,6.008533949989281e-05,1.5710103100000001,0.7860150455000001,0.04,0.04,-9.813620199999988,0.00473814550787662,-0.004340862820005907,-0.0012607861350029336,-0.01117084641009923,-0.0010052798175023935
0.295,0.00023853495200022715,-0.7847640949999996,0.00012612739400027196,-2.3561054400000008,5.90779829998919e-05,1.57101154,0.7860156170000001,0.04,0.04,-9.813524799999989,0.004780809395019799,-0.004396373680005957,-0.0012883560900029587,-0.01120429858565687,-0.0010277727450024139
0.2975,0.00024065150600022906,-0.7847598724999996,0.00012866157200027426,-2.3561107200000007,5.807062649989098e-05,1.57101277,0.7860161885000001,0.04,0.04,-9.81342939999999,0.004823473282162978,-0.0044518845400060075,-0.0013159260450029838,-0.011237750761214511,-0.0010502656725024343
0.3,0.00024276806000026613,-0.7847556499999996,0.00013119575000031844,-2.3561160000000005,5.7063269999873566e-05,1.5710140000000001,0.7860167600000001,0.04,0.04,-9.813333999999989,0.004866137169305702,-0.004507395400006976,-0.0013434960000033825,-0.011271202936771616,-0.0010727586000026535
0.3025,0.00024520638650026835,-0.7847517514999995,0.0001341134120003211,-2.356121295000001,5.590476254987251e-05,1.5710152750000002,0.786017336,0.04,0.03999999925,-9.813232599999989,0.004904638184238727,-0.004571319145007035,-0.0013744905300034109,-0.011299750581386813,-0.0010970728200026757
0.305,0.0002476447130002706,-0.7847478529999996,0.00013703107400032374,-2.3561265900000006,5.474625509987146e-05,1.5710165500000002,0.786017912,0.04,0.0399999985,-9.813131199999988,0.004943139199171752,-0.004635242890007093,-0.001405485060003439,-0.011328298226002008,-0.001121387040002698
0.3075,0.00025008303950027275,-0.7847439544999996,0.0001399487360003264,-2.356131885000001,5.35877476498704e-05,1.571017825,0.7860184880000001,0.04,0.03999999775,-9.813029799999988,0.004981640214104777,-0.004699166635007151,-0.0014364795900034674,-0.011356845870617204,-0.00114570126000272
0.31,0.00025252136600027497,-0.7847400559999995,0.00014286639800032905,-2.3561371800000006,5.242924019986935e-05,1.5710191,0.786019064,0.04,0.039999997,-9.812928399999988,0.005020141229037802,-0.004763090380007209,-0.0014674741200034955,-0.0113853935152324,-0.0011700154800027421
0.3125,0.0002549596925002772,-0.7847361574999996,0.0001457840600003317,-2.356142475000001,5.127073274986829e-05,1.571020375,0.78601964,0.04,0.03999999625,-9.81282699999999,0.005058642243970827,-0.004827014125007268,-0.0014984686500035236,-0.011413941159847596,-0.0011943297000027644
0.315,0.0002573980190002794,-0.7847322589999995,0.00014870172200033435,-2.3561477700000006,5.011222529986724e-05,1.57102165,0.786020216,0.04,0.0399999955,-9.81272559999999,0.005097143258903852,-0.0048909378700073254,-0.001529463180003552,-0.011442488804462792,-0.0012186439200027863
0.3175,0.0002599522425003218,-0.7847284619999996,0.00015175745850038488,-2.356153065000001,4.88974816498467e-05,1.57102293,0.78602079,0.03999999975,0.03999999525,-9.81262592499999,0.005132933566350258,-0.004949704465005597,-0.0015611535000038214,-0.011470122821631977,-0.0012437663950030887
0.32,0.0002627382600003243,-0.7847248679999995,0.0001550893440003879,-2.3561583600000007,4.757026559984549e-05,1.5710242200000002,0.78602136,0.039999999,0.039999996,-9.81252969999999,0.0051633024588262355,-0.004998156760005641,-0.0015942354000038513,-0.011495929583910085,-0.001270505380003113
0.3225,0.00026552427750032686,-0.7847212739999996,0.00015842122950039092,-2.3561636550000005,4.624304954984428e-05,1.5710255100000001,0.78602193,0.03999999825,0.03999999675,-9.81243347499999,0.005193671351302213,-0.0050466090550056845,-0.0016273173000038814,-0.011521736346188192,-0.0012972443650031372
0.325,0.0002683102950003294,-0.7847176799999995,0.00016175311500039397,-2.3561689500000007,4.491583349984308e-05,1.5710268,0.7860225000000001,0.0399999975,0.0399999975,-9.81233724999999,0.0052240402437781904,-0.005095061350005729,-0.0016603992000039116,-0.0115475431084663,-0.0013239833500031616
0.3275,0.00027109631250033195,-0.7847140859999996,0.000165085000500397,-2.3561742450000005,4.358861744984187e-05,1.57102809,0.78602307,0.03999999675,0.03999999825,-9.81224102499999,0.005254409136254168,-0.005143513645005773,-0.0016934811000039417,-0.011573349870744409,-0.001350722335003186
0.33,0.0002738823300003345,-0.7847104919999995,0.00016841688600040004,-2.3561795400000007,4.226140139984066e-05,1.5710293800000001,0.78602364,0.039999996,0.039999999,-9.812144799999988,0.005284778028730146,-0.005191965940005817,-0.0017265630000039716,-0.011599156633022517,-0.0013774613200032103
0.3325,0.00027666834750033703,-0.7847068979999995,0.00017174877150040306,-2.3561848350000005,4.093418534983945e-05,1.57103067,0.78602421,0.03999999525,0.03999999975,-9.812048574999988,0.005315146921206124,-0.005240418235005861,-0.0017596449000040018,-0.011624963395300626,-0.0014042003050032347
0.335,0.0002797034420003851,-0.7847034799999996,0.00017537732600046035,-2.3561901600000006,3.9490823899817006e-05,1.5710323000000002,0.78602478,0.039999994500000004,0.039999999,-9.81195494999999,0.005347866192464101,-0.005286847900005535,-0.0017941305800042886,-0.011649103928360181,-0.0014318498800034254
0.3375,0.00028286307500038796,-0.7847001499999996,0.00017915421500046378,-2.3561955000000006,3.798938974981564e-05,1.5710341,0.7860253500000001,0.039999993750000004,0.0399999975,-9.81186262499999,0.005381760653112437,-0.0053322662500055774,-0.0018293181500043205,-0.011672411346810912,-0.0014599547500034511
0.34,0.0002860227080003909,-0.7846968199999995,0.0001829311040004672,-2.3562008400000005,3.6487955599814276e-05,1.5710359000000003,0.78602592,0.039999993000000005,0.039999996,-9.811770299999989,0.005415655113760773,-0.005377684600005619,-0.0018645057200043526,-0.011695718765261643,-0.0014880596200034766
0.3425,0.00028918234100039374,-0.7846934899999995,0.00018670799300047066,-2.3562061800000005,3.498652144981291e-05,1.5710377000000002,0.78602649,0.03999999225,0.0399999945,-9.811677974999988,0.0054495495744091085,-0.00542310295000566,-0.0018996932900043847,-0.011719026183712374,-0.0015161644900035022
0.34500000000000003,0.0002923419740003966,-0.7846901599999996,0.00019048488200047408,-2.3562115200000004,3.348508729981154e-05,1.5710395000000001,0.78602706,0.0399999915,0.039999993,-9.811585649999989,0.0054834440350574444,-0.005468521300005701,-0.0019348808600044168,-0.011742333602163105,-0.0015442693600035277
0.34750000000000003,0.0002955016070003995,-0.7846868299999995,0.00019426177100047753,-2.3562168600000004,3.198365314981017e-05,1.5710413000000003,0.78602763,0.03999999075,0.0399999915,-9.811493324999988,0.00551733849570578,-0.005513939650005743,-0.001970068430004449,-0.011765641020613837,-0.0015723742300035534
0.35000000000000003,0.00029866124000045325,-0.7846834999999995,0.0001980386600005416,-2.356222200000001,3.0482218999784298e-05,1.5710431000000002,0.7860282000000001,0.03999999,0.03999999,-9.811400999999988,0.005551232956352562,-0.005559358000006966,-0.002005256000004745,-0.011788948439063987,-0.0016004791000039074
0.3525,0.00030222067100045644,-0.7846804459999996,0.00020229163250054538,-2.3562275700000006,2.8788345949782794e-05,1.5710449600000003,0.7860290550000001,0.0399999897,0.0399999915,-9.811298099999988,0.005572917498650896,-0.005614061770007015,-0.002042517095004778,-0.011807687859984619,-0.0016311641800039348
0.355,0.0003057801020004597,-0.7846773919999996,0.00020654460500054924,-2.356232940000001,2.7094472899781253e-05,1.5710468200000003,0.7860299100000001,0.0399999894,0.039999993,-9.811195199999986,0.005594602040949231,-0.005668765540007065,-0.002079778190004812,-0.011826427280905251,-0.0016618492600039628
0.3575,0.0003093395330004629,-0.7846743379999996,0.0002107975775005531,-2.3562383100000006,2.5400599849779712e-05,1.5710486800000003,0.786030765,0.0399999891,0.0399999945,-9.811092299999986,0.0056162865832475655,-0.005723469310007115,-0.002117039285004846,-0.011845166701825883,-0.0016925343400039906
0.36,0.00031289896400046613,-0.7846712839999996,0.00021505055000055698,-2.356243680000001,2.3706726799778167e-05,1.57105054,0.78603162,0.0399999888,0.039999996,-9.810989399999986,0.0056379711255459,-0.005778173080007164,-0.0021543003800048796,-0.011863906122746515,-0.0017232194200040186
0.3625,0.0003164583950004694,-0.7846682299999996,0.00021930352250056087,-2.3562490500000006,2.2012853749776626e-05,1.5710524000000001,0.7860324750000001,0.0399999885,0.0399999975,-9.810886499999986,0.005659655667844235,-0.005832876850007214,-0.0021915614750049137,-0.011882645543667147,-0.0017539045000040466
0.365,0.00032001782600047263,-0.7846651759999996,0.00022355649500056473,-2.356254420000001,2.0318980699775085e-05,1.5710542600000001,0.7860333300000001,0.0399999882,0.039999999,-9.810783599999986,0.00568134021014257,-0.005887580620007264,-0.002228822570004948,-0.011901384964587779,-0.0017845895800040743
0.3675,0.00032371923450053285,-0.7846622014999997,0.00022797849050063638,-2.3562598650000006,1.85579265647466e-05,1.5710561350000003,0.7860341875000001,0.0399999878,0.03999999975,-9.810684749999988,0.0057031029136880105,-0.005936700660005074,-0.002267214730005435,-0.011919310595842385,-0.0018158082600043164
0.37,0.00032770459800053646,-0.7846593859999996,0.00023273853200064072,-2.356265460000001,1.666251025974487e-05,1.5710580400000003,0.7860350500000001,0.0399999872,0.039999999,-9.810593999999988,0.00572502193972757,-0.005974653240005109,-0.0023078690200054723,-0.011935608647765914,-0.0018480941400043458
0.3725,0.0003316899615005401,-0.7846565704999996,0.00023749857350064505,-2.356271055000001,1.4767093954743145e-05,1.5710599450000002,0.7860359125,0.0399999866,0.03999999825,-9.810503249999988,0.00574694096576713,-0.006012605820005143,-0.002348523310005509,-0.011951906699689444,-0.0018803800200043752
0.375,0.00033567532500054374,-0.7846537549999997,0.0002422586150006494,-2.3562766500000007,1.287167764974142e-05,1.5710618500000002,0.7860367750000001,0.039999986,0.0399999975,-9.810412499999988,0.005768859991806691,-0.006050558400005178,-0.0023891776000055463,-0.011968204751612975,-0.0019126659000044044
0.3775,0.00033966068850054736,-0.7846509394999996,0.00024701865650065375,-2.356282245000001,1.0976261344739694e-05,1.5710637550000002,0.7860376375000001,0.0399999854,0.03999999675,-9.810321749999988,0.005790779017846251,-0.006088510980005212,-0.002429831890005583,-0.011984502803536504,-0.0019449517800044338
0.38,0.00034364605200055097,-0.7846481239999996,0.00025177869800065806,-2.356287840000001,9.080845039737969e-06,1.5710656600000004,0.7860385000000001,0.0399999848,0.039999996,-9.810230999999987,0.005812698043885811,-0.0061264635600052466,-0.0024704861800056203,-0.012000800855460033,-0.001977237660004463
0.3825,0.0003476314155005546,-0.7846453084999996,0.00025653873950066237,-2.356293435000001,7.185428734736242e-06,1.5710675650000003,0.7860393625000001,0.039999984200000005,0.03999999525,-9.810140249999987,0.0058346170699253705,-0.006164416140005281,-0.002511140470005657,-0.012017098907383563,-0.0020095235400044925
0.385,0.00035191817900062156,-0.7846426289999996,0.0002616575250007421,-2.356299410000001,5.147304929704534e-06,1.5710698100000005,0.7860402280000001,0.039999983600000004,0.039999995,-9.81006709999999,0.005850854283200526,-0.006202366550005315,-0.0025531234800059734,-0.012032559607180077,-0.0020432144700048174
0.3875,0.0003563556425006256,-0.7846400174999996,0.0002669556825007469,-2.356305575000001,3.0378273747026138e-06,1.5710722250000004,0.7860410950000001,0.039999983,0.039999995,-9.81000274999999,0.005864250590095264,-0.00624031587500535,-0.002595770850006012,-0.012047601630913346,-0.0020776079250048483
0.39,0.00036079310600062965,-0.7846374059999996,0.00027225384000075176,-2.356311740000001,9.283498197006932e-07,1.5710746400000004,0.7860419620000001,0.0399999824,0.039999995,-9.809938399999991,0.005877646896990001,-0.0062782652000053845,-0.0026384182200060507,-0.012062643654646614,-0.0021120013800048796
0.3925,0.0003652305695006337,-0.7846347944999996,0.0002775519975007566,-2.356317905000001,-1.1811277353012269e-06,1.5710770550000004,0.7860428290000001,0.0399999818,0.039999995,-9.80987404999999,0.0058910432038847375,-0.006316214525005419,-0.00268106559000609,-0.012077685678379883,-0.002146394835004911
0.395,0.00036966803300063773,-0.7846321829999996,0.0002828501550007614,-2.3563240700000008,-3.290605290303148e-06,1.5710794700000004,0.7860436960000001,0.0399999812,0.039999995,-9.80980969999999,0.005904439510779475,-0.0063541638500054535,-0.0027237129600061285,-0.012092727702113152,-0.0021807882900049423
0.3975,0.00037410549650064177,-0.7846295714999996,0.0002881483125007662,-2.356330235000001,-5.400082845305067e-06,1.5710818850000003,0.7860445630000001,0.0399999806,0.039999995,-9.80974534999999,0.005917835817674212,-0.006392113175005488,-0.0027663603300061676,-0.01210776972584642,-0.0022151817450049736
0.4,0.00037854296000071536,-0.7846269599999997,0.0002934464700008539,-2.356336400000001,-7.509560400339907e-06,1.5710843000000005,0.7860454300000003,0.03999998,0.039999995,-9.809680999999994,0.0059312321245684205,-0.006430062500007249,-0.0028090077000065077,-0.012122811749579385,-0.0022495752000052734
0.4025,0.0003834586160007199,-0.7846245359999996,0.0002993137200008592,-2.356342685000001,-9.845238840342033e-06,1.5710867300000004,0.7860465745000002,0.039999979549999995,0.039999994250000004,-9.809642449999993,0.00594099753070762,-0.006479876000007294,-0.0028537253250065482,-0.012135765561835841,-0.0022858130400053066
0.405,0.00038837427200072433,-0.7846221119999996,0.0003051809700008645,-2.356348970000001,-1.218091728034416e-05,1.5710891600000005,0.7860477190000001,0.0399999791,0.039999993500000004,-9.809603899999994,0.005950762936846819,-0.00652968950000734,-0.0028984429500065892,-0.0121487193740923,-0.0023220508800053394
0.40750000000000003,0.0003932899280007288,-0.7846196879999997,0.00031104822000086986,-2.356355255000001,-1.4516595720346287e-05,1.5710915900000004,0.7860488635000001,0.03999997865,0.039999992750000005,-9.809565349999994,0.005960528342986018,-0.006579503000007385,-0.0029431605750066298,-0.012161673186348755,-0.0023582887200053726
0.41000000000000003,0.0003982055840007333,-0.7846172639999996,0.0003169154700008752,-2.356361540000001,-1.6852274160348412e-05,1.5710940200000003,0.7860500080000001,0.0399999782,0.039999992,-9.809526799999993,0.0059702937491252165,-0.006629316500007431,-0.0029878782000066707,-0.012174626998605212,-0.0023945265600054054
0.41250000000000003,0.00040312124000073775,-0.7846148399999997,0.00032278272000088056,-2.356367825000001,-1.918795260035054e-05,1.5710964500000004,0.7860511525000001,0.03999997775,0.03999999125,-9.809488249999994,0.005980059155264415,-0.006679130000007476,-0.0030325958250067113,-0.01218758081086167,-0.0024307644000054387
0.41500000000000004,0.00040803689600074226,-0.7846124159999996,0.0003286499700008859,-2.356374110000001,-2.1523631040352666e-05,1.5710988800000003,0.7860522970000001,0.039999977299999996,0.0399999905,-9.809449699999995,0.005989824561403614,-0.006728943500007522,-0.0030773134500067523,-0.012200534623118126,-0.0024670022400054715
0.4175,0.0004131206125008232,-0.7846100524999997,0.0003347172065009822,-2.356380445000001,-2.3938821100390968e-05,1.5711014950000004,0.7860534420000002,0.039999976799999996,0.0399999899,-9.809397899999988,0.005997187388129858,-0.0067749575750058345,-0.003123100875007279,-0.012212975835429284,-0.002503895050005802
0.42,0.0004185404500008281,-0.7846078099999997,0.0003411844160009881,-2.356386880000001,-2.6513034400393312e-05,1.5711044800000005,0.7860545880000002,0.0399999762,0.0399999896,-9.809319599999988,0.005999745056033471,-0.0068133728000058695,-0.003171027900007323,-0.012224391847850544,-0.002542097800005837
0.4225,0.000423960287500833,-0.7846055674999997,0.00034765162550099403,-2.356393315000001,-2.9087247700395657e-05,1.5711074650000005,0.7860557340000002,0.0399999756,0.0399999893,-9.809241299999988,0.006002302723937083,-0.006851788025005905,-0.0032189549250073663,-0.012235807860271805,-0.002580300550005872
0.425,0.00042938012500083795,-0.7846033249999996,0.0003541188350009999,-2.356399750000001,-3.1661461000398e-05,1.5711104500000006,0.7860568800000002,0.039999975,0.039999989,-9.809162999999987,0.006004860391840695,-0.00689020325000594,-0.00326688195000741,-0.012247223872693065,-0.0026185033000059067
0.4275,0.0004347999625008429,-0.7846010824999997,0.0003605860445010058,-2.356406185000001,-3.423567430040035e-05,1.5711134350000004,0.7860580260000002,0.0399999744,0.0399999887,-9.809084699999987,0.006007418059744308,-0.006928618475005974,-0.0033148089750074535,-0.012258639885114326,-0.0026567060500059412
0.43,0.0004402198000008478,-0.7845988399999997,0.0003670532540010117,-2.3564126200000013,-3.680988760040269e-05,1.5711164200000005,0.7860591720000001,0.0399999738,0.0399999884,-9.809006399999987,0.00600997572764792,-0.006967033700006009,-0.0033627360000074973,-0.012270055897535586,-0.002694908800005976
0.4325,0.00044563963750085273,-0.7845965974999997,0.00037352046350101753,-2.3564190550000013,-3.938410090040503e-05,1.5711194050000006,0.7860603180000001,0.039999973200000004,0.0399999881,-9.808928099999987,0.006012533395551533,-0.007005448925006044,-0.0034106630250075407,-0.012281471909956846,-0.002733111550006011
0.435,0.00045141287200094155,-0.7845944649999996,0.00038040812800112326,-2.356425580000001,-4.2125514300447066e-05,1.5711224200000005,0.7860615700000002,0.0399999723,0.0399999876,-9.808836099999985,0.006009168038143689,-0.0070507790000077205,-0.0034598704300078885,-0.012290084362031082,-0.0027727050500063757
0.4375,0.000457362805000947,-0.7845923874999997,0.0003875060200011297,-2.356432150000001,-4.495052775044963e-05,1.5711254500000005,0.7860628750000002,0.03999997125,0.039999987,-9.808737249999984,0.006002841168082218,-0.007099566500007765,-0.003509718025007934,-0.012297295033932797,-0.0028129939250064124
0.44,0.0004633127380009524,-0.7845903099999997,0.00039460391200113617,-2.356438720000001,-4.7775541200452206e-05,1.5711284800000005,0.7860641800000002,0.0399999702,0.0399999864,-9.808638399999984,0.0059965142980207475,-0.00714835400000781,-0.003559565620007979,-0.012304505705834514,-0.002853282800006449
0.4425,0.00046926267100095783,-0.7845882324999996,0.00040170180400114265,-2.3564452900000012,-5.060055465045478e-05,1.5711315100000005,0.7860654850000002,0.03999996915,0.0399999858,-9.808539549999983,0.005990187427959277,-0.0071971415000078535,-0.0036094132150080245,-0.012311716377736232,-0.0028935716750064858
0.445,0.00047521260400096326,-0.7845861549999996,0.0004087996960011491,-2.3564518600000013,-5.3425568100457347e-05,1.5711345400000005,0.7860667900000002,0.0399999681,0.039999985200000004,-9.808440699999982,0.005983860557897806,-0.007245929000007898,-0.00365926081000807,-0.012318927049637947,-0.0029338605500065225
0.4475,0.0004811625370009687,-0.7845840774999997,0.00041589758800115556,-2.3564584300000013,-5.625058155045992e-05,1.5711375700000005,0.7860680950000002,0.03999996705,0.0399999846,-9.808341849999984,0.005977533687836335,-0.007294716500007943,-0.003709108405008115,-0.012326137721539664,-0.002974149425006559
0.45,0.0004871124700010651,-0.7845819999999997,0.00042299548000127024,-2.3564650000000014,-5.907559500050551e-05,1.5711406000000008,0.7860694000000003,0.039999966,0.039999984,-9.808242999999987,0.005971206817774145,-0.007343504000005524,-0.0037589560000085933,-0.012333348393441152,-0.003014438300006893
0.4525,0.000493618154501071,-0.7845800709999997,0.00043075456900127735,-2.356472425000001,-6.216336675050832e-05,1.5711441850000007,0.7860708295000003,0.039999964799999996,0.03999998295,-9.808168299999988,0.005960490345021745,-0.0073772447450055545,-0.003811445800008641,-0.012339166132734142,-0.003056540990006931
0.455,0.0005001238390010769,-0.7845781419999996,0.0004385136580012844,-2.3564798500000013,-6.525113850051114e-05,1.5711477700000007,0.7860722590000002,0.0399999636,0.0399999819,-9.808093599999987,0.0059497738722693455,-0.007410985490005585,-0.0038639356000086888,-0.012344983872027133,-0.0030986436800069695
0.4575,0.0005066295235010828,-0.7845762129999997,0.00044627274700129144,-2.356487275000001,-6.833891025051394e-05,1.5711513550000007,0.7860736885000003,0.0399999624,0.03999998085,-9.808018899999988,0.005939057399516946,-0.007444726235005616,-0.0039164254000087365,-0.012350801611320123,-0.003140746370007008
0.46,0.0005131352080010888,-0.7845742839999996,0.0004540318360012985,-2.356494700000001,-7.142668200051676e-05,1.5711549400000007,0.7860751180000002,0.0399999612,0.0399999798,-9.807944199999987,0.005928340926764546,-0.0074784669800056465,-0.003968915200008785,-0.012356619350613112,-0.003182849060007046
0.4625,0.0005196408925010947,-0.7845723549999997,0.0004617909250013056,-2.3565021250000013,-7.451445375051956e-05,1.5711585250000006,0.7860765475000002,0.03999996,0.03999997875,-9.807869499999988,0.005917624454012147,-0.007512207725005678,-0.004021405000008832,-0.012362437089906104,-0.0032249517500070844
0.465,0.0005261465770011007,-0.7845704259999997,0.00046955001400131264,-2.356509550000001,-7.760222550052238e-05,1.5711621100000006,0.7860779770000001,0.0399999588,0.0399999777,-9.807794799999987,0.005906907981259747,-0.007545948470005708,-0.00407389480000888,-0.012368254829199093,-0.003267054440007123
0.4675,0.0005328460300012054,-0.7845685349999997,0.0004775395905014373,-2.356517025000001,-8.078162175057194e-05,1.5711657500000007,0.7860794235000003,0.039999957600000004,0.03999997665,-9.807740999999998,0.005893279565494876,-0.007584070235007975,-0.004127188935009338,-0.012373763183132637,-0.0033098005050074893
0.47000000000000003,0.0005399330200012119,-0.7845667199999997,0.000485990142001445,-2.356524600000001,-8.414426700057501e-05,1.5711695000000008,0.7860809040000002,0.0399999564,0.0399999756,-9.807728999999998,0.005873827263709513,-0.007630954040008017,-0.004182091740009388,-0.012378652766347756,-0.0033538333200075297
0.47250000000000003,0.0005470200100012183,-0.7845649049999996,0.0004944406935014527,-2.3565321750000012,-8.750691225057807e-05,1.5711732500000006,0.7860823845000002,0.0399999552,0.03999997455,-9.807716999999998,0.005854374961924151,-0.00767783784500806,-0.004236994545009438,-0.012383542349562876,-0.0033978661350075696
0.47500000000000003,0.0005541070000012248,-0.7845630899999997,0.0005028912450014604,-2.356539750000001,-9.086955750058113e-05,1.5711770000000007,0.7860838650000003,0.039999954,0.0399999735,-9.807704999999999,0.0058349226601387884,-0.007724721650008102,-0.004291897350009488,-0.012388431932777996,-0.0034418989500076096
0.47750000000000004,0.0005611939900012313,-0.7845612749999997,0.0005113417965014681,-2.356547325000001,-9.423220275058419e-05,1.5711807500000008,0.7860853455000003,0.0399999528,0.039999972450000004,-9.807692999999999,0.005815470358353426,-0.007771605455008146,-0.004346800155009538,-0.012393321515993115,-0.0034859317650076495
0.48,0.0005682809800012375,-0.7845594599999998,0.0005197923480014756,-2.3565549000000012,-9.759484800058718e-05,1.5711845000000007,0.7860868260000002,0.0399999516,0.0399999714,-9.807680999999999,0.005796018056568063,-0.007818489260008187,-0.004401702960009587,-0.012398211099208235,-0.0035299645800076886
0.4825,0.000575367970001244,-0.7845576449999997,0.0005282428995014833,-2.356562475000001,-0.00010095749325059024,1.5711882500000007,0.7860883065000003,0.0399999504,0.039999970350000004,-9.807668999999999,0.005776565754782701,-0.00786537306500823,-0.004456605765009636,-0.012403100682423354,-0.003573997395007729
0.485,0.0005828593300013574,-0.7845559259999998,0.0005371744350016182,-2.356570130000001,-0.0001045113775006439,1.5711922700000007,0.7860899470000003,0.0399999493,0.039999969600000004,-9.807612699999986,0.005750611843536087,-0.00790809450000717,-0.004512826630010036,-0.012406754121184856,-0.0036193901000081286
0.4875,0.0005905528750013645,-0.7845542549999998,0.0005463464625016266,-2.3565778250000013,-0.00010816088125064722,1.5711964250000008,0.7860916675000004,0.03999994825,0.039999969,-9.807534249999986,0.00572140712756142,-0.007948734750007208,-0.004569706525010087,-0.012409789487720039,-0.0036654627500081706
0.49,0.0005982464200013714,-0.7845525839999997,0.0005555184900016349,-2.356585520000001,-0.00011181038500065056,1.5712005800000008,0.7860933880000004,0.039999947200000004,0.0399999684,-9.807455799999987,0.005692202411586754,-0.007989375000007244,-0.004626586420010139,-0.012412824854255222,-0.0037115354000082125
0.4925,0.0006059399650013784,-0.7845509129999997,0.0005646905175016433,-2.3565932150000015,-0.00011545988875065388,1.5712047350000007,0.7860951085000003,0.03999994615,0.0399999678,-9.807377349999987,0.005662997695612087,-0.008030015250007282,-0.004683466315010191,-0.012415860220790404,-0.0037576080500082544
0.495,0.0006136335100013855,-0.7845492419999998,0.0005738625450016516,-2.3566009100000014,-0.0001191093925006572,1.5712088900000007,0.7860968290000003,0.0399999451,0.0399999672,-9.807298899999987,0.005633792979637421,-0.008070655500007318,-0.004740346210010243,-0.012418895587325587,-0.0038036807000082964
0.4975,0.0006213270550013924,-0.7845475709999997,0.00058303457250166,-2.3566086050000017,-0.0001227588962506605,1.5712130450000008,0.7860985495000004,0.03999994405,0.0399999666,-9.807220449999987,0.005604588263662755,-0.008111295750007356,-0.004797226105010295,-0.01242193095386077,-0.0038497533500083383
0.5,0.0006290206000015143,-0.7845458999999997,0.0005922066000018049,-2.356616300000002,-0.00012640840000071812,1.5712172000000009,0.7861002700000004,0.039999943,0.039999966,-9.807141999999983,0.005575383547686941,-0.00815193600000729,-0.004854106000010867,-0.012424966320395334,-0.0038958260000087007
0.5025000000000001,0.0006373457350015221,-0.7845443099999997,0.0006021297600018143,-2.356624880000002,-0.00013035638500072182,1.5712217450000008,0.7861020220000003,0.03999994195,0.039999964799999996,-9.807042099999983,0.005539872078218437,-0.008192010075007326,-0.004913843245010922,-0.012424600031226743,-0.003943660400008746
0.505,0.0006456708700015295,-0.7845427199999997,0.0006120529200018231,-2.3566334600000016,-0.00013430437000072534,1.5712262900000007,0.7861037740000003,0.0399999409,0.0399999636,-9.806942199999982,0.005504360608749936,-0.008232084150007363,-0.004973580490010975,-0.012424233742058153,-0.003991494800008788
0.5075000000000001,0.0006539960050015373,-0.7845411299999997,0.0006219760800018323,-2.3566420400000014,-0.000138252355000729,1.5712308350000008,0.7861055260000004,0.03999993985,0.0399999624,-9.806842299999982,0.005468849139281432,-0.0082721582250074,-0.005033317735011031,-0.012423867452889563,-0.004039329200008833
0.51,0.0006623211400015446,-0.7845395399999997,0.0006318992400018411,-2.3566506200000017,-0.00014220034000073252,1.5712353800000007,0.7861072780000004,0.0399999388,0.0399999612,-9.806742399999981,0.005433337669812932,-0.008312232300007437,-0.005093054980011084,-0.012423501163720973,-0.004087163600008875
0.5125,0.000670646275001552,-0.7845379499999997,0.0006418224000018499,-2.3566592000000015,-0.000146148325000736,1.5712399250000009,0.7861090300000003,0.03999993775,0.03999996,-9.806642499999981,0.00539782620034443,-0.008352306375007472,-0.005152792225011137,-0.012423134874552383,-0.004134998000008917
0.515,0.0006789714100015597,-0.7845363599999997,0.0006517455600018592,-2.3566677800000013,-0.0001500963100007397,1.5712444700000008,0.7861107820000003,0.0399999367,0.0399999588,-9.80654259999998,0.005362314730875927,-0.008392380450007508,-0.005212529470011193,-0.01242276858538379,-0.004182832400008962
0.5175,0.0006875153200016907,-0.7845348149999998,0.0006619289100020149,-2.3566764250000016,-0.0001541477150008016,1.5712490850000007,0.7861126175000004,0.0399999358,0.0399999578,-9.80647805,0.0053217413602300815,-0.008434114525008482,-0.0052728782850115915,-0.012422549398615939,-0.004231292080009358
0.52,0.0006964967800016991,-0.7845333599999997,0.000672632640002025,-2.3566852000000016,-0.00015840596000080557,1.571253840000001,0.7861146200000004,0.0399999352,0.0399999572,-9.806484200000002,0.0052710441872381095,-0.008479168600008524,-0.005334450240011649,-0.012422624416649314,-0.004281002320009404
0.5225,0.0007054782400017071,-0.7845319049999998,0.0006833363700020344,-2.3566939750000016,-0.00016266420500080938,1.5712585950000009,0.7861166225000004,0.0399999346,0.0399999566,-9.80649035,0.005220347014246139,-0.008524222675008564,-0.005396022195011703,-0.01242269943468269,-0.004330712560009448
0.525,0.0007144597000017155,-0.7845304499999998,0.0006940401000020444,-2.3567027500000015,-0.00016692245000081334,1.5712633500000008,0.7861186250000004,0.039999934,0.039999955999999996,-9.806496500000002,0.005169649841254166,-0.008569276750008606,-0.0054575941500117605,-0.012422774452716064,-0.0043804228000094945
0.5275,0.0007234411600017235,-0.7845289949999997,0.0007047438300020539,-2.3567115250000015,-0.00017118069500081712,1.5712681050000008,0.7861206275000004,0.0399999334,0.0399999554,-9.80650265,0.005118952668262197,-0.008614330825008646,-0.005519166105011815,-0.012422849470749439,-0.004430133040009539
0.53,0.0007324226200017319,-0.7845275399999998,0.000715447560002064,-2.356720300000002,-0.0001754389400008211,1.571272860000001,0.7861226300000004,0.0399999328,0.0399999548,-9.806508800000001,0.005068255495270224,-0.008659384900008688,-0.005580738060011873,-0.012422924488782815,-0.004479843280009586
0.5325,0.0007414040800017398,-0.7845260849999998,0.0007261512900020735,-2.356729075000002,-0.00017969718500082486,1.571277615000001,0.7861246325000004,0.039999932200000005,0.0399999542,-9.80651495,0.0050175583222782545,-0.008704438975008727,-0.005642310015011928,-0.012422999506816189,-0.0045295535200096295
0.535,0.0007508393900018807,-0.7845246729999997,0.000737394730002241,-2.356738190000002,-0.0001841699630008915,1.571282730000001,0.7861266700000005,0.0399999318,0.039999954,-9.806455899999982,0.004967210860913144,-0.008745102400007488,-0.005705743300012528,-0.012421541847288086,-0.0045805799700100605
0.5375,0.0007605016250018893,-0.7845232824999998,0.0007489080250022513,-2.356747475000002,-0.00018875000750089556,1.571288025000001,0.7861287250000004,0.0399999315,0.039999954,-9.806364249999982,0.004917038255361314,-0.008783570500007522,-0.005770107250012585,-0.012419317848979915,-0.004632264525010106
0.54,0.0007701638600018983,-0.7845218919999998,0.0007604213200022619,-2.356756760000002,-0.0001933300520008998,1.571293320000001,0.7861307800000005,0.039999931200000005,0.039999954,-9.806272599999982,0.004866865649809483,-0.008822038600007557,-0.005834471200012645,-0.012417093850671744,-0.0046839490800101545
0.5425,0.0007798260950019069,-0.7845205014999997,0.0007719346150022723,-2.356766045000002,-0.00019791009650090387,1.571298615000001,0.7861328350000004,0.0399999309,0.039999954,-9.806180949999982,0.0048166930442576535,-0.00886050670000759,-0.005898835150012703,-0.01241486985236357,-0.0047356336350102
0.545,0.0007894883300019158,-0.7845191109999997,0.000783447910002283,-2.356775330000002,-0.00020249014100090815,1.571303910000001,0.7861348900000005,0.039999930600000004,0.039999954,-9.806089299999982,0.0047665204387058215,-0.008898974800007627,-0.005963199100012763,-0.0124126458540554,-0.0047873181900102485
0.5475,0.0007991505650019245,-0.7845177204999997,0.0007949612050022932,-2.356784615000002,-0.00020707018550091222,1.571309205000001,0.7861369450000004,0.0399999303,0.039999954,-9.805997649999982,0.004716347833153992,-0.00893744290000766,-0.006027563050012819,-0.012410421855747228,-0.004839002745010294
0.55,0.0008088128000020745,-0.7845163299999998,0.0008064745000024716,-2.3567939000000018,-0.00021165023000098312,1.571314500000001,0.7861390000000005,0.03999993,0.039999954,-9.805905999999991,0.004666175227599594,-0.00897591100000956,-0.006091927000013242,-0.012408197857438704,-0.0048906873000106816
0.5525,0.0008191799300020837,-0.7845150054999998,0.0008188259200024825,-2.3568037700000017,-0.0002165632970009875,1.5713201100000012,0.7861412905000005,0.03999992925,0.039999953399999996,-9.805859949999991,0.004603181034313828,-0.009023683750009602,-0.0061581020500133,-0.01240421533584512,-0.004944068655010729
0.555,0.0008295470600020934,-0.7845136809999997,0.000831177340002494,-2.3568136400000017,-0.00022147636400099207,1.571325720000001,0.7861435810000005,0.039999928500000004,0.039999952799999995,-9.805813899999992,0.00454018684102806,-0.009071456500009647,-0.0062242771000133625,-0.012400232814251537,-0.004997450010010779
0.5575,0.0008399141900021026,-0.7845123564999997,0.000843528760002505,-2.356823510000002,-0.00022638943100099644,1.5713313300000011,0.7861458715000005,0.039999927750000004,0.0399999522,-9.805767849999992,0.0044771926477422935,-0.00911922925000969,-0.006290452150013421,-0.012396250292657953,-0.005050831365010827
0.56,0.0008502813200021123,-0.7845110319999997,0.0008558801800025165,-2.356833380000002,-0.00023130249800100102,1.5713369400000012,0.7861481620000005,0.039999927,0.0399999516,-9.805721799999992,0.004414198454456526,-0.009167002000009734,-0.0063566272000134824,-0.012392267771064369,-0.005104212720010877
0.5625,0.0008606484500021215,-0.7845097074999997,0.0008682316000025275,-2.356843250000002,-0.0002362155650010054,1.5713425500000011,0.7861504525000005,0.03999992625,0.039999951,-9.805675749999992,0.0043512042611707595,-0.009214774750009775,-0.006422802250013541,-0.012388285249470785,-0.005157594075010924
0.5650000000000001,0.0008710155800021312,-0.7845083829999997,0.000880583020002539,-2.356853120000002,-0.00024112863200100997,1.5713481600000012,0.7861527430000005,0.0399999255,0.0399999504,-9.805629699999992,0.004288210067884991,-0.009262547500009821,-0.006488977300013603,-0.012384302727877201,-0.0052109754300109735
0.5675,0.0008816255815022908,-0.7845070949999998,0.0008932232500027289,-2.3568631100000017,-0.00024615650150108543,1.5713538650000012,0.7861550665000006,0.03999992475,0.03999995,-9.805584999999992,0.004221298196337488,-0.009309531950009374,-0.006556017865014198,-0.012380054779349694,-0.00526500015001142
0.5700000000000001,0.0008927213260023012,-0.7845058799999998,0.0009064411000027412,-2.356873340000002,-0.00025141397600109036,1.5713597600000013,0.7861574560000005,0.039999924,0.03999995,-9.805542999999991,0.004146550968273779,-0.009354939800009418,-0.006624789460014263,-0.01237527597695483,-0.005320311600011471
0.5725,0.000903817070502311,-0.7845046649999997,0.000919658950002753,-2.356883570000002,-0.000256671450501095,1.5713656550000012,0.7861598455000005,0.03999992325,0.03999995,-9.805500999999992,0.004071803740210072,-0.009400347650009458,-0.006693561055014324,-0.012370497174559965,-0.0053756230500115205
0.5750000000000001,0.0009149128150023214,-0.7845034499999998,0.0009328768000027652,-2.356893800000002,-0.0002619289250010999,1.5713715500000014,0.7861622350000006,0.0399999225,0.03999995,-9.805458999999992,0.003997056512146362,-0.0094457555000095,-0.006762332650014387,-0.0123657183721651,-0.005430934500011571
0.5775,0.0009260085595023313,-0.7845022349999997,0.000946094650002777,-2.356904030000002,-0.0002671863995011046,1.5713774450000013,0.7861646245000006,0.03999992175,0.03999995,-9.805416999999991,0.0039223092840826555,-0.009491163350009539,-0.006831104245014449,-0.012360939569770236,-0.00548624595001162
0.58,0.0009371043040023411,-0.7845010199999997,0.0009593125000027888,-2.356914260000002,-0.00027244387400110926,1.5713833400000012,0.7861670140000006,0.039999921,0.03999995,-9.805374999999993,0.0038475620560189496,-0.00953657120000958,-0.00689987584001451,-0.012356160767375373,-0.0055415574000116695
0.5825,0.0009482000485023514,-0.7844998049999997,0.0009725303500028011,-2.356924490000002,-0.00027770134850111413,1.5713892350000014,0.7861694035000005,0.03999992025,0.03999995,-9.805332999999992,0.0037728148279552397,-0.009581979050009622,-0.0069686474350145735,-0.012351381964980509,-0.005596868850011721
0.585,0.0009597971770025213,-0.7844986299999998,0.000986344340003003,-2.3569352400000025,-0.0002831956710011944,1.5713954900000016,0.7861719150000006,0.039999919700000004,0.0399999497,-9.805271299999985,0.0036920906975686455,-0.009623602100008455,-0.00703868560001504,-0.012345457263289467,-0.00565327617001212
0.5875,0.0009716449975025324,-0.7844974749999998,0.0010004564000030162,-2.3569462500000022,-0.00028880841750119967,1.5714019250000015,0.7861744875000005,0.03999991925,0.03999994925,-9.805199749999986,0.003608378116023457,-0.009663332750008491,-0.007109357050015105,-0.012338959611950886,-0.0057102314250121735
0.59,0.000983492818002543,-0.7844963199999997,0.0010145684600030287,-2.3569572600000024,-0.00029442116400120466,1.5714083600000015,0.7861770600000005,0.0399999188,0.0399999488,-9.805128199999986,0.003524665534478273,-0.009703063400008528,-0.007180028500015168,-0.012332461960612306,-0.005767186680012224
0.5925,0.000995340638502554,-0.7844951649999997,0.001028680520003042,-2.3569682700000025,-0.00030003391050120986,1.5714147950000015,0.7861796325000006,0.039999918350000004,0.03999994835,-9.805056649999985,0.0034409529529330846,-0.009742794050008564,-0.007250699950015234,-0.012325964309273725,-0.005824141935012277
0.595,0.0010071884590025645,-0.7844940099999997,0.0010427925800030545,-2.3569792800000022,-0.00030564665700121485,1.5714212300000014,0.7861822050000006,0.0399999179,0.0399999479,-9.804985099999985,0.0033572403713879005,-0.009782524700008599,-0.007321371400015297,-0.012319466657935143,-0.005881097190012328
0.5975,0.0010190362795025755,-0.7844928549999998,0.0010569046400030677,-2.3569902900000024,-0.0003112594035012201,1.5714276650000014,0.7861847775000005,0.039999917450000005,0.039999947450000004,-9.804913549999986,0.003273527789842712,-0.009822255350008637,-0.0073920428500153625,-0.012312969006596562,-0.005938052445012381
0.6,0.0010308841000027551,-0.7844916999999998,0.0010710167000032814,-2.3570013000000025,-0.00031687215000130505,1.5714341000000016,0.7861873500000005,0.039999917,0.039999947,-9.804841999999997,0.0031898152082949216,-0.009861986000011303,-0.0074627143000159215,-0.01230647135525786,-0.005995007700012841
0.6025,0.001043507005002767,-0.7844906049999998,0.0010860503450032953,-2.3570127150000024,-0.0003228511875013106,1.5714409250000014,0.7861900875000005,0.039999917,0.039999947450000004,-9.804827149999998,0.0030941620468883176,-0.00991377245001135,-0.007535657155015989,-0.012299423851071224,-0.006053838120012896
0.605,0.0010561299100027783,-0.7844895099999998,0.0011010839900033088,-2.3570241300000023,-0.0003288302250013159,1.5714477500000015,0.7861928250000005,0.039999917,0.0399999479,-9.804812299999996,0.0029985088854817175,-0.009965558900011398,-0.007608600010016054,-0.012292376346884588,-0.0061126685400129475
0.6075,0.00106875281500279,-0.7844884149999998,0.0011161176350033227,-2.3570355450000027,-0.0003348092625013215,1.5714545750000015,0.7861955625000006,0.039999917,0.03999994835,-9.804797449999997,0.0029028557240751134,-0.010017345350011446,-0.007681542865016122,-0.012285328842697951,-0.006171498960013002
0.61,0.0010813757200028012,-0.7844873199999998,0.001131151280003336,-2.3570469600000026,-0.0003407883000013268,1.5714614000000016,0.7861983000000006,0.039999917,0.0399999488,-9.804782599999998,0.0028072025626685133,-0.010069131800011491,-0.007754485720016187,-0.012278281338511315,-0.006230329380013055
0.6125,0.001093998625002813,-0.7844862249999998,0.0011461849250033501,-2.3570583750000025,-0.0003467673375013324,1.5714682250000016,0.7862010375000006,0.039999917,0.03999994925,-9.804767749999996,0.002711549401261909,-0.01012091825001154,-0.007827428575016254,-0.012271233834324678,-0.0062891598000131095
0.615,0.0011066215300028243,-0.7844851299999998,0.0011612185700033634,-2.357069790000003,-0.0003527463750013377,1.5714750500000014,0.7862037750000006,0.039999917,0.0399999497,-9.804752899999997,0.002615896239855309,-0.010172704700011586,-0.00790037143001632,-0.012264186330138043,-0.006347990220013162
0.6175,0.0011195103500030153,-0.7844840449999997,0.0011765684000035906,-2.357081465000003,-0.0003588510200014279,1.5714820100000015,0.7862065600000006,0.039999917,0.03999995,-9.804717649999983,0.002517155511281129,-0.010223033800010653,-0.00797401720001686,-0.012256467528639169,-0.006407349815013574
0.62,0.001132931000003027,-0.7844829799999997,0.0011925506000036049,-2.357093660000003,-0.00036520688000143357,1.5714892400000016,0.7862094400000006,0.039999917,0.03999995,-9.804641599999982,0.0024122396483780358,-0.010270448200010695,-0.008049068800016927,-0.012247406132517175,-0.006467767760013627
0.6225,0.0011463516500030396,-0.7844819149999998,0.0012085328000036198,-2.3571058550000026,-0.0003715627400014395,1.5714964700000016,0.7862123200000006,0.039999917,0.03999995,-9.804565549999984,0.0023073237854749377,-0.010317862600010738,-0.008124120400016997,-0.012238344736395183,-0.0065281857050136834
0.625,0.0011597723000030516,-0.7844808499999998,0.001224515000003634,-2.3571180500000026,-0.00037791860000144516,1.5715037000000016,0.7862152000000006,0.039999917,0.03999995,-9.804489499999983,0.002202407922571845,-0.01036527700001078,-0.008199172000017064,-0.012229283340273189,-0.0065886036500137374
0.6275000000000001,0.001173192950003064,-0.7844797849999998,0.001240497200003649,-2.3571302450000027,-0.0003842744600014511,1.5715109300000016,0.7862180800000006,0.039999917,0.03999995,-9.804413449999982,0.002097492059668747,-0.010412691400010825,-0.008274223600017134,-0.012220221944151196,-0.006649021595013793
0.63,0.0011866136000030759,-0.7844787199999997,0.001256479400003663,-2.3571424400000027,-0.00039063032000145675,1.5715181600000017,0.7862209600000006,0.039999917,0.03999995,-9.804337399999982,0.001992576196765654,-0.010460105800010867,-0.0083492752000172,-0.012211160548029202,-0.006709439540013847
0.6325000000000001,0.0012000342500030883,-0.7844776549999998,0.001272461600003678,-2.3571546350000028,-0.0003969861800014627,1.5715253900000017,0.7862238400000006,0.039999917,0.03999995,-9.804261349999981,0.0018876603338625559,-0.010507520200010912,-0.00842432680001727,-0.01220209915190721,-0.006769857485013904
0.635,0.0012140015500032898,-0.7844766299999998,0.0012890937000039175,-2.357167470000003,-0.0004036003570015578,1.5715328900000016,0.7862268550000007,0.039999917,0.0399999504,-9.804225299999995,0.0017738339490914851,-0.01055746420001183,-0.008500643800017776,-0.012192926742134288,-0.006831486840014377
0.6375000000000001,0.0012282421750033031,-0.7844756249999998,0.001306050750003933,-2.357180625000003,-0.0004103436925015641,1.5715405250000016,0.7862299375000007,0.039999917,0.039999951,-9.804209249999996,0.0016555523033910397,-0.010608673000011878,-0.008577593500017848,-0.012183698825535959,-0.006893721900014435
0.64,0.0012424828000033158,-0.7844746199999998,0.0013230078000039482,-2.357193780000003,-0.0004170870280015701,1.5715481600000019,0.7862330200000006,0.039999917,0.0399999516,-9.804193199999995,0.0015372706576905998,-0.010659881800011923,-0.008654543200017916,-0.012174470908937631,-0.006955956960014491
0.6425,0.0012567234250033285,-0.7844736149999998,0.0013399648500039632,-2.357206935000003,-0.0004238303635015761,1.5715557950000019,0.7862361025000006,0.039999917,0.0399999522,-9.804177149999996,0.0014189890119901596,-0.010711090600011968,-0.008731492900017984,-0.012165242992339302,-0.007018192020014546
0.645,0.0012709640500033416,-0.7844726099999998,0.001356921900003979,-2.3572200900000033,-0.0004305736990015824,1.5715634300000019,0.7862391850000007,0.039999917,0.039999952799999995,-9.804161099999996,0.0013007073662897144,-0.010762299400012016,-0.008808442600018056,-0.012156015075740973,-0.007080427080014604
0.6475,0.0012852046750033543,-0.7844716049999998,0.0013738789500039941,-2.3572332450000033,-0.0004373170345015884,1.5715710650000019,0.7862422675000007,0.039999917,0.039999953399999996,-9.804145049999995,0.0011824257205892744,-0.010813508200012062,-0.008885392300018126,-0.012146787159142646,-0.007142662140014659
0.65,0.0012994453000035667,-0.7844705999999998,0.0013908360000042465,-2.3572464000000033,-0.0004440603700016887,1.571578700000002,0.7862453500000007,0.039999917,0.039999954,-9.804129,0.0010641440748865353,-0.010864717000012285,-0.008962342000018723,-0.012137559242544513,-0.007204897200015079
0.6525,0.0013145278900035802,-0.7844696249999998,0.0014087938950042625,-2.3572598100000035,-0.00045120131950169504,1.571586860000002,0.7862486035000007,0.039999917,0.039999954,-9.804132525,0.0009361626114392015,-0.01091666500001233,-0.009041516200018793,-0.012129158759487611,-0.007268664420015137
0.655,0.0013296104800035943,-0.7844686499999998,0.0014267517900042792,-2.3572732200000033,-0.0004583422690017017,1.571595020000002,0.7862518570000008,0.039999917,0.039999954,-9.80413605,0.0008081811479918622,-0.01096861300001238,-0.009120690400018866,-0.012120758276430709,-0.007332431640015196
0.6575,0.0013446930700036076,-0.7844676749999998,0.0014447096850042952,-2.3572866300000035,-0.00046548321850170803,1.5716031800000019,0.7862551105000007,0.039999917,0.039999954,-9.804139575,0.0006801996845445285,-0.011020561000012426,-0.009199864600018938,-0.012112357793373805,-0.007396198860015252
0.66,0.0013597756600036218,-0.7844666999999997,0.001462667580004312,-2.3573000400000033,-0.0004726241680017147,1.571611340000002,0.7862583640000008,0.039999917,0.039999954,-9.804143100000001,0.0005522182210971892,-0.011072509000012474,-0.009279038800019011,-0.012103957310316903,-0.007459966080015312
0.6625,0.001374858250003635,-0.7844657249999998,0.001480625475004328,-2.3573134500000035,-0.000479765117501721,1.571619500000002,0.7862616175000008,0.039999917,0.039999954,-9.804146625000001,0.00042423675764985554,-0.01112445700001252,-0.00935821300001908,-0.01209555682726,-0.007523733300015369
0.665,0.0013899408400036492,-0.7844647499999997,0.0014985833700043446,-2.3573268600000032,-0.0004869060670017277,1.5716276600000019,0.7862648710000008,0.039999917,0.039999954,-9.804150150000002,0.0002962552942025161,-0.011176405000012568,-0.009437387200019154,-0.012087156344203098,-0.007587500520015428
0.6675,0.0014053111900038722,-0.7844637879999997,0.0015168834100046098,-2.3573406150000036,-0.0004941829775018331,1.571635965000002,0.7862681905000009,0.039999917,0.0399999542,-9.804120574999978,0.0001637496053828017,-0.011231508400014913,-0.009517193500019686,-0.012077696248886148,-0.007651853050015911
0.67,0.001421257060003887,-0.7844628519999998,0.0015358677400046275,-2.3573550600000037,-0.0005017318100018401,1.571644560000002,0.7862716420000009,0.039999917,0.0399999548,-9.804024799999977,2.2195465828194676e-05,-0.01129292260001497,-0.00959826400001976,-0.012066116929051417,-0.007717376200015972
0.6725,0.0014372029300039012,-0.7844619159999997,0.0015548520700046445,-2.3573695050000034,-0.0005092806425018468,1.5716531550000021,0.7862750935000008,0.039999917,0.0399999554,-9.803929024999977,-0.00011935867372640606,-0.011354336800015024,-0.009679334500019834,-0.012054537609216688,-0.00778289935001603
0.675,0.001453148800003916,-0.7844609799999998,0.001573836400004662,-2.3573839500000036,-0.0005168294750018538,1.571661750000002,0.7862785450000008,0.039999917,0.039999956,-9.803833249999977,-0.00026091281328101304,-0.011415751000015082,-0.00976040500001991,-0.012042958289381957,-0.007848422500016092
0.6775,0.0014690946700039302,-0.7844600439999997,0.001592820730004679,-2.3573983950000037,-0.0005243783075018606,1.571670345000002,0.7862819965000009,0.039999917,0.0399999566,-9.803737474999977,-0.0004024669528356138,-0.011477165200015137,-0.00984147550001998,-0.012031378969547226,-0.00791394565001615
0.68,0.0014850405400039452,-0.7844591079999997,0.0016118050600046967,-2.3574128400000034,-0.0005319271400018676,1.5716789400000022,0.7862854480000008,0.039999917,0.0399999572,-9.803641699999977,-0.0005440210923902208,-0.011538579400015195,-0.009922546000020058,-0.012019799649712495,-0.007979468800016211
0.6825,0.0015009864100039593,-0.7844581719999997,0.0016307893900047135,-2.3574272850000035,-0.0005394759725018744,1.5716875350000021,0.7862888995000008,0.039999917,0.0399999578,-9.803545924999977,-0.0006855752319448215,-0.011599993600015249,-0.01000361650002013,-0.012008220329877766,-0.00804499195001627
0.685,0.0015175217600041945,-0.7844572579999998,0.0016504746100049932,-2.3574418900000036,-0.0005473032250019854,1.5716964700000022,0.7862924750000009,0.039999917,0.039999958,-9.803520100000002,-0.0008346640505276752,-0.011658143200014086,-0.010086027200020706,-0.011997249349949012,-0.008111492250016696
0.6875,0.0015343518500042094,-0.7844563549999998,0.0016705102750050112,-2.3574565750000036,-0.0005552696875019926,1.5717055750000024,0.7862961125000009,0.039999917,0.039999958,-9.803529250000002,-0.000987520208620431,-0.011714660500014136,-0.01016910800002078,-0.011986582539972907,-0.008178481125016755
0.6900000000000001,0.001551181940004225,-0.7844554519999998,0.0016905459400050299,-2.3574712600000036,-0.0005632361500019999,1.5717146800000024,0.7862997500000009,0.039999917,0.039999958,-9.803538400000003,-0.0011403763667131935,-0.01177117780001419,-0.010252188800020857,-0.011975915729996803,-0.008245470000016818
0.6925,0.0015680120300042401,-0.7844545489999998,0.0017105816050050477,-2.3574859450000036,-0.000571202612502007,1.5717237850000023,0.786303387500001,0.039999917,0.039999958,-9.803547550000003,-0.0012932325248059492,-0.011827695100014239,-0.010335269600020932,-0.011965248920020698,-0.008312458875016877
0.6950000000000001,0.0015848421200042558,-0.7844536459999998,0.0017306172700050663,-2.3575006300000036,-0.0005791690750020144,1.5717328900000023,0.7863070250000009,0.039999917,0.039999958,-9.803556700000003,-0.0014460886828987119,-0.011884212400014292,-0.01041835040002101,-0.011954582110044593,-0.008379447750016939
0.6975,0.0016016722100042706,-0.7844527429999998,0.001750652935005084,-2.3575153150000037,-0.0005871355375020215,1.5717419950000022,0.7863106625000009,0.039999917,0.039999958,-9.803565850000002,-0.0015989448409914676,-0.011940729700014342,-0.010501431200021083,-0.011943915300068489,-0.008446436625016998
0.7000000000000001,0.0016185023000045169,-0.7844518399999998,0.0017706886000053768,-2.357530000000004,-0.0005951020000021379,1.5717511000000024,0.786314300000001,0.039999917,0.039999958,-9.803574999999974,-0.0017518009990877207,-0.011997247000015709,-0.010584512000021652,-0.011933248490091542,-0.00851342550001749
0.7025,0.0016362373250045326,-0.7844509549999998,0.0017917999750053956,-2.357545720000004,-0.0006034959400021452,1.5717606850000023,0.786318140000001,0.039999917,0.0399999583,-9.803473449999974,-0.0019183621276595037,-0.012058920250015762,-0.010669522700021727,-0.0119192765559965,-0.008582105925017552
0.705,0.0016539723500045484,-0.7844500699999998,0.0018129113500054144,-2.357561440000004,-0.0006118898800021528,1.5717702700000025,0.786321980000001,0.039999917,0.0399999586,-9.803371899999975,-0.0020849232562312864,-0.012120593500015818,-0.010754533400021802,-0.011905304621901458,-0.008650786350017614
0.7075,0.0016717073750045649,-0.7844491849999998,0.001834022725005434,-2.357577160000004,-0.0006202838200021606,1.5717798550000024,0.786325820000001,0.039999917,0.0399999589,-9.803270349999975,-0.0022514843848030768,-0.012182266750015875,-0.010839544100021881,-0.011891332687806414,-0.008719466775017677
0.71,0.0016894424000045807,-0.7844482999999998,0.0018551341000054527,-2.3575928800000043,-0.000628677760002168,1.5717894400000025,0.786329660000001,0.039999917,0.039999959200000004,-9.803168799999975,-0.0024180455133748597,-0.01224394000001593,-0.010924554800021956,-0.011877360753711371,-0.00878814720001774
0.7125,0.001707177425004597,-0.7844474149999998,0.0018762454750054724,-2.3576086000000043,-0.0006370717000021758,1.5717990250000025,0.786333500000001,0.039999917,0.0399999595,-9.803067249999975,-0.00258460664194665,-0.012305613250015987,-0.011009565500022037,-0.011863388819616329,-0.008856827625017803
0.715,0.0017249124500046129,-0.7844465299999998,0.0018973568500054911,-2.357624320000004,-0.0006454656400021832,1.5718086100000024,0.786337340000001,0.039999917,0.0399999598,-9.802965699999975,-0.002751167770518433,-0.012367286500016042,-0.011094576200022112,-0.011849416885521286,-0.008925508050017865
0.7175,0.001742955810004871,-0.7844456599999998,0.0019188347750057977,-2.3576403800000043,-0.0006540051930023051,1.5718183700000026,0.786341250000001,0.039999917,0.03999996,-9.802900050000002,-0.0029210875742598135,-0.012429042450016164,-0.01118021295002268,-0.011835713312026333,-0.008994656750018296
0.72,0.0017616158400048875,-0.7844448199999998,0.0019410458000058176,-2.3576571200000043,-0.000662835972002313,1.5718284800000026,0.786345300000001,0.039999917,0.03999996,-9.802906200000002,-0.0030977247283324855,-0.012490963800016219,-0.011267101800022758,-0.011822546459730932,-0.009064742000018357
0.7225,0.001780275870004905,-0.7844439799999998,0.0019632568250058384,-2.3576738600000042,-0.0006716667510023212,1.5718385900000027,0.7863493500000011,0.039999917,0.03999996,-9.802912350000001,-0.0032743618824051654,-0.012552885150016277,-0.011353990650022839,-0.011809379607435529,-0.009134827250018423
0.725,0.0017989359000049215,-0.7844431399999998,0.001985467850005858,-2.357690600000004,-0.0006804975300023291,1.5718487000000028,0.7863534000000011,0.039999917,0.03999996,-9.802918500000002,-0.003450999036477837,-0.012614806500016331,-0.011440879500022916,-0.011796212755140128,-0.009204912500018486
0.7275,0.001817595930004939,-0.7844422999999997,0.0020076788750058787,-2.3577073400000046,-0.0006893283090023373,1.5718588100000026,0.786357450000001,0.039999917,0.03999996,-9.802924650000001,-0.0036276361905505173,-0.01267672785001639,-0.011527768350022997,-0.011783045902844725,-0.00927499775001855
0.73,0.0018362559600049555,-0.7844414599999997,0.0020298899000058984,-2.3577240800000046,-0.0006981590880023452,1.5718689200000027,0.786361500000001,0.039999917,0.03999996,-9.802930800000002,-0.003804273344623189,-0.012738649200016446,-0.011614657200023075,-0.011769879050549324,-0.009345083000018612
0.7325,0.001854915990004973,-0.7844406199999997,0.0020521009250059194,-2.3577408200000045,-0.0007069898670023535,1.5718790300000027,0.7863655500000011,0.039999917,0.03999996,-9.802936950000001,-0.003980910498695868,-0.012800570550016502,-0.011701546050023156,-0.011756712198253921,-0.009415168250018677
0.735,0.001874205870005242,-0.7844397859999998,0.002075060720006239,-2.3577577200000044,-0.0007161181410024806,1.571889480000003,0.7863697100000011,0.039999917,0.0399999606,-9.8029391,-0.004168036859533877,-0.012864241500017259,-0.011789709000023744,-0.01174374930560243,-0.009486340500019176
0.7375,0.0018938106750052603,-0.7844389549999997,0.002098394900006261,-2.3577747000000047,-0.0007253951625024892,1.5719001000000028,0.7863739250000011,0.039999917,0.0399999615,-9.80293925,-0.004360407823748267,-0.01292878725001732,-0.011878509000023827,-0.011730888392772774,-0.009558056250019244
0.74,0.0019134154800052776,-0.7844381239999998,0.0021217290800062817,-2.3577916800000045,-0.0007346721840024975,1.5719107200000029,0.7863781400000011,0.039999917,0.0399999624,-9.8029394,-0.004552778787962648,-0.012993333000017376,-0.011967309000023905,-0.011718027479943117,-0.009629772000019307
0.7425,0.001933020285005296,-0.7844372929999998,0.0021450632600063034,-2.3578086600000043,-0.0007439492055025061,1.571921340000003,0.7863823550000011,0.039999917,0.0399999633,-9.80293955,-0.0047451497521770365,-0.013057878750017437,-0.012056109000023988,-0.011705166567113462,-0.009701487750019373
0.745,0.0019526250900053132,-0.7844364619999997,0.002168397440006324,-2.3578256400000046,-0.0007532262270025144,1.571931960000003,0.7863865700000011,0.039999917,0.0399999642,-9.8029397,-0.0049375207163914175,-0.013122424500017493,-0.012144909000024068,-0.011692305654283804,-0.009773203500019437
0.7475,0.001972229895005332,-0.7844356309999998,0.002191731620006346,-2.3578426200000044,-0.000762503248502523,1.5719425800000029,0.7863907850000011,0.039999917,0.0399999651,-9.80293985,-0.005129891680605807,-0.013186970250017555,-0.012233709000024151,-0.011679444741454149,-0.009844919250019504
0.75,0.001991834700005612,-0.7844347999999998,0.0022150658000066794,-2.3578596000000047,-0.0007717802700026554,1.5719532000000032,0.7863950000000012,0.039999917,0.039999966,-9.802939999999973,-0.005322262644823205,-0.013251516000019465,-0.012322509000024674,-0.011666583828623671,-0.00991663500001993
0.7525000000000001,0.0020124033000056313,-0.7844339899999998,0.002239545950006702,-2.3578775850000047,-0.0007815125235026646,1.571964315000003,0.7863994460000012,0.0399999164,0.0399999651,-9.802843399999974,-0.00552569227298697,-0.013322855550019531,-0.012412933800024758,-0.011650715209539302,-0.009989682600019999
0.755,0.0020329719000056496,-0.7844331799999997,0.002264026100006724,-2.3578955700000046,-0.0007912447770026731,1.571975430000003,0.7864038920000012,0.0399999158,0.0399999642,-9.802746799999973,-0.0057291219011507254,-0.013394195100019594,-0.012503358600024838,-0.011634846590454932,-0.010062730200020064
0.7575000000000001,0.0020535405000056688,-0.7844323699999998,0.0022885062500067467,-2.357913555000005,-0.0008009770305026822,1.571986545000003,0.7864083380000012,0.0399999152,0.0399999633,-9.802650199999974,-0.00593255152931449,-0.01346553465001966,-0.012593783400024922,-0.011618977971370561,-0.010135777800020132
0.76,0.002074109100005687,-0.7844315599999998,0.0023129864000067685,-2.357931540000005,-0.0008107092840026909,1.5719976600000032,0.7864127840000013,0.0399999146,0.0399999624,-9.802553599999973,-0.006135981157478246,-0.013536874200019726,-0.012684208200025002,-0.011603109352286194,-0.010208825400020197
0.7625000000000001,0.0020946777000057063,-0.7844307499999998,0.0023374665500067913,-2.357949525000005,-0.0008204415375027,1.5720087750000031,0.7864172300000012,0.039999914,0.0399999615,-9.802456999999974,-0.006339410785642011,-0.013608213750019792,-0.012774633000025086,-0.011587240733201823,-0.010281873000020265
0.765,0.0021152463000057246,-0.7844299399999998,0.002361946700006813,-2.357967510000005,-0.0008301737910027086,1.572019890000003,0.7864216760000012,0.039999913399999996,0.0399999606,-9.802360399999973,-0.006542840413805767,-0.013679553300019855,-0.012865057800025167,-0.011571372114117453,-0.010354920600020329
0.7675000000000001,0.002136142525006018,-0.7844291399999999,0.002386816280007162,-2.3579858450000053,-0.0008400607750028473,1.5720311650000032,0.7864261980000014,0.03999991285,0.03999996,-9.802293999999998,-0.006754733715270212,-0.01375004270001921,-0.012956087800025757,-0.011555573763321397,-0.010428490150020835
0.77,0.002157694000006037,-0.7844283599999998,0.002412464720007185,-2.358004880000005,-0.0008502572200028563,1.5720427600000033,0.7864308720000013,0.0399999124,0.03999996,-9.802287999999999,-0.0069835543633147605,-0.013818831800019271,-0.01304832820002584,-0.011539915949101793,-0.0105031036000209
0.7725,0.0021792454750060564,-0.7844275799999998,0.0024381131600072076,-2.3580239150000053,-0.0008604536650028654,1.5720543550000032,0.7864355460000013,0.03999991195,0.03999996,-9.802281999999998,-0.0072123750113593085,-0.013887620900019331,-0.013140568600025921,-0.01152425813488219,-0.010577717050020967
0.775,0.0022007969500060765,-0.7844267999999999,0.0024637616000072315,-2.3580429500000055,-0.0008706501100028749,1.5720659500000034,0.7864402200000014,0.0399999115,0.03999996,-9.802275999999999,-0.007441195659403867,-0.013956410000019397,-0.013232809000026007,-0.011508600320662586,-0.010652330500021037
0.7775,0.0022223484250060957,-0.7844260199999998,0.002489410040007254,-2.3580619850000053,-0.0008808465550028839,1.5720775450000033,0.7864448940000014,0.039999911049999996,0.03999996,-9.802269999999998,-0.007670016307448416,-0.014025199100019457,-0.013325049400026089,-0.01149294250644298,-0.010726943950021103
0.78,0.002243899900006116,-0.7844252399999998,0.0025150584800072784,-2.3580810200000055,-0.0008910430000028934,1.5720891400000034,0.7864495680000013,0.0399999106,0.03999996,-9.802263999999997,-0.007898836955492974,-0.014093988200019522,-0.013417289800026174,-0.011477284692223377,-0.010801557400021172
0.7825,0.0022654513750061346,-0.7844244599999998,0.002540706920007301,-2.3581000550000053,-0.0009012394450029024,1.5721007350000034,0.7864542420000014,0.03999991015,0.03999996,-9.802257999999998,-0.008127657603537522,-0.014162777300019582,-0.013509530200026256,-0.011461626878003773,-0.010876170850021238
0.785,0.002287670220006441,-0.7844236859999998,0.0025671487200076646,-2.358119340000006,-0.000911751044003047,1.5721126800000036,0.7864590500000014,0.0399999096,0.0399999598,-9.8022566,-0.00835234299308451,-0.014232738400020149,-0.013602974600026858,-0.011446515284474412,-0.010951715500021707
0.7875,0.002310222750006461,-0.7844229149999998,0.0025939872000076887,-2.3581387500000055,-0.0009224202200030565,1.5721248000000034,0.7864639250000014,0.039999909,0.0399999595,-9.8022575,-0.008574960753385352,-0.014303285500020212,-0.013697021000026942,-0.011431676801289823,-0.011027725750021776
0.79,0.002332775280006482,-0.7844221439999998,0.0026208256800077136,-2.3581581600000057,-0.0009330893960030665,1.5721369200000035,0.7864688000000014,0.0399999084,0.039999959200000004,-9.802258400000001,-0.008797578513686203,-0.014373832600020276,-0.01379106740002703,-0.011416838318105235,-0.011103736000021847
0.7925,0.002355327810006502,-0.7844213729999997,0.0026476641600077376,-2.358177570000006,-0.0009437585720030759,1.5721490400000036,0.7864736750000014,0.0399999078,0.0399999589,-9.802259300000001,-0.009020196273987046,-0.014444379700020339,-0.013885113800027113,-0.011401999834920646,-0.011179746250021914
0.795,0.002377880340006523,-0.7844206019999997,0.0026745026400077625,-2.3581969800000055,-0.0009544277480030859,1.5721611600000034,0.7864785500000014,0.039999907200000004,0.0399999586,-9.802260200000001,-0.0092428140342879,-0.014514926800020405,-0.0139791602000272,-0.011387161351736058,-0.011255756500021984
0.7975,0.002400432870006543,-0.7844198309999997,0.0027013411200077866,-2.3582163900000057,-0.0009650969240030954,1.5721732800000034,0.7864834250000015,0.0399999066,0.0399999583,-9.8022611,-0.009465431794588742,-0.014585473900020468,-0.014073206600027284,-0.01137232286855147,-0.011331766750022051
0.8,0.002422985400006861,-0.7844190599999997,0.002728179600008164,-2.358235800000006,-0.0009757661000032454,1.5721854000000037,0.7864883000000015,0.039999906,0.039999958,-9.802261999999974,-0.009688049554896244,-0.01465602100002277,-0.014167253000027828,-0.01135748438536612,-0.011407777000022483
0.8025,0.0024465569100068814,-0.7844182904999998,0.002756229510008189,-2.358256230000006,-0.0009869163500032553,1.5721980750000037,0.7864933700000015,0.039999906,0.0399999583,-9.802173049999976,-0.009933518618416888,-0.014734251850022839,-0.014262862550027912,-0.011340032005677474,-0.011485024150022552
0.805,0.0024701284200069036,-0.7844175209999997,0.002784279420008215,-2.3582766600000062,-0.0009980666000032655,1.5722107500000038,0.7864984400000015,0.039999906,0.0399999586,-9.802084099999975,-0.010178987681937542,-0.014812482700022911,-0.014358472100028002,-0.011322579625988828,-0.011562271300022624
0.8075,0.0024936999300069246,-0.7844167514999998,0.00281232933000824,-2.358297090000006,-0.0010092168500032755,1.5722234250000038,0.7865035100000015,0.039999906,0.0399999589,-9.801995149999975,-0.010424456745458185,-0.014890713550022982,-0.014454081650028087,-0.011305127246300183,-0.011639518450022692
0.81,0.0025172714400069464,-0.7844159819999997,0.0028403792400082664,-2.358317520000006,-0.001020367100003286,1.5722361000000038,0.7865085800000015,0.039999906,0.039999959200000004,-9.801906199999975,-0.010669925808978839,-0.014968944400023054,-0.014549691200028176,-0.011287674866611537,-0.011716765600022765
0.8125,0.0025408429500069674,-0.7844152124999998,0.002868429150008291,-2.3583379500000063,-0.001031517350003296,1.5722487750000038,0.7865136500000015,0.039999906,0.0399999595,-9.801817249999974,-0.010915394872499483,-0.015047175250023123,-0.014645300750028262,-0.01127022248692289,-0.011794012750022833
0.8150000000000001,0.002564414460006989,-0.7844144429999999,0.0028964790600083173,-2.358358380000006,-0.001042667600003306,1.5722614500000038,0.7865187200000016,0.039999906,0.0399999598,-9.801728299999974,-0.011160863936020136,-0.015125406100023197,-0.01474091030002835,-0.011252770107234245,-0.011871259900022905
0.8175,0.0025883314600073184,-0.7844136734999998,0.0029249396300087085,-2.3583791500000064,-0.0010539810300034618,1.572274320000004,0.7865238670000015,0.039999906,0.0399999603,-9.801665999999997,-0.011411499232131299,-0.015204459350024,-0.014837034550028895,-0.011235323641443959,-0.011948994350023409
0.8200000000000001,0.0026129394400073416,-0.7844129039999999,0.0029542215200087357,-2.3584006000000066,-0.0010656208200034727,1.572287580000004,0.7865291680000016,0.039999906,0.0399999612,-9.801656999999997,-0.011672466993409696,-0.015285157400024075,-0.014934188200028986,-0.011217889003450379,-0.012027703400023482
0.8225,0.002637547420007363,-0.7844121344999998,0.002983503410008762,-2.3584220500000064,-0.0010772606100034829,1.572300840000004,0.7865344690000016,0.039999906,0.0399999621,-9.801647999999997,-0.011933434754688084,-0.015365855450024148,-0.015031341850029072,-0.011200454365456799,-0.012106412450023552
0.8250000000000001,0.0026621554000073864,-0.7844113649999997,0.003012785300008789,-2.3584435000000066,-0.0010889004000034937,1.572314100000004,0.7865397700000016,0.039999906,0.039999963,-9.801638999999996,-0.012194402515966481,-0.015446553500024222,-0.015128495500029163,-0.011183019727463217,-0.012185121500023625
0.8275,0.0026867633800074084,-0.7844105954999998,0.003042067190008815,-2.3584649500000068,-0.0011005401900035041,1.572327360000004,0.7865450710000016,0.039999906,0.0399999639,-9.801629999999998,-0.01245537027724487,-0.015527251550024294,-0.015225649150029249,-0.011165585089469635,-0.012263830550023695
0.8300000000000001,0.002711371360007431,-0.7844098259999998,0.0030713490800088426,-2.3584864000000065,-0.001112179980003515,1.572340620000004,0.7865503720000017,0.039999906,0.039999964799999996,-9.801620999999997,-0.012716338038523267,-0.01560794960002437,-0.015322802800029338,-0.011148150451476055,-0.012342539600023768
0.8325,0.002735979340007453,-0.7844090564999998,0.0031006309700088684,-2.3585078500000067,-0.0011238197700035254,1.572353880000004,0.7865556730000016,0.039999906,0.0399999657,-9.801611999999997,-0.012977305799801653,-0.01568864765002444,-0.015419956450029425,-0.011130715813482475,-0.012421248650023838
0.835,0.0027612895600077946,-0.7844082899999998,0.003130747640009275,-2.358530000000007,-0.0011357911000036867,1.5723675000000044,0.7865611410000017,0.039999906,0.039999966,-9.8016094,-0.013247348368251225,-0.015770289800024942,-0.015518163100029991,-0.0111136008985289,-0.012500735800024263
0.8375,0.0027869509000078185,-0.7844075249999998,0.0031612817000093033,-2.3585525000000067,-0.001147928200003698,1.5723813000000042,0.7865666925000017,0.039999906,0.039999966,-9.80161,-0.013521928340280211,-0.01585240400002502,-0.015616896250030082,-0.011096645845095109,-0.012580612000024338
0.84,0.0028126122400078417,-0.7844067599999998,0.0031918157600093304,-2.3585750000000067,-0.0011600653000037088,1.5723951000000043,0.7865722440000017,0.039999906,0.039999966,-9.8016106,-0.013796508312309186,-0.015934518200025092,-0.01571562940003017,-0.01107969079166132,-0.012660488200024408
