rsonawane2002/My_IMU/logs_2/traj_304/clean_304.csv
time,j1,j2,j3,j4,j5,j6,j7,gripper1,gripper2,imu_ax,imu_ay,imu_az,imu_gx,imu_gy,imu_gz,quat_x,quat_y,quat_z,quat_w
586.6833333331284,0.00016700293,-0.785875,4.0107683e-05,-2.3551247,9.29385e-05,1.570997,0.786,0.04,0.04,0.0,-0.0,0.0,2.875329272945135e-08,-0.0011641195053377316,4.421952117202833e-08,0.9999995971961153,0.00020320632366974898,0.0008736418299892524,3.263050917662294e-05
586.6999999997951,0.0001669959,-0.78576016,4.011465e-05,-2.3552213,9.2965834e-05,1.5709941,0.786,0.04,0.04,-0.2919984604222492,-1.8326442627558887e-05,0.020128412515552085,1.1975138637670328e-06,-0.0022400336952792975,-3.904077968782686e-07,0.9999996850579095,0.0002032121215034079,0.0007665025205860024,3.260063757464493e-05
586.7166666664617,0.00016692048,-0.7856543,4.0121264e-05,-2.35531,9.293391e-05,1.5709913,0.786,0.04,0.04,0.023328722506366084,0.00011996800502977177,-0.0016704057149485863,9.15620666154446e-06,-0.0032394618319741796,-3.6235700990702033e-06,0.9999997558381406,0.0002032518701314227,0.0006677972700154161,3.2544470796140177e-05
586.7333333331284,0.00016666304,-0.78555703,4.012738e-05,-2.355391,9.275951e-05,1.5709884,0.786,0.04,0.039999995,0.02246073975449292,0.0003077113539585324,-0.0015248178463878048,3.040501869548737e-05,-0.0041792823654409166,-1.1460109332773043e-05,0.999999812213309,0.00020338245414369628,0.0005771982739689501,3.242030812042874e-05
586.749999999795,0.0001660603,-0.78546774,4.0132985e-05,-2.3554645,9.228463e-05,1.5709856,0.786,0.04,0.04,0.0218005360393958,0.0006058852783680127,-0.001173133674403637,7.085799541544128e-05,-0.005070337611548293,-2.915586621272987e-05,0.9999998565199003,0.0002036855384684777,0.0004944075454312394,3.2149018539600214e-05
586.7666666664617,0.00016490326,-0.7853861,4.013734e-05,-2.3555312,9.135638e-05,1.570986,0.7860019,0.04,0.04,0.020842561041267693,0.0009513720362039552,0.0011017543493530013,0.0001364031870024496,-0.005924238558832194,-5.456248561054311e-05,0.9999998900572082,0.00020521963154825965,0.0004204383679643142,3.165522047444108e-05
586.7833333331283,0.00016294303,-0.7853116,4.01398e-05,-2.3555906,8.9770525e-05,1.5709869,0.7860038,0.04,0.04,0.02058340423185534,0.0013796629113101296,-0.0005177963224189952,0.00022361823601977997,-0.006739702625430478,-9.225543679029996e-05,0.9999999154381847,0.00020715564947688752,0.0003539199114641546,3.083596432105466e-05
586.799999999795,0.00015989416,-0.78524405,4.013944e-05,-2.3556466,8.7296285e-05,1.5709878,0.7860069,0.04,0.04,0.013420704286493113,0.0018688098831230954,-0.0023985444934204736,0.0003463833311291468,-0.007538327153042131,-0.00014328157840731747,0.9999999346513694,0.00021023276982410843,0.00029261703430527976,2.9575508626413408e-05
586.8166666664616,0.00015543897,-0.785183,4.013515e-05,-2.3556967,8.3675994e-05,1.5709918,0.78601074,0.04,0.04,0.01825779389494908,0.002412528491653048,0.0011831680849061499,0.0005040926192243793,-0.00834759446215396,-0.00020914335598122455,0.9999999480690197,0.00021437171506472852,0.0002390331943001835,2.7746314362578688e-05
586.8333333331283,0.00014923111,-0.78512824,4.0125884e-05,-2.3557396,7.861725e-05,1.5709964,0.78601646,0.039999995,0.04,0.01930069764390918,0.0030146401953604998,0.00017125175078014365,0.0007036143178321558,-0.00915353461448584,-0.0002919880983157035,0.9999999568765434,0.00022034195305972073,0.00019251278578788204,2.520242463199936e-05
586.8499999997949,0.00014089866,-0.7850799,4.011017e-05,-2.355776,7.182666e-05,1.5710034,0.7860241,0.03999999,0.03999999,0.018811221903969333,0.0036460815541255716,0.0009991737857095728,0.0009434042850184024,-0.009969198086728227,-0.00039045237382680047,0.9999999618952715,0.00022832992703158264,0.0001536221154367424,2.1797835543613036e-05
586.8666666664616,0.00013004731,-0.7850378,4.0086532e-05,-2.3558083,6.298686e-05,1.571012,0.7860341,0.039999988,0.039999984,0.014701888686663445,0.004320572489262156,-0.0004776753924407018,0.0012280272536019658,-0.010796976175836501,-0.0005073281242434956,0.9999999640490029,0.00023877169143149662,0.00012078172057249935,1.7373777456617366e-05
586.8833333331282,0.00011626304,-0.7850017,4.005342e-05,-2.355835,5.1761403e-05,1.5710243,0.78604746,0.03999998,0.039999977,0.017078092015365698,0.005030446071375966,0.0018277961126633713,0.0015589061628062308,-0.011659476619977988,-0.0006443869342705199,0.9999999635289312,0.00025235154297358433,9.551158075031054e-05,1.1763204897963343e-05
586.8999999997949,9.911471e-05,-0.78497165,4.0009087e-05,-2.3558545,3.7801936e-05,1.5710404,0.7860636,0.039999973,0.039999966,0.020083370019818858,0.00576864781733895,0.0026003951773878597,0.001935377665604602,-0.012550285412109858,-0.0008007149134857894,0.9999999607013542,0.0002690173287421006,7.876544405706196e-05,4.7928759810008524e-06
586.9166666664615,7.815643e-05,-0.78494775,3.9951923e-05,-2.3558671,2.0746238e-05,1.5710603,0.78608334,0.03999997,0.03999996,0.019744053708770082,0.006533597520934748,0.002462380405976461,0.0023635088855379132,-0.013466746973573451,-0.000978725488532328,0.9999999556408382,0.00028937992018452047,7.04539675715914e-05,-3.7177736414384325e-06
586.9333333331282,5.2929572e-05,-0.78493005,3.988017e-05,-2.3558745,2.2347173e-07,1.571084,0.7861071,0.039999973,0.039999966,0.01697421851196701,0.007319413906178429,0.0016818412444719044,0.0028429285376292456,-0.014416728737159577,-0.00117815953177454,0.9999999481995375,0.0003139076332116641,6.977255577749713e-05,-1.3953872873831178e-05
586.9499999997948,2.2964843e-05,-0.78491867,3.979202e-05,-2.3558755,-2.4146759e-05,1.5711117,0.78613526,0.039999973,0.039999966,0.019170292440873204,0.008123970106241942,0.0022379663090710267,0.0033748027905378787,-0.015415459548060423,-0.0013995205098264794,0.999999937841806,0.0003429847104262667,7.743652950111356e-05,-2.6104722300245754e-05
586.9666666664615,-1.221599e-05,-0.7849136,3.9685547e-05,-2.35587,-5.2750802e-05,1.5711433,0.78616846,0.03999997,0.039999958,0.019171454644006936,0.0089431766561368,0.002237258838388989,0.003960740619614268,-0.016463079728325246,-0.0016423787791139549,0.9999999236761908,0.0003772085728240807,9.344595643030812e-05,-4.036283424418729e-05
586.9833333331281,-5.3098338e-05,-0.78491515,3.9558723e-05,-2.3558583,-8.598253e-05,1.5711812,0.786207,0.039999973,0.03999996,0.01985307088725463,0.009776090118467593,0.0037361807607716457,0.004600066337661964,-0.017564654963025526,-0.0019087963232841628,0.9999999043639418,0.00041697163085294673,0.00011902279318573969,-5.6923993230571225e-05
586.9999999997948,-0.00010017336,-0.7849233,3.940973e-05,-2.355839,-0.00012423917,1.5712243,0.7862513,0.039999973,0.03999996,0.02194643129127538,0.010617836503046684,0.0035746847524054104,0.00529448466463326,-0.018718820476012813,-0.0021981944710064176,0.9999998781565235,0.00046269901915367117,0.00015434590867491172,-7.598615869549235e-05
587.0166666664614,-0.0001539366,-0.78493834,3.923663e-05,-2.355812,-0.00016792161,1.5712743,0.7863019,0.039999973,0.039999958,0.0227044878044369,0.011467487330472002,0.004589241599739502,0.0060445266099703,-0.019925487986431272,-0.0025099242052315715,0.9999998425804302,0.0005149372968522387,0.0002003094299301434,-9.774879742504696e-05
587.0333333331281,-0.0002148866,-0.7849605,3.9037386e-05,-2.3557765,-0.0002174341,1.5713311,0.7863592,0.039999977,0.03999996,0.02469677652303659,0.012323334209429299,0.00492956094244601,0.006850375687536298,-0.021187990246612602,-0.0028458597346331473,0.9999997945246083,0.0005741154853079283,0.0002575988530472094,-0.00012241315984361055
587.0499999997947,-0.00028352393,-0.78499,3.8809958e-05,-2.3557327,-0.00027318113,1.5713952,0.7864237,0.039999977,0.039999958,0.024570142070112766,0.01318178470276773,0.004889724014489616,0.007712708988875241,-0.022502376371002858,-0.003204384018851081,0.9999997302035483,0.0006407530669393441,0.0003263036279797871,-0.0001501808245070169
587.0666666664614,-0.00036035012,-0.785027,3.855242e-05,-2.3556802,-0.0003355697,1.5714669,0.7864958,0.03999998,0.03999996,0.02536851529784112,0.014043378604733916,0.005327667331300745,0.008631042908208417,-0.023874956427153794,-0.003587353511273465,0.9999996449426327,0.000715310435682623,0.0004069304217746283,-0.00018125457534860437
587.083333333128,-0.00044586655,-0.78507173,3.826274e-05,-2.355619,-0.0004050033,1.5715467,0.7865761,0.03999998,0.039999958,0.02605474663179841,0.014902501607360437,0.005496528880244433,0.009605565779291133,-0.02530611671865164,-0.003992810409035239,0.9999995331563061,0.0007983076507690299,0.0004998070862697868,-0.00021583544949711414
587.0999999997947,-0.00054057303,-0.78512424,3.7939073e-05,-2.3555486,-0.000481889,1.571635,0.786665,0.039999984,0.03999996,0.026790048408265044,0.01576280829595992,0.005962710739759736,0.010636324053678137,-0.026799892151197567,-0.004422762586954883,0.9999993881903357,0.0008902341902873766,0.0006054104715211288,-0.00025412635000978805
587.1166666664614,-0.0006449682,-0.78518486,3.757931e-05,-2.3554685,-0.00056663004,1.5717329,0.786763,0.039999984,0.03999996,0.028649181740147966,0.016619729876869258,0.0068037611352878,0.011722662969499371,-0.02835695288064815,-0.004876988852340482,0.9999992018970255,0.0009915493361231749,0.0007247240454898772,-0.0002963280006247983
587.133333333128,-0.000759548,-0.7852542,3.7181486e-05,-2.3553784,-0.00065962685,1.5718399,0.78687054,0.039999988,0.039999966,0.029612598676975743,0.017471420295652854,0.0062818096626449105,0.012864660227243002,-0.02997430799546505,-0.005354426767475013,0.9999989652091801,0.00110274112675549,0.0008579862095181296,-0.0003426401036975133
587.1499999997947,-0.0008848052,-0.78533226,3.6743702e-05,-2.3552783,-0.0007612786,1.5719573,0.78698814,0.039999988,0.03999997,0.030071999079495093,0.018319510164130966,0.0071079826306830185,0.01406218740967031,-0.03165239274240439,-0.005855028483620673,0.9999986673454792,0.0012243255615204845,0.0010058227915800972,-0.0003932616141509765
587.1666666664613,-0.0010212286,-0.7854192,3.6263908e-05,-2.3551679,-0.0008719791,1.5720854,0.7871162,0.039999988,0.039999958,0.030701649013487042,0.019159518079884835,0.007292667098401928,0.015313963757477154,-0.033394318049045885,-0.0063743301030939415,0.9999982963437501,0.0013567573442847109,0.0011685317569944034,-0.00044838893696786606
587.183333333128,-0.0011693025,-0.78551555,3.5740217e-05,-2.3550456,-0.0009921227,1.5722245,0.7872552,0.039999988,0.039999954,0.0342381473922293,0.019995982621697616,0.00808456590652984,0.016620263198438713,-0.03520019960670663,-0.006919024880505349,0.999997837344167,0.0015004894555432885,0.0013474243256204352,-0.000508218525375366
587.1999999997946,-0.0013295067,-0.78562135,3.517069e-05,-2.354913,-0.0011220967,1.5723749,0.78740555,0.039999977,0.039999936,0.031628954455920066,0.02082151761924205,0.007408940311259826,0.017980259046338785,-0.037062951145281,-0.007485385128603255,0.9999972760995083,0.0016559720629816673,0.0015418447382282107,-0.000572944057977403
587.2166666664613,-0.0015023152,-0.78573716,3.455352e-05,-2.3547678,-0.0012622849,1.5725371,0.7875677,0.039999973,0.03999993,0.03641580944131473,0.021639879053427218,0.008385093938190202,0.019393723472901848,-0.03899363167854911,-0.008075118688572545,0.9999965932537509,0.0018236833267099397,0.0017534320017606546,-0.000642756743546938
587.2333333331279,-0.0016881962,-0.78586304,3.3886827e-05,-2.3546119,-0.0014130665,1.5727112,0.787742,0.039999973,0.03999993,0.0333778172992627,0.022447398466465106,0.007716640378685469,0.020859711814266754,-0.04098254430308795,-0.008687755418152945,0.9999957711414735,0.002004067826660885,0.001981440895973043,-0.0007178462868507592
587.2499999997946,-0.001887612,-0.78599936,3.3168766e-05,-2.3544421,-0.0015748151,1.5728985,0.78792906,0.039999977,0.03999993,0.039419976943477764,0.02324816406618262,0.009629814602729603,0.022377968857274583,-0.04304082644641433,-0.009321388536569431,0.9999947842513083,0.002197598390971111,0.002228136218888644,-0.0007983986983144111
587.2666666664612,-0.0021010188,-0.7861462,3.2397595e-05,-2.35426,-0.0017479005,1.5730985,0.78812927,0.039999977,0.039999925,0.03703689566996182,0.024035981581968166,0.00859510156447918,0.02394755136945709,-0.04515148774793728,-0.009976555043275681,0.9999936105900139,0.0024047439428994495,0.002492683307140312,-0.000884599144785368
587.2833333331279,-0.002328865,-0.78630424,3.1571508e-05,-2.3540654,-0.0019326851,1.5733126,0.788343,0.039999973,0.039999917,0.0381530169151878,0.0248125591125771,0.009159138715664206,0.025566962238445404,-0.047327666836021014,-0.010653851785992315,0.9999922221791232,0.002625910158587498,0.0027760355468553215,-0.0009766287630820461
587.2999999997945,-0.0025715916,-0.7864734,3.0688694e-05,-2.3538573,-0.0021295256,1.5735406,0.7885707,0.03999997,0.03999991,0.04014616121339465,0.025577508036690386,0.00943071466339429,0.027236413874833793,-0.04956231656178041,-0.011350366174159012,0.9999905892227264,0.002861529926893708,0.0030786694687106662,-0.0010746658849788112
587.3166666664612,-0.0028296332,-0.7866539,2.9747436e-05,-2.3536348,-0.0023387736,1.5737829,0.78881264,0.03999996,0.039999895,0.04179778758945929,0.026332677477764257,0.010000298437140565,0.02895459460059994,-0.05185826766772954,-0.012067417761158527,0.9999886783391133,0.0031119730507976283,0.0034013297084692484,-0.001178886567345677
587.3333333331278,-0.0031034166,-0.7868463,2.8746143e-05,-2.3533978,-0.0025607755,1.57404,0.7890694,0.039999958,0.039999884,0.043027698142261706,0.027075188231577216,0.009933900288561226,0.030721506487448175,-0.05421079193841528,-0.012803956422378476,0.9999864528756058,0.0033777549651067313,0.0037446120096821514,-0.0012894640578791855
587.3499999997945,-0.0033933613,-0.7870506,2.7683134e-05,-2.3531463,-0.0027958706,1.5743122,0.78934133,0.03999996,0.039999887,0.043157256960735246,0.027805069796402668,0.010006850303390102,0.032535267547186233,-0.05661868512812618,-0.01356302297483702,0.9999838751995741,0.003659238110349554,0.004108635062971706,-0.00140656859541009
587.3666666664611,-0.0036998775,-0.7872672,2.6556758e-05,-2.35288,-0.0030443922,1.5746001,0.78962874,0.039999973,0.039999895,0.04424744769941924,0.028521632776588174,0.010325056402860078,0.03439528102988229,-0.05908472221890121,-0.014341684240821127,0.9999809023707987,0.003956810422376873,0.0044940539634617405,-0.001530367255844716
587.3833333331278,-0.0040233675,-0.7874963,2.5365416e-05,-2.3525984,-0.003306665,1.5749036,0.78993213,0.03999997,0.039999887,0.0453472800580057,0.029223211246936047,0.01018665611363101,0.0363012792537055,-0.06160521581456377,-0.015138709383876481,0.999977489169445,0.004270916438322481,0.004901166209695532,-0.0016610228578602354
587.3999999997944,-0.0043642274,-0.78773826,2.4107583e-05,-2.3523018,-0.0035830075,1.5752236,0.7902518,0.039999958,0.039999872,0.04560747507813545,0.029914268088959174,0.01039886295852721,0.03825143535278436,-0.06418278869098412,-0.0159546190039345,0.9999735865452051,0.004601907113668829,0.005330418105876366,-0.001798695542101945
587.4166666664611,-0.004722843,-0.78799355,2.2781873e-05,-2.3519895,-0.003873731,1.5755602,0.7905881,0.039999932,0.039999843,0.0475703801014582,0.030589240484750306,0.010437107771643639,0.04024528549073235,-0.0668157724310118,-0.01678816566695041,0.999969139840683,0.004950159749619809,0.005782553938632444,-0.001943541788741762
587.4333333331277,-0.0050995904,-0.788262,2.1386559e-05,-2.351662,-0.0041791433,1.5759138,0.7909413,0.039999913,0.03999982,0.04671247337939555,0.031251789178294784,0.010358009809063873,0.04228212019803642,-0.06950002388563775,-0.017640665811611465,0.9999640960262015,0.005316015735878638,0.0062573641927796166,-0.002095716716601515
587.4499999997944,-0.00549484,-0.78854394,1.9920422e-05,-2.3513174,-0.0044995407,1.5762845,0.7913121,0.0399999,0.0399998,0.05004927071363685,0.03190258391296899,0.010924830752645498,0.04436101506054692,-0.07224169433520025,-0.018510151323658495,0.9999583893835765,0.005699994889712985,0.006755950924195786,-0.0022553684334197808
587.466666666461,-0.0059089507,-0.78883976,1.838199e-05,-2.350956,-0.0048352187,1.5766732,0.7917004,0.039999884,0.039999787,0.050833803186822735,0.032539374092931984,0.011036547200737878,0.046479762157085616,-0.07503284735994102,-0.01939867465180284,0.9999519544557691,0.006102252246485987,0.007278878894995016,-0.002422647237977447
587.4833333331277,-0.006342276,-0.7891496,1.6769829e-05,-2.3505769,-0.0051864595,1.5770798,0.79210675,0.03999988,0.039999776,0.052320434294639284,0.03316195872720834,0.011175643270000535,0.04863936716573518,-0.07787184051136199,-0.02030247570763677,0.9999447203090048,0.006523209657970793,0.0078266239140187,-0.0025976951346666556
587.4999999997943,-0.006795155,-0.7894737,1.5082584e-05,-2.3501818,-0.005553539,1.577505,0.7925314,0.039999876,0.03999977,0.05009562531759215,0.03375869784331062,0.01052619080659234,0.0508378496953616,-0.08075695082655604,-0.021223764415463402,0.9999366190805219,0.006963189109265398,0.008398797249274725,-0.002780651723883398
587.516666666461,-0.007267925,-0.7898123,1.3319043e-05,-2.3497684,-0.0059367307,1.5779488,0.7929746,0.03999987,0.039999757,0.05447212445328642,0.034362826553683765,0.01123453095772664,0.05307485065525952,-0.08369383471434647,-0.022161295517437937,0.9999275650065818,0.007422517905398934,0.008996678899277003,-0.002971655554659163
587.5333333331276,-0.007760909,-0.79016566,1.1477896e-05,-2.349337,-0.0063362955,1.5784117,0.79343677,0.039999858,0.039999742,0.05419157130397423,0.03493518464674494,0.0110165964125164,0.05534901620084669,-0.08667356796447592,-0.023114613865583528,0.9999174763860582,0.007901541758740853,0.009620386572502769,-0.0031708386535853443
587.5499999997943,-0.008274425,-0.7905339,9.557863e-06,-2.3488882,-0.0067524887,1.5788935,0.7939182,0.03999984,0.039999716,0.0540602973380766,0.03549730952037804,0.010484196306115301,0.05765929182655683,-0.08969900216286245,-0.02408253945374861,0.9999062695190357,0.008400575452603126,0.010269829149241821,-0.003378330628575889
587.566666666461,-0.008808777,-0.7909173,7.557914e-06,-2.3484197,-0.0071855597,1.5793952,0.7944191,0.039999828,0.0399997,0.05798892679522716,0.03605106404752645,0.011517135167560255,0.06000468626383189,-0.0927709575027455,-0.02506639659534218,0.9998938398440768,0.008919899173051164,0.010946494689204053,-0.0035942585646623402
587.5833333331276,-0.009364264,-0.79131603,5.476661e-06,-2.3479333,-0.0076357494,1.5799167,0.7949399,0.039999805,0.039999675,0.05556985959647154,0.03657891338502833,0.010489521789169842,0.06238471759492525,-0.0958784360526688,-0.026064835064367235,0.9998800990097444,0.00945984593687994,0.011649725639309121,-0.0038187447732435337
587.5999999997942,-0.009941176,-0.79173046,3.3130273e-06,-2.3474274,-0.008103293,1.5804582,0.7954807,0.039999787,0.039999653,0.05889542023953531,0.037102385993357384,0.01073579271722025,0.06479759480046723,-0.09903138063292641,-0.027078441325249777,0.9998649363500485,0.010020690068479015,0.01238050308761898,-0.00405190961924175
587.6166666664609,-0.010539793,-0.79216063,1.0660675e-06,-2.3469033,-0.008588416,1.5810204,0.79604185,0.039999764,0.039999627,0.05693555621866242,0.03760325203098977,0.01041822119653979,0.06724292252926455,-0.102221374825367,-0.028104206423095288,0.9998482507517219,0.010602664980256625,0.013138556177483645,-0.0042938683735619905
587.6333333331276,-0.011160386,-0.7926065,-1.265443e-06,-2.3463595,-0.009091335,1.5816029,0.79662365,0.039999727,0.039999586,0.05975935607800409,0.03809409678530648,0.010577741650585892,0.06971987439679156,-0.10545325265556917,-0.029144319726198853,0.9998299236586976,0.011206124750360778,0.013924508354699522,-0.004544732313593121
587.6499999997942,-0.011803217,-0.79306877,-3.682272e-06,-2.3457956,-0.009612263,1.5822065,0.79722625,0.0399997,0.039999552,0.06139024905646995,0.03856760044849139,0.010324986212206788,0.07222697924639905,-0.10872277035924505,-0.030197569838248783,0.999809828871869,0.011831269686943452,0.014739160977963399,-0.004804610542444743
587.6666666664609,-0.012468541,-0.7935473,-6.185646e-06,-2.3452127,-0.010151404,1.5828311,0.7978499,0.03999968,0.039999526,0.059694967841861235,0.039023485533404983,0.0098150570123412,0.07476326727952248,-0.11202370974815434,-0.031262630392106174,0.9997878531670392,0.012478350348781132,0.015581974456501878,-0.005073608602647347
587.6833333331275,-0.013156601,-0.79404205,-8.776413e-06,-2.3446095,-0.010708958,1.583477,0.79849494,0.039999656,0.0399995,0.0620187318288945,0.03947387259075723,0.010000389124797948,0.07732856080970844,-0.11536451696363909,-0.032340999636221786,0.9997638593809908,0.013147677710991929,0.016453631025778518,-0.005351828893190519
587.6999999997942,-0.01386763,-0.79455364,-1.1455436e-05,-2.3439853,-0.01128512,1.5841444,0.79916143,0.03999963,0.039999466,0.06410605433393446,0.03990190374666691,0.009767452856124237,0.07992064977591554,-0.11873962275323811,-0.0334304026997231,0.9997377039463846,0.01383940791688904,0.017354871463002842,-0.005639373460193275
587.7166666664608,-0.014601858,-0.7950819,-1.4223569e-05,-2.343342,-0.011880066,1.5848336,0.7998496,0.03999961,0.039999444,0.06104598334113476,0.04030851352213524,0.009017439395386795,0.08253970109362063,-0.1221420446539852,-0.03453308972103342,0.9997092623975853,0.014553776901874028,0.01828491699931283,-0.005936334280909507
587.7333333331275,-0.0153595,-0.7956272,-1.7081857e-05,-2.3426776,-0.0124939745,1.5855447,0.80056,0.03999958,0.039999403,0.06521815958442367,0.04071002497277876,0.009212765489285957,0.0851842764107544,-0.12558210163243128,-0.03564532888593616,0.9996783688563269,0.015291144277785206,0.019244926176600306,-0.006242800964853951
587.7499999997941,-0.016140766,-0.7961895,-2.0031002e-05,-2.3419924,-0.013127012,1.5862777,0.80129176,0.039999552,0.039999373,0.06470690282789349,0.041089331404314464,0.008640727077646737,0.08785264712191886,-0.12905004016002597,-0.03676923787908572,0.9996448841004697,0.016051234048705287,0.020234742183237803,-0.00655887079078334
587.7666666664608,-0.016945852,-0.79676914,-2.3071587e-05,-2.3412857,-0.013779342,1.5870337,0.8020465,0.039999515,0.039999332,0.06685143476432565,0.04146039855662878,0.009083262148634752,0.09054780172485985,-0.13254799441805726,-0.03790348337655345,0.9996086209200238,0.016834925373035922,0.021255407087118684,-0.006884616155842184
587.7833333331274,-0.017774954,-0.79736626,-2.6204467e-05,-2.3405578,-0.014451119,1.587812,0.8028236,0.039999478,0.039999288,0.06650149065103861,0.04180810642216634,0.007836740360245287,0.09326274798141199,-0.13606853210744327,-0.039047001148331345,0.9995694325305461,0.0176420586898548,0.02230643633411352,-0.007220125609568978
587.7999999997941,-0.018628253,-0.79798096,-2.943045e-05,-2.339809,-0.015142493,1.5886132,0.80362344,0.03999944,0.039999243,0.06673755452428765,0.042143170594236695,0.0077959834841712095,0.09599993279425577,-0.13961522992820005,-0.04020024899995989,0.9995271428815456,0.018472875829362585,0.02338818197693585,-0.007565477213045991
587.8166666664607,-0.019505922,-0.7986132,-3.2750035e-05,-2.3390388,-0.015853608,1.5894369,0.8044461,0.039999407,0.039999206,0.067143917246959,0.042463113221671844,0.0070784884463881426,0.09875781869882702,-0.14318649454008997,-0.0413635882515834,0.9994815827629698,0.01932753286656209,0.02450048853265982,-0.007920748233687264
587.8333333331274,-0.02040813,-0.7992629,-3.616405e-05,-2.3382473,-0.016584588,1.590284,0.80529183,0.039999366,0.039999157,0.06801845674777596,0.042770674253008595,0.007299037277985754,0.10153531116852996,-0.1467844116337118,-0.04253521946139754,0.9994325604065114,0.02020623616802093,0.025643856000906098,-0.008286004381598043
587.849999999794,-0.02133503,-0.7999303,-3.967295e-05,-2.3374343,-0.017335562,1.591154,0.8061607,0.03999932,0.03999911,0.06835956847064395,0.0430481564468746,0.006268232202688573,0.10433141687395925,-0.15040557520223985,-0.04371636630538429,0.999379894669286,0.021109101409831178,0.02681815759026688,-0.008661315831885997
587.8666666664607,-0.022286775,-0.8006158,-4.327743e-05,-2.3365993,-0.018106647,1.5920475,0.8070528,0.039999273,0.039999053,0.07011222427912855,0.043322996290726806,0.006069393635077525,0.10714567750717055,-0.15404939461759087,-0.04490491804781664,0.9993233747433704,0.02203626994331595,0.028024130149710173,-0.009046746810808038
587.8833333331273,-0.023263501,-0.8013193,-4.6977966e-05,-2.3357418,-0.018897966,1.5929642,0.8079682,0.03999923,0.039999004,0.07138947468057211,0.04358673038371008,0.005662571775677527,0.10997668158852389,-0.15771330660153068,-0.046101423798546495,0.999262797855927,0.022987849254393646,0.02926194368026917,-0.009442365162133013
587.899999999794,-0.024265334,-0.80204093,-5.0775045e-05,-2.334863,-0.019709624,1.5939045,0.8089072,0.039999194,0.039998963,0.0694403717567127,0.04380540798614857,0.004709349215192837,0.11282431323078793,-0.16139347323188105,-0.04730626546001897,0.9991979723581933,0.023964047590522876,0.03053111347334145,-0.009848226664328606
587.9166666664606,-0.025292408,-0.8027806,-5.466896e-05,-2.3339615,-0.020541709,1.5948688,0.80987,0.039999146,0.03999891,0.07224996244841186,0.044045320353002654,0.004930387974289019,0.11568663994271708,-0.16509425886671322,-0.048517534923145283,0.9991286614666849,0.024965028995199458,0.0318324941759899,-0.0102643790652423
587.9333333331273,-0.026344826,-0.8035387,-5.8660273e-05,-2.333038,-0.021394325,1.5958563,0.8108564,0.039999098,0.03999886,0.07136267872751567,0.044227499443615786,0.003322500062274969,0.11856245327329312,-0.16881018478671228,-0.04973666757193143,0.9990546703522726,0.025990761437312646,0.033165508317752244,-0.010690885147907574
587.9499999997939,-0.027422702,-0.8043151,-6.274931e-05,-2.332092,-0.022267548,1.5968682,0.8118667,0.039999038,0.039998796,0.07327711832876282,0.04443026093056621,0.003708071642538613,0.12145212668112093,-0.1725445743057634,-0.05096227413774119,0.9989757453074259,0.027041449308225173,0.03453103964412127,-0.011127785398704085
587.9666666664606,-0.028526139,-0.80511004,-6.693669e-05,-2.3311236,-0.023161463,1.5979038,0.8129009,0.03999898,0.03999873,0.07318087893031233,0.04459995884824666,0.0024854428089637892,0.12435414667446704,-0.17629024482620903,-0.05219321689222122,0.9988916673285537,0.02811714878946039,0.035928808070268804,-0.0115751300719728
587.9833333331272,-0.029655224,-0.80592346,-7.122254e-05,-2.3301325,-0.02407615,1.5989637,0.8139592,0.03999892,0.039998665,0.073956120472074,0.044761720777816705,0.0021727583960018393,0.12726735769730002,-0.18004875534130127,-0.05343091918827139,0.9988021909274104,0.0292179922068541,0.03735906999265184,-0.012032963861379203
587.9999999997939,-0.03081003,-0.8067556,-7.560733e-05,-2.3291192,-0.02501167,1.6000477,0.81504154,0.039998848,0.039998587,0.0736524645280845,0.04486927268365429,0.0010496778318547229,0.1301907407794502,-0.183818282235212,-0.05467419372785206,0.998707083404405,0.0303440148520409,0.03882163342790053,-0.012501323870517287
588.0166666664605,-0.031990636,-0.80760616,-8.009106e-05,-2.3280833,-0.025968073,1.6011558,0.81614816,0.039998785,0.03999852,0.07445261000715853,0.044995129280523544,0.0006808285019754834,0.13312403199654035,-0.18760113738325254,-0.05592278318903407,0.9986060937306003,0.03149534441409352,0.04031657472772485,-0.012980240620757517
588.0333333331272,-0.033197116,-0.80847526,-8.46743e-05,-2.3270242,-0.026945423,1.602288,0.8172789,0.03999872,0.03999845,0.07577428391947194,0.04511586745488197,0.0001025761501738387,0.13606511743093708,-0.19139463082231262,-0.057175522546183646,0.9984989578012243,0.03267195883800614,0.041844235506734176,-0.013469756137854115
588.0499999997938,-0.034429517,-0.80936325,-8.9356945e-05,-2.3259423,-0.027943766,1.6034448,0.81843394,0.039998658,0.039998382,0.07621569310747311,0.04517623515754368,-0.0007334821759963361,0.13901424730547124,-0.19519500441162793,-0.05843364110685591,0.9983854057451268,0.03387393515771035,0.04340483905814326,-0.013969898296210401
588.0666666664605,-0.035687897,-0.8102701,-9.4139476e-05,-2.3248377,-0.02896314,1.6046258,0.81961334,0.03999858,0.039998297,0.0759205440786559,0.04524078743797094,-0.0018273568848092836,0.14197033431358624,-0.19900139205928052,-0.059695158809337526,0.9982651854104796,0.03510135852184181,0.04499804211287392,-0.014480691741423326
588.0833333331271,-0.0369723,-0.8111956,-9.9022014e-05,-2.3237102,-0.03000358,1.6058314,0.8208172,0.03999851,0.03999822,0.07666601428102382,0.04529429809391472,-0.0022242329026589402,0.14493202197085348,-0.20281425781158502,-0.060960693949957095,0.9981380158389285,0.03635427055528707,0.04662406593785587,-0.015002160675795937
588.0999999997938,-0.038282763,-0.8121399,-0.00010400424,-2.3225596,-0.031065112,1.6070613,0.82204545,0.039998434,0.039998136,0.07739084908919835,0.04532194424472086,-0.0031872458302606432,0.14789837574199535,-0.20663241851201092,-0.06222995553375234,0.998003619725887,0.037632687511622964,0.04828292201783561,-0.015534326058736116
588.1166666664604,-0.039619308,-0.8131032,-0.000109086744,-2.3213859,-0.032147758,1.6083158,0.82329816,0.039998364,0.039998062,0.0780681126408389,0.04531917863898893,-0.003906484893767548,0.150868452936809,-0.210453892764974,-0.06350348913501735,0.9978617025929968,0.03893660763576283,0.0499748590941903,-0.016077205681965537
588.1333333331271,-0.040981956,-0.8140854,-0.00011426944,-2.3201895,-0.033251543,1.609595,0.8245752,0.03999828,0.039997973,0.07752880277887009,0.0453078252213579,-0.00502101008270639,0.15384147470181014,-0.2142756941069623,-0.06477901966515767,0.9977119940724385,0.04026596910551745,0.05169955835732177,-0.016630823240287567
588.1499999997937,-0.04237072,-0.8150863,-0.00011955217,-2.3189707,-0.03437646,1.6108986,0.8258767,0.039998196,0.039997883,0.07711653740942737,0.04527157346268795,-0.005782611083970934,0.15681712976380283,-0.21810043473795426,-0.06605844660932073,0.9975542132229334,0.041620851344997725,0.05345673233052619,-0.017195179063755645
588.1666666664604,-0.043785598,-0.8161061,-0.0001249351,-2.317729,-0.035522528,1.6122266,0.8272028,0.039998114,0.039997794,0.07847320559162263,0.04520926856369789,-0.006863714931615306,0.1597940308018273,-0.22192840532310698,-0.06733960015784296,0.9973880492988418,0.04300127316034227,0.05524659767596124,-0.01777028608860896
588.183333333127,-0.045226604,-0.8171447,-0.00013041809,-2.3164642,-0.03668975,1.613579,0.8285533,0.03999803,0.039997697,0.07922090861431919,0.04517502122987904,-0.007594293317603196,0.16277072045488555,-0.22575675517455443,-0.06862223330518188,0.9972131929754932,0.04440716816599425,0.0570692788148635,-0.018356159365460322
588.1999999997937,-0.04669371,-0.8182019,-0.00013600124,-2.3151767,-0.037878104,1.6149558,0.8299283,0.03999794,0.039997604,0.07841686273564186,0.04504600576875212,-0.008605252540139219,0.16574684126076672,-0.22958462192608642,-0.06990864992699179,0.9970293608692958,0.04583849850489074,0.05892433526330463,-0.018952792225905433
588.2166666664604,-0.048186917,-0.81927794,-0.0001416845,-2.3138666,-0.03908758,1.6163573,0.8313277,0.039997853,0.039997514,0.07923151137059214,0.04496390531216893,-0.009395582172877504,0.1687218128407577,-0.23341193422117174,-0.07119684585252548,0.9968362191274568,0.04729524192724556,0.06081209853242771,-0.01956018913003173
588.233333333127,-0.049706195,-0.8203728,-0.0001474679,-2.3125331,-0.040318154,1.6177832,0.83275145,0.039997764,0.039997417,0.08065572231976681,0.04481969105575717,-0.0104989826946289,0.17169396652274393,-0.23723662503959786,-0.07248566832039893,0.9966334424758261,0.04877734027526543,0.06273266062812294,-0.020178347429159797
588.2499999997937,-0.05125151,-0.8214865,-0.00015335117,-2.311177,-0.041569807,1.619234,0.83419955,0.039997675,0.03999732,0.07993065345042183,0.0446695242560996,-0.011255687553402005,0.17466313988026694,-0.24105536371872716,-0.07377560719367934,0.9964207141710004,0.05028470854041907,0.06468590407242812,-0.02080726489212771
588.2666666664603,-0.052822817,-0.82261896,-0.00015933404,-2.3097982,-0.04284251,1.620709,0.835672,0.03999758,0.03999722,0.08006565383689157,0.044478084627687375,-0.012813620197493769,0.1776284974095349,-0.2448679741425711,-0.07506642036852444,0.996197724977648,0.051817337157335,0.06667147363570755,-0.021446932706679692
588.283333333127,-0.054420084,-0.82377005,-0.0001654165,-2.308396,-0.044136234,1.622207,0.8371691,0.039997485,0.039997116,0.08097172970922273,0.04428916083954876,-0.014224368017257127,0.1805885425190118,-0.2486749031607456,-0.07635806325193102,0.9959641553986283,0.05337531474176165,0.06868904474741491,-0.022097331716803333
588.2999999997936,-0.05604325,-0.82493985,-0.00017159838,-2.306971,-0.045450907,1.6237305,0.8386905,0.039997388,0.039997015,0.08156390285214421,0.04408351077656997,-0.01392326137723554,0.1835411862694823,-0.2524778635523895,-0.07765129826417715,0.9957196120394141,0.05495839894974028,0.0707395344678491,-0.022758445646218116
588.3166666664603,-0.05769226,-0.8261284,-0.00017787897,-2.305523,-0.046786506,1.6252782,0.840236,0.0399973,0.03999692,0.08192352142786241,0.0438419484150937,-0.015805868864937622,0.18648677226285612,-0.2562669144584204,-0.07894358579156754,0.9954637866530074,0.056566427868060626,0.07282246148310724,-0.023430275377053562
588.3333333331269,-0.059367064,-0.82733566,-0.00018425817,-2.3040524,-0.048142962,1.6268506,0.84180564,0.039997194,0.039996807,0.08108472974694969,0.04359058919581743,-0.01667440332808745,0.18942489774795385,-0.26004596367038035,-0.08023579150358656,0.9951963437465318,0.05819935277743774,0.07493761410736881,-0.024112791661633912
588.3499999997936,-0.061067574,-0.82856154,-0.00019073613,-2.3025594,-0.049520236,1.6284466,0.8433994,0.039997097,0.039996702,0.08099033423634161,0.04327504893017614,-0.018513213943660567,0.19235479549952406,-0.2638121278246379,-0.08152758954273748,0.9949169726138941,0.05985710372141368,0.07708442267138009,-0.02480597751163729
588.3666666664602,-0.06279372,-0.82980573,-0.00019731207,-2.3010437,-0.05091826,1.6300669,0.8450172,0.039996997,0.039996594,0.08166844679684537,0.043011800854113325,-0.018814956058754717,0.1952745281251905,-0.26756975375882336,-0.08282001824460959,0.9946253009699206,0.06153953110353276,0.07926314637017699,-0.025509810064994014
588.3833333331269,-0.06454542,-0.8310684,-0.0002039861,-2.2995055,-0.052336965,1.6317109,0.8466589,0.039996903,0.039996497,0.08197429930736355,0.0426791395189724,-0.020490412203977293,0.19818393601608875,-0.2713156482647868,-0.08411079242792596,0.9943209895136207,0.06324650481384221,0.08147353777504243,-0.02622426517379287
588.3999999997935,-0.06632255,-0.8323495,-0.00021075753,-2.2979448,-0.053776268,1.6333789,0.8483245,0.039996803,0.03999639,0.08194023213148327,0.0422668352455996,-0.02148510412101068,0.2010816491276789,-0.2750463021657302,-0.08540056336504168,0.9940036811304832,0.06497789813406564,0.08371552869050077,-0.026949302573491797
588.4166666664602,-0.068125024,-0.8336489,-0.00021762591,-2.2963622,-0.055236094,1.6350708,0.8500138,0.039996702,0.03999628,0.08137710562565736,0.041917138944895516,-0.02271857320548243,0.2039671450782979,-0.27876318341584694,-0.08668928708976911,0.9936730386299069,0.06673352650764387,0.08598880866310284,-0.027684897048055757
588.4333333331268,-0.06995278,-0.8349665,-0.00022459097,-2.2947576,-0.056716353,1.6367861,0.8517268,0.0399966,0.039996173,0.08119167037450303,0.04155408741252087,-0.024118150171204,0.20683980189263285,-0.2824674197761912,-0.08797683770908724,0.9933287314938121,0.06851327812585581,0.088292918912685,-0.028431010872306532
588.4499999997935,-0.07180566,-0.83630246,-0.00023165227,-2.2931314,-0.058216967,1.6385252,0.85346323,0.039996497,0.03999606,0.08166137291856224,0.04108953699780982,-0.025251217390853675,0.20969814430712655,-0.28615703944371296,-0.08926300064260102,0.9929703743322185,0.07031692353037605,0.09062808113998642,-0.02918761505572847
588.4666666664601,-0.073683575,-0.83765614,-0.00023880928,-2.2914832,-0.059737816,1.6402878,0.8552232,0.039996397,0.039995953,0.0814006138126544,0.04066966812591444,-0.026173950673635815,0.21254202164960806,-0.2898305585997457,-0.09054759371704375,0.9925976370811359,0.07214435069956904,0.09299377564500602,-0.029954652633094513
588.4833333331268,-0.0755864,-0.83902764,-0.00024606165,-2.289813,-0.061278816,1.6420735,0.8570065,0.039996285,0.039995834,0.08182085665757732,0.040213793591842295,-0.02755309145321405,0.21536997652965706,-0.29348835495916137,-0.09183048634205702,0.992210148454829,0.07399538258668936,0.09538995424828342,-0.030732088891023954
588.4999999997934,-0.07751402,-0.84041727,-0.00025340868,-2.288121,-0.06283988,1.6438825,0.8588129,0.039996173,0.039995715,0.08249583160551133,0.039726313849569594,-0.029008131453500674,0.21818093372098957,-0.2971305113032733,-0.09311159245568822,0.9918075236111906,0.07586977592195743,0.09781671344445941,-0.03151989499846206
588.5166666664601,-0.07946625,-0.8418246,-0.0002608503,-2.2864075,-0.06442087,1.645715,0.86064255,0.03999606,0.039995596,0.0816033168765884,0.0391530273108287,-0.029850405544573633,0.220974817409594,-0.30074997745716514,-0.09439000366609518,0.9913894144012952,0.07776737909737627,0.10027367940777733,-0.032317997762980874
588.5333333331267,-0.081443,-0.84324974,-0.0002683856,-2.284672,-0.066021666,1.6475703,0.8624951,0.039995946,0.039995473,0.08259155220455838,0.03863215302192802,-0.031576173339642466,0.22375024367069482,-0.3043492352941865,-0.09566614185769859,0.9909554496728612,0.07968796991155266,0.1027607374248133,-0.03312634991877988
588.5499999997934,-0.083444074,-0.8446926,-0.00027601392,-2.2829149,-0.067642204,1.6494483,0.86437047,0.03999583,0.03999535,0.08234843738668118,0.038072034322780834,-0.03278775651582855,0.22650613422760432,-0.30792748155737837,-0.09693980384207988,0.9905052701323274,0.08163128736010536,0.10527765448236068,-0.033944929381419436
588.56666666646,-0.08546935,-0.8461529,-0.00028373484,-2.2811368,-0.06928231,1.651349,0.8662687,0.039995715,0.03999523,0.0810439836696375,0.03746037426947402,-0.034071704488969345,0.22924284489657223,-0.3114806218333537,-0.09821094629870758,0.9900385424409519,0.08359722975330412,0.1078238452796636,-0.03477364013266239
588.5833333331267,-0.08751869,-0.8476304,-0.00029154753,-2.2793374,-0.0709419,1.6532722,0.8681893,0.039995596,0.039995104,0.08138189505131344,0.03692771045998855,-0.03514232448023069,0.23195726964135588,-0.3150137788593962,-0.0994791644443759,0.9895549105514067,0.08558537917543686,0.11039915570106064,-0.03561247387485678
588.5999999997933,-0.0895919,-0.8491251,-0.0002994512,-2.2775173,-0.07262078,1.655218,0.87013227,0.039995484,0.039994985,0.0809417803486312,0.03618022719185654,-0.03645547989883369,0.23465078534406575,-0.3185244393232198,-0.10074400388137135,0.9890540050172301,0.08759556415514713,0.11300338244527244,-0.03646131999319177
588.61666666646,-0.09168882,-0.850637,-0.00030744603,-2.2756763,-0.07431886,1.6571858,0.87209743,0.039995365,0.039994862,0.08132430293383841,0.03556070475405626,-0.03817375583017313,0.23732180469712127,-0.32201035705892284,-0.10200658141179472,0.9885354711765574,0.08962751745001436,0.11563622515633194,-0.0373201523721848
588.6333333331266,-0.0938093,-0.85216594,-0.00031553052,-2.2738142,-0.076035984,1.6591758,0.87408465,0.03999525,0.039994735,0.08144483921799228,0.03488904194358655,-0.03911707539023812,0.2399692770359188,-0.32547222816605725,-0.10326424104022554,0.9879989255282747,0.09168099370240494,0.11829762096456574,-0.03818889135387491
588.6499999997933,-0.09595313,-0.85371184,-0.0003237042,-2.2719314,-0.077772014,1.6611878,0.8760938,0.03999513,0.039994612,0.08123338678123204,0.034142688241520225,-0.04052725610623753,0.24259250688219425,-0.328906775664185,-0.10451994383609986,0.9874440047026319,0.09375572672324825,0.12098732852977702,-0.039067475201911436
588.66666666646,-0.09812015,-0.85527444,-0.00033196656,-2.270029,-0.0795268,1.6632217,0.8781247,0.039995003,0.03999448,0.07894395768532902,0.03342839511612239,-0.041827155916229763,0.24519079929378806,-0.3323139494523387,-0.10577107003935549,0.9868704255726461,0.09585142482137025,0.12370448220780515,-0.03995583275913923
588.6833333331266,-0.10031014,-0.8568535,-0.00034031714,-2.2681065,-0.08130016,1.6652771,0.88017714,0.039994877,0.039994344,0.07998360247079006,0.0326144629749614,-0.04312110328767993,0.24776308906048577,-0.3356956155966601,-0.10701881670656416,0.9862778131165613,0.09796776225823323,0.12644901334102754,-0.04085388521558718
588.6999999997932,-0.1025229,-0.85844904,-0.00034875429,-2.2661633,-0.083091974,1.6673542,0.88225096,0.039994758,0.03999422,0.08084884278098947,0.031850568454272477,-0.04429774712064738,0.25030875097404925,-0.3390495766400177,-0.10826353191518129,0.985665749140801,0.10010446981583583,0.12922111835444422,-0.041761569233215036
588.7166666664599,-0.10475827,-0.8600609,-0.000357278,-2.2642002,-0.08490207,1.6694523,0.88434595,0.03999463,0.039994087,0.07959426106567413,0.031051413154012386,-0.0459299029093696,0.2528271150034583,-0.3423724826414135,-0.10950313773604774,0.985033946004016,0.10226123419903746,0.13202001453138545,-0.04267881163973177
588.7333333331266,-0.10701602,-0.86168903,-0.00036588724,-2.2622182,-0.086730264,1.6715714,0.88646185,0.039994508,0.039993957,0.07771982785942377,0.030148858047410187,-0.04740895988406546,0.2553170590862498,-0.3456655125617637,-0.11073876589544127,0.9843821085550127,0.1044376865739682,0.1348450668427336,-0.04360552634750951
588.7499999997932,-0.10929592,-0.86333317,-0.00037458076,-2.2602162,-0.0885764,1.6737114,0.8885985,0.039994385,0.03999383,0.0796876328739593,0.029308031882790964,-0.04827577735486699,0.25777838701376604,-0.3489316946255981,-0.11197128169627717,0.9837098047163788,0.10663350831812378,0.13769661355806367,-0.044541639207307526
588.7666666664599,-0.11159781,-0.8649932,-0.00038335836,-2.2581952,-0.09044029,1.6758717,0.8907558,0.03999426,0.039993696,0.07772529695100339,0.028438095354227366,-0.05008710399274641,0.26021012316339803,-0.35216435407303637,-0.1131983689937261,0.9830167719164026,0.10884843677603727,0.14057372253966632,-0.04548705831122957
588.7833333331265,-0.11392143,-0.8666689,-0.00039221888,-2.2561548,-0.09232177,1.6780525,0.8929335,0.039994135,0.039993566,0.07812753885598767,0.027508323359307085,-0.050948599421341,0.2626111453674983,-0.35536669796300047,-0.11442133396816076,0.9823026290108959,0.11108210721852504,0.14347640500418227,-0.046441702178646
588.7999999997932,-0.11626658,-0.86836004,-0.0004011616,-2.2540958,-0.094220646,1.6802537,0.8951313,0.039994013,0.03999344,0.07680550359312477,0.02657861908893777,-0.05227910820428949,0.2649806443914437,-0.3585374360176786,-0.11564086225478394,0.9815670841415348,0.1133340942212033,0.14640410484317473,-0.047405490209606785
588.8166666664598,-0.118632995,-0.87006664,-0.00041018563,-2.252018,-0.09613675,1.6824746,0.89734906,0.03999388,0.039993297,0.07696729136270619,0.025569653067805675,-0.053942754182068064,0.26731816020809396,-0.3616750483716802,-0.11685488549076307,0.9808098047289339,0.11560409455274781,0.14935647734247018,-0.048378331369303626
588.8333333331265,-0.12102049,-0.8717886,-0.00041928957,-2.2499218,-0.09806988,1.6847153,0.8995864,0.039993756,0.039993167,0.07624093931219988,0.024611474286886925,-0.055145444869908467,0.2696227873619528,-0.3647788582664828,-0.11806430892352185,0.9800304707104253,0.11789164673569585,0.15233322658637205,-0.049360147759434835
588.8499999997931,-0.12342878,-0.8735256,-0.00042847372,-2.247807,-0.10001984,1.6869752,0.9018433,0.03999362,0.03999303,0.07615518676593602,0.023564595682182277,-0.05638422034510704,0.2718950873575663,-0.36784846491003886,-0.11926951548717786,0.9792287526067202,0.12019650193833713,0.1553339804167197,-0.050350824402113734
588.8666666664598,-0.12585765,-0.87527746,-0.0004377356,-2.2456746,-0.10198643,1.689255,0.9041196,0.0399935,0.0399929,0.07458430128264304,0.02256840990948472,-0.057260093873812146,0.27413220342744393,-0.3708834911908415,-0.12046930144231173,0.9784043488110632,0.12251824811402283,0.15835832706828792,-0.05135026148719547
588.8833333331264,-0.1283068,-0.8770437,-0.0004470753,-2.2435236,-0.10396946,1.691554,0.9064151,0.03999338,0.039992776,0.07565069662867074,0.021476909704939984,-0.0584680967449458,0.2763347124216764,-0.3738823144832095,-0.12166501787859173,0.9775569073169545,0.12485651481800412,0.16140615078758516,-0.052358362773752144
588.8999999997931,-0.13077606,-0.8788247,-0.00045649215,-2.2413554,-0.105968736,1.6938716,0.9087294,0.03999325,0.03999264,0.07321788647853822,0.02040265085806181,-0.06035878706824871,0.27850108795514383,-0.37684224848618925,-0.12285486377022767,0.9766862169019415,0.12721084340547614,0.16447656119002735,-0.05337504897369782
588.9166666664597,-0.13326515,-0.88062,-0.00046598408,-2.23917,-0.10798402,1.6962079,0.9110622,0.039993115,0.0399925,0.07275480984749727,0.019293051458724175,-0.06128459506851147,0.28063060482332847,-0.3797660981941131,-0.12403969051012945,0.9757919822965267,0.12958081301437718,0.16756920260993297,-0.05440020699426888
588.9333333331264,-0.13577373,-0.88242936,-0.0004755506,-2.2369664,-0.11001514,1.6985625,0.91341347,0.039992984,0.039992366,0.07461051287154241,0.018098261014667938,-0.06242286666349184,0.2827241967642327,-0.3826545868207132,-0.12522046846803678,0.9748737929060266,0.1319660778309785,0.17068434026457216,-0.05543372795846767
588.949999999793,-0.13830164,-0.8842529,-0.00048519042,-2.2347465,-0.112061836,1.7009351,0.9157826,0.03999285,0.03999223,0.07066675915154974,0.016978985987281536,-0.064020001872378,0.2847796495372061,-0.38549870024925775,-0.1263962322714371,0.9739315421809459,0.1343660405096607,0.17382069198076602,-0.0564755287016252
588.9666666664597,-0.14084858,-0.88609004,-0.00049490324,-2.2325099,-0.11412392,1.7033256,0.91816956,0.03999272,0.03999209,0.07083235081712935,0.015842563555423794,-0.06473185613051768,0.28679749738615445,-0.38830746529008764,-0.1275644543381788,0.972964905590968,0.13678040642151215,0.17697805346571857,-0.05752548564775442
588.9833333331263,-0.14341424,-0.88794076,-0.0005046879,-2.230257,-0.11620118,1.7057337,0.9205742,0.03999259,0.039991956,0.06978204733774085,0.01459262451040666,-0.06613088955382818,0.28877642749743115,-0.39107721960521497,-0.12872931203570762,0.9719736353162286,0.13920873520622443,0.18015591813135032,-0.058583491315290885
588.999999999793,-0.14599837,-0.8898048,-0.0005145426,-2.2279873,-0.11829336,1.7081594,0.9229959,0.039992448,0.03999181,0.0708969406186366,0.01338780563354125,-0.06691214713745453,0.29071564326835175,-0.3938084190451568,-0.12988877935758716,0.9709573743893759,0.14165044195915003,0.18335450011496326,-0.05964944844052488
589.0166666664596,-0.14860071,-0.891682,-0.00052446686,-2.2257016,-0.12040025,1.7106018,0.9254348,0.03999233,0.039991684,0.06840003463146616,0.012130238608376587,-0.068713415077859,0.2926159152619845,-0.39649324346228987,-0.13104083683572254,0.9699159843240839,0.14410527307729307,0.1865726246948011,-0.06072321910484589
589.0333333331263,-0.15122096,-0.893572,-0.0005344592,-2.2234,-0.122521624,1.7130611,0.92789054,0.039992202,0.039991554,0.06752406612853257,0.010926821571954903,-0.06912434667760703,0.294474945710812,-0.39913890780311645,-0.13218982611784175,0.9688492126437783,0.14657268620935657,0.18980998332012397,-0.061804700864241
589.0499999997929,-0.15385883,-0.895475,-0.0005445185,-2.2210834,-0.124657236,1.715537,0.9303627,0.039992068,0.039991416,0.06681067178013755,0.009538411323783968,-0.07079113097778755,0.2962924424163247,-0.4017443729402336,-0.1333316592265802,0.9677568132458895,0.14905217638691357,0.19306623685958182,-0.0628937780338002
589.0666666664596,-0.15651397,-0.8973903,-0.00055464474,-2.2187517,-0.12680689,1.7180294,0.93285114,0.039991938,0.03999128,0.06550213048681641,0.00830736841132551,-0.07118312055038878,0.29806852347877977,-0.40430623633676904,-0.1344676470103057,0.9666385851832215,0.15154327973598666,0.196340817697123,-0.06399033761330934
589.0833333331262,-0.15918618,-0.89931816,-0.0005648357,-2.2164052,-0.1289703,1.7205373,0.93535566,0.03999181,0.039991148,0.06457257554459694,0.006951183804709826,-0.07306289963437962,0.2998028781769635,-0.4068258171159517,-0.13559897264083012,0.9654943391970577,0.1540456416442241,0.1996330677976095,-0.06509423561707595
589.0999999997929,-0.16187513,-0.90125823,-0.0005750904,-2.2140434,-0.13114719,1.7230611,0.93787575,0.039991684,0.039991017,0.06522628294800548,0.005582616922139572,-0.07367030132092722,0.3014935046248044,-0.40930439396873813,-0.1367250850227697,0.9643237694788863,0.1565586207578419,0.20294313577502768,-0.06620535874257266
589.1166666664595,-0.16458054,-0.9032101,-0.00058540754,-2.211667,-0.13333748,1.7256005,0.94041127,0.03999156,0.03999089,0.06320228881770973,0.004405258719608618,-0.0744219865557838,0.30314140304612996,-0.4117341611857241,-0.13784452523195195,0.963126725220989,0.15908181245999156,0.20627024641621658,-0.06732364779875667
589.1333333331262,-0.1673021,-0.9051737,-0.0005957862,-2.209276,-0.13554078,1.7281551,0.94296205,0.03999144,0.03999076,0.06323428065209136,0.0028914620979536565,-0.07560898636043145,0.30474505278285724,-0.41411887039751183,-0.13895688921786178,0.9619029550645386,0.16161478052501166,0.2096142085798232,-0.06844889564788377
589.1499999997928,-0.17003942,-0.90714884,-0.00060622516,-2.2068717,-0.13775685,1.7307246,0.9455276,0.03999131,0.03999063,0.059459353807378434,0.0014252461171759823,-0.07644360702481201,0.3063040722341518,-0.4164547061238505,-0.14006399178673962,0.9606524811528443,0.16415687531174583,0.21297374660521062,-0.06958098878075526
589.1666666664595,-0.17279233,-0.9091351,-0.0006167232,-2.2044547,-0.1399854,1.7333086,0.94810766,0.03999118,0.039990496,0.05830903878534244,0.00020024663152651279,-0.07718170347137399,0.3078189893988633,-0.4187479062731386,-0.14116563167599805,0.9593751415834404,0.1667076619486208,0.2163483391461188,-0.07071979431597535
589.1833333331261,-0.17556041,-0.9111324,-0.0006272802,-2.2020237,-0.1422263,1.7359066,0.950702,0.039991062,0.039990373,0.059493218570372264,-0.001304917855421417,-0.07837473458787159,0.3092886459297844,-0.4209990436566655,-0.1422620987974405,0.9580706508615437,0.16926666521790878,0.21973805662128296,-0.07186522438598733
589.1999999997928,-0.17834336,-0.91314036,-0.0006378932,-2.1995792,-0.14447923,1.7385187,0.9533103,0.039990935,0.039990243,0.05845439539768904,-0.0027403257430225203,-0.07890902478275841,0.3107120353616091,-0.4232024291833091,-0.14335237116516542,0.9567388535930359,0.1718333256623839,0.22314249527781824,-0.07301712825411151
589.2166666664594,-0.18114087,-0.91515887,-0.00064856175,-2.1971216,-0.14674398,1.7411445,0.95593214,0.039990816,0.03999012,0.057021419678804364,-0.004139056361351923,-0.07984486858501061,0.31208984298273085,-0.42535498886604717,-0.14443543636448408,0.9553796399013459,0.17440708979615763,0.22656107259183092,-0.07417540749364854
589.2333333331261,-0.18395263,-0.91718775,-0.0006592846,-2.194652,-0.14902021,1.7437838,0.9585676,0.039990693,0.039989993,0.05423822529784239,-0.005637316564705008,-0.08046663888405803,0.313421723054402,-0.4274584783794728,-0.14551170959144233,0.9539929525959722,0.17698761556167708,0.22999291084819604,-0.0753398386949758
589.2499999997927,-0.1867783,-0.9192267,-0.0006700611,-2.1921697,-0.15130769,1.746436,0.961216,0.039990578,0.039989874,0.05507046603496768,-0.00711170205949796,-0.08147333529648915,0.3147057374087956,-0.4295154119488691,-0.1465826748950113,0.9525786155639128,0.17957418914520248,0.2334379079764674,-0.07651035800957127
589.2666666664594,-0.18961759,-0.9212755,-0.0006808893,-2.1896753,-0.15360613,1.7491012,0.9638771,0.03999044,0.039989732,0.052853256147278316,-0.00855128859392762,-0.08182356523773748,0.31594284425874203,-0.43152160627686187,-0.14764666766786824,0.9511365498464665,0.18216634311882185,0.2368954363829613,-0.0776868019795028
589.283333333126,-0.19247012,-0.92333394,-0.000691768,-2.1871698,-0.15591532,1.7517785,0.9665505,0.039990313,0.0399896,0.05054410274998311,-0.01005006446723744,-0.0827178646790383,0.31713244767048876,-0.4334779004438372,-0.14870418367345856,0.9496667860002477,0.1847635083228273,0.24036454150076159,-0.07886906078639941
589.2999999997927,-0.19533558,-0.92540187,-0.000702696,-2.184652,-0.15823491,1.7544681,0.96923625,0.039990194,0.03998948,0.05189282040714005,-0.011615659508545928,-0.0834027394613246,0.31827483018021374,-0.4353867620594326,-0.14975489616325632,0.9481690190137382,0.18736527360683913,0.24384555172143385,-0.08005693308158317
589.3166666664594,-0.19821362,-0.92747897,-0.0007136719,-2.1821241,-0.16056466,1.7571695,0.97193354,0.039990075,0.039989356,0.0474244446673211,-0.013050283140836338,-0.08366392097614028,0.3193683224260865,-0.4372397817745203,-0.15079877811673925,0.9466434563895987,0.18997088567209702,0.24733704034825485,-0.08125033872839374
589.333333333126,-0.2011039,-0.92956483,-0.00072469376,-2.1795847,-0.16290435,1.7598823,0.97464234,0.039989952,0.03998923,0.04863139153017393,-0.014553471231987247,-0.08433011431643322,0.32041427362194896,-0.43904621612144024,-0.1518362688299234,0.9450898622360894,0.19257994973364223,0.25083910457291436,-0.08244912902035934
589.3499999997927,-0.20400606,-0.9316594,-0.0007357614,-2.1770346,-0.16525367,1.7626063,0.9773623,0.03998983,0.039989103,0.046676054071026485,-0.016118497133210674,-0.08495293565033979,0.32141207837948826,-0.4407980272763987,-0.15286671978960406,0.9435082400116592,0.19519190381814652,0.2543510821881128,-0.08365314521095207
589.3666666664593,-0.2069198,-0.9337622,-0.00074687315,-2.174475,-0.16761234,1.765341,0.9800931,0.039989717,0.039988987,0.0434326099633342,-0.01749796816876148,-0.08488844839720233,0.32236062016856337,-0.4424988319070927,-0.15388976586207556,0.9418986965646781,0.19780623581854478,0.2578719423430067,-0.0848622403269193
589.383333333126,-0.2098448,-0.9358731,-0.00075802807,-2.1719048,-0.16998003,1.7680866,0.98283446,0.0399896,0.039988868,0.04462707167847135,-0.019124706480416753,-0.08562755330987493,0.3232593422009866,-0.4441494994793658,-0.154906192760713,0.9402610236110502,0.200422371092736,0.2614019117161482,-0.08607625221051822
589.3999999997926,-0.21278065,-0.9379919,-0.0007692238,-2.1693249,-0.17235653,1.7708421,0.985586,0.039989498,0.039988764,0.04227260116631548,-0.020654529236141528,-0.08616114627169047,0.3241097725322958,-0.445743695001104,-0.15591543730252927,0.9385953130894238,0.20303978016859228,0.2649401039237697,-0.08729505855727797
589.4166666664593,-0.21572699,-0.9401186,-0.0007804597,-2.1667364,-0.1747415,1.7736077,0.9883475,0.039989393,0.03998866,0.03967621256739662,-0.022232470675653815,-0.08621688997294541,0.32491047351293184,-0.4472845932939063,-0.1569170933557423,0.9369016209427207,0.20565789835508336,0.26848586809432207,-0.08851847351096305
589.4333333331259,-0.21868347,-0.94225305,-0.000791735,-2.1641386,-0.17713474,1.7763828,0.9911185,0.03998929,0.039988548,0.04000845305092149,-0.023796645264656524,-0.08712260184444709,0.3256607598922387,-0.44877364816884624,-0.15791026696535737,0.9351798649401172,0.20827619368978312,0.27203902829882587,-0.08974638953690998
589.4499999997926,-0.2216498,-0.9443944,-0.0008030474,-2.1615326,-0.17953588,1.7791672,0.99389863,0.03998919,0.039988447,0.03636785752028082,-0.025087889033165167,-0.08631809580066374,0.3263620790958302,-0.4502056823202233,-0.15889706367242862,0.9334302753962449,0.2108940662889609,0.2755984384746759,-0.0909786485287517
589.4666666664592,-0.2246256,-0.9465423,-0.00081439613,-2.1589181,-0.18194471,1.7819604,0.99668777,0.039989084,0.03998834,0.03612230422818108,-0.026605433015741697,-0.08666405639163877,0.3270133263654492,-0.4515869764692557,-0.15987604001838474,0.9316528063441869,0.21351108270002658,0.2791638260146605,-0.09221509767993492
589.4833333331259,-0.22761048,-0.94869703,-0.00082577916,-2.1562953,-0.18436089,1.7847619,0.9994852,0.039988995,0.03998825,0.03517989925772014,-0.028346042815535766,-0.08744570928864714,0.32761410599893626,-0.45291254730647096,-0.16084785420556463,0.9298475099164366,0.2161265143786384,0.2827348374773943,-0.0934556031566538
589.4999999997925,-0.23060408,-0.95085824,-0.0008371955,-2.1536646,-0.18678413,1.7875718,1.0022908,0.039988898,0.039988153,0.033510497848610044,-0.029825559246954292,-0.0872817549643301,0.328165669680067,-0.4541823610454697,-0.16181088783342557,0.9280144242244565,0.2187399164316874,0.2863110048135976,-0.09469997842363487
589.5166666664592,-0.23360609,-0.95302546,-0.00084864424,-2.151027,-0.1892141,1.7903894,1.0051045,0.0399888,0.039988052,0.03034649052926497,-0.03120625754619577,-0.08696577609625944,0.32866723823265664,-0.45539416463665217,-0.16276428991658498,0.9261537872238732,0.2213508456006619,0.28989125902911456,-0.09594802499928477
589.5333333331258,-0.23661608,-0.95519835,-0.00086012395,-2.148382,-0.19165054,1.7932146,1.0079256,0.039988708,0.039987955,0.030206021603174094,-0.03275614470615862,-0.08703366050635264,0.3291170857306298,-0.4565533107843314,-0.1637113953829581,0.9242656298494127,0.22395858845505776,0.2934754227195216,-0.09719965224158283
589.5499999997925,-0.23963368,-0.95737714,-0.0008716317,-2.1457303,-0.19409318,1.796047,1.010754,0.03998862,0.039987866,0.028493176770805206,-0.0343643942581906,-0.0873987260953113,0.3295182521898984,-0.45765550071166616,-0.16465001989012312,0.9223500211763649,0.2265626929571494,0.2970630595210342,-0.09845467619146472
589.5666666664591,-0.24265864,-0.9595611,-0.0008831675,-2.1430721,-0.19654167,1.7988863,1.0135893,0.039988525,0.039987773,0.0265194371230848,-0.035638204172039334,-0.08679698863944818,0.32986894308187076,-0.45869977690131547,-0.16557991203946676,0.9204071493454806,0.2291626569197816,0.30065343568408637,-0.0997129265368713
589.5833333331258,-0.24569046,-0.9617502,-0.00089472946,-2.1404073,-0.1989958,1.8017322,1.0164307,0.03998844,0.039987683,0.026155434657315624,-0.03730401396584426,-0.087072895227025,0.33016956233140726,-0.4596865446052422,-0.16650082437914102,0.9184370985984466,0.23175771851495316,0.30424634812852375,-0.10097433078395861
589.5999999997924,-0.24872881,-0.9639441,-0.0009063168,-2.1377366,-0.2014552,1.8045844,1.0192785,0.03998836,0.039987605,0.02375023957501554,-0.03870248518756947,-0.08656346472544207,0.3304201160214302,-0.4606143306008612,-0.16741056953690764,0.9164400397949135,0.23434755535602345,0.30784109444698765,-0.10223862933859068
589.6166666664591,-0.2517734,-0.96614254,-0.00091792754,-2.1350605,-0.20391962,1.8074421,1.0221323,0.039988264,0.03998751,0.02113460183821303,-0.04005078690069719,-0.08650117754283038,0.3306212315634446,-0.461481902940747,-0.16831160499525571,0.9144162581807467,0.23693169860225236,0.3114367512367253,-0.103505685598848
589.6333333331257,-0.25482386,-0.9683453,-0.00092956057,-2.1323795,-0.20638877,1.8103055,1.0249914,0.039988168,0.03998741,0.02000080304735974,-0.04140967032393306,-0.08595298615454716,0.3307715241306849,-0.46229276766983946,-0.1692052763300072,0.9123658783609347,0.239509473728868,0.31503306281054,-0.10477540423692532
589.6499999997924,-0.25787959,-0.9705519,-0.0009412146,-2.1296935,-0.20886226,1.8131739,1.0278554,0.03998808,0.039987322,0.018498918457066083,-0.04315896902397642,-0.08555391294646775,0.330870973763442,-0.4630468772311105,-0.17008685500863033,0.9102891835412378,0.24208019592843408,0.3186294068578466,-0.10604754665947926
589.666666666459,-0.26094046,-0.97276235,-0.00095288706,-2.1270034,-0.21133989,1.816047,1.0307244,0.039988,0.039987244,0.015884367020113643,-0.0442059993359778,-0.08527904791493235,0.3309231858925017,-0.4637416565995461,-0.17095922391269397,0.9081863682922398,0.24464368268485112,0.32222504972856875,-0.1073219749071344
589.6833333331257,-0.26400602,-0.9749762,-0.00096457795,-2.1243086,-0.2138213,1.8189244,1.0335977,0.03998792,0.039987165,0.016023117232233375,-0.04578714066124645,-0.08497868900279038,0.3309240620695304,-0.4643792532027221,-0.1718222296271763,0.9060575575160268,0.24719919894581846,0.3258199126540592,-0.10859854062895491
589.6999999997923,-0.26707584,-0.9771931,-0.00097628497,-2.1216104,-0.21630622,1.8218058,1.036475,0.039987843,0.039987087,0.012166822978310066,-0.04703829190445541,-0.08398004143135296,0.33087560505836766,-0.4649554484128162,-0.17267445106903656,0.9039032138507804,0.24974620692790517,0.3294128690635234,-0.10987708501180878
589.716666666459,-0.27014962,-0.9794129,-0.0009880067,-2.1189084,-0.2187943,1.8246909,1.0393561,0.039987773,0.039987016,0.012047926539615617,-0.04842878024882147,-0.08379593846428168,0.33077876239800025,-0.46547589830662267,-0.17351622470465627,0.9017233856164844,0.25228438605710496,0.3330038457200287,-0.11115737996105277
589.7333333331256,-0.273227,-0.9816355,-0.0009997416,-2.1162033,-0.22128531,1.8275796,1.0422407,0.0399877,0.039986942,0.010015515215577864,-0.04971110277658397,-0.08322309903379121,0.3306320910652162,-0.46593452647046546,-0.17434732057911956,0.8995183477589244,0.2548131587104385,0.3365923262595045,-0.11243932628879873
589.7499999997923,-0.2763076,-0.9838604,-0.0010114897,-2.1134956,-0.22377886,1.8304715,1.0451277,0.039987627,0.03998687,0.007723282335669879,-0.05095367064728018,-0.0821186373524796,0.33043630577488253,-0.46633300127713145,-0.17516703713754908,0.8972885583362756,0.2573316884442464,0.34017754600101224,-0.11372283147183061
589.766666666459,-0.279391,-0.98608744,-0.0010232468,-2.1107843,-0.22627471,1.833366,1.0480174,0.039987557,0.0399868,0.008415742794243286,-0.05250635291089156,-0.08240851383709558,0.33019344946056295,-0.46667225019669334,-0.17597409396063957,0.895034012053335,0.2598397517758763,0.3437595952759387,-0.11500765766019437
589.7833333331256,-0.28247684,-0.9883163,-0.0010350136,-2.1080713,-0.22877252,1.8362623,1.0509099,0.039987493,0.039986737,0.003275510396116843,-0.05342467867052725,-0.08089036392031623,0.3299029455073583,-0.4669463889754722,-0.1767670983851154,0.8927553174042063,0.26233719177013526,0.34733695164570283,-0.11629352123891075
589.7999999997922,-0.28556466,-0.99054664,-0.0010467878,-2.105357,-0.23127192,1.8391613,1.0538037,0.03998742,0.039986663,0.0025272242262897038,-0.054802055430624996,-0.0795618619742644,0.32956132139089855,-0.46716422949965786,-0.17755200846215036,0.8904527852509574,0.26482281123341445,0.35090961674321636,-0.11758042679958428
589.8166666664589,-0.28865424,-0.9927783,-0.0010585687,-2.1026409,-0.23377272,1.8420613,1.0566998,0.039987363,0.03998661,0.0010879231080007656,-0.05587151493058329,-0.07967209023538313,0.3291761783747501,-0.46732151477753364,-0.1783232592811298,0.888126611662701,0.2672969214848674,0.35447688702794766,-0.11886805283261928
589.8333333331256,-0.291745,-0.995011,-0.0010703547,-2.0999234,-0.23627463,1.8449625,1.0595967,0.039987303,0.03998655,-0.00017061380908067747,-0.057218953977672404,-0.07853195149236658,0.3287396002576711,-0.46741843699379304,-0.17908281983517943,0.8857772270986902,0.269758440993085,0.3580384443259457,-0.12015639746177625
589.8499999997922,-0.29483673,-0.9972444,-0.0010821435,-2.097205,-0.23877724,1.8478649,1.0624942,0.039987247,0.039986495,-0.0018993382954413107,-0.05827138363479478,-0.07746830527826098,0.32825728445661606,-0.4674547205111331,-0.17982837082534872,0.8834049305660225,0.27220697768603763,0.3615938876011086,-0.12144525680400482
589.8666666664589,-0.297929,-0.99947816,-0.0010939348,-2.0944858,-0.2412803,1.8507677,1.0653923,0.03998719,0.03998644,-0.0039333552762865764,-0.05929439767382583,-0.0763774677039919,0.32772917560774495,-0.4674280634057175,-0.180559262638686,0.8810101253107608,0.2746422537722697,0.3651425100233601,-0.122734424334194
589.8833333331255,-0.3010214,-1.0017121,-0.0011057262,-2.0917666,-0.24378349,1.8536707,1.0682907,0.039987136,0.039986387,-0.006221723566746107,-0.06039042237212522,-0.07531965739064894,0.32715517958723117,-0.467340520044805,-0.18127725012698215,0.8785932296804185,0.2770638638153844,0.36868370696693065,-0.12402369267419776
589.8999999997922,-0.30411357,-1.0039462,-0.0011175158,-2.0890477,-0.24628654,1.8565735,1.0711887,0.03998709,0.039986342,-0.007504611934683325,-0.061538561355811705,-0.07467298337571204,0.32653344325803857,-0.4671927875570791,-0.18198158097184935,0.8761546352953776,0.2794711540955575,0.37221711301224064,-0.12531300754412478
589.9166666664588,-0.30720514,-1.0061798,-0.0011293035,-2.0863295,-0.24878909,1.8594759,1.0740861,0.039987046,0.039986297,-0.009731516738042956,-0.0623658108170444,-0.0728302330563757,0.3258667531781022,-0.4669841293017718,-0.18267052884302304,0.8736947866822794,0.2818637724229261,0.37574210992661383,-0.12660213405634044
589.9333333331255,-0.3102957,-1.0084127,-0.0011410873,-2.083612,-0.25129086,1.8623767,1.0769827,0.039986998,0.03998625,-0.011432589919957437,-0.06339848496453859,-0.07216626397266168,0.325154876858187,-0.46671574176010067,-0.18334550083237988,0.8712141392572139,0.28424147643704145,0.3792580041733366,-0.12789086324542526
589.9499999997921,-0.31338486,-1.0106449,-0.0011528658,-2.0808957,-0.25379148,1.8652765,1.0798786,0.039986968,0.039986223,-0.012544889157872774,-0.06449006643255428,-0.07094307761006391,0.3243973678553248,-0.46638760040488453,-0.18400742038301993,0.8687129368996883,0.2866038487463654,0.38276476374031815,-0.12917895643527652
589.9666666664588,-0.3164723,-1.0128757,-0.0011646372,-2.07818,-0.25629073,1.868175,1.0827721,0.03998694,0.039986197,-0.013060231149353285,-0.06526083796435378,-0.06952221198750497,0.3235952604839166,-0.46599508425525854,-0.1846538999077056,0.8661916492952456,0.2889500074103092,0.38626210130068706,-0.13046650530899556
589.9833333331254,-0.31955767,-1.0151051,-0.0011764,-2.0754664,-0.25878832,1.8710711,1.0856643,0.0399869,0.03998616,-0.01665033937165994,-0.06605207880400199,-0.06859036796276197,0.32275051648837305,-0.4655394112810332,-0.18528091057177182,0.8636508040975405,0.29128019990816156,0.38974895687887495,-0.1317531188813458
589.9999999997921,-0.32264045,-1.0173327,-0.0011881529,-2.072755,-0.26128387,1.8739647,1.0885537,0.03998688,0.03998614,-0.018689831433693627,-0.06686295999749348,-0.06647308599501134,0.3218600842426388,-0.46502477745584214,-0.1858954979091016,0.8610910718078069,0.2935935076024286,0.3932247517758434,-0.13303876479211396
590.0166666664587,-0.3257204,-1.0195581,-0.0011998948,-2.070046,-0.2637771,1.8768562,1.0914404,0.039986838,0.0399861,-0.018702860908792474,-0.0676764572897226,-0.06530301097183999,0.32092697427570294,-0.46445087275643226,-0.1864923555107855,0.85851257546208,0.29588971043218254,0.39668968785233133,-0.13432322429663995
590.0333333331254,-0.3287971,-1.0217817,-0.0012116238,-2.0673404,-0.26626778,1.8797445,1.0943247,0.039986808,0.039986074,-0.022368677734485587,-0.06845465637519421,-0.06433722715352141,0.3199521920631945,-0.46381180526549537,-0.18707110399530955,0.8559159706678736,0.2981687216355081,0.4001427355006734,-0.13560625287927028
590.049999999792,-0.33187017,-1.0240026,-0.0012233387,-2.0646377,-0.26875547,1.8826292,1.0972054,0.03998678,0.03998605,-0.02294687551414043,-0.06910752215423255,-0.06255907986091325,0.3189333187765786,-0.4631140317244152,-0.18763427470168775,0.8533018159047574,0.30042987540111976,0.4035834981924105,-0.13688776763059557
590.0666666664587,-0.33493924,-1.0262206,-0.001235038,-2.061938,-0.27123988,1.8855101,1.1000823,0.03998676,0.03998603,-0.024038038890195068,-0.06985765528474408,-0.061248317563511456,0.3178733318285264,-0.4623567412947527,-0.18818094471959024,0.8506704852665972,0.3026728286528716,0.40701179473393373,-0.13816759113129173
590.0833333331253,-0.33800384,-1.0284351,-0.0012467195,-2.0592425,-0.27372092,1.8883871,1.1029552,0.039986737,0.03998601,-0.027016088216935685,-0.07013674686469074,-0.05877577674742174,0.3167728759493559,-0.46153576478888186,-0.18870819049922255,0.8480226429577408,0.30489728382788567,0.4104268119711267,-0.13944560000431516
590.099999999792,-0.34106377,-1.0306468,-0.0012583829,-2.056551,-0.27619803,1.8912597,1.1058233,0.039986726,0.039986003,-0.02735812494987222,-0.07122382562709806,-0.058758783448054075,0.3156303088777569,-0.4606561232133037,-0.18921703665060544,0.8453586641739959,0.3071027255524778,0.41382854109746126,-0.140721652340156
590.1166666664586,-0.34411848,-1.0328547,-0.0012700268,-2.0538635,-0.27867097,1.8941272,1.1086863,0.03998672,0.039986,-0.029244554398522027,-0.07157086022545611,-0.056376218114428944,0.31444992732456417,-0.4597153719116198,-0.18970553024207423,0.8426791869480285,0.30928889290218153,0.4172162951474562,-0.14199553399802106
590.1333333331253,-0.3471677,-1.0350586,-0.0012816488,-2.051181,-0.28113952,1.8969893,1.1115446,0.03998671,0.039985996,-0.031918504043026985,-0.07182963161207478,-0.05462017750400561,0.3132305984440559,-0.4587132614601356,-0.19017436885187197,0.8399847677221718,0.3114557843025687,0.4205894004345444,-0.14326702572927033
590.1499999997919,-0.3502111,-1.0372586,-0.0012932481,-2.0485034,-0.28360325,1.8998467,1.1143969,0.0399867,0.039985985,-0.03146896542349786,-0.07266194072130805,-0.0534456500623004,0.31196981285515296,-0.45765367258710266,-0.1906245377538565,0.8372757200151445,0.31360260620257663,0.42394821952691636,-0.14453608966632014
590.1666666664586,-0.3532482,-1.0394539,-0.0013048232,-2.0458317,-0.28606194,1.9026974,1.1172439,0.0399867,0.039985985,-0.03621503500284007,-0.0724936019855571,-0.050599495641456826,0.31067354504282346,-0.4565300449054688,-0.19105169610766304,0.8345530446618302,0.3157296076013007,0.4272911192266683,-0.14580236609746455
590.1833333331252,-0.35627875,-1.0416443,-0.0013163721,-2.0431662,-0.2885154,1.9055423,1.1200842,0.0399867,0.03998599,-0.03663786035317251,-0.07290210258880103,-0.04914590498121818,0.30933736423746094,-0.45535093149177225,-0.19146275797671136,0.831817189740972,0.31783602957233464,0.4306181813487367,-0.1470659819571897
590.1999999997919,-0.35930225,-1.0438299,-0.0013278939,-2.0405056,-0.2909633,1.9083806,1.1229179,0.039986707,0.039986,-0.03546139202521559,-0.07379376752418842,-0.048735847108860586,0.3079652007178654,-0.4541152263469669,-0.19185114146676147,0.8290683178753415,0.3199217558704135,0.4339297181632075,-0.14832664666519732
590.2166666664585,-0.3623184,-1.0460103,-0.0013393868,-2.0378518,-0.29340518,1.9112121,1.1257452,0.039986715,0.03998601,-0.03959328270921603,-0.07367522477866872,-0.04579402649335096,0.3065562431659809,-0.4528153070492217,-0.19221550945617222,0.8263072943015141,0.32198675231798424,0.4372246645001529,-0.14958402143463229
590.2333333331252,-0.3653268,-1.048185,-0.0013508501,-2.035205,-0.29584086,1.9140363,1.128565,0.039986733,0.039986037,-0.041035134510769566,-0.0738037336105446,-0.0439147873242729,0.3051112799034923,-0.4514563685494927,-0.1925605214223622,0.8235348246519616,0.32403046307647376,0.44050255608898137,-0.15083815718505247
590.2499999997918,-0.36832714,-1.0503541,-0.0013622823,-2.0325649,-0.29827002,1.9168528,1.1313772,0.03998676,0.039986067,-0.041733690839951265,-0.07417803919327337,-0.04275518950570545,0.303630381893333,-0.45004138512993985,-0.19288252820211038,0.8207513083982269,0.32605281317326934,0.4437632756449422,-0.15208881606898922
590.2666666664585,-0.37131897,-1.0525173,-0.0013736816,-2.0299323,-0.30069238,1.9196615,1.1341817,0.03998678,0.039986093,-0.04348907611708697,-0.07427921136771154,-0.04054526642167655,0.3021145583406617,-0.4485663883950148,-0.19318122573858382,0.8179573857027006,0.32805355533093783,0.44700638760802586,-0.15333580614702533
590.2833333331251,-0.37430203,-1.054674,-0.0013850466,-2.0273073,-0.30310762,1.922462,1.1369778,0.039986808,0.039986122,-0.04501385223005805,-0.07415954101628319,-0.03843818969367918,0.30056449900366355,-0.44703310366533766,-0.1934566212429461,0.8151537433113584,0.33003237035606015,0.45023140969489045,-0.15457906393426032
590.2999999997918,-0.3772761,-1.0568244,-0.001396376,-2.02469,-0.30551544,1.9252534,1.139765,0.03998683,0.03998615,-0.04592690548466116,-0.07438591441011333,-0.03756052263574894,0.29898101334914856,-0.445443303485442,-0.19370872180080384,0.8123409038257094,0.33198916052559657,0.4534380478403559,-0.15581845216747106
590.3166666664584,-0.3802405,-1.0589681,-0.0014076689,-2.0220814,-0.3079156,1.9280362,1.1425437,0.039986864,0.03998619,-0.04842839088388118,-0.07421956811287655,-0.03424958750688489,0.2973646147840717,-0.44379526311012607,-0.19393610119445331,0.8095195452383965,0.33392373312560214,0.4566258802017493,-0.15705365918200945
590.3333333331251,-0.38319495,-1.0611045,-0.0014189231,-2.019482,-0.31030783,1.9308099,1.145313,0.039986894,0.039986223,-0.049958428296648094,-0.07402214123243267,-0.03229089809841934,0.2957153324530069,-0.4420912405178371,-0.19413957209078148,0.8066903984374727,0.33583581319708583,0.45979439087085866,-0.15828463528321307
590.3499999997917,-0.38613927,-1.0632337,-0.0014301378,-2.0168908,-0.3126918,1.9335738,1.1480728,0.039986927,0.039986264,-0.04952105637876514,-0.0742053388929742,-0.0315123086507052,0.29403491813030985,-0.4403326374605382,-0.19431941386634566,0.8038537931445134,0.33772534344962163,0.46294367159812555,-0.1595112176815778
590.3666666664584,-0.38907298,-1.0653551,-0.0014413116,-2.0143087,-0.3150672,1.9363277,1.1508226,0.039986953,0.039986294,-0.051979175911087694,-0.07378504344213166,-0.028612651295878422,0.29232226702950415,-0.438515829575822,-0.19447243608645748,0.8010106177840149,0.3395920840090283,0.4660729906164805,-0.16073323891929045
590.383333333125,-0.3919957,-1.0674684,-0.001452442,-2.0117366,-0.31743374,1.9390715,1.1535623,0.039986998,0.039986342,-0.053928201070352344,-0.07349259189405322,-0.026166782179237735,0.29057926291820346,-0.436644712128363,-0.19459983611304926,0.7981615194645871,0.34143589078193237,0.4691820059748561,-0.16195050664119517
590.3999999997917,-0.3949072,-1.0695741,-0.0014635298,-2.009174,-0.31979123,1.9418045,1.1562912,0.039987035,0.039986383,-0.05370308489345277,-0.07372193404882044,-0.026020770648771396,0.2888066387210259,-0.4347195186579652,-0.19470251907539646,0.7953069033668201,0.34325663706084053,0.4722707385209968,-0.16316298632837722
590.4166666664584,-0.397807,-1.0716714,-0.001474572,-2.0066216,-0.32213935,1.9445268,1.1590093,0.039987087,0.039986443,-0.055423504162899206,-0.07314481600636524,-0.022742152900878665,0.28700517324966934,-0.4327383838196772,-0.1947774730503675,0.79244750647146,0.34505415149077295,0.4753387622659658,-0.16437044476914878
590.433333333125,-0.40069485,-1.0737602,-0.0014855679,-2.0040803,-0.32447785,1.9472377,1.1617161,0.03998714,0.0399865,-0.05816921618504445,-0.07251838424000567,-0.020447189673722388,0.28517491360262304,-0.4307027679683719,-0.19482447169378966,0.789584194144874,0.34682835399814776,0.47838534845612973,-0.1655727984967119
590.4499999997917,-0.4035704,-1.07584,-0.0014965159,-2.001549,-0.32680643,1.9499371,1.1644112,0.039987195,0.03998656,-0.05694169674934635,-0.07252732126912242,-0.019347193585206313,0.2833163237836663,-0.42861693010978363,-0.19484514986269638,0.7867172848834629,0.34857909612872623,0.48141076914312725,-0.1667698976455134
590.4666666664583,-0.40643325,-1.0779105,-0.001507415,-1.9990294,-0.3291247,1.9526246,1.1670945,0.03998724,0.03998661,-0.06059592873075559,-0.0716063436266734,-0.015816363216325513,0.2814314011172688,-0.42647514145406923,-0.19483733951482246,0.7838478054475705,0.35030634896344104,0.4844141026534598,-0.1679614745153622
590.483333333125,-0.40928313,-1.0799716,-0.001518264,-1.9965209,-0.33143255,1.9553001,1.169766,0.039987292,0.039986666,-0.05992934194738453,-0.07133985881935256,-0.014626842902776271,0.2795193691828866,-0.42428536503046765,-0.19480322455391996,0.7809760279055167,0.35201012953890415,0.48739559146268346,-0.1691474207951936
590.4999999997916,-0.41211975,-1.0820234,-0.0015290612,-1.994024,-0.33372965,1.957963,1.1724246,0.03998735,0.039986733,-0.06137940080916948,-0.07108690265893447,-0.013361669321776404,0.27758121036479505,-0.42204108641625976,-0.19474073537616662,0.7781027388357606,0.35369014175535207,0.49035484499440835,-0.1703277353570953
590.5166666664583,-0.41494268,-1.0840652,-0.0015398058,-1.9915391,-0.33601573,1.960613,1.1750704,0.03998741,0.039986797,-0.06281127412348653,-0.07017229815580173,-0.010324300852737611,0.2756172441087362,-0.4197460543974506,-0.19464770679533994,0.7752286553076377,0.3553464591284851,0.49329143179660145,-0.17150215535327398
590.5333333331249,-0.41775158,-1.086097,-0.0015504959,-1.9890666,-0.33829054,1.9632498,1.1777034,0.039987482,0.039986875,-0.06401532134900911,-0.06964463235225038,-0.008492508883628513,0.27362956095099483,-0.41740149889072276,-0.19452684741707638,0.7723543963397895,0.35697910333751004,0.4962051040847303,-0.1726704981032036
590.5499999997916,-0.4205462,-1.0881189,-0.0015611304,-1.9866064,-0.3405538,1.9658731,1.1803225,0.039987553,0.03998695,-0.06401657446781783,-0.0693777278605423,-0.007436988677089751,0.2716161452048631,-0.4150061552252964,-0.19437702611745694,0.7694805051354817,0.3585877908345746,0.4990958934546932,-0.17383278637093952
590.5666666664582,-0.42332616,-1.0901301,-0.0015717092,-1.9841592,-0.3428052,1.9684829,1.182928,0.03998762,0.039987024,-0.06628296727644312,-0.06806544790364244,-0.0038049196133815855,0.26957994913147154,-0.4125616162967092,-0.19419532244632284,0.7666078373448311,0.3601726261232614,0.501963179735652,-0.17498876907569788
590.5833333331249,-0.42609122,-1.0921303,-0.0015822297,-1.9817251,-0.34504458,1.9710786,1.1855198,0.039987702,0.039987113,-0.06660713179607036,-0.06739549883612028,-0.0021921129194857336,0.26752225809216845,-0.4100700967759773,-0.19398478972250344,0.7637368585143265,0.36173378696300645,0.5048068903003019,-0.17613824633340888
590.5999999997915,-0.428841,-1.0941197,-0.0015926915,-1.9793041,-0.34727174,1.97366,1.1880972,0.039987788,0.039987203,-0.06711955078131382,-0.06692959226040074,-0.0009136515960794789,0.265440593461279,-0.4075285788577643,-0.19374428892027673,0.760868221815619,0.36327105713871094,0.507626883680388,-0.17728123149786426
590.6166666664582,-0.43157512,-1.0960978,-0.0016030929,-1.9768965,-0.34948626,1.9762272,1.1906599,0.03998787,0.03998729,-0.06787017677187812,-0.06614690581484561,0.001573747745020615,0.263337034052869,-0.40493880408100946,-0.19347161722376716,0.7580025622550395,0.36478430353088565,0.5104230726015672,-0.1784175284781646
590.6333333331248,-0.43429336,-1.0980647,-0.0016134331,-1.9745032,-0.35168794,1.9787792,1.1932075,0.03998796,0.039987385,-0.0699007813443675,-0.06500326579925719,0.0036950669574098427,0.26121447217492777,-0.40230206153416204,-0.1931674122134454,0.7551407241977026,0.36627371965841615,0.513194812685747,-0.17954702219251226
590.6499999997915,-0.4369954,-1.1000199,-0.0016237096,-1.9721241,-0.35387653,1.9813157,1.1957402,0.039988056,0.039987486,-0.07054920518538843,-0.06414966119495658,0.005594831454325266,0.25907113790654873,-0.3996216885244051,-0.1928321297454137,0.7522832610611467,0.36773948762769315,0.5159419586719876,-0.18066947624942373
590.6666666664581,-0.43968093,-1.1019629,-0.0016339233,-1.9697595,-0.35605177,1.9838368,1.1982576,0.039988153,0.039987586,-0.07127010079499563,-0.06290326597412355,0.00833214142931249,0.2569070075995937,-0.39689429291787404,-0.19246601946125255,0.749430885840759,0.36918154163655187,0.5186642622942976,-0.1817848169718977
590.6833333331248,-0.44234964,-1.1038941,-0.0016440714,-1.9674094,-0.35821354,1.986342,1.2007592,0.03998826,0.0399877,-0.07130813038966899,-0.06251932852728848,0.00897955591973032,0.2547245549371325,-0.394124557202409,-0.19207036179329318,0.7465840393550081,0.3705998719062295,0.5213618383938465,-0.18289297578101463
590.6999999997914,-0.44500127,-1.105813,-0.001654154,-1.9650748,-0.36036158,1.9888312,1.2032449,0.039988354,0.0399878,-0.07326906586127002,-0.06096619522851787,0.012108595241877573,0.25252240585321606,-0.3913097985966303,-0.1916412830721949,0.7437435525929479,0.37199461181702825,0.5240341775509417,-0.18399379748792524
590.7166666664581,-0.4476354,-1.1077193,-0.0016641691,-1.9627551,-0.36249542,1.9913042,1.2057137,0.03998846,0.039987907,-0.07268548915670969,-0.06037204538789087,0.013605626662605008,0.25030234815683317,-0.38845462587635315,-0.1911823308450542,0.7409100516304858,0.37336544945905853,0.5266813587296373,-0.18508723054238285
590.7333333331247,-0.45025188,-1.1096128,-0.0016741162,-1.960451,-0.36461496,1.9937606,1.2081661,0.039988562,0.03998802,-0.07409801859972198,-0.05901048089943517,0.01576579841198189,0.24806771682335854,-0.38555602662453237,-0.19068799785420193,0.7380841178912918,0.3747128111185681,0.529303071686293,-0.18617304424569334
590.7499999997914,-0.45285052,-1.1114932,-0.0016839935,-1.9581625,-0.36672002,1.9962,1.2106019,0.039988674,0.039988134,-0.07459779050438264,-0.05775679092709929,0.017595256524383096,0.24581506463399672,-0.3826171578173734,-0.1901617187443249,0.7352663357591183,0.3760369247756783,0.5318991054592209,-0.1872511370226922
590.766666666458,-0.4554309,-1.1133608,-0.0016938011,-1.9558907,-0.36881033,1.9986224,1.2130207,0.039988782,0.03998825,-0.07573536938307868,-0.05680085703685389,0.019632559272286798,0.24354631732341359,-0.37963651846805496,-0.18960391475993843,0.7324574003590474,0.37733767705055943,0.5344693507680319,-0.1883213934393874
590.7833333331247,-0.45799264,-1.1152151,-0.0017035371,-1.9536345,-0.3708857,2.001027,1.2154214,0.039988905,0.03998838,-0.07512443531134672,-0.05596647538698152,0.02063703372929826,0.24126142579823912,-0.37661720126757847,-0.18901464632834875,0.7296579305612828,0.3786149721381059,0.5370137410731056,-0.18938386716020758
590.7999999997913,-0.4605356,-1.1170557,-0.0017132004,-1.9513952,-0.37294593,2.0034144,1.2178053,0.039989017,0.0399885,-0.0767401403810819,-0.05414677548262192,0.02389794687390756,0.2389633627710124,-0.3735595737391234,-0.18838908707505053,0.7268684586235864,0.3798693584244057,0.5395320460779903,-0.1904381412514297
590.816666666458,-0.4630594,-1.1188824,-0.0017227907,-1.9491724,-0.3749907,2.0057836,1.220171,0.03998913,0.039988615,-0.07680823479039312,-0.0532094673666994,0.025142228272823086,0.23664866958264769,-0.3704628998912348,-0.1877324597774372,0.7240897333338033,0.3811006621172543,0.5420240919447514,-0.19148427393872214
590.8333333331246,-0.46556395,-1.1206951,-0.001732305,-1.9469666,-0.37701988,2.0081344,1.2225184,0.03998925,0.039988745,-0.07769278165694615,-0.05166395016718006,0.027222620837441536,0.23432191719352236,-0.3673295922944062,-0.18704312056882666,0.7213223784181949,0.38230912389515836,0.5444896312655741,-0.19252221072882475
590.8499999997913,-0.46804887,-1.1224935,-0.0017417442,-1.9447782,-0.37903315,2.010467,1.2248474,0.039989367,0.039988868,-0.07783136305690164,-0.05052579438815652,0.02929938610239935,0.2319809120921739,-0.3641627979775043,-0.18632197482061158,0.718566945491137,0.3834947391819373,0.5469287385028827,-0.19355176275859814
590.866666666458,-0.47051388,-1.1242776,-0.0017511065,-1.9426069,-0.38103035,2.0127811,1.227158,0.039989483,0.039988987,-0.07774683135286509,-0.049503353502700076,0.030358504589811375,0.2296276634556599,-0.36095977030105353,-0.1855659142555714,0.7158238735383795,0.384657764844892,0.5493414430151516,-0.19457277559584898
590.8833333331246,-0.47295874,-1.1260474,-0.0017603909,-1.9404529,-0.38301137,2.0150762,1.2294489,0.039989613,0.039989125,-0.0780283380248381,-0.048306988173396626,0.03163004394941549,0.2272631259712506,-0.3577202633964178,-0.18477679992318813,0.7130938646321492,0.3857981004574071,0.5517275702762494,-0.19558541383372283
590.8999999997912,-0.47538322,-1.1278023,-0.0017695973,-1.9383173,-0.38497576,2.0173523,1.2317216,0.03998974,0.03998926,-0.0796998688206152,-0.046284940865704005,0.035167470337027495,0.224887881194757,-0.3544479913121228,-0.1839514097391931,0.7103774962802373,0.3869164037215565,0.5540868636322807,-0.19658905579899774
590.9166666664579,-0.47778705,-1.1295422,-0.0017787247,-1.9361998,-0.38692352,2.0196087,1.2339752,0.039989866,0.039989393,-0.07972252166581484,-0.045101650662082715,0.03595946370461567,0.22250134275923256,-0.3511413293932504,-0.18309647472483054,0.7076754345802669,0.3880127071273059,0.5564191162236769,-0.19758386953451532
590.9333333331246,-0.48017,-1.1312677,-0.0017877717,-1.9341007,-0.38885444,2.0218458,1.2362086,0.039989993,0.039989527,-0.07935644246406248,-0.04424082471585766,0.036942351798130435,0.22010395652045334,-0.3478043866814051,-0.1822099759953668,0.7049881259657782,0.3890867755885891,0.5587246089216116,-0.19856997430308299
590.9499999997912,-0.48253182,-1.132978,-0.0017967373,-1.93202,-0.39076823,2.024063,1.2384223,0.039990116,0.039989658,-0.07943456740897581,-0.04271388222281125,0.03891356569494242,0.21769779738839878,-0.3444357816779294,-0.18128663228190126,0.7023160655336229,0.39013906327107495,0.561003250802322,-0.19954700697471484
590.9666666664579,-0.4848723,-1.1346728,-0.0018056206,-1.9299581,-0.39266485,2.0262604,1.2406161,0.039990246,0.039989796,-0.0806011266158091,-0.040706075224550275,0.04136308960265289,0.21528260276584815,-0.34103414753964834,-0.18032984218873493,0.699659989808871,0.3911698168910469,0.5632546613181594,-0.20051498576775034
590.9833333331245,-0.48719114,-1.1363518,-0.0018144207,-1.9279153,-0.39454406,2.0284374,1.2427896,0.039990377,0.03998993,-0.080762885939345,-0.03930549292311403,0.043107479966009166,0.21285704878987666,-0.33760498540229167,-0.17934065087787854,0.6970205097219309,0.3921791373453741,0.5654787726868983,-0.20147379705196652
590.9999999997912,-0.48948818,-1.1380154,-0.001823137,-1.9258918,-0.39640573,2.030594,1.2449428,0.039990507,0.039990067,-0.0804055414173721,-0.03824403289773848,0.04385814529940246,0.21042541541609766,-0.3341487189926001,-0.17831829461287751,0.6943979389761036,0.3931672271884606,0.5676757989199384,-0.20242337101057964
591.0166666664578,-0.49176323,-1.1396629,-0.0018317684,-1.9238877,-0.39824936,2.0327299,1.2470748,0.039990634,0.0399902,-0.08154261269930352,-0.03624311453543916,0.046444939535816854,0.20798561870749188,-0.330664089755761,-0.17726284412624543,0.6917932274316847,0.3941342446358083,0.5698452123570069,-0.2033636192607025
591.0333333331245,-0.49401605,-1.1412944,-0.0018403145,-1.9219028,-0.40007517,2.0348446,1.2491868,0.03999077,0.039990347,-0.08026452731617617,-0.03533006513475323,0.04663050272583069,0.20553979372729875,-0.32715702573280514,-0.17617628562807958,0.6892063134006697,0.3950807196062462,0.5719875182365882,-0.20429430130480203
591.0499999997911,-0.49624637,-1.1429095,-0.0018487746,-1.9199377,-0.4018829,2.0369382,1.2512774,0.039990902,0.039990485,-0.08155356531092117,-0.03328967870933619,0.04929647994826314,0.2030854551526467,-0.32362023194125267,-0.17505797281989338,0.6866381734752268,0.3960065885451733,0.5741022452626221,-0.20521552704372564
591.0666666664578,-0.49845415,-1.1445082,-0.001857147,-1.9179927,-0.40367225,2.0390105,1.2533467,0.03999103,0.03999062,-0.08138561971708924,-0.031842791316138985,0.05062006095610805,0.20062534961099682,-0.3200613666196416,-0.17390772890614653,0.6840892353816828,0.3969120673496286,0.5761894583086821,-0.20612723488441803
591.0833333331244,-0.500639,-1.1460905,-0.0018654318,-1.916068,-0.40544307,2.041062,1.2553945,0.039991166,0.03999076,-0.08093576193326513,-0.030667875270085077,0.05201970449952298,0.19815901677847148,-0.31648064240017526,-0.1727244613217772,0.6815598363574803,0.3977972295267998,0.578249466138988,-0.2070292456517741
591.0999999997911,-0.5028009,-1.1476564,-0.0018736282,-1.9141634,-0.40719527,2.0430918,1.2574207,0.039991315,0.039990917,-0.08113450893652008,-0.029277601830612898,0.05247051737005681,0.1956897757573881,-0.3128747842976739,-0.1715078550632445,0.679050471431258,0.3986625623248712,0.5802820594214235,-0.20792150000225115
591.1166666664577,-0.50493944,-1.1492056,-0.0018817355,-1.9122791,-0.40892872,2.0450993,1.259425,0.039991446,0.039991055,-0.08149863906616872,-0.027388637184111442,0.05457333764191663,0.19321567258985578,-0.30924731269823724,-0.1702601543375817,0.6765617892993052,0.39950827779750275,0.5822870425735238,-0.20880393023689708
591.1333333331244,-0.50705457,-1.1507378,-0.0018897533,-1.9104155,-0.41064316,2.0470853,1.2614075,0.03999158,0.039991196,-0.08091764796573919,-0.02604587274247505,0.05605243032005269,0.19073678032581737,-0.30560091661856104,-0.1689825164471471,0.6740940826019641,0.40033445354593816,0.5842647402310642,-0.2096764326952802
591.149999999791,-0.50914615,-1.1522523,-0.0018976801,-1.9085724,-0.41233853,2.0490487,1.2633678,0.039991714,0.039991334,-0.08157336981575725,-0.023795716540309098,0.05796550023548508,0.18825456202950547,-0.30193324528399335,-0.1676721493994332,0.6716481182147339,0.4011415783357153,0.5862146105756737,-0.2105389982320358
591.1666666664577,-0.51121396,-1.1537508,-0.0019055163,-1.9067503,-0.41401473,2.0509899,1.265306,0.03999185,0.039991476,-0.08051154412198613,-0.023905342872321267,0.0566398271790558,0.18576949547418928,-0.29824915897985044,-0.1663331077457813,0.6692237486286323,0.40192975843654766,0.5881374707918374,-0.21139148281129996
591.1833333331243,-0.51325774,-1.1552311,-0.0019132607,-1.9049493,-0.4156714,2.0529087,1.2672216,0.03999198,0.039991613,-0.08157923304366044,-0.02054169234820824,0.061400709544795484,0.1832815893506446,-0.2945427706610113,-0.16496182614947402,0.6668221373960294,0.40269917913055614,0.5900325445868239,-0.21223384398951284
591.199999999791,-0.51527745,-1.1566935,-0.0019209122,-1.9031694,-0.41730875,2.054805,1.2691144,0.03999212,0.03999176,-0.08093825926440701,-0.01922367501123734,0.061859166454580894,0.18079186058767527,-0.2908224847021422,-0.16356126048600506,0.6644435076381642,0.4034500951483611,0.5919000288718517,-0.21306619089797477
591.2166666664576,-0.517273,-1.1581395,-0.0019284703,-1.9014109,-0.41892633,2.0566788,1.2709846,0.039992254,0.0399919,-0.08022357457098117,-0.019416717859044308,0.06010064889850897,0.17830152272314115,-0.287089805462315,-0.1621319068096691,0.6620877510264936,0.40418284949760247,0.5937405693358165,-0.21388821949200193
591.2333333331243,-0.5192439,-1.1595675,-0.0019359353,-1.8996743,-0.42052424,2.0585291,1.272832,0.03999239,0.039992042,-0.08168919147522047,-0.016058609661229184,0.0644004234060025,0.17580951481752408,-0.2833351761387531,-0.16067115018082018,0.6597560522346798,0.4048977366313479,0.5955532836922515,-0.21469993175103436
591.2499999997909,-0.5211902,-1.1609775,-0.0019433061,-1.8979591,-0.42210233,2.060356,1.2746564,0.039992526,0.039992187,-0.08079934769895658,-0.014843745811810027,0.06461615068074633,0.17331735974690374,-0.27957269166333865,-0.1591847857231235,0.657448597824909,0.40559510337054555,0.5973383739888192,-0.21550132319846918
591.2666666664576,-0.52311206,-1.16237,-0.0019505828,-1.8962656,-0.42366037,2.0621595,1.2764578,0.039992668,0.039992332,-0.07999835265906086,-0.0139778919808764,0.06474829080758693,0.17082294523407326,-0.27579863629356133,-0.15767190923907437,0.6551654510007644,0.40627514843631063,0.5990962956269189,-0.2162923118007717
591.2833333331242,-0.52500904,-1.1637446,-0.0019577642,-1.8945938,-0.42519832,2.06394,1.2782356,0.03999281,0.03999248,-0.07963851726717763,-0.012375553175636433,0.06618594571825565,0.16832937139769966,-0.2720098412308614,-0.15613077153180016,0.652907140657197,0.4069378874177896,0.6008270539741052,-0.21707296624772843
591.2999999997909,-0.52688074,-1.165101,-0.00196485,-1.892944,-0.42671597,2.0656977,1.2799902,0.039992943,0.03999262,-0.07939853815859266,-0.010869746092012633,0.0677759570606451,0.16583607081278695,-0.2682099645752026,-0.15455938224315952,0.650673993345199,0.4075836125411226,0.6025308360055569,-0.21784293615948291
591.3166666664575,-0.5287276,-1.166439,-0.0019718395,-1.891316,-0.42821336,2.0674317,1.2817212,0.039993085,0.03999277,-0.07955658576199731,-0.008771068714930053,0.06876688533163366,0.1633469900547964,-0.2643988447494871,-0.15296183269605612,0.648466495305981,0.40821280430863244,0.604207297739754,-0.21860249820641214
591.3333333331242,-0.53054917,-1.1677592,-0.0019787326,-1.8897105,-0.42969033,2.0691419,1.2834285,0.039993227,0.039992917,-0.07956138566487247,-0.007842195778962058,0.06904094360420943,0.16085838598430233,-0.26057895077601906,-0.151338295623713,0.6462849942510603,0.40882564167034957,0.6058566039874973,-0.21935149036072418
591.3499999997908,-0.53234535,-1.169061,-0.0019855297,-1.8881272,-0.43114686,2.0708277,1.2851121,0.039993364,0.03999306,-0.07925390609067051,-0.006064606026767727,0.07020617212323277,0.15837115227753168,-0.25675148735692754,-0.14968829867255667,0.6441298986167086,0.40942252130518114,0.6074786631874963,-0.22008986012097392
591.3666666664575,-0.5341162,-1.1703444,-0.0019922294,-1.8865663,-0.4325828,2.0724902,1.2867719,0.039993502,0.039993204,-0.07831638851349965,-0.0048477041824757094,0.07108859682699031,0.15588714190898767,-0.2529186487047981,-0.14801539318953721,0.642001308640876,0.4100035064226236,0.6090739045010384,-0.22081762447870054
591.3833333331241,-0.5358615,-1.1716093,-0.0019988324,-1.885028,-0.43399805,2.0741284,1.2884078,0.039993633,0.039993342,-0.07887499960448352,-0.0030526024079491343,0.07219731067756863,0.15340616020262773,-0.24907849506142204,-0.1463165417592415,0.6398997961270642,0.4105690724722969,0.6106420262294541,-0.22153465518551818
591.3999999997908,-0.5375811,-1.1728555,-0.0020053368,-1.8835123,-0.4353926,2.0757432,1.2900195,0.039993763,0.039993476,-0.07752127057480962,-0.001878236954416801,0.07308124123621695,0.15092786578464976,-0.24523499380208702,-0.14459545786710276,0.6378254874133013,0.41111913995869365,0.6121834843742944,-0.22224104442014528
591.4166666664574,-0.53927505,-1.174083,-0.0020117438,-1.882019,-0.43676642,2.0773332,1.2916075,0.039993905,0.039993625,-0.0780188992678621,-0.0001359303990366989,0.07346117479593017,0.1484557143850489,-0.24138612146911942,-0.1428484955516682,0.6357787647931739,0.41165452862961927,0.6136979454617721,-0.22293663456864043
591.4333333331241,-0.54094326,-1.175292,-0.002018052,-1.8805482,-0.43811935,2.0788994,1.2931713,0.03999404,0.039993763,-0.0764523605595091,0.0004375277433854574,0.07348199050908333,0.14598494482606142,-0.23753665287611553,-0.14108307054110258,0.633759634148643,0.41217508039426853,0.6151860404655343,-0.22362147670135396
591.4499999997907,-0.5425856,-1.1764824,-0.0020242622,-1.8790998,-0.43945134,2.080441,1.294711,0.03999418,0.039993912,-0.07648363989503082,0.0020016751829055046,0.07417649289348516,0.14352043178509205,-0.23368189874142703,-0.1392932920945953,0.6317684704470734,0.41268126911426034,0.6166476441345838,-0.22429545883605456
591.4666666664574,-0.54420215,-1.1776539,-0.0020303736,-1.8776745,-0.44076228,2.081958,1.2962253,0.039994314,0.03999405,-0.07693867867648585,0.004102335088379538,0.07599959071584172,0.14106040352473495,-0.22982339611728803,-0.13748160064995704,0.6298060229944765,0.41317304674988875,0.6180824083823426,-0.2249589813445512
591.483333333124,-0.5457927,-1.1788067,-0.0020363864,-1.8762721,-0.44205227,2.083451,1.2977157,0.039994452,0.039994195,-0.07587060700817716,0.004926926728798797,0.07602216970566955,0.1386065525877463,-0.22597314734253166,-0.1356498164975473,0.6278720135849715,0.4136509653693228,0.6194909328531891,-0.2256116076767025
591.4999999997907,-0.54735726,-1.1799409,-0.0020422994,-1.8748931,-0.44332114,2.0849202,1.2991824,0.039994586,0.039994333,-0.07553191164841877,0.006039959376197279,0.07648620530776307,0.13615803180174751,-0.22212028173127302,-0.13379731653325772,0.6259665412802274,0.4141153594919391,0.6208734715922974,-0.22625315578674263
591.5166666664574,-0.54889584,-1.1810563,-0.0020481134,-1.8735368,-0.44456893,2.086364,1.3006243,0.039994713,0.039994463,-0.0754093300759262,0.007800041812894287,0.07692597983690597,0.13371632293322816,-0.2182653000830585,-0.131926453068838,0.6240902993405918,0.41456645126648023,0.6222295342101556,-0.22688402876778335
591.533333333124,-0.5504079,-1.1821527,-0.0020538277,-1.8722035,-0.44579554,2.0877836,1.3020415,0.039994843,0.0399946,-0.07425210196339016,0.008487920404631755,0.07751173447460014,0.13128185631748335,-0.21441735897802927,-0.13003849721566987,0.6222432907298802,0.4150042191634994,0.6235597401527844,-0.22750392453480078
591.5499999997907,-0.5518937,-1.18323,-0.0020594439,-1.8708934,-0.44700092,2.0891786,1.3034343,0.039994974,0.039994735,-0.07453500841725358,0.01051587349213956,0.07883499838574615,0.1288559433655137,-0.21057138719428775,-0.12813150719867378,0.6204258936527235,0.4154291367585373,0.624863851702921,-0.22811293179534078
591.5666666664573,-0.55335337,-1.1842883,-0.0020649605,-1.8696064,-0.4481852,2.090549,1.3048025,0.0399951,0.03999487,-0.07373024738184242,0.011517139802452725,0.07872212566212844,0.12643960966265455,-0.20673372230439752,-0.12621031261388463,0.6186381284818318,0.4158415172106863,0.6261421039775711,-0.22871109325730515
591.583333333124,-0.5547873,-1.1853276,-0.0020703776,-1.8683428,-0.4493483,2.0918953,1.3061465,0.03999522,0.039994992,-0.07305096757823648,0.012523172374151459,0.07876137015273565,0.12403005890884179,-0.20290196300326974,-0.12427373265159955,0.6168799361652655,0.416241666392693,0.6273947933938943,-0.22929847957979274
591.5999999997906,-0.556195,-1.1863483,-0.0020756945,-1.867102,-0.45049015,2.093217,1.3074658,0.03999534,0.039995115,-0.07232513220722936,0.01323991025704574,0.07841562251336698,0.12162779109423486,-0.19907534915914382,-0.12232065714196128,0.6151515837209413,0.41662974526045865,0.6286220309772492,-0.22987502382786498
591.6166666664573,-0.55757636,-1.18735,-0.0020809118,-1.8658842,-0.45161074,2.094514,1.3087605,0.039995465,0.03999525,-0.07171059416797299,0.014494854363428233,0.07924486418794396,0.119235816709647,-0.19525647827966278,-0.12035385135243859,0.613453258517889,0.41700592988373425,0.6298239990960299,-0.23044063057167338
591.6333333331239,-0.5589316,-1.1883326,-0.0020860299,-1.8646894,-0.45271,2.095786,1.3100308,0.03999559,0.039995376,-0.07162976457935066,0.016093859174487468,0.08001063782904216,0.11685368253395151,-0.19144528011115358,-0.11837232600565309,0.6117851850967283,0.4173706846173463,0.6310006034950193,-0.23099531879917146
591.6499999997906,-0.56026065,-1.1892964,-0.0020910492,-1.8635175,-0.45378822,2.0970337,1.3112767,0.039995722,0.039995514,-0.07067060408432191,0.016612890544320802,0.07929932900739844,0.11448146418389393,-0.18764416727944538,-0.11638021411941343,0.6101472608230167,0.4177241552539677,0.632152228925831,-0.23153921847417674
591.6666666664572,-0.5615637,-1.1902411,-0.002095969,-1.8623686,-0.45484522,2.0982568,1.3124975,0.039995853,0.03999565,-0.07015915143369078,0.017969569295811505,0.0800762928260812,0.11212044225747586,-0.18385294844861438,-0.114375948962286,0.6085398093928406,0.4180664507956226,0.633278853670403,-0.23207248134403316
591.6833333331239,-0.56284046,-1.191167,-0.00210079,-1.8612428,-0.45588103,2.0994556,1.3136939,0.039995976,0.03999578,-0.06968379890714971,0.018807974596496413,0.08023444365881094,0.10976910856836311,-0.180075664699559,-0.11236057952935467,0.6069628096232598,0.4183978778011866,0.6343807852558336,-0.23259489006402032
591.6999999997905,-0.56409115,-1.1920738,-0.0021055117,-1.8601402,-0.45689577,2.1006293,1.3148662,0.0399961,0.039995905,-0.06994826873238935,0.02049761309660947,0.0809462916878334,0.10743018348351152,-0.17630958944338043,-0.11033377190988652,0.6054165370571241,0.41871903136024574,0.6354577777645344,-0.23310641800057158
591.7166666664572,-0.5653157,-1.1929618,-0.002110135,-1.8590605,-0.4578893,2.1017785,1.3160137,0.039996218,0.03999603,-0.06851779698573424,0.02073417132871236,0.08032064101076708,0.10510335174250657,-0.1725596319122667,-0.10830284778966184,0.6039009728793814,0.41902975477679794,0.636510283191532,-0.23360723224778168
591.7333333331238,-0.56651425,-1.1938311,-0.0021146594,-1.8580035,-0.45886183,2.1029038,1.3171372,0.039996337,0.039996155,-0.06708843727594171,0.02121717923148636,0.07989074621400638,0.10278839080764557,-0.16882585325532656,-0.10626377484747859,0.602415738229617,0.41933033814611465,0.6375388903099258,-0.23409722165356647
591.7499999997905,-0.56768703,-1.1946815,-0.0021190858,-1.8569695,-0.4598134,2.1040049,1.3182362,0.039996453,0.039996274,-0.06749128574612406,0.02282537852696942,0.0806290843759161,0.10048668609780477,-0.16510381406077473,-0.10421584855037164,0.6009612622245522,0.41962107069885074,0.6385432669219476,-0.2345766710473779
591.7666666664571,-0.5688338,-1.1955134,-0.0021234145,-1.8559582,-0.46074393,2.105082,1.3193111,0.03999658,0.039996404,-0.06624316548258236,0.023057295918860188,0.0801711846242753,0.09819780107214574,-0.16139877270303205,-0.10216064401321923,0.5995373398250449,0.41990207868002427,0.6395239678657696,-0.23504535094514298
