rsonawane2002/My_IMU/logs_2/traj_452/clean_452.csv
time,j1,j2,j3,j4,j5,j6,j7,gripper1,gripper2,imu_ax,imu_ay,imu_az,imu_gx,imu_gy,imu_gz,quat_x,quat_y,quat_z,quat_w
2222.083333334016,0.00016700293,-0.785875,4.0107683e-05,-2.3551247,9.29385e-05,1.570997,0.786,0.04,0.04,0.0,-0.0,0.0,2.875329272945135e-08,-0.0011641195053377316,4.421952117202833e-08,0.9999995971961153,0.00020320632366974898,0.0008736418299892524,3.263050917662294e-05
2222.100000000683,0.00016701403,-0.78576016,4.0114697e-05,-2.3552213,9.297796e-05,1.5709941,0.786,0.04,0.04,-0.2919984598423131,-4.745902043803052e-05,0.02012840527274573,-1.0012611609572846e-06,-0.002238655028816081,3.0511159764697576e-07,0.9999996850595605,0.00020320303548650547,0.0007665025178784528,3.260669231875179e-05
2222.11666666735,0.00016708265,-0.7856541,4.012182e-05,-2.35531,9.3041424e-05,1.5709913,0.786,0.04,0.04,0.023131101027584755,-8.178393286491876e-05,-0.0015688782487144337,-8.307981921516053e-06,-0.0032284493520842463,1.8642318111983783e-06,0.9999997559126347,0.00020317056749094147,0.0006677078390692716,3.259805353205629e-05
2222.1333333340167,0.0001673046,-0.7855565,4.013047e-05,-2.355391,9.317349e-05,1.5709884,0.786,0.04,0.04,0.022263115154608215,-0.00022263814276304492,-0.0014235047049115934,-2.7921415690146285e-05,-0.004140166853239548,5.919607228295192e-06,0.9999998124268704,0.0002030605070481404,0.0005769299605536128,3.262629115484625e-05
2222.1500000006836,0.00016781811,-0.78546625,4.0142808e-05,-2.3554645,9.343982e-05,1.5709856,0.786,0.04,0.04,0.021141774033051064,-0.00042696303491656555,-0.0008352355818974644,-6.50517606788664e-05,-0.0049799893273011235,1.3544287667265135e-05,0.9999998570488544,0.00020280300578865004,0.0004936622299425538,3.2723300172050226e-05
2222.1666666673505,0.00016879947,-0.7853826,4.016159e-05,-2.3555312,9.393089e-05,1.5709827,0.7859981,0.04,0.039999995,0.018663117326767065,-0.0006924569608639122,-0.0008105996867735499,-0.00012548528604715249,-0.005749875950513713,2.6474673991718425e-05,0.9999998922243908,0.00020135530964182112,0.0004170403922839463,3.293261734578762e-05
2222.1833333340173,0.00017045936,-0.7853049,4.0190567e-05,-2.3555913,9.473269e-05,1.5709825,0.7859962,0.04,0.039999995,0.018703697035959976,-0.0009942656584997398,0.0015580394166825329,-0.00020545242652458937,-0.0064592282141030756,4.403332116385902e-05,0.9999999189743759,0.00019956448728320692,0.0003480180716078674,3.329682978823765e-05
2222.200000000684,0.00017303898,-0.7852323,4.023383e-05,-2.3556485,9.594757e-05,1.5709826,0.7859933,0.04,0.04,0.010643894598705295,-0.0013412390290325421,-0.0013888201678691203,-0.00031825408241575783,-0.007099986424165621,6.704023680031594e-05,0.9999999399690433,0.00019680197483654967,0.00028316799502428873,3.386412536971771e-05
2222.216666667351,0.00017680677,-0.78516394,4.0295905e-05,-2.3556986,9.770453e-05,1.570983,0.78598946,0.04,0.04,0.01694860290573086,-0.0017401530785637995,0.0010438517198618769,-0.00046410929325285287,-0.007701904594610282,9.714005595798503e-05,0.9999999556448432,0.0001929914603885918,0.00022418886355266652,3.469814203793379e-05
2222.233333334018,0.0001820554,-0.7850992,4.0381747e-05,-2.3557417,0.00010014181,1.5709836,0.78598374,0.04,0.04,0.015808019394292216,-0.002172573442982338,0.0011034649600061286,-0.000647447266912411,-0.008252792536647787,0.0001352971183681756,0.9999999672400983,0.0001874782740143182,0.00017054422148854464,3.5865964869878544e-05
2222.250000000685,0.00018909914,-0.7850372,4.04967e-05,-2.3557792,0.00010340818,1.5709844,0.7859761,0.04,0.04,0.012793156618662316,-0.002637130768735343,0.0010811334321791932,-0.0008681499871175168,-0.008753647634013267,0.00018247195237077398,0.999999975736877,0.00018010348350614618,0.00012119095404991434,3.7439728175491535e-05
2222.2666666673517,0.0001982713,-0.78497744,4.064676e-05,-2.3558135,0.00010765254,1.5709852,0.7859663,0.04,0.04,0.0077429329232270305,-0.0031233939618857147,0.00021332205861757103,-0.001129784766026667,-0.0092172668313962,0.00023744461902727062,0.9999999818978519,0.00017054945051434332,7.454950941760866e-05,3.949115439721776e-05
2222.2833333340186,0.00020992171,-0.78491867,4.0837822e-05,-2.3558407,0.00011303413,1.5709862,0.7859529,0.04,0.04,0.013312353078487327,-0.003636618178432682,0.002707746256613852,-0.0014346920569833393,-0.009656975582248315,0.0003014509290699233,0.9999999861208618,0.00015798347055625886,3.2050388923624636e-05,4.209835745112231e-05
2222.3000000006855,0.00022441467,-0.7848608,4.1076346e-05,-2.355861,0.00011971096,1.5709871,0.78593695,0.04,0.04,0.012736937660973169,-0.00416489748090825,0.0025826281025764786,-0.0017804211588323177,-0.010060625203080091,0.00037408521619421625,0.9999999887737062,0.00014266820549532736,-6.544879673895886e-06,4.533801087315742e-05
2222.3166666673524,0.000242127,-0.78480285,4.136874e-05,-2.3558764,0.00012786566,1.5709887,0.7859174,0.039999995,0.04,0.008224764454300981,-0.004725290329274824,0.002606733177512588,-0.002174554007296257,-0.010429674826741122,0.00045728674709692436,0.9999999902020977,0.00012393632684662,-4.248801493706833e-05,4.9298681471729356e-05
2222.3333333340192,0.0002634462,-0.7847439,4.1721843e-05,-2.3558877,0.00013767477,1.5709931,0.7858938,0.03999999,0.039999995,0.007077052707060716,-0.005294174347980519,0.004621860018705348,-0.002616062028549297,-0.010775746996864819,0.0005505123733693623,0.9999999905624511,0.00010135342588974,-7.536181234627958e-05,5.406642170087081e-05
2222.350000000686,0.00028876908,-0.78468347,4.214267e-05,-2.3558915,0.00014931441,1.5709977,0.78586584,0.039999988,0.039999995,0.010985115913708654,-0.005873096556425846,0.004329141190329011,-0.0031052005647243027,-0.011095811280734294,0.000653160029224111,0.9999999899060698,7.456953281327235e-05,-0.00010516630336542594,5.972682585715925e-05
2222.366666667353,0.00031849951,-0.7846209,4.2638156e-05,-2.3558881,0.00016297335,1.5710025,0.7858328,0.039999984,0.039999995,0.009816728312439515,-0.006469304212451937,0.0045055808150396,-0.0036440484070369584,-0.011389592729186384,0.0007662781525672717,0.9999999881059654,4.302271017013265e-05,-0.00013240814770699159,6.637166732638255e-05
2222.38333333402,0.00035304765,-0.7845558,4.3215397e-05,-2.3558786,0.00017883981,1.5710073,0.7857946,0.03999998,0.03999999,0.007762504453423524,-0.0070721589748202794,0.00419160541236252,-0.004231858926995357,-0.011661266180888141,0.0008908922284753676,0.9999999847835562,6.445911738313195e-06,-0.00015780263744722347,7.409227606979481e-05
2222.4000000006868,0.00039282872,-0.78448725,4.388173e-05,-2.3558626,0.00019710277,1.5710155,0.7857507,0.039999973,0.039999984,0.00820682113447102,-0.007682994269796325,0.007414989580145637,-0.0048708370510027925,-0.011918600939770421,0.0010262744705522276,0.9999999797257966,-3.563903343327999e-05,-0.00017997888803463738,8.298111440021789e-05
2222.4166666673536,0.0004382615,-0.78441465,4.464449e-05,-2.3558397,0.00021795406,1.5710241,0.78570056,0.039999966,0.039999977,0.007375882856885951,-0.008298679124400951,0.005656161684219896,-0.005561186248531153,-0.012148386912629655,0.0011725253827744244,0.9999999720525355,-8.368252601995328e-05,-0.00020054624632379877,9.313090813448791e-05
2222.4333333340205,0.0004897671,-0.7843373,4.551098e-05,-2.3558097,0.00024158544,1.5710326,0.78564364,0.03999996,0.039999977,0.006875973557929349,-0.00891780238064428,0.005900810522208033,-0.006303059133531561,-0.012366303716811458,0.001328871103576747,0.9999999607939231,-0.00013819564302065682,-0.0002199219567063867,0.00010463483931068316
2222.4500000006874,0.00054776855,-0.7842547,4.648846e-05,-2.355772,0.00026819127,1.5710448,0.7855797,0.039999954,0.03999997,0.00835540475028207,-0.009542567151372187,0.009015736236173133,-0.007095719851395447,-0.012575695993640962,0.0014970688175080318,0.9999999452680847,-0.00019951132288030182,-0.00023628810411305715,0.00011758822863068234
2222.4666666673543,0.0006126894,-0.78416634,4.7584603e-05,-2.3557267,0.00029796484,1.5710572,0.7855081,0.03999995,0.039999966,0.006572684324002154,-0.010165977125008576,0.006897575851882998,-0.007940585179777722,-0.01275947490759581,0.001676290282018647,0.9999999236650619,-0.00026814211382342065,-0.00025164144826105386,0.00013208428677602342
2222.483333334021,0.0006849534,-0.7840714,4.8806665e-05,-2.3556736,0.00033109906,1.5710704,0.78542846,0.039999947,0.039999966,0.00637388707813713,-0.010790561215856623,0.007851907080524967,-0.008837094580684546,-0.012937580761712225,0.001865693067153053,0.999999894314641,-0.000344510840369504,-0.0002659223935183593,0.00014821696366774164
2222.500000000688,0.0007649832,-0.78396964,5.0161994e-05,-2.355612,0.00036778775,1.5710865,0.7853402,0.039999947,0.039999966,0.0075598069636306775,-0.011416099399453447,0.009709534136104203,-0.009785189870888729,-0.013108300265262475,0.0020669714655431833,0.9999998554910525,-0.0004291291460085899,-0.0002779984422012475,0.0001660810537604391
2222.516666667355,0.0008531999,-0.7838604,5.1657906e-05,-2.3555417,0.00040822284,1.5711027,0.7852429,0.039999947,0.03999997,0.006709364647461413,-0.012037282329662898,0.008282328591957544,-0.010784231840386738,-0.013260884330086688,0.002278380323138851,0.9999998044351643,-0.0005223890512504291,-0.0002893597112740473,0.0001857693999577182
2222.533333334022,0.0009500229,-0.7837427,5.3301792e-05,-2.3554628,0.0004525968,1.5711226,0.7851362,0.03999995,0.039999973,0.0064443837826111405,-0.012660651571665725,0.011343596124424593,-0.011834649250224791,-0.013410437738605206,0.0025015862458384434,0.9999997387297299,-0.0006247107780050896,-0.0002987842976918772,0.00020737612997504722
2222.5500000006887,0.0010558679,-0.78361636,5.510088e-05,-2.355375,0.0005010993,1.5711427,0.78501946,0.03999995,0.039999973,0.005385652791733975,-0.013274654195075649,0.008950106031901939,-0.012935704898345517,-0.013545647177349879,0.0027356776654029204,0.9999996545474638,-0.000736632689711226,-0.00030809010114962856,0.00023099290705821498
2222.5666666673555,0.0011711488,-0.7834805,5.7062418e-05,-2.3552768,0.0005539186,1.5711664,0.78489244,0.03999995,0.039999977,0.00849218050320566,-0.01389215484782525,0.0128006953221238,-0.014086410834507833,-0.013683323056965839,0.002979712338086665,0.9999995489526489,-0.0008584532200521419,-0.00031504194882623596,0.00025671217008784055
2222.5833333340224,0.001296274,-0.783335,5.9193466e-05,-2.3551688,0.0006112423,1.5711902,0.7847545,0.03999995,0.039999977,0.005878342814913395,-0.01449706821616041,0.009943571645276705,-0.01528761243200245,-0.013802150664439662,0.0032353209817863734,0.9999994169329398,-0.0009907068286332727,-0.0003219047547860484,0.000284624470071295
2222.6000000006893,0.0014316491,-0.7831794,6.150121e-05,-2.355051,0.0006732548,1.5712178,0.78460544,0.039999954,0.039999984,0.006675997737826123,-0.015103661691126188,0.012772606913524776,-0.01653799371383183,-0.013923398087350982,0.0035006930157257116,0.9999992543090889,-0.0011337172747263485,-0.00032703937299371274,0.0003148200374349252
2222.616666667356,0.0015776749,-0.78301346,6.3992564e-05,-2.354922,0.00074014004,1.5712457,0.7844446,0.039999954,0.039999984,0.007650655390611938,-0.01570092449653016,0.011124462912248667,-0.017837552950830254,-0.014032118125184167,0.0037774302676896977,0.9999990551961389,-0.0012880156023845856,-0.00033157820232322416,0.0003473881595066385
2222.633333334023,0.0017347465,-0.7828361,6.66744e-05,-2.3547823,0.00081207743,1.5712771,0.7842716,0.03999996,0.04,0.006666146825740071,-0.016294793997194586,0.013909587708438309,-0.019185145533449723,-0.0141389080060212,0.004062838049094843,0.9999988138857344,-0.0014539496557421597,-0.0003346867300183151,0.0003824164162669933
2222.65000000069,0.0019032548,-0.7826469,6.955345e-05,-2.354632,0.0008892601,1.5713105,0.78408605,0.039999966,0.04,0.005736844923309725,-0.016890490112832772,0.012860447863638491,-0.020580504660684368,-0.014236543418889197,0.004361152200824001,0.9999985232482241,-0.0016319553947777455,-0.0003373781485479049,0.0004199987443361918
2222.666666667357,0.0020835842,-0.7824456,7.263646e-05,-2.3544695,0.00097185356,1.5713458,0.7838874,0.039999966,0.04,0.007426280289313247,-0.01746271035060424,0.013557348955473003,-0.02202245304381143,-0.01433414775968488,0.004668561498772553,0.9999981758240872,-0.001822495460170706,-0.00033920530114765746,0.0004602157745775593
2222.6833333340237,0.0022761142,-0.78223175,7.592998e-05,-2.3542957,0.0010600337,1.5713843,0.7836753,0.03999996,0.039999995,0.006496197446370644,-0.018038659819733828,0.014580968049360266,-0.02351037881086828,-0.014427688072080338,0.004985917162176699,0.9999977634641899,-0.002025909849193533,-0.0003399892891810185,0.0005031532413151902
2222.7000000006906,0.0024812177,-0.7820048,7.9440615e-05,-2.3541102,0.0011539693,1.5714247,0.78344935,0.03999996,0.039999995,0.00588500727629615,-0.018601336486931252,0.014004409692103259,-0.025043935817951182,-0.014515418198478723,0.005313122930873663,0.9999972766880463,-0.0022426254725737642,-0.00034053463429795534,0.0005488931077473486
2222.7166666673575,0.0026992627,-0.78176457,8.317483e-05,-2.353912,0.0012538203,1.5714676,0.78320926,0.03999996,0.04,0.007553927772896429,-0.019156033695417757,0.014934521804832457,-0.026621643362361273,-0.014603821940637701,0.005649250002391061,0.9999967059065855,-0.002472947267778526,-0.0003401259870649856,0.0005975132646450662
2222.7333333340243,0.0029306093,-0.78151006,8.713881e-05,-2.353701,0.0013597513,1.5715137,0.78295445,0.039999958,0.04,0.0069497708591992335,-0.019708466756681014,0.016081736862383345,-0.02824368007973152,-0.014689029593815892,0.0059949253781098645,0.999996039902339,-0.0027173544621650813,-0.00033888234593928984,0.00064909407818407
2222.750000000691,0.003175611,-0.7812413,9.133867e-05,-2.3534775,0.001471932,1.5715623,0.7826846,0.039999954,0.039999995,0.00645031789161532,-0.020254556294367534,0.0155721271745346,-0.02990852546781656,-0.014769131439616313,0.006350720458046765,0.9999952667437617,-0.0029761742687989174,-0.00033713139113626683,0.000703718139281321
2222.766666667358,0.0034346145,-0.78095776,9.578044e-05,-2.3532403,0.0015905211,1.5716132,0.7823994,0.039999958,0.04,0.00735248465850713,-0.02078993285395802,0.016024726968577596,-0.03161581765225647,-0.014849832143338843,0.006715749243964241,0.9999943735393793,-0.0032497606159938917,-0.0003348431405917884,0.0007614627992142092
2222.783333334025,0.0037079619,-0.7806591,0.0001004702,-2.3529892,0.0017156646,1.5716672,0.78209835,0.039999954,0.04,0.007613665539429881,-0.021313777012191195,0.0169414862994266,-0.033364312026187504,-0.014929454562022399,0.007089008430115876,0.9999933462331303,-0.0035385238089693754,-0.00033165971888392596,0.0008223992651112604
2222.800000000692,0.003995984,-0.78034496,0.00010541341,-2.352724,0.0018475327,1.5717243,0.78178114,0.039999958,0.04,0.007676107875331795,-0.02184299756650505,0.01720121419341858,-0.0351533070931002,-0.015005304288908831,0.007472720065529421,0.9999921697894412,-0.003842779262689195,-0.0003276107260859305,0.0008866107127231838
2222.8166666673587,0.0042990088,-0.78001505,0.00011061611,-2.3524454,0.0019862498,1.5717844,0.78144747,0.03999996,0.04,0.006418288692322527,-0.022336833151914703,0.017082381545097114,-0.03698159207029768,-0.015077501273196231,0.007862685901126112,0.9999908279071896,-0.004162840932986533,-0.00032317277879580247,0.0009541573325174625
2222.8333333340256,0.004617354,-0.7796688,0.000116083465,-2.3521526,0.0021320067,1.5718476,0.78109705,0.03999996,0.04,0.006656730295184765,-0.022871943487116613,0.017670852248263813,-0.03884924461772628,-0.015150036755574147,0.00826510546709131,0.9999893032542053,-0.0044990171021225865,-0.0003183158439678308,0.0010251328242988499
2222.8500000006925,0.0049513327,-0.77930576,0.0001218211,-2.3518453,0.0022849075,1.5719135,0.78072894,0.03999996,0.04,0.006809031289400913,-0.023339958529460837,0.017869171785256377,-0.04075502965848818,-0.015223731476912122,0.008672662122343853,0.9999875756515825,-0.0048519422986585715,-0.0003132181196684396,0.0010995875638905664
2222.8666666673594,0.00530125,-0.7789258,0.0001278344,-2.3515232,0.0024450922,1.5719826,0.78034365,0.039999958,0.04,0.007216298168621904,-0.023828602245673375,0.01837777379176675,-0.04269572635352122,-0.015298794824474694,0.009088417854118304,0.9999856271969682,-0.00522150125976782,-0.00030758172756901504,0.0011775897254019455
2222.8833333340262,0.0056673996,-0.7785286,0.00013412845,-2.3511853,0.0026127046,1.572055,0.77994055,0.039999954,0.04,0.008488474685153236,-0.024310655488757847,0.018953436058821715,-0.044673978306457196,-0.015374030561382323,0.009512910940736261,0.9999834359523281,-0.005608169358693663,-0.00030107834348442697,0.0012592097726372823
2222.900000000693,0.0060500745,-0.77811384,0.00014070835,-2.3508317,0.0027878582,1.5721308,0.7795192,0.039999954,0.04,0.008214278068141567,-0.024771341087531304,0.019275480348057705,-0.04668767177819506,-0.015446633801127945,0.009943639817975289,0.9999809789468734,-0.006012301971661039,-0.00029373735249272904,0.0013445028159418664
2222.91666666736,0.0064495536,-0.7776811,0.00014757886,-2.3504617,0.002970702,1.5722101,0.77907944,0.039999954,0.04,0.008879932912186916,-0.02524697329085255,0.01984231283140847,-0.04873524609587532,-0.015515118047287708,0.010383531528552549,0.9999782325004971,-0.006434128320388221,-0.0002854392506528941,0.0014335418978519187
2222.933333334027,0.006866113,-0.7772301,0.00015474476,-2.350076,0.0031613593,1.5722929,0.77862084,0.039999958,0.04,0.007349727379302173,-0.025698430373877548,0.01974978215508738,-0.050816547766070044,-0.015580243348154513,0.010830775296546887,0.9999751706033887,-0.006873994055146744,-0.00027663058921046057,0.0015263872282613973
2222.9500000006938,0.0073000183,-0.77676046,0.00016221039,-2.349674,0.0033599793,1.5723791,0.77814317,0.03999996,0.04,0.007730802022143379,-0.026163082415498612,0.019926616934307084,-0.052930032858087755,-0.015644041344087485,0.011287531163825906,0.9999717663960874,-0.0073321515890507555,-0.00026734077883575687,0.0016231120331507173
2222.9666666673606,0.007751532,-0.7762719,0.00016998065,-2.349256,0.003566644,1.5724686,0.77764595,0.03999996,0.04,0.0069037656751369525,-0.026575228713124864,0.019990955220805517,-0.05507492763535013,-0.015710155331434744,0.01174816531541718,0.9999679905700414,-0.0078089695342018536,-0.0002578672225695612,0.0017237559638832842
2222.9833333340275,0.008220902,-0.7757642,0.00017805975,-2.3488216,0.003781476,1.5725617,0.77712923,0.03999996,0.04,0.007631953858489027,-0.027007450744226738,0.02041840672220019,-0.05724972375584049,-0.01577757592263853,0.012216467574559842,0.9999638144234695,-0.008304541717853215,-0.0002479116914526172,0.0018283791496300475
2223.0000000006944,0.008708372,-0.7752372,0.0001864521,-2.3483698,0.004004571,1.5726582,0.77659255,0.03999996,0.04,0.008819012208505228,-0.027418823304488187,0.02080583445629447,-0.059454514912895245,-0.01584742788624849,0.012689902809883058,0.9999592055827876,-0.008819228861771063,-0.0002372648823073943,0.0019370281102153795
2223.0166666673613,0.009214182,-0.7746905,0.00019516151,-2.3479006,0.0042360746,1.5727583,0.7760357,0.03999996,0.04,0.008572498515246885,-0.027865502193301014,0.021204945462938163,-0.06168803950066423,-0.01591419742703399,0.013172925528872998,0.9999541311057436,-0.009353238988774187,-0.00022589653428420743,0.002049774556405729
2223.033333334028,0.00973856,-0.7741237,0.00020419211,-2.3474152,0.004476076,1.5728621,0.77545846,0.039999966,0.04,0.006051762121228599,-0.028251785198961377,0.020865391704827374,-0.0639492310693474,-0.01597963988709576,0.013661387171758282,0.9999485557802275,-0.009906831515662485,-0.0002146106951768854,0.0021666620888058322
2223.050000000695,0.010281728,-0.7735368,0.00021354765,-2.346912,0.0047246884,1.5729697,0.7748605,0.03999997,0.04,0.008791195752766434,-0.028666510278919054,0.021612443183105512,-0.06623715288399812,-0.016051321773717375,0.014156735418889435,0.9999424432354578,-0.010480237857686384,-0.00020260211549832824,0.00228774629982103
2223.066666667362,0.010843899,-0.77292955,0.00022323194,-2.3463902,0.0049819793,1.573081,0.7742417,0.039999973,0.04,0.009407811399908539,-0.029035960508995082,0.02197639642265159,-0.06855106545038553,-0.01612176009881482,0.014655579687686437,0.9999357556258299,-0.011073653020674614,-0.0001896616240180826,0.0024130599343503726
2223.083333334029,0.011425278,-0.7723017,0.00023324891,-2.3458512,0.005248038,1.5731964,0.77360165,0.039999973,0.04,0.007495916999911145,-0.029409174682154884,0.021848455010586854,-0.07088993977189251,-0.01618799881567043,0.015159374744772058,0.9999284522472796,-0.011687354451631642,-0.00017629504873505305,0.0025426467189801987
2223.1000000006957,0.012026067,-0.7716528,0.00024360139,-2.3452938,0.005522972,1.5733155,0.7729403,0.039999977,0.04,0.0085687292439518,-0.029801989299804016,0.022170111668295966,-0.07325249951196254,-0.016255124315787746,0.015670390962100003,0.9999204919648653,-0.012321501911111015,-0.00016238262010727776,0.0026765595978781396
2223.1166666673626,0.012646455,-0.77098274,0.00025429315,-2.3447185,0.0058068694,1.5734384,0.7722573,0.039999977,0.04,0.00749231121583982,-0.030166862243881376,0.022130799459008088,-0.07563808002641524,-0.016322938362769296,0.016186740891924768,0.9999118311952081,-0.012976306525917239,-0.00014822161259872178,0.002814841939584606
2223.1333333340294,0.013286625,-0.77029157,0.0002653272,-2.3441246,0.006099803,1.5735652,0.7715524,0.039999973,0.04,0.008841167492512625,-0.030517727486484986,0.02242455833603163,-0.07804565917969702,-0.016394062705776334,0.01670754146932587,0.9999024234023898,-0.013652066369857007,-0.0001333341280965832,0.0029575293525932384
2223.1500000006963,0.013946759,-0.7695788,0.0002767064,-2.343512,0.0064018825,1.5736963,0.7708261,0.03999998,0.04,0.008342810167905057,-0.03090228412602654,0.02282111071596482,-0.08047366951046747,-0.016462912271594687,0.017235669890131068,0.9998922274245136,-0.014348541235500544,-0.00011783988059204954,0.003104676186087964
2223.166666667363,0.014627017,-0.7688445,0.0002884338,-2.3428812,0.006713175,1.5738311,0.7700773,0.039999988,0.04,0.00778279202444665,-0.031224470621406264,0.022391913973618394,-0.08292466884757604,-0.016531497678260773,0.01776769941277933,0.9998811876608761,-0.015066405022115236,-0.00010203458191305033,0.0032563154837308116
2223.18333333403,0.015327567,-0.7680883,0.00030051242,-2.3422313,0.007033734,1.57397,0.76930624,0.03999999,0.04,0.008696653950379662,-0.03156025369622957,0.023006430123784227,-0.08539356022835007,-0.01660296039703705,0.01830286739597357,0.9998692569739092,-0.015805589520219526,-8.559031298114812e-05,0.0034124731001803394
2223.200000000697,0.016048562,-0.76731,0.00031294496,-2.341562,0.0073636216,1.574113,0.7685124,0.039999984,0.04,0.008894063104802896,-0.03188612072129969,0.023246260622045156,-0.08788115011346645,-0.016673737748176,0.018832959741339812,0.9998563801391752,-0.016566435967903956,-6.841617317504734e-05,0.0035731797511444237
2223.216666667364,0.016790142,-0.7665095,0.0003257337,-2.3408737,0.0077029173,1.5742599,0.7676962,0.03999999,0.04,0.008060946668364544,-0.03220776389831724,0.022946585213556858,-0.09038512555834705,-0.016743237128339573,0.01937774418099015,0.9998425072092821,-0.017348832462873217,-5.0929392436878105e-05,0.003738475067317978
2223.2333333340307,0.017552461,-0.7656867,0.00033888128,-2.3401663,0.008051693,1.5744109,0.766857,0.04,0.04,0.008193020863145328,-0.03254640767479111,0.02311457484716062,-0.09290705660723551,-0.016815188408330607,0.019926650658867697,0.9998275789506094,-0.01815311921298785,-3.2919769978281764e-05,0.003908394669279846
2223.2500000006976,0.01833564,-0.76484144,0.00035238964,-2.3394392,0.008410013,1.574566,0.76599497,0.04,0.04,0.009053240199308199,-0.032850156596521754,0.023420325862666402,-0.09544375364527558,-0.01688805469279803,0.02047946250450102,0.9998115394489976,-0.018979323979774244,-1.4207902093178695e-05,0.004082970001351545
2223.2666666673645,0.019139817,-0.7639734,0.0003662613,-2.3386922,0.008777934,1.5747252,0.7651097,0.04,0.04,0.008665701361487699,-0.03316907189676484,0.023522296001798892,-0.09799597710387598,-0.016959177768571924,0.02103595543996315,0.9997943274887263,-0.01982765986771172,5.058481501194159e-06,0.004262229457396392
2223.2833333340313,0.01996509,-0.763083,0.00038049807,-2.3379261,0.009155499,1.5748887,0.7642013,0.04,0.04,0.007912713342350663,-0.03342646442086872,0.023189148639701784,-0.1005617285423335,-0.017030771647717727,0.021595291070162653,0.9997758831362223,-0.02069816988091231,2.4880170056877707e-05,0.00444619429903482
2223.300000000698,0.020811578,-0.7621693,0.0003951018,-2.33714,0.009542775,1.5750563,0.76326954,0.04,0.04,0.00842429050418314,-0.03374980449991141,0.02375991599488092,-0.10314081866888783,-0.01710170892567974,0.022159492190754967,0.9997561431291018,-0.02159096924105233,4.513897064654051e-05,0.004634898631940751
2223.316666667365,0.021679385,-0.7612329,0.00041007466,-2.3363345,0.009939792,1.5752285,0.76231426,0.04,0.04,0.008313053126074443,-0.03400998447999071,0.023515783405136936,-0.10573267211655948,-0.017174992764566407,0.02272541313388006,0.9997350411841666,-0.022506222180601682,6.610446262935592e-05,0.004828356019414705
2223.333333334032,0.02256861,-0.7602734,0.00042541802,-2.335509,0.01034661,1.5754048,0.76133555,0.04,0.04,0.008075224434733741,-0.03430389126702349,0.02351836344971492,-0.10833529637823762,-0.017247688313243338,0.023295935830349668,0.9997125129512104,-0.023443913997377688,8.750898701094394e-05,0.005026597998305426
2223.350000000699,0.023479346,-0.75929075,0.0004411339,-2.3346634,0.010763252,1.5755852,0.76033306,0.04,0.04,0.008825444635696122,-0.03456595037501231,0.023654576176812547,-0.1109491257355523,-0.01732156381266198,0.023867768328164174,0.999688486844401,-0.02440426555746812,0.00010959271184390751,0.00522963505320916
2223.3666666673657,0.024411673,-0.75828457,0.00045722324,-2.333798,0.011189766,1.57577,0.75930685,0.04,0.04,0.007517139576607157,-0.03483075974281477,0.023683809699814873,-0.11357219335211155,-0.017393868275056925,0.024443088610542764,0.9996628943955689,-0.025387277005025702,0.0001319690177116199,0.005437491988230249
2223.3833333340326,0.025365675,-0.75725514,0.00047368763,-2.3329127,0.011626174,1.575959,0.7582567,0.04,0.04,0.007752544249362003,-0.0350801432201335,0.02333799808447168,-0.11620426787284692,-0.0174696667385208,0.025020314166675196,0.9996356614027888,-0.026393104818320207,0.00015472889836985995,0.0056501795392780935
2223.4000000006995,0.026341412,-0.75620234,0.0004905282,-2.3320074,0.012072523,1.5761523,0.7571826,0.04,0.04,0.00803275376994872,-0.03533722468686065,0.02360453426659692,-0.11884367012324493,-0.01754712765398698,0.025600808798098514,0.9996067157752374,-0.027421741591177797,0.0001780520589980226,0.005867722097590498
2223.4166666673664,0.027338939,-0.75512606,0.00050774566,-2.3310814,0.012528844,1.5763502,0.7560846,0.04,0.04,0.00908414715190542,-0.035582694243966456,0.02399724046475704,-0.12149040660079671,-0.017625442795826153,0.02618422298379335,0.9995759829752414,-0.028473208354069225,0.00020229718431794087,0.006090134723869523
2223.4333333340333,0.028358333,-0.7540261,0.0005253418,-2.330135,0.012995148,1.5765524,0.7549626,0.04,0.04,0.007924349460419755,-0.03582695014267348,0.023612505209502643,-0.12414411971034468,-0.017701110865521102,0.026768053034669267,0.9995433848752258,-0.029547595088740077,0.00022701860517053798,0.006317423462228044
2223.4500000007,0.02939963,-0.7529025,0.0005433171,-2.329168,0.013471467,1.5767589,0.7538164,0.04,0.04,0.008663942693076798,-0.03605424013810449,0.023734746352310765,-0.12680325127021566,-0.01777586613807823,0.027354566491121515,0.9995088407708754,-0.0306450022373684,0.0002524564850861121,0.006549604908345276
2223.466666667367,0.030462872,-0.75175524,0.0005616719,-2.3281808,0.013957838,1.5769696,0.75264615,0.04,0.04,0.007779697994214629,-0.03628202729071342,0.02341966173591281,-0.12946674430401273,-0.01785190534432702,0.02794437549968076,0.999472272647572,-0.03176538135436589,0.0002783732235170109,0.006786697610610761
2223.483333334034,0.031548105,-0.75058436,0.0005804071,-2.3271737,0.0144542195,1.5771844,0.75145173,0.04,0.04,0.006885402610468105,-0.036454238240950926,0.022890842543876744,-0.1321343442249226,-0.01792754883141055,0.028532679119377763,0.9994335983178835,-0.03290877522876748,0.0003044423526230129,0.0070286827474182086
2223.5000000007008,0.032655343,-0.74938965,0.00059952383,-2.3261454,0.014960665,1.5774035,0.750233,0.04,0.04,0.009046084060226889,-0.036707377372875716,0.023755089731891665,-0.13480555216185505,-0.018008256346672004,0.029124173908659394,0.9993927314404643,-0.03407527516029576,0.00033138107464838627,0.007275586113945415
2223.5166666673676,0.03378462,-0.7481712,0.00061902194,-2.3250968,0.015477206,1.5776274,0.74898994,0.04,0.04,0.0076327291213429405,-0.03693093198045769,0.023500580516788716,-0.13747849648814517,-0.018085929159961375,0.029717578894768535,0.9993495869913054,-0.03526488308082853,0.0003590119083599829,0.007527423998457474
2223.5333333340345,0.034935948,-0.74692893,0.00063890184,-2.3240283,0.016003799,1.5778556,0.7477227,0.04,0.04,0.0068583674311728515,-0.03707455642672497,0.02299940021832647,-0.14015273207749235,-0.01816435622437021,0.030305824139399473,0.999304081002111,-0.03647753529683953,0.000386918555685781,0.007784176592657316
2223.5500000007014,0.036109347,-0.7456628,0.0006591634,-2.3229394,0.016540466,1.5780882,0.7464311,0.04,0.04,0.00721966796226603,-0.03729812150755421,0.023085651152521258,-0.14282780480143584,-0.018243537391177556,0.0308984596220742,0.9992561229970246,-0.037713292183126794,0.0004152816562912343,0.008045855256678221
2223.5666666673683,0.037304807,-0.7443729,0.00067980704,-2.3218293,0.017087247,1.5783249,0.74511534,0.04,0.04,0.008751867694556381,-0.037505364202265745,0.023196106065537236,-0.14550308288982672,-0.018325453093840392,0.031495791983631935,0.9992056254131888,-0.03897208287220497,0.000444489693211058,0.008312480264817743
2223.583333334035,0.038522348,-0.7430593,0.0007008326,-2.3206985,0.017644104,1.5785658,0.7437753,0.04,0.04,0.007923220299654865,-0.0376708823020544,0.022828869069324575,-0.1481776662393406,-0.018404691538149158,0.03209132724302706,0.9991524959738791,-0.0402539335958296,0.000474335687327294,0.008584033136345835
2223.600000000702,0.039761942,-0.74172163,0.0007222398,-2.3195484,0.018211048,1.5788116,0.74241096,0.04,0.04,0.005285478982486325,-0.037832900092313326,0.022763920923662972,-0.1508508637924667,-0.018483160803895355,0.03268898597516482,0.9990966418650306,-0.041558838184326145,0.0005043149296962783,0.008860521950728837
2223.616666667369,0.041023593,-0.7403604,0.00074402906,-2.318377,0.018788066,1.5790617,0.7410223,0.04,0.04,0.008733775293778834,-0.03802835709714458,0.022828336709568298,-0.15352155137403026,-0.018566434810901637,0.033285540160901565,0.9990379676740327,-0.04288679938721638,0.0005352932021816683,0.00914193881223033
2223.633333334036,0.042307258,-0.7389754,0.00076619955,-2.3171852,0.019375155,1.5793161,0.7396095,0.04,0.04,0.0072889963267153135,-0.03815573712196013,0.022449746217412248,-0.1561889292306988,-0.018645587584313814,0.03388373252138865,0.9989763826107024,-0.04423768883305164,0.0005668542647413514,0.009428284519885055
2223.6500000007027,0.043612923,-0.73756653,0.00078875036,-2.3159728,0.019972302,1.5795748,0.7381726,0.04,0.04,0.006989951789981852,-0.038331703540721296,0.02242840548642988,-0.15885300908356875,-0.018725194048224154,0.03448131353280317,0.9989117911885542,-0.045611456925838026,0.000598910046855295,0.009719553916330802
2223.6666666673696,0.044940557,-0.7361341,0.0008116817,-2.314741,0.020579485,1.5798377,0.73671144,0.04,0.04,0.005648053656170937,-0.038441757924652376,0.02156785665303751,-0.1615130120667158,-0.018806060316716056,0.035078910053346644,0.9988440917385278,-0.04700816010365784,0.0006311055633719843,0.01001573704088696
2223.6833333340364,0.046290126,-0.73467773,0.00083499285,-2.3134882,0.0211967,1.580105,0.7352256,0.04,0.04,0.007174297689727105,-0.038642758944280875,0.022404177909685075,-0.1641676103516857,-0.018891288630709865,0.035676560704178226,0.998773173968679,-0.04842797846909734,0.0006639514462430796,0.010316832382298033
2223.7000000007033,0.04766158,-0.73319775,0.0008586832,-2.3122144,0.021823915,1.5803769,0.73371613,0.04,0.04,0.008378714283185928,-0.038774399284471905,0.022460959538483927,-0.16681369766279064,-0.018975455811762083,0.03627361978051344,0.9986989609480457,-0.04987037038266613,0.0006979808816554947,0.01062282363020437
2223.71666666737,0.049054872,-0.7316944,0.0008827515,-2.3109207,0.022461105,1.580653,0.7321827,0.04,0.04,0.0059704664076676295,-0.03885403513805841,0.021177134357919236,-0.169455014033929,-0.019053332106037036,0.03687002612878092,0.998621344801549,-0.051335441076229546,0.0007323628426022971,0.010933702068442666
2223.733333334037,0.050469942,-0.73016745,0.00090719695,-2.309607,0.023108264,1.5809336,0.7306252,0.04,0.04,0.006113077670866218,-0.03900943195699613,0.021555075953938463,-0.17208925842226996,-0.01913590136812976,0.03746691279927881,0.9985402211468096,-0.05282317271593496,0.0007672784908464359,0.011249464877075503
2223.750000000704,0.051906735,-0.72861725,0.0009320185,-2.3082726,0.023765344,1.5812184,0.7290438,0.04,0.04,0.0075321012638962515,-0.03911498300803312,0.02126972810718719,-0.17471532766744952,-0.019217112702568637,0.03806124512019605,0.9984554867016212,-0.054333499611487375,0.0008030871374326661,0.01157008843729361
2223.766666667371,0.053365167,-0.72704357,0.0009572156,-2.3069184,0.024432294,1.5815073,0.7274386,0.04,0.04,0.005526790873955356,-0.03917870709711363,0.020833089609828548,-0.17733231092382767,-0.0192958938053984,0.038649126175455184,0.9983670442547964,-0.05586623839771586,0.000839193593677011,0.011895549896643067
2223.7833333340377,0.054845195,-0.7254465,0.0009827861,-2.3055449,0.025109123,1.5818006,0.7258096,0.04,0.04,0.004787355644109148,-0.03933367201383736,0.020486182143275578,-0.1799404341682384,-0.01937731440433348,0.03924344703328383,0.998274782213901,-0.0574214348420623,0.0008754817868975261,0.012225855720901098
2223.8000000007046,0.056346737,-0.72382635,0.0010087289,-2.3041513,0.025795795,1.582098,0.7241569,0.04,0.04,0.006140421429723375,-0.03943389810487641,0.020441347782451658,-0.18253770918271367,-0.019463194976119598,0.03983691860493316,0.9981786014440095,-0.05899888800270129,0.0009123693999843126,0.012560987851427705
2223.8166666673715,0.057869706,-0.7221827,0.0010350432,-2.3027375,0.026492244,1.5823998,0.72248065,0.04,0.04,0.006094818965318716,-0.03953189209849606,0.0207930027815717,-0.18512452167784116,-0.01954791628606551,0.040427422211905324,0.9980783945251521,-0.06059853490125553,0.0009499183045929726,0.012900914895101333
2223.8333333340383,0.059414,-0.72051644,0.0010617268,-2.3013036,0.027198458,1.5827057,0.72078097,0.04,0.04,0.006516228791153544,-0.03957254932865362,0.01974318773747541,-0.1877000422761053,-0.0196322204656003,0.041018815339326234,0.9979740580691595,-0.062220221388335814,0.0009882788506752668,0.013245632347069245
2223.850000000705,0.060979538,-0.718827,0.0010887784,-2.2998497,0.027914375,1.583016,0.71905786,0.04,0.04,0.005819753974134478,-0.039689911439957926,0.020208487822537258,-0.19026340406010583,-0.019714321656500458,0.041607102654833014,0.9978654829224952,-0.06386388298861134,0.0010273341374363463,0.013595110372565623
2223.866666667372,0.06256623,-0.7171149,0.001116196,-2.2983766,0.028639978,1.5833304,0.7173115,0.04,0.04,0.0050080484947034876,-0.03973891519007816,0.019142649044701088,-0.19281416243097677,-0.01979447485448758,0.04219429649931757,0.997752564573654,-0.06552936463138134,0.0010668172554252262,0.013949342588364411
2223.883333334039,0.06417395,-0.7153802,0.0011439787,-2.296884,0.029375171,1.5836489,0.71554196,0.04,0.04,0.004933146790064846,-0.0397578389332881,0.01907976695876279,-0.19535127044284925,-0.019877662593517538,0.04277853903389615,0.9976351951734478,-0.06721655609258059,0.001106789991672457,0.014308282713311686
2223.900000000706,0.065802604,-0.7136226,0.0011721243,-2.295372,0.030119924,1.5839716,0.7137493,0.04,0.04,0.0050144505935545425,-0.039852292434358616,0.019137465782081975,-0.19787484958131113,-0.01996085253840407,0.04336174977524842,0.9975132651196748,-0.06892535464909476,0.0011472843593904496,0.014671916554450475
2223.9166666673727,0.06745209,-0.71184266,0.0012006308,-2.293841,0.030874213,1.5842983,0.71193373,0.04,0.04,0.004504979041208834,-0.039908534501174875,0.018332517446695284,-0.20038304770753973,-0.020044299379358838,0.04394457756088041,0.9973866701321235,-0.07065557211229469,0.0011881522462235678,0.01504023492099641
2223.9333333340396,0.06912227,-0.7100405,0.0012294959,-2.29229,0.031637974,1.584629,0.7100956,0.04,0.04,0.005966984589034219,-0.03995404664808855,0.01854074361440361,-0.2028764081119701,-0.020129169959346147,0.04452444337791157,0.9972553083347592,-0.0724069763065118,0.0012299901926332989,0.015413205520547937
2223.9500000007065,0.070813045,-0.7082159,0.0012587175,-2.2907205,0.032411117,1.584964,0.70823455,0.04,0.04,0.0034638340106196708,-0.039967675149765736,0.01800480077009947,-0.20535463235548287,-0.020210724296130477,0.045100458093898024,0.9971190578341416,-0.07417962940679801,0.0012720581308836275,0.015790786970114705
2223.9666666673734,0.07252427,-0.7063693,0.0012882942,-2.2891314,0.033193562,1.5853032,0.70635104,0.04,0.04,0.005537254308873862,-0.03998627818285472,0.018002221578838906,-0.20781543054351842,-0.0202960461252135,0.04566640969083331,0.9969778198510008,-0.07597324108309829,0.0013150709553169289,0.016172938906002955
2223.9833333340403,0.07425582,-0.70450073,0.0013182227,-2.2875237,0.033985335,1.5856463,0.70444524,0.04,0.04,0.0037903790989890496,-0.04003090648821844,0.017179848156079203,-0.21025961137485566,-0.02037636817546099,0.046241634763526454,0.9968314888012035,-0.07778762483863838,0.0013584641125552917,0.01655967788316284
2224.000000000707,0.07600751,-0.70261055,0.0013485013,-2.2858973,0.034786325,1.5859934,0.7025173,0.04,0.04,0.004469925703176614,-0.03997829206503767,0.01704191179014991,-0.21268613267622347,-0.02045961835459834,0.04681053583844715,0.9966799572992311,-0.07962261528893565,0.0014025675933742293,0.016950948548649796
2224.016666667374,0.07777923,-0.7006986,0.0013791266,-2.2842526,0.03559647,1.5863446,0.7005673,0.04,0.04,0.0029877246628728926,-0.040011634934128404,0.016610463066801806,-0.2150950957412005,-0.0205405545585474,0.04737823916838885,0.9965231193049872,-0.08147803466716538,0.0014469655469796108,0.017346724421067446
2224.033333334041,0.07957088,-0.6987652,0.0014100978,-2.2825892,0.03641567,1.5866997,0.6985953,0.04,0.04,0.004403308840550402,-0.04004510942793027,0.016504548372187067,-0.21748578065125418,-0.02062293006938803,0.04794168000755252,0.9963608564577038,-0.08335384206166652,0.0014921082354140912,0.017746953131274248
2224.0500000007078,0.08138226,-0.69681036,0.0014414111,-2.2809079,0.037243914,1.5870588,0.69660157,0.04,0.04,0.002656340147844105,-0.04000362080289477,0.015894557561324518,-0.2198559324112897,-0.020704072285202497,0.04850481697148664,0.9961930728007297,-0.08524972666265991,0.001537519484293076,0.018151634681683616
2224.0666666673746,0.083213225,-0.6948344,0.0014730634,-2.2792075,0.038081113,1.5874219,0.6945864,0.04,0.04,0.005033368040563424,-0.04003842440202243,0.016150713103102454,-0.2222066624858213,-0.02078797257251798,0.049064131703634786,0.9960196627002944,-0.08716548560698663,0.0015840345556072748,0.0185607237956003
2224.0833333340415,0.08506364,-0.6928375,0.0015050531,-2.2774897,0.038927175,1.5877888,0.6925498,0.04,0.04,0.0021309989029383303,-0.03995102943840645,0.014955205387479076,-0.2245376789872191,-0.02086667365010394,0.04961926051481279,0.9958405176909163,-0.08910097930114362,0.0016307621014309557,0.018974177917199256
2224.1000000007084,0.086933255,-0.69081986,0.0015373774,-2.275754,0.03978204,1.5881596,0.69049203,0.04,0.04,0.003180307343475519,-0.03985789273495688,0.01483388232688121,-0.22684747778926623,-0.020947926367197826,0.05017145755233113,0.9956555349477285,-0.09105597903328587,0.0016780919598773482,0.019391967863435135
2224.1166666673753,0.08882198,-0.68878156,0.0015700326,-2.2740004,0.040645655,1.5885338,0.68841314,0.04,0.04,0.0029425604085364654,-0.03990741414428012,0.01438419307684402,-0.2291360834977514,-0.021028265378981437,0.0507219501822591,0.9954646042919635,-0.09303034811300281,0.0017258471722517222,0.01981407033792374
2224.133333334042,0.09072961,-0.6867228,0.0016030159,-2.2722294,0.041517887,1.5889117,0.68631345,0.04,0.04,0.0023669279684224165,-0.03978767969867181,0.014028842808633257,-0.2314020555196483,-0.021110285965844765,0.05126599709325418,0.9952676293606515,-0.09502380841009482,0.001774028510492034,0.02024042007751605
2224.150000000709,0.09265599,-0.6846438,0.0016363246,-2.2704408,0.042398676,1.5892932,0.68419325,0.04,0.04,0.002865512739491649,-0.03977959829140343,0.01385383747880553,-0.23364586075588972,-0.021193045808698796,0.05180347912065738,0.9950645114164974,-0.09703610455922067,0.0018228450467019678,0.020670988543244093
2224.166666667376,0.09460093,-0.68254477,0.0016699557,-2.2686348,0.04328793,1.5896786,0.68205273,0.04,0.04,0.002660428624601252,-0.03971075529679846,0.013512894886047455,-0.23586712152411815,-0.021274900645993675,0.05234132732595874,0.9948551484931576,-0.09906702744137089,0.0018723581175639113,0.021105730635725677
2224.183333334043,0.09656424,-0.680426,0.0017039061,-2.2668126,0.044185583,1.5900676,0.6798918,0.04,0.04,0.000788124444106586,-0.03956528264372483,0.012426655916075724,-0.2380656192763146,-0.021353866384281786,0.05287622538050175,0.9946394297321911,-0.10111646819500619,0.0019220062411059037,0.021544618209641247
2224.2000000007097,0.098545715,-0.6782876,0.0017381716,-2.264973,0.04509154,1.5904603,0.6777106,0.04,0.04,0.0028794350280136882,-0.03953400655278272,0.012823783665161237,-0.24023938683134863,-0.02143703749177323,0.053408562415932406,0.9944172460299862,-0.10318427858908637,0.001972507984446939,0.02198760247137383
2224.2166666673766,0.100545175,-0.67612976,0.0017727497,-2.263117,0.046005715,1.5908567,0.6755099,0.04,0.04,0.0008641995295377569,-0.039420030077649826,0.012017328798075155,-0.2423871322910889,-0.021515245613426878,0.05393586231267261,0.9941885359089413,-0.10526988151806334,0.0020233210645187387,0.0224346447326148
2224.2333333340434,0.102562435,-0.6739527,0.0018076369,-2.2612436,0.046928,1.5912565,0.67328995,0.04,0.04,0.0034671834911126354,-0.03938030075097132,0.012150132220334342,-0.24451189093053421,-0.02159722947147171,0.054459399638507204,0.9939531944699054,-0.10737311562991446,0.00207519262249096,0.022885690257779267
2224.2500000007103,0.104597256,-0.6717566,0.0018428297,-2.2593544,0.047858335,1.5916598,0.67105055,0.04,0.04,0.00030558860761864537,-0.03916607518880677,0.010979838408076148,-0.2466124936670848,-0.021671644643592024,0.05498000234928113,0.9937111142503636,-0.1094938684888293,0.00212726448369296,0.023340713880861855
2224.266666667377,0.106649466,-0.66954166,0.0018783254,-2.2574499,0.04879663,1.5920665,0.6687919,0.04,0.04,-0.0004892992351290815,-0.03908268191162301,0.010501789671280015,-0.24868728552643538,-0.021749245995941177,0.055495946582483684,0.9934621978460121,-0.11163192818346301,0.0021793596649663217,0.023799673368852737
2224.283333334044,0.10871886,-0.66730833,0.0019141189,-2.2555285,0.049742773,1.5924766,0.666514,0.04,0.04,0.0028557332718559536,-0.039008935003592704,0.010693107873360752,-0.25073523711700874,-0.02183169708784938,0.05600823408679406,0.9932063345615011,-0.11378718503086022,0.0022325252675729694,0.024262508950850168
2224.300000000711,0.110805206,-0.6650567,0.0019502079,-2.2535918,0.050696652,1.5928899,0.66421765,0.04,0.04,-8.430725277897011e-05,-0.03877799341803767,0.009615238204641052,-0.25275467609572766,-0.021908045532142234,0.05651564949153988,0.992943472076658,-0.115959061740915,0.00228589169624787,0.024729172239901228
2224.316666667378,0.112908304,-0.6627868,0.001986588,-2.2516396,0.051658172,1.5933064,0.66190296,0.04,0.04,0.0001953646280750121,-0.03868098281945842,0.009548724250296736,-0.25474838805955835,-0.021987630456820062,0.0570143351011261,0.9926735108666543,-0.11814739315140801,0.0023395815725970946,0.025199616530062467
2224.3333333340447,0.115027934,-0.66049916,0.0020232557,-2.249672,0.05262723,1.5937262,0.65957,0.04,0.04,0.0008079396423887886,-0.03851603098279366,0.009012054486667864,-0.25671485154787854,-0.022068139841932097,0.0575103142982361,0.9923963513940053,-0.12035201501707785,0.0023938964699890502,0.025673789764778975
2224.3500000007116,0.117163874,-0.6581939,0.0020602064,-2.247689,0.053603776,1.5941491,0.6572191,0.04,0.04,0.000351511648188918,-0.038403718687129995,0.008684406582060156,-0.2586529340833622,-0.02214699191508307,0.05800562004902339,0.9921119183892978,-0.1225725705741554,0.0024487463841060984,0.026151672487574225
2224.3666666673785,0.11931589,-0.65587133,0.0020974383,-2.2456908,0.05458764,1.5945754,0.6548505,0.04,0.04,0.000706933283112221,-0.03818993451981112,0.008388015352700506,-0.2605628327293968,-0.022224497775211283,0.05849439518871284,0.9918201206307234,-0.12480885509637757,0.0025043725574498614,0.026633177048228117
2224.3833333340453,0.12148376,-0.65353155,0.0021349464,-2.2436786,0.055578735,1.5950049,0.65246457,0.04,0.04,-0.0014177153119465657,-0.037967296731655775,0.007530490520957223,-0.2624440366045928,-0.022299222250853967,0.05897838629086684,0.9915208939458855,-0.12706046656298983,0.002560147803475107,0.027118265961743073
2224.400000000712,0.12366721,-0.6511749,0.0021727262,-2.2416515,0.056576952,1.5954378,0.6500614,0.04,0.04,0.00016423839528378892,-0.0377972434322138,0.007569675485430416,-0.2642965086516683,-0.02237503237858125,0.05945855313524799,0.991214145678201,-0.12932722209641462,0.0026166722162679363,0.027606884264096503
2224.416666667379,0.12586604,-0.6488016,0.0022107742,-2.2396102,0.057582196,1.5958735,0.6476413,0.04,0.04,-0.0006279275287734976,-0.03759120800646831,0.0066706453103249075,-0.26611989801055347,-0.02244948381906475,0.05993298501572926,0.9908997957164448,-0.1316088663200076,0.0026735895575441186,0.028098987062668248
2224.433333334046,0.12807997,-0.646412,0.0022490863,-2.2375546,0.058594372,1.5963119,0.6452044,0.04,0.04,-0.000414592230946198,-0.03734046646276523,0.006238716896689311,-0.2679128821440897,-0.022522909855128316,0.06040313147214575,0.990577768937027,-0.13390510919942014,0.0027309914965192566,0.02859452925787023
2224.450000000713,0.13030887,-0.6440063,0.0022876575,-2.2354846,0.05961334,1.5967536,0.6427513,0.04,0.04,-8.579114179063652e-05,-0.03730523528289176,0.006255379266772998,-0.26967524999408815,-0.0225965848369144,0.060867393068109565,0.9902479983298237,-0.13621561473726324,0.0027892318720930437,0.029093440688421564
2224.4666666673797,0.13255236,-0.64158463,0.0023264836,-2.2334018,0.060638983,1.5971981,0.640282,0.04,0.04,-0.002617624195799806,-0.0368045599027117,0.005109469452135862,-0.27140714978762537,-0.022665951189029653,0.061326255085287606,0.9899104174333572,-0.13854007964258608,0.0028474819322702742,0.029595669213379545
2224.4833333340466,0.13481028,-0.6391476,0.0023655626,-2.2313058,0.061671235,1.5976458,0.63779694,0.04,0.04,-0.001499601835108777,-0.036749174500072534,0.0048425151776498865,-0.2731086823109331,-0.022737876608311114,0.06178181322758451,0.9895649584711925,-0.140878193825731,0.0029062754914275383,0.03010117992828347
2224.5000000007135,0.13708235,-0.6366952,0.0024048884,-2.2291963,0.06270994,1.598096,0.6352962,0.04,0.04,-0.000883312959176763,-0.036439672961249836,0.004527735380421838,-0.2747792407097768,-0.022808907882585105,0.06223126697902488,0.9892115424572756,-0.14322975703118296,0.002965647238718337,0.03060989883258908
2224.5166666673804,0.13936827,-0.63422793,0.0024444559,-2.2270734,0.06375497,1.5985489,0.6327802,0.04,0.04,-0.0008810122599456349,-0.03609920712092929,0.0040120666656928705,-0.2764176092459468,-0.022880182748337436,0.06266825275525592,0.9888501147247777,-0.14559440914250238,0.003025687066091778,0.03112175851422322
2224.5333333340473,0.14166783,-0.6317457,0.0024842627,-2.2249393,0.064806215,1.5990045,0.63024926,0.04,0.04,-0.004705859643161503,-0.03583482297235541,0.002951117383065416,-0.27802405941128755,-0.02294715760387717,0.0631059572983246,0.9884806286538097,-0.14797177266143272,0.003085350413308128,0.03163671734597779
2224.550000000714,0.14398079,-0.62924904,0.0025243035,-2.222792,0.06586359,1.5994627,0.6277035,0.04,0.04,-0.0005083934601302076,-0.03571522846078645,0.003383511931032146,-0.27959854512341004,-0.023020810569786092,0.0635400167650375,0.9881029991871102,-0.1503616972705275,0.00314592254233136,0.032154722246066414
2224.566666667381,0.14630684,-0.62673825,0.0025645741,-2.2206314,0.066926934,1.5999235,0.62514323,0.04,0.04,-0.0006903340279418302,-0.035354773322598954,0.002857816461876439,-0.2811403854276924,-0.023089078601524708,0.06396751992144512,0.9877171789243229,-0.15276382360026297,0.0032073739902830595,0.032675700587613904
2224.583333334048,0.14864577,-0.62421364,0.002605069,-2.2184603,0.06799615,1.6003869,0.6225689,0.04,0.04,-0.004869430473641856,-0.03495745412985252,0.0013643320063705389,-0.28264865893361785,-0.0231519467853493,0.06438909822502764,0.9873231319405555,-0.1551777542462757,0.0032686009334543516,0.03319960798131163
2224.6000000007148,0.15099731,-0.6216753,0.0026457838,-2.2162766,0.06907114,1.6008527,0.6199808,0.04,0.04,-0.0011983459264897078,-0.034844493888241956,0.0020620795539105785,-0.28412448389527467,-0.02321986666333676,0.0648063724296472,0.9869208000796552,-0.15760320957211604,0.0033306763314982736,0.03372638874643476
2224.6166666673817,0.1533611,-0.6191237,0.0026867155,-2.2140827,0.07015173,1.601321,0.6173792,0.04,0.04,-0.004892519563481912,-0.03421284569044558,0.0004726982023806059,-0.2855668916070324,-0.02328372923587088,0.06521578684491343,0.9865101486749508,-0.16003982483597193,0.0033925608350956963,0.034255971140493176
2224.6333333340485,0.15573698,-0.6165592,0.002727857,-2.2118766,0.07123782,1.6017917,0.61476415,0.04,0.04,-0.0011636391474389995,-0.03420708868322464,0.001029233371130367,-0.2869760043959153,-0.02335287387616536,0.06562033261030893,0.9860911003921656,-0.1624874647635464,0.003455477340910492,0.03478829111108591
2224.6500000007154,0.15812461,-0.6139819,0.0027692062,-2.2096603,0.072329275,1.6022649,0.61213636,0.04,0.04,-0.004497702525618763,-0.03365826230333213,-0.00011632706218289712,-0.28835009900458647,-0.023414423661298738,0.0660178757160184,0.9856636584081935,-0.16494556020158854,0.0035184389728282963,0.03532329614227079
2224.6666666673823,0.16052373,-0.6113922,0.0028107574,-2.207433,0.07342597,1.6027403,0.6094959,0.04,0.04,-0.002880724777121202,-0.03338933107654429,-0.0002654569596138856,-0.2896909494469956,-0.023478502953771758,0.06641080300497275,0.9852277590914582,-0.1674139386933402,0.0035819564637107554,0.03586091792882651
2224.683333334049,0.16293402,-0.6087905,0.0028525058,-2.205195,0.074527785,1.6032181,0.606843,0.04,0.04,-0.0028141172632167866,-0.03299909394583467,-0.0006724701052007731,-0.2909971932053136,-0.023540843403302775,0.06679817948806227,0.9847833698000473,-0.16989226012171588,0.0036461801268275066,0.03640109732523173
2224.700000000716,0.16535525,-0.60617673,0.002894447,-2.2029476,0.07563459,1.6036977,0.6041781,0.04,0.04,-0.005715392675531561,-0.03257881247525907,-0.0018564019907296725,-0.2922683690675403,-0.02359809475573555,0.06717746953021832,0.9843304671481912,-0.17238017347351223,0.003710036769521043,0.03694377977731094
2224.716666667383,0.16778708,-0.6035516,0.0029365749,-2.2006898,0.076746285,1.6041796,0.60150164,0.04,0.04,-0.002575047701469657,-0.032273894637380174,-0.0014438143874473397,-0.2935045490024887,-0.02366230853458669,0.06755166790428867,0.9838690395938778,-0.17487723016399587,0.00377480442901576,0.037488907030105434
2224.73333333405,0.1702293,-0.6009154,0.002978886,-2.1984224,0.07786267,1.6046634,0.5988138,0.04,0.04,-0.004269510418808409,-0.031858892412095496,-0.002584713033204622,-0.29470650565141254,-0.02372181811285979,0.06791624322359871,0.9833990373722413,-0.1773832642163637,0.0038398012934238246,0.03803638780594114
2224.7500000007167,0.1726816,-0.59826815,0.0030213736,-2.196146,0.07898365,1.6051493,0.59611464,0.04,0.04,-0.004835782578371806,-0.03146000263193893,-0.002767587926233439,-0.2958725798390378,-0.023780911019592923,0.06827660887134608,0.9829204328274299,-0.17989797279491135,0.003905061066484932,0.03858617126233376
2224.7666666673836,0.17514364,-0.5956104,0.0030640352,-2.193861,0.08010906,1.6056372,0.593405,0.04,0.04,-0.005242560695961629,-0.030948666141139558,-0.0034394807671978,-0.29700216749390085,-0.023838998757360966,0.0686306526063857,0.9824332539193156,-0.18242077619131408,0.003970486567357657,0.03913818140489335
2224.7833333340504,0.17761518,-0.59294236,0.0031068646,-2.1915662,0.081238806,1.6061269,0.5906848,0.04,0.04,-0.0029797245982621234,-0.030712091551121645,-0.0033596420235815216,-0.2980974862915856,-0.023898385322767918,0.06897864841290155,0.9819374348024613,-0.18495160195225904,0.004036711265839531,0.03969236741505102
2224.8000000007173,0.18009594,-0.5902643,0.0031498566,-2.1892629,0.082372755,1.6066182,0.58795434,0.04,0.04,-0.004877864764107898,-0.03022138231752458,-0.004359464921854794,-0.29915553614730606,-0.02395227421220656,0.06932095503666523,0.9814329759795323,-0.18749006013401873,0.004103137544686449,0.040248667967900775
2224.816666667384,0.18258561,-0.58757675,0.0031930057,-2.1869514,0.08351078,1.6071117,0.5852143,0.04,0.04,-0.0049256791053942095,-0.029808954894661177,-0.0044508243896457245,-0.30017697416707445,-0.024006287582847216,0.06965762803708102,0.9809198993175273,-0.19003565055816624,0.004170117768399885,0.040807018484867494
2224.833333334051,0.18508385,-0.58488,0.0032363078,-2.184632,0.0846527,1.6076063,0.58246475,0.04,0.04,-0.0053351942320034595,-0.02914247292534755,-0.005738036119451451,-0.3011630691801196,-0.02405756413314604,0.06998568281203925,0.9803981788953245,-0.19258816478300053,0.004237122162424894,0.04136733493987255
2224.850000000718,0.1875904,-0.582174,0.0032797586,-2.182305,0.08579842,1.6081028,0.5797061,0.04,0.04,-0.005642227268198852,-0.028913316043827075,-0.005311194684853859,-0.3021120421429973,-0.024110644725448306,0.07030852274400898,0.9798678221956032,-0.19514721198996726,0.004304416144839067,0.04192956808554915
2224.866666667385,0.19010492,-0.57945955,0.0033233517,-2.179971,0.08694782,1.6086012,0.57693857,0.04,0.04,-0.005511568691041191,-0.02831332867998526,-0.006086777711455937,-0.3030242607557504,-0.02416202682483433,0.07062509370014222,0.9793288342284896,-0.1977124370239556,0.004372150533551654,0.04249365828482886
2224.8833333340517,0.19262716,-0.57673675,0.0033670818,-2.1776292,0.0881007,1.6091012,0.5741625,0.04,0.04,-0.004737932294496261,-0.027950651171859686,-0.006293954202418739,-0.3038998913324258,-0.024212961301087292,0.07093178660777144,0.9787812023490329,-0.20028359716688862,0.004440444439495229,0.043059506351707945
2224.9000000007186,0.19515683,-0.574006,0.0034109447,-2.175281,0.08925695,1.6096023,0.57137835,0.04,0.04,-0.006417162686833677,-0.027333705258802965,-0.007457167311852864,-0.3047374781428681,-0.024259398297771132,0.0712334985258286,0.978224962840986,-0.20286023002104753,0.004508727967040961,0.04362706181578843
2224.9166666673855,0.19769354,-0.57126755,0.0034549339,-2.1729262,0.09041643,1.6101048,0.56858647,0.04,0.04,-0.0058100662093441,-0.026832979821689307,-0.007414750550949201,-0.3055380517333589,-0.02430646679944754,0.0715293575636729,0.9776601320557109,-0.20544197624629135,0.004577271127884262,0.04419625746429208
2224.9333333340523,0.20023704,-0.56852186,0.0034990448,-2.1705654,0.09157902,1.6106089,0.5657872,0.04,0.04,-0.006275396603561134,-0.02636165660493406,-0.00790300927180354,-0.30630148514783284,-0.02435379253866973,0.0718168761621612,0.9770867296826848,-0.2080284810143598,0.004646161687601599,0.04476702968063204
2224.9500000007192,0.20278697,-0.5657691,0.003543273,-2.1681983,0.09274456,1.6111141,0.5629807,0.04,0.04,-0.005974125913965622,-0.025798818174121996,-0.008344936584947504,-0.3070283157622681,-0.024399043220328435,0.07209800952258291,0.9765047621016395,-0.2106194751266697,0.004715284484900733,0.045339302844364694
2224.966666667386,0.20534307,-0.56300956,0.0035876129,-2.1658251,0.09391291,1.6116204,0.56016725,0.04,0.04,-0.0055639789731554146,-0.025353501170799486,-0.00863185324457838,-0.3077169950939825,-0.024444351817787178,0.07237141159407962,0.9759142381185502,-0.21321468337562216,0.004784819245130174,0.04591300616725374
2224.983333334053,0.20790501,-0.5602438,0.0036320596,-2.1634464,0.09508393,1.6121284,0.5573476,0.04,0.04,-0.006021672129730149,-0.02481441891746261,-0.008871848649927294,-0.30836678772938,-0.024486621183109927,0.07263801212635271,0.9753152394194722,-0.2158135132891813,0.004854934631430387,0.046488072100731095
2225.00000000072,0.21047251,-0.5574718,0.003676606,-2.161063,0.09625747,1.6126373,0.55452204,0.04,0.04,-0.0074673118060974986,-0.02419919836690876,-0.009819988351678077,-0.3089802211445355,-0.02452434062799272,0.07289686145545457,0.974707796787896,-0.2184156477823217,0.004924945626147219,0.04706443025570256
2225.0166666673867,0.21304528,-0.55469435,0.0037212488,-2.1586747,0.097433396,1.6131469,0.55169064,0.04,0.04,-0.006634588521770013,-0.02364279478624942,-0.010484567325530492,-0.3095564720530388,-0.024564375058361853,0.07314831832607532,0.9740919083654294,-0.2210209080037113,0.0049950956903735515,0.047642011935420676
2225.0333333340536,0.21562296,-0.55191165,0.0037659826,-2.156282,0.09861156,1.6136575,0.54885393,0.04,0.04,-0.006702940070191232,-0.023051560108433566,-0.010577326856586744,-0.31009420436581236,-0.024603868573070564,0.07339342019154452,0.9734676443611384,-0.22362881228475007,0.005065500097333869,0.04822074664345126
2225.0500000007205,0.21820527,-0.54912394,0.0038108004,-2.153885,0.099791795,1.6141692,0.546012,0.04,0.04,-0.006771419648998744,-0.022564286149800994,-0.010695465174714869,-0.31059407464407607,-0.024642180755200943,0.0736303667122237,0.9728350151755075,-0.22623916257070947,0.005136282865197122,0.04880054473161865
2225.0666666673874,0.22079183,-0.5463316,0.003855699,-2.151484,0.10097401,1.6146817,0.5431652,0.04,0.04,-0.007305930470602462,-0.021851569351771793,-0.011490493823029801,-0.31105499949540755,-0.024677915651419975,0.07386056433981937,0.9721940842149996,-0.22885154289698356,0.005207145981708751,0.04938136856906059
2225.0833333340543,0.22338237,-0.5435349,0.0039006707,-2.149079,0.10215804,1.6151949,0.540314,0.04,0.04,-0.0065436148132036465,-0.021373897570742262,-0.011582391734710207,-0.31147728668912367,-0.024713660166931307,0.07408343820585846,0.9715449034804265,-0.23146560115047127,0.005278353657024792,0.049963136289976756
2225.100000000721,0.22597656,-0.54073405,0.0039457115,-2.1466708,0.10334374,1.615709,0.53745896,0.04,0.04,-0.007457604640626059,-0.020744549104101395,-0.011979119793115167,-0.3118608416130356,-0.024747080412367672,0.07429769653355127,0.9708875578688823,-0.23408087280747478,0.005349721944350013,0.050545775651449194
2225.116666667388,0.2285741,-0.5379297,0.0039908173,-2.144259,0.10453094,1.6162235,0.53460026,0.04,0.04,-0.006391475448497275,-0.020125178309249314,-0.012493590815298994,-0.3122067897785895,-0.02477977393662151,0.07450358159238007,0.9702220859264695,-0.23669709828452204,0.005421490034849234,0.051129199973986475
2225.133333334055,0.23117466,-0.53512216,0.004035982,-2.141845,0.105719544,1.6167389,0.531738,0.04,0.04,-0.008322137639815708,-0.019475094345489108,-0.01300247886339978,-0.3125144038332339,-0.02480902297337021,0.0747016030236606,0.9695485298948823,-0.23931401792385693,0.0054933375708196355,0.05171336622330429
2225.150000000722,0.23377793,-0.5323117,0.004081199,-2.1394281,0.10690932,1.6172549,0.52887297,0.04,0.04,-0.006885215042107262,-0.01883278533146293,-0.013153947400912358,-0.3127824323772878,-0.024838479125962352,0.07489121064981116,0.9688670086880421,-0.2419310796085137,0.005565518683464645,0.052298156727825576
2225.1666666673887,0.23638354,-0.52949864,0.004126462,-2.1370091,0.108100206,1.6177711,0.52600515,0.04,0.04,-0.007688249610549036,-0.018161338470101818,-0.013778674509157263,-0.3130128399685163,-0.024864981936594352,0.07507387425564929,0.9681775497459641,-0.24454811007347288,0.005637805891059936,0.05288354349066067
2225.1833333340555,0.23899122,-0.5266833,0.0041717687,-2.1345882,0.10929199,1.618288,0.52313524,0.04,0.04,-0.007731977361968845,-0.01756663230573774,-0.013828677156180191,-0.3132045225439601,-0.024890486451218996,0.07524936952821769,0.9674802733999562,-0.24716458861159907,0.005710306558438712,0.05346942226556809
2225.2000000007224,0.24160068,-0.5238659,0.0042171115,-2.132166,0.11048459,1.618805,0.52026343,0.04,0.04,-0.008320125464589267,-0.01694483589692597,-0.01457506861881619,-0.3133580164085824,-0.024913500630697596,0.0754178775837536,0.9667752315204026,-0.24978027893320082,0.005782695555554437,0.05405575276356855
2225.2166666673893,0.24421158,-0.5210472,0.0042624846,-2.1297421,0.11167782,1.6193222,0.51738995,0.04,0.04,-0.007352236451652061,-0.016209520162374647,-0.014951594418555203,-0.3134730936160197,-0.024938053972108312,0.07557841257930474,0.966062490765603,-0.2523948947052754,0.0058553321530244165,0.05464243907303123
2225.233333334056,0.24682353,-0.51822734,0.0043078843,-2.1273174,0.11287156,1.6198395,0.51451546,0.04,0.04,-0.007907375661453386,-0.015483418477546529,-0.01511499422564011,-0.31354861986336346,-0.02496035081412204,0.07573238583288243,0.9653421900370397,-0.2550078899459119,0.005928119799285831,0.055229426897904096
2225.250000000723,0.24943627,-0.51540637,0.004353304,-2.1248922,0.114065625,1.620357,0.51164,0.04,0.04,-0.008796703733038314,-0.014888542698759943,-0.01538212324314614,-0.31358695092672045,-0.024980486721601785,0.07587662769200058,0.964614380750045,-0.2576190820743789,0.006000765548950111,0.05581662668227184
2225.26666666739,0.25204954,-0.512585,0.0043987394,-2.1224668,0.11525992,1.6208748,0.50876415,0.04,0.04,-0.008178448306983555,-0.014285820470133492,-0.015811067307014426,-0.3135860931073805,-0.02500221758571043,0.07601477610469287,0.9638791698449957,-0.2602280691789746,0.006073559090413112,0.05640398771611818
2225.283333334057,0.2546629,-0.5097634,0.004444185,-2.120041,0.11645428,1.6213925,0.5058881,0.04,0.04,-0.0075312144848460605,-0.013504750084913919,-0.01588871801108116,-0.3135468969504184,-0.025021865889138885,0.07614433908474831,0.9631366485736519,-0.2628345349382912,0.0061466236146169055,0.05699142423405487
2225.3000000007237,0.25727615,-0.50694215,0.0044896337,-2.117615,0.11764859,1.6219102,0.50301224,0.04,0.04,-0.007688359306001757,-0.012923361196681693,-0.016369767219948095,-0.3134690175816326,-0.025038856648240817,0.07626549977957978,0.9623869067567465,-0.2654381778876488,0.006219954856819566,0.057578881410160536
2225.3166666673906,0.25988883,-0.50412136,0.0045350795,-2.1151898,0.11884258,1.6224278,0.50013685,0.04,0.04,-0.008726474144093999,-0.011928872104705057,-0.016730950079568707,-0.31335238188973175,-0.025053158806552404,0.07637719699980568,0.961630067566082,-0.2680386126137665,0.006293228561466207,0.058166232259041974
2225.3333333340574,0.26250073,-0.50130147,0.0045805215,-2.112765,0.12003625,1.6229452,0.4972625,0.04,0.04,-0.007761346218515541,-0.011521306357253902,-0.01693358296104286,-0.3131972923294083,-0.02506741792475824,0.07648238684474928,0.9608662434595149,-0.27063546863712545,0.00636670188080751,0.0587534714099915
2225.3500000007243,0.26511145,-0.49848288,0.00462595,-2.110342,0.12122935,1.6234624,0.49438938,0.04,0.04,-0.009193299009657707,-0.010484406659050372,-0.017492416445330505,-0.31300396441699674,-0.02507824593340234,0.07657778020370565,0.9600955498316024,-0.27322841893236094,0.006440053272198131,0.059340475184535404
2225.366666667391,0.2677207,-0.49566564,0.004671361,-2.1079202,0.12242176,1.6239794,0.4915179,0.04,0.04,-0.008375015392791951,-0.009997915925652467,-0.017274422907709308,-0.3127723434592393,-0.025091557765304445,0.07666541731230299,0.9593180985908373,-0.2758171369593367,0.006513470906966778,0.059927183918147046
2225.383333334058,0.27032813,-0.49285042,0.004716748,-2.1054997,0.12361339,1.6244965,0.48864838,0.04,0.04,-0.007721501534563302,-0.00925741948608616,-0.017502503834654348,-0.31250295198139905,-0.025100095245872832,0.0767486656833126,0.9585340072398688,-0.2784012830746955,0.006587297154817523,0.06051355272363606
2225.400000000725,0.27293357,-0.49003744,0.0047621066,-2.1030812,0.12480404,1.6250129,0.48578113,0.04,0.04,-0.008438637139462912,-0.008588704349621334,-0.018208170583089434,-0.3121953229811406,-0.02510609597831503,0.07682085453326971,0.9577433733541129,-0.2809806279305762,0.006661095804192389,0.061099487123142636
2225.416666667392,0.27553657,-0.48722708,0.0048074317,-2.1006649,0.12599356,1.6255288,0.48291656,0.04,0.04,-0.00824968158945616,-0.007693306811507039,-0.018263506935389806,-0.311848432469778,-0.025110534281065286,0.0768861740547589,0.9569463502712602,-0.2835547471967224,0.006735000480978629,0.06168490749963657
2225.4333333340587,0.2781368,-0.48441967,0.004852718,-2.098251,0.12718189,1.6260437,0.480055,0.04,0.04,-0.008775732025867455,-0.006876551216650206,-0.018978873276553898,-0.31146393542875017,-0.025112425389892525,0.07694118910596413,0.9561430632096978,-0.28612332820759423,0.006808638787217771,0.062269785363772964
2225.4500000007256,0.280734,-0.48161548,0.00489796,-2.0958405,0.12836875,1.6265578,0.47719693,0.04,0.04,-0.009094179043822592,-0.006204464743175819,-0.018963366371793633,-0.31104102385622556,-0.02511680834625036,0.07698736367626563,0.9553336604071484,-0.28868600630171015,0.006882075922317867,0.0628539902444349
2225.4666666673925,0.28332788,-0.47881496,0.004943153,-2.0934331,0.12955406,1.6270719,0.47434255,0.04,0.04,-0.008646185899241488,-0.0055697460030090795,-0.01875548796550497,-0.3105802591418452,-0.025121698996172538,0.07702588590585686,0.9545182603859372,-0.29124250346759517,0.006955716121452884,0.06343747139483005
2225.4833333340594,0.28591797,-0.47601837,0.0049882885,-2.0910285,0.13073772,1.627585,0.4714922,0.04,0.04,-0.00723812911647137,-0.004703922910387348,-0.018855505599280065,-0.31008191411076336,-0.025122912889626092,0.07705596093866053,0.9536970018389394,-0.2937924928048113,0.007029696061561866,0.06402017828962209
2225.5000000007262,0.28850403,-0.47322616,0.0050333636,-2.0886278,0.13191949,1.6280977,0.46864632,0.04,0.04,-0.008961024553588715,-0.00384657541149247,-0.019472283621135844,-0.30954567039998815,-0.025120753363709745,0.0770759581791049,0.952870047673595,-0.29633560861247216,0.007103635576969038,0.06460199436848765
2225.516666667393,0.29108596,-0.47043857,0.005078373,-2.086231,0.1330993,1.6286091,0.4658052,0.04,0.04,-0.00836679364031312,-0.003409359840045312,-0.01985609696524282,-0.30897266136111584,-0.025116395026236592,0.07708827558518316,0.9520374960474921,-0.2988716789985606,0.007177468496797039,0.0651828931406088
2225.53333333406,0.29366314,-0.46765587,0.0051233117,-2.0838394,0.13427696,1.6291194,0.46296915,0.04,0.04,-0.010380930063957905,-0.002073508553057657,-0.02025132946696928,-0.30836080549391914,-0.025111641876545073,0.07709168253219825,0.951199548912456,-0.3014002378040042,0.007250682450863555,0.06576277369778952
2225.550000000727,0.29623538,-0.4648786,0.005168173,-2.0814517,0.13545237,1.629629,0.4601386,0.04,0.04,-0.006982287342705007,-0.001777144212189441,-0.019493670693448983,-0.30771154011507684,-0.025111304982453155,0.07708820996746214,0.9503563290405438,-0.30392103295955664,0.00732442927122812,0.06634158811204748
2225.5666666673937,0.29880235,-0.46210697,0.0052129524,-2.0790687,0.13662536,1.6301378,0.45731378,0.04,0.04,-0.008286757385889132,-0.0008495016351361961,-0.019938983938128096,-0.3070254556765795,-0.02510409985383677,0.07707437154851916,0.9495079925593054,-0.30643376475936446,0.007398292897715779,0.06691924344760773
2225.5833333340606,0.30136383,-0.45934135,0.0052576456,-2.0766916,0.13779579,1.6306454,0.45449516,0.04,0.04,-0.00993851871640139,-2.3563041617880032e-05,-0.020793283071762758,-0.30630182715232396,-0.025093469195651905,0.07705150019337649,0.9486547071688541,-0.3089381072995472,0.007471654429822058,0.06749567989605251
2225.6000000007275,0.3039194,-0.45658216,0.0053022467,-2.0743198,0.13896354,1.6311518,0.4516831,0.04,0.04,-0.008008525841285419,0.0007564823313765956,-0.020433881110970553,-0.30554107469539404,-0.02508582965852582,0.07702141127403138,0.9477966365033942,-0.31143373155619425,0.0075450941472894615,0.06807083249194067
2225.6166666673944,0.3064687,-0.4538296,0.0053467494,-2.0719535,0.14012842,1.6316571,0.44887787,0.04,0.04,-0.008081639263002316,0.001613168064529269,-0.02026993537378452,-0.30474389895592996,-0.025076407740005274,0.07698323590530073,0.9469339482290225,-0.31392032635979833,0.007618644048350103,0.0686446112409202
2225.6333333340613,0.3090115,-0.45108408,0.0053911484,-2.0695932,0.14129032,1.6321609,0.4460798,0.04,0.04,-0.008350066393925104,0.0023818764773531065,-0.020917619549676303,-0.3039104946129475,-0.025062305641323005,0.07693457933761651,0.946066787927622,-0.31639765732004577,0.007692045955788837,0.06921696072288026
2225.650000000728,0.3115476,-0.44834602,0.005435439,-2.0672395,0.14244911,1.6326635,0.44328925,0.04,0.04,-0.008844786823347661,0.0030006083217126722,-0.021048196272110964,-0.303040134290111,-0.02504854305005969,0.07687796458996726,0.9451953195435628,-0.31886544044734594,0.007765305872144296,0.06978781287570422
2225.666666667395,0.31407648,-0.4456155,0.005479616,-2.0648925,0.14360462,1.6331645,0.44050655,0.04,0.04,-0.008784548243223611,0.004138925862640086,-0.02093424555884571,-0.30213337388242667,-0.025033776532872896,0.07681275051613619,0.9443197464096057,-0.3213232917768867,0.007838297486268995,0.07035708773876717
2225.683333334062,0.31659788,-0.44289303,0.005523675,-2.0625525,0.14475673,1.6336638,0.43773207,0.04,0.04,-0.008464136978103554,0.004896741550441952,-0.02128980458526719,-0.3011902514758029,-0.02501850851437436,0.07673926167154879,0.9434402344715549,-0.3237709418138821,0.007911028923521675,0.07092472656683713
2225.700000000729,0.31911173,-0.44017902,0.0055676117,-2.0602195,0.14590529,1.6341616,0.4349661,0.04,0.04,-0.00808411928878705,0.005310811836001239,-0.0212483756901527,-0.3002117377424449,-0.025002945877143117,0.0766574524719771,0.9425569109274834,-0.3262082419199566,0.007983758304953436,0.07149064393093323
2225.7166666673957,0.32161742,-0.43747354,0.005611418,-2.0578942,0.14705014,1.6346579,0.43220904,0.04,0.04,-0.008801068329322703,0.006557114371774642,-0.021110904119825413,-0.2991965307177455,-0.024985926115661715,0.07656624654089271,0.9416700316768467,-0.32863468770530363,0.008056222779514946,0.07205477606023716
2225.7333333340625,0.32411486,-0.43477714,0.0056550903,-2.0555763,0.14819121,1.6351528,0.42946118,0.04,0.04,-0.007398693738069895,0.006939917385462291,-0.021003415498022093,-0.2981467448773937,-0.02496774173602001,0.07646712559780089,0.9407797167040255,-0.3310501562020769,0.008128935470534825,0.0726170718563486
2225.7500000007294,0.32660353,-0.43209004,0.0056986245,-2.0532668,0.14932829,1.6356455,0.4267228,0.04,0.04,-0.00898427256630363,0.008342797406013513,-0.02181745464631124,-0.29706132300599214,-0.02494588595677954,0.07635854964141342,0.9398861835506918,-0.33345429556570433,0.008201054659846229,0.07317743806503069
2225.7666666673963,0.32908338,-0.42941257,0.0057420125,-2.0509653,0.15046135,1.6361368,0.4239942,0.04,0.04,-0.007734734789854869,0.008495605834824005,-0.02114802930475168,-0.2959405374879067,-0.024925982847269636,0.07624258609473819,0.9389895742365266,-0.3358469246134772,0.008273267855899836,0.07373585112928686
2225.783333334063,0.3315541,-0.426745,0.005785253,-2.048672,0.15159012,1.636626,0.42127585,0.04,0.04,-0.007469975358675995,0.009423739713676493,-0.021386496598063687,-0.29478501937582163,-0.024901776277104284,0.0761180517286312,0.938090084025792,-0.3382277623506452,0.008345404282552992,0.07429218838558323
2225.80000000073,0.33401525,-0.4240877,0.0058283405,-2.0463877,0.15271458,1.6371135,0.41856793,0.04,0.04,-0.00837216936218077,0.010499377878214755,-0.021481290516378593,-0.29359400406889646,-0.024873458453167772,0.07598670594658206,0.937187922892025,-0.34059647468846665,0.008417309069006881,0.07484642625508009
2225.816666667397,0.33646658,-0.42144102,0.0058712657,-2.0441132,0.15383452,1.6375989,0.41587088,0.04,0.04,-0.0091206963789503,0.011352510315509878,-0.021883207283845962,-0.2923686122075925,-0.024845779447198596,0.07584561126050066,0.9362832958971571,-0.34295277030102334,0.008488659193972839,0.07539847367088218
2225.833333334064,0.3389078,-0.41880524,0.005914029,-2.041848,0.15494978,1.6380825,0.41318497,0.04,0.04,-0.007699170601060956,0.011991471814720711,-0.021308452461510363,-0.29110945332134536,-0.024821062470884458,0.07569564143428248,0.9353763778750157,-0.3452964283640689,0.008559958384882238,0.07594824148643821
2225.8500000007307,0.34133866,-0.41618067,0.0059566237,-2.0395918,0.15606038,1.6385641,0.41051048,0.04,0.04,-0.006819566628202267,0.012615356264422672,-0.02123569919989521,-0.2898163850922275,-0.024792542161576347,0.07553809580987933,0.9344673362604575,-0.34762724209403856,0.008631354174266897,0.07649573675372998
2225.8666666673976,0.3437589,-0.41356763,0.005999044,-2.0373456,0.157166,1.6390435,0.40784785,0.04,0.04,-0.007982960222463475,0.013634250419169991,-0.021683618839674068,-0.2884893275515664,-0.024762122979723772,0.0753669269026053,0.9335563945130289,-0.3499449101468023,0.008702404482336789,0.0770408092013986
2225.8833333340644,0.34616816,-0.41096652,0.006041284,-2.03511,0.15826663,1.6395208,0.4051972,0.04,0.04,-0.0080418337960797,0.014502929336168702,-0.02156707157263682,-0.28712850026875214,-0.024730908016598593,0.07518869850312812,0.9326437356228272,-0.3522492045625026,0.008773192595378974,0.07758344784982599
2225.9000000007313,0.3485662,-0.40837747,0.006083344,-2.0328846,0.15936215,1.6399956,0.40255904,0.04,0.04,-0.007474565388232435,0.015146595065185231,-0.021559276128346738,-0.28573485636777185,-0.02469817211782006,0.07500474104304965,0.9317295670621536,-0.3545398528251311,0.00884366017503426,0.07812359627932368
2225.916666667398,0.35095266,-0.40580085,0.0061252145,-2.0306704,0.16045238,1.6404687,0.39993355,0.04,0.04,-0.008221322047941015,0.01609368097947872,-0.0211668207261706,-0.2843081603571017,-0.02466540219154418,0.07480918835189525,0.930814106833294,-0.35681656677280843,0.008913931842771871,0.0786611595115742
2225.933333334065,0.35332748,-0.40323704,0.006166893,-2.0284667,0.1615372,1.6409389,0.39732102,0.04,0.04,-0.006727462216105096,0.01662911009951973,-0.021773499801347462,-0.28284959215195793,-0.02463174380819535,0.0746052204542345,0.9298974759392976,-0.35907931433732415,0.008983890863622751,0.07919608552012417
2225.950000000732,0.35569015,-0.40068623,0.0062083704,-2.0262744,0.16261654,1.6414068,0.39472184,0.04,0.04,-0.007771616381635482,0.017706036599696162,-0.021268184598466355,-0.28135698683712496,-0.024596442781563827,0.07439343125561398,0.9289799594150611,-0.361327637612573,0.009053511735492301,0.0797283339081168
2225.966666667399,0.3580405,-0.39814875,0.006249648,-2.0240934,0.1636902,1.6418724,0.39213622,0.04,0.04,-0.00677120846033219,0.018262191606543965,-0.02102109239516814,-0.2798334054794437,-0.02456068138388469,0.07417291635916737,0.9280617121355975,-0.3635614293933989,0.009123071306228898,0.08025780395272164
2225.9833333340657,0.36037818,-0.39562488,0.0062907184,-2.0219243,0.16475809,1.6423352,0.38956463,0.04,0.04,-0.007640544297649043,0.019394361722602227,-0.02148782681488104,-0.2782777366429999,-0.02452163752954913,0.07394430627319834,0.9271429928643613,-0.36578032746552297,0.009192059207640756,0.0807844593300761
2226.0000000007326,0.36270303,-0.39311492,0.006331577,-2.0197666,0.1658201,1.6427956,0.38700712,0.04,0.04,-0.006104061041822817,0.019710216688784143,-0.02079340708875943,-0.2766912530834106,-0.02448444574504901,0.07370808338800208,0.926223921029895,-0.36798430735375715,0.009261100558395253,0.08130823863440682
2226.0166666673995,0.36501476,-0.3906192,0.0063722185,-2.0176218,0.16687603,1.6432534,0.38446414,0.04,0.04,-0.008064083840286784,0.020841324150977503,-0.021273385499176456,-0.2750728914601933,-0.02444258805491194,0.07346106261841776,0.925304765158313,-0.37017301290093385,0.009329561498985065,0.0818290374952619
2226.0333333340664,0.36731303,-0.3881379,0.0064126416,-2.0154893,0.16792585,1.6437086,0.38193595,0.04,0.04,-0.006837196343889573,0.021568631368928948,-0.020901490015168278,-0.27342428822501924,-0.024400961584350175,0.07320983857752714,0.9243857199333876,-0.37234623850385246,0.009397682769816283,0.08234684580372718
2226.0500000007332,0.3695977,-0.38567144,0.006452838,-2.01337,0.16896944,1.6441609,0.37942284,0.04,0.04,-0.007451916488276922,0.022267872300185676,-0.021208233517966413,-0.2717450845722154,-0.02436027523451047,0.07294844301490398,0.9234669744414534,-0.3745038193616336,0.009465217342470725,0.0828616078781758
2226.0666666674,0.37186855,-0.38322,0.0064928047,-2.0112627,0.17000666,1.6446106,0.37692505,0.04,0.04,-0.004852495588947292,0.022635669161052974,-0.020093164074785896,-0.2700355062857538,-0.024320838463518762,0.07267840125199534,0.922548699822194,-0.376645615291816,0.00953303852466154,0.08337324579453656
2226.083333334067,0.37412512,-0.38078386,0.0065325378,-2.0091693,0.17103736,1.6450576,0.37444293,0.04,0.04,-0.00810915158582226,0.024137445671801316,-0.020963213512281698,-0.26829585124598226,-0.02427518169919365,0.07239655683064498,0.921631188350057,-0.37877124218375113,0.00960004876799552,0.0838816894124815
2226.100000000734,0.37636736,-0.37836337,0.006572034,-2.0070891,0.17206149,1.6455017,0.37197667,0.04,0.04,-0.005795534084240828,0.024318072376194877,-0.02033664940648272,-0.26652750431139816,-0.02423189505087852,0.07211011587459948,0.9207145662702186,-0.3808806734792084,0.009666938895955322,0.0843869084648195
2226.1166666674008,0.3785949,-0.37595874,0.006611288,-2.0050228,0.17307888,1.6459427,0.36952662,0.04,0.04,-0.006757303682602966,0.025430190115494078,-0.020604433077719975,-0.26472930833610536,-0.02418657281131227,0.07181416852831364,0.9197990836627586,-0.38297362435012905,0.009733216365547049,0.08488882873769338
2226.1333333340676,0.38080752,-0.37357014,0.0066502946,-2.0029702,0.17408937,1.6463809,0.367093,0.04,0.04,-0.006221073643031261,0.026016993131472432,-0.019916108982998004,-0.262902523650143,-0.024142519572762745,0.07150940203506993,0.9188849387455352,-0.38504992307305635,0.009799206261328445,0.08538736232426389
2226.1500000007345,0.38300502,-0.3711979,0.00668905,-2.0009317,0.17509298,1.6468161,0.36467606,0.04,0.04,-0.0060683604741207375,0.026638989614491404,-0.020022692109522566,-0.26104748214315454,-0.024096450749267515,0.07119794587322896,0.9179723187597008,-0.3871094163198713,0.009864829110007266,0.08588251820980385
2226.1666666674014,0.38518718,-0.3688424,0.006727551,-1.9989076,0.17608948,1.6472483,0.3622762,0.04,0.04,-0.005856180806684819,0.027482647067589294,-0.01995373274150669,-0.2591644680540539,-0.024048876699841775,0.07087872380964416,0.9170614533372385,-0.3891518784601398,0.00993007514290375,0.08637418538888118
2226.1833333340683,0.38735372,-0.36650378,0.006765792,-1.9968978,0.17707884,1.6476773,0.3598936,0.04,0.04,-0.005657912938961118,0.028154305687011494,-0.019655215991587482,-0.25725395993975586,-0.024000321178733887,0.07055161025154891,0.9161525369105151,-0.3911771491547512,0.009994976101695616,0.08686234825466947
2226.200000000735,0.3895043,-0.36418235,0.00680377,-1.9949026,0.17806096,1.6481031,0.35752848,0.04,0.04,-0.005315974193242923,0.02901006909864501,-0.019446673673573223,-0.25531626074530234,-0.023949744049875394,0.0702160339629373,0.9152457853208831,-0.39318502933882726,0.01005956310513158,0.08734695384682689
2226.216666667402,0.39163882,-0.3618783,0.00684148,-1.9929225,0.17903572,1.6485256,0.35518116,0.04,0.04,-0.005988660290867642,0.029691753206007032,-0.019510868182881502,-0.2533521150002479,-0.023899544652558988,0.06987119164390021,0.9143414058087649,-0.395175352125082,0.010123560088946802,0.08782794673447823
2226.233333334069,0.39375702,-0.35959193,0.0068789176,-1.9909577,0.18000294,1.6489449,0.3528518,0.04,0.04,-0.005575689824643959,0.03037511801744497,-0.019189745483849663,-0.2513619371413332,-0.023846588702344983,0.06952430742714595,0.9134395862073809,-0.39714799580109705,0.010187113751310319,0.08830523480450334
2226.250000000736,0.3958586,-0.35732344,0.00691608,-1.9890084,0.18096262,1.649361,0.35054067,0.04,0.04,-0.005487851023211476,0.031112051293047394,-0.018825176599368554,-0.24934522095874306,-0.02379568159625955,0.06916446691132364,0.9125405502580303,-0.3991027411226308,0.010250270921950615,0.08877881565554005
2226.2666666674027,0.39794347,-0.35507298,0.0069529647,-1.9870745,0.18191464,1.6497738,0.34824803,0.04,0.04,-0.005007636080600619,0.03153513599162272,-0.018672649506412675,-0.24730367499072556,-0.023743748248198613,0.06879739307849034,0.9116444722737598,-0.40103949831115304,0.010313033271388357,0.08924863198828338
2226.2833333340695,0.40001136,-0.352841,0.006989564,-1.9851568,0.18285881,1.6501833,0.34597415,0.04,0.04,-0.005626901281319263,0.03257251143157225,-0.018775072821841654,-0.24523680529018643,-0.023691007458974445,0.06842185162967789,0.9107515840338727,-0.40295806218290836,0.010375207557130447,0.08971458838858691
2226.3000000007364,0.402062,-0.35062754,0.007025879,-1.9832554,0.18379517,1.6505893,0.3437193,0.04,0.04,-0.005640974334841786,0.03318049856650962,-0.01847833663721765,-0.24314541838614304,-0.023638719147581484,0.06803966748742384,0.9098621070785606,-0.40485822545619127,0.0104367018816818,0.09017670783998723
2226.3166666674033,0.40409532,-0.34843293,0.0070619034,-1.9813694,0.18472356,1.6509919,0.34148356,0.04,0.04,-0.003402260546092606,0.033445045101987425,-0.017827081025378888,-0.24103052042670714,-0.023587764840330015,0.06765034360865452,0.9089761512075792,-0.40674004002780595,0.010498136522136332,0.09063490223748051
2226.33333333407,0.406111,-0.3462574,0.007097633,-1.9795002,0.18564396,1.6513909,0.33926734,0.04,0.04,-0.005400054585491532,0.03450339140748104,-0.018183269244098632,-0.2388913313965528,-0.023532869050911204,0.06725309755602803,0.9080940038297559,-0.40860317388924783,0.010558852891602202,0.09108917126470047
2226.350000000737,0.40810895,-0.34410107,0.007133066,-1.9776477,0.18655607,1.6517864,0.33707067,0.04,0.04,-0.004822289437766969,0.03499760118348405,-0.01768942600899326,-0.23672943239038713,-0.02347879782524393,0.0668487908332623,0.9072158023234144,-0.4104476445872771,0.010619042435997763,0.09153936314603757
2226.366666667404,0.41008884,-0.34196422,0.007168198,-1.9758118,0.18746,1.6521783,0.33489388,0.04,0.04,-0.0043681464109823764,0.03570634244186577,-0.0174778494061556,-0.23454412108424985,-0.023424934028330575,0.0664381777022734,0.906341778818476,-0.4122732193445313,0.010678704371362698,0.09198553066871953
2226.383333334071,0.41205058,-0.33984697,0.0072030253,-1.9739927,0.18835557,1.6525666,0.33273715,0.04,0.04,-0.003981646701545216,0.03615588109886492,-0.01706181106797544,-0.23233655236929118,-0.02337160442454585,0.0660189537224658,0.9054721013895434,-0.4140798389318812,0.010737964854326314,0.0924275754639223
2226.4000000007377,0.41399392,-0.33774963,0.0072375443,-1.9721909,0.18924274,1.6529514,0.33060068,0.04,0.04,-0.004359254474195495,0.036868713077709,-0.016946037832776817,-0.23010699145925761,-0.02331548689817893,0.06559441097081882,0.904606981294631,-0.4158673356439973,0.010796734462730995,0.09286548908135488
2226.4166666674046,0.4159186,-0.33567247,0.0072717518,-1.9704058,0.1901214,1.6533322,0.3284847,0.04,0.04,-0.003135015123501006,0.03763677745460825,-0.016645768315526333,-0.2278564909369399,-0.023256573703497364,0.06516593261250472,0.9037466167967517,-0.4176355771099736,0.01085514683065933,0.0932992130070213
2226.4333333340714,0.4178246,-0.33361557,0.0073056445,-1.9686383,0.19099146,1.6537094,0.3263894,0.04,0.04,-0.0040287262857763295,0.03795352410501662,-0.01656315152751553,-0.22558529512227998,-0.023198660092237602,0.06472539019135201,0.9028911627878018,-0.41938453083732585,0.010912998409764176,0.09372870381988635
2226.4500000007383,0.41971165,-0.33157918,0.0073392196,-1.9668888,0.19185285,1.654083,0.32431495,0.04,0.04,-0.004303121582660552,0.038746086070773345,-0.016283005314488008,-0.22329341999777752,-0.0231411601445142,0.06427758291083731,0.9020408435463434,-0.4211140099679979,0.010970231747072874,0.09415392290441045
2226.466666667405,0.42157963,-0.3295635,0.007372472,-1.9651568,0.1927055,1.6544527,0.32226172,0.04,0.04,-0.0031298928808709547,0.03918313953179542,-0.016009199070010638,-0.22098188312298392,-0.023083066872473197,0.0638264555510572,0.9011958471902949,-0.4228239006173888,0.011026996538120707,0.09457483503031582
2226.483333334072,0.42342824,-0.32756865,0.0074054003,-1.9634429,0.1935493,1.6548185,0.3202297,0.04,0.04,-0.0038071784512982987,0.039975062087826974,-0.01570446879040066,-0.21865107686781537,-0.023025303163683983,0.06336575023085567,0.9003563603435397,-0.4245141030383142,0.011083126377502594,0.09499139445344432
2226.500000000739,0.42525753,-0.32559475,0.0074380026,-1.9617475,0.19438423,1.6551806,0.31821904,0.04,0.04,-0.004104993022302494,0.04020060739385878,-0.01567188324114177,-0.2163022163742176,-0.02296531849304771,0.06290208507469895,0.8995225097426709,-0.42618463754121944,0.011138492105329387,0.09540358056029866
2226.516666667406,0.42706713,-0.32364216,0.007470272,-1.9600699,0.19521014,1.6555388,0.3162301,0.04,0.04,-0.0021650391659466806,0.040958864528639616,-0.014881726128601613,-0.2139340532428608,-0.022908244563133517,0.06243168235037947,0.898694543979402,-0.427835260589072,0.011193624948573866,0.09581132072383823
2226.5333333340727,0.42885703,-0.32171085,0.0075022094,-1.9584104,0.19602703,1.6558931,0.31426296,0.04,0.04,-0.002742602665772864,0.041230661984781314,-0.014804734834261701,-0.21154911850296032,-0.02284800422584274,0.06195235060124506,0.8978725956698433,-0.4294659789594415,0.011248266515393067,0.09621461095855033
2226.5500000007396,0.43062696,-0.31980112,0.007533811,-1.9567695,0.19683477,1.6562434,0.31231767,0.04,0.04,-0.0029595625434364337,0.042038123410503836,-0.014643961699256636,-0.20914670908248884,-0.022788715837104484,0.06146640202078189,0.8970568416471566,-0.43107671166382283,0.011302336830224146,0.09661339812525808
2226.5666666674065,0.43237686,-0.3179131,0.0075650727,-1.9551474,0.19763334,1.6565896,0.31039461,0.04,0.04,-0.003128029911891872,0.042464331614233686,-0.014619384798542079,-0.20672750617101357,-0.022728430341229244,0.060974419116416795,0.8962474833689317,-0.4326673212453388,0.011355640227145072,0.09700766524492153
2226.5833333340734,0.4341066,-0.31604692,0.007595992,-1.9535443,0.1984227,1.656932,0.30849373,0.04,0.04,-0.0027966846658511457,0.04284729052591585,-0.014088808364554062,-0.20429243678372527,-0.02266846348936954,0.06047841289095891,0.8954446494559403,-0.4342378111131837,0.011408392435698689,0.09739739083975615
2226.6000000007402,0.435816,-0.3142027,0.0076265694,-1.95196,0.1992027,1.6572703,0.3066154,0.04,0.04,-0.0024603416636015396,0.043361142346609594,-0.013759662685841612,-0.2018416384872812,-0.022606496226055407,0.05997900188469692,0.8946485540740403,-0.43578802468495215,0.01146054917105775,0.097782503788326
2226.616666667407,0.4375048,-0.31238067,0.0076567987,-1.9503947,0.19997329,1.6576046,0.30475953,0.04,0.04,-0.0023073605038614886,0.044075358177086965,-0.013474475382269091,-0.1993761866234236,-0.022547242373464213,0.05947136322632083,0.8938593336568214,-0.437317954379144,0.011512142206676334,0.0981629716035408
2226.633333334074,0.439173,-0.31058094,0.0076866774,-1.9488486,0.2007345,1.6579347,0.30292645,0.04,0.04,-0.002062783433665061,0.04425710479194489,-0.013313675560011617,-0.19689625158500138,-0.02248693826969924,0.05895736363728479,0.8930771621735385,-0.438827502948244,0.0115631380085214,0.09853881925243452
2226.650000000741,0.44082054,-0.3088036,0.0077162045,-1.9473219,0.20148616,1.6582602,0.30111617,0.04,0.04,-0.002547013281883892,0.04484687492627426,-0.013348737923823961,-0.19440290868230747,-0.022425824885499525,0.05843901667802018,0.8923021651707951,-0.4403167022011751,0.011613226470675714,0.09890996292150579
2226.6666666674078,0.44244725,-0.3070488,0.0077453787,-1.9458145,0.20222831,1.6585816,0.29932895,0.04,0.04,-0.001794026520940406,0.04511496478758481,-0.012728606064160708,-0.19189584415163605,-0.022367579765811038,0.05791640220654627,0.8915345309178521,-0.4417854159040868,0.011662726527056941,0.09927641857708913
2226.6833333340746,0.44405302,-0.30531672,0.007774197,-1.9443265,0.20296086,1.6588992,0.29756474,0.04,0.04,-0.0015226675496471387,0.04542739814497043,-0.012213655506565502,-0.18937599263133761,-0.022308645539973783,0.05739066024498342,0.8907743728450883,-0.44323367595139906,0.011711835890833838,0.09963813569670915
2226.7000000007415,0.44563764,-0.30360723,0.007802656,-1.9428579,0.20368381,1.6592127,0.29582384,0.04,0.04,-0.001470383141244369,0.045926534264206786,-0.011738690179297073,-0.18684400975690169,-0.022248206615297007,0.056856949805638504,0.8900219036770672,-0.444661310466484,0.011760431379304406,0.09999511089573843
2226.7166666674084,0.44720113,-0.3019207,0.007830755,-1.9414088,0.20439702,1.6595219,0.2941063,0.04,0.04,-0.0012058976733175797,0.04632299271797313,-0.011932867531894154,-0.1843016410965384,-0.022185999117262458,0.05631825651897937,0.8892772214933345,-0.44606838682446404,0.01180846138926596,0.10034728620412886
2226.7333333340753,0.4487433,-0.30025724,0.007858488,-1.9399797,0.2051005,1.6598272,0.29241216,0.04,0.04,-0.0016929441976287762,0.046763821931905536,-0.011481345092057005,-0.18174793783075105,-0.022124678040622854,0.05577478016885433,0.8885404873131486,-0.4474548309518718,0.011855902372504291,0.10069465845851965
2226.750000000742,0.45026422,-0.29861692,0.007885856,-1.9385701,0.20579425,1.660128,0.2907416,0.04,0.04,-0.0007404078486317189,0.04693797357621099,-0.01146824160895843,-0.1791845526482851,-0.022060610597359667,0.05522869797964897,0.8878118009570926,-0.4488206879157542,0.011902742036257807,0.10103722537842873
2226.766666667409,0.45176357,-0.29699972,0.007912858,-1.937181,0.20647813,1.6604247,0.28909466,0.04,0.04,-0.001976307706685887,0.047587921501091035,-0.010946922649157642,-0.17661081019411962,-0.02199872162697337,0.054675130729814725,0.8870913648155803,-0.4501658138191234,0.011948795698268436,0.10137493190901993
2226.783333334076,0.4532413,-0.29540583,0.007939491,-1.9358124,0.20715216,1.6607165,0.2874715,0.04,0.04,-0.002035542046119332,0.048158026810152244,-0.011305744743395074,-0.1740286402132644,-0.021937461153032915,0.05411976569627087,0.8863793087075743,-0.4514901993140892,0.011993673650723697,0.10170778146615321
2226.800000000743,0.4546975,-0.29383537,0.007965758,-1.9344641,0.20781632,1.6610042,0.28587222,0.04,0.04,-0.0012788034907007528,0.047929847647887325,-0.0106385069995385,-0.17143829366547023,-0.021878271275778315,0.053564652336749556,0.8856757227490969,-0.45279389085755695,0.012037837710269493,0.10203576332933942
2226.8166666674097,0.45613202,-0.29228833,0.007991648,-1.9331354,0.20847055,1.6612877,0.2842968,0.04,0.04,0.0002757080483917207,0.04812609778922505,-0.009800387409009126,-0.16884019861231916,-0.021822624438980476,0.05300224049003642,0.884980709874437,-0.4540769125504872,0.012081708807827614,0.10235884402941221
2226.8333333340765,0.45754474,-0.29076484,0.008017168,-1.931827,0.20911479,1.6615671,0.28274533,0.04,0.04,-0.0006197878950064961,0.04867033548813238,-0.009686493872207436,-0.1662348475521494,-0.021763837470820203,0.05243526955129625,0.8842944254083167,-0.4553392020379407,0.012125051843798047,0.10267698572227137
2226.8500000007434,0.45893556,-0.28926492,0.008042311,-1.9305385,0.20974903,1.6618423,0.28121787,0.04,0.04,-8.06574447231867e-05,0.048912401326406396,-0.009304403190313337,-0.16362320990098678,-0.021704668885081088,0.051864863861658075,0.8836169884355615,-0.45658074851164177,0.012167939794668946,0.10299018923067935
2226.8666666674103,0.46030444,-0.2877887,0.008067081,-1.9292705,0.21037331,1.6621132,0.27971444,0.04,0.04,-0.00045709091192058793,0.04922011494209455,-0.009415154878333887,-0.16100618128491112,-0.021643174044145445,0.05129000995990222,0.8829484916881005,-0.4578015920645485,0.012210135883821801,0.10329847971084338
2226.883333334077,0.46165147,-0.2863361,0.008091471,-1.9280227,0.21098751,1.6623795,0.2782352,0.04,0.04,-0.0002985169327729409,0.04928358535641886,-0.00916365906016292,-0.15838421235829123,-0.021582219988257857,0.05071184916714251,0.8822890403555412,-0.45900176024302003,0.012251594275785451,0.1036017943860474
2226.900000000744,0.46297657,-0.2849073,0.008115482,-1.9267955,0.21159163,1.662641,0.27678022,0.04,0.04,-0.00037428974359876577,0.04968861678691372,-0.009192948634928477,-0.15575748339098916,-0.02152176911260095,0.05013134696938964,0.8816387483110101,-0.46018124727234594,0.012292167055690672,0.10390014323637088
2226.916666667411,0.46427962,-0.28350222,0.008139112,-1.925589,0.21218574,1.6628985,0.27534956,0.04,0.04,-0.0006416020187138827,0.049767794750099625,-0.008377093304634542,-0.15312656145314965,-0.02146425909550237,0.0495486144872157,0.8809977613752399,-0.46133997225953527,0.012332034135480962,0.1041935476959506
2226.933333334078,0.4655606,-0.282121,0.008162358,-1.924403,0.21276979,1.663152,0.27394313,0.04,0.04,0.00017506602687511474,0.04994667785063189,-0.008056602768524712,-0.1504934177663633,-0.021406266342910596,0.0489651014559946,0.8803661361844886,-0.4624780317952574,0.012371407575253244,0.10448198237488755
2226.9500000007447,0.4668194,-0.28076366,0.008185226,-1.9232372,0.2133437,1.6634011,0.2725609,0.04,0.04,0.0006023806997212944,0.05018736572126592,-0.007770442489052343,-0.14785827729379983,-0.021347930517865876,0.04837628183589968,0.8797439474481806,-0.46359549383406606,0.012410289558855437,0.10476540334531491
2226.9666666674116,0.4680561,-0.27943015,0.008207711,-1.9220922,0.21390752,1.6636455,0.2712031,0.04,0.04,-0.0003152105732429078,0.05043890236597903,-0.008090743980782023,-0.14522120106795652,-0.021287453138120044,0.04778528529564263,0.8791313250008248,-0.46469231114100445,0.012448176736866596,0.10504385876696368
2226.9833333340785,0.4692707,-0.2781205,0.008229811,-1.9209672,0.21446124,1.6638856,0.2698696,0.04,0.04,0.001173809921661828,0.05027181212353682,-0.007152122734654931,-0.14258342135979607,-0.021229958609587905,0.04719418088810634,0.8785283004585123,-0.4657686082184922,0.012485667940853354,0.10531731570713972
2227.0000000007453,0.4704632,-0.2768348,0.008251528,-1.9198631,0.21500486,1.664121,0.26856056,0.04,0.04,-8.168559109122953e-05,0.05067672450496108,-0.007617468763565505,-0.1399453523664394,-0.021168806111539738,0.04660174066251875,0.8779350023470789,-0.4668243406985811,0.012522219216310894,0.1055857973927755
2227.016666667412,0.47163343,-0.27557307,0.008272862,-1.9187794,0.21553832,1.6643522,0.26727584,0.04,0.04,0.000998661105411358,0.05078926008861284,-0.006780810349016342,-0.13730796275904766,-0.021111462062605852,0.04600759076999211,0.8773514911632948,-0.4678595787383135,0.012558272399265153,0.10584925758217117
2227.033333334079,0.47278163,-0.2743353,0.0082938075,-1.9177163,0.21606173,1.6645794,0.26601547,0.04,0.04,0.0007113072083342331,0.05050922212779252,-0.006557593108325044,-0.13467217806361195,-0.02105180409867785,0.04541258378793384,0.8767778181547362,-0.4688743955438624,0.012593845988243488,0.10610774636388405
2227.050000000746,0.4739076,-0.27312133,0.008314368,-1.9166737,0.21657494,1.664802,0.26477936,0.04,0.04,0.0005561908837492524,0.051061737464475065,-0.006483270706292288,-0.13203820387446608,-0.02099250597579939,0.04481276536894233,0.8762140620396266,-0.4698688434225873,0.012628596119518274,0.10636120545004939
2227.066666667413,0.4750115,-0.27193123,0.008334545,-1.9156517,0.21707807,1.6650202,0.26356763,0.04,0.04,0.0006772001647448178,0.05076515416495564,-0.006293112867017392,-0.1294068479231421,-0.02093376594667367,0.044214141361644296,0.8756602832175697,-0.4708429668767883,0.012662654900921801,0.10660969050161175
2227.0833333340797,0.47609323,-0.27076495,0.008354341,-1.9146502,0.21757112,1.6652341,0.26238018,0.04,0.04,0.0008311575148134409,0.05101314503839216,-0.0059395281099439146,-0.1267791617560261,-0.02087605738559085,0.04361408072913433,0.8751165512975166,-0.4717968080606631,0.012696002401185657,0.10685319401842848
2227.1000000007466,0.47715285,-0.26962242,0.008373745,-1.9136692,0.21805412,1.6654431,0.26121706,0.04,0.04,0.0006677722127257368,0.05111608760306474,-0.006062338773382692,-0.124155690357985,-0.020820546602997356,0.04301179325305661,0.8745829176207166,-0.4727304392313711,0.012728366932425498,0.10709173966923594
2227.1166666674135,0.4781904,-0.26850376,0.008392762,-1.9127085,0.218527,1.6656482,0.26007813,0.04,0.04,0.0017126783207643825,0.05085871749663795,-0.0050737988218862995,-0.12153709151710576,-0.020766472699975357,0.0424118646071183,0.8740594229062416,-0.47364393665037924,0.012760462330598472,0.10732528641587051
2227.1333333340804,0.479206,-0.26740888,0.008411394,-1.9117683,0.21898986,1.665849,0.2589634,0.04,0.04,0.0010488480967740799,0.05086649835559509,-0.005490575122557573,-0.1189249245929122,-0.020710435040285538,0.04181004643167606,0.8735460894604657,-0.474537418228625,0.012791821050657343,0.10755388232624097
2227.1500000007472,0.48019966,-0.26633757,0.008429642,-1.9108486,0.21944273,1.6660453,0.25787282,0.04,0.04,0.0007773553516887688,0.05085924147130161,-0.005167098120972824,-0.11631935521761147,-0.020653926062188088,0.041208504762377876,0.8730429692813536,-0.47541094063384887,0.012822341756935503,0.10777754342118183
2227.166666667414,0.4811714,-0.26528987,0.008447505,-1.909949,0.2198856,1.6662376,0.25680622,0.04,0.04,0.0018541438828290069,0.05071433699668226,-0.004511917896898865,-0.11372095860173309,-0.020599841732328976,0.040607326047560365,0.8725500776358245,-0.47626461377615004,0.0128524610131321,0.10799626812199103
2227.183333334081,0.48212126,-0.26426566,0.0084649855,-1.9090699,0.22031851,1.6664255,0.2557637,0.04,0.04,0.0005799691962682374,0.050895816650187164,-0.004825859281587519,-0.1111307202170933,-0.020543863082442677,0.040005391615077254,0.872067493110363,-0.4770984498841489,0.012881636664901235,0.10821007353838479
2227.200000000748,0.4830493,-0.26326483,0.008482083,-1.9082105,0.22074151,1.6666088,0.25474507,0.04,0.04,0.002127313589683766,0.050609533490209024,-0.004288869209378987,-0.10854967805393662,-0.020491237421184055,0.0394055570574453,0.8715951767423973,-0.4779126456650146,0.01291024664714706,0.10841898599583584
2227.2166666674148,0.48395562,-0.2622875,0.008498799,-1.9073715,0.22115459,1.6667877,0.25375023,0.04,0.04,0.0011515247327675837,0.050725154785147275,-0.004477462240171093,-0.1059781664841098,-0.02043763008193212,0.03880572461522771,0.8711331698012963,-0.4787072714978273,0.01293803638293829,0.10862299895328363
2227.2333333340816,0.4848404,-0.26133344,0.008515134,-1.9065523,0.2215578,1.6669624,0.2527791,0.04,0.04,0.0019462364288180822,0.050247226510191645,-0.0039994562220035945,-0.10341729837384875,-0.020385706785881613,0.03820790481278726,0.8706814424581728,-0.47948250222557165,0.012965253965784873,0.10882213932864408
2227.2500000007485,0.48570356,-0.26040262,0.008531086,-1.9057535,0.2219512,1.6671327,0.25183165,0.04,0.04,0.0009407179823117673,0.05050416307921246,-0.004032738648218626,-0.1008670378474833,-0.020333718473407272,0.0376111853959645,0.8702400795028128,-0.4802383142099843,0.012991591485158336,0.10901643978030812
2227.2666666674154,0.48654526,-0.25949487,0.008546662,-1.9049741,0.22233482,1.6672992,0.25090772,0.04,0.04,0.0024727715778993797,0.0499328689747891,-0.003217505442676405,-0.09832951523536333,-0.020283786183332014,0.03701684796070891,0.8698090332322312,-0.48097490508615665,0.013017612043966398,0.1092058980167576
2227.2833333340823,0.4873656,-0.25861007,0.008561858,-1.9042146,0.22270875,1.6674616,0.2500072,0.04,0.04,0.0015222372458545408,0.04988481241205989,-0.003311615281198499,-0.09580520461578804,-0.020231793127364627,0.036423035483122534,0.8693883260404925,-0.4816923515115097,0.013043019768753501,0.10939056940675665
