rsonawane2002/My_IMU/logs_2/traj_452/imu_400hz_452.csv
time,j1,j2,j3,j4,j5,j6,j7,gripper1,gripper2,imu_ax,imu_ay,imu_az,imu_gx,imu_gy,imu_gz
0.0,0.00016700293,-0.785875,4.0107683e-05,-2.3551247,9.29385e-05,1.570997,0.786,0.04,0.04,-9.575174,-0.0358142964541912,0.08855487,-1.0370143e-07,-0.0011641272576525,8.428315e-07
0.0025,0.00016700459499999998,-0.7858577740000002,4.010873509999999e-05,-2.35513919,9.294441899999993e-05,1.570996565,0.786,0.04,0.04,-9.614074849999506,-0.030344769934960436,0.07662922110015184,-2.600398854980093e-07,-0.0013253151148070726,8.987356449992882e-07
0.005,0.00016700625999999997,-0.7858405480000005,4.0109787199999974e-05,-2.35515368,9.295033799999985e-05,1.57099613,0.786,0.04,0.04,-9.65297569999901,-0.024875243415729668,0.06470357220030369,-4.1637834099601867e-07,-0.001486502971961645,9.546397899985764e-07
0.0075,0.00016700792499999993,-0.7858233220000007,4.011083929999996e-05,-2.35516817,9.295625699999978e-05,1.5709956950000001,0.786,0.04,0.04,-9.691876549998515,-0.019405716896498903,0.05277792330045555,-5.727167964940279e-07,-0.0016476908291162178,1.0105439349978646e-06
0.01,0.00016700958999999992,-0.785806096000001,4.0111891399999946e-05,-2.3551826599999997,9.29621759999997e-05,1.5709952600000001,0.786,0.04,0.04,-9.730777399998018,-0.013936190377268134,0.040852274400607395,-7.290552519920373e-07,-0.0018088786862707903,1.0664480799971527e-06
0.0125,0.0001670112549999999,-0.7857888700000011,4.0112943499999935e-05,-2.355197149999999,9.296809499999963e-05,1.570994825,0.786,0.04,0.04,-9.769678249997524,-0.00846666385803737,0.028926625500759244,-8.853937074900466e-07,-0.001970066543425363,1.122352224996441e-06
0.015,0.0001670129199999999,-0.7857716440000013,4.0113995599999924e-05,-2.355211639999999,9.297401399999955e-05,1.57099439,0.786,0.04,0.04,-9.808579099997027,-0.0029971373388066047,0.0170009766009111,-1.041732162988056e-06,-0.0021312544005799355,1.1782563699957292e-06
0.0175,0.0001670174609999991,-0.7857548570000015,4.011505314999991e-05,-2.355225734999999,9.298113319999915e-05,1.57099396,0.786,0.04,0.04,-9.83439950000003,0.000652164607890061,0.008984475740017667,-1.5143888599014855e-06,-0.0022882001707197576,1.3140820199736472e-06
0.02,0.00016702775399999895,-0.7857389480000017,4.011612159999989e-05,-2.355239039999999,9.299065279999904e-05,1.5709935400000001,0.786,0.04,0.04,-9.834059000000034,0.0006610174081278982,0.00878627096002019,-2.6196820398874113e-06,-0.002436661766826837,1.6097506799698823e-06
0.0225,0.00016703804699999883,-0.7857230390000018,4.011719004999988e-05,-2.3552523449999985,9.300017239999891e-05,1.57099312,0.786,0.04,0.04,-9.833718500000039,0.0006698702083657355,0.008588066180022714,-3.7249752198733375e-06,-0.002585123362933917,1.9054193399661173e-06
0.025,0.00016704833999999869,-0.785707130000002,4.0118258499999866e-05,-2.3552656499999984,9.30096919999988e-05,1.5709927000000001,0.786,0.04,0.04,-9.833378000000042,0.0006787230086035728,0.008389861400025237,-4.8302683998592645e-06,-0.0027335849590409966,2.2010879999623533e-06
0.0275,0.00016705863299999857,-0.7856912210000022,4.011932694999985e-05,-2.355278954999998,9.301921159999867e-05,1.57099228,0.786,0.04,0.04,-9.833037500000048,0.00068757580884141,0.00819165662002776,-5.935561579845191e-06,-0.002882046555148076,2.496756659958588e-06
0.03,0.00016706892599999842,-0.7856753120000024,4.012039539999984e-05,-2.355292259999998,9.302873119999854e-05,1.5709918600000001,0.786,0.04,0.04,-9.832697000000051,0.0006964286090792473,0.007993451840030285,-7.040854759831117e-06,-0.0030305081512551554,2.792425319954823e-06
0.0325,0.00016707921899999828,-0.7856594030000027,4.012146384999982e-05,-2.3553055649999974,9.303825079999843e-05,1.57099144,0.786,0.04,0.04,-9.832356500000056,0.0007052814093170847,0.0077952470600328085,-8.146147939817043e-06,-0.0031789697473622357,3.0880939799510588e-06
0.035,0.00016710484499999405,-0.7856443400000026,4.012268499999977e-05,-2.3553180999999976,9.305463059999648e-05,1.57099101,0.786,0.04,0.04,-9.83209830000004,0.0007206139445737293,0.007592845650036454,-1.0481315399474116e-05,-0.0033196337288001103,3.631387379881082e-06
0.0375,0.00016713813749999362,-0.7856297000000028,4.0123982499999756e-05,-2.3553302499999975,9.307444049999622e-05,1.5709905750000002,0.786,0.04,0.04,-9.831881250000041,0.0007391863473422528,0.0073883459250390585,-1.3431419999436546e-05,-0.0034563989029004036,4.298493149872587e-06
0.04,0.00016717142999999322,-0.785615060000003,4.0125279999999735e-05,-2.3553423999999974,9.309425039999597e-05,1.5709901400000001,0.786,0.04,0.04,-9.831664200000043,0.0007577587501107763,0.007183846200041662,-1.6381524599398987e-05,-0.0035931640770006973,4.965598919864093e-06
0.0425,0.00016720472249999278,-0.7856004200000032,4.012657749999972e-05,-2.3553545499999973,9.311406029999571e-05,1.5709897050000001,0.786,0.04,0.04,-9.831447150000047,0.0007763311528792998,0.006979346475044265,-1.9331629199361424e-05,-0.003729929251100991,5.6327046898556e-06
0.045,0.00016723801499999235,-0.7855857800000033,4.0127874999999706e-05,-2.355366699999997,9.313387019999547e-05,1.57098927,0.786,0.04,0.04,-9.831230100000049,0.0007949035556478233,0.006774846750046869,-2.2281733799323855e-05,-0.0038666944252012843,6.299810459847104e-06
0.0475,0.00016727130749999195,-0.7855711400000035,4.012917249999969e-05,-2.355378849999997,9.315368009999521e-05,1.570988835,0.786,0.04,0.04,-9.831013050000053,0.0008134759584163469,0.006570347025049474,-2.5231838399286295e-05,-0.004003459599301578,6.9669162298386105e-06
0.05,0.0001673045999999915,-0.7855565000000038,4.013046999999967e-05,-2.355390999999997,9.317348999999496e-05,1.5709884,0.786,0.04,0.04,-9.830796000000054,0.0008320483611848704,0.006365847300052077,-2.8181942999248732e-05,-0.004140224773401872,7.634021999830118e-06
0.0525,0.0001673816264999773,-0.785542962500004,4.0132320699999456e-05,-2.355402024999997,9.321343949998823e-05,1.5709879800000002,0.786,0.04,0.04,-9.83055510000007,0.0008585875620986694,0.006207629655046623,-3.375873104835665e-05,-0.004266183124817963,8.833580999646517e-06
0.055,0.0001674586529999742,-0.7855294250000046,4.013417139999938e-05,-2.355413049999996,9.325338899998664e-05,1.5709875600000003,0.786,0.04,0.04,-9.83031420000008,0.0008851267630144975,0.006049412010052955,-3.9335519098133485e-05,-0.004392141476231302,1.0033139999598517e-05
0.0575,0.00016753567949997114,-0.7855158875000051,4.013602209999931e-05,-2.3554240749999957,9.329333849998503e-05,1.5709871400000002,0.786,0.04,0.04,-9.830073300000091,0.0009116659639303254,0.0058911943650592855,-4.4912307147910316e-05,-0.0045180998276446414,1.1232698999550512e-05
0.06,0.00016761270599996805,-0.7855023500000057,4.013787279999923e-05,-2.3554350999999953,9.333328799998344e-05,1.5709867200000003,0.786,0.04,0.04,-9.8298324000001,0.0009382051648461533,0.005732976720065618,-5.048909519768713e-05,-0.004644058179057981,1.2432257999502508e-05
0.0625,0.00016768973249996495,-0.7854888125000061,4.013972349999916e-05,-2.355446124999995,9.337323749998184e-05,1.5709863000000002,0.786,0.04,0.04,-9.82959150000011,0.0009647443657619813,0.005574759075071949,-5.6065883247463964e-05,-0.004770016530471321,1.3631816999454504e-05
0.065,0.00016776675899996189,-0.7854752750000067,4.0141574199999086e-05,-2.3554571499999946,9.341318699998023e-05,1.5709858800000003,0.786,0.04,0.04,-9.829350600000119,0.0009912835666778092,0.005416541430078281,-6.16426712972408e-05,-0.00489597488188466,1.4831375999406502e-05
0.0675,0.00016786717799992395,-0.7854620675000065,4.014374709999854e-05,-2.355467834999995,9.346437349996195e-05,1.5709854550000002,0.7859999050000002,0.04,0.03999999975,-9.829111900000122,0.0010206802515131265,0.005264066415072834,-6.83843944953137e-05,-0.005018442636296041,1.629513414897087e-05
0.07,0.0001680143819999261,-0.7854495200000063,4.0146564399998585e-05,-2.355477839999995,9.353803399996303e-05,1.5709850200000002,0.7859996200000001,0.04,0.039999999,-9.828877600000117,0.0010557919042008326,0.005123076660070783,-7.74559879954457e-05,-0.005133929196687121,1.8287290598999863e-05
0.0725,0.00016816158599992822,-0.7854369725000061,4.0149381699998626e-05,-2.3554878449999954,9.361169449996408e-05,1.5709845850000002,0.7859993350000002,0.04,0.03999999825,-9.828643300000115,0.0010909035568885384,0.004982086905068732,-8.652758149557768e-05,-0.005249415757078201,2.027944704902884e-05
0.075,0.00016830878999993037,-0.785424425000006,4.015219899999867e-05,-2.3554978499999955,9.368535499996516e-05,1.5709841500000001,0.7859990500000001,0.04,0.0399999975,-9.82840900000011,0.0011260152095762443,0.0048410971500666795,-9.55991749957097e-05,-0.005364902317469282,2.2271603499057833e-05
0.0775,0.00016845599399993252,-0.7854118775000057,4.015501629999871e-05,-2.3555078549999955,9.375901549996623e-05,1.5709837150000003,0.7859987650000002,0.04,0.03999999675,-9.828174700000108,0.0011611268622639503,0.004700107395064628,-0.00010467076849584171,-0.005480388877860363,2.4263759949086822e-05
0.08,0.00016860319799993464,-0.7853993300000056,4.015783359999875e-05,-2.3555178599999955,9.38326759999673e-05,1.5709832800000003,0.7859984800000002,0.04,0.039999996,-9.827940400000104,0.0011962385149516563,0.0045591176400625755,-0.00011374236199597373,-0.005595875438251443,2.6255916399115817e-05
0.0825,0.0001687504019999368,-0.7853867825000054,4.016065089999879e-05,-2.355527864999996,9.390633649996837e-05,1.5709828450000003,0.7859981950000001,0.04,0.03999999525,-9.827706100000102,0.0012313501676393622,0.004418127885060524,-0.00012281395549610576,-0.0057113619986425244,2.8248072849144805e-05
0.085,0.0001689654589998922,-0.7853748300000051,4.016448769999811e-05,-2.355537209999996,9.401106999994793e-05,1.57098268,0.7859979100000002,0.04,0.039999995,-9.827470100000102,0.00126833975080619,0.004298960970046866,-0.00013383865299480447,-0.005820794682903665,3.069847099883999e-05
0.08750000000000001,0.00016921444249988902,-0.7853631750000052,4.016883424999806e-05,-2.355546224999996,9.41313399999464e-05,1.5709826500000001,0.7859976250000001,0.04,0.039999995,-9.827233250000106,0.0013062682992143722,0.004190705475048244,-0.00014583990249465167,-0.005927200429094055,3.337798999880588e-05
0.09,0.00016946342599988585,-0.7853515200000054,4.0173180799998e-05,-2.3555552399999957,9.425160999994487e-05,1.57098262,0.7859973400000002,0.04,0.039999995,-9.826996400000109,0.0013441968476225542,0.004082449980049623,-0.00015784115199449878,-0.006033606175284445,3.6057508998771744e-05
0.0925,0.00016971240949988268,-0.7853398650000055,4.017752734999795e-05,-2.355564254999996,9.437187999994334e-05,1.57098259,0.7859970550000002,0.04,0.039999995,-9.826759550000112,0.001382125396030736,0.0039741944850510014,-0.00016984240149434598,-0.006140011921474836,3.8737027998737625e-05
0.095,0.00016996139299987951,-0.7853282100000056,4.018187389999789e-05,-2.355573269999996,9.44921499999418e-05,1.57098256,0.7859967700000001,0.04,0.039999995,-9.826522700000114,0.0014200539444389182,0.0038659389900523797,-0.0001818436509941932,-0.006246417667665226,4.141654699870351e-05
0.0975,0.00017021037649987634,-0.7853165550000057,4.018622044999784e-05,-2.3555822849999957,9.461241999994027e-05,1.57098253,0.7859964850000002,0.04,0.039999995,-9.826285850000117,0.0014579824928471004,0.003757683495053758,-0.00019384490049404037,-0.006352823413855616,4.40960659986694e-05
0.1,0.0001704593599998732,-0.7853049000000059,4.019056699999778e-05,-2.3555912999999955,9.473268999993874e-05,1.5709825,0.7859962000000001,0.04,0.039999995,-9.82604900000012,0.0014959110412552826,0.003649428000055136,-0.0002058461499938876,-0.006459229160046006,4.677558499863528e-05
0.10250000000000001,0.000170846302999798,-0.7852940100000056,4.019705644999661e-05,-2.3555998799999953,9.491492199990486e-05,1.5709825149999999,0.7859957650000002,0.04,0.03999999575,-9.825890600000083,0.0015443272364538145,0.0035298600900624203,-0.00022277269749116355,-0.00655533110252218,5.026686874817738e-05
0.105,0.00017123324599979306,-0.7852831200000058,4.020354589999653e-05,-2.3556084599999956,9.509715399990254e-05,1.57098253,0.7859953300000002,0.04,0.0399999965,-9.825732200000084,0.0015927434316576879,0.003410292180063943,-0.00023969924499094795,-0.0066514330449931065,5.375815249813291e-05
0.1075,0.00017162018899978814,-0.7852722300000059,4.0210035349996445e-05,-2.3556170399999954,9.527938599990022e-05,1.570982545,0.7859948950000003,0.04,0.03999999725,-9.825573800000086,0.0016411596268615612,0.0032907242700654653,-0.00025662579249073245,-0.006747534987464033,5.724943624808846e-05
0.11,0.0001720071319997832,-0.7852613400000061,4.021652479999636e-05,-2.355625619999995,9.546161799989789e-05,1.57098256,0.7859944600000003,0.04,0.039999998,-9.825415400000088,0.0016895758220654348,0.0031711563600669876,-0.0002735523399905169,-0.006843636929934959,6.074071999804401e-05
0.1125,0.00017239407499977828,-0.7852504500000063,4.022301424999628e-05,-2.355634199999995,9.564384999989558e-05,1.570982575,0.7859940250000003,0.04,0.03999999875,-9.82525700000009,0.0017379920172693084,0.00305158845006851,-0.0002904788874903014,-0.006939738872405885,6.423200374799956e-05
0.115,0.00017278101799977335,-0.7852395600000064,4.02295036999962e-05,-2.355642779999995,9.582608199989326e-05,1.57098259,0.7859935900000002,0.04,0.0399999995,-9.825098600000093,0.001786408212473182,0.002932020540070032,-0.0003074054349900859,-0.007035840814876812,6.77232874979551e-05
0.11750000000000001,0.00017322736949966177,-0.7852288820000062,4.023693374999443e-05,-2.3556510049999955,9.603541799984228e-05,1.5709826199999999,0.7859931080000003,0.04,0.04,-9.824957850000063,0.001836537447493125,0.002825105355048839,-0.00032598502248690263,-0.0071300086564774455,7.156685149727819e-05
0.12,0.00017379253799965457,-0.7852186280000063,4.024624499999431e-05,-2.3556585199999955,9.629896199983892e-05,1.57098268,0.7859925320000004,0.04,0.04,-9.824852400000063,0.001890092762154368,0.002743495620049878,-0.00034787068998662384,-0.00722030829632715,7.611497599722027e-05
0.1225,0.00017435770649964737,-0.7852083740000064,4.025555624999419e-05,-2.3556660349999956,9.656250599983557e-05,1.57098274,0.7859919560000004,0.04,0.04,-9.824746950000065,0.0019436480768156112,0.0026618858850509172,-0.0003697563574863452,-0.007310607936176856,8.066310049716236e-05
0.125,0.00017492287499964017,-0.7851981200000065,4.026486749999407e-05,-2.3556735499999952,9.682604999983221e-05,1.5709828,0.7859913800000004,0.04,0.04,-9.824641500000066,0.0019972033914768543,0.0025802761500519564,-0.0003916420249860666,-0.007400907576026561,8.521122499710445e-05
0.1275,0.00017548804349963297,-0.7851878660000067,4.0274178749993954e-05,-2.3556810649999953,9.708959399982885e-05,1.57098286,0.7859908040000004,0.04,0.04,-9.824536050000068,0.0020507587061380974,0.0024986664150529955,-0.0004135276924857879,-0.007491207215876266,8.975934949704654e-05
0.13,0.0001760532119996258,-0.7851776120000068,4.0283489999993834e-05,-2.3556885799999954,9.73531379998255e-05,1.57098292,0.7859902280000004,0.04,0.04,-9.824430600000069,0.0021043140207993405,0.0024170566800540347,-0.0004354133599855093,-0.007581506855725971,9.430747399698864e-05
0.1325,0.0001766183804996186,-0.7851673580000069,4.029280124999372e-05,-2.355696094999995,9.761668199982214e-05,1.57098298,0.7859896520000004,0.04,0.04,-9.824325150000071,0.0021578693354605835,0.002335446945055074,-0.00045729902748523066,-0.007671806495575677,9.885559849693073e-05
0.135,0.00017733163299945868,-0.7851574660000067,4.030448919999115e-05,-2.3557029099999958,9.794825799974862e-05,1.5709830599999999,0.7859888880000007,0.04,0.04,-9.824180200000113,0.0022143192821714817,0.002259897970049862,-0.000482933088981086,-0.007756989635470239,0.0001042031659960483
0.1375,0.00017811892749944864,-0.7851477550000068,4.0317365499990984e-05,-2.3557093749999956,9.831384999974398e-05,1.57098315,0.7859880300000006,0.04,0.04,-9.824015500000115,0.0022722165449116294,0.0021873793750507853,-0.0005104413474807357,-0.007839614525379412,0.00010995045499597513
0.14,0.00017890622199943863,-0.785138044000007,4.033024179999082e-05,-2.3557158399999953,9.867944199973932e-05,1.57098324,0.7859871720000007,0.04,0.04,-9.823850800000118,0.002330113807651777,0.0021148607800517086,-0.0005379496059803856,-0.007922239415288586,0.00011569774399590196
0.14250000000000002,0.0001796935164994286,-0.7851283330000071,4.034311809999066e-05,-2.355722304999995,9.904503399973467e-05,1.57098333,0.7859863140000006,0.04,0.04,-9.823686100000119,0.002388011070391925,0.002042342185052632,-0.0005654578644800353,-0.008004864305197758,0.00012144503299582878
0.145,0.00018048081099941856,-0.7851186220000071,4.0355994399990494e-05,-2.3557287699999954,9.941062599973001e-05,1.57098342,0.7859854560000007,0.04,0.04,-9.823521400000121,0.0024459083331320724,0.0019698235900535562,-0.0005929661229796848,-0.00808748919510693,0.00012719232199575554
0.1475,0.00018126810549940855,-0.7851089110000073,4.036887069999033e-05,-2.355735234999995,9.977621799972536e-05,1.5709835099999998,0.7859845980000006,0.04,0.04,-9.823356700000124,0.00250380559587222,0.0018973049950544794,-0.0006204743814793345,-0.008170114085016103,0.00013293961099568238
0.15,0.00018205539999939852,-0.7850992000000074,4.038174699999016e-05,-2.355741699999995,0.0001001418099997207,1.5709836,0.7859837400000007,0.04,0.04,-9.823192000000127,0.0025617028586123677,0.0018247864000554026,-0.0006479826399789844,-0.008252738974925277,0.00013868689999560919
0.1525,0.00018311196099917937,-0.7850899000000072,4.039898994998661e-05,-2.3557473249999954,0.00010063176549961946,1.5709837199999999,0.7859825940000009,0.04,0.04,-9.823004350000147,0.0026215187389869807,0.001775137240038563,-0.0006810979329742791,-0.008327851723821174,0.000145774464494495
0.155,0.00018416852199916591,-0.7850806000000073,4.0416232899986386e-05,-2.3557529499999954,0.00010112172099961321,1.5709838399999998,0.7859814480000009,0.04,0.04,-9.822816700000148,0.002681334619363059,0.0017254880800391952,-0.0007142132259738575,-0.008402964472711332,0.00015286202899440478
0.1575,0.00018522508299915246,-0.7850713000000075,4.043347584998617e-05,-2.3557585749999954,0.00010161167649960697,1.5709839599999997,0.7859803020000009,0.04,0.04,-9.82262905000015,0.0027411504997391376,0.0016758389200398273,-0.0007473285189734359,-0.008478077221601491,0.00015994959349431453
0.16,0.000186281643999139,-0.7850620000000076,4.045071879998595e-05,-2.3557641999999954,0.00010210163199960073,1.57098408,0.7859791560000009,0.04,0.04,-9.822441400000153,0.002800966380115216,0.0016261897600404595,-0.0007804438119730141,-0.00855318997049165,0.0001670371579942243
0.1625,0.00018733820499912556,-0.7850527000000077,4.046796174998573e-05,-2.3557698249999954,0.00010259158749959449,1.5709841999999998,0.7859780100000009,0.04,0.04,-9.822253750000156,0.0028607822604912944,0.0015765406000410917,-0.0008135591049725925,-0.008628302719381808,0.00017412472249413405
0.165,0.0001883947659991121,-0.7850434000000078,4.048520469998551e-05,-2.3557754499999954,0.00010308154299958826,1.5709843199999998,0.7859768640000009,0.04,0.04,-9.822066100000159,0.002920598140867373,0.0015268914400417238,-0.0008466743979721709,-0.008703415468271967,0.0001812122869940438
0.1675,0.00018955774799881377,-0.7850342120000077,4.050420299998059e-05,-2.3557809149999955,0.00010362039799945108,1.57098444,0.7859756100000013,0.04,0.04,-9.821912250000075,0.0029845192329335385,0.0014781589850404362,-0.0008818369819661526,-0.008776671346216975,0.000188684953992893
0.17,0.00019093357199875873,-0.7850252480000081,4.052671199997969e-05,-2.3557860599999954,0.0001042570519994256,1.5709845599999999,0.7859741400000013,0.04,0.04,-9.821826000000078,0.003056650748411242,0.001431259940042313,-0.0009210941479645817,-0.008846213482257498,0.00019692782599256315
0.17250000000000001,0.00019230939599870365,-0.7850162840000084,4.0549220999978796e-05,-2.355791204999995,0.00010489370599940012,1.5709846799999998,0.7859726700000014,0.04,0.04,-9.82173975000008,0.0031287822638889455,0.0013843608950441899,-0.0009603513139630107,-0.00891575561829802,0.0002051706979922333
0.17500000000000002,0.0001936852199986486,-0.7850073200000088,4.0571729999977894e-05,-2.355796349999995,0.00010553035999937464,1.5709847999999997,0.7859712000000014,0.04,0.04,-9.821653500000085,0.003200913779366649,0.0013374618500460666,-0.0009996084799614397,-0.008985297754338543,0.00021341356999190345
0.1775,0.00019506104399859354,-0.7849983560000092,4.059423899997699e-05,-2.355801494999995,0.00010616701399934917,1.57098492,0.7859697300000015,0.04,0.04,-9.821567250000088,0.0032730452948443517,0.0012905628050479438,-0.0010388656459598684,-0.009054839890379064,0.00022165644199157353
0.18,0.00019643686799853847,-0.7849893920000095,4.061674799997609e-05,-2.3558066399999946,0.00010680366799932369,1.5709850399999998,0.7859682600000015,0.04,0.04,-9.821481000000091,0.003345176810322055,0.0012436637600498205,-0.0010781228119582974,-0.009124382026419586,0.00022989931399124367
0.1825,0.0001978126919984834,-0.7849804280000099,4.063925699997519e-05,-2.3558117849999944,0.00010744032199929821,1.5709851599999998,0.7859667900000016,0.04,0.04,-9.821394750000094,0.0034173083257997587,0.0011967647150516972,-0.0011173799779567264,-0.009193924162460109,0.0002381421859909138
0.185,0.0001994363409980673,-0.7849715630000098,4.0665866199968304e-05,-2.3558162199999955,0.00010819069899910725,1.5709852999999998,0.7859649600000023,0.04,0.04,-9.821327500000063,0.0034896135096568882,0.0011611775100331023,-0.0011609661999494021,-0.009261073078887152,0.00024727778698940286
0.1875,0.0002011839024980927,-0.7849627475000096,4.069452549996872e-05,-2.3558202999999955,0.00010899793749911899,1.5709854499999998,0.7859629500000022,0.04,0.04,-9.821269750000063,0.003562005527704167,0.0011312462250326668,-0.0012067169499500679,-0.009327025385501446,0.0002568597524895423
0.19,0.00020293146399811814,-0.7849539320000095,4.072318479996914e-05,-2.3558243799999956,0.00010980517599913074,1.5709855999999998,0.7859609400000022,0.04,0.04,-9.821212000000061,0.0036343975457514455,0.0011013149400322312,-0.0012524676999507336,-0.00939297769211574,0.0002664417179896817
0.1925,0.0002046790254981436,-0.7849451165000094,4.075184409996956e-05,-2.3558284599999957,0.00011061241449914248,1.57098575,0.7859589300000022,0.04,0.04,-9.821154250000061,0.003706789563798724,0.0010713836550317957,-0.0012982184499513996,-0.009458929998730036,0.0002760236834898212
0.195,0.00020642658699816902,-0.7849363010000092,4.078050339996997e-05,-2.3558325399999958,0.00011141965299915423,1.5709859,0.7859569200000021,0.04,0.04,-9.82109650000006,0.0037791815818460023,0.0010414523700313602,-0.0013439691999520653,-0.00952488230534433,0.00028560564898996065
0.1975,0.00020817414849819444,-0.7849274855000091,4.080916269997039e-05,-2.355836619999996,0.00011222689149916597,1.57098605,0.7859549100000021,0.04,0.04,-9.82103875000006,0.003851573599893281,0.0010115210850309244,-0.001389719949952731,-0.009590834611958624,0.00029518761449010006
0.2,0.00020992170999821987,-0.784918670000009,4.0837821999970805e-05,-2.355840699999996,0.00011303412999917773,1.5709861999999999,0.785952900000002,0.04,0.04,-9.820981000000058,0.00392396561794056,0.0009815898000304888,-0.0014354706999533968,-0.00965678691857292,0.0003047695799902395
0.2025,0.0002120956539978172,-0.7849099895000088,4.087360059996407e-05,-2.355843744999997,0.00011403565449899439,1.570986335,0.7859505075000024,0.04,0.04,-9.820843600000138,0.003992358175968959,0.000953355862528349,-0.0014873479899479112,-0.009717321582077724,0.0003156258989890994
0.20500000000000002,0.00021426959799784883,-0.7849013090000087,4.090937919996459e-05,-2.355846789999997,0.00011503717899900896,1.57098647,0.7859481150000023,0.04,0.04,-9.820706200000135,0.004060750733993284,0.0009251219250279381,-0.0015392252799486662,-0.00977785624557701,0.0003264822179892574
0.20750000000000002,0.00021644354199788047,-0.7848926285000085,4.094515779996511e-05,-2.355849834999997,0.00011603870349902354,1.5709866049999999,0.7859457225000023,0.04,0.04,-9.820568800000133,0.00412914329201761,0.0008968879875275273,-0.001591102569949421,-0.009838390909076296,0.0003373385369894154
0.21,0.00021861748599791208,-0.7848839480000084,4.0980936399965635e-05,-2.355852879999997,0.00011704022799903811,1.57098674,0.7859433300000023,0.04,0.04,-9.820431400000132,0.004197535850041934,0.0008686540500271167,-0.0016429798599501754,-0.009898925572575582,0.0003481948559895733
0.2125,0.0002207914299979437,-0.7848752675000082,4.101671499996616e-05,-2.355855924999997,0.00011804175249905268,1.5709868749999998,0.7859409375000023,0.04,0.04,-9.82029400000013,0.004265928408066259,0.0008404201125267059,-0.0016948571499509305,-0.009959460236074868,0.00035905117498973124
0.215,0.00022296537399797535,-0.7848665870000081,4.105249359996668e-05,-2.355858969999997,0.00011904327699906726,1.5709870099999999,0.7859385450000022,0.04,0.04,-9.820156600000127,0.004334320966090584,0.000812186175026295,-0.0017467344399516855,-0.010019994899574154,0.00036990749398988924
0.2175,0.00022530028649751595,-0.7848579025000082,4.109096569995899e-05,-2.355861769999998,0.00012011869499885635,1.5709871799999997,0.7859359725000027,0.03999999975,0.04,-9.82003590000008,0.0044098653829747255,0.0007902631875086962,-0.0018010332799447046,-0.01007880293758997,0.00038128526648838716
0.22,0.0002279571359974096,-0.7848492100000085,4.113482479995724e-05,-2.3558640799999977,0.0001213418999988074,1.5709874199999998,0.7859330400000029,0.039999999,0.04,-9.819948600000085,0.00449971351763782,0.0007809621000090684,-0.001860175219942338,-0.01013415772462453,0.0003937059459878901
0.2225,0.0002306139854973033,-0.7848405175000088,4.1178683899955484e-05,-2.355866389999998,0.00012256510499875846,1.5709876599999997,0.7859301075000029,0.03999999825,0.04,-9.819861300000088,0.004589561652300915,0.0007716610125094405,-0.0019193171599399712,-0.010189512511659091,0.0004061266254873931
0.225,0.00023327083499719698,-0.7848318250000093,4.122254299995372e-05,-2.3558686999999976,0.0001237883099987095,1.5709878999999998,0.7859271750000031,0.0399999975,0.04,-9.819774000000091,0.004679409786964009,0.0007623599250098128,-0.0019784590999376043,-0.010244867298693651,0.00041854730498689605
0.2275,0.00023592768449709066,-0.7848231325000096,4.126640209995197e-05,-2.3558710099999973,0.00012501151499866056,1.5709881399999996,0.7859242425000031,0.03999999675,0.04,-9.819686700000096,0.004769257921627104,0.0007530588375101849,-0.002037601039935238,-0.01030022208572821,0.000430967984486399
0.23,0.00023858453399698434,-0.7848144400000099,4.1310261199950215e-05,-2.3558733199999975,0.00012623471999861162,1.5709883799999997,0.7859213100000033,0.039999996,0.04,-9.819599400000099,0.004859106056290198,0.0007437577500105571,-0.002096742979932871,-0.01035557687276277,0.000443388663985902
0.2325,0.00024124138349687803,-0.7848057475000103,4.135412029994846e-05,-2.3558756299999972,0.00012745792499856265,1.5709886199999998,0.7859183775000035,0.03999999525,0.04,-9.819512100000102,0.004948954190953293,0.0007344566625109293,-0.0021558849199305044,-0.01041093165979733,0.00045580934348540494
0.23500000000000001,0.00024425891999617247,-0.7847969550000107,4.1404050299936605e-05,-2.355877529999998,0.00012884657099823893,1.5709891399999991,0.7859150400000042,0.039999994500000004,0.0399999995,-9.819448300000062,0.005035932268844975,0.0007271583370075367,-0.0022197676599207024,-0.010463975276735876,0.0004692166289833626
0.23750000000000002,0.00024745679999613174,-0.7847881125000108,4.145701574993593e-05,-2.355879224999998,0.00013031793749822021,1.570989799999999,0.7859115000000043,0.039999993750000004,0.03999999875,-9.819396250000063,0.005121475318343276,0.0007208613925076168,-0.002286020799919859,-0.010515863308620236,0.00048311721748318557
0.24,0.000250654679996091,-0.7847792700000109,4.150998119993526e-05,-2.355880919999998,0.00013178930399820144,1.570990459999999,0.7859079600000043,0.039999993000000005,0.039999998,-9.819344200000064,0.005207018367841576,0.0007145644480076971,-0.0023522739399190144,-0.010567751340504595,0.0004970178059830084
0.2425,0.0002538525599960503,-0.784770427500011,4.156294664993458e-05,-2.355882614999998,0.00013326067049818273,1.570991119999999,0.7859044200000044,0.039999992250000005,0.03999999725,-9.819292150000065,0.005292561417339876,0.0007082675035077773,-0.0024185270799181708,-0.010619639372388953,0.0005109183944828315
0.245,0.00025705043999600956,-0.784761585000011,4.161591209993391e-05,-2.3558843099999978,0.00013473203699816398,1.570991779999999,0.7859008800000044,0.0399999915,0.0399999965,-9.819240100000066,0.0053781044668381765,0.0007019705590078575,-0.002484780219917327,-0.010671527404273313,0.0005248189829826545
0.2475,0.0002602483199959689,-0.7847527425000111,4.1668877549933235e-05,-2.3558860049999977,0.00013620340349814524,1.570992439999999,0.7858973400000044,0.03999999075,0.03999999575,-9.819188050000065,0.005463647516336477,0.0006956736145079378,-0.002551033359916484,-0.010723415436157673,0.0005387195714824774
0.25,0.00026344619999592816,-0.7847439000000113,4.1721842999932565e-05,-2.3558876999999976,0.00013767476999812652,1.570993099999999,0.7858938000000045,0.03999999,0.039999995,-9.819136000000066,0.005549190565834778,0.0006893766700080179,-0.0026172864999156405,-0.010775303468042032,0.0005526201599823005
0.2525,0.00026724463199511513,-0.7847348355000117,4.178496704991882e-05,-2.355888269999999,0.00013942071599775467,1.570993789999999,0.7858896060000053,0.0399999897,0.039999995,-9.819098050000049,0.005637645837737089,0.0006794136520128127,-0.002690688624905603,-0.010823303973240446,0.00056790754648034
0.255,0.00027104306399506673,-0.7847257710000118,4.184809109991802e-05,-2.355888839999999,0.00014116666199773243,1.570994479999999,0.7858854120000054,0.0399999894,0.039999995,-9.81906010000005,0.005726101109643108,0.0006694506340129395,-0.0027640907499046686,-0.01087130447843391,0.0005831949329801454
0.2575,0.0002748414959950184,-0.7847167065000119,4.1911215149917216e-05,-2.355889409999999,0.0001429126079977102,1.570995169999999,0.7858812180000055,0.0399999891,0.039999995,-9.81902215000005,0.005814556381549127,0.0006594876160130665,-0.002837492874903734,-0.010919304983627373,0.0005984823194799507
0.26,0.00027863992799497,-0.7847076420000121,4.197433919991641e-05,-2.3558899799999993,0.00014465855399768798,1.570995859999999,0.7858770240000056,0.0399999888,0.039999995,-9.81898420000005,0.005903011653455146,0.0006495245980131933,-0.0029108949999027993,-0.010967305488820838,0.0006137697059797561
0.2625,0.00028243835999492166,-0.7846985775000122,4.2037463249915605e-05,-2.355890549999999,0.00014640449999766574,1.570996549999999,0.7858728300000056,0.0399999885,0.039999995,-9.818946250000051,0.005991466925361164,0.0006395615800133201,-0.002984297124901865,-0.011015305994014301,0.0006290570924795615
0.265,0.0002862367919948733,-0.7846895130000123,4.21005872999148e-05,-2.355891119999999,0.00014815044599764352,1.570997239999999,0.7858686360000057,0.0399999882,0.039999995,-9.81890830000005,0.006079922197267183,0.0006295985620134469,-0.0030576992499009303,-0.011063306499207766,0.0006443444789793668
0.2675,0.00029025560149392417,-0.7846803415000129,4.2167444299898736e-05,-2.3558913300000004,0.00014999735699720862,1.570997939999999,0.7858641880000068,0.039999987800000004,0.039999995,-9.818849850000134,0.0061661490005257705,0.0006240861174953831,-0.003133588819889829,-0.011109990021153846,0.000660145941477071
0.27,0.00029471516599386744,-0.7846709560000129,4.224176719989779e-05,-2.3558908200000004,0.00015204619799718253,1.570998659999999,0.7858592320000068,0.0399999872,0.039999995,-9.818750400000136,0.006247918866462254,0.00062747481999534,-0.0032144532798887996,-0.011154039576589066,0.0006769755559768568
0.2725,0.00029917473049381066,-0.7846615705000131,4.231609009989685e-05,-2.3558903100000004,0.00015409503899715645,1.570999379999999,0.7858542760000069,0.0399999866,0.039999995,-9.818650950000137,0.006329688732398738,0.0006308635224952969,-0.00329531773988777,-0.011198089132024285,0.0006938051704766425
0.275,0.00030363429499375387,-0.7846521850000131,4.23904129998959e-05,-2.355889800000001,0.00015614387999713037,1.571000099999999,0.785849320000007,0.039999986,0.039999995,-9.818551500000138,0.006411458598335222,0.0006342522249952537,-0.00337618219988674,-0.011242138687459503,0.0007106347849764282
0.2775,0.0003080938594936971,-0.7846427995000133,4.2464735899894955e-05,-2.355889290000001,0.00015819272099710428,1.571000819999999,0.785844364000007,0.0399999854,0.039999995,-9.81845205000014,0.006493228464271706,0.0006376409274952106,-0.0034570466598857104,-0.011286188242894723,0.000727464399476214
0.28,0.0003125534239936403,-0.7846334140000134,4.253905879989401e-05,-2.355888780000001,0.0001602415619970782,1.571001539999999,0.7858394080000071,0.039999984800000006,0.039999995,-9.818352600000141,0.00657499833020819,0.0006410296299951675,-0.003537911119884681,-0.011330237798329942,0.0007442940139759997
0.28250000000000003,0.0003170129884935835,-0.7846240285000134,4.261338169989307e-05,-2.355888270000001,0.00016229040299705212,1.571002259999999,0.7858344520000071,0.039999984200000005,0.039999995,-9.818253150000142,0.006656768196144674,0.0006444183324951243,-0.0036187755798836514,-0.011374287353765162,0.0007611236284757854
0.28500000000000003,0.0003219543239924778,-0.7846143900000141,4.2695880099874316e-05,-2.3558871500000023,0.00016455999599654538,1.571002979999999,0.7858289800000083,0.039999983600000004,0.039999994500000004,-9.818188600000068,0.006757854763257589,0.0006599999499685334,-0.0037045406998719517,-0.011416133679390407,0.0007790823349731127
0.28750000000000003,0.00032713654499241183,-0.7846046250000143,4.2782466249873215e-05,-2.355885725000002,0.00016693996499651508,1.571003699999999,0.7858232500000084,0.039999983,0.039999993750000004,-9.818141500000069,0.006868599681021439,0.0006816780249682574,-0.0037927561498708284,-0.011456878390103514,0.0007976055874728769
0.29,0.00033231876599234574,-0.7845948600000144,4.286905239987211e-05,-2.3558843000000023,0.00016931993399648472,1.571004419999999,0.7858175200000085,0.0399999824,0.039999993000000005,-9.81809440000007,0.006979344598785286,0.0007033560999679809,-0.0038809715998697034,-0.01149762310081662,0.0008161288399726407
0.2925,0.00033750098699227975,-0.7845850950000145,4.2955638549871004e-05,-2.355882875000002,0.00017169990299645442,1.571005139999999,0.7858117900000086,0.0399999818,0.039999992250000005,-9.818047300000071,0.007090089516549137,0.0007250341749677049,-0.0039691870498685805,-0.011538367811529724,0.0008346520924724048
0.295,0.00034268320799221377,-0.7845753300000147,4.30422246998699e-05,-2.3558814500000023,0.00017407987199642412,1.571005859999999,0.7858060600000086,0.0399999812,0.0399999915,-9.818000200000071,0.007200834434312986,0.0007467122499674289,-0.004057402499867457,-0.011579112522242831,0.000853175344972169
0.2975,0.0003478654289921478,-0.7845655650000148,4.31288108498688e-05,-2.355880025000002,0.0001764598409963938,1.5710065799999988,0.7858003300000087,0.0399999806,0.03999999075,-9.817953100000071,0.007311579352076837,0.0007683903249671529,-0.004145617949866334,-0.011619857232955937,0.0008716985974719332
0.3,0.0003530476499920818,-0.7845558000000149,4.32153969998677e-05,-2.3558786000000023,0.0001788398099963635,1.5710072999999989,0.7857946000000088,0.03999998,0.03999999,-9.817906000000074,0.007422324269840686,0.0007900683999668769,-0.0042338333998652115,-0.011660601943669044,0.0008902218499716973
0.3025,0.00035901481049080647,-0.7845455175000159,4.3315346949846004e-05,-2.3558762000000035,0.00018157925399577937,1.571008529999998,0.7857880150000102,0.03999997895,0.0399999891,-9.817872100000052,0.0075239971744191884,0.0008168568954587273,-0.004329730199852253,-0.011699200607776761,0.0009103270924690241
0.305,0.0003649819709907305,-0.784535235000016,4.341529689984473e-05,-2.355873800000004,0.0001843186979957445,1.5710097599999981,0.7857814300000102,0.0399999779,0.0399999882,-9.817838200000052,0.007625670078983829,0.0008436453909583863,-0.004425626999851032,-0.0117377992718812,0.0009304323349687681
0.3075,0.00037094913149065455,-0.7845249525000161,4.351524684984346e-05,-2.355871400000004,0.0001870581419957096,1.571010989999998,0.7857748450000104,0.03999997685,0.039999987300000005,-9.817804300000054,0.007727342983548469,0.0008704338864580452,-0.004521523799849811,-0.011776397935985639,0.0009505375774685121
0.31,0.00037691629199057856,-0.7845146700000162,4.361519679984219e-05,-2.3558690000000038,0.00018979758599567474,1.571012219999998,0.7857682600000104,0.039999975800000004,0.0399999864,-9.817770400000054,0.00782901588811311,0.0008972223819577041,-0.00461742059984859,-0.011814996600090078,0.0009706428199682561
0.3125,0.0003828834524905026,-0.7845043875000164,4.3715146749840914e-05,-2.3558666000000037,0.00019253702999563987,1.571013449999998,0.7857616750000105,0.03999997475,0.0399999855,-9.817736500000054,0.00793068879267775,0.000924010877457363,-0.0047133173998473695,-0.011853595264194517,0.000990748062468
0.315,0.0003888506129904266,-0.7844941050000165,4.3815096699839643e-05,-2.355864200000004,0.00019527647399560498,1.571014679999998,0.7857550900000105,0.039999973700000004,0.0399999846,-9.817702600000054,0.00803236169724239,0.0009507993729570219,-0.004809214199846148,-0.011892193928298954,0.0010108533049677441
0.3175,0.0003951003589889797,-0.7844836200000176,4.391986799981498e-05,-2.3558614550000057,0.0001981453344949423,1.5710159299999977,0.7857481930000122,0.03999997265,0.03999998365,-9.81766535000007,0.00813548001443582,0.0009740482014738526,-0.004907681879832455,-0.011929407343212633,0.0010314906899649065
0.32,0.00040191527598889296,-0.7844727300000177,4.403428199981353e-05,-2.3558580200000057,0.00020127302799490245,1.5710172199999979,0.7857406720000123,0.0399999716,0.039999982600000004,-9.817621400000071,0.008241489156907804,0.0009902176959736468,-0.005011291319831136,-0.011963850259724684,0.0010531923599646303
0.3225,0.0004087301929888062,-0.7844618400000178,4.414869599981207e-05,-2.3558545850000057,0.00020440072149486264,1.5710185099999978,0.7857331510000124,0.03999997055,0.03999998155,-9.817577450000071,0.00834749829937979,0.001006387190473441,-0.005114900759829817,-0.011998293176236735,0.001074894029964354
0.325,0.00041554510998871943,-0.784450950000018,4.426310999981061e-05,-2.3558511500000057,0.0002075284149948228,1.5710197999999977,0.7857256300000125,0.0399999695,0.039999980500000004,-9.817533500000073,0.008453507441851775,0.001022556684973235,-0.0052185101998284975,-0.012032736092748788,0.0010965956999640777
0.3275,0.00042236002698863267,-0.7844400600000182,4.437752399980916e-05,-2.3558477150000057,0.000210656108494783,1.571021089999998,0.7857181090000126,0.03999996845,0.03999997945,-9.817489550000072,0.008559516584323761,0.0010387261794730291,-0.005322119639827178,-0.01206717900926084,0.0011182973699638014
0.33,0.0004291749439885459,-0.7844291700000183,4.44919379998077e-05,-2.355844280000006,0.00021378380199474315,1.5710223799999978,0.7857105880000126,0.0399999674,0.039999978400000004,-9.817445600000074,0.008665525726795745,0.0010548956739728232,-0.005425729079825859,-0.01210162192577289,0.0011399990399635252
0.3325,0.00043598986098845915,-0.7844182800000185,4.460635199980624e-05,-2.355840845000006,0.00021691149549470334,1.5710236699999978,0.7857030670000127,0.03999996635,0.03999997735,-9.817401650000074,0.008771534869267732,0.0010710651684726175,-0.00552933851982454,-0.012136064842284942,0.0011617007099632487
0.335,0.00044341205998681815,-0.7844069150000198,4.473113899977824e-05,-2.3558367000000078,0.000220317197993952,1.5710249499999978,0.7856948680000145,0.0399999654,0.039999977,-9.81735930000007,0.008868243824533419,0.0010906152199637597,-0.005638105569810021,-0.012169326841775406,0.0011843858599604555
0.3375,0.0004511378999867198,-0.7843953125000199,4.486111249977659e-05,-2.355832200000008,0.00022386190499390688,1.5710262249999978,0.7856863300000146,0.0399999645,0.039999977,-9.817317750000072,0.008960302686160432,0.0011118555499634894,-0.005749451424808603,-0.012201998382750564,0.0012075627499601603
0.34,0.00045886373998662146,-0.78438371000002,4.499108599977493e-05,-2.355827700000008,0.00022740661199386174,1.5710274999999978,0.7856777920000148,0.0399999636,0.039999977,-9.817276200000071,0.009052361547787444,0.0011330958799632188,-0.005860797279807186,-0.012234669923725723,0.0012307396399598653
0.3425,0.00046658957998652306,-0.7843721075000203,4.5121059499773276e-05,-2.355823200000008,0.00023095131899381662,1.5710287749999978,0.7856692540000149,0.0399999627,0.039999977,-9.817234650000072,0.009144420409414458,0.0011543362099629485,-0.005972143134805768,-0.012267341464700883,0.0012539165299595703
0.34500000000000003,0.0004743154199864247,-0.7843605050000204,4.525103299977162e-05,-2.355818700000008,0.00023449602599377148,1.5710300499999976,0.785660716000015,0.039999961800000004,0.039999977,-9.817193100000074,0.00923647927104147,0.001175576539962678,-0.00608348898980435,-0.012300013005676041,0.0012770934199592752
0.34750000000000003,0.00048204125998632636,-0.7843489025000205,4.5381006499769965e-05,-2.355814200000008,0.00023804073299372636,1.5710313249999976,0.7856521780000151,0.0399999609,0.039999977,-9.817151550000073,0.009328538132668483,0.0011968168699624075,-0.006194834844802932,-0.0123326845466512,0.00130027030995898
0.35000000000000003,0.000489767099986228,-0.7843373000000207,4.551097999976831e-05,-2.355809700000008,0.00024158543999368122,1.5710325999999977,0.7856436400000152,0.03999996,0.039999977,-9.817110000000074,0.009420596994295496,0.0012180571999621372,-0.006306180699801515,-0.01236535608762636,0.001323447199958685
0.3525,0.0004984673174843801,-0.7843249100000222,4.5657601999736756e-05,-2.35580404500001,0.000245576314492835,1.5710344299999965,0.7856340490000172,0.0399999591,0.03999997595,-9.817102800000013,0.009553580358385667,0.0012672244699117275,-0.0064251547447864,-0.0123967488295766,0.0013483630849552672
0.355,0.0005071675349842693,-0.7843125200000224,4.5804223999734896e-05,-2.35579839000001,0.00024956718899278417,1.5710362599999965,0.7856244580000173,0.039999958200000005,0.0399999749,-9.817095600000012,0.009686563722548796,0.0013163917399111017,-0.006544128789784885,-0.012428141571524559,0.00137327896995495
0.3575,0.0005158677524841586,-0.7843001300000225,4.595084599973303e-05,-2.3557927350000103,0.00025355806349273334,1.5710380899999965,0.7856148670000175,0.0399999573,0.03999997385,-9.817088400000014,0.009819547086711922,0.0013655590099104756,-0.00666310283478337,-0.01245953431347252,0.0013981948549546329
0.36,0.0005245679699840477,-0.7842877400000227,4.609746799973116e-05,-2.3557870800000105,0.0002575489379926825,1.5710399199999965,0.7856052760000176,0.0399999564,0.039999972800000005,-9.817081200000013,0.009952530450875048,0.0014147262799098495,-0.006782076879781856,-0.01249092705542048,0.0014231107399543157
0.3625,0.000533268187483937,-0.7842753500000229,4.6244089999729294e-05,-2.3557814250000106,0.00026153981249263175,1.5710417499999965,0.7855956850000176,0.039999955499999996,0.03999997175,-9.817074000000012,0.010085513815038177,0.0014638935499092236,-0.0069010509247803406,-0.01252231979736844,0.0014480266249539983
0.365,0.0005419684049838262,-0.784262960000023,4.639071199972743e-05,-2.3557757700000104,0.0002655306869925809,1.5710435799999964,0.7855860940000178,0.0399999546,0.039999970700000005,-9.817066800000013,0.010218497179201303,0.0015130608199085975,-0.007020024969778826,-0.0125537125393164,0.0014729425099536812
0.3675,0.0005510145924817727,-0.7842502820000248,4.6543267149692245e-05,-2.355769735000013,0.00026967994849164074,1.5710454199999964,0.7855761200000201,0.0399999538,0.03999996980000001,-9.817050300000066,0.010346679389254734,0.0015557892049441273,-0.007141611349762642,-0.01258382135997021,0.0014983959449503454
0.37,0.0005607527199816487,-0.7842370280000249,4.670768859969015e-05,-2.355762940000013,0.00027414598399158385,1.5710472799999964,0.7855653800000202,0.0399999532,0.039999969200000006,-9.817015200000066,0.01046525929100808,0.0015856398199437472,-0.007268422399761028,-0.01261136233801414,0.0015249244799500077
0.3725,0.0005704908474815247,-0.7842237740000251,4.687211004968806e-05,-2.355756145000013,0.000278612019491527,1.5710491399999964,0.7855546400000204,0.0399999526,0.039999968600000005,-9.816980100000066,0.010583839192761424,0.0016154904349433672,-0.007395233449759413,-0.012638903316058069,0.00155145301494967
0.375,0.0005802289749814008,-0.7842105200000253,4.7036531499685966e-05,-2.355749350000013,0.0002830780549914701,1.5710509999999964,0.7855439000000205,0.039999952,0.039999968000000004,-9.816945000000066,0.010702419094514769,0.0016453410499429873,-0.007522044499757799,-0.012666444294101999,0.0015779815499493322
0.3775,0.0005899671024812768,-0.7841972660000255,4.7200952949683874e-05,-2.355742555000013,0.0002875440904914133,1.5710528599999964,0.7855331600000207,0.0399999514,0.0399999674,-9.816909900000066,0.010820998996268115,0.0016751916649426072,-0.007648855549756184,-0.012693985272145927,0.0016045100849489944
0.38,0.0005997052299811528,-0.7841840120000256,4.736537439968178e-05,-2.3557357600000133,0.00029201012599135644,1.5710547199999965,0.7855224200000208,0.0399999508,0.0399999668,-9.816874800000067,0.01093957889802146,0.001705042279942227,-0.0077756665997545694,-0.012721526250189857,0.0016310386199486564
0.3825,0.0006094433574810288,-0.7841707580000258,4.752979584967969e-05,-2.3557289650000133,0.00029647616149129955,1.5710565799999965,0.7855116800000209,0.0399999502,0.0399999662,-9.816839700000068,0.011058158799774804,0.001734892894941847,-0.007902477649752954,-0.012749067228233787,0.0016575671549483187
0.385,0.0006199157999787449,-0.7841568460000279,4.7706809199640556e-05,-2.3557213900000153,0.00030127826199025424,1.5710585199999962,0.7855001360000234,0.0399999497,0.039999966,-9.81682120000002,0.011179190035669589,0.0017759318099085587,-0.008034459099736133,-0.012776050623453926,0.0016850839199450743
0.3875,0.000630755399978607,-0.7841426050000281,4.789011849963822e-05,-2.355713425000016,0.00030624839499019096,1.5710604999999962,0.7854881900000236,0.03999994925,0.039999966,-9.816811000000019,0.011301446938645864,0.0018225648749079651,-0.008169025749734419,-0.01280275522725972,0.0017130947999447177
0.39,0.000641594999978469,-0.7841283640000283,4.8073427799635884e-05,-2.355705460000016,0.0003112185279901277,1.5710624799999962,0.7854762440000238,0.039999948800000004,0.039999966,-9.81680080000002,0.011423703841622137,0.0018691979399073713,-0.008303592399732706,-0.012829459831065516,0.001741105679944361
0.3925,0.0006524345999783309,-0.7841141230000285,4.8256737099633554e-05,-2.355697495000016,0.0003161886609900644,1.571064459999996,0.7854642980000239,0.03999994835,0.039999966,-9.81679060000002,0.01154596074459841,0.0019158310049067777,-0.008438159049730993,-0.01285616443487131,0.0017691165599440044
0.395,0.0006632741999781929,-0.7840998820000287,4.844004639963122e-05,-2.355689530000016,0.0003211587939900011,1.571066439999996,0.7854523520000241,0.0399999479,0.039999966,-9.81678040000002,0.011668217647574685,0.001962464069906184,-0.00857272569972928,-0.012882869038677105,0.0017971274399436478
0.3975,0.000674113799978055,-0.7840856410000288,4.862335569962888e-05,-2.355681565000016,0.00032612892698993785,1.571068419999996,0.7854404060000242,0.039999947450000004,0.039999966,-9.81677020000002,0.011790474550550958,0.0020090971349055902,-0.008707292349727567,-0.0129095736424829,0.001825138319943291
0.4,0.000684953399977917,-0.784071400000029,4.880666499962655e-05,-2.3556736000000162,0.00033109905998987457,1.571070399999996,0.7854284600000243,0.039999947,0.039999966,-9.816760000000022,0.011912731453527232,0.0020557301999049966,-0.008841858999725853,-0.012936278246288695,0.0018531491999429345
0.4025,0.0006969578699753909,-0.7840561360000313,4.900996434958324e-05,-2.3556643600000187,0.00033660236348871826,1.571072814999995,0.7854152210000271,0.039999947,0.039999966,-9.81673570000005,0.012020562961476466,0.002085614684938737,-0.008984174649708255,-0.012961863866023379,0.0018828961499390189
0.405,0.0007089623399752381,-0.7840408720000315,4.921326369958065e-05,-2.355655120000019,0.00034210566698864817,1.571075229999995,0.7854019820000273,0.039999947,0.039999966,-9.81671140000005,0.012128394469396314,0.0021154991699383566,-0.009126490299706443,-0.012987449485755783,0.0019126430999386402
0.40750000000000003,0.0007209668099750852,-0.7840256080000316,4.941656304957806e-05,-2.355645880000019,0.00034760897048857813,1.571077644999995,0.7853887430000275,0.039999947,0.039999966,-9.81668710000005,0.01223622597731616,0.002145383654937976,-0.00926880594970463,-0.013013035105488187,0.0019423900499382614
0.41000000000000003,0.0007329712799749324,-0.7840103440000319,4.961986239957547e-05,-2.3556366400000193,0.00035311227398850803,1.571080059999995,0.7853755040000276,0.039999947,0.039999966,-9.816662800000051,0.012344057485236008,0.0021752681399375955,-0.009411121599702818,-0.013038620725220593,0.0019721369999378827
0.41250000000000003,0.0007449757499747796,-0.783995080000032,4.982316174957288e-05,-2.355627400000019,0.000358615577488438,1.571082474999995,0.7853622650000278,0.039999947,0.039999966,-9.816638500000051,0.012451888993155854,0.002205152624937215,-0.009553437249701006,-0.013064206344952997,0.002001883949937504
0.41500000000000004,0.0007569802199746267,-0.7839798160000323,5.0026461099570295e-05,-2.3556181600000192,0.00036411888098836795,1.571084889999995,0.785349026000028,0.039999947,0.039999966,-9.816614200000052,0.012559720501075702,0.0022350371099368344,-0.009695752899699194,-0.013089791964685401,0.0020316308999371252
0.4175,0.0007693940349718623,-0.7839641780000348,5.023678959952286e-05,-2.355608485000022,0.0003698095044871028,1.571087309999995,0.785335335000031,0.039999947,0.039999966199999994,-9.816594750000021,0.012683047307327024,0.0022754393048693587,-0.009840619199681109,-0.013114468473892398,0.0020618687649336144
0.42,0.0007826265399716938,-0.7839477920000351,5.046117639952001e-05,-2.355597940000022,0.00037587476798702554,1.5710897399999948,0.7853207400000313,0.039999947,0.039999966799999995,-9.816585000000021,0.012837364710537254,0.0023368769198685766,-0.009990586799679199,-0.013137326762031222,0.002093088459933217
0.4225,0.0007958590449715253,-0.7839314060000353,5.0685563199517154e-05,-2.3555873950000223,0.00038194003148694835,1.571092169999995,0.7853061450000314,0.039999947,0.039999967399999996,-9.816575250000021,0.012991682113747485,0.002398314534867794,-0.010140554399677289,-0.013160185050170047,0.0021243081549328193
0.425,0.0008090915499713569,-0.7839150200000354,5.090994999951429e-05,-2.3555768500000225,0.0003880052949868711,1.5710945999999948,0.7852915500000316,0.039999947,0.039999968,-9.81656550000002,0.013145999516957715,0.002459752149867012,-0.01029052199967538,-0.01318304333830887,0.0021555278499324217
0.4275,0.0008223240549711884,-0.7838986340000357,5.113433679951144e-05,-2.3555663050000226,0.00039407055848679387,1.5710970299999947,0.7852769550000318,0.039999947,0.0399999686,-9.816555750000022,0.013300316920167945,0.00252118976486623,-0.01044048959967347,-0.013205901626447695,0.002186747544932024
0.43,0.00083555655997102,-0.7838822480000359,5.135872359950858e-05,-2.3555557600000228,0.0004001358219867167,1.5710994599999946,0.7852623600000319,0.039999947,0.0399999692,-9.816546000000022,0.013454634323378175,0.002582627379865448,-0.010590457199671562,-0.013228759914586519,0.002217967239931627
0.4325,0.0008487890649708515,-0.7838658620000362,5.1583110399505724e-05,-2.355545215000023,0.00040620108548663944,1.5711018899999947,0.7852477650000321,0.039999947,0.0399999698,-9.816536250000022,0.013608951726588405,0.0026440649948646653,-0.010740424799669652,-0.013251618202725341,0.0022491869349312295
0.435,0.0008628821999678228,-0.7838486300000391,5.182229459945369e-05,-2.355533810000026,0.00041266023598525317,1.5711046899999934,0.7852322300000354,0.0399999473,0.0399999703,-9.816529600000012,0.013752841762891118,0.002702838459872737,-0.010895535999650648,-0.013274181261608987,0.002281552949927022
0.4375,0.0008774056499676379,-0.7838309750000394,5.2068877499450554e-05,-2.3555219750000265,0.00041931632998516846,1.5711076749999933,0.7852162250000356,0.03999994775,0.03999997075,-9.81652450000001,0.013891518115688293,0.0027602798498720057,-0.011053218999648642,-0.013296596705863577,0.002314492124926603
0.44,0.000891929099967453,-0.7838133200000396,5.231546039944741e-05,-2.3555101400000265,0.0004259724239850837,1.5711106599999933,0.7852002200000359,0.039999948199999996,0.0399999712,-9.816519400000011,0.014030194468485467,0.0028177212398712743,-0.011210901999646633,-0.013319012150118168,0.0023474312999261834
0.4425,0.0009064525499672681,-0.7837956650000398,5.2562043299444274e-05,-2.355498305000027,0.000432628517984999,1.5711136449999932,0.785184215000036,0.03999994865,0.03999997165,-9.816514300000012,0.014168870821282641,0.002875162629870543,-0.011368584999644625,-0.013341427594372757,0.0023803704749257642
0.445,0.0009209759999670832,-0.78377801000004,5.280862619944113e-05,-2.355486470000027,0.0004392846119849142,1.5711166299999932,0.7851682100000362,0.0399999491,0.0399999721,-9.816509200000011,0.014307547174079815,0.0029326040198698116,-0.011526267999642618,-0.013363843038627346,0.0024133096499253446
0.4475,0.0009354994499668983,-0.7837603550000403,5.305520909943799e-05,-2.3554746350000273,0.0004459407059848295,1.5711196149999933,0.7851522050000365,0.03999994955,0.03999997255,-9.816504100000012,0.01444622352687699,0.0029900454098690803,-0.01168395099964061,-0.013386258482881936,0.002446248824924925
0.45,0.0009500228999667134,-0.7837427000000404,5.3301791999434856e-05,-2.3554628000000273,0.0004525967999847447,1.5711225999999932,0.7851362000000366,0.03999995,0.039999973,-9.816499000000013,0.014584899879674164,0.003047486799868349,-0.011841633999638604,-0.013408673927136527,0.002479187999924506
0.4525,0.0009658996499634096,-0.7837237490000437,5.357165519937806e-05,-2.3554496300000305,0.00045987217498323277,1.571125614999993,0.7851186890000403,0.03999995,0.039999973,-9.816482650000038,0.01470270515392391,0.003069570039949106,-0.012006924549619062,-0.013428933825297138,0.0025137091499204405
0.455,0.0009817763999632075,-0.7837047980000439,5.3841518399374624e-05,-2.3554364600000306,0.00046714754998314014,1.5711286299999931,0.7851011780000405,0.03999995,0.039999973,-9.816466300000037,0.01482051042812582,0.0030916532799488247,-0.012172215099616957,-0.01344919372345281,0.002548230299920001
0.4575,0.0009976531499630052,-0.7836858470000442,5.4111381599371186e-05,-2.3554232900000307,0.00047442292498304746,1.571131644999993,0.7850836670000407,0.03999995,0.039999973,-9.816449950000038,0.01493831570232773,0.0031137365199485436,-0.012337505649614854,-0.013469453621608483,0.0025827514499195616
0.46,0.001013529899962803,-0.7836668960000445,5.4381244799367755e-05,-2.355410120000031,0.00048169829998295484,1.571134659999993,0.785066156000041,0.03999995,0.039999973,-9.816433600000039,0.01505612097652964,0.003135819759948262,-0.012502796199612748,-0.013489713519764154,0.002617272599919122
0.4625,0.001029406649962601,-0.7836479450000446,5.4651107999364316e-05,-2.355396950000031,0.0004889736749828622,1.571137674999993,0.7850486450000412,0.03999995,0.039999973,-9.816417250000038,0.01517392625073155,0.003157902999947981,-0.012668086749610645,-0.013509973417919827,0.0026517937499186827
0.465,0.0010452833999623989,-0.7836289940000449,5.492097119936088e-05,-2.355383780000031,0.0004962490499827696,1.571140689999993,0.7850311340000414,0.03999995,0.039999973,-9.816400900000039,0.01529173152493346,0.0031799862399477,-0.01283337729960854,-0.013530233316075498,0.0026863148999182428
0.4675,0.0010616319449588266,-0.7836095670000486,5.5198956899299424e-05,-2.355370090000035,0.0005037402649811351,1.5711438849999915,0.7850131090000454,0.03999995,0.0399999732,-9.816398049999943,0.01542771942872487,0.003221417494809213,-0.013001154249588674,-0.013550610607440857,0.0027213146499143847
0.47000000000000003,0.0010789240799586063,-0.7835891880000488,5.5493187599295675e-05,-2.3553553600000354,0.0005116631599810344,1.5711474399999914,0.7849940560000456,0.03999995,0.0399999738,-9.816422199999943,0.015600072592084225,0.003301544779808193,-0.013173903999586475,-0.013571222685228099,0.002757271599913927
0.47250000000000003,0.0010962162149583863,-0.7835688090000491,5.578741829929193e-05,-2.3553406300000352,0.0005195860549809335,1.5711509949999916,0.7849750030000459,0.03999995,0.0399999744,-9.816446349999943,0.01577242575544358,0.0033816720648071727,-0.013346653749584275,-0.013591834763015342,0.002793228549913469
0.47500000000000003,0.001113508349958166,-0.7835484300000494,5.608164899928818e-05,-2.3553259000000355,0.0005275089499808326,1.5711545499999915,0.7849559500000461,0.03999995,0.039999975,-9.816470499999943,0.015944778918802936,0.0034617993498061526,-0.013519403499582076,-0.013612446840802584,0.0028291854999130113
0.47750000000000004,0.001130800484957946,-0.7835280510000496,5.637587969928444e-05,-2.3553111700000358,0.0005354318449807317,1.5711581049999914,0.7849368970000463,0.03999995,0.0399999756,-9.816494649999942,0.01611713208216229,0.0035419266348051324,-0.013692153249579876,-0.013633058918589827,0.0028651424499125536
0.48,0.0011480926199577254,-0.7835076720000499,5.6670110399280685e-05,-2.355296440000036,0.0005433547399806307,1.5711616599999914,0.7849178440000466,0.03999995,0.039999976199999995,-9.816518799999942,0.016289485245521644,0.0036220539198041106,-0.013864902999577674,-0.013653670996377069,0.0029010993999120946
0.4825,0.0011653847549575051,-0.7834872930000502,5.696434109927694e-05,-2.3552817100000363,0.0005512776349805298,1.5711652149999913,0.7848987910000469,0.03999995,0.039999976799999996,-9.816542949999942,0.016461838408880998,0.0037021812048030904,-0.014037652749575474,-0.013674283074164312,0.002937056349911637
0.485,0.0011836613199536375,-0.7834659500000539,5.7275522799210386e-05,-2.35526600000004,0.0005596509699787599,1.5711687799999912,0.7848786460000511,0.03999995,0.039999977,-9.816535600000057,0.016622742078814968,0.003759960199884877,-0.014215459649554537,-0.01369302049274807,0.002974136629907017
0.4875,0.0012024300999533984,-0.7834441250000542,5.7595179999206316e-05,-2.35524980000004,0.0005682495249786504,1.5711723499999912,0.7848579550000514,0.03999995,0.039999977,-9.816512500000059,0.016777921001972826,0.003806565049884284,-0.014395795124552241,-0.013710820581719704,0.003011778574906538
0.49,0.0012211988799531595,-0.7834223000000545,5.7914837199202245e-05,-2.3552336000000405,0.000576848079978541,1.571175919999991,0.7848372640000517,0.03999995,0.039999977,-9.816489400000059,0.016933099925130687,0.00385316989988369,-0.014576130599549944,-0.013728620670691338,0.0030494205199060585
0.4925,0.0012399676599529207,-0.7834004750000547,5.8234494399198174e-05,-2.3552174000000408,0.0005854466349784315,1.5711794899999911,0.7848165730000519,0.03999995,0.039999977,-9.816466300000059,0.017088278848288545,0.003899774749883097,-0.014756466074547649,-0.01374642075966297,0.003087062464905579
0.495,0.0012587364399526816,-0.783378650000055,5.8554151599194104e-05,-2.3552012000000406,0.000594045189978322,1.571183059999991,0.7847958820000522,0.03999995,0.039999977,-9.816443200000059,0.017243457771446404,0.003946379599882504,-0.014936801549545351,-0.013764220848634604,0.0031247044099051
0.4975,0.0012775052199524427,-0.7833568250000553,5.887380879919004e-05,-2.355185000000041,0.0006026437449782125,1.571186629999991,0.7847751910000524,0.03999995,0.039999977,-9.816420100000059,0.017398636694604265,0.00399298444988191,-0.015117137024543056,-0.013782020937606238,0.003162346354904621
0.5,0.0012962739999522036,-0.7833350000000556,5.919346599918597e-05,-2.3551688000000413,0.000611242299978103,1.5711901999999909,0.7847545000000528,0.03999995,0.039999977,-9.816397000000059,0.017553815617762123,0.004039589299881317,-0.015297472499540759,-0.01379982102657787,0.0031999882999041414
0.5025000000000001,0.0013165802649480302,-0.7833116600000597,5.953962759911407e-05,-2.355151130000045,0.0006205441749761938,1.5711943399999895,0.7847321410000573,0.0399999506,0.039999978049999996,-9.81640509999998,0.017712287511270894,0.004104257149834496,-0.01548519637451956,-0.013817981118289788,0.0032390353249000673
0.505,0.0013368865299477712,-0.78328832000006,5.9885789199109655e-05,-2.3551334600000455,0.0006298460499760751,1.5711984799999894,0.7847097820000575,0.039999951199999995,0.0399999791,-9.81641319999998,0.017870759404788043,0.004168924999833672,-0.015672920249517164,-0.013836141210002621,0.0032780823498995693
0.5075000000000001,0.001357192794947513,-0.7832649800000603,6.0231950799105253e-05,-2.3551157900000455,0.0006391479249759569,1.5712026199999893,0.7846874230000578,0.039999951799999996,0.039999980149999996,-9.816421299999979,0.0180292312983052,0.0042335928498328495,-0.015860644124514777,-0.013854301301715456,0.003317129374899073
0.51,0.001377499059947254,-0.7832416400000606,6.057811239910084e-05,-2.355098120000046,0.0006484497999758382,1.5712067599999893,0.7846650640000581,0.0399999524,0.0399999812,-9.81642939999998,0.018187703191822346,0.004298260699832025,-0.016048367999512383,-0.013872461393428289,0.003356176399898575
0.5125,0.001397805324946995,-0.7832183000000609,6.0924273999096424e-05,-2.355080450000046,0.0006577516749757197,1.5712108999999892,0.7846427050000584,0.039999953,0.039999982249999996,-9.81643749999998,0.018346175085339495,0.0043629285498312,-0.01623609187450999,-0.013890621485141122,0.003395223424898077
0.515,0.001418111589946737,-0.7831949600000612,6.127043559909202e-05,-2.3550627800000465,0.0006670535499756014,1.5712150399999891,0.7846203460000586,0.0399999536,0.0399999833,-9.81644559999998,0.01850464697885665,0.004427596399830378,-0.016423815749507603,-0.013908781576853955,0.0034342704498975807
0.5175,0.0014389503899422673,-0.7831711030000655,6.162577769901502e-05,-2.355044550000051,0.0006765990619735563,1.571219194999989,0.7845973980000636,0.039999954,0.039999984,-9.81644610000004,0.01865596855023147,0.0044817158349129615,-0.016614002049485738,-0.013926310837225868,0.003473867559892733
0.52,0.0014608542599419889,-0.783146212000066,6.199948079901027e-05,-2.355025200000051,0.0006866318479734287,1.571223379999989,0.7845732720000639,0.039999954,0.039999984,-9.81643140000004,0.01879298947715229,0.004514738439912541,-0.016809113199483257,-0.013942578434900996,0.0035145648398922156
0.5225,0.0014827581299417096,-0.7831213210000663,6.23731838990055e-05,-2.3550058500000515,0.0006966646339733008,1.571227564999989,0.7845491460000642,0.039999954,0.039999984,-9.816416700000039,0.018930010404073102,0.004547761044912121,-0.01700422434948077,-0.013958846032576123,0.003555262119891697
0.525,0.0015046619999414311,-0.7830964300000666,6.274688699900075e-05,-2.354986500000052,0.0007066974199731733,1.5712317499999888,0.7845250200000645,0.039999954,0.039999984,-9.81640200000004,0.019067031330993918,0.004580783649911701,-0.01719933549947829,-0.013975113630251251,0.0035959593998911793
0.5275,0.0015265658699411516,-0.7830715390000669,6.312059009899599e-05,-2.354967150000052,0.0007167302059730453,1.5712359349999887,0.7845008940000648,0.039999954,0.039999984,-9.81638730000004,0.01920405225791473,0.004613806254911279,-0.017394446649475804,-0.013991381227926378,0.0036366566798906605
0.53,0.0015484697399408733,-0.7830466480000672,6.349429319899123e-05,-2.3549478000000525,0.0007267629919729178,1.5712401199999888,0.7844767680000652,0.039999954,0.039999984,-9.81637260000004,0.01934107318483555,0.00464682885991086,-0.017589557799473323,-0.014007648825601507,0.003677353959890143
0.5325,0.001570373609940594,-0.7830217570000676,6.386799629898647e-05,-2.3549284500000525,0.0007367957779727899,1.5712443049999887,0.7844526420000655,0.039999954,0.039999984,-9.816357900000039,0.019478094111756362,0.004679851464910439,-0.017784668949470835,-0.014023916423276635,0.003718051239889624
0.535,0.0015933820599358009,-0.7829957240000726,6.426074759890387e-05,-2.354908030000057,0.0007473337789705973,1.571248839999987,0.7844273000000708,0.0399999546,0.039999985599999996,-9.816356599999985,0.01965724341516772,0.004755085939737488,-0.01798459439944868,-0.01403999887402467,0.003759574439885731
0.5375,0.0016169427999355003,-0.7829691200000729,6.466302299889874e-05,-2.3548870750000575,0.0007581243874704598,1.5712535499999871,0.784401350000071,0.039999955499999996,0.03999998799999999,-9.816361999999984,0.019857456907081825,0.00485142634973626,-0.018186926999446098,-0.014055988751308026,0.003801510599885196
0.54,0.001640503539935201,-0.7829425160000733,6.506529839889362e-05,-2.354866120000058,0.0007689149959703226,1.5712582599999871,0.7843754000000713,0.039999956399999995,0.0399999904,-9.816367399999985,0.020057670398995933,0.0049477667597350354,-0.018389259599443524,-0.014071978628591383,0.003843446759884663
0.5425,0.0016640642799349004,-0.7829159120000736,6.546757379888849e-05,-2.354845165000058,0.000779705604470185,1.571262969999987,0.7843494500000717,0.0399999573,0.039999992799999995,-9.816372799999984,0.020257883890910034,0.005044107169733806,-0.018591592199440947,-0.014087968505874739,0.0038853829198841282
0.545,0.001687625019934601,-0.7828893080000738,6.586984919888339e-05,-2.3548242100000585,0.0007904962129700479,1.571267679999987,0.784323500000072,0.0399999582,0.03999999519999999,-9.816378199999985,0.020458097382824145,0.005140447579732582,-0.018793924799438373,-0.014103958383158095,0.003927319079883595
0.5475,0.0017111857599343004,-0.7828627040000742,6.627212459887826e-05,-2.3548032550000584,0.0008012868214699102,1.571272389999987,0.7842975500000723,0.039999959099999996,0.0399999976,-9.816383599999984,0.020658310874738246,0.005236787989731353,-0.018996257399435793,-0.014119948260441452,0.00396925523988306
0.55,0.001734746499934001,-0.7828361000000745,6.667439999887314e-05,-2.3547823000000587,0.0008120774299697731,1.571277099999987,0.7842716000000727,0.03999996,0.039999999999999994,-9.816388999999983,0.020858524366652358,0.005333128399730129,-0.019198589999433222,-0.01413593813772481,0.004011191399882527
0.5525,0.0017600227449288731,-0.7828077200000799,6.710625749878476e-05,-2.3547597550000634,0.0008236548304674214,1.571282109999986,0.7842437675000783,0.0399999609,0.04,-9.816393499999986,0.021038301102311127,0.00538998358984001,-0.01940809754941045,-0.014150543743703305,0.004055005499876708
0.555,0.001785298989928552,-0.7827793400000802,6.753811499877927e-05,-2.3547372100000636,0.0008352322309672743,1.5712871199999858,0.7842159350000787,0.0399999618,0.04,-9.816397999999987,0.021218077837912658,0.005446838779839288,-0.019617605099407787,-0.014165149349677924,0.004098819599876151
0.5575,0.0018105752349282295,-0.7827509600000806,6.796997249877377e-05,-2.354714665000064,0.0008468096314671267,1.5712921299999858,0.784188102500079,0.039999962699999995,0.04,-9.816402499999986,0.02139785457351418,0.005503693969838562,-0.019827112649405117,-0.014179754955652542,0.004142633699875592
0.56,0.0018358514799279083,-0.782722580000081,6.840182999876828e-05,-2.3546921200000646,0.0008583870319669795,1.5712971399999858,0.7841602700000794,0.039999963599999994,0.04,-9.816406999999987,0.02157763130911571,0.005560549159837841,-0.020036620199402454,-0.014194360561627163,0.004186447799875035
0.5625,0.0018611277249275858,-0.7826942000000814,6.883368749876276e-05,-2.354669575000065,0.0008699644324668319,1.5713021499999857,0.7841324375000797,0.0399999645,0.04,-9.816411499999987,0.021757408044717232,0.005617404349837115,-0.02024612774939978,-0.014208966167601781,0.004230261899874476
0.5650000000000001,0.0018864039699272644,-0.7826658200000817,6.926554499875727e-05,-2.354647030000065,0.0008815418329666847,1.5713071599999857,0.7841046050000801,0.0399999654,0.04,-9.816415999999986,0.021937184780318763,0.005674259539836393,-0.020455635299397118,-0.0142235717735764,0.004274075999873919
0.5675,0.001912271269921817,-0.7826368350000873,6.970760049866334e-05,-2.3546238750000703,0.0008933897729641912,1.5713122649999847,0.7840761175000861,0.039999966,0.04,-9.816425324999946,0.02211824608913631,0.005733907669811449,-0.02066747674937421,-0.014238181710200946,0.004318322954869607
0.5700000000000001,0.0019393206799214733,-0.7826066400000877,7.017005199865746e-05,-2.354599500000071,0.0009057787919640337,1.5713175599999847,0.7840463200000864,0.039999966,0.04,-9.816444299999945,0.022301876544419286,0.00579914167981062,-0.020883985999371454,-0.01425280030812546,0.004363435619869034
0.5725,0.001966370089921128,-0.782576445000088,7.063250349865157e-05,-2.3545751250000713,0.0009181678109638757,1.5713228549999847,0.7840165225000869,0.039999966,0.04,-9.816463274999945,0.022485506999702254,0.005864375689809788,-0.021100495249368696,-0.014267418906049975,0.004408548284868459
0.5750000000000001,0.0019934194999207846,-0.7825462500000884,7.10949549986457e-05,-2.3545507500000715,0.0009305568299637182,1.5713281499999845,0.7839867250000873,0.039999966,0.04,-9.816482249999945,0.02266913745498523,0.005929609699808959,-0.02131700449936594,-0.014282037503974488,0.004453660949867886
0.5775,0.0020204689099204394,-0.7825160550000888,7.15574064986398e-05,-2.354526375000072,0.0009429458489635602,1.5713334449999845,0.7839569275000876,0.039999966,0.04,-9.816501224999945,0.022852767910268197,0.005994843709808127,-0.02153351374936318,-0.014296656101899003,0.00449877361486731
0.58,0.0020475183199200947,-0.7824858600000891,7.20198579986339e-05,-2.354502000000072,0.0009553348679634022,1.5713387399999843,0.7839271300000881,0.039999966,0.04,-9.816520199999944,0.023036398365551165,0.006060077719807295,-0.02175002299936042,-0.014311274699823516,0.004543886279866735
0.5825,0.0020745677299197508,-0.7824556650000896,7.248230949862802e-05,-2.3544776250000723,0.0009677238869632447,1.5713440349999843,0.7838973325000884,0.039999966,0.04,-9.816539174999944,0.02322002882083414,0.006125311729806466,-0.021966532249357667,-0.01432589329774803,0.004588998944866161
0.585,0.0021028371999134276,-0.7824242150000962,7.296581199851906e-05,-2.354452120000078,0.0009806715739603493,1.5713496499999826,0.7838661900000954,0.039999965400000004,0.0399999995,-9.816533550000054,0.023386531695250054,0.006173765159879902,-0.022187650099330245,-0.014340092521118824,0.004635064449860481
0.5875,0.0021317166999122727,-0.7823921375000974,7.34598399984993e-05,-2.3544260500000793,0.0009938985949598201,1.5713554249999824,0.7838343750000967,0.0399999645,0.03999999875,-9.816515625000054,0.023544470779117952,0.0062138282998783,-0.02241107224932131,-0.014354082057209954,0.0046816063748586195
0.59,0.002160596199911116,-0.7823600600000987,7.395386799847952e-05,-2.35439998000008,0.0010071256159592907,1.5713611999999824,0.783802560000098,0.0399999636,0.039999998,-9.816497700000054,0.023702409862985843,0.006253891439876696,-0.022634494399312366,-0.014368071593301085,0.004728148299856756
0.5925,0.0021894756999099613,-0.7823279825001,7.444789599845975e-05,-2.3543739100000813,0.0010203526369587615,1.5713669749999821,0.7837707450000991,0.0399999627,0.03999999725,-9.816479775000056,0.02386034894685374,0.006293954579875093,-0.022857916549303428,-0.014382061129392215,0.004774690224854895
0.595,0.002218355199908805,-0.7822959050001013,7.494192399843998e-05,-2.3543478400000826,0.001033579657958232,1.5713727499999819,0.7837389300001004,0.039999961800000004,0.0399999965,-9.816461850000056,0.024018288030721632,0.00633401771987349,-0.023081338699294483,-0.014396050665483344,0.004821232149853031
0.5975,0.00224723469990765,-0.7822638275001026,7.543595199842021e-05,-2.3543217700000834,0.001046806678957703,1.5713785249999817,0.7837071150001017,0.039999960900000006,0.03999999575,-9.816443925000057,0.024176227114589534,0.006374080859871887,-0.02330476084928555,-0.014410040201574475,0.00486777407485117
0.6,0.002276114199906494,-0.7822317500001038,7.592997999840043e-05,-2.3542957000000846,0.0010600336999571733,1.5713842999999814,0.783675300000103,0.03999996,0.039999995,-9.816426000000058,0.024334166198457425,0.0064141439998702835,-0.023528182999276604,-0.014424029737665605,0.0049143159998493065
0.6025,0.0023068797249008355,-0.7821977075001098,7.645657524830266e-05,-2.35426787500009,0.0010741240399545836,1.5713903599999806,0.7836414075001092,0.03999996,0.039999995,-9.81645119999992,0.024565841443089872,0.00650758739969881,-0.02375846119925776,-0.014437166135715768,0.004962268359845439
0.605,0.0023376452499012826,-0.7821636650001093,7.698317049831031e-05,-2.3542400500000893,0.0010882143799547882,1.5713964199999806,0.7836075150001087,0.03999996,0.039999995,-9.81647639999992,0.02479751668796105,0.006601030799700168,-0.023988739399261105,-0.014450302533763169,0.005010220719846135
0.6075,0.002368410774901731,-0.7821296225001088,7.750976574831798e-05,-2.354212225000089,0.0011023047199549935,1.5714024799999806,0.7835736225001082,0.03999996,0.039999995,-9.816501599999919,0.025029191932832245,0.00669447419970153,-0.024219017599264463,-0.01446343893181057,0.005058173079846834
0.61,0.002399176299902178,-0.7820955800001083,7.803636099832563e-05,-2.3541844000000887,0.0011163950599551984,1.5714085399999806,0.7835397300001078,0.03999996,0.039999995,-9.81652679999992,0.025260867177703424,0.006787917599702887,-0.024449295799267808,-0.014476575329857971,0.005106125439847531
0.6125,0.002429941824902627,-0.7820615375001078,7.856295624833331e-05,-2.354156575000088,0.0011304853999554037,1.5714145999999807,0.7835058375001073,0.03999996,0.039999995,-9.81655199999992,0.025492542422574618,0.0068813609997042495,-0.024679573999271166,-0.014489711727905372,0.00515407779984823
0.615,0.0024607073499030734,-0.7820274950001073,7.908955149834096e-05,-2.3541287500000876,0.0011445757399556084,1.571420659999981,0.7834719450001069,0.03999996,0.039999995,-9.816577199999921,0.025724217667445797,0.006974804399705607,-0.02490985219927451,-0.014502848125952773,0.0052020301598489265
0.6175,0.0024921199498974347,-0.781992788500113,7.962732574824347e-05,-2.354100290000093,0.0011589618499530314,1.5714268449999798,0.783437345500113,0.03999996,0.03999999525,-9.816598774999955,0.02594673111970765,0.007059881869785674,-0.025142343799257044,-0.014516010973561045,0.005250405159845649
0.62,0.0025248266998979096,-0.7819567540001126,8.018745799825161e-05,-2.3540705600000926,0.0011739394999532489,1.57143327999998,0.7834013320001124,0.03999996,0.039999996,-9.816613099999955,0.026150920986491844,0.007128227479786667,-0.025379262199260486,-0.014529226720291808,0.005299625439846365
0.6225,0.002557533449898386,-0.781920719500112,8.074759024825976e-05,-2.354040830000092,0.0011889171499534672,1.57143971499998,0.7833653185001119,0.03999996,0.03999999675,-9.816627424999956,0.026355110853276045,0.007196573089787663,-0.02561618059926394,-0.01454244246702257,0.005348845719847082
0.625,0.0025902401998988615,-0.7818846850001114,8.130772249826792e-05,-2.354011100000092,0.001203894799953685,1.5714461499999801,0.7833293050001114,0.03999996,0.0399999975,-9.816641749999956,0.026559300720060238,0.007264918699788656,-0.025853098999267382,-0.014555658213753334,0.005398065999847797
0.6275000000000001,0.002622946949899338,-0.7818486505001109,8.186785474827607e-05,-2.3539813700000916,0.001218872449953903,1.5714525849999803,0.7832932915001108,0.03999996,0.03999999825,-9.816656074999957,0.02676349058684444,0.007333264309789652,-0.026090017399270835,-0.014568873960484096,0.005447286279848514
0.63,0.0026556536998998135,-0.7818126160001104,8.242798699828421e-05,-2.353951640000091,0.0012338500999541208,1.5714590199999803,0.7832572780001104,0.03999996,0.039999999,-9.816670399999957,0.026967680453628632,0.0074016099197906455,-0.026326935799274278,-0.014582089707214859,0.0054965065598492294
0.6325000000000001,0.00268836044990029,-0.7817765815001099,8.298811924829238e-05,-2.3539219100000905,0.0012488277499543392,1.5714654549999805,0.7832212645001098,0.03999996,0.03999999975,-9.816684724999957,0.027171870320412832,0.0074699555297916415,-0.02656385419927773,-0.014595305453945622,0.0055457268398499465
0.635,0.002722397359893449,-0.7817391190001172,8.357122799817433e-05,-2.353890900000097,0.0012644133999512115,1.5714722099999787,0.7831837790001174,0.039999959800000005,0.04,-9.816693049999984,0.027381277456228568,0.007541424159775765,-0.026805212999252103,-0.014608210232069666,0.005595857339844679
0.6375000000000001,0.0027570993498920613,-0.7817009425001188,8.416582499815054e-05,-2.3538592500000983,0.0012803030499505762,1.5714791249999784,0.7831455575001189,0.0399999595,0.04,-9.816698374999984,0.027593293226595813,0.007614454299772844,-0.02704879199924236,-0.01462095952588822,0.005646442949842656
0.64,0.0027918013398906716,-0.7816627660001203,8.476042199812673e-05,-2.3538276000000997,0.0012961926999499399,1.5714860399999782,0.7831073360001204,0.039999959200000004,0.04,-9.816703699999984,0.027805308996963048,0.00768748443976992,-0.02729237099923261,-0.014633708819706773,0.00569702855984063
0.6425,0.0028265033298892823,-0.7816245895001218,8.535501899810292e-05,-2.353795950000101,0.0013120823499493037,1.5714929549999779,0.783069114500122,0.0399999589,0.04,-9.816709024999984,0.028017324767330286,0.007760514579766996,-0.027535949999222854,-0.014646458113525329,0.005747614169838605
0.645,0.0028612053198878943,-0.7815864130001233,8.594961599807914e-05,-2.353764300000102,0.0013279719999486682,1.5714998699999776,0.7830308930001234,0.0399999586,0.04,-9.816714349999984,0.02822934053769753,0.007833544719764076,-0.027779528999213113,-0.014659207407343883,0.005798199779836582
0.6475,0.002895907309886505,-0.7815482365001248,8.654421299805533e-05,-2.3537326500001035,0.001343861649948032,1.5715067849999773,0.782992671500125,0.039999958300000006,0.04,-9.816719674999982,0.028441356308064766,0.00790657485976115,-0.02802310799920336,-0.014671956701162439,0.005848785389834557
0.65,0.002930609299885117,-0.7815100600001263,8.713880999803154e-05,-2.353701000000105,0.0013597512999473965,1.571513699999977,0.7829544500001265,0.039999958,0.04,-9.816724999999982,0.02865337207843201,0.00797960499975823,-0.02826668699919362,-0.014684705994980993,0.005899370999832534
0.6525,0.0029673595548778678,-0.781469746000134,8.776878899790639e-05,-2.3536674750001114,0.0013765784049440785,1.5715209899999758,0.7829139725001345,0.0399999574,0.03999999925,-9.816713525000038,0.028836914523825943,0.008010767349896438,-0.028516703849169118,-0.014696679683362343,0.005951405174827074
0.655,0.0030041098098774004,-0.7814294320001345,8.839876799789838e-05,-2.3536339500001118,0.0013934055099438646,1.5715282799999757,0.782873495000135,0.0399999568,0.0399999985,-9.816702050000037,0.02902045696912562,0.008041929699896042,-0.02876672069916594,-0.014708653371741126,0.006003439349826413
0.6575,0.0030408600648769318,-0.781389118000135,8.902874699789034e-05,-2.353600425000112,0.00141023261494365,1.5715355699999756,0.7828330175001356,0.0399999562,0.03999999775,-9.816690575000038,0.02920399941442529,0.008073092049895645,-0.02901673754916275,-0.014720627060119909,0.006055473524825749
0.66,0.003077610319876465,-0.7813488040001355,8.965872599788234e-05,-2.3535669000001125,0.001427059719943436,1.5715428599999754,0.782792540000136,0.0399999556,0.039999997,-9.816679100000039,0.029387541859724968,0.008104254399895249,-0.029266754399159572,-0.01473260074849869,0.0061075076998250875
0.6625,0.0031143605748759962,-0.781308490000136,9.02887049978743e-05,-2.353533375000113,0.0014438868249432215,1.5715501499999753,0.7827520625001365,0.039999955000000004,0.03999999625,-9.816667625000038,0.029571084305024635,0.008135416749894852,-0.029516771249156384,-0.014744574436877473,0.006159541874824424
0.665,0.003151110829875529,-0.7812681760001365,9.09186839978663e-05,-2.3534998500001136,0.0014607139299430076,1.5715574399999754,0.782711585000137,0.0399999544,0.0399999955,-9.816656150000039,0.029754626750324312,0.008166579099894456,-0.029766788099153205,-0.014756548125256256,0.006211576049823763
0.6675,0.00318856117486792,-0.7812271230001446,9.15607584977349e-05,-2.353465640000121,0.0014778614549395249,1.5715648449999742,0.7826703400001453,0.03999995419999999,0.03999999525,-9.816659799999885,0.029965695179094063,0.008222738299639112,-0.03001893244912832,-0.014768549194518449,0.00626404749981864
0.67,0.003227411699867426,-0.7811845920001451,9.222702399772644e-05,-2.3534300600001212,0.001495649819939299,1.571572479999974,0.7826275600001459,0.039999954799999994,0.039999996,-9.816693699999885,0.030231815575645152,0.008328891199637764,-0.03027533179912506,-0.014780605025548302,0.0063173934998179615
0.6725,0.003266262224866931,-0.7811420610001457,9.289328949771793e-05,-2.3533944800001216,0.0015134381849390718,1.571580114999974,0.7825847800001465,0.039999955399999995,0.03999999675,-9.816727599999885,0.030497935972196227,0.00843504409963641,-0.03053173114912179,-0.014792660856578153,0.006370739499817281
0.675,0.003305112749866437,-0.7810995300001462,9.355955499770947e-05,-2.353358900000122,0.0015312265499388459,1.5715877499999737,0.7825420000001471,0.039999955999999996,0.0399999975,-9.816761499999883,0.030764056368747315,0.00854119699963506,-0.03078813049911853,-0.014804716687608004,0.0064240854998166026
0.6775,0.0033439632748659413,-0.7810569990001467,9.422582049770096e-05,-2.353323320000123,0.001549014914938619,1.5715953849999738,0.7824992200001476,0.0399999566,0.03999999825,-9.816795399999883,0.03103017676529839,0.008647349899633706,-0.031044529849115262,-0.014816772518637856,0.006477431499815923
0.68,0.0033828137998654475,-0.7810144680001473,9.48920859976925e-05,-2.3532877400001233,0.0015668032799383929,1.5716030199999735,0.7824564400001481,0.0399999572,0.039999999,-9.816829299999883,0.03129629716184948,0.008753502799632357,-0.031300929199112,-0.014828828349667707,0.0065307774998152445
0.6825,0.0034216643248649523,-0.7809719370001478,9.5558351497684e-05,-2.3532521600001237,0.001584591644938166,1.5716106549999735,0.7824136600001487,0.0399999578,0.03999999975,-9.816863199999883,0.03156241755840055,0.008859655699631003,-0.03155732854910873,-0.014840884180697558,0.006584123499814564
0.685,0.0034619492398569518,-0.7809278940001563,9.624941599754576e-05,-2.3532151900001312,0.0016030354499345098,1.5716185999999719,0.7823692950001575,0.039999957600000004,0.04,-9.816878149999981,0.03180746510543061,0.00894307379974863,-0.03181786009908385,-0.014852842967915647,0.006638241879809844
0.6875,0.003502951349856429,-0.7808830950001568,9.695287999753678e-05,-2.353177525000132,0.0016218069749342704,1.5716266999999717,0.7823241375001581,0.039999957,0.04,-9.816883624999981,0.03204197622753512,0.009015124499747711,-0.0320804577490805,-0.014864753233227095,0.006692746449809149
0.6900000000000001,0.0035439534598559076,-0.7808382960001574,9.765634399752784e-05,-2.3531398600001325,0.0016405784999340318,1.5716347999999716,0.7822789800001587,0.0399999564,0.04,-9.816889099999981,0.03227648734963965,0.009087175199746795,-0.03234305539907716,-0.014876663498538544,0.006747251019808456
0.6925,0.003584955569855385,-0.780793497000158,9.835980799751887e-05,-2.3531021950001327,0.0016593500249337924,1.5716428999999714,0.7822338225001593,0.0399999558,0.04,-9.816894574999981,0.032510998471744164,0.009159225899745875,-0.03260565304907381,-0.014888573763849992,0.006801755589807761
0.6950000000000001,0.0036259576798548638,-0.7807486980001586,9.906327199750993e-05,-2.3530645300001334,0.0016781215499335539,1.5716509999999713,0.7821886650001598,0.0399999552,0.04,-9.81690004999998,0.032745509593848685,0.00923127659974496,-0.03286825069907048,-0.014900484029161441,0.006856260159807069
0.6975,0.003666959789854341,-0.7807038990001591,9.976673599750096e-05,-2.353026865000134,0.0016968930749333144,1.5716590999999713,0.7821435075001605,0.0399999546,0.04,-9.81690552499998,0.0329800207159532,0.00930332729974404,-0.03313084834906713,-0.01491239429447289,0.006910764729806373
0.7000000000000001,0.0037079618998538196,-0.7806591000001598,0.00010047019999749202,-2.3529892000001342,0.0017156645999330759,1.5716671999999712,0.782098350000161,0.039999954,0.04,-9.81691099999998,0.033214531838057726,0.009375377999743126,-0.03339344599906379,-0.014924304559784338,0.006965269299805681
0.7025,0.003751165214845421,-0.7806119790001687,0.00010121168149734703,-2.3529494200001424,0.0017354448149292274,1.5716757649999693,0.7820507685001703,0.0399999546,0.04,-9.816899150000042,0.03341911286042439,0.009410447399874523,-0.03366213184903866,-0.014935622084845291,0.007021271154799629
0.705,0.00379436852984487,-0.7805648580001692,0.00010195316299733757,-2.352909640000143,0.0017552250299289751,1.5716843299999692,0.7820031870001709,0.0399999552,0.04,-9.816887300000042,0.03362369388268436,0.009445516799874076,-0.03393081769903523,-0.014946939609904134,0.0070772730097989145
0.7075,0.003837571844844321,-0.7805177370001698,0.00010269464449732814,-2.352869860000143,0.0017750052449287239,1.5716928949999691,0.7819556055001715,0.0399999558,0.04,-9.816875450000042,0.03382827490494433,0.00948058619987363,-0.03419950354903181,-0.014958257134962974,0.007133274864798202
0.71,0.0038807751598437697,-0.7804706160001704,0.00010343612599731869,-2.352830080000144,0.0017947854599284715,1.571701459999969,0.7819080240001721,0.039999956399999995,0.04,-9.816863600000042,0.0340328559272043,0.009515655599873184,-0.03446818939902839,-0.014969574660021814,0.007189276719797488
0.7125,0.003923978474843221,-0.7804234950001709,0.00010417760749730925,-2.3527903000001444,0.00181456567492822,1.571710024999969,0.7818604425001726,0.039999956999999996,0.04,-9.816851750000042,0.03423743694946428,0.009550724999872737,-0.034736875249024975,-0.014980892185080657,0.007245278574796776
0.715,0.00396718178984267,-0.7803763740001716,0.00010491908899729981,-2.3527505200001446,0.001834345889927968,1.5717185899999688,0.7818128610001732,0.0399999576,0.04,-9.816839900000042,0.03444201797172424,0.00958579439987229,-0.035005561099021545,-0.014992209710139497,0.007301280429796062
0.7175,0.0040111352398338965,-0.7803284645001808,0.00010567354499714814,-2.3527100700001524,0.0018544685549239622,1.5717273049999672,0.7817644565001829,0.0399999581,0.04,-9.816838099999933,0.034675234182607484,0.009646021949596035,-0.03527621674899654,-0.015003353916069103,0.0073575708647921866
0.72,0.004056588959833317,-0.7802789780001814,0.00010645394999713818,-2.3526682800001533,0.0018752761199236968,1.571736319999967,0.7817144060001835,0.0399999584,0.04,-9.816856399999933,0.03496572077167792,0.009756565799594625,-0.035550811998993036,-0.015014151483734545,0.007414438459791461
0.7225,0.00410204267983274,-0.7802294915001821,0.00010723435499712826,-2.3526264900001537,0.0018960836849234324,1.5717453349999668,0.7816643555001842,0.0399999587,0.04,-9.816874699999932,0.03525620736074837,0.00986710964959322,-0.03582540724898954,-0.015024949051399988,0.007471306054790738
0.725,0.00414749639983216,-0.7801800050001827,0.00010801475999711831,-2.352584700000154,0.001916891249923167,1.5717543499999669,0.7816143050001848,0.039999959,0.04,-9.816892999999933,0.03554669394981881,0.00997765349959181,-0.03610000249898604,-0.01503574661906543,0.0075281736497900134
0.7275,0.004192950119831582,-0.7801305185001833,0.00010879516499710839,-2.352542910000155,0.0019376988149229024,1.5717633649999667,0.7815642545001855,0.0399999593,0.04,-9.816911299999934,0.03583718053888926,0.010088197349590405,-0.03637459774898255,-0.015046544186730872,0.00758504124478929
0.73,0.0042384038398310024,-0.780081032000184,0.00010957556999709844,-2.3525011200001553,0.0019585063799226372,1.5717723799999666,0.7815142040001861,0.0399999596,0.04,-9.816929599999932,0.0361276671279597,0.010198741199588995,-0.03664919299897905,-0.015057341754396315,0.007641908839788565
0.7325,0.0042838575598304245,-0.7800315455001846,0.00011035597499708851,-2.352459330000156,0.001979313944922373,1.5717813949999664,0.7814641535001867,0.0399999599,0.04,-9.816947899999933,0.03641815371703015,0.01030928504958759,-0.036923788248975555,-0.015068139322061757,0.007698776434787842
0.735,0.004330843319821242,-0.7799804250001945,0.00011116284549692995,-2.3524161200001648,0.002000825489918154,1.5717907199999646,0.7814124280001968,0.03999996,0.04,-9.816966799999928,0.036690938471759756,0.0103967276997159,-0.03720233059894989,-0.015078961942304308,0.007756837169780418
0.7375,0.004378595099820635,-0.7799284875001952,0.00011198294874691953,-2.3523722000001652,0.002022689024917876,1.5718001999999645,0.7813598650001975,0.03999996,0.04,-9.816985999999929,0.03695487230917019,0.010472619749714935,-0.03748284649894633,-0.015089797088835625,0.007815494474779671
0.74,0.004426346879820026,-0.7798765500001958,0.00011280305199690907,-2.3523282800001657,0.0020445525599175974,1.5718096799999643,0.7813073020001982,0.03999996,0.04,-9.817005199999928,0.03721880614658061,0.010548511799713967,-0.03776336239894275,-0.015100632235366942,0.007874151779778925
0.7425,0.004474098659819419,-0.7798246125001964,0.00011362315524689865,-2.352284360000166,0.0020664160949173194,1.571819159999964,0.7812547390001988,0.03999996,0.04,-9.817024399999926,0.037482739983991036,0.010624403849713002,-0.03804387829893918,-0.01511146738189826,0.007932809084778178
0.745,0.00452185043981881,-0.7797726750001971,0.00011444325849688819,-2.3522404400001666,0.0020882796299170406,1.571828639999964,0.7812021760001995,0.03999996,0.04,-9.817043599999927,0.037746673821401455,0.010700295899712034,-0.03832439419893561,-0.015122302528429577,0.00799146638977743
0.7475,0.004569602219818203,-0.7797207375001978,0.00011526336174687777,-2.3521965200001675,0.0021101431649167626,1.5718381199999638,0.7811496130002001,0.03999996,0.04,-9.817062799999926,0.03801060765881189,0.01077618794971107,-0.03860491009893204,-0.015133137674960894,0.008050123694776685
0.75,0.0046173539998175936,-0.7796688000001984,0.00011608346499686731,-2.352152600000168,0.002132006699916484,1.5718475999999637,0.7810970500002008,0.03999996,0.04,-9.817081999999926,0.03827454149622231,0.010852079999710102,-0.03888542599892846,-0.015143972821492211,0.008108780999775937
0.7525000000000001,0.004667450804807999,-0.7796143440002088,0.00011694411024670151,-2.352106505000177,0.002154941819912099,1.571857484999962,0.7810418335002116,0.03999996,0.04,-9.817099399999933,0.03854086696999518,0.010925986799716746,-0.0391716802989029,-0.01515497071664283,0.008168120549772577
0.755,0.004717547609807361,-0.7795598880002095,0.00011780475549669053,-2.352060410000177,0.0021778769399118064,1.571867369999962,0.7809866170002123,0.03999996,0.04,-9.817116799999932,0.03880719244377718,0.010999893599715803,-0.03945793459889926,-0.015165968611794069,0.00822746009977182
0.7575000000000001,0.004767644414806723,-0.77950543200021,0.00011866540074667959,-2.352014315000178,0.002200812059911515,1.5718772549999618,0.780931400500213,0.03999996,0.04,-9.817134199999932,0.03907351791755919,0.011073800399714864,-0.03974418889889562,-0.015176966506945309,0.008286799649771066
0.76,0.004817741219806085,-0.7794509760002107,0.00011952604599666861,-2.3519682200001784,0.0022237471799112225,1.5718871399999617,0.7808761840002137,0.03999996,0.04,-9.817151599999931,0.03933984339134119,0.01114770719971392,-0.040030443198891964,-0.015187964402096549,0.008346139199770309
0.7625000000000001,0.004867838024805448,-0.7793965200002114,0.00012038669124665767,-2.351922125000179,0.002246682299910931,1.5718970249999615,0.7808209675002145,0.03999996,0.04,-9.817168999999932,0.0396061688651232,0.011221613999712981,-0.040316697498888325,-0.015198962297247789,0.008405478749769555
0.765,0.00491793482980481,-0.7793420640002121,0.0001212473364966467,-2.3518760300001795,0.002269617419910638,1.5719069099999614,0.7807657510002152,0.03999996,0.04,-9.817186399999931,0.0398724943389052,0.011295520799712038,-0.04060295179888467,-0.015209960192399029,0.008464818299768797
0.7675000000000001,0.00496882856479435,-0.7792867620002233,0.00012212176499646593,-2.3518291950001893,0.0022929167349058574,1.5719169549999594,0.7807096755002265,0.0399999599,0.04,-9.81719700000001,0.04012799784449496,0.01135659624986125,-0.04089095974885782,-0.015221034502566516,0.008524538899763024
0.77,0.0050213161597922485,-0.7792297680002256,0.00012302375999642982,-2.351780880000191,0.0023169444399048955,1.5719273199999588,0.7806518820002288,0.0399999596,0.04,-9.817194000000011,0.0403618574133199,0.011392008999859832,-0.04118247499884615,-0.01523226164276918,0.008585021599760602
0.7725,0.005073803754790147,-0.7791727740002279,0.00012392575499639368,-2.351732565000193,0.0023409721449039332,1.5719376849999585,0.7805940885002312,0.039999959300000006,0.04,-9.817191000000012,0.04059571698214484,0.011427421749858413,-0.041473990248834476,-0.015243488782971847,0.00864550429975818
0.775,0.005126291349788047,-0.7791157800002302,0.00012482774999635762,-2.351684250000195,0.0023649998499029722,1.571948049999958,0.7805362950002335,0.039999959,0.04,-9.817188000000012,0.04082957655096979,0.011462834499856998,-0.04176550549882282,-0.015254715923174513,0.008705986999755761
0.7775,0.005178778944785946,-0.7790587860002324,0.0001257297449963215,-2.3516359350001967,0.0023890275549020104,1.5719584149999577,0.7804785015002358,0.039999958700000005,0.04,-9.817185000000013,0.04106343611979473,0.01149824724985558,-0.042057020748811146,-0.015265943063377179,0.008766469699753341
0.78,0.005231266539783847,-0.7790017920002347,0.00012663173999628543,-2.351587620000199,0.0024130552599010494,1.5719687799999573,0.7804207080002381,0.0399999584,0.04,-9.817182000000013,0.04129729568861969,0.011533659999854163,-0.04234853599879949,-0.015277170203579845,0.008826952399750922
0.7825,0.0052837541347817455,-0.778944798000237,0.00012753373499624932,-2.351539305000201,0.0024370829649000875,1.5719791449999567,0.7803629145002404,0.0399999581,0.04,-9.817179000000012,0.04153115525744463,0.011569072749852746,-0.042640051248787815,-0.01528839734378251,0.0088874350997485
0.785,0.005337864959771422,-0.778886080000248,0.0001284638049960708,-2.351489410000211,0.0024618534398953636,1.5719898399999548,0.7803033400002517,0.039999957600000004,0.04,-9.817197599999878,0.04183065518598527,0.01165782529951963,-0.042935328398763274,-0.015299624763382364,0.008948738399743158
0.7875,0.00539278739977222,-0.7788265000002471,0.0001294079124960845,-2.35143872500021,0.002486995299895729,1.572000699999955,0.7802428750002508,0.039999957,0.04,-9.817226999999878,0.04216297529499984,0.011773247749521308,-0.04323248649876759,-0.01531085232268081,0.009010451999744056
0.79,0.0054477098397730205,-0.7787669200002463,0.00013035201999609826,-2.3513880400002094,0.0025121371598960957,1.5720115599999551,0.7801824100002499,0.0399999564,0.04,-9.817256399999879,0.042495295404014435,0.01188867019952299,-0.04352964459877193,-0.01532207988197926,0.009072165599744955
0.7925,0.005502632279773819,-0.7787073400002453,0.000131296127496112,-2.351337355000209,0.0025372790198964607,1.5720224199999553,0.780121945000249,0.0399999558,0.04,-9.817285799999878,0.04282761551302901,0.012004092649524668,-0.04382680269877624,-0.015333307441277708,0.009133879199745851
0.795,0.005557554719774619,-0.7786477600002445,0.00013224023499612574,-2.351286670000208,0.0025624208798968274,1.5720332799999555,0.7800614800002481,0.0399999552,0.04,-9.817315199999879,0.043159935622043594,0.01211951509952635,-0.04412396079878057,-0.015344535000576157,0.00919559279974675
0.7975,0.005612477159775417,-0.7785881800002437,0.00013318434249613947,-2.351235985000207,0.002587562739897193,1.5720441399999556,0.7800010150002472,0.0399999546,0.04,-9.81734459999988,0.043492255731058166,0.012234937549528027,-0.044421118898784896,-0.015355762559874605,0.009257306399747648
0.8,0.0056673995997762175,-0.7785286000002428,0.00013412844999615323,-2.3511853000002065,0.002612704599897559,1.5720549999999558,0.7799405500002463,0.039999954,0.04,-9.81737399999988,0.04382457584007276,0.012350359999529709,-0.044718276998789226,-0.015366990119173054,0.009319019999748547
0.8025,0.005724800834765386,-0.7784663860002543,0.00013511543499596592,-2.3511322600002167,0.0026389776398926153,1.5720663699999535,0.7798773475002583,0.039999954,0.04,-9.817374449999997,0.044119707121238784,0.012427050199686545,-0.045020771948763624,-0.015377835463688127,0.009381589799744261
0.805,0.005782202069764656,-0.778404172000255,0.00013610241999595339,-2.3510792200002175,0.002665250679892281,1.5720777399999535,0.7798141450002591,0.039999954,0.04,-9.817374899999997,0.0444148384022533,0.01250374039968557,-0.045323266898759776,-0.015388680808201645,0.009444159599743466
0.8075,0.005839603304763924,-0.7783419580002559,0.0001370894049959408,-2.3510261800002183,0.002691523719891946,1.5720891099999532,0.7797509425002599,0.039999954,0.04,-9.817375349999997,0.0447099696832678,0.012580430599684594,-0.04562576184875592,-0.015399526152715162,0.009506729399742668
0.81,0.005897004539763194,-0.7782797440002567,0.00013807638999592826,-2.3509731400002187,0.002717796759891612,1.5721004799999532,0.7796877400002608,0.039999954,0.04,-9.817375799999999,0.04500510096428231,0.012657120799683619,-0.04592825679875207,-0.015410371497228677,0.009569299199741872
0.8125,0.005954405774762462,-0.7782175300002574,0.00013906337499591567,-2.3509201000002196,0.002744069799891277,1.572111849999953,0.7796245375002615,0.039999954,0.04,-9.817376249999999,0.04530023224529681,0.01273381099968264,-0.04623075174874822,-0.015421216841742195,0.009631868999741073
0.8150000000000001,0.006011807009761732,-0.7781553160002582,0.0001400503599959031,-2.3508670600002204,0.0027703428398909427,1.5721232199999529,0.7795613350002624,0.039999954,0.04,-9.817376699999999,0.04559536352631132,0.012810501199681665,-0.04653324669874437,-0.015432062186255712,0.009694438799740279
0.8175,0.006070048454750505,-0.7780922030002703,0.00014105187549570903,-2.350813200000231,0.0027970003898858046,1.5721347649999504,0.7794972120002747,0.039999954,0.04,-9.817375750000016,0.045894684641272165,0.012888091249669447,-0.046837440248719296,-0.015442699147345761,0.009757443499734047
0.8200000000000001,0.006129970319749743,-0.7780272920002711,0.00014208245199569594,-2.3507577000002318,0.0028244269598854564,1.5721466599999503,0.7794312480002754,0.039999954,0.04,-9.817372000000017,0.046202385424282545,0.012967480999668438,-0.047145030998715386,-0.015452919341581077,0.009821317999733237
0.8225,0.006189892184748979,-0.7779623810002719,0.00014311302849568278,-2.3507022000002324,0.0028518535298851064,1.5721585549999502,0.7793652840002763,0.039999954,0.04,-9.817368250000015,0.04651008620729291,0.013046870749667426,-0.04745262174871146,-0.015463139535816392,0.009885192499732421
0.8250000000000001,0.006249814049748218,-0.7778974700002728,0.0001441436049956697,-2.350646700000233,0.0028792800998847577,1.57217044999995,0.7792993200002771,0.039999954,0.04,-9.817364500000016,0.04681778699030329,0.013126260499666417,-0.04776021249870755,-0.015473359730051707,0.00994906699973161
0.8275,0.0063097359147474535,-0.7778325590002736,0.00014517418149565653,-2.350591200000234,0.002906706669884408,1.57218234499995,0.779233356000278,0.039999954,0.04,-9.817360750000015,0.04712548777331366,0.013205650249665404,-0.04806780324870363,-0.015483579924287021,0.010012941499730794
0.8300000000000001,0.006369657779746692,-0.7777676480002744,0.00014620475799564345,-2.3505357000002345,0.0029341332398840595,1.5721942399999498,0.7791673920002788,0.039999954,0.04,-9.817357000000015,0.04743318855632404,0.013285039999664395,-0.04837539399869972,-0.015493800118522336,0.010076815999729982
0.8325,0.006429579644745927,-0.7777027370002753,0.00014723533449563029,-2.350480200000235,0.00296155980988371,1.5722061349999494,0.7791014280002796,0.039999954,0.04,-9.817353250000016,0.0477408893393344,0.013364429749663382,-0.0486829847486958,-0.015504020312757652,0.010140690499729169
0.835,0.006491209539734267,-0.7776360000002878,0.00014829544999542873,-2.350423130000246,0.0029897677298783756,1.5722183799999472,0.7790335800002925,0.039999954399999996,0.04,-9.817340400000074,0.04802185818439159,0.01341528949984437,-0.04899396049867028,-0.01551390625532307,0.010205247799723998
0.8375,0.006553693449733473,-0.7775683500002886,0.00014937033499541505,-2.3503652750002466,0.0030183663248780123,1.572230799999947,0.7789647900002934,0.039999955,0.04,-9.817323000000075,0.048289461060216934,0.013451884249843903,-0.04930662874866631,-0.015523625072050344,0.010270146499723173
