rsonawane2002/My_IMU/logs_2/traj_329/imu_329.csv
time,j1,j2,j3,j4,j5,j6,j7,gripper1,gripper2,imu_ax,imu_ay,imu_az,imu_gx,imu_gy,imu_gz
862.9333333328772,0.00016700293,-0.785875,4.0107683e-05,-2.3551247,9.29385e-05,1.570997,0.786,0.04,0.04,-9.52906,0.004663907457143068,0.09858116,-4.550232e-07,-0.0011641273740679026,5.014963e-07
862.9499999995438,0.00016699913,-0.78576016,4.0107672e-05,-2.3552213,9.298221e-05,1.5709941,0.786,0.04,0.04,-9.83441,0.0006131121190264821,0.0090866815,6.2254287e-07,-0.0022387136705219746,1.7480961e-06
862.9666666662105,0.00016694894,-0.7856543,4.0059207e-05,-2.35531,9.307952e-05,1.5709913,0.786,0.04,0.04,-9.832393,0.0005333850858733058,0.007585507,4.946102e-06,-0.003228533547371626,7.388099e-06
862.9833333328771,0.0001667734,-0.785557,3.9882932e-05,-2.355391,9.333236e-05,1.5709884,0.786,0.04,0.039999995,-9.830488,0.00037472674739547074,0.0062586097,1.650009e-05,-0.004142270423471928,2.2287617e-05
862.9999999995438,0.00016635828,-0.7854674,3.9465518e-05,-2.3554654,9.385082e-05,1.5709856,0.786,0.04,0.04,-9.828622,0.0001331227831542492,0.005054428,3.8755887e-05,-0.004983436781913042,4.781069e-05
863.0166666662104,0.00016555653,-0.78538513,3.866193e-05,-2.3555331,9.4813855e-05,1.570986,0.786,0.04,0.04,-9.826863,-0.00015520612942054868,0.003966888,7.401214e-05,-0.005759785883128643,8.965347e-05
863.0333333328771,0.0001641922,-0.7853094,3.7299338e-05,-2.3555984,9.642121e-05,1.5709867,0.786,0.04,0.04,-9.825034,-0.0004969430738128722,0.0029195012,0.00012479325,-0.006460187956690788,0.00014997381
863.0499999995437,0.00016206362,-0.78524005,3.5179957e-05,-2.3556576,9.890067e-05,1.5709877,0.786,0.04,0.04,-9.823834,-0.0008800008217804134,0.002027493,0.00019332489,-0.007121551316231489,0.00023146419
863.0666666662104,0.0001589458,-0.7851765,3.2083568e-05,-2.3557153,0.000102505626,1.5709887,0.786,0.04,0.04,-9.822131,-0.001294187386520207,0.0012489636,0.00028156882,-0.007728761527687311,0.00033649761
863.083333332877,0.00015459314,-0.78511804,2.7770107e-05,-2.3557684,0.00010751257,1.5709933,0.786,0.04,0.04,-9.821067,-0.0017351513961330056,0.00053488114,0.00039095824,-0.008308175951242447,0.00046720848
863.0999999995437,0.00014874185,-0.7850647,2.1981907e-05,-2.3558192,0.00011422823,1.5709981,0.7859981,0.04,0.039999995,-9.819478,-0.0021811295300722122,-0.00022406643,0.0005229713,-0.008831682614982128,0.0006262337
863.1166666662103,0.00014111232,-0.7850161,1.4446004e-05,-2.3558698,0.00012293243,1.5710065,0.7859962,0.039999995,0.04,-9.818222,-0.002651190385222435,-0.00077090366,0.00068793,-0.009325249120593071,0.0008120421
863.133333332877,0.0001314104,-0.7849719,4.8753554e-06,-2.3559196,0.00013397528,1.5710186,0.7859943,0.03999999,0.03999999,-9.817161,-0.0030880970880389214,-0.001340239,0.00087759725,-0.009786367416381836,0.001031087
863.1499999995436,0.00011933005,-0.7849318,-7.02859e-06,-2.3559692,0.00014770286,1.5710311,0.7859924,0.039999988,0.039999984,-9.816,-0.003530925139784813,-0.0018550686,0.0010931323,-0.010214103385806084,0.001282049
863.1666666662103,0.00010455441,-0.78489554,-2.157471e-05,-2.3560188,0.00016446816,1.5710473,0.7859905,0.039999984,0.03999998,-9.814986,-0.003954244777560234,-0.0022326673,0.0013350095,-0.010628321208059788,0.0015651908
863.1833333328769,8.675772e-05,-0.78486294,-3.9080915e-05,-2.3560688,0.00018463665,1.5710673,0.78598815,0.03999998,0.039999977,-9.813883,-0.004319097846746445,-0.0026438923,0.0016041001,-0.01101586502045393,0.0018822942
863.1999999995436,6.560645e-05,-0.78483385,-5.9872185e-05,-2.3561194,0.00020858219,1.5710915,0.78598434,0.039999973,0.039999966,-9.812845,-0.004682446364313364,-0.0029924829,0.0019025055,-0.011380692943930626,0.0022349998
863.2166666662102,4.076079e-05,-0.784808,-8.427985e-05,-2.3561707,0.00023668395,1.5711213,0.7859805,0.039999966,0.039999958,-9.811749,-0.004989973269402981,-0.003283443,0.0022357767,-0.011721411719918251,0.0026222365
863.2333333328769,1.1875674e-05,-0.7847852,-0.00011264036,-2.3562262,0.00026932894,1.5711565,0.7859767,0.039999966,0.039999954,-9.8106365,-0.0052301762625575066,-0.003553984,0.0025967297,-0.012035096995532513,0.0030462625
863.2499999995435,-2.1397955e-05,-0.78476536,-0.00014529387,-2.3562844,0.0003069067,1.5711958,0.785971,0.03999997,0.039999958,-9.809965,-0.00541604682803154,-0.003752728,0.002986029,-0.012340372428297997,0.0035058104
863.2666666662102,-5.941244e-05,-0.78474855,-0.00018258384,-2.3563445,0.0003498117,1.5712416,0.78596526,0.03999997,0.039999958,-9.809068,-0.005524416454136372,-0.0038932653,0.0034121994,-0.01263533066958189,0.004002031
863.2833333328769,-0.00010252214,-0.7847345,-0.0002248557,-2.3564103,0.00039844046,1.5712934,0.78595835,0.039999973,0.03999996,-9.808026,-0.005550564732402563,-0.0040127635,0.0038666832,-0.012908111326396465,0.004535152
863.2999999995435,-0.00015108299,-0.78472316,-0.00027245644,-2.3564804,0.00045319155,1.5713515,0.7859507,0.039999973,0.039999958,-9.8074255,-0.005489315837621689,-0.004084178,0.004354284,-0.013178762048482895,0.0051061814
863.3166666662102,-0.00020545138,-0.78471434,-0.0003257333,-2.3565545,0.0005144625,1.5714167,0.7859425,0.039999973,0.039999958,-9.806594,-0.00533564668148756,-0.004119195,0.0048731314,-0.01343876589089632,0.0057134633
863.3333333328768,-0.0002659837,-0.7847083,-0.00038503375,-2.3566356,0.00058265316,1.5714893,0.78593296,0.039999977,0.039999958,-9.805763,-0.005076807923614979,-0.004141991,0.0054221475,-0.01368791051208973,0.006358693
863.3499999995435,-0.00033303557,-0.7847047,-0.00045070465,-2.3567238,0.00065815996,1.5715697,0.78592265,0.03999998,0.03999996,-9.8051605,-0.004709124565124512,-0.0040823817,0.006004542,-0.013934208080172539,0.007040084
863.3666666662101,-0.0004069615,-0.7847035,-0.00052309135,-2.356817,0.0007413798,1.5716583,0.7859112,0.03999998,0.03999996,-9.804637,-0.004219956696033478,-0.0040387986,0.0066174655,-0.014181457459926605,0.007758374
863.3833333328768,-0.0004881141,-0.7847045,-0.0006025379,-2.3569155,0.0008327075,1.5717559,0.78589845,0.03999998,0.039999958,-9.803764,-0.0035999976098537445,-0.003951153,0.007261876,-0.014416898600757122,0.008514182
863.3999999995434,-0.0005768434,-0.7847081,-0.0006893854,-2.3570216,0.000932534,1.5718625,0.78588504,0.039999984,0.03999996,-9.802865,-0.0028608180582523346,-0.003842744,0.0079383915,-0.014638558030128479,0.00930556
863.4166666662101,-0.0006734973,-0.78471404,-0.0007839729,-2.3571358,0.0010412489,1.5719786,0.7858698,0.03999998,0.039999954,-9.802289,-0.001963450573384762,-0.003652056,0.008643461,-0.014859413728117943,0.010133947
863.4333333328767,-0.0007784201,-0.7847223,-0.00088663655,-2.3572602,0.0011592372,1.5721045,0.7858535,0.039999988,0.039999958,-9.801711,-0.000869356095790863,-0.003451664,0.009382301,-0.015077752992510796,0.01099816
863.4499999995434,-0.00089195254,-0.78473276,-0.0009977084,-2.3573947,0.0012868795,1.5722406,0.78583604,0.039999995,0.039999966,-9.801365,0.00025195255875587463,-0.0032070416,0.010150193,-0.015304534696042538,0.011896976
863.46666666621,-0.0010144318,-0.7847456,-0.0011175174,-2.3575375,0.0014245526,1.5723878,0.78581697,0.039999988,0.039999958,-9.800945,0.001602616161108017,-0.0029778192,0.01094762,-0.015536114573478699,0.012830861
863.4833333328767,-0.0011461905,-0.78476095,-0.0012463881,-2.357689,0.0015726308,1.5725461,0.7857965,0.039999995,0.03999996,-9.8002825,0.0031190235167741776,-0.0027044702,0.011775901,-0.01576174981892109,0.013800176
863.4999999995433,-0.0012875578,-0.78477865,-0.0013846412,-2.3578496,0.0017314797,1.572716,0.78577465,0.04,0.03999996,-9.799604,0.00481395423412323,-0.0023685102,0.012633272,-0.015981730073690414,0.014803628
863.51666666621,-0.0014388572,-0.7847985,-0.0015325927,-2.3580232,0.0019014627,1.5728973,0.7857512,0.04,0.039999958,-9.798965,0.006672995164990425,-0.0020204182,0.013519615,-0.01619754359126091,0.015840184
863.5333333328766,-0.001600408,-0.7848207,-0.0016905543,-2.3582058,0.0020829355,1.5730915,0.78572613,0.04,0.039999958,-9.798814,0.008733019232749939,-0.0016338357,0.01443469,-0.016428517177700996,0.016909886
863.5499999995433,-0.0017725236,-0.78484523,-0.0018588313,-2.3583996,0.0022762504,1.5732981,0.78569955,0.04,0.039999958,-9.798098,0.01097775250673294,-0.0012436712,0.015378445,-0.016650546342134476,0.018012553
863.5666666662099,-0.0019555138,-0.78487206,-0.0020377245,-2.3586051,0.0024817532,1.5735178,0.78567135,0.04,0.03999995,-9.797646,0.013421950861811638,-0.0007756909,0.016349552,-0.016875918954610825,0.019147297
863.5833333328766,-0.002149681,-0.7849015,-0.0022275315,-2.358823,0.0026997826,1.5737507,0.78564143,0.04,0.039999954,-9.7972,0.016065891832113266,-0.0003042277,0.017347831,-0.01710294932126999,0.020313082
863.5999999995432,-0.002355324,-0.7849331,-0.0024285421,-2.359053,0.002930672,1.5739975,0.7856097,0.04,0.039999947,-9.796818,0.018921993672847748,0.00023387151,0.018373067,-0.017334794625639915,0.021510221
863.6166666662099,-0.0025727332,-0.7849671,-0.0026410401,-2.3592954,0.0031747473,1.5742583,0.78557616,0.04,0.039999943,-9.796356,0.02199569344520569,0.0007564835,0.019425064,-0.017567666247487068,0.0227376
863.6333333328765,-0.0028021962,-0.7850038,-0.002865307,-2.3595507,0.003432329,1.5745336,0.78554076,0.04,0.039999943,-9.795929,0.025286106392741203,0.0013382602,0.020503582,-0.01780344359576702,0.02399402
863.6499999995432,-0.003043993,-0.7850428,-0.0031016155,-2.3598197,0.0037037309,1.5748239,0.78550345,0.04,0.039999943,-9.7955,0.02880139835178852,0.0019687347,0.02160765,-0.018041357398033142,0.02528058
863.6666666662098,-0.0032983988,-0.7850842,-0.0033502332,-2.360102,0.0039892606,1.575129,0.7854642,0.04,0.039999936,-9.795156,0.032545916736125946,0.002616788,0.022736982,-0.018282685428857803,0.02659489
863.6833333328765,-0.0035656812,-0.7851283,-0.0036114224,-2.3603985,0.0042892187,1.5754495,0.7854229,0.04,0.039999932,-9.794834,0.03662671893835068,0.0032884995,0.023891026,-0.018529515713453293,0.02793716
863.6999999995431,-0.0038461026,-0.78517485,-0.0038854387,-2.3607087,0.0046039,1.5757859,0.7853796,0.039999995,0.039999925,-9.794429,0.04075160250067711,0.0040302426,0.025069904,-0.01878049410879612,0.02930658
863.7166666662098,-0.0041399198,-0.7852239,-0.004172533,-2.3610334,0.004933586,1.5761381,0.78533417,0.039999995,0.039999925,-9.793994,0.045219261199235916,0.0047822073,0.026272822,-0.019032325595617294,0.030702913
863.7333333328764,-0.00444738,-0.78527546,-0.004472948,-2.3613732,0.0052785603,1.5765071,0.7852866,0.04,0.03999993,-9.793659,0.04992944374680519,0.00557549,0.027499205,-0.019289186224341393,0.032123707
863.7499999995431,-0.0047687297,-0.7853298,-0.004786922,-2.3617287,0.005639095,1.5768924,0.78523695,0.04,0.039999925,-9.793345,0.05490010976791382,0.006397547,0.028748909,-0.01955079846084118,0.033570286
863.7666666662097,-0.005104205,-0.7853868,-0.005114687,-2.362099,0.0060154544,1.5772947,0.7851851,0.04,0.03999992,-9.7930765,0.06013121455907822,0.0072844718,0.03002077,-0.019819285720586777,0.035041455
863.7833333328764,-0.0054540387,-0.78544635,-0.005456467,-2.362485,0.0064078984,1.5777138,0.7851311,0.04,0.03999992,-9.7926855,0.06562600284814835,0.008181877,0.03131489,-0.020090270787477493,0.03653646
863.799999999543,-0.0058184513,-0.78550875,-0.005812483,-2.362887,0.006816677,1.5781507,0.7850747,0.04,0.039999913,-9.7924,0.07138293236494064,0.009121642,0.03263045,-0.020368587225675583,0.038054787
863.8166666662097,-0.0061976654,-0.7855736,-0.006182947,-2.3633053,0.007242036,1.5786054,0.785016,0.04,0.03999992,-9.792105,0.07740866392850876,0.010105902,0.033967786,-0.020650561898946762,0.039594967
863.8333333328764,-0.006591888,-0.78564143,-0.006568066,-2.3637397,0.0076842103,1.5790782,0.7849551,0.04,0.03999991,-9.791847,0.08371220529079437,0.011106957,0.035326052,-0.020940575748682022,0.04115708
863.849999999543,-0.007001329,-0.785712,-0.006968038,-2.3641906,0.00814343,1.5795692,0.7848919,0.04,0.039999902,-9.791463,0.09029246121644974,0.012170358,0.036704022,-0.021231161430478096,0.04274025
863.8666666662097,-0.007426186,-0.7857854,-0.007383063,-2.364658,0.008619918,1.5800785,0.7848263,0.04,0.039999906,-9.7911415,0.09715569019317627,0.013273226,0.038101733,-0.021526683121919632,0.044343747
863.8833333328763,-0.007866653,-0.7858615,-0.007813325,-2.365143,0.009113893,1.5806063,0.7847582,0.04,0.039999906,-9.790871,0.10430478304624557,0.014409061,0.03951884,-0.021829115226864815,0.04596699
863.899999999543,-0.008322914,-0.7859406,-0.008259008,-2.365645,0.009625562,1.5811534,0.78468776,0.04,0.0399999,-9.790626,0.1117396131157875,0.015592256,0.040955205,-0.022139452397823334,0.047609154
863.9166666662096,-0.008795149,-0.78602254,-0.008720288,-2.366164,0.0101551255,1.5817193,0.7846148,0.04,0.039999906,-9.790277,0.11947061866521835,0.016816886,0.04240977,-0.022451961413025856,0.049269553
863.9333333328763,-0.0092835305,-0.7861073,-0.009197332,-2.3667011,0.010702777,1.5823046,0.7845394,0.04,0.039999906,-9.790024,0.12760961055755615,0.018075144,0.043882605,-0.022770743817090988,0.05094709
863.9499999995429,-0.009788226,-0.7861951,-0.009690303,-2.367256,0.011268706,1.5829093,0.78446156,0.04,0.039999895,-9.789763,0.13581815361976624,0.019377967,0.045372862,-0.023098044097423553,0.052641865
863.9666666662096,-0.010309402,-0.7862857,-0.010199365,-2.367829,0.011853089,1.5835339,0.78438103,0.04,0.03999989,-9.789425,0.14444267749786377,0.02073325,0.046880167,-0.02343039959669113,0.054353185
863.9833333328762,-0.010847206,-0.78637934,-0.010724658,-2.3684204,0.012456106,1.5841783,0.784298,0.04,0.039999887,-9.789189,0.15337252616882324,0.022107752,0.048404757,-0.023771129548549652,0.056079824
863.9999999995429,-0.011401792,-0.7864759,-0.011266334,-2.3690305,0.013077917,1.584843,0.78421235,0.04,0.039999887,-9.788884,0.16261032223701477,0.02354154,0.04994545,-0.024117089807987213,0.057822034
864.0166666662095,-0.0119733,-0.78657556,-0.011824534,-2.3696585,0.013718685,1.5855279,0.7841241,0.04,0.039999887,-9.788671,0.17215542495250702,0.025007125,0.051502146,-0.02447221614420414,0.05957784
864.0333333328762,-0.012561863,-0.7866784,-0.012399385,-2.3703055,0.014378557,1.5862331,0.78403324,0.04,0.039999887,-9.788276,0.18200835585594177,0.026522849,0.053074475,-0.024830423295497894,0.06134715
864.0499999995428,-0.013167615,-0.78678393,-0.012991015,-2.3709712,0.015057685,1.5869586,0.7839397,0.04,0.039999872,-9.788019,0.1921798139810562,0.028097099,0.05466168,-0.025197722017765045,0.06312934
864.0666666662095,-0.013790678,-0.78689283,-0.0135995485,-2.371656,0.015756201,1.5877055,0.7838436,0.04,0.039999872,-9.787712,0.2026672512292862,0.029681921,0.05626355,-0.025573160499334335,0.06492367
864.0833333328761,-0.01443117,-0.78700465,-0.014225096,-2.372359,0.016474243,1.588473,0.78374463,0.04,0.039999872,-9.787388,0.2134706825017929,0.031332925,0.057879377,-0.025952696800231934,0.06672945
864.0999999995428,-0.0150892,-0.78711945,-0.014867768,-2.3730822,0.017211927,1.5892612,0.7836431,0.04,0.03999993,-9.786978,0.22461295127868652,0.033022758,0.059509825,-0.02633816935122013,0.06854864
864.1166666662094,-0.015764879,-0.78723764,-0.015527667,-2.3738248,0.017969375,1.590071,0.78353876,0.04,0.039999925,-9.786755,0.2360404133796692,0.03475252,0.06115291,-0.02673557959496975,0.07037433
864.1333333328761,-0.016458305,-0.7873589,-0.01620489,-2.3745863,0.0187467,1.590902,0.78343177,0.04,0.039999925,-9.786404,0.24782037734985352,0.036542676,0.06280965,-0.027138682082295418,0.07221073
864.1499999995427,-0.017169563,-0.7874833,-0.016899534,-2.3753679,0.019544007,1.5917542,0.7833219,0.04,0.03999992,-9.785967,0.2599177658557892,0.038358524,0.06447857,-0.027546342462301254,0.074055545
864.1666666662094,-0.01789875,-0.7876109,-0.017611673,-2.376169,0.0203614,1.5926278,0.7832094,0.04,0.039999917,-9.785663,0.27235445380210876,0.04023572,0.06616017,-0.027964601293206215,0.07591038
864.183333332876,-0.01864595,-0.78774154,-0.018341402,-2.3769896,0.021198962,1.5935229,0.783094,0.04,0.039999917,-9.785335,0.2852315604686737,0.042149656,0.067853205,-0.028390958905220032,0.07777048
864.1999999995427,-0.019411225,-0.7878754,-0.01908878,-2.3778303,0.022056773,1.5944397,0.7829759,0.04,0.03999991,-9.784814,0.29818370938301086,0.04410873,0.06955807,-0.02882368303835392,0.0796384
864.2166666662093,-0.020194655,-0.7880125,-0.019853886,-2.378691,0.02293492,1.5953784,0.782855,0.04,0.039999913,-9.784428,0.311604768037796,0.046112575,0.07127357,-0.02926573157310486,0.08151267
864.233333332876,-0.020996306,-0.7881527,-0.020636778,-2.3795712,0.02383347,1.596339,0.7827313,0.04,0.039999913,-9.783991,0.32535848021507263,0.048170842,0.07300002,-0.029715770855545998,0.08339249
864.2499999995426,-0.02181623,-0.7882963,-0.021437507,-2.380472,0.02475249,1.5973214,0.7826047,0.04,0.039999917,-9.783478,0.3394410014152527,0.05025726,0.07473646,-0.0301717109978199,0.08527785
864.2666666662093,-0.022654487,-0.788443,-0.022256128,-2.381393,0.025692038,1.5983257,0.78247535,0.04,0.039999906,-9.783045,0.3538546860218048,0.05241455,0.07648319,-0.030638018622994423,0.08716658
864.2833333328759,-0.023511115,-0.78859305,-0.023092696,-2.3823338,0.026652172,1.5993519,0.78234303,0.04,0.039999906,-9.78252,0.3686135411262512,0.05460276,0.07823898,-0.031112873926758766,0.08905968
864.2999999995426,-0.024386162,-0.7887464,-0.02394724,-2.3832948,0.027632937,1.6004001,0.782208,0.04,0.039999906,-9.781958,0.38370266556739807,0.056844488,0.08000457,-0.03159563988447189,0.09095583
864.3166666662092,-0.025279667,-0.78890306,-0.024819802,-2.3842762,0.02863437,1.6014704,0.7820701,0.04,0.03999991,-9.781381,0.39913085103034973,0.05913543,0.08177819,-0.032086215913295746,0.092854604
864.3333333328759,-0.026191652,-0.78906274,-0.025710413,-2.385278,0.029656507,1.602563,0.7819293,0.04,0.039999902,-9.780775,0.41489577293395996,0.061464366,0.08356055,-0.032585784792900085,0.094755106
864.3499999995425,-0.02712214,-0.78922564,-0.026619088,-2.3863003,0.03069938,1.6036777,0.7817857,0.04,0.0399999,-9.78016,0.43099740147590637,0.06382008,0.08535091,-0.033093854784965515,0.09665684
864.3666666662092,-0.028071163,-0.7893919,-0.027545867,-2.3873425,0.031763,1.6048145,0.7816393,0.04,0.039999906,-9.77957,0.4474412500858307,0.066242896,0.0871484,-0.033613767474889755,0.09855939
864.3833333328758,-0.02903873,-0.7895613,-0.02849074,-2.3884048,0.03284739,1.6059736,0.7814899,0.04,0.039999906,-9.778758,0.46422088146209717,0.06870899,0.08895316,-0.03413883596658707,0.100461915
864.3999999995425,-0.030024849,-0.78973395,-0.029453734,-2.3894873,0.033952568,1.6071548,0.7813377,0.04,0.039999895,-9.778012,0.48133766651153564,0.07121046,0.09076523,-0.03467230871319771,0.10236385
864.4166666662092,-0.031029526,-0.78991,-0.030434841,-2.3905904,0.035078533,1.6083585,0.7811827,0.04,0.039999906,-9.7772045,0.49879056215286255,0.07377635,0.09258352,-0.03521385416388512,0.1042647
864.4333333328758,-0.03205276,-0.7900893,-0.03143407,-2.3917143,0.03622527,1.6095841,0.78102475,0.04,0.039999887,-9.776454,0.5167298913002014,0.07638603,0.09440753,-0.035763442516326904,0.10616386
864.4499999995425,-0.033094533,-0.79027176,-0.0324514,-2.3928583,0.03739279,1.6108321,0.78086406,0.04,0.0399999,-9.775623,0.534723699092865,0.07905023,0.096237235,-0.03632691502571106,0.10806099
864.4666666662091,-0.03415485,-0.79045755,-0.033486824,-2.394022,0.038581073,1.6121022,0.7807004,0.04,0.0399999,-9.774627,0.5531899333000183,0.0817267,0.0980724,-0.03689531236886978,0.109955736
864.4833333328758,-0.035233676,-0.7906466,-0.03454034,-2.395207,0.039790105,1.6133944,0.7805339,0.04,0.03999994,-9.773641,0.5720090866088867,0.084480315,0.09991255,-0.037472616881132126,0.111848846
864.4999999995424,-0.036331013,-0.79083884,-0.0356119,-2.3964121,0.041019864,1.6147088,0.7803646,0.04,0.03999994,-9.772715,0.5911425352096558,0.08726857,0.101757206,-0.03806179389357567,0.11373545
864.5166666662091,-0.03744683,-0.79103434,-0.03670151,-2.3976374,0.042270295,1.6160452,0.7801923,0.04,0.03999994,-9.7716675,0.6106206774711609,0.09009202,0.10360576,-0.03866022452712059,0.11561674
864.5333333328757,-0.038581084,-0.7912332,-0.03780911,-2.3988829,0.043541394,1.6174037,0.78001726,0.04,0.03999994,-9.770535,0.6304439902305603,0.09296505,0.10545855,-0.0392676517367363,0.11749385
864.5499999995424,-0.03973373,-0.79143524,-0.038934678,-2.4001486,0.04483309,1.6187842,0.77983934,0.04,0.03999994,-9.76935,0.6505961418151855,0.095886335,0.10731451,-0.039883263409137726,0.11936588
864.566666666209,-0.04090474,-0.7916406,-0.040078178,-2.401434,0.046145372,1.6201869,0.7796587,0.04,0.039999936,-9.768117,0.6710760593414307,0.09884556,0.10917356,-0.040508516132831573,0.121231005
864.5833333328757,-0.042094078,-0.791849,-0.041239556,-2.4027402,0.04747815,1.6216116,0.7794751,0.04,0.039999943,-9.766756,0.6918878555297852,0.10184264,0.11103511,-0.04113854840397835,0.123089135
864.5999999995423,-0.043301675,-0.7920607,-0.04241878,-2.4040663,0.0488314,1.6230577,0.77928865,0.04,0.03999994,-9.76552,0.7130447030067444,0.10488428,0.11289889,-0.0417824350297451,0.12494025
864.616666666209,-0.044527486,-0.79227555,-0.04361576,-2.4054117,0.05020504,1.6245255,0.7790997,0.04,0.039999936,-9.764096,0.7345277667045593,0.107992455,0.11476467,-0.042436789721250534,0.12678318
864.6333333328756,-0.04577144,-0.79249364,-0.044830464,-2.4067779,0.05159901,1.6260163,0.77890784,0.04,0.039999943,-9.7625065,0.756321370601654,0.11111332,0.116630696,-0.043096281588077545,0.1286179
864.6499999995423,-0.04703349,-0.79271495,-0.04606283,-2.408164,0.05301324,1.6275277,0.7787131,0.04,0.039999943,-9.7610655,0.7784674763679504,0.11427589,0.11849849,-0.04376498609781265,0.13044396
864.6666666662089,-0.048313543,-0.7929393,-0.04731278,-2.4095688,0.05444763,1.6290607,0.7785156,0.04,0.039999936,-9.759457,0.800927460193634,0.11752099,0.120366946,-0.04444657266139984,0.1322604
864.6833333328756,-0.049611542,-0.7931668,-0.04858025,-2.4109938,0.055902142,1.6306151,0.7783153,0.04,0.039999936,-9.757645,0.8238471746444702,0.12075191,0.122236244,-0.04513139650225639,0.13406777
864.6999999995422,-0.050927397,-0.79339767,-0.049865145,-2.4124386,0.057376657,1.6321915,0.77811223,0.04,0.03999994,-9.755937,0.8468192219734192,0.12406229,0.124104865,-0.04583020508289337,0.13586327
864.7166666662089,-0.05226104,-0.7936314,-0.051167406,-2.4139025,0.058871094,1.6337888,0.7779064,0.04,0.03999993,-9.754057,0.870248556137085,0.12739089,0.12597373,-0.046534277498722076,0.13764924
864.7333333328755,-0.053612385,-0.79386836,-0.052486952,-2.4153867,0.060385346,1.6354072,0.77769786,0.04,0.039999947,-9.752091,0.8939946889877319,0.13075139,0.12784119,-0.047247834503650665,0.1394229
864.7499999995422,-0.054981332,-0.79410857,-0.053823676,-2.41689,0.06191931,1.6370468,0.7774866,0.04,0.039999954,-9.750175,0.9180848002433777,0.13418189,0.12970722,-0.047973912209272385,0.14118746
864.7666666662088,-0.056367792,-0.7943515,-0.055177484,-2.4184124,0.06347289,1.6387076,0.7772725,0.04,0.03999999,-9.74804,0.9424394369125366,0.13763626,0.13157164,-0.048707567155361176,0.14293605
864.7833333328755,-0.057771657,-0.79459774,-0.056548286,-2.419954,0.06504597,1.6403888,0.77705586,0.04,0.039999988,-9.745883,0.9671351909637451,0.14108108,0.13343455,-0.04944995045661926,0.14467187
864.7999999995421,-0.05919281,-0.79484683,-0.057935968,-2.421515,0.066638425,1.6420909,0.7768366,0.04,0.039999984,-9.743557,0.9921445846557617,0.14462711,0.13529466,-0.05020160600543022,0.14639577
864.8166666662088,-0.06063117,-0.79509914,-0.05934044,-2.4230938,0.06825014,1.6438136,0.77661467,0.04,0.039999988,-9.741281,1.017462968826294,0.14815407,0.13715123,-0.05096455290913582,0.1481055
864.8333333328754,-0.062086623,-0.79535437,-0.060761597,-2.424691,0.06988101,1.6455567,0.77639014,0.04,0.039999988,-9.738616,1.0430657863616943,0.15175007,0.13900495,-0.051728710532188416,0.1498015
864.8499999995421,-0.06355903,-0.7956125,-0.062199324,-2.426307,0.07153086,1.6473202,0.776163,0.04,0.039999984,-9.736038,1.0689762830734253,0.15536466,0.14085457,-0.052502233535051346,0.15148105
864.8666666662087,-0.06504831,-0.7958735,-0.0636535,-2.4279423,0.0731996,1.6491038,0.7759332,0.04,0.039999995,-9.733371,1.095201849937439,0.15901524,0.14270042,-0.05328301712870598,0.15314618
864.8833333328754,-0.06655431,-0.7961375,-0.06512398,-2.4295955,0.074887075,1.6509075,0.7757008,0.04,0.039999988,-9.730735,1.121733546257019,0.1626936,0.14454126,-0.054077133536338806,0.15479586
864.899999999542,-0.06807689,-0.79640454,-0.06661071,-2.431267,0.07659315,1.6527311,0.77546597,0.04,0.039999984,-9.727777,1.1485391855239868,0.16640541,0.14637764,-0.05487648770213127,0.15643033
864.9166666662087,-0.06961597,-0.7966744,-0.068113476,-2.4329567,0.07831768,1.6545745,0.7752285,0.04,0.039999988,-9.724823,1.1756471395492554,0.17016272,0.14820802,-0.05568429082632065,0.15804738
864.9333333328753,-0.07117136,-0.7969472,-0.06963219,-2.4346642,0.08006051,1.6564375,0.77498853,0.04,0.03999999,-9.721775,1.2031713724136353,0.17392747,0.15003292,-0.05650031194090843,0.15964736
864.949999999542,-0.072742954,-0.79722273,-0.07116671,-2.4363894,0.081821464,1.6583197,0.7747462,0.04,0.039999988,-9.718493,1.2307168245315552,0.17771411,0.15185162,-0.05732196941971779,0.16123025
864.9666666662087,-0.07433062,-0.79750115,-0.07271688,-2.4381318,0.08360041,1.6602211,0.7745012,0.04,0.039999995,-9.715185,1.2586766481399536,0.18153858,0.15366322,-0.05815225467085838,0.16279534
864.9833333328753,-0.07593417,-0.79778224,-0.07428259,-2.4398923,0.085397154,1.6621414,0.77425367,0.04,0.03999999,-9.711694,1.286916732788086,0.18539047,0.1554685,-0.058988235890865326,0.16434345
864.999999999542,-0.07755348,-0.79806626,-0.075863704,-2.4416697,0.087211564,1.6640807,0.7740039,0.04,0.04,-9.708236,1.315447449684143,0.18925211,0.15726672,-0.05983476713299751,0.1658741
865.0166666662086,-0.0791884,-0.7983529,-0.07746003,-2.4434643,0.089043446,1.6660389,0.7737516,0.04,0.04,-9.704482,1.3442147970199585,0.19314536,0.15905604,-0.06068531051278114,0.16738221
865.0333333328753,-0.08083878,-0.7986422,-0.07907142,-2.4452763,0.09089264,1.6680154,0.7734969,0.04,0.04,-9.700692,1.373276948928833,0.19704981,0.16083798,-0.061542809009552,0.16887257
865.0499999995419,-0.08250442,-0.79893446,-0.08069774,-2.447105,0.09275897,1.67001,0.7732401,0.04,0.04,-9.696859,1.4026108980178833,0.20099273,0.1626107,-0.06241054832935333,0.17034326
865.0666666662086,-0.0841852,-0.7992292,-0.0823388,-2.4489493,0.09464222,1.6720228,0.77298075,0.04,0.04,-9.692782,1.432196021080017,0.20495106,0.16437332,-0.0632842555642128,0.17179431
865.0833333328752,-0.085880965,-0.7995266,-0.08399448,-2.450811,0.096542254,1.6740533,0.77271914,0.04,0.04,-9.688462,1.4620227813720703,0.20889293,0.16612774,-0.06415893137454987,0.17322384
865.0999999995419,-0.0875915,-0.79982656,-0.0856646,-2.4526887,0.09845884,1.6761018,0.7724553,0.04,0.04,-9.68429,1.492150902748108,0.21288657,0.16787142,-0.06504562497138977,0.17463514
865.1166666662085,-0.08931665,-0.8001291,-0.08734897,-2.4545825,0.100391805,1.678168,0.7721891,0.04,0.04,-9.679835,1.5224778652191162,0.2168709,0.16960454,-0.06593640148639679,0.17602246
865.1333333328752,-0.09105624,-0.80043423,-0.08904744,-2.4564917,0.102340974,1.6802511,0.77192074,0.04,0.04,-9.675209,1.5530725717544556,0.22086963,0.17132738,-0.06683036684989929,0.17738959
865.1499999995418,-0.0928101,-0.8007419,-0.09075985,-2.4584167,0.10430609,1.6823514,0.7716501,0.04,0.04,-9.67046,1.583906888961792,0.22489136,0.17303847,-0.0677306056022644,0.17873491
865.1666666662085,-0.094578035,-0.80105203,-0.09248599,-2.460358,0.106286995,1.6844686,0.7713773,0.04,0.04,-9.665604,1.614986538887024,0.22891805,0.17473835,-0.06863553076982498,0.18005814
865.1833333328751,-0.09635987,-0.8013645,-0.09422568,-2.4623141,0.10828345,1.6866024,0.7711026,0.04,0.04,-9.660709,1.646418809890747,0.2329611,0.17642546,-0.06954873353242874,0.18135901
865.1999999995418,-0.09815545,-0.80167925,-0.09597876,-2.4642854,0.110295296,1.6887527,0.77082556,0.04,0.04,-9.655552,1.6778379678726196,0.23697817,0.17809892,-0.07046663761138916,0.18263683
865.2166666662084,-0.09996453,-0.8019966,-0.097745,-2.466271,0.11232228,1.690919,0.77054644,0.04,0.04,-9.650232,1.7096025943756104,0.24100682,0.1797602,-0.07138751447200775,0.1838924
865.2333333328751,-0.10178695,-0.8023163,-0.09952426,-2.468271,0.114364184,1.6931012,0.77026516,0.04,0.04,-9.644742,1.7415728569030762,0.24505523,0.18140864,-0.07231104373931885,0.18512467
865.2499999995417,-0.10362248,-0.80263823,-0.10131635,-2.4702852,0.116420805,1.6952995,0.7699819,0.04,0.04,-9.639111,1.7737672328948975,0.24910139,0.18304366,-0.07323698699474335,0.18633258
865.2666666662084,-0.10547096,-0.8029625,-0.10312103,-2.472314,0.11849191,1.6975132,0.7696968,0.04,0.04,-9.633359,1.8061814308166504,0.2531343,0.18466415,-0.07416494935750961,0.1875179
865.283333332875,-0.10733216,-0.803289,-0.104938135,-2.4743567,0.120577276,1.6997422,0.7694097,0.04,0.04,-9.62751,1.8388046026229858,0.25718558,0.18626945,-0.07509773969650269,0.18867943
865.2999999995417,-0.10920588,-0.8036176,-0.106767476,-2.4764132,0.1226767,1.7019857,0.7691207,0.04,0.04,-9.621464,1.871617078781128,0.2612297,0.18785925,-0.07603302597999573,0.18981555
865.3166666662083,-0.11109192,-0.80394846,-0.10860884,-2.478484,0.12478991,1.7042441,0.7688297,0.04,0.04,-9.615289,1.9046306610107422,0.26526412,0.1894332,-0.07697315514087677,0.19092698
865.333333332875,-0.112990074,-0.80428153,-0.11046204,-2.4805672,0.12691666,1.706517,0.76853687,0.04,0.04,-9.609015,1.9378538131713867,0.26930425,0.19099131,-0.0779186338186264,0.19201334
865.3499999995416,-0.11490012,-0.80461663,-0.11232679,-2.4826634,0.12905675,1.7088042,0.76824224,0.04,0.04,-9.602393,1.9712247848510742,0.27330276,0.19253322,-0.07886213064193726,0.19307317
865.3666666662083,-0.11682187,-0.8049539,-0.11420297,-2.4847727,0.13121,1.7111056,0.7679458,0.04,0.04,-9.595686,2.0047974586486816,0.2772861,0.19405846,-0.07980576902627945,0.1941087
865.3833333328749,-0.11875509,-0.80529296,-0.11609032,-2.486895,0.13337605,1.7134205,0.76764756,0.04,0.04,-9.588914,2.038567066192627,0.28130335,0.19556591,-0.08075226098299026,0.19511874
865.3999999995416,-0.12069956,-0.8056341,-0.11798867,-2.4890287,0.13555475,1.7157489,0.76734763,0.04,0.04,-9.581977,2.072507858276367,0.28526306,0.19705546,-0.08170250803232193,0.19610436
865.4166666662082,-0.12265506,-0.80597717,-0.119897746,-2.491175,0.13774581,1.7180903,0.767046,0.04,0.04,-9.574673,2.106578826904297,0.28920454,0.19852725,-0.08264865726232529,0.19706297
865.4333333328749,-0.12462138,-0.8063223,-0.12181738,-2.4933326,0.13994896,1.7204449,0.7667425,0.04,0.04,-9.5674,2.1409406661987305,0.29316422,0.19998027,-0.08359792828559875,0.19799554
865.4499999995415,-0.12659825,-0.8066692,-0.123747334,-2.495502,0.14216392,1.722812,0.7664375,0.04,0.04,-9.5598755,2.1752476692199707,0.29707384,0.20141539,-0.08454447239637375,0.19890149
865.4666666662082,-0.12858549,-0.8070179,-0.12568738,-2.4976828,0.1443905,1.7251917,0.7661309,0.04,0.04,-9.552229,2.209808588027954,0.30096367,0.20283078,-0.08549132943153381,0.19977981
865.4833333328748,-0.13058285,-0.80736846,-0.12763731,-2.4998746,0.14662844,1.7275834,0.7658228,0.04,0.04,-9.544389,2.2445363998413086,0.3048317,0.20422626,-0.08643636107444763,0.20063467
865.4999999995415,-0.13259012,-0.8077208,-0.1295969,-2.502077,0.14887741,1.729987,0.7655132,0.04,0.04,-9.536399,2.2793772220611572,0.3086748,0.20560116,-0.08738074451684952,0.20145972
865.5166666662082,-0.13460705,-0.8080749,-0.13156588,-2.5042908,0.15113723,1.7324022,0.765202,0.04,0.04,-9.528255,2.3143696784973145,0.31249166,0.20695545,-0.08832383900880814,0.20225774
865.5333333328748,-0.1366334,-0.8084305,-0.13354407,-2.5065143,0.15340763,1.734829,0.7648894,0.04,0.04,-9.519961,2.3494999408721924,0.3162826,0.20828903,-0.08926589787006378,0.20303112
865.5499999995415,-0.13866892,-0.80878764,-0.13553123,-2.5087488,0.15568835,1.7372662,0.76457554,0.04,0.04,-9.511421,2.3847267627716064,0.32001364,0.20960076,-0.09020350873470306,0.20377438
865.5666666662081,-0.14071338,-0.8091464,-0.13752708,-2.5109925,0.15797909,1.7397146,0.7642602,0.04,0.04,-9.502875,2.4201200008392334,0.3237386,0.21088946,-0.09114454686641693,0.20449357
865.5833333328748,-0.14276662,-0.8095068,-0.13953142,-2.513245,0.16027962,1.7421731,0.7639435,0.04,0.04,-9.493971,2.455561399459839,0.32738814,0.21215722,-0.09207834303379059,0.20518197
865.5999999995414,-0.14482827,-0.8098685,-0.14154403,-2.5155077,0.16258956,1.7446418,0.7636254,0.04,0.04,-9.484866,2.4911439418792725,0.33103555,0.21340232,-0.09300706535577774,0.20584455
865.6166666662081,-0.14689821,-0.81023175,-0.14356463,-2.5177796,0.16490877,1.7471201,0.76330614,0.04,0.04,-9.475804,2.5268561840057373,0.33462563,0.2146245,-0.09393579512834549,0.20648135
865.6333333328747,-0.14897609,-0.8105966,-0.145593,-2.5200605,0.16723691,1.7496084,0.76298577,0.04,0.04,-9.466481,2.562629461288452,0.33817926,0.2158225,-0.09486155211925507,0.20708825
865.6499999995414,-0.15106168,-0.8109625,-0.14762893,-2.5223494,0.16957371,1.7521056,0.762664,0.04,0.04,-9.456989,2.5985054969787598,0.34169275,0.21699603,-0.09578254818916321,0.20766632
865.666666666208,-0.15315478,-0.8113299,-0.14967215,-2.5246458,0.17191891,1.754612,0.7623411,0.04,0.04,-9.4472275,2.6344447135925293,0.34512594,0.21814674,-0.09669767320156097,0.20821689
865.6833333328747,-0.1552551,-0.81169856,-0.15172239,-2.5269504,0.17427218,1.7571267,0.762017,0.04,0.04,-9.437281,2.670517683029175,0.34853277,0.21927342,-0.09760414063930511,0.20873556
865.6999999995413,-0.15736234,-0.8120685,-0.15377946,-2.5292625,0.17663333,1.7596499,0.761692,0.04,0.04,-9.427308,2.706587314605713,0.35188973,0.22037555,-0.09850696474313736,0.20923057
865.716666666208,-0.15947637,-0.81243974,-0.15584311,-2.531582,0.17900194,1.7621809,0.7613658,0.04,0.04,-9.417083,2.7427637577056885,0.35519677,0.22145183,-0.0994027778506279,0.20969841
865.7333333328746,-0.16159682,-0.812812,-0.15791301,-2.5339088,0.18137781,1.7647203,0.7610387,0.04,0.04,-9.406724,2.7790050506591797,0.35845122,0.22250322,-0.10029271990060806,0.21013656
865.7499999995413,-0.16372353,-0.81318533,-0.15998897,-2.5362427,0.1837607,1.767267,0.7607106,0.04,0.04,-9.396196,2.8152854442596436,0.3616289,0.22352815,-0.10117428004741669,0.21054545
865.7666666662079,-0.1658562,-0.8135597,-0.16207075,-2.5385833,0.18615025,1.7698205,0.76038176,0.04,0.04,-9.385527,2.8516461849212646,0.36476895,0.22452697,-0.10205047577619553,0.21092708
865.7833333328746,-0.16799456,-0.8139353,-0.16415808,-2.5409298,0.18854618,1.7723807,0.7600518,0.04,0.04,-9.374707,2.888033390045166,0.3678554,0.2254976,-0.10292231291532516,0.21127708
865.7999999995412,-0.1701383,-0.81431156,-0.1662507,-2.543282,0.19094826,1.7749475,0.7597211,0.04,0.04,-9.363593,2.9244775772094727,0.3708592,0.22644326,-0.10378307849168777,0.21160434
865.8166666662079,-0.17228729,-0.81468874,-0.1683484,-2.54564,0.19335619,1.7775207,0.7593898,0.04,0.04,-9.3524065,2.9608986377716064,0.3737815,0.22736116,-0.10463649779558182,0.21189754
865.8333333328745,-0.17444116,-0.81506693,-0.17045091,-2.5480034,0.19576958,1.7800996,0.7590576,0.04,0.04,-9.341007,2.9974279403686523,0.37664497,0.22825013,-0.10547942668199539,0.21216886
865.8499999995412,-0.17659973,-0.8154459,-0.17255796,-2.550372,0.19818823,1.7826841,0.7587246,0.04,0.04,-9.329484,3.033904552459717,0.3794579,0.22911239,-0.10631405562162399,0.21240418
865.8666666662078,-0.17876267,-0.8158258,-0.17466928,-2.552745,0.20061181,1.7852739,0.75839096,0.04,0.04,-9.317791,3.070448637008667,0.3821892,0.22994636,-0.10713905096054077,0.21261528
865.8833333328745,-0.18092982,-0.81620646,-0.17678459,-2.555123,0.20304003,1.7878687,0.75805664,0.04,0.04,-9.305878,3.106989860534668,0.38485435,0.23075217,-0.10795222967863083,0.21280079
865.8999999995411,-0.18310076,-0.8165877,-0.17890367,-2.5575051,0.20547257,1.7904681,0.75772184,0.04,0.04,-9.293924,3.14351224899292,0.38744622,0.23152873,-0.10875693708658218,0.21295187
865.9166666662078,-0.18527535,-0.8169695,-0.18102624,-2.5598915,0.20790912,1.7930719,0.7573864,0.04,0.04,-9.281741,3.180070638656616,0.3899533,0.23227645,-0.10955112427473068,0.2130815
865.9333333328744,-0.18745327,-0.81735206,-0.18315208,-2.5622811,0.21034947,1.7956796,0.75705045,0.04,0.04,-9.269381,3.2166261672973633,0.3923886,0.23299457,-0.11033481359481812,0.21317928
865.9499999995411,-0.18963426,-0.8177351,-0.18528084,-2.5646746,0.21279329,1.798291,0.756714,0.04,0.04,-9.256888,3.2530829906463623,0.39472687,0.23368306,-0.11110512167215347,0.213245
865.9666666662077,-0.19181804,-0.8181186,-0.18741238,-2.567071,0.21524023,1.800906,0.7563771,0.04,0.04,-9.244298,3.2895963191986084,0.39700538,0.23434183,-0.11186541616916656,0.2132871
865.9833333328744,-0.19400437,-0.8185026,-0.18954639,-2.5694697,0.21769,1.803524,0.75604004,0.04,0.04,-9.231487,3.3260650634765625,0.39918044,0.23497042,-0.11261248588562012,0.21330047
865.999999999541,-0.19619295,-0.81888705,-0.1916826,-2.571871,0.22014235,1.8061444,0.7557023,0.04,0.04,-9.218449,3.362490177154541,0.40127024,0.2355685,-0.11334315687417984,0.21328598
866.0166666662077,-0.1983835,-0.8192718,-0.19382079,-2.574274,0.22259699,1.8087671,0.7553644,0.04,0.04,-9.20542,3.3989036083221436,0.40331906,0.23613654,-0.11406532675027847,0.21324392
866.0333333328743,-0.20057581,-0.8196568,-0.1959606,-2.5766792,0.22505356,1.811392,0.7550263,0.04,0.04,-9.192104,3.435258388519287,0.4052313,0.23667407,-0.11477173119783401,0.2131777
866.049999999541,-0.20276959,-0.820042,-0.19810182,-2.5790863,0.22751175,1.8140186,0.7546879,0.04,0.04,-9.178764,3.471571207046509,0.40707672,0.23718007,-0.11546556651592255,0.21308078
866.0666666662077,-0.2049646,-0.8204275,-0.20024423,-2.581495,0.22997127,1.8166467,0.75434923,0.04,0.04,-9.165254,3.5078370571136475,0.40882868,0.23765437,-0.11614586412906647,0.21295643
866.0833333328743,-0.20716049,-0.8208132,-0.20238753,-2.5839045,0.23243184,1.819276,0.7540104,0.04,0.04,-9.151621,3.5440175533294678,0.41049582,0.23809677,-0.11681308597326279,0.21279939
866.099999999541,-0.20935707,-0.82119894,-0.20453149,-2.5863142,0.23489317,1.821906,0.75367147,0.04,0.04,-9.137793,3.5801990032196045,0.41206002,0.2385086,-0.11746479570865631,0.21262453
866.1166666662076,-0.211554,-0.82158494,-0.20667578,-2.5887241,0.23735496,1.8245364,0.7533327,0.04,0.04,-9.123772,3.6161975860595703,0.41351077,0.23888801,-0.11809854954481125,0.21241136
866.1333333328743,-0.21375112,-0.82197094,-0.20882013,-2.5911343,0.23981687,1.8271672,0.7529938,0.04,0.04,-9.109669,3.6521968841552734,0.4148944,0.23923558,-0.11871573328971863,0.21217635
866.1499999995409,-0.21594805,-0.8223568,-0.21096434,-2.5935445,0.24227859,1.8297976,0.75265497,0.04,0.04,-9.095474,3.6881370544433594,0.4161779,0.23955044,-0.11931754648685455,0.21192017
866.1666666662076,-0.21814449,-0.8227428,-0.2131081,-2.5959544,0.24473985,1.8324276,0.7523161,0.04,0.04,-9.081156,3.7239127159118652,0.41736308,0.23983328,-0.11990343034267426,0.21162641
866.1833333328742,-0.22034024,-0.8231285,-0.21525119,-2.5983636,0.24720037,1.8350568,0.75197744,0.04,0.04,-9.066679,3.759700298309326,0.41847056,0.24008316,-0.12047463655471802,0.2113172
866.1999999995409,-0.22253503,-0.82351416,-0.21739334,-2.6007714,0.24965982,1.8376846,0.75163895,0.04,0.04,-9.0521755,3.7952768802642822,0.41943526,0.24030004,-0.12102951109409332,0.21096976
866.2166666662075,-0.2247286,-0.82389975,-0.21953425,-2.603178,0.25211784,1.8403113,0.7513005,0.04,0.04,-9.037431,3.8308281898498535,0.42032048,0.24048412,-0.12156663089990616,0.21060222
866.2333333328742,-0.22692065,-0.82428485,-0.22167367,-2.6055825,0.2545742,1.842936,0.75096226,0.04,0.04,-9.022573,3.8662655353546143,0.42109683,0.24063626,-0.12208359688520432,0.21021445
866.2499999995408,-0.22911097,-0.8246697,-0.22381136,-2.6079855,0.25702858,1.8455588,0.7506244,0.04,0.04,-9.007654,3.901516914367676,0.4217693,0.24075533,-0.12258423119783401,0.20978834
866.2666666662075,-0.23129924,-0.8250542,-0.225947,-2.6103857,0.25948068,1.8481789,0.7502869,0.04,0.04,-8.992641,3.9367496967315674,0.42235884,0.24084002,-0.12306712567806244,0.20934214
866.2833333328741,-0.23348516,-0.8254384,-0.22808038,-2.6127834,0.26193026,1.8507961,0.74994963,0.04,0.04,-8.977398,3.9718027114868164,0.4228101,0.24089248,-0.12352898716926575,0.20887515
866.2999999995408,-0.23566851,-0.8258221,-0.23021124,-2.6151786,0.26437694,1.8534102,0.74961287,0.04,0.04,-8.9621935,4.00673770904541,0.42319718,0.24091117,-0.12397494912147522,0.20837884
866.3166666662074,-0.23784906,-0.8262054,-0.23233932,-2.6175706,0.26682046,1.856021,0.7492766,0.04,0.04,-8.946887,4.041541576385498,0.42347452,0.24089566,-0.12440329790115356,0.20785509
866.3333333328741,-0.24002644,-0.82658803,-0.23446435,-2.6199596,0.2692605,1.8586282,0.7489409,0.04,0.04,-8.931387,4.076176643371582,0.42362395,0.24084646,-0.12481047213077545,0.20730132
866.3499999995407,-0.24220048,-0.82697016,-0.23658603,-2.6223445,0.27169672,1.8612312,0.74860543,0.04,0.04,-8.915928,4.110788822174072,0.4236858,0.24076226,-0.12520159780979156,0.20673528
866.3666666662074,-0.24437086,-0.8273516,-0.23870419,-2.6247256,0.27412885,1.8638299,0.7482707,0.04,0.04,-8.900223,4.145073890686035,0.42361408,0.24064642,-0.1255706399679184,0.20613045
866.383333332874,-0.24653728,-0.82773244,-0.24081852,-2.6271024,0.2765566,1.8664237,0.7479366,0.04,0.04,-8.884517,4.179335117340088,0.4234693,0.24049571,-0.12592066824436188,0.2055075
866.3999999995407,-0.2486996,-0.8281125,-0.24292874,-2.6294737,0.27897972,1.8690127,0.74760294,0.04,0.04,-8.868739,4.213421821594238,0.42319208,0.24031074,-0.12625209987163544,0.20486186
866.4166666662073,-0.25085747,-0.82849187,-0.24503468,-2.6318407,0.28139794,1.8715961,0.7472701,0.04,0.04,-8.852729,4.247280597686768,0.4227861,0.24009404,-0.12655852735042572,0.20419098
866.433333332874,-0.25301063,-0.82887036,-0.24713601,-2.634203,0.28381082,1.8741744,0.7469381,0.04,0.04,-8.836752,4.281043529510498,0.42233157,0.23984209,-0.1268470734357834,0.20350325
866.4499999995406,-0.25515872,-0.8292481,-0.24923244,-2.6365588,0.28621817,1.8767463,0.7466067,0.04,0.04,-8.820827,4.314634799957275,0.4217408,0.23955494,-0.12711544334888458,0.20278528
866.4666666662073,-0.2573016,-0.8296249,-0.2513238,-2.6389093,0.28861967,1.8793122,0.7462762,0.04,0.04,-8.804644,4.347952842712402,0.42103875,0.23923634,-0.12736137211322784,0.20203629
866.4833333328739,-0.25943905,-0.8300008,-0.25340974,-2.6412535,0.29101515,1.8818715,0.7459466,0.04,0.04,-8.788484,4.381217956542969,0.42023438,0.23888288,-0.12758588790893555,0.20127057
866.4999999995406,-0.26157078,-0.83037555,-0.2554901,-2.643592,0.29340404,1.8844241,0.74561775,0.04,0.04,-8.772188,4.414262771606445,0.41931847,0.23849566,-0.1277872771024704,0.20048979
866.5166666662072,-0.26369655,-0.8307494,-0.25756449,-2.6459239,0.29578623,1.8869693,0.74529004,0.04,0.04,-8.756002,4.447117805480957,0.41831508,0.23807387,-0.12797048687934875,0.19967963
866.5333333328739,-0.265816,-0.83112216,-0.25963283,-2.6482487,0.29816142,1.8895072,0.74496305,0.04,0.04,-8.739658,4.479730129241943,0.41719344,0.23761755,-0.12813247740268707,0.19883892
866.5499999995405,-0.26792902,-0.8314937,-0.26169485,-2.6505668,0.3005293,1.8920373,0.74463713,0.04,0.039999995,-8.723202,4.512261390686035,0.41595215,0.2371289,-0.1282707303762436,0.19799303
866.5666666662072,-0.27003515,-0.83186406,-0.26375026,-2.6528766,0.30288965,1.894559,0.7443123,0.04,0.039999988,-8.706867,4.544469833374023,0.41463387,0.236605,-0.12839090824127197,0.19710644
866.5833333328738,-0.27213427,-0.8322332,-0.26579875,-2.655179,0.30524212,1.8970722,0.7439886,0.04,0.03999999,-8.690212,4.576510429382324,0.41315463,0.236049,-0.12848404049873352,0.19620694
866.5999999995405,-0.27422616,-0.8326011,-0.26784015,-2.6574738,0.30758658,1.8995768,0.7436659,0.04,0.039999995,-8.673778,4.608384609222412,0.41163188,0.23545852,-0.12855929136276245,0.19528642
866.6166666662072,-0.27631053,-0.83296764,-0.2698742,-2.6597602,0.30992255,1.9020725,0.74334437,0.04,0.039999977,-8.657248,4.640044689178467,0.40999445,0.23483412,-0.12861253321170807,0.19434439
866.6333333328738,-0.2783871,-0.83333284,-0.27190065,-2.662038,0.3122498,1.904559,0.74302405,0.04,0.039999966,-8.640623,4.6714606285095215,0.4082177,0.23417664,-0.12864208221435547,0.19338131
866.6499999995405,-0.2804557,-0.8336965,-0.27391928,-2.6643066,0.31456816,1.9070357,0.7427049,0.04,0.03999995,-8.624025,4.702677249908447,0.40636504,0.23348545,-0.12864980101585388,0.19239618
866.6666666662071,-0.2825159,-0.8340589,-0.27592987,-2.666566,0.31687713,1.9095026,0.74238724,0.04,0.039999943,-8.607327,4.733653545379639,0.40438846,0.23276153,-0.12863406538963318,0.19139147
866.6833333328738,-0.2845677,-0.8344199,-0.27793208,-2.668816,0.31917667,1.9119593,0.74207085,0.04,0.039999932,-8.5905485,4.764321327209473,0.40231684,0.2320053,-0.12859320640563965,0.19036812
866.6999999995404,-0.28661066,-0.83477926,-0.2799257,-2.6710565,0.32146645,1.9144055,0.7417556,0.04,0.03999993,-8.573966,4.794944763183594,0.40019268,0.2312152,-0.12853091955184937,0.1893227
866.7166666662071,-0.2886447,-0.8351371,-0.2819106,-2.6732872,0.3237461,1.9168411,0.74144185,0.04,0.03999994,-8.557271,4.825241565704346,0.3979257,0.23039412,-0.1284463107585907,0.18825832
866.7333333328737,-0.2906695,-0.8354934,-0.28388646,-2.6755075,0.32601532,1.9192656,0.7411294,0.04,0.039999932,-8.540563,4.855340957641602,0.39556938,0.22953896,-0.12833750247955322,0.18717563
866.7499999995404,-0.29268476,-0.8358479,-0.28585312,-2.677718,0.32827404,1.9216788,0.74081856,0.04,0.03999993,-8.523884,4.885166168212891,0.39314106,0.2286522,-0.12820753455162048,0.18607208
866.766666666207,-0.29469034,-0.83620065,-0.28781036,-2.679917,0.33052185,1.9240804,0.74050915,0.04,0.03999991,-8.507204,4.914775848388672,0.39059234,0.2277319,-0.12805494666099548,0.18495102
866.7833333328737,-0.296686,-0.8365518,-0.2897578,-2.6821063,0.3327585,1.9264698,0.7402013,0.04,0.039999913,-8.490472,4.944137096405029,0.38794112,0.22677949,-0.1278788149356842,0.18381135
866.7999999995403,-0.29867154,-0.83690107,-0.29169524,-2.6842837,0.3349838,1.9288472,0.73989505,0.04,0.03999991,-8.473867,4.973261833190918,0.38525108,0.22579503,-0.1276831030845642,0.18265308
866.816666666207,-0.3006467,-0.8372487,-0.29362258,-2.6864498,0.33719754,1.9312123,0.7395904,0.04,0.0399999,-8.457159,5.002117156982422,0.38240847,0.22477862,-0.12746310234069824,0.18147749
866.8333333328736,-0.3026111,-0.8375944,-0.2955396,-2.6886044,0.33939928,1.9335647,0.7392874,0.04,0.039999902,-8.440487,5.030740261077881,0.37950107,0.2237305,-0.12721936404705048,0.18028347
866.8499999995403,-0.30456474,-0.8379381,-0.2974459,-2.6907468,0.34158888,1.9359038,0.73898596,0.04,0.0399999,-8.423857,5.059105396270752,0.376503,0.22265126,-0.12695276737213135,0.17907278
866.8666666662069,-0.3065073,-0.8382797,-0.29934162,-2.6928768,0.34376612,1.9382299,0.7386863,0.04,0.03999989,-8.407272,5.087221622467041,0.37342444,0.22154084,-0.12666592001914978,0.17784546
866.8833333328736,-0.30843848,-0.8386196,-0.30122623,-2.6949942,0.3459307,1.9405425,0.7383883,0.04,0.03999989,-8.390632,5.115081787109375,0.37021992,0.22039887,-0.12635374069213867,0.17660074
866.8999999995402,-0.31035826,-0.8389574,-0.3030996,-2.6971,0.3480823,1.9428408,0.7380921,0.04,0.039999887,-8.374024,5.142638683319092,0.3669738,0.21922825,-0.12601712346076965,0.17533822
866.9166666662069,-0.3122663,-0.8392933,-0.3049615,-2.6991928,0.35022083,1.9451253,0.73779786,0.04,0.03999987,-8.357653,5.170039176940918,0.36368406,0.21802463,-0.12566442787647247,0.17406085
866.9333333328735,-0.31416228,-0.83962715,-0.30681172,-2.701272,0.3523459,1.9473957,0.73750544,0.04,0.039999858,-8.341146,5.197009563446045,0.36026827,0.21679029,-0.12528862059116364,0.17276663
866.9499999995402,-0.31604627,-0.83995867,-0.30865002,-2.703338,0.35445747,1.9496514,0.73721504,0.04,0.039999843,-8.324663,5.223872661590576,0.35675207,0.21552783,-0.12488717585802078,0.17145675
866.9666666662068,-0.31791776,-0.84028804,-0.31047624,-2.70539,0.35655513,1.9518925,0.7369265,0.04,0.03999984,-8.308318,5.250438690185547,0.3531907,0.2142339,-0.12446486204862595,0.17013201
866.9833333328735,-0.31977677,-0.84061533,-0.31229025,-2.7074285,0.3586388,1.9541184,0.7366398,0.04,0.03999984,-8.29193,5.276687145233154,0.34952518,0.21291192,-0.1240178644657135,0.16879226
866.9999999995401,-0.3216229,-0.8409405,-0.3140917,-2.7094526,0.36070815,1.9563287,0.73635507,0.04,0.039999835,-8.275684,5.3027191162109375,0.34583893,0.21156031,-0.12355067580938339,0.167439
867.0166666662068,-0.3234561,-0.8412631,-0.31588048,-2.711463,0.36276302,1.9585238,0.7360723,0.04,0.03999983,-8.259453,5.328418731689453,0.3420643,0.21018098,-0.12306200712919235,0.16606894
867.0333333328734,-0.32527617,-0.84158355,-0.3176565,-2.7134585,0.36480296,1.9607033,0.73579156,0.04,0.039999828,-8.243323,5.3538970947265625,0.33820856,0.20877264,-0.12255220860242844,0.16468666
867.0499999995401,-0.32708284,-0.84190166,-0.3194194,-2.7154398,0.366828,1.9628665,0.73551285,0.04,0.039999824,-8.227212,5.379094123840332,0.33428994,0.2073362,-0.12201870232820511,0.16329102
867.0666666662067,-0.3288759,-0.84221745,-0.32116902,-2.7174058,0.36883783,1.9650139,0.7352361,0.04,0.039999824,-8.211222,5.4040117263793945,0.33032858,0.20587155,-0.12146615982055664,0.1618817
867.0833333328734,-0.33065522,-0.8425308,-0.32290527,-2.7193568,0.37083232,1.9671445,0.7349616,0.04,0.039999813,-8.195238,5.42861795425415,0.3262827,0.2043811,-0.12088993936777115,0.1604586
867.09999999954,-0.3324206,-0.8428416,-0.3246279,-2.7212923,0.37281105,1.9692584,0.7346893,0.04,0.039999813,-8.179349,5.452976703643799,0.32218423,0.20286226,-0.12029309570789337,0.15902239
867.1166666662067,-0.33417186,-0.84314996,-0.3263367,-2.7232125,0.37477398,1.9713553,0.73441935,0.04,0.0399998,-8.163576,5.477059841156006,0.31804192,0.20131697,-0.1196756586432457,0.15757483
867.1333333328733,-0.33590874,-0.84345603,-0.32803163,-2.7251172,0.3767209,1.973435,0.7341514,0.04,0.039999805,-8.14789,5.50085973739624,0.31384432,0.19974384,-0.11903932690620422,0.15611473
867.14999999954,-0.3376312,-0.8437593,-0.32971236,-2.7270055,0.37865156,1.9754977,0.73388565,0.04,0.03999981,-8.132274,5.524387359619141,0.3095961,0.19814584,-0.1183822900056839,0.15464316
867.1666666662067,-0.339339,-0.84406006,-0.3313788,-2.7288775,0.38056582,1.9775429,0.73362195,0.04,0.0399998,-8.116693,5.547600269317627,0.30525655,0.19652267,-0.11770278960466385,0.15315925
867.1833333328733,-0.34103194,-0.8443581,-0.33303067,-2.7307336,0.38246346,1.97957,0.73336095,0.04,0.039999805,-8.101218,5.570431709289551,0.300908,0.194875,-0.11700275540351868,0.15166415
867.19999999954,-0.3427098,-0.84465367,-0.33466798,-2.7325742,0.3843443,1.9815792,0.7331022,0.04,0.039999794,-8.085929,5.593231201171875,0.29650876,0.19320038,-0.11628400534391403,0.1501588
867.2166666662066,-0.34437257,-0.8449467,-0.33629048,-2.7343972,0.38620815,1.9835701,0.7328456,0.04,0.039999783,-8.070838,5.615664958953857,0.29213107,0.19149962,-0.11555170267820358,0.14863949
867.2333333328733,-0.3460199,-0.84523696,-0.337898,-2.7362032,0.38805476,1.9855425,0.7325914,0.04,0.039999776,-8.055535,5.6377177238464355,0.2875972,0.18977799,-0.11479514092206955,0.14711268
867.2499999995399,-0.34765178,-0.84552455,-0.33949035,-2.7379925,0.38988402,1.9874967,0.7323396,0.04,0.03999977,-8.040505,5.659530162811279,0.2830733,0.18803252,-0.11401943862438202,0.14557578
867.2666666662066,-0.34926805,-0.8458094,-0.34106752,-2.739765,0.39169577,1.9894321,0.7320904,0.04,0.03999977,-8.025624,5.681084156036377,0.27854484,0.1862634,-0.11322575062513351,0.14402981
867.2833333328732,-0.35086846,-0.8460915,-0.34262916,-2.74152,0.39348978,1.9913486,0.7318435,0.04,0.039999764,-8.010819,5.7023420333862305,0.27395108,0.18447,-0.11241362243890762,0.14247377
867.2999999995399,-0.35245296,-0.8463708,-0.34417525,-2.7432568,0.39526588,1.9932461,0.731599,0.04,0.03999977,-7.9961257,5.723300457000732,0.26934224,0.18265545,-0.11158391833305359,0.14090902
867.3166666662065,-0.35402128,-0.84664714,-0.34570578,-2.7449765,0.39702395,1.9951243,0.7313571,0.04,0.039999772,-7.9814816,5.743946552276611,0.26467115,0.18082003,-0.11073298007249832,0.1393351
867.3333333328732,-0.35557353,-0.84692043,-0.34722033,-2.746678,0.39876384,1.9969829,0.73111755,0.04,0.039999772,-7.9670777,5.764379024505615,0.26002145,0.17896093,-0.10986753553152084,0.13775343
867.3499999995398,-0.35710925,-0.847191,-0.34871897,-2.7483618,0.40048534,1.998822,0.7308805,0.04,0.03999978,-7.952692,5.78446626663208,0.25529912,0.17708187,-0.10898296535015106,0.13616292
867.3666666662065,-0.3586286,-0.8474586,-0.35020134,-2.7500277,0.40218836,2.0006413,0.7306463,0.04,0.039999783,-7.9385195,5.804296493530273,0.25060856,0.17518276,-0.10808347910642624,0.13456582
867.3833333328731,-0.3601311,-0.8477235,-0.35166758,-2.7516742,0.40387273,2.002441,0.7304145,0.04,0.039999783,-7.9244356,5.823835372924805,0.24587782,0.17326152,-0.10716614127159119,0.1329608
867.3999999995398,-0.3616169,-0.8479854,-0.3531174,-2.753304,0.40553835,2.0042202,0.73018533,0.04,0.039999794,-7.9103765,5.843023777008057,0.24111156,0.17132397,-0.10622884333133698,0.13134657
867.4166666662064,-0.36308578,-0.84824425,-0.3545507,-2.754914,0.407185,2.0059793,0.7299587,0.04,0.03999982,-7.896754,5.862071514129639,0.23643287,0.16936417,-0.10528308153152466,0.12972513
867.4333333328731,-0.3645376,-0.84850013,-0.35596743,-2.7565057,0.4088125,2.007718,0.7297347,0.04,0.039999805,-7.882884,5.880557060241699,0.23158987,0.16738845,-0.10431573539972305,0.12810166
867.4499999995397,-0.36597228,-0.84875304,-0.35736743,-2.758078,0.41042084,2.0094364,0.72951347,0.04,0.039999828,-7.869395,5.8990936279296875,0.22684625,0.16539437,-0.10333482176065445,0.12646909
867.4666666662064,-0.36738974,-0.8490028,-0.35875055,-2.7596326,0.41200984,2.011134,0.7292947,0.04,0.03999983,-7.8559356,5.917191505432129,0.2220449,0.16338307,-0.10233628004789352,0.12483126
867.483333332873,-0.36878988,-0.84924954,-0.36011678,-2.761168,0.41357946,2.01281,0.7290787,0.04,0.03999985,-7.842791,5.935061931610107,0.21731128,0.16135335,-0.1013280600309372,0.12318589
867.4999999995397,-0.37017253,-0.8494933,-0.36146596,-2.762684,0.41512936,2.014466,0.7288653,0.04,0.03999987,-7.8297076,5.952624320983887,0.21255985,0.15930654,-0.10031024366617203,0.12153657
867.5166666662063,-0.37153757,-0.849734,-0.36279798,-2.764181,0.41665965,2.016101,0.72865474,0.04,0.03999988,-7.8166547,5.969860553741455,0.20772955,0.15724586,-0.09927163273096085,0.11988288
867.533333332873,-0.37288496,-0.8499715,-0.3641128,-2.765658,0.41817018,2.0177145,0.7284469,0.04,0.039999902,-7.803822,5.986809730529785,0.20296453,0.15516932,-0.09822108596563339,0.118221134
867.5499999995396,-0.3742147,-0.85020584,-0.3654103,-2.7671158,0.41966078,2.0193071,0.7282418,0.04,0.039999925,-7.791151,6.00328254699707,0.19818394,0.1530779,-0.09715533256530762,0.11649569
867.5666666662063,-0.3755266,-0.85043716,-0.36669037,-2.7685537,0.4211314,2.0208786,0.7280395,0.04,0.039999917,-7.778594,6.019997596740723,0.19342017,0.15097176,-0.09607691317796707,0.1148392
867.5833333328729,-0.3768206,-0.8506654,-0.36795297,-2.769972,0.42258197,2.0224278,0.7278398,0.04,0.039999925,-7.7662005,6.036078453063965,0.1886787,0.14885283,-0.09498543292284012,0.11316953
867.5999999995396,-0.37809652,-0.8508904,-0.36919802,-2.7713711,0.42401236,2.023956,0.7276432,0.04,0.03999996,-7.7540045,6.051905632019043,0.18396544,0.14672129,-0.09388421475887299,0.11148714
867.6166666662062,-0.3793544,-0.85111225,-0.37042546,-2.7727501,0.42542252,2.0254617,0.7274491,0.04,0.04,-7.7419677,6.067501068115234,0.1792581,0.14457583,-0.09277120977640152,0.10980287
867.6333333328729,-0.38059416,-0.8513308,-0.3716352,-2.774109,0.4268124,2.0269468,0.7272579,0.04,0.04,-7.7300816,6.082823753356934,0.17459185,0.14241941,-0.09165185689926147,0.10811878
867.6499999995395,-0.38181573,-0.85154635,-0.37282714,-2.7754476,0.4281819,2.028409,0.7270695,0.04,0.04,-7.7182536,6.097847938537598,0.16985275,0.14025213,-0.09051362425088882,0.10643671
867.6666666662062,-0.38301903,-0.85175854,-0.37400126,-2.776767,0.42953086,2.0298495,0.7268839,0.04,0.04,-7.706678,6.112603187561035,0.16523847,0.13807476,-0.0893697664141655,0.104754224
867.6833333328728,-0.38420397,-0.85196745,-0.37515777,-2.7780662,0.43085927,2.0312688,0.7267009,0.04,0.04,-7.6953635,6.126961708068848,0.1606444,0.1358856,-0.08821966499090195,0.103063464
867.6999999995395,-0.3853707,-0.8521734,-0.3762962,-2.7793448,0.43216708,2.032666,0.72652096,0.04,0.04,-7.684039,6.14134407043457,0.15600267,0.13368826,-0.08705544471740723,0.101378724
867.7166666662062,-0.386519,-0.8523758,-0.37741664,-2.7806036,0.43345436,2.034041,0.7263437,0.04,0.04,-7.672915,6.155262470245361,0.15144692,0.13148205,-0.08588150143623352,0.09969162
867.7333333328728,-0.38764873,-0.8525752,-0.378519,-2.7818425,0.43472093,2.0353937,0.72616947,0.04,0.04,-7.662057,6.1689629554748535,0.14692648,0.1292671,-0.08470214903354645,0.09800514
867.7499999995395,-0.38875994,-0.85277116,-0.37960342,-2.7830606,0.43596673,2.0367243,0.7259979,0.04,0.04,-7.651346,6.182382583618164,0.14244938,0.12704417,-0.08351600915193558,0.09632165
867.7666666662061,-0.38985267,-0.852964,-0.38066968,-2.7842584,0.4371918,2.0380323,0.7258294,0.04,0.04,-7.6406856,6.195488452911377,0.13795766,0.12481628,-0.0823209211230278,0.09463922
867.7833333328728,-0.3909268,-0.8531536,-0.38171786,-2.785436,0.43839625,2.0393186,0.72566366,0.04,0.04,-7.6302543,6.2084059715271,0.13353528,0.12258195,-0.08112037181854248,0.09297349
867.7999999995394,-0.3919824,-0.8533399,-0.38274792,-2.786593,0.43957967,2.0405827,0.7255007,0.04,0.04,-7.6200366,6.221009731292725,0.1291607,0.12034227,-0.07991289347410202,0.09130343
867.8166666662061,-0.39301944,-0.8535229,-0.3837599,-2.7877297,0.44074234,2.0418246,0.7253407,0.04,0.04,-7.609923,6.233347415924072,0.12480016,0.11809854,-0.0786970928311348,0.089636974
867.8333333328727,-0.39403778,-0.8537026,-0.38475367,-2.788846,0.44188425,2.043044,0.7251835,0.04,0.04,-7.6000233,6.245458126068115,0.12049422,0.11584948,-0.07747604697942734,0.08797797
867.8499999995394,-0.39503756,-0.8538791,-0.38572934,-2.789942,0.4430053,2.0442412,0.7250292,0.04,0.04,-7.5902934,6.257238864898682,0.11625231,0.11359821,-0.07625121623277664,0.08631496
867.866666666206,-0.3960187,-0.85405236,-0.3866869,-2.7910173,0.44410545,2.0454164,0.72487783,0.04,0.04,-7.580737,6.268825054168701,0.112050384,0.11134346,-0.07502105087041855,0.084655344
867.8833333328727,-0.39698124,-0.85422224,-0.3876263,-2.7920725,0.4451848,2.0465689,0.72472924,0.04,0.04,-7.571287,6.280098915100098,0.10787133,0.10908739,-0.07378436625003815,0.082997635
867.8999999995393,-0.3979253,-0.85438895,-0.38854754,-2.7931073,0.4462434,2.0476992,0.7245835,0.04,0.04,-7.562157,6.291165351867676,0.10379735,0.10682904,-0.07254840433597565,0.08133833
867.916666666206,-0.39885077,-0.85455227,-0.38945067,-2.7941215,0.44728118,2.0488079,0.72444063,0.04,0.04,-7.5530596,6.302009582519531,0.099722706,0.104570515,-0.07130678743124008,0.07969882
867.9333333328726,-0.39975768,-0.8547124,-0.3903356,-2.7951155,0.4482982,2.0498939,0.7243006,0.04,0.04,-7.5441527,6.3123979568481445,0.095696665,0.10231242,-0.07005949318408966,0.07806335
867.9499999995393,-0.400646,-0.85486937,-0.39120242,-2.796089,0.44929448,2.0509577,0.7241635,0.04,0.04,-7.5354853,6.322795391082764,0.091778494,0.10005546,-0.06881249696016312,0.07642163
867.9666666662059,-0.40151584,-0.85502297,-0.39205128,-2.7970421,0.45026997,2.0519996,0.72402924,0.04,0.04,-7.526951,6.33284330368042,0.08789707,0.09780066,-0.06756354123353958,0.07478959
867.9833333328726,-0.40236723,-0.8551732,-0.39288214,-2.7979753,0.45122477,2.053019,0.7238977,0.04,0.04,-7.518604,6.342653274536133,0.084055014,0.09554728,-0.06631234288215637,0.0731604
867.9999999995392,-0.40320024,-0.8553203,-0.39369497,-2.7988882,0.45215896,2.054017,0.723769,0.04,0.04,-7.510481,6.352231502532959,0.08029468,0.093296975,-0.06506253033876419,0.0715394
868.0166666662059,-0.40401477,-0.8554643,-0.3944899,-2.799781,0.4530725,2.0549922,0.7236431,0.04,0.04,-7.5024557,6.361538887023926,0.07658689,0.09105084,-0.0638105720281601,0.06992594
868.0333333328725,-0.40481117,-0.855605,-0.39526695,-2.8006535,0.4539656,2.0559459,0.72352016,0.03999997,0.04,-7.49464,6.370600700378418,0.072956815,0.08881037,-0.06256174296140671,0.068319425
868.0499999995392,-0.4055893,-0.8557424,-0.39602616,-2.801506,0.45483822,2.0568776,0.7234,0.03999996,0.04,-7.486931,6.3794121742248535,0.06933768,0.08657432,-0.06130988895893097,0.06671801
868.0666666662058,-0.40634903,-0.85587656,-0.39676762,-2.802339,0.4556903,2.0577877,0.7232828,0.039999943,0.04,-7.479483,6.388024806976318,0.06583016,0.08434422,-0.06006155163049698,0.065125
868.0833333328725,-0.40709072,-0.8560077,-0.3974914,-2.8031516,0.4565221,2.058676,0.72316825,0.03999993,0.04,-7.472241,6.396406650543213,0.06239121,0.08212058,-0.05881635099649429,0.06354391
868.0999999995391,-0.40781435,-0.85613555,-0.39819762,-2.8039443,0.45733356,2.059543,0.7230566,0.039999913,0.04,-7.4650216,6.40449857711792,0.058966875,0.07990646,-0.05757025629281998,0.061972074
868.1166666662058,-0.40852004,-0.85626024,-0.39888635,-2.804718,0.45812494,2.060389,0.7229476,0.039999887,0.04,-7.4580884,6.412403106689453,0.05565355,0.0777004,-0.05632819980382919,0.060409065
868.1333333328724,-0.40920767,-0.8563819,-0.39955753,-2.8054717,0.45889613,2.0612133,0.7228415,0.039999876,0.04,-7.4513373,6.4200825691223145,0.052406598,0.07550259,-0.05508730933070183,0.058850285
868.1499999995391,-0.40987757,-0.8565003,-0.4002114,-2.8062057,0.4596474,2.062016,0.7227379,0.039999872,0.04,-7.444661,6.42747163772583,0.049205396,0.073317215,-0.05385039001703262,0.057306305
868.1666666662057,-0.41052988,-0.85661554,-0.400848,-2.806921,0.4603788,2.0627975,0.7226373,0.039999854,0.04,-7.438256,6.434696674346924,0.046104543,0.07114309,-0.05262089893221855,0.055772096
868.1833333328724,-0.4111646,-0.8567279,-0.40146744,-2.8076167,0.46109053,2.0635576,0.7225392,0.03999985,0.04,-7.4320407,6.441581726074219,0.04306705,0.06897815,-0.05139797925949097,0.054249987
868.199999999539,-0.41178188,-0.85683703,-0.4020698,-2.8082929,0.46178272,2.0642967,0.72244406,0.039999843,0.04,-7.4259105,6.448473930358887,0.040103346,0.06682769,-0.050181470811367035,0.052739635
868.2166666662057,-0.41238168,-0.856943,-0.40265527,-2.8089502,0.46245545,2.0650153,0.72235143,0.03999982,0.04,-7.419925,6.454986095428467,0.037168235,0.06469043,-0.048970162868499756,0.051241282
868.2333333328723,-0.41296443,-0.8570461,-0.40322393,-2.8095887,0.46310887,2.0657134,0.7222614,0.039999798,0.04,-7.4141703,6.461331367492676,0.03432095,0.06256775,-0.047765638679265976,0.049757216
868.249999999539,-0.41352993,-0.85714626,-0.40377587,-2.8102088,0.46374318,2.066391,0.7221742,0.039999783,0.04,-7.4085784,6.467446327209473,0.031565946,0.060459845,-0.046567242592573166,0.04828141
868.2666666662057,-0.4140786,-0.8572432,-0.4043114,-2.8108103,0.4643584,2.0670478,0.72208947,0.039999776,0.04,-7.4031515,6.473342418670654,0.028882388,0.058367983,-0.0453784354031086,0.046821367
868.2833333328723,-0.41461048,-0.8573373,-0.40483052,-2.8113933,0.4649548,2.0676851,0.72200733,0.039999764,0.04,-7.3979225,6.479080677032471,0.026267726,0.05629248,-0.04420085251331329,0.045377064
868.299999999539,-0.4151257,-0.8574285,-0.40533346,-2.811958,0.4655325,2.0683024,0.72192776,0.039999753,0.04,-7.3927393,6.484547138214111,0.023683991,0.054234814,-0.04302754998207092,0.04394675
868.3166666662056,-0.41562444,-0.8575168,-0.40582022,-2.8125045,0.46609172,2.0688992,0.7218508,0.039999742,0.04,-7.38782,6.489850997924805,0.021217115,0.05219561,-0.041866131126880646,0.04253369
868.3333333328723,-0.41610676,-0.85760224,-0.40629107,-2.8130329,0.46663266,2.0694773,0.7217764,0.039999735,0.04,-7.3830004,6.4948906898498535,0.018815504,0.050176576,-0.040717218071222305,0.041133597
868.3499999995389,-0.41657302,-0.85768485,-0.40674618,-2.813544,0.46715558,2.0700362,0.7217043,0.039999716,0.04,-7.3783073,6.499764919281006,0.016437242,0.048178434,-0.03957287222146988,0.03975286
868.3666666662056,-0.41702333,-0.85776454,-0.40718573,-2.8140373,0.46766055,2.0705757,0.72163486,0.03999971,0.04,-7.373901,6.504477500915527,0.014210896,0.04620062,-0.03844209387898445,0.038383767
868.3833333328722,-0.41745788,-0.8578416,-0.40760976,-2.8145137,0.46814772,2.0710962,0.7215678,0.039999697,0.04,-7.369525,6.508939743041992,0.011989214,0.044244833,-0.0373227596282959,0.03703269
868.3999999995389,-0.41787672,-0.8579158,-0.40801862,-2.8149724,0.46861735,2.0715976,0.7215032,0.039999686,0.04,-7.3653936,6.513246059417725,0.009899312,0.04231195,-0.036216966807842255,0.035697315
868.4166666662055,-0.4182801,-0.8579874,-0.4084124,-2.8154142,0.4690698,2.0720809,0.7214409,0.039999682,0.04,-7.361344,6.517340660095215,0.007834329,0.040403422,-0.035125017166137695,0.03438349
868.4333333328722,-0.41866842,-0.8580562,-0.40879136,-2.8158395,0.46950504,2.0725462,0.7213808,0.039999675,0.04,-7.3574286,6.5210957527160645,0.005842335,0.03852153,-0.03404424712061882,0.033085063
868.4499999995388,-0.41904175,-0.85812247,-0.40915573,-2.816249,0.46992353,2.0729933,0.7213231,0.03999967,0.04,-7.3537283,6.524984836578369,0.0039269,0.03666474,-0.0329773835837841,0.03180702
868.4666666662055,-0.41940024,-0.858186,-0.40950567,-2.8166418,0.47032562,2.0734231,0.72126806,0.039999664,0.04,-7.350212,6.528569221496582,0.0021407073,0.034833252,-0.031929343938827515,0.030550426
868.4833333328721,-0.41974422,-0.858247,-0.40984136,-2.8170185,0.47071138,2.073835,0.72121525,0.039999653,0.04,-7.346721,6.5319013595581055,0.00032193842,0.033028238,-0.030891956761479378,0.029310074
868.4999999995388,-0.42007393,-0.8583056,-0.41016316,-2.8173795,0.47108108,2.0742297,0.7211644,0.039999645,0.04,-7.343423,6.535085678100586,-0.0013718694,0.03125203,-0.029873309656977654,0.028091544
868.5166666662054,-0.42038956,-0.8583615,-0.41047123,-2.8177254,0.47143495,2.074608,0.7211155,0.039999634,0.04,-7.3402433,6.538114070892334,-0.003009219,0.029506475,-0.028870385140180588,0.026895093
868.5333333328721,-0.42069137,-0.858415,-0.4107658,-2.818056,0.47177333,2.0749698,0.72106874,0.03999963,0.04,-7.3372784,6.541004180908203,-0.004563672,0.02779114,-0.02788422629237175,0.025721315
868.5499999995387,-0.42097953,-0.8584663,-0.41104713,-2.818372,0.47209656,2.075315,0.7210239,0.039999623,0.04,-7.3343606,6.543663501739502,-0.0060687265,0.026108094,-0.026916565373539925,0.024569774
868.5666666662054,-0.42125443,-0.85851496,-0.4113155,-2.8186731,0.47240487,2.0756443,0.7209811,0.039999615,0.04,-7.3315907,6.546180725097656,-0.007503899,0.024458526,-0.025965996086597443,0.023441384
868.583333332872,-0.42151627,-0.8585615,-0.41157115,-2.81896,0.47269857,2.0759578,0.72094035,0.039999615,0.04,-7.3290057,6.548551559448242,-0.008872842,0.022841055,-0.02503698132932186,0.022335099
868.5999999995387,-0.42176542,-0.8586057,-0.4118145,-2.819233,0.47297794,2.076256,0.7209017,0.039999604,0.04,-7.326453,6.550726413726807,-0.010193435,0.021258641,-0.024124750867486,0.021253044
868.6166666662053,-0.42200208,-0.8586478,-0.4120456,-2.8194926,0.4732434,2.0765393,0.72086513,0.0399996,0.04,-7.324095,6.552802562713623,-0.011439454,0.01970937,-0.023234443739056587,0.020195734
868.633333332872,-0.42222652,-0.85868794,-0.41226476,-2.8197386,0.4734952,2.0768082,0.72083044,0.039999593,0.04,-7.3218675,6.554705619812012,-0.01260061,0.018195983,-0.02236536517739296,0.019163668
868.6499999995386,-0.4224391,-0.85872585,-0.41247237,-2.819971,0.47373357,2.0770626,0.7207974,0.039999582,0.04,-7.319703,6.556432723999023,-0.013738846,0.016720135,-0.021515602245926857,0.018157097
868.6666666662053,-0.42264017,-0.85876167,-0.4126687,-2.8201914,0.47395906,2.077304,0.72076625,0.039999574,0.04,-7.3176217,6.55800724029541,-0.0148253525,0.015284143,-0.020687319338321686,0.017176984
868.6833333328719,-0.42283002,-0.8587954,-0.41285405,-2.8203993,0.47417197,2.0775316,0.720737,0.03999957,0.04,-7.315743,6.559421062469482,-0.015837153,0.013885347,-0.019878994673490524,0.016225481
868.6999999995386,-0.42300883,-0.8588272,-0.41302872,-2.8205953,0.4743726,2.0777462,0.7207095,0.039999574,0.04,-7.3139486,6.560830116271973,-0.016786724,0.012525455,-0.019095443189144135,0.0153004555
868.7166666662052,-0.42317712,-0.8588571,-0.41319305,-2.8207796,0.47456133,2.0779476,0.72068375,0.039999567,0.04,-7.3122454,6.562005043029785,-0.017691437,0.011206443,-0.01833462528884411,0.014403625
868.7333333328719,-0.42333513,-0.8588853,-0.41334736,-2.8209534,0.47473866,2.078137,0.72065973,0.039999563,0.04,-7.310669,6.563076972961426,-0.01852939,0.00992871,-0.01759991981089115,0.013535816
868.7499999995385,-0.4234832,-0.8589117,-0.41349196,-2.8211153,0.47490478,2.0783148,0.72063684,0.03999956,0.04,-7.30924,6.5640435218811035,-0.019299142,0.008692016,-0.0168917216360569,0.012697238
868.7666666662052,-0.4236217,-0.8589364,-0.41362727,-2.8212664,0.4750602,2.0784807,0.72061545,0.039999556,0.04,-7.3077083,6.564779758453369,-0.020112326,0.007503784,-0.016202811151742935,0.0118898675
868.7833333328718,-0.42375106,-0.8589596,-0.4137536,-2.8214095,0.47520536,2.078636,0.72059566,0.03999955,0.04,-7.3063803,6.565454483032227,-0.020806924,0.006360594,-0.01554100587964058,0.01111284
868.7999999995385,-0.42387158,-0.8589812,-0.41387135,-2.8215413,0.4753405,2.0787807,0.72057724,0.039999552,0.04,-7.305372,6.566132068634033,-0.021377148,0.005258998,-0.01491108350455761,0.010365957
868.8166666662052,-0.42398366,-0.8590013,-0.41398084,-2.8216622,0.47546625,2.0789146,0.7205599,0.03999955,0.04,-7.304071,6.566514492034912,-0.02206613,0.004207272,-0.014303376898169518,0.009652866
868.8333333328718,-0.4240876,-0.8590199,-0.41408247,-2.821775,0.4755829,2.079039,0.72054404,0.039999545,0.04,-7.302843,6.566761493682861,-0.022691706,0.0032073162,-0.013718408532440662,0.008969732
868.8499999995385,-0.4241839,-0.85903716,-0.41417655,-2.82188,0.475691,2.0791543,0.7205291,0.03999954,0.04,-7.3019185,6.567036151885986,-0.023194978,0.002254978,-0.013162830844521523,0.008321832
868.8666666662051,-0.4242729,-0.8590532,-0.41426355,-2.8219776,0.47579107,2.079261,0.7205154,0.039999537,0.04,-7.3011603,6.567254066467285,-0.023603402,0.0013516672,-0.012641689740121365,0.007707432
868.8833333328718,-0.42435506,-0.859068,-0.4143439,-2.8220675,0.47588342,2.0793595,0.7205029,0.039999533,0.04,-7.3003216,6.567295074462891,-0.024068326,0.0004994052,-0.012148928828537464,0.0071286084
868.8999999995384,-0.4244308,-0.8590817,-0.41441792,-2.8221498,0.47596848,2.0794504,0.7204912,0.039999533,0.04,-7.299564,6.5672607421875,-0.02448043,-0.00030208414,-0.011686764657497406,0.0065840906
868.9166666662051,-0.4245005,-0.85909426,-0.414486,-2.8222246,0.47604692,2.0795336,0.7204805,0.039999526,0.04,-7.2988157,6.567112922668457,-0.024877926,-0.0010475453,-0.011252792552113533,0.0060770917
868.9333333328717,-0.42456466,-0.8591058,-0.41454887,-2.822297,0.47611898,2.0796099,0.72047055,0.039999526,0.04,-7.298056,6.566786766052246,-0.025271391,-0.0017375074,-0.01084730215370655,0.0056056767
868.9499999995384,-0.42462376,-0.8591165,-0.41460636,-2.8223624,0.47618523,2.0796807,0.72046137,0.039999526,0.04,-7.297913,6.566812515258789,-0.025401795,-0.0023801688,-0.01049062144011259,0.0051727626
868.966666666205,-0.4246781,-0.8591263,-0.41465968,-2.822421,0.4762463,2.0797472,0.7204532,0.03999953,0.04,-7.2971897,6.566434860229492,-0.025804814,-0.0029677486,-0.01015386264771223,0.0047759786
868.9833333328717,-0.42472783,-0.85913527,-0.4147084,-2.8224769,0.47630253,2.0798066,0.72044545,0.039999522,0.04,-7.2964697,6.566125392913818,-0.026196787,-0.0035083157,-0.009831361472606659,0.004408361
868.9999999995383,-0.42477363,-0.85914373,-0.41475326,-2.8225274,0.4763543,2.0798616,0.7204383,0.03999953,0.04,-7.2963204,6.565976619720459,-0.026287867,-0.0040065357,-0.009552152827382088,0.004071014
869.016666666205,-0.42481604,-0.8591514,-0.41479462,-2.8225734,0.4764018,2.079913,0.720432,0.039999522,0.04,-7.2957625,6.565716743469238,-0.026583117,-0.0044629374,-0.0092888493090868,0.0037604913
869.0333333328716,-0.4248549,-0.8591584,-0.4148327,-2.8226159,0.47644553,2.0799584,0.72042596,0.039999522,0.04,-7.2952914,6.565525531768799,-0.026841441,-0.004884405,-0.009041139855980873,0.0034738919
869.0499999995383,-0.42489076,-0.85916513,-0.41486776,-2.8226557,0.47648582,2.080002,0.72042036,0.039999522,0.04,-7.2950077,6.565356254577637,-0.026993727,-0.0052713607,-0.008822174742817879,0.00321089
869.0666666662049,-0.42492372,-0.8591711,-0.4149,-2.822691,0.4765229,2.080041,0.7204153,0.039999522,0.04,-7.294699,6.56524133682251,-0.027176378,-0.00562806,-0.00861453264951706,0.002969145
869.0833333328716,-0.4249539,-0.85917664,-0.41492972,-2.8227253,0.47655693,2.0800772,0.72041076,0.039999522,0.04,-7.2942915,6.565018177032471,-0.027384844,-0.005954776,-0.008424649946391582,0.0027458658
869.0999999995382,-0.4249818,-0.8591817,-0.41495696,-2.8227553,0.47658828,2.0801127,0.7204065,0.039999526,0.04,-7.294224,6.564985752105713,-0.027458552,-0.006258778,-0.008255431428551674,0.002540667
869.1166666662049,-0.42500734,-0.85918653,-0.41498205,-2.822783,0.47661716,2.080142,0.7204025,0.039999522,0.04,-7.293727,6.564777851104736,-0.02772955,-0.006535321,-0.00808326993137598,0.0023540354
869.1333333328715,-0.42503092,-0.85919106,-0.41500518,-2.8228097,0.47664365,2.0801704,0.7203987,0.03999952,0.04,-7.2935796,6.564647197723389,-0.02775798,-0.0067888936,-0.007940270006656647,0.0021795693
869.1499999995382,-0.42505258,-0.859195,-0.4150265,-2.8228335,0.47666806,2.0801983,0.72039527,0.03999952,0.04,-7.293465,6.5646209716796875,-0.0278526,-0.0070241066,-0.007806866429746151,0.002019348
869.1666666662048,-0.4250725,-0.85919863,-0.41504607,-2.822854,0.4766905,2.0802205,0.7203922,0.039999522,0.04,-7.2931533,6.564491271972656,-0.028049871,-0.007239877,-0.0076736160553991795,0.0018732514
869.1833333328715,-0.42509076,-0.8592019,-0.41506404,-2.8228736,0.47671118,2.0802414,0.7203895,0.03999952,0.04,-7.2928934,6.564295291900635,-0.02812419,-0.00743618,-0.0075611937791109085,0.0017366713
869.1999999995381,-0.4251077,-0.85920507,-0.41508064,-2.8228927,0.4767302,2.0802622,0.72038704,0.03999952,0.04,-7.292806,6.564270496368408,-0.028200634,-0.0076182815,-0.007458365056663752,0.0016107935
869.2166666662048,-0.42512316,-0.85920805,-0.41509584,-2.822911,0.47674772,2.0802824,0.72038466,0.03999952,0.04,-7.2927256,6.564281940460205,-0.028265739,-0.0077883946,-0.007360843475908041,0.0014980256
869.2333333328714,-0.42513737,-0.8592109,-0.41510984,-2.8229265,0.47676384,2.0803006,0.72038245,0.03999952,0.04,-7.2926517,6.564234256744385,-0.028331999,-0.007944997,-0.007269071415066719,0.0013929633
869.2499999995381,-0.42515057,-0.8592134,-0.41512278,-2.82294,0.47677872,2.0803146,0.7203804,0.03999952,0.04,-7.2923574,6.564081192016602,-0.028454797,-0.008086173,-0.0071810586377978325,0.0012970048
869.2666666662047,-0.4251627,-0.85921556,-0.4151347,-2.8229525,0.47679237,2.080328,0.7203785,0.039999515,0.04,-7.2922235,6.563995838165283,-0.028497629,-0.008215863,-0.007109138183295727,0.0012062704
869.2833333328714,-0.42517388,-0.8592175,-0.41514564,-2.8229644,0.47680488,2.080341,0.7203767,0.039999515,0.04,-7.292107,6.563946723937988,-0.028572982,-0.00833514,-0.007041213568300009,0.0011221325
869.299999999538,-0.42518413,-0.85921943,-0.41515568,-2.8229759,0.4768164,2.0803542,0.720375,0.039999522,0.04,-7.2920456,6.563938617706299,-0.028626818,-0.008445304,-0.0069770291447639465,0.001046705
869.3166666662047,-0.42519358,-0.85922116,-0.41516495,-2.8229873,0.476827,2.0803668,0.72037345,0.03999952,0.04,-7.2919846,6.563920021057129,-0.028671699,-0.00854724,-0.006915036588907242,0.0009789441
869.3333333328713,-0.4252022,-0.85922265,-0.41517344,-2.822998,0.47683677,2.0803795,0.7203722,0.039999526,0.04,-7.2919936,6.563929080963135,-0.02868813,-0.008642835,-0.006859041750431061,0.0009153648
869.349999999538,-0.4252101,-0.859224,-0.4151813,-2.8230069,0.47684583,2.0803902,0.720371,0.039999515,0.04,-7.130764,6.378408432006836,-0.052181996,0.0,-0.0,0.0
869.3666666662047,-0.4252101,-0.859224,-0.4151813,-2.8230069,0.47684583,2.0803902,0.720371,0.039999515,0.04,-7.2918744,6.562305450439453,-0.028749647,0.0,-0.0,0.0
869.3833333328713,-0.4252101,-0.859224,-0.4151813,-2.8230069,0.47684583,2.0803902,0.720371,0.039999515,0.04,-7.2918744,6.562305450439453,-0.028749647,0.0,-0.0,0.0
869.399999999538,-0.4252101,-0.859224,-0.4151813,-2.8230069,0.47684583,2.0803902,0.720371,0.039999515,0.04,-7.2918744,6.562305450439453,-0.028749647,0.0,-0.0,0.0
869.4166666662046,-0.4252101,-0.859224,-0.4151813,-2.8230069,0.47684583,2.0803902,0.720371,0.039999515,0.04,-7.2918744,6.562305450439453,-0.028749647,0.0,-0.0,0.0
869.4333333328713,-0.4252101,-0.859224,-0.4151813,-2.8230069,0.47684583,2.0803902,0.720371,0.039999515,0.04,-7.2918744,6.562305450439453,-0.028749647,0.0,-0.0,0.0
869.4499999995379,-0.4252101,-0.859224,-0.4151813,-2.8230069,0.47684583,2.0803902,0.720371,0.039999515,0.04,-7.2918744,6.562305450439453,-0.028749647,0.0,-0.0,0.0
869.4666666662046,-0.4252101,-0.859224,-0.4151813,-2.8230069,0.47684583,2.0803902,0.720371,0.039999515,0.04,-7.2918744,6.562305450439453,-0.028749647,0.0,-0.0,0.0
869.4833333328712,-0.4252101,-0.859224,-0.4151813,-2.8230069,0.47684583,2.0803902,0.720371,0.039999515,0.04,-7.2918744,6.562305450439453,-0.028749647,0.0,-0.0,0.0
869.4999999995379,-0.4252101,-0.859224,-0.4151813,-2.8230069,0.47684583,2.0803902,0.720371,0.039999515,0.04,-7.2918744,6.562305450439453,-0.028749647,0.0,-0.0,0.0
869.5166666662045,-0.4252101,-0.859224,-0.4151813,-2.8230069,0.47684583,2.0803902,0.720371,0.039999515,0.04,-7.2918744,6.562305450439453,-0.028749647,0.0,-0.0,0.0
869.5333333328712,-0.4252101,-0.859224,-0.4151813,-2.8230069,0.47684583,2.0803902,0.720371,0.039999515,0.04,-7.2918744,6.562305450439453,-0.028749647,0.0,-0.0,0.0
869.5499999995378,-0.4252101,-0.859224,-0.4151813,-2.8230069,0.47684583,2.0803902,0.720371,0.039999515,0.04,-7.2918744,6.562305450439453,-0.028749647,0.0,-0.0,0.0
869.5666666662045,-0.4252101,-0.859224,-0.4151813,-2.8230069,0.47684583,2.0803902,0.720371,0.039999515,0.04,-7.2918744,6.562305450439453,-0.028749647,0.0,-0.0,0.0
869.5833333328711,-0.4252101,-0.859224,-0.4151813,-2.8230069,0.47684583,2.0803902,0.720371,0.039999515,0.04,-7.2918744,6.562305450439453,-0.028749647,0.0,-0.0,0.0
869.5999999995378,-0.4252101,-0.859224,-0.4151813,-2.8230069,0.47684583,2.0803902,0.720371,0.039999515,0.04,-7.2918744,6.562305450439453,-0.028749647,0.0,-0.0,0.0
869.6166666662044,-0.4252101,-0.859224,-0.4151813,-2.8230069,0.47684583,2.0803902,0.720371,0.039999515,0.04,-7.2918744,6.562305450439453,-0.028749647,0.0,-0.0,0.0
869.6333333328711,-0.4252101,-0.859224,-0.4151813,-2.8230069,0.47684583,2.0803902,0.720371,0.039999515,0.04,-7.2918744,6.562305450439453,-0.028749647,0.0,-0.0,0.0
869.6499999995377,-0.4252101,-0.859224,-0.4151813,-2.8230069,0.47684583,2.0803902,0.720371,0.039999515,0.04,-7.2918744,6.562305450439453,-0.028749647,0.0,-0.0,0.0
869.6666666662044,-0.4252101,-0.859224,-0.4151813,-2.8230069,0.47684583,2.0803902,0.720371,0.039999515,0.04,-7.2918744,6.562305450439453,-0.028749647,0.0,-0.0,0.0
869.683333332871,-0.4252101,-0.859224,-0.4151813,-2.8230069,0.47684583,2.0803902,0.720371,0.039999515,0.04,-7.2918744,6.562305450439453,-0.028749647,0.0,-0.0,0.0
869.6999999995377,-0.4252101,-0.859224,-0.4151813,-2.8230069,0.47684583,2.0803902,0.720371,0.039999515,0.04,-7.2918744,6.562305450439453,-0.028749647,0.0,-0.0,0.0
869.7166666662043,-0.4252101,-0.859224,-0.4151813,-2.8230069,0.47684583,2.0803902,0.720371,0.039999515,0.04,-7.2918744,6.562305450439453,-0.028749647,0.0,-0.0,0.0
869.733333332871,-0.4252101,-0.859224,-0.4151813,-2.8230069,0.47684583,2.0803902,0.720371,0.039999515,0.04,-7.2918744,6.562305450439453,-0.028749647,0.0,-0.0,0.0
869.7499999995376,-0.4252101,-0.859224,-0.4151813,-2.8230069,0.47684583,2.0803902,0.720371,0.039999515,0.04,-7.2918744,6.562305450439453,-0.028749647,0.0,-0.0,0.0
869.7666666662043,-0.4252101,-0.859224,-0.4151813,-2.8230069,0.47684583,2.0803902,0.720371,0.039999515,0.04,-7.2918744,6.562305450439453,-0.028749647,0.0,-0.0,0.0
869.7833333328709,-0.4252101,-0.859224,-0.4151813,-2.8230069,0.47684583,2.0803902,0.720371,0.039999515,0.04,-7.2918744,6.562305450439453,-0.028749647,0.0,-0.0,0.0
869.7999999995376,-0.4252101,-0.859224,-0.4151813,-2.8230069,0.47684583,2.0803902,0.720371,0.039999515,0.04,-7.2918744,6.562305450439453,-0.028749647,0.0,-0.0,0.0
869.8166666662042,-0.4252101,-0.859224,-0.4151813,-2.8230069,0.47684583,2.0803902,0.720371,0.039999515,0.04,-7.2918744,6.562305450439453,-0.028749647,0.0,-0.0,0.0
869.8333333328709,-0.4252101,-0.859224,-0.4151813,-2.8230069,0.47684583,2.0803902,0.720371,0.039999515,0.04,-7.2918744,6.562305450439453,-0.028749647,0.0,-0.0,0.0
869.8499999995375,-0.4252101,-0.859224,-0.4151813,-2.8230069,0.47684583,2.0803902,0.720371,0.039999515,0.04,-7.2918744,6.562305450439453,-0.028749647,0.0,-0.0,0.0
869.8666666662042,-0.4252101,-0.859224,-0.4151813,-2.8230069,0.47684583,2.0803902,0.720371,0.039999515,0.04,-7.2918744,6.562305450439453,-0.028749647,0.0,-0.0,0.0
869.8833333328708,-0.4252101,-0.859224,-0.4151813,-2.8230069,0.47684583,2.0803902,0.720371,0.039999515,0.04,-7.2918744,6.562305450439453,-0.028749647,0.0,-0.0,0.0
869.8999999995375,-0.4252101,-0.859224,-0.4151813,-2.8230069,0.47684583,2.0803902,0.720371,0.039999515,0.04,-7.2918744,6.562305450439453,-0.028749647,0.0,-0.0,0.0
869.9166666662042,-0.4252101,-0.859224,-0.4151813,-2.8230069,0.47684583,2.0803902,0.720371,0.039999515,0.04,-7.2918744,6.562305450439453,-0.028749647,0.0,-0.0,0.0
869.9333333328708,-0.4252101,-0.859224,-0.4151813,-2.8230069,0.47684583,2.0803902,0.720371,0.039999515,0.04,-7.2918744,6.562305450439453,-0.028749647,0.0,-0.0,0.0
869.9499999995375,-0.4252101,-0.859224,-0.4151813,-2.8230069,0.47684583,2.0803902,0.720371,0.039999515,0.04,-7.2918744,6.562305450439453,-0.028749647,0.0,-0.0,0.0
869.9666666662041,-0.4252101,-0.859224,-0.4151813,-2.8230069,0.47684583,2.0803902,0.720371,0.039999515,0.04,-7.2918744,6.562305450439453,-0.028749647,0.0,-0.0,0.0
869.9833333328708,-0.4252101,-0.859224,-0.4151813,-2.8230069,0.47684583,2.0803902,0.720371,0.039999515,0.04,-7.2918744,6.562305450439453,-0.028749647,0.0,-0.0,0.0
869.9999999995374,-0.4252101,-0.859224,-0.4151813,-2.8230069,0.47684583,2.0803902,0.720371,0.039999515,0.04,-7.2918744,6.562305450439453,-0.028749647,0.0,-0.0,0.0
870.0166666662041,-0.4252101,-0.859224,-0.4151813,-2.8230069,0.47684583,2.0803902,0.720371,0.039999515,0.04,-7.2918744,6.562305450439453,-0.028749647,0.0,-0.0,0.0
870.0333333328707,-0.4252101,-0.859224,-0.4151813,-2.8230069,0.47684583,2.0803902,0.720371,0.039999515,0.04,-7.2918744,6.562305450439453,-0.028749647,0.0,-0.0,0.0
870.0499999995374,-0.4252101,-0.859224,-0.4151813,-2.8230069,0.47684583,2.0803902,0.720371,0.039999515,0.04,-7.2918744,6.562305450439453,-0.028749647,0.0,-0.0,0.0
870.066666666204,-0.4252101,-0.859224,-0.4151813,-2.8230069,0.47684583,2.0803902,0.720371,0.039999515,0.04,-7.2918744,6.562305450439453,-0.028749647,0.0,-0.0,0.0
870.0833333328707,-0.4252101,-0.859224,-0.4151813,-2.8230069,0.47684583,2.0803902,0.720371,0.039999515,0.04,-7.2918744,6.562305450439453,-0.028749647,0.0,-0.0,0.0
870.0999999995373,-0.4252101,-0.859224,-0.4151813,-2.8230069,0.47684583,2.0803902,0.720371,0.039999515,0.04,-7.2918744,6.562305450439453,-0.028749647,0.0,-0.0,0.0
870.116666666204,-0.4252101,-0.859224,-0.4151813,-2.8230069,0.47684583,2.0803902,0.720371,0.039999515,0.04,-7.2918744,6.562305450439453,-0.028749647,0.0,-0.0,0.0
870.1333333328706,-0.4252101,-0.859224,-0.4151813,-2.8230069,0.47684583,2.0803902,0.720371,0.039999515,0.04,-7.2918744,6.562305450439453,-0.028749647,0.0,-0.0,0.0
870.1499999995373,-0.4252101,-0.859224,-0.4151813,-2.8230069,0.47684583,2.0803902,0.720371,0.039999515,0.04,-7.2918744,6.562305450439453,-0.028749647,0.0,-0.0,0.0
870.1666666662039,-0.4252101,-0.859224,-0.4151813,-2.8230069,0.47684583,2.0803902,0.720371,0.039999515,0.04,-7.2918744,6.562305450439453,-0.028749647,0.0,-0.0,0.0
870.1833333328706,-0.4252101,-0.859224,-0.4151813,-2.8230069,0.47684583,2.0803902,0.720371,0.039999515,0.04,-7.2918744,6.562305450439453,-0.028749647,0.0,-0.0,0.0
870.1999999995372,-0.4252101,-0.859224,-0.4151813,-2.8230069,0.47684583,2.0803902,0.720371,0.039999515,0.04,-7.2918744,6.562305450439453,-0.028749647,0.0,-0.0,0.0
870.2166666662039,-0.4252101,-0.859224,-0.4151813,-2.8230069,0.47684583,2.0803902,0.720371,0.039999515,0.04,-7.2918744,6.562305450439453,-0.028749647,0.0,-0.0,0.0
870.2333333328705,-0.4252101,-0.859224,-0.4151813,-2.8230069,0.47684583,2.0803902,0.720371,0.039999515,0.04,-7.2918744,6.562305450439453,-0.028749647,0.0,-0.0,0.0
870.2499999995372,-0.4252101,-0.859224,-0.4151813,-2.8230069,0.47684583,2.0803902,0.720371,0.039999515,0.04,-7.2918744,6.562305450439453,-0.028749647,0.0,-0.0,0.0
870.2666666662038,-0.4252101,-0.859224,-0.4151813,-2.8230069,0.47684583,2.0803902,0.720371,0.039999515,0.04,-7.2918744,6.562305450439453,-0.028749647,0.0,-0.0,0.0
870.2833333328705,-0.4252101,-0.859224,-0.4151813,-2.8230069,0.47684583,2.0803902,0.720371,0.039999515,0.04,-7.2918744,6.562305450439453,-0.028749647,0.0,-0.0,0.0
870.2999999995371,-0.4252101,-0.859224,-0.4151813,-2.8230069,0.47684583,2.0803902,0.720371,0.039999515,0.04,-7.2918744,6.562305450439453,-0.028749647,0.0,-0.0,0.0
870.3166666662038,-0.4252101,-0.859224,-0.4151813,-2.8230069,0.47684583,2.0803902,0.720371,0.039999515,0.04,-7.2918744,6.562305450439453,-0.028749647,0.0,-0.0,0.0
870.3333333328704,-0.4252101,-0.859224,-0.4151813,-2.8230069,0.47684583,2.0803902,0.720371,0.039999515,0.04,-7.2918744,6.562305450439453,-0.028749647,0.0,-0.0,0.0
870.3499999995371,-0.4252101,-0.859224,-0.4151813,-2.8230069,0.47684583,2.0803902,0.720371,0.039999515,0.04,-7.2918744,6.562305450439453,-0.028749647,0.0,-0.0,0.0
870.3666666662037,-0.4252101,-0.859224,-0.4151813,-2.8230069,0.47684583,2.0803902,0.720371,0.039999515,0.04,-7.2918744,6.562305450439453,-0.028749647,0.0,-0.0,0.0
870.3833333328704,-0.4252101,-0.859224,-0.4151813,-2.8230069,0.47684583,2.0803902,0.720371,0.039999515,0.04,-7.2918744,6.562305450439453,-0.028749647,0.0,-0.0,0.0
870.399999999537,-0.4252101,-0.859224,-0.4151813,-2.8230069,0.47684583,2.0803902,0.720371,0.039999515,0.04,-7.2918744,6.562305450439453,-0.028749647,0.0,-0.0,0.0
870.4166666662037,-0.4252101,-0.859224,-0.4151813,-2.8230069,0.47684583,2.0803902,0.720371,0.039999515,0.04,-7.2918744,6.562305450439453,-0.028749647,0.0,-0.0,0.0
870.4333333328703,-0.4252101,-0.859224,-0.4151813,-2.8230069,0.47684583,2.0803902,0.720371,0.039999515,0.04,-7.2918744,6.562305450439453,-0.028749647,0.0,-0.0,0.0
870.449999999537,-0.4252101,-0.859224,-0.4151813,-2.8230069,0.47684583,2.0803902,0.720371,0.039999515,0.04,-7.2918744,6.562305450439453,-0.028749647,0.0,-0.0,0.0
870.4666666662037,-0.4252101,-0.859224,-0.4151813,-2.8230069,0.47684583,2.0803902,0.720371,0.039999515,0.04,-7.2918744,6.562305450439453,-0.028749647,0.0,-0.0,0.0
870.4833333328703,-0.4252101,-0.859224,-0.4151813,-2.8230069,0.47684583,2.0803902,0.720371,0.039999515,0.04,-7.2918744,6.562305450439453,-0.028749647,0.0,-0.0,0.0
870.499999999537,-0.4252101,-0.859224,-0.4151813,-2.8230069,0.47684583,2.0803902,0.720371,0.039999515,0.04,-7.2918744,6.562305450439453,-0.028749647,0.0,-0.0,0.0
870.5166666662036,-0.4252101,-0.859224,-0.4151813,-2.8230069,0.47684583,2.0803902,0.720371,0.039999515,0.04,-7.2918744,6.562305450439453,-0.028749647,0.0,-0.0,0.0
870.5333333328703,-0.4252101,-0.859224,-0.4151813,-2.8230069,0.47684583,2.0803902,0.720371,0.039999515,0.04,-7.2918744,6.562305450439453,-0.028749647,0.0,-0.0,0.0
870.5499999995369,-0.4252101,-0.859224,-0.4151813,-2.8230069,0.47684583,2.0803902,0.720371,0.039999515,0.04,-7.2918744,6.562305450439453,-0.028749647,0.0,-0.0,0.0
870.5666666662036,-0.4252101,-0.859224,-0.4151813,-2.8230069,0.47684583,2.0803902,0.720371,0.039999515,0.04,-7.2918744,6.562305450439453,-0.028749647,0.0,-0.0,0.0
870.5833333328702,-0.4252101,-0.859224,-0.4151813,-2.8230069,0.47684583,2.0803902,0.720371,0.039999515,0.04,-7.2918744,6.562305450439453,-0.028749647,0.0,-0.0,0.0
870.5999999995369,-0.4252101,-0.859224,-0.4151813,-2.8230069,0.47684583,2.0803902,0.720371,0.039999515,0.04,-7.2918744,6.562305450439453,-0.028749647,0.0,-0.0,0.0
870.6166666662035,-0.4252101,-0.859224,-0.4151813,-2.8230069,0.47684583,2.0803902,0.720371,0.039999515,0.04,-7.2918744,6.562305450439453,-0.028749647,0.0,-0.0,0.0
870.6333333328702,-0.4252101,-0.859224,-0.4151813,-2.8230069,0.47684583,2.0803902,0.720371,0.039999515,0.04,-7.2918744,6.562305450439453,-0.028749647,0.0,-0.0,0.0
870.6499999995368,-0.4252101,-0.859224,-0.4151813,-2.8230069,0.47684583,2.0803902,0.720371,0.039999515,0.04,-7.2918744,6.562305450439453,-0.028749647,0.0,-0.0,0.0
870.6666666662035,-0.4252101,-0.859224,-0.4151813,-2.8230069,0.47684583,2.0803902,0.720371,0.039999515,0.04,-7.2918744,6.562305450439453,-0.028749647,0.0,-0.0,0.0
870.6833333328701,-0.4252101,-0.859224,-0.4151813,-2.8230069,0.47684583,2.0803902,0.720371,0.039999515,0.04,-7.2918744,6.562305450439453,-0.028749647,0.0,-0.0,0.0
870.6999999995368,-0.4252101,-0.859224,-0.4151813,-2.8230069,0.47684583,2.0803902,0.720371,0.039999515,0.04,-7.2918744,6.562305450439453,-0.028749647,0.0,-0.0,0.0
870.7166666662034,-0.4252101,-0.859224,-0.4151813,-2.8230069,0.47684583,2.0803902,0.720371,0.039999515,0.04,-7.2918744,6.562305450439453,-0.028749647,0.0,-0.0,0.0
870.7333333328701,-0.4252101,-0.859224,-0.4151813,-2.8230069,0.47684583,2.0803902,0.720371,0.039999515,0.04,-7.2918744,6.562305450439453,-0.028749647,0.0,-0.0,0.0
870.7499999995367,-0.4252101,-0.859224,-0.4151813,-2.8230069,0.47684583,2.0803902,0.720371,0.039999515,0.04,-7.2918744,6.562305450439453,-0.028749647,0.0,-0.0,0.0
870.7666666662034,-0.4252101,-0.859224,-0.4151813,-2.8230069,0.47684583,2.0803902,0.720371,0.039999515,0.04,-7.2918744,6.562305450439453,-0.028749647,0.0,-0.0,0.0
870.78333333287,-0.4252101,-0.859224,-0.4151813,-2.8230069,0.47684583,2.0803902,0.720371,0.039999515,0.04,-7.2918744,6.562305450439453,-0.028749647,0.0,-0.0,0.0
870.7999999995367,-0.4252101,-0.859224,-0.4151813,-2.8230069,0.47684583,2.0803902,0.720371,0.039999515,0.04,-7.2918744,6.562305450439453,-0.028749647,0.0,-0.0,0.0
870.8166666662033,-0.4252101,-0.859224,-0.4151813,-2.8230069,0.47684583,2.0803902,0.720371,0.039999515,0.04,-7.2918744,6.562305450439453,-0.028749647,0.0,-0.0,0.0
870.83333333287,-0.4252101,-0.859224,-0.4151813,-2.8230069,0.47684583,2.0803902,0.720371,0.039999515,0.04,-7.2918744,6.562305450439453,-0.028749647,0.0,-0.0,0.0
870.8499999995366,-0.4252101,-0.859224,-0.4151813,-2.8230069,0.47684583,2.0803902,0.720371,0.039999515,0.04,-7.2918744,6.562305450439453,-0.028749647,0.0,-0.0,0.0
870.8666666662033,-0.4252101,-0.859224,-0.4151813,-2.8230069,0.47684583,2.0803902,0.720371,0.039999515,0.04,-7.2918744,6.562305450439453,-0.028749647,0.0,-0.0,0.0
870.8833333328699,-0.4252101,-0.859224,-0.4151813,-2.8230069,0.47684583,2.0803902,0.720371,0.039999515,0.04,-7.2918744,6.562305450439453,-0.028749647,0.0,-0.0,0.0
870.8999999995366,-0.4252101,-0.859224,-0.4151813,-2.8230069,0.47684583,2.0803902,0.720371,0.039999515,0.04,-7.2918744,6.562305450439453,-0.028749647,0.0,-0.0,0.0
870.9166666662032,-0.4252101,-0.859224,-0.4151813,-2.8230069,0.47684583,2.0803902,0.720371,0.039999515,0.04,-7.2918744,6.562305450439453,-0.028749647,0.0,-0.0,0.0
870.9333333328699,-0.4252101,-0.859224,-0.4151813,-2.8230069,0.47684583,2.0803902,0.720371,0.039999515,0.04,-7.2918744,6.562305450439453,-0.028749647,0.0,-0.0,0.0
870.9499999995365,-0.4252101,-0.859224,-0.4151813,-2.8230069,0.47684583,2.0803902,0.720371,0.039999515,0.04,-7.2918744,6.562305450439453,-0.028749647,0.0,-0.0,0.0
