rsonawane2002/My_IMU/logs_2/traj_360/imu_400hz_360.csv
time,j1,j2,j3,j4,j5,j6,j7,gripper1,gripper2,imu_ax,imu_ay,imu_az,imu_gx,imu_gy,imu_gz
0.0,0.00016700293,-0.785875,4.0107683e-05,-2.3551247,9.29385e-05,1.570997,0.786,0.04,0.04,-9.513019,-0.0392979532480239,0.09669934,-5.683964e-07,-0.0011641271412372,8.7995375e-07
0.0025,0.000167001874,-0.7858577740000002,4.0108882999999985e-05,-2.35513919,9.294366899999994e-05,1.570996565,0.786,0.04,0.04,-9.561243249999386,-0.03331054932212624,0.08355335650016738,-3.7350445400248155e-07,-0.0013252280536086636,8.8073658499999e-07
0.005,0.00016700081800000003,-0.7858405480000005,4.0110082999999974e-05,-2.35515368,9.294883799999987e-05,1.57099613,0.786,0.04,0.04,-9.609467499998772,-0.02732314539622858,0.07040737300033477,-1.7861250800496306e-07,-0.0014863289659801274,8.815194199999801e-07
0.0075,0.00016699976200000002,-0.7858233220000007,4.0111282999999956e-05,-2.35516817,9.29540069999998e-05,1.5709956950000001,0.786,0.04,0.04,-9.657691749998158,-0.021335741470330925,0.05726138950050216,1.6279437992555332e-08,-0.001647429878351591,8.823022549999701e-07
0.01,0.00016699870600000004,-0.785806096000001,4.011248299999994e-05,-2.3551826599999997,9.295917599999975e-05,1.5709952600000001,0.786,0.04,0.04,-9.705915999997544,-0.015348337544433266,0.044115406000669544,2.1117138399007388e-07,-0.0018085307907230548,8.830850899999602e-07
0.0125,0.00016699765000000006,-0.7857888700000011,4.011368299999992e-05,-2.355197149999999,9.296434499999968e-05,1.570994825,0.786,0.04,0.04,-9.75414024999693,-0.009360933618535607,0.030969422500836938,4.0606332998759243e-07,-0.0019696317030945187,8.838679249999502e-07
0.015,0.00016699659400000008,-0.7857716440000013,4.011488299999991e-05,-2.355211639999999,9.296951399999961e-05,1.57099439,0.786,0.04,0.04,-9.802364499996315,-0.003373529692637954,0.017823439001004332,6.009552759851107e-07,-0.002130732615465982,8.846507599999402e-07
0.0175,0.00016699211800000094,-0.7857548570000014,4.0116415699999814e-05,-2.355225734999999,9.29741687999997e-05,1.57099396,0.786,0.04,0.04,-9.834405700000028,0.0006154750444699193,0.008988616700017974,1.0133801129283174e-06,-0.0022873211419084587,8.699771850038558e-07
0.02,0.00016698080200000095,-0.7857389480000013,4.011861379999982e-05,-2.355239039999999,9.29777951999997e-05,1.5709935400000001,0.786,0.04,0.04,-9.834080800000027,0.0006076814024714921,0.00877611680001778,1.8608707319290876e-06,-0.002434884896489513,8.243907900038143e-07
0.0225,0.00016696948600000092,-0.7857230390000014,4.0120811899999815e-05,-2.355252344999999,9.29814215999997e-05,1.57099312,0.786,0.04,0.04,-9.833755900000027,0.0005998877604730651,0.008563616900017588,2.7083613509298583e-06,-0.002582448651070567,7.788043950037729e-07
0.025,0.00016695817000000093,-0.7857071300000014,4.012300999999982e-05,-2.355265649999999,9.29850479999997e-05,1.5709927000000001,0.786,0.04,0.04,-9.833431000000026,0.0005920941184746379,0.008351117000017394,3.55585196993063e-06,-0.002730012405651621,7.332180000037314e-07
0.0275,0.0001669468540000009,-0.7856912210000013,4.0125208099999824e-05,-2.355278954999999,9.298867439999971e-05,1.57099228,0.786,0.04,0.04,-9.833106100000027,0.0005843004764762109,0.0081386171000172,4.4033425889314e-06,-0.0028775761602326754,6.8763160500369e-07
0.03,0.0001669355380000009,-0.7856753120000013,4.012740619999982e-05,-2.355292259999999,9.299230079999972e-05,1.5709918600000001,0.786,0.04,0.04,-9.832781200000026,0.0005765068344777838,0.007926117200017008,5.25083320793217e-06,-0.0030251399148137296,6.420452100036485e-07
0.0325,0.0001669242220000009,-0.7856594030000013,4.0129604299999826e-05,-2.3553055649999988,9.299592719999972e-05,1.57099144,0.786,0.04,0.04,-9.832456300000025,0.0005687131924793567,0.007713617300016814,6.098323826932942e-06,-0.0031727036693947838,5.96458815003607e-07
0.035,0.000166894727000003,-0.7856443400000012,4.0133618799999614e-05,-2.355318099999999,9.299825339999987e-05,1.57099101,0.786,0.04,0.0399999995,-9.832185900000018,0.0005551737092913737,0.007507476500015874,7.893261929822555e-06,-0.003311772015866505,5.022683180092679e-07
0.0375,0.00016685614250000298,-0.7856297000000011,4.013854149999962e-05,-2.355330249999999,9.299992949999987e-05,1.570990575,0.786,0.04,0.03999999875,-9.83194275000002,0.0005387613055075938,0.007304515250015691,1.0161923774824615e-05,-0.003446592658282052,3.8377577000916036e-07
0.04,0.00016681755800000293,-0.7856150600000011,4.0143464199999625e-05,-2.355342399999999,9.300160559999988e-05,1.5709901400000001,0.786,0.04,0.039999998,-9.831699600000018,0.0005223489017238138,0.007101554000015505,1.2430585619826681e-05,-0.0035814133006976,2.652832220090525e-07
0.0425,0.0001667789735000029,-0.7856004200000011,4.014838689999963e-05,-2.355354549999999,9.300328169999988e-05,1.5709897050000001,0.786,0.04,0.03999999725,-9.831456450000019,0.000505936497940034,0.006898592750015321,1.4699247464828746e-05,-0.0037162339431131477,1.4679067400894463e-07
0.045,0.00016674038900000286,-0.7855857800000011,4.015330959999963e-05,-2.355366699999999,9.300495779999987e-05,1.57098927,0.786,0.04,0.0399999965,-9.831213300000018,0.000489524094156254,0.0066956315000151366,1.6967909309830803e-05,-0.003851054585528695,2.829812600883708e-08
0.0475,0.00016670180450000283,-0.7855711400000011,4.0158232299999634e-05,-2.3553788499999992,9.300663389999987e-05,1.570988835,0.786,0.04,0.03999999575,-9.830970150000017,0.0004731116903724741,0.006492670250014952,1.9236571154832868e-05,-0.003985875227944243,-9.019442199127079e-08
0.05,0.0001666632200000028,-0.7855565000000011,4.016315499999964e-05,-2.355390999999999,9.300830999999987e-05,1.5709884,0.786,0.04,0.039999995,-9.830727000000017,0.00045669928658869415,0.006289709000014767,2.1505232999834933e-05,-0.00412069587035979,-2.0868696999137865e-07
0.0525,0.00016657295450000646,-0.785542962500001,4.017329874999927e-05,-2.355402024999999,9.300205350000045e-05,1.5709879800000002,0.786,0.04,0.03999999575,-9.830442450000021,0.0004315093799977649,0.006124102130011899,2.5882950149685456e-05,-0.004242433514437198,-8.261364744556356e-07
0.055,0.0001664826890000064,-0.785529425000001,4.018344249999928e-05,-2.3554130499999992,9.299579700000045e-05,1.57098756,0.786,0.04,0.0399999965,-9.83015790000002,0.000406319473406197,0.0059584952600117485,3.026066729968944e-05,-0.004364171158513654,-1.4435859789561977e-06
0.0575,0.00016639242350000632,-0.785515887500001,4.019358624999929e-05,-2.3554240749999993,9.298954050000044e-05,1.57098714,0.786,0.04,0.03999999725,-9.82987335000002,0.00038112956681462905,0.005792888390011597,3.463838444969343e-05,-0.004485908802590109,-2.06103548345676e-06
0.06,0.00016630215800000623,-0.7855023500000009,4.02037299999993e-05,-2.3554350999999993,9.298328400000044e-05,1.57098672,0.786,0.04,0.039999998,-9.82958880000002,0.0003559396602230612,0.005627281520011448,3.90161015996974e-05,-0.004607646446666565,-2.6784849879573206e-06
0.0625,0.00016621189250000615,-0.7854888125000009,4.021387374999931e-05,-2.3554461249999994,9.297702750000043e-05,1.5709863,0.786,0.04,0.03999999875,-9.82930425000002,0.00033074975363149323,0.005461674650011296,4.339381874970139e-05,-0.004729384090743021,-3.2959344924578825e-06
0.065,0.00016612162700000606,-0.7854752750000009,4.022401749999932e-05,-2.3554571499999994,9.297077100000043e-05,1.57098588,0.786,0.04,0.0399999995,-9.82901970000002,0.00030555984703992535,0.005296067780011146,4.777153589970538e-05,-0.004851121734819477,-3.9133839969584445e-06
0.0675,0.0001660037425000115,-0.7854620675000009,4.023693114999877e-05,-2.3554678349999993,9.296130750000105e-05,1.57098545,0.786,0.04,0.04,-9.828752600000016,0.0002788821846499178,0.00513199036001069,5.302708029953452e-05,-0.004968538833774768,-4.601871299944858e-06
0.07,0.00016583062000001132,-0.7854495200000009,4.0255384599998794e-05,-2.3554778399999994,9.294543000000105e-05,1.570985,0.786,0.04,0.04,-9.828520400000015,0.00024922901066213806,0.004970971840010544,6.0038279199540905e-05,-0.0050773148424851375,-5.432434199945614e-06
0.0725,0.00016565749750001117,-0.7854369725000009,4.027383804999881e-05,-2.3554878449999994,9.292955250000104e-05,1.57098455,0.786,0.04,0.04,-9.828288200000015,0.00021957583667435844,0.004809953320010398,6.704947809954724e-05,-0.0051860908511955055,-6.262997099946365e-06
0.075,0.00016548437500001103,-0.7854244250000009,4.029229149999883e-05,-2.3554978499999994,9.291367500000101e-05,1.5709841,0.786,0.04,0.04,-9.828056000000014,0.0001899226626865787,0.004648934800010251,7.406067699955363e-05,-0.0052948668599058744,-7.093559999947121e-06
0.0775,0.00016531125250001085,-0.7854118775000009,4.031074494999884e-05,-2.3555078549999995,9.2897797500001e-05,1.57098365,0.786,0.04,0.04,-9.827823800000015,0.00016026948869879895,0.004487916280010105,8.107187589956002e-05,-0.005403642868616243,-7.924122899947878e-06
0.08,0.0001651381300000107,-0.7853993300000008,4.032919839999886e-05,-2.3555178599999995,9.288192000000098e-05,1.5709832000000001,0.786,0.04,0.04,-9.827591600000014,0.00013061631471101922,0.004326897760009958,8.808307479956639e-05,-0.005512418877326612,-8.754685799948634e-06
0.0825,0.00016496500750001053,-0.7853867825000008,4.0347651849998876e-05,-2.3555278649999996,9.286604250000097e-05,1.57098275,0.786,0.04,0.04,-9.827359400000015,0.00010096314072323946,0.0041658792400098114,9.509427369957278e-05,-0.005621194886036981,-9.58524869994939e-06
0.085,0.00016471187900001758,-0.7853748300000007,4.0374114199998176e-05,-2.3555372299999995,9.284098600000178e-05,1.5709822900000001,0.78600019,0.04,0.04,-9.827124000000014,6.680616061421889e-05,0.0040238497300079555,0.00010424137499938686,-0.005721915513271196,-1.0680261699926337e-05
0.08750000000000001,0.0001644187475000173,-0.7853631750000007,4.04045809999982e-05,-2.3555462749999996,9.281134000000175e-05,1.570981825,0.786000475,0.04,0.04,-9.826887000000013,3.0397277443963488e-05,0.003891314725007835,0.00011445642749939616,-0.005818608449766234,-1.1907499749927453e-05
0.09,0.00016412561600001705,-0.7853515200000007,4.043504779999823e-05,-2.3555553199999997,9.278169400000173e-05,1.57098136,0.78600076,0.04,0.04,-9.826650000000013,-6.011605726291696e-06,0.0037587797200077148,0.0001246714799994054,-0.005915301386261272,-1.3134737799928563e-05
0.0925,0.00016383248450001678,-0.7853398650000006,4.0465514599998254e-05,-2.3555643649999998,9.27520480000017e-05,1.570980895,0.786001045,0.04,0.04,-9.826413000000013,-4.24204888965471e-05,0.003626244715007594,0.0001348865324994147,-0.006011994322756309,-1.4361975849929682e-05
0.095,0.0001635393530000165,-0.7853282100000006,4.049598139999828e-05,-2.3555734099999994,9.272240200000167e-05,1.57098043,0.78600133,0.04,0.04,-9.826176000000013,-7.882937206680248e-05,0.0034937097100074736,0.00014510158499942398,-0.006108687259251348,-1.5589213899930797e-05
0.0975,0.00016324622150001625,-0.7853165550000006,4.0526448199998306e-05,-2.3555824549999995,9.269275600000164e-05,1.570979965,0.786001615,0.04,0.04,-9.825939000000012,-0.00011523825523705787,0.0033611747050073526,0.00015531663749943328,-0.006205380195746385,-1.6816451949931916e-05
0.1,0.00016295309000001598,-0.7853049000000006,4.055691499999834e-05,-2.3555914999999996,9.266311000000161e-05,1.5709795,0.7860019,0.04,0.04,-9.825702000000012,-0.0001516471384073133,0.003228639700007232,0.00016553168999944258,-0.006302073132241424,-1.8043689999933034e-05
0.10250000000000001,0.00016249735400002444,-0.7852940025000006,4.0603614649997495e-05,-2.355600095,9.261498100000258e-05,1.57097893,0.786002185,0.04,0.04,-9.82550550000001,-0.00019488419929750503,0.003099035845006954,0.00017821096649931967,-0.006386436708266938,-1.9721619699909968e-05
0.105,0.00016204161800002404,-0.7852831050000005,4.065031429999754e-05,-2.3556086899999995,9.256685200000254e-05,1.57097836,0.78600247,0.04,0.04,-9.82530900000001,-0.00023812126018806913,0.0029694319900068367,0.00019089024299933114,-0.006470800284291779,-2.1399549399911486e-05
0.1075,0.0001615858820000236,-0.7852722075000005,4.069701394999758e-05,-2.3556172849999997,9.251872300000249e-05,1.57097779,0.786002755,0.04,0.04,-9.82511250000001,-0.0002813583210786335,0.002839828135006719,0.00020356951949934268,-0.006555163860316621,-2.3077479099913014e-05
0.11,0.0001611301460000232,-0.7852613100000005,4.074371359999762e-05,-2.3556258799999994,9.247059400000245e-05,1.57097722,0.78600304,0.04,0.04,-9.824916000000009,-0.0003245953819691978,0.002710224280006601,0.0002162487959993542,-0.006639527436341463,-2.4755408799914543e-05
0.1125,0.0001606744100000228,-0.7852504125000005,4.0790413249997665e-05,-2.3556344749999996,9.24224650000024e-05,1.57097665,0.786003325,0.04,0.04,-9.82471950000001,-0.0003678324428597622,0.0025806204250064827,0.00022892807249936576,-0.006723891012366305,-2.6433338499916068e-05
0.115,0.00016021867400002238,-0.7852395150000006,4.083711289999771e-05,-2.3556430699999997,9.237433600000236e-05,1.57097608,0.78600361,0.04,0.04,-9.82452300000001,-0.00041106950375032657,0.002451016570006365,0.0002416073489993773,-0.006808254588391146,-2.8111268199917596e-05
0.11750000000000001,0.00015969294950003208,-0.7852288325000004,4.089078169999674e-05,-2.3556513249999997,9.231833100000345e-05,1.570975365,0.7860038970000001,0.04,0.04,-9.824342300000007,-0.0004551047517429705,0.0023286387000052023,0.0002557011799991843,-0.006889455579217571,-2.9956382099894947e-05
0.12,0.0001590272480000315,-0.7852185800000004,4.0958388799996806e-05,-2.3556588999999994,9.22465740000034e-05,1.5709743600000001,0.786004188,0.04,0.04,-9.824193200000007,-0.0005007363739401218,0.0022207128000051044,0.0002726241199991996,-0.006964331399645779,-3.213586439989692e-05
0.1225,0.00015836154650003087,-0.7852083275000005,4.102599589999686e-05,-2.3556664749999996,9.217481700000332e-05,1.570973355,0.786004479,0.04,0.04,-9.824044100000007,-0.0005463679961372733,0.0021127869000050065,0.00028954705999921504,-0.007039207220073986,-3.4315346699898905e-05
0.125,0.00015769584500003027,-0.7851980750000005,4.109360299999693e-05,-2.3556740499999997,9.210306000000327e-05,1.5709723500000001,0.78600477,0.04,0.04,-9.823895000000006,-0.0005919996183344248,0.002004861000004908,0.0003064699999992304,-0.007114083040502195,-3.649482899990089e-05
0.1275,0.00015703014350002965,-0.7851878225000004,4.1161210099996985e-05,-2.3556816249999994,9.20313030000032e-05,1.570971345,0.786005061,0.04,0.04,-9.823745900000006,-0.0006376312405315765,0.0018969351000048098,0.0003233929399992458,-0.007188958860930403,-3.867431129990287e-05
0.13,0.00015636444200002906,-0.7851775700000004,4.122881719999705e-05,-2.3556891999999996,9.195954600000314e-05,1.5709703400000001,0.786005352,0.04,0.04,-9.823596800000006,-0.000683262862728728,0.0017890092000047114,0.00034031587999926123,-0.007263834681358611,-4.085379359990486e-05
0.1325,0.00015569874050002844,-0.7851673175000005,4.129642429999711e-05,-2.3556967749999997,9.188778900000308e-05,1.570969335,0.786005643,0.04,0.04,-9.823447700000006,-0.0007288944849258795,0.001681083300004613,0.0003572388199992766,-0.00733871050178682,-4.3033275899906836e-05
0.135,0.00015485860300003878,-0.7851574250000004,4.1381377399996083e-05,-2.3557036699999996,9.179642400000424e-05,1.5709683,0.786006121,0.04,0.04,-9.823281900000007,-0.0007796551741171192,0.0015775323730042403,0.0003772817499990963,-0.007406598655504246,-4.557679049988598e-05
0.1375,0.00015393124750003793,-0.7851477125000004,4.147500349999617e-05,-2.3557102249999997,9.169525500000414e-05,1.57096725,0.7860066925,0.04,0.04,-9.823107750000007,-0.0008329803968058928,0.001476168932504148,0.0003988846749991159,-0.007470992975865615,-4.8302321249888466e-05
0.14,0.0001530038920000371,-0.7851380000000004,4.1568629599996255e-05,-2.35571678,9.159408600000405e-05,1.5709662,0.786007264,0.04,0.04,-9.822933600000006,-0.0008863056194946663,0.0013748054920040558,0.0004204875999991356,-0.007535387296226983,-5.1027851999890945e-05
0.14250000000000002,0.00015207653650003625,-0.7851282875000004,4.166225569999634e-05,-2.3557233349999995,9.149291700000396e-05,1.5709651500000001,0.7860078355,0.04,0.04,-9.822759450000007,-0.0009396308421834398,0.0012734420515039635,0.0004420905249991553,-0.007599781616588352,-5.3753382749893423e-05
0.145,0.00015114918100003543,-0.7851185750000004,4.175588179999642e-05,-2.3557298899999997,9.139174800000386e-05,1.5709641,0.786008407,0.04,0.04,-9.822585300000005,-0.0009929560648722128,0.0011720786110038725,0.0004636934499991747,-0.00766417593694972,-5.647891349989588e-05
0.1475,0.0001502218255000346,-0.7851088625000003,4.184950789999651e-05,-2.355736445,9.129057900000377e-05,1.57096305,0.7860089785,0.04,0.04,-9.822411150000006,-0.0010462812875609863,0.0010707151705037802,0.00048529637499919437,-0.007728570257311089,-5.920444424989836e-05
0.15,0.00014929447000003375,-0.7850991500000003,4.194313399999659e-05,-2.3557429999999995,9.118941000000369e-05,1.570962,0.78600955,0.04,0.04,-9.822237000000007,-0.00109960651024976,0.0009693517300036878,0.0005068992999992141,-0.007792964577672457,-6.192997499990084e-05
0.1525,0.00014805000250006113,-0.7850898515000004,4.206823939999386e-05,-2.3557489249999994,9.105266700000672e-05,1.570960425,0.7860101214999999,0.04,0.04,-9.82202895000001,-0.0011531510157483803,0.0008749501615046365,0.0005322743049987537,-0.007844732888040317,-6.523958774983745e-05
0.155,0.00014680553500007697,-0.7850805530000006,4.219334479999226e-05,-2.3557548499999994,9.091592400000846e-05,1.57095885,0.7860106929999999,0.04,0.04,-9.821820900000013,-0.0012066955212470085,0.0007805485930058384,0.0005576493099984307,-0.007896501198407718,-6.854920049979531e-05
0.1575,0.0001455610675000928,-0.7850712545000007,4.231845019999067e-05,-2.3557607749999994,9.077918100001019e-05,1.570957275,0.7860112644999999,0.04,0.04,-9.821612850000015,-0.0012602400267456367,0.0006861470245070403,0.0005830243149981076,-0.007948269508775118,-7.185881324975317e-05
0.16,0.00014431660000010867,-0.7850619560000008,4.244355559998908e-05,-2.3557666999999993,9.064243800001194e-05,1.5709557,0.7860118359999999,0.04,0.04,-9.821404800000018,-0.001313784532244265,0.0005917454560082423,0.0006083993199977845,-0.00800003781914252,-7.516842599971103e-05
0.1625,0.0001430721325001245,-0.785052657500001,4.256866099998748e-05,-2.3557726249999993,9.050569500001368e-05,1.570954125,0.7860124074999999,0.04,0.04,-9.82119675000002,-0.0013673290377428933,0.0004973438875094442,0.0006337743249974614,-0.008051806129509922,-7.84780387496689e-05
0.165,0.00014182766500014034,-0.7850433590000011,4.269376639998589e-05,-2.3557785499999992,9.036895200001543e-05,1.5709525500000001,0.7860129789999999,0.04,0.04,-9.820988700000024,-0.0014208735432415217,0.0004029423190106461,0.0006591493299971384,-0.008103574439877323,-8.178765149962676e-05
0.1675,0.00014045789200018864,-0.7850341670000011,4.28312992999811e-05,-2.3557842249999994,9.021815000002084e-05,1.5709509450000003,0.7860136469999999,0.04,0.04,-9.820815750000012,-0.0014772262540573562,0.0003119915220097843,0.0006863624399964042,-0.008152645779768436,-8.530314799954282e-05
0.17,0.00013883750800016504,-0.7850251880000009,4.299368719998346e-05,-2.3557893999999995,9.003923000001823e-05,1.5709492800000002,0.786014508,0.04,0.04,-9.82071300000001,-0.0015391953755106678,0.00022794226800856117,0.0007172517599968537,-0.008196323178704031,-8.923041199959997e-05
0.17250000000000001,0.00013721712400014148,-0.7850162090000008,4.3156075099985826e-05,-2.3557945749999996,8.986031000001563e-05,1.5709476150000001,0.7860153689999999,0.04,0.04,-9.820610250000009,-0.0016011644969639797,0.00014389301400733799,0.0007481410799973032,-0.008240000577639626,-9.315767599965712e-05
0.17500000000000002,0.00013559674000011788,-0.7850072300000006,4.331846299998819e-05,-2.3557997499999996,8.968139000001302e-05,1.5709459500000003,0.7860162299999999,0.04,0.04,-9.820507500000007,-0.0016631336184172916,5.984376000611486e-05,0.0007790303999977527,-0.008283677976575223,-9.708493999971428e-05
0.1775,0.00013397635600009432,-0.7849982510000005,4.348085089999055e-05,-2.3558049249999997,8.950247000001043e-05,1.5709442850000002,0.786017091,0.04,0.04,-9.820404750000005,-0.0017251027398706028,-2.420549399510737e-05,0.0008099197199982019,-0.008327355375510818,-0.00010101220399977138
0.18,0.00013235597200007075,-0.7849892720000003,4.364323879999291e-05,-2.3558101,8.932355000000782e-05,1.57094262,0.7860179519999999,0.04,0.04,-9.820302000000003,-0.0017870718613239144,-0.00010825474799633052,0.0008408090399986514,-0.008371032774446414,-0.00010493946799982854
0.1825,0.00013073558800004716,-0.7849802930000003,4.3805626699995275e-05,-2.355815275,8.91446300000052e-05,1.570940955,0.786018813,0.04,0.04,-9.820199250000002,-0.0018490409827772263,-0.00019230400199755367,0.000871698359999101,-0.008414710173382009,-0.0001088667319998857
0.185,0.00012882345250004866,-0.7849714300000002,4.399693799999514e-05,-2.35581977,8.893185800000544e-05,1.57093894,0.7860197099999999,0.0399999995,0.04,-9.820065000000003,-0.0019106403458848077,-0.0002773962779979754,0.0009056285299991616,-0.008450929541139952,-0.00011330605099988897
0.1875,0.0001267654412500468,-0.7849626250000002,4.4202710999995324e-05,-2.355823925,8.870216000000522e-05,1.57093675,0.7860206249999999,0.03999999875,0.04,-9.819915000000004,-0.0019720548298195035,-0.00036301006499805336,0.000941079124999194,-0.008483419893308662,-0.00011800139749989324
0.19,0.00012470743000004493,-0.7849538200000002,4.440848399999551e-05,-2.3558280799999998,8.847246200000501e-05,1.57093456,0.7860215399999999,0.039999998,0.04,-9.819765000000002,-0.0020334693137541997,-0.0004486238519981313,0.0009765297199992262,-0.008515910245477371,-0.00012269674399989752
0.1925,0.00012264941875004306,-0.7849450150000002,4.46142569999957e-05,-2.355832235,8.824276400000481e-05,1.57093237,0.786022455,0.03999999725,0.04,-9.819615000000002,-0.0020948837976888955,-0.0005342376389982092,0.0010119803149992584,-0.008548400597646081,-0.00012739209049990178
0.195,0.00012059140750004118,-0.7849362100000001,4.482002999999588e-05,-2.35583639,8.80130660000046e-05,1.57093018,0.78602337,0.0399999965,0.04,-9.819465000000003,-0.0021562982816235913,-0.0006198514259982871,0.0010474309099992908,-0.00858089094981479,-0.00013208743699990607
0.1975,0.0001185333962500393,-0.7849274050000001,4.502580299999607e-05,-2.355840545,8.778336800000438e-05,1.57092799,0.786024285,0.03999999575,0.04,-9.819315000000003,-0.002217712765558287,-0.0007054652129983651,0.001082881504999323,-0.0086133813019835,-0.00013678278349991033
0.2,0.00011647538500003744,-0.7849186000000001,4.5231575999996256e-05,-2.3558447,8.755367000000417e-05,1.5709258,0.7860252,0.039999995,0.04,-9.819165000000003,-0.0022791272494929833,-0.0007910789999984431,0.0011183320999993552,-0.00864587165415221,-0.00014147812999991462
0.2025,0.00011391543475004423,-0.7849099195000002,4.548703964999558e-05,-2.355848195,8.726714600000495e-05,1.57092307,0.786026349,0.03999999395,0.0399999982,-9.819017400000002,-0.0023466596845524933,-0.0008697045599986418,0.0011596727749992857,-0.008668068191036132,-0.00014658532099991178
0.20500000000000002,0.0001113554845000419,-0.7849012390000002,4.574250329999582e-05,-2.35585169,8.69806220000047e-05,1.57092034,0.7860274979999999,0.0399999929,0.0399999964,-9.818869800000002,-0.002414192119612115,-0.0009483301199987133,0.0012010134499993233,-0.008690264727919868,-0.00015169251199991643
0.20750000000000002,0.00010879553425003957,-0.7848925585000002,4.599796694999605e-05,-2.355855185,8.669409800000443e-05,1.57091761,0.786028647,0.03999999185,0.0399999946,-9.818722200000002,-0.0024817245546717363,-0.001026955679998785,0.001242354124999361,-0.008712461264803602,-0.00015679970299992108
0.21,0.00010623558400003726,-0.7848838780000001,4.625343059999628e-05,-2.35585868,8.640757400000417e-05,1.57091488,0.786029796,0.0399999908,0.0399999928,-9.818574600000002,-0.002549256989731357,-0.0011055812399988557,0.0012836947999993983,-0.008734657801687338,-0.00016190689399992567
0.2125,0.00010367563375003493,-0.7848751975000001,4.650889424999651e-05,-2.355862175,8.61210500000039e-05,1.57091215,0.786030945,0.03999998975,0.039999991,-9.818427000000002,-0.0026167894247909784,-0.0011842067999989273,0.0013250354749994358,-0.008756854338571072,-0.00016701408499993032
0.215,0.0001011156835000326,-0.7848665170000001,4.676435789999674e-05,-2.35586567,8.583452600000365e-05,1.57090942,0.7860320940000001,0.0399999887,0.0399999892,-9.818279400000002,-0.0026843218598506,-0.0012628323599989987,0.0013663761499994734,-0.008779050875454808,-0.00017212127599993497
0.2175,9.8366262000037e-05,-0.7848578300000001,4.7038568949996314e-05,-2.35586896,8.552676350000414e-05,1.570906495,0.786033337,0.0399999878,0.0399999876,-9.81814465,-0.002751301554962201,-0.0013393303299991458,0.0014095690499994454,-0.00879837186075726,-0.0001774600039999314
0.22,9.523789800003414e-05,-0.7848491300000001,4.73502747999966e-05,-2.3558718400000003,8.517652400000383e-05,1.57090318,0.786034768,0.0399999872,0.0399999864,-9.8180356,-0.002817175770177701,-0.0014115731199992117,0.0014564663999994882,-0.008811941742896833,-0.00018326180599993668
0.2225,9.21095340000313e-05,-0.7848404300000001,4.7661980649996886e-05,-2.35587472,8.48262845000035e-05,1.570899865,0.786036199,0.0399999866,0.0399999852,-9.817926550000001,-0.002883049985393201,-0.0014838159099992774,0.0015033637499995308,-0.008825511625036404,-0.00018906360799994195
0.225,8.898117000002844e-05,-0.7848317300000001,4.7973686499997165e-05,-2.3558776,8.447604500000318e-05,1.57089655,0.78603763,0.039999986,0.039999984,-9.8178175,-0.002948924200608701,-0.0015560586999993431,0.0015502610999995736,-0.008839081507175977,-0.00019486540999994725
0.2275,8.58528060000256e-05,-0.7848230300000001,4.828539234999745e-05,-2.35588048,8.412580550000286e-05,1.570893235,0.786039061,0.0399999854,0.0399999828,-9.81770845,-0.003014798415824201,-0.001628301489999409,0.0015971584499996161,-0.008852651389315548,-0.00020066721199995253
0.23,8.272444200002274e-05,-0.7848143300000001,4.859709819999774e-05,-2.35588336,8.377556600000254e-05,1.57088992,0.786040492,0.0399999848,0.0399999816,-9.8175994,-0.003080672631039701,-0.0017005442799994748,0.001644055799999659,-0.008866221271455121,-0.0002064690139999578
0.2325,7.95960780000199e-05,-0.78480563,4.8908804049998016e-05,-2.3558862400000002,8.342532650000223e-05,1.5708866049999999,0.786041923,0.039999984200000005,0.039999980399999996,-9.81749035,-0.003146546846255201,-0.0017727870699995405,0.0016909531499997017,-0.008879791153594694,-0.0002122708159999631
0.23500000000000001,7.604317700002052e-05,-0.784796837,4.926247359999796e-05,-2.35588844,8.30273710000023e-05,1.57088291,0.786043585,0.039999983600000004,0.0399999797,-9.8173923,-0.0032170177903021934,-0.0018472962999995877,0.0017415122099997144,-0.008887719549238582,-0.0002186322309999638
0.23750000000000002,7.22780075000171e-05,-0.7847879975000001,4.96371249999983e-05,-2.3558903,8.260555750000192e-05,1.570879025,0.7860453625,0.039999983,0.03999997925,-9.81729975,-0.0032897870987649946,-0.0019229387499996565,0.001793902124999762,-0.008892827201634552,-0.00022527345249996982
0.24,6.851283800001371e-05,-0.784779158,5.001177639999863e-05,-2.3558921600000002,8.218374400000154e-05,1.5708751399999998,0.78604714,0.0399999824,0.039999978799999995,-9.8172072,-0.003362556407227795,-0.0019985811999997244,0.0018462920399998093,-0.008897934854030521,-0.0002319146739999758
0.2425,6.474766850001028e-05,-0.7847703185,5.038642779999898e-05,-2.35589402,8.176193050000115e-05,1.570871255,0.7860489174999999,0.0399999818,0.03999997835,-9.81711465,-0.003435325715690596,-0.0020742236499997936,0.001898681954999857,-0.008903042506426491,-0.00023855589549998183
0.245,6.0982499000006856e-05,-0.784761479,5.076107919999932e-05,-2.35589588,8.134011700000077e-05,1.57086737,0.786050695,0.0399999812,0.0399999779,-9.817022099999999,-0.0035080950241533977,-0.0021498660999998624,0.0019510718699999046,-0.00890815015882246,-0.0002451971169999879
0.2475,5.721732950000343e-05,-0.7847526395,5.113573059999966e-05,-2.35589774,8.091830350000039e-05,1.5708634849999998,0.7860524725,0.0399999806,0.03999997745,-9.81692955,-0.003580864332616199,-0.002225508549999931,0.002003461784999952,-0.00891325781121843,-0.00025183833849999393
0.25,5.345216e-05,-0.7847438,5.1510382e-05,-2.3558996,8.049649e-05,1.5708596,0.78605425,0.03999998,0.039999977,-9.816837,-0.003653633641079,-0.002301151,0.0020558517,-0.0089183654636144,-0.00025847956
0.2525,4.898023084999593e-05,-0.78473471,5.1954873400000405e-05,-2.35590059,7.999541874999954e-05,1.570855055,0.7860564234999999,0.03999997895,0.03999997535,-9.8167206,-0.003732701356057082,-0.0023831507500000747,0.0021137376900000524,-0.00891371713951224,-0.00026571986500000655
0.255,4.4508301699991854e-05,-0.78472562,5.2399364800000806e-05,-2.35590158,7.94943474999991e-05,1.5708505099999999,0.786058597,0.0399999779,0.0399999737,-9.816604199999999,-0.0038117690710351643,-0.002465150500000149,0.0021716236800001054,-0.00890906881541008,-0.0002729601700000132
0.2575,4.003637254998779e-05,-0.78471653,5.284385620000121e-05,-2.35590257,7.899327624999863e-05,1.570845965,0.7860607705,0.03999997685,0.03999997205,-9.816487799999999,-0.003890836786013246,-0.002547150250000224,0.002229509670000158,-0.008904420491307921,-0.00028020047500001977
0.26,3.5564443399983715e-05,-0.78470744,5.3288347600001614e-05,-2.3559035600000002,7.849220499999817e-05,1.57084142,0.786062944,0.0399999758,0.0399999704,-9.8163714,-0.003969904500991328,-0.0026291500000002986,0.002287395660000211,-0.008899772167205763,-0.00028744078000002635
0.2625,3.109251424997964e-05,-0.78469835,5.373283900000202e-05,-2.35590455,7.799113374999772e-05,1.570836875,0.7860651175000001,0.03999997475,0.039999968749999996,-9.816254999999998,-0.00404897221596941,-0.0027111497500003734,0.0023452816500002635,-0.008895123843103604,-0.000294681085000033
0.265,2.6620585099975573e-05,-0.7846892599999999,5.417733040000243e-05,-2.35590554,7.749006249999726e-05,1.57083233,0.7860672910000001,0.039999973700000004,0.0399999671,-9.816138599999999,-0.004128039930947492,-0.0027931495000004477,0.002403167640000316,-0.008890475519001444,-0.00030192139000003956
0.2675,2.1889304449966543e-05,-0.78468007,5.464744530000332e-05,-2.3559063,7.695987274999625e-05,1.570827545,0.7860695980000001,0.03999997285,0.0399999657,-9.81602575,-0.004204817488789955,-0.0028756052500005314,0.0024629090800004044,-0.008882816880941292,-0.0003094509685000517
0.27,1.6639320799961764e-05,-0.78467068,5.5168807200003797e-05,-2.3559066,7.637144599999572e-05,1.57082228,0.786072172,0.0399999724,0.039999964799999996,-9.815919999999998,-0.004277014732361306,-0.0029589730000006073,0.0025263614200004623,-0.008869137614965321,-0.00031755909400005907
0.2725,1.1389337149956984e-05,-0.78466129,5.5690169100004273e-05,-2.3559069,7.578301924999518e-05,1.5708170149999998,0.786074746,0.039999971950000004,0.0399999639,-9.815814249999999,-0.004349211975932657,-0.0030423407500006832,0.00258981376000052,-0.008855458348989348,-0.0003256672195000664
0.275,6.139353499952204e-06,-0.7846519,5.6211531000004744e-05,-2.3559072000000003,7.519459249999464e-05,1.5708117499999998,0.7860773200000001,0.0399999715,0.039999963,-9.815708499999998,-0.004421409219504007,-0.003125708500000759,0.0026532661000005777,-0.008841779083013375,-0.00033377534500007383
0.2775,8.893698499474255e-07,-0.78464251,5.673289290000522e-05,-2.3559075000000003,7.46061657499941e-05,1.5708064849999999,0.786079894,0.03999997105,0.0399999621,-9.815602749999998,-0.004493606463075358,-0.003209076250000835,0.0027167184400006357,-0.008828099817037404,-0.0003418834705000812
0.28,-4.360613800057353e-06,-0.7846331199999999,5.72542548000057e-05,-2.3559078,7.401773899999357e-05,1.5708012199999999,0.786082468,0.039999970600000004,0.0399999612,-9.815496999999999,-0.004565803706646708,-0.003292444000000911,0.002780170780000693,-0.00881442055106143,-0.00034999159600008855
0.28250000000000003,-9.610597450062131e-06,-0.7846237299999999,5.7775616700006174e-05,-2.3559081,7.342931224999302e-05,1.570795955,0.7860850420000001,0.03999997015,0.0399999603,-9.815391249999998,-0.004638000950218059,-0.003375811750000987,0.002843623120000751,-0.008800741285085458,-0.00035809972150009596
0.28500000000000003,-1.542753410002227e-05,-0.784614084,5.835295010000221e-05,-2.35590781,7.277731499999749e-05,1.57079007,0.786087855,0.03999997,0.03999996,-9.81531225,-0.0047195105813446344,-0.0034582539000002992,0.002910935530000253,-0.0087816888466476,-0.0003667067330000323
0.28750000000000003,-2.15279472499446e-05,-0.7846043100000001,5.8958269249994506e-05,-2.355907225,7.209353250000621e-05,1.570783875,0.7860907874999999,0.03999997,0.03999996,-9.815246625,-0.004805676406248568,-0.0035402332499992555,0.0029801779749993713,-0.008759949821978948,-0.00037556318749991954
0.29,-2.762836039986679e-05,-0.7845945360000002,5.956358839998678e-05,-2.35590664,7.140975000001493e-05,1.5707776800000002,0.7860937199999999,0.03999997,0.03999996,-9.815181,-0.004891842231152499,-0.0036222125999982096,0.003049420419998488,-0.008738210797310296,-0.0003844196419998066
0.2925,-3.3728773549789124e-05,-0.7845847620000004,6.0168907549979074e-05,-2.355906055,7.072596750002363e-05,1.570771485,0.7860966524999999,0.03999997,0.03999996,-9.815115375000001,-0.004978008056056431,-0.003704191949997166,0.0031186628649976064,-0.008716471772641642,-0.00039327609649969384
0.295,-3.982918669971145e-05,-0.7845749880000005,6.077422669997137e-05,-2.35590547,7.004218500003235e-05,1.5707652900000002,0.7860995849999999,0.03999997,0.03999996,-9.815049750000002,-0.0050641738809603645,-0.003786171299996122,0.003187905309996725,-0.00869473274797299,-0.0004021325509995811
0.2975,-4.592959984963378e-05,-0.7845652140000006,6.137954584996365e-05,-2.355904885,6.935840250004105e-05,1.5707590950000003,0.7861025174999998,0.03999997,0.03999996,-9.814984125000004,-0.005150339705864297,-0.0038681506499950785,0.003257147754995843,-0.008672993723304335,-0.00041098900549946834
0.3,-5.2030012999556104e-05,-0.7845554400000007,6.198486499995595e-05,-2.3559043,6.867462000004975e-05,1.5707529000000005,0.7861054499999998,0.03999997,0.03999996,-9.814918500000005,-0.00523650553076823,-0.003950129999994035,0.0033263901999949614,-0.008651254698635683,-0.00041984545999935557
0.3025,-5.905407604959112e-05,-0.7845451290000006,6.268137424995945e-05,-2.3559026650000003,6.788733750004584e-05,1.5707458800000005,0.7861088384999998,0.039999970450000005,0.03999996,-9.814824825000004,-0.005311753647397454,-0.004036345589994981,0.003401838069995608,-0.008621363295243876,-0.00042932980999944794
0.305,-6.607813909969334e-05,-0.7845348180000005,6.33778834999696e-05,-2.35590103,6.710005500003437e-05,1.5707388600000003,0.7861122269999998,0.0399999709,0.03999996,-9.814731150000004,-0.005387001764025885,-0.004122561179996236,0.003477285939996706,-0.008591471891851476,-0.00043881415999958594
0.3075,-7.310220214979557e-05,-0.7845245070000003,6.407439274997972e-05,-2.3558993950000002,6.631277250002292e-05,1.57073184,0.7861156154999999,0.03999997135,0.03999996,-9.814637475000003,-0.005462249880654315,-0.00420877676999749,0.003552733809997804,-0.008561580488459076,-0.00044829850999972395
0.31,-8.012626519989778e-05,-0.7845141960000002,6.477090199998987e-05,-2.35589776,6.552549000001147e-05,1.5707248200000001,0.786119004,0.0399999718,0.03999996,-9.814543800000001,-0.005537497997282745,-0.004294992359998745,0.0036281816799989017,-0.008531689085066676,-0.000457782859999862
0.3125,-8.715032825e-05,-0.784503885,6.546741125e-05,-2.355896125,6.47382075e-05,1.5707178,0.7861223925,0.03999997225,0.03999996,-9.814450125,-0.005612746113911175,-0.00438120795,0.00370362955,-0.008501797681674274,-0.00046726721
0.315,-9.417439130010222e-05,-0.7844935739999999,6.616392050001014e-05,-2.35589449,6.395092499998855e-05,1.57071078,0.7861257810000001,0.039999972700000004,0.03999996,-9.814356449999998,-0.005687994230539605,-0.0044674235400012545,0.0037790774200010977,-0.008471906278281875,-0.00047675156000013803
0.3175,-0.00010153096200019699,-0.7844830674999997,6.689324200001952e-05,-2.3558925649999995,6.312633599997793e-05,1.5707034249999998,0.7861293280000001,0.039999973,0.03999996,-9.814263449999999,-0.0057688715402058575,-0.004557680335002415,0.0038565092850019987,-0.008438973128794568,-0.0004865328720002548
0.32,-0.0001095525480002043,-0.7844721699999997,6.768818800002025e-05,-2.3558900599999997,6.22271339999771e-05,1.5706953999999997,0.7861331920000001,0.039999973,0.03999996,-9.814171799999997,-0.005861007235946527,-0.0046560195400025045,0.003937909140002073,-0.008399956487118106,-0.0004969081080002642
0.3225,-0.0001175741340002116,-0.7844612724999996,6.848313400002097e-05,-2.355887555,6.132793199997628e-05,1.5706873749999999,0.7861370560000002,0.039999973,0.03999996,-9.814080149999997,-0.005953142931687195,-0.0047543587450025945,0.004019308995002147,-0.008360939845441645,-0.0005072833440002737
0.325,-0.00012559572000021892,-0.7844503749999997,6.92780800000217e-05,-2.35588505,6.0428729999975465e-05,1.5706793499999998,0.7861409200000001,0.039999973,0.03999996,-9.813988499999997,-0.006045278627427864,-0.004852697950002684,0.004100708850002221,-0.008321923203765185,-0.0005176585800002831
0.3275,-0.0001336173060002262,-0.7844394774999996,7.007302600002243e-05,-2.355882545,5.9529527999974646e-05,1.5706713249999997,0.7861447840000001,0.039999973,0.03999996,-9.813896849999997,-0.006137414323168533,-0.004951037155002773,0.004182108705002296,-0.008282906562088724,-0.0005280338160002926
0.33,-0.00014163889200023353,-0.7844285799999997,7.086797200002314e-05,-2.3558800399999997,5.863032599997383e-05,1.5706632999999999,0.7861486480000002,0.039999973,0.03999996,-9.813805199999997,-0.006229550018909202,-0.005049376360002863,0.004263508560002369,-0.008243889920412263,-0.0005384090520003021
0.3325,-0.00014966047800024082,-0.7844176824999997,7.166291800002386e-05,-2.355877535,5.7731123999973e-05,1.5706552749999998,0.7861525120000001,0.039999973,0.03999996,-9.813713549999997,-0.006321685714649871,-0.005147715565002952,0.004344908415002444,-0.008204873278735803,-0.0005487842880003115
0.335,-0.00015839664000028128,-0.7844063019999996,7.252837440002786e-05,-2.3558744099999998,5.675185329996847e-05,1.5706465099999998,0.7861567260000002,0.0399999734,0.0399999606,-9.813633399999997,-0.0064053654205077975,-0.0052486035300031595,0.004430375510002706,-0.008160750195382496,-0.0005596684300003445
0.3375,-0.00016749009000028954,-0.7843946799999996,7.342908600002868e-05,-2.355870975,5.573254824996754e-05,1.5706373749999998,0.7861611150000002,0.039999974,0.0399999615,-9.813558999999996,-0.0064848171314249295,-0.0053507658750032525,0.004517876225002786,-0.008114073891191113,-0.0005708070250003546
0.34,-0.00017658354000029783,-0.7843830579999996,7.432979760002949e-05,-2.35586754,5.471324319996662e-05,1.5706282399999998,0.7861655040000002,0.0399999746,0.0399999624,-9.813484599999997,-0.006564268842342062,-0.0054529282200033455,0.004605376940002866,-0.00806739758699973,-0.0005819456200003648
0.3425,-0.0001856769900003061,-0.7843714359999996,7.523050920003032e-05,-2.355864105,5.369393814996569e-05,1.5706191049999998,0.7861698930000002,0.0399999752,0.0399999633,-9.813410199999996,-0.006643720553259194,-0.0055550905650034385,0.004692877655002945,-0.008020721282808348,-0.0005930842150003749
0.34500000000000003,-0.00019477044000031438,-0.7843598139999995,7.613122080003114e-05,-2.35586067,5.267463309996476e-05,1.5706099699999998,0.7861742820000002,0.0399999758,0.0399999642,-9.813335799999997,-0.006723172264176327,-0.005657252910003532,0.004780378370003025,-0.007974044978616965,-0.0006042228100003851
0.34750000000000003,-0.00020386389000032266,-0.7843481919999996,7.703193240003195e-05,-2.355857235,5.165532804996383e-05,1.5706008349999998,0.7861786710000002,0.0399999764,0.0399999651,-9.813261399999996,-0.006802623975093459,-0.0057594152550036245,0.004867879085003105,-0.007927368674425584,-0.0006153614050003952
0.35000000000000003,-0.00021295734000037266,-0.7843365699999996,7.793264400003689e-05,-2.3558538,5.063602299995823e-05,1.5705916999999996,0.7861830600000003,0.039999977,0.039999966,-9.813186999999997,-0.006882075686011237,-0.005861577600004066,0.004955379800003402,-0.007880692370233937,-0.0006265000000004331
0.3525,-0.00022319725950038175,-0.7843241769999996,7.894644600003779e-05,-2.355849405,4.9488235449957204e-05,1.5705814699999996,0.7861880160000002,0.039999977,0.039999966,-9.813129999999997,-0.0069792662281578785,-0.005973309060004165,0.005048873075003485,-0.00782678443938291,-0.0006384024400004438
0.355,-0.00023343717900039108,-0.7843117839999996,7.996024800003872e-05,-2.35584501,4.834044789995616e-05,1.5705712399999996,0.7861929720000003,0.039999977,0.039999966,-9.813072999999997,-0.007076456770304522,-0.006085040520004267,0.00514236635000357,-0.00777287650853188,-0.0006503048800004545
0.3575,-0.00024367709850040041,-0.7842993909999995,8.097405000003965e-05,-2.355840615,4.7192660349955115e-05,1.5705610099999996,0.7861979280000002,0.039999977,0.039999966,-9.813015999999998,-0.007173647312451165,-0.006196771980004369,0.005235859625003655,-0.007718968577680852,-0.0006622073200004654
0.36,-0.00025391701800040974,-0.7842869979999995,8.198785200004056e-05,-2.35583622,4.604487279995407e-05,1.5705507799999996,0.7862028840000002,0.039999977,0.039999966,-9.812958999999998,-0.007270837854597809,-0.00630850344000447,0.005329352900003741,-0.007665060646829823,-0.0006741097600004763
0.3625,-0.0002641569375004191,-0.7842746049999995,8.300165400004149e-05,-2.355831825,4.4897085249953026e-05,1.5705405499999996,0.7862078400000002,0.039999977,0.039999966,-9.812901999999998,-0.007368028396744452,-0.006420234900004573,0.005422846175003826,-0.007611152715978793,-0.000686012200000487
0.365,-0.00027439685700042835,-0.7842622119999995,8.401545600004241e-05,-2.35582743,4.374929769995198e-05,1.5705303199999996,0.7862127960000002,0.039999977,0.039999966,-9.812844999999998,-0.007465218938891095,-0.006531966360004675,0.005516339450003911,-0.007557244785127764,-0.0006979146400004979
0.3675,-0.0002850438565004899,-0.7842495224999995,8.506940180004848e-05,-2.35582271,4.255593079994509e-05,1.5705196899999996,0.7862179450000002,0.039999977,0.0399999657,-9.812784399999996,-0.00755758134182887,-0.006648724080005421,0.005611860010004256,-0.007500738557425477,-0.000710028785000536
0.37,-0.0002965050160005003,-0.7842362399999994,8.620363520004952e-05,-2.3558173399999998,4.127140519994392e-05,1.5705082599999995,0.7862234800000002,0.039999977,0.039999964799999996,-9.812716599999996,-0.00764028746635075,-0.006775534320005536,0.005711435140004347,-0.0074390357360216664,-0.0007225663400005474
0.3725,-0.00030796617550051073,-0.7842229574999994,8.733786860005055e-05,-2.35581197,3.9986879599942755e-05,1.5704968299999995,0.7862290150000002,0.039999977,0.0399999639,-9.812648799999996,-0.00772299359087263,-0.006902344560005652,0.005811010270004437,-0.007377332914617855,-0.0007351038950005588
0.375,-0.0003194273350005212,-0.7842096749999994,8.847210200005158e-05,-2.3558065999999998,3.870235399994159e-05,1.5704853999999995,0.7862345500000002,0.039999977,0.039999963,-9.812580999999996,-0.00780569971539451,-0.007029154800005767,0.005910585400004528,-0.007315630093214044,-0.0007476414500005702
0.3775,-0.0003308884945005316,-0.7841963924999994,8.960633540005262e-05,-2.35580123,3.741782839994041e-05,1.5704739699999994,0.7862400850000002,0.039999977,0.0399999621,-9.812513199999996,-0.007888405839916391,-0.007155965040005882,0.006010160530004619,-0.007253927271810233,-0.0007601790050005816
0.38,-0.000342349654000542,-0.7841831099999994,9.074056880005365e-05,-2.3557958599999997,3.6133302799939244e-05,1.5704625399999996,0.7862456200000002,0.039999977,0.0399999612,-9.812445399999996,-0.007971111964438272,-0.007282775280005998,0.0061097356600047096,-0.007192224450406421,-0.000772716560000593
0.3825,-0.0003538108135005525,-0.7841698274999994,9.187480220005468e-05,-2.35579049,3.4848777199938076e-05,1.5704511099999996,0.7862511550000002,0.039999977,0.0399999603,-9.812377599999996,-0.00805381808896015,-0.007409585520006113,0.0062093107900048,-0.00713052162900261,-0.0007852541150006044
0.385,-0.0003661359370006266,-0.7841558899999993,9.309424000006199e-05,-2.3557844099999996,3.3467422399929775e-05,1.5704388099999995,0.7862570900000003,0.039999977,0.03999996,-9.812323299999997,-0.008150064386432449,-0.007540712640006546,0.00631293977000519,-0.007064171880480166,-0.0007983840150006594
0.3875,-0.0003788930425006382,-0.7841416249999993,9.435628000006314e-05,-2.3557779749999996,3.2037652999928475e-05,1.5704260749999994,0.7862632250000003,0.039999977,0.03999996,-9.812275749999998,-0.008253080770378477,-0.007673998200006667,0.006418595675005286,-0.0069954986683989145,-0.0008118100875006716
0.39,-0.00039165014800064983,-0.7841273599999993,9.561832000006428e-05,-2.3557715399999997,3.0607883599927174e-05,1.5704133399999993,0.7862693600000003,0.039999977,0.03999996,-9.812228199999998,-0.008356097154324508,-0.007807283760006789,0.006524251580005382,-0.006926825456317662,-0.0008252361600006838
0.3925,-0.0004044072535006614,-0.7841130949999993,9.688036000006544e-05,-2.3557651049999997,2.917811419992587e-05,1.5704006049999994,0.7862754950000003,0.039999977,0.03999996,-9.812180649999997,-0.008459113538270537,-0.00794056932000691,0.0066299074850054785,-0.006858152244236409,-0.0008386622325006961
0.395,-0.000417164359000673,-0.7840988299999992,9.814240000006658e-05,-2.3557586699999997,2.774834479992457e-05,1.5703878699999994,0.7862816300000003,0.039999977,0.03999996,-9.812133099999997,-0.008562129922216565,-0.008073854880007031,0.006735563390005575,-0.006789479032155156,-0.0008520883050007083
0.3975,-0.00042992146450068465,-0.7840845649999992,9.940444000006772e-05,-2.3557522349999993,2.6318575399923266e-05,1.5703751349999995,0.7862877650000003,0.039999977,0.03999996,-9.812085549999997,-0.008665146306162594,-0.008207140440007152,0.00684121929500567,-0.0067208058200739045,-0.0008655143775007205
0.4,-0.0004426785700007711,-0.7840702999999991,0.00010066648000007625,-2.3557457999999993,2.4888805999913587e-05,1.5703623999999994,0.7862939000000003,0.039999977,0.03999996,-9.812037999999996,-0.008768162690107658,-0.008340426000008335,0.006946875200006103,-0.00665213260799226,-0.0008789404500007741
0.4025,-0.0004568062045007839,-0.7840549954999991,0.00010206364450007752,-2.3557382099999993,2.3305533949912145e-05,1.5703483299999992,0.7863006950000003,0.039999977,0.03999996,-9.811977999999996,-0.00885351253673902,-0.008493160200008475,0.007058685320006204,-0.006576273660171231,-0.000893123452500787
0.405,-0.0004709338390007968,-0.7840396909999992,0.00010346080900007879,-2.355730619999999,2.1722261899910704e-05,1.5703342599999992,0.7863074900000003,0.039999977,0.03999996,-9.811917999999997,-0.008938862383370383,-0.008645894400008614,0.0071704954400063055,-0.006500414712350202,-0.0009073064550007999
0.40750000000000003,-0.00048506147350080964,-0.7840243864999992,0.00010485797350008007,-2.3557230299999996,2.0138989849909262e-05,1.5703201899999992,0.7863142850000004,0.039999977,0.03999996,-9.811857999999996,-0.009024212230001747,-0.008798628600008752,0.007282305560006408,-0.006424555764529173,-0.0009214894575008128
0.41000000000000003,-0.0004991891080008225,-0.7840090819999991,0.00010625513800008134,-2.3557154399999995,1.855571779990782e-05,1.5703061199999993,0.7863210800000004,0.039999977,0.03999996,-9.811797999999996,-0.00910956207663311,-0.008951362800008892,0.007394115680006509,-0.006348696816708143,-0.0009356724600008258
0.41250000000000003,-0.0005133167425008353,-0.7839937774999991,0.0001076523025000826,-2.3557078499999995,1.697244574990638e-05,1.570292049999999,0.7863278750000005,0.039999977,0.03999996,-9.811737999999997,-0.009194911923264472,-0.009104097000009031,0.007505925800006611,-0.006272837868887115,-0.0009498554625008386
0.41500000000000004,-0.0005274443770008483,-0.7839784729999991,0.00010904946700008389,-2.3557002599999994,1.5389173699904938e-05,1.570277979999999,0.7863346700000005,0.039999977,0.03999996,-9.811677999999997,-0.009280261769895834,-0.009256831200009169,0.007617735920006713,-0.006196978921066085,-0.0009640384650008516
0.4175,-0.000542053632000878,-0.7839627964999991,0.0001104941087000868,-2.3556923049999994,1.3752006554901615e-05,1.570263444999999,0.7863416950000004,0.039999977,0.0399999599,-9.811616649999996,-0.009373031184083253,-0.009412260150009066,0.007731579700006648,-0.0061186204431531,-0.0009784286700008347
0.42,-0.0005576261280006797,-0.7839463759999993,0.0001120337048000672,-2.3556836199999998,1.2007049219923832e-05,1.5702479799999993,0.7863491800000003,0.039999977,0.0399999596,-9.811552599999997,-0.009480639733378737,-0.009573078600007019,0.007849490800005146,-0.0060352629050575615,-0.0009932332800006462
0.4225,-0.0005731986240004814,-0.7839299554999994,0.0001135733009000476,-2.3556749349999997,1.026209188494605e-05,1.5702325149999994,0.7863566650000002,0.039999977,0.0399999593,-9.811488549999998,-0.009588248282674221,-0.009733897050004972,0.007967401900003645,-0.005951905366962023,-0.0010080378900004577
0.425,-0.0005887711200002831,-0.7839135349999997,0.000115112897000028,-2.35566625,8.517134549968267e-06,1.5702170499999997,0.7863641500000002,0.039999977,0.039999959,-9.8114245,-0.009695856831969708,-0.009894715500002925,0.008085313000002144,-0.005868547828866484,-0.0010228425000002692
0.4275,-0.000604343616000085,-0.7838971144999999,0.0001166524931000084,-2.355657565,6.772177214990483e-06,1.570201585,0.7863716350000001,0.039999977,0.039999958700000005,-9.81136045,-0.009803465381265192,-0.010055533950000877,0.008203224100000643,-0.0057851902907709455,-0.0010376471100000807
0.43,-0.0006199161119998867,-0.783880694,0.0001181920891999888,-2.3556488800000004,5.0272198800127004e-06,1.5701861200000002,0.7863791199999999,0.039999977,0.0399999584,-9.8112964,-0.009911073930560677,-0.010216352399998829,0.008321135199999143,-0.005701832752675407,-0.0010524517199998922
0.4325,-0.0006354886079996884,-0.7838642735000003,0.00011973168529996919,-2.3556401950000003,3.282262545034917e-06,1.5701706550000003,0.7863866049999998,0.039999977,0.0399999581,-9.811232350000001,-0.010018682479856163,-0.010377170849996783,0.008439046299997642,-0.005618475214579868,-0.0010672563299997037
0.435,-0.0006520735959999067,-0.783846966,0.00012137109959999079,-2.35563072,1.423901440010452e-06,1.5701541800000003,0.7863945899999999,0.039999977299999996,0.039999958200000005,-9.8111774,-0.010114968754350567,-0.010551122549999015,0.008561009299999324,-0.0055304197594528235,-0.0010826435799999143
0.4375,-0.0006691648300003886,-0.7838292149999996,0.0001230604230000384,-2.3556208499999998,-4.911615500435436e-07,1.5701371999999998,0.7864028250000001,0.03999997775,0.0399999585,-9.811126999999999,-0.010205593891443812,-0.010731640875004105,0.00868499825000282,-0.00544001534580977,-0.0010983221500003564
0.44,-0.0006862560640008705,-0.783811463999999,0.00012474974640008603,-2.3556109799999994,-2.406224540097539e-06,1.5701202199999993,0.7864110600000004,0.0399999782,0.0399999588,-9.811076599999998,-0.010296219028537057,-0.010912159200009194,0.008808987200006316,-0.005349610932166716,-0.0011140007200007985
0.4425,-0.0007033472980013524,-0.7837937129999986,0.00012643906980013366,-2.3556011099999994,-4.321287530151535e-06,1.5701032399999986,0.7864192950000006,0.03999997865,0.0399999591,-9.811026199999995,-0.010386844165630302,-0.011092677525014284,0.00893297615000981,-0.005259206518523661,-0.0011296792900012407
0.445,-0.0007204385320018343,-0.7837759619999981,0.0001281283932001813,-2.355591239999999,-6.23635052020553e-06,1.570086259999998,0.7864275300000009,0.0399999791,0.0399999594,-9.810975799999994,-0.010477469302723547,-0.011273195850019374,0.009056965100013307,-0.005168802104880608,-0.0011453578600016828
0.4475,-0.0007375297660023162,-0.7837582109999975,0.00012981771660022892,-2.3555813699999986,-8.151413510259525e-06,1.5700692799999976,0.7864357650000011,0.039999979549999995,0.039999959700000004,-9.810925399999993,-0.010568094439816792,-0.011453714175024464,0.009180954050016803,-0.005078397691237553,-0.0011610364300021247
0.45,-0.0007546210000030588,-0.7837404599999969,0.00013150704000030225,-2.355571499999998,-1.0066476500342723e-05,1.5700522999999968,0.7864440000000015,0.03999998,0.03999996,-9.810874999999992,-0.01065871957691377,-0.011634232500032218,0.009304943000021257,-0.0049879932775934955,-0.0011767150000026867
0.4525,-0.0007733044105028209,-0.7837215149999971,0.00013335329850027876,-2.355560474999998,-1.2159909275316069e-05,1.5700337299999971,0.7864529850000014,0.03999998,0.03999996,-9.810836749999993,-0.010772155085595652,-0.011831033475029713,0.009434786600019604,-0.004891456593744729,-0.0011931263350024779
0.455,-0.000791987821002583,-0.7837025699999973,0.00013519955700025524,-2.3555494499999985,-1.4253342050289416e-05,1.5700151599999974,0.7864619700000013,0.03999998,0.03999996,-9.810798499999994,-0.010885590594277532,-0.012027834450027208,0.009564630200017951,-0.004794919909895964,-0.0012095376700022688
0.4575,-0.0008106712315023451,-0.7836836249999976,0.00013704581550023174,-2.3555384249999984,-1.6346774825262764e-05,1.5699965899999977,0.7864709550000012,0.03999998,0.03999996,-9.810760249999994,-0.010999026102959414,-0.012224635425024702,0.009694473800016297,-0.004698383226047198,-0.00122594900500206
0.46,-0.0008293546420021072,-0.7836646799999978,0.00013889207400020825,-2.355527399999999,-1.8440207600236108e-05,1.569978019999998,0.7864799400000011,0.03999998,0.03999996,-9.810721999999995,-0.011112461611641294,-0.012421436400022197,0.009824317400014644,-0.004601846542198432,-0.001242360340001851
0.4625,-0.0008480380525018693,-0.783645734999998,0.00014073833250018473,-2.3555163749999988,-2.053364037520945e-05,1.5699594499999983,0.7864889250000009,0.03999998,0.03999996,-9.810683749999995,-0.011225897120323175,-0.01261823737501969,0.009954161000012991,-0.004505309858349666,-0.001258771675001642
0.465,-0.0008667214630016315,-0.7836267899999982,0.00014258459100016123,-2.3555053499999987,-2.2627073150182802e-05,1.5699408799999983,0.7864979100000008,0.03999998,0.03999996,-9.810645499999996,-0.011339332629005055,-0.012815038350017184,0.010084004600011338,-0.0044087731745009,-0.001275183010001433
0.4675,-0.0008859599165016104,-0.7836073649999984,0.0001444855550001591,-2.355493914999999,-2.47825550501804e-05,1.5699217649999984,0.7865071600000008,0.0399999802,0.03999996,-9.810602899999996,-0.0114458171185179,-0.013016772400016745,0.010215853200010751,-0.004309900104991271,-0.0012917927300013458
0.47000000000000003,-0.0009063084560016289,-0.7835869799999984,0.00014649593000016093,-2.355481659999999,-2.7062135200182473e-05,1.5699015599999984,0.7865169400000008,0.0399999808,0.03999996,-9.810551599999997,-0.011538399569697612,-0.013228372600016938,0.010351711800010875,-0.004206354264161572,-0.0013087992200013613
0.47250000000000003,-0.0009266569955016474,-0.7835665949999983,0.00014850630500016276,-2.3554694049999987,-2.934171535018455e-05,1.5698813549999984,0.7865267200000008,0.0399999814,0.03999996,-9.810500299999996,-0.01163098202087732,-0.01343997280001713,0.010487570400010998,-0.0041028084233318725,-0.001325805710001377
0.47500000000000003,-0.0009470055350016659,-0.7835462099999982,0.00015051668000016458,-2.355457149999999,-3.1621295500186624e-05,1.5698611499999984,0.7865365000000009,0.039999982,0.03999996,-9.810448999999997,-0.01172356447205703,-0.013651573000017323,0.010623429000011123,-0.003999262582502173,-0.0013428122000013923
0.47750000000000004,-0.0009673540745016845,-0.7835258249999982,0.0001525270550001664,-2.355444894999999,-3.39008756501887e-05,1.5698409449999984,0.7865462800000008,0.0399999826,0.03999996,-9.810397699999996,-0.011816146923236738,-0.013863173200017516,0.010759287600011247,-0.003895716741672474,-0.0013598186900014078
0.48,-0.0009877026140017026,-0.7835054399999982,0.0001545374300001682,-2.3554326399999987,-3.6180455800190725e-05,1.5698207399999984,0.7865560600000009,0.0399999832,0.03999996,-9.810346399999997,-0.011908729374416446,-0.014074773400017703,0.010895146200011366,-0.0037921709008427768,-0.001376825180001423
0.4825,-0.0010080511535017211,-0.7834850549999982,0.00015654780500017003,-2.355420384999999,-3.84600359501928e-05,1.5698005349999984,0.7865658400000008,0.0399999838,0.03999996,-9.810295099999996,-0.012001311825596155,-0.014286373600017896,0.011031004800011492,-0.0036886250600130775,-0.0013938316700014383
0.485,-0.001029557850001888,-0.7834636939999982,0.00015867231300018648,-2.355407269999999,-4.086949040021153e-05,1.5697791999999982,0.786576180000001,0.039999984,0.03999996,-9.810254899999997,-0.012104221526542579,-0.014513228000020046,0.011170808100012121,-0.003581092413505447,-0.0014114957500015383
0.4875,-0.0010516436250019082,-0.7834418449999981,0.0001608538875001885,-2.3553937249999986,-4.3343882000213785e-05,1.569757299999998,0.7865868000000009,0.039999984,0.03999996,-9.810220249999997,-0.012212294852370386,-0.014747709500020259,0.01131258375001225,-0.0034715663641596123,-0.0014294886250015547
0.49,-0.0010737294000019283,-0.7834199959999981,0.00016303546200019048,-2.3553801799999987,-4.581827360021604e-05,1.5697353999999981,0.7865974200000009,0.039999984,0.03999996,-9.810185599999997,-0.012320368178198196,-0.014982191000020472,0.011454359400012378,-0.0033620403148137776,-0.001447481500001571
0.4925,-0.0010958151750019485,-0.7833981469999981,0.00016521703650019246,-2.355366634999999,-4.829266520021829e-05,1.569713499999998,0.786608040000001,0.039999984,0.03999996,-9.810150949999997,-0.012428441504026003,-0.015216672500020687,0.011596135050012507,-0.003252514265467943,-0.0014654743750015873
0.495,-0.0011179009500019686,-0.7833762979999981,0.00016739861100019445,-2.3553530899999986,-5.076705680022054e-05,1.569691599999998,0.7866186600000009,0.039999984,0.03999996,-9.810116299999997,-0.012536514829853813,-0.0154511540000209,0.011737910700012637,-0.0031429882161221083,-0.0014834672500016037
0.4975,-0.0011399867250019885,-0.7833544489999981,0.00016958018550019643,-2.3553395449999988,-5.3241448400222796e-05,1.5696696999999982,0.7866292800000009,0.039999984,0.03999996,-9.810081649999997,-0.012644588155681622,-0.015685635500021115,0.011879686350012766,-0.0030334621667762736,-0.0015014601250016202
0.5,-0.0011620725000021732,-0.7833325999999979,0.00017176176000021463,-2.3553259999999985,-5.571584000024342e-05,1.5696477999999978,0.786639900000001,0.039999984,0.03999996,-9.810046999999997,-0.012752661481510507,-0.015920117000022573,0.01202146200001342,-0.0029239361174298525,-0.0015194530000016626
0.5025000000000001,-0.0011859671100021955,-0.7833092539999978,0.00017412158400021685,-2.3553110749999986,-5.839221050024591e-05,1.5696241299999978,0.786651405000001,0.0399999846,0.03999996,-9.810004849999997,-0.0128725837450584,-0.016168317950022805,0.012169008300013558,-0.0028079646639418694,-0.0015377336500016798
0.505,-0.0012098617200022167,-0.7832859079999979,0.00017648140800021893,-2.3552961499999987,-6.106858100024828e-05,1.5696004599999978,0.786662910000001,0.039999985200000004,0.03999996,-9.809962699999996,-0.012992506008606287,-0.016416518900023026,0.012316554600013688,-0.0026919932104538915,-0.0015560143000016959
0.5075000000000001,-0.001233756330002239,-0.7832625619999979,0.00017884123200022112,-2.3552812249999984,-6.374495150025079e-05,1.5695767899999977,0.786674415000001,0.0399999858,0.03999996,-9.809920549999996,-0.013112428272154178,-0.016664719850023258,0.012464100900013826,-0.0025760217569659083,-0.0015742949500017129
0.51,-0.0012576509400022602,-0.7832392159999978,0.00018120105600022323,-2.3552662999999985,-6.642132200025316e-05,1.569553119999998,0.786685920000001,0.0399999864,0.03999996,-9.809878399999997,-0.013232350535702065,-0.01691292080002348,0.012611647200013957,-0.00246005030347793,-0.0015925756000017292
0.5125,-0.0012815455500022816,-0.7832158699999978,0.00018356088000022532,-2.3552513749999986,-6.909769250025554e-05,1.5695294499999979,0.7866974250000011,0.039999987,0.03999996,-9.809836249999996,-0.013352272799249951,-0.017161121750023697,0.012759193500014088,-0.002344078849989952,-0.0016108562500017454
0.515,-0.0013054401600023039,-0.7831925239999978,0.00018592070400022753,-2.3552364499999987,-7.177406300025804e-05,1.5695057799999979,0.7867089300000011,0.0399999876,0.03999996,-9.809794099999996,-0.013472195062797843,-0.01740932270002393,0.012906739800014225,-0.002228107396501969,-0.0016291369000017626
0.5175,-0.0013299612500025078,-0.7831686389999976,0.00018834227250024763,-2.3552210899999984,-7.452073500028093e-05,1.5694814749999975,0.7867207300000012,0.039999988,0.0399999605,-9.809750499999994,-0.01358698378318069,-0.017666210000026685,0.013056217150014919,-0.002109936537441904,-0.0016479179000019248
0.52,-0.0013557353000025318,-0.7831436759999976,0.00019088733000025002,-2.3552048599999984,-7.740801000028362e-05,1.5694558999999975,0.7867331200000012,0.039999988,0.039999962,-9.809703999999995,-0.013691505417237949,-0.01794047000002694,0.013209556600015063,-0.0019873668672395796,-0.0016676996000019432
0.5225,-0.0013815093500025547,-0.7831187129999976,0.00019343238750025226,-2.3551886299999985,-8.029528500028619e-05,1.5694303249999975,0.7867455100000013,0.039999988,0.0399999635,-9.809657499999995,-0.013796027051295201,-0.018214730000027185,0.0133628960500152,-0.0018647971970372607,-0.0016874813000019608
0.525,-0.0014072834000025789,-0.7830937499999976,0.00019597744500025465,-2.3551723999999985,-8.318256000028887e-05,1.5694047499999975,0.7867579000000012,0.039999988,0.039999965000000005,-9.809610999999995,-0.013900548685352457,-0.01848899000002744,0.013516235500015343,-0.0017422275268349364,-0.0017072630000019792
0.5275,-0.0014330574500026015,-0.7830687869999975,0.00019852250250025692,-2.3551561699999985,-8.606983500029144e-05,1.5693791749999975,0.7867702900000013,0.039999988,0.039999966500000005,-9.809564499999995,-0.014005070319409712,-0.018763250000027685,0.013669574950015478,-0.0016196578566326177,-0.0017270447000019968
0.53,-0.0014588315000026255,-0.7830438239999975,0.00020106756000025928,-2.355139939999998,-8.895711000029413e-05,1.5693535999999975,0.7867826800000013,0.039999988,0.039999968000000004,-9.809517999999995,-0.014109591953466968,-0.01903751000002794,0.013822914400015622,-0.0014970881864302932,-0.0017468264000020152
0.5325,-0.0014846055500026484,-0.7830188609999975,0.00020361261750026155,-2.355123709999998,-9.18443850002967e-05,1.5693280249999975,0.7867950700000013,0.039999988,0.0399999695,-9.809471499999995,-0.01421411358752422,-0.019311770000028185,0.013976253850015758,-0.0013745185162279744,-0.0017666081000020327
0.535,-0.0015116790900028747,-0.7829927719999973,0.00020628572100028382,-2.3551065199999983,-9.487666500032194e-05,1.569301159999997,0.7868080800000015,0.0399999882,0.039999969,-9.809437499999998,-0.014330057986093176,-0.01959394700002967,0.014133386750016491,-0.0012483180936990954,-0.0017861264800020102
0.5375,-0.0015394023750028992,-0.7829661199999972,0.00020902284750028626,-2.3550888499999982,-9.79814475003247e-05,1.569273649999997,0.7868214000000014,0.0399999885,0.039999967500000004,-9.809409749999999,-0.014451713766915324,-0.019880082500029927,0.014292416375016633,-0.0011203022950077867,-0.0018055132000020274
0.54,-0.001567125660002925,-0.7829394679999971,0.00021175997400028882,-2.355071179999998,-0.0001010862300003276,1.569246139999997,0.7868347200000014,0.0399999888,0.039999966000000005,-9.809381999999998,-0.014573369547737478,-0.020166218000030194,0.01445144600001678,-0.0009922864963164723,-0.0018248999200020455
0.5425,-0.0015948489450029499,-0.7829128159999972,0.00021449710050029124,-2.355053509999998,-0.00010419101250033037,1.569218629999997,0.7868480400000014,0.0399999891,0.0399999645,-9.809354249999998,-0.014695025328559624,-0.020452353500030447,0.014610475625016921,-0.0008642706976251637,-0.0018442866400020627
0.545,-0.0016225722300029755,-0.7828861639999971,0.0002172342270002938,-2.355035839999998,-0.00010729579500033326,1.569191119999997,0.7868613600000015,0.0399999894,0.039999963,-9.809326499999997,-0.014816681109381778,-0.020738489000030714,0.01476950525001707,-0.0007362548989338492,-0.0018636733600020808
0.5475,-0.0016502955150030003,-0.782859511999997,0.0002199713535002962,-2.355018169999998,-0.00011040057750033602,1.569163609999997,0.7868746800000015,0.0399999897,0.0399999615,-9.809298749999998,-0.014938336890203926,-0.021024624500030967,0.01492853487501721,-0.0006082391002425405,-0.001883060080002098
0.55,-0.0016780188000032465,-0.7828328599999969,0.00022270848000032048,-2.355000499999998,-0.00011350536000036362,1.5691360999999966,0.7868880000000016,0.03999999,0.03999996,-9.809270999999997,-0.015059992671025127,-0.021310760000035317,0.015087564500017974,-0.0004802233015505628,-0.0019024468000023444
0.5525,-0.0017077602000028671,-0.7828044469999972,0.00022564448850028303,-2.354981614999998,-0.00011683641300032112,1.569106579999997,0.7869022950000014,0.03999999075,0.0399999642,-9.809230499999996,-0.015172920655469971,-0.02163428150003119,0.015252231875015874,-0.00034613045280432804,-0.0019239239950020704
0.555,-0.0017375016000024891,-0.7827760339999976,0.0002285804970002457,-2.3549627299999987,-0.00012016746600027879,1.5690770599999975,0.7869165900000012,0.0399999915,0.0399999684,-9.809189999999997,-0.015285848639914822,-0.021957803000027077,0.01541689925001378,-0.0002120376040580874,-0.0019454011900017975
0.5575,-0.0017672430000021098,-0.782747620999998,0.00023151650550020829,-2.354943844999999,-0.0001234985190002363,1.569047539999998,0.7869308850000011,0.03999999225,0.0399999726,-9.809149499999998,-0.015398776624359666,-0.022281324500022952,0.015581566625011681,-7.794475531185265e-05,-0.0019668783850015233
0.56,-0.0017969844000017318,-0.7827192079999983,0.00023445251400017097,-2.354924959999999,-0.00012682957200019397,1.5690180199999983,0.7869451800000009,0.039999993000000005,0.0399999768,-9.809108999999998,-0.015511704608804515,-0.02260484600001884,0.015746234000009587,5.614809343438805e-05,-0.0019883555800012504
0.5625,-0.0018267258000013525,-0.7826907949999987,0.00023738852250013352,-2.3549060749999993,-0.00013016062500015147,1.5689884999999986,0.7869594750000007,0.039999993750000004,0.039999981000000004,-9.809068499999999,-0.01562463259324936,-0.022928367500014712,0.01591090137500749,0.00019024094218062274,-0.0020098327750009766
0.5650000000000001,-0.0018564672000009744,-0.782662381999999,0.0002403245310000962,-2.3548871899999995,-0.00013349167800010914,1.568958979999999,0.7869737700000006,0.039999994500000004,0.0399999852,-9.809028,-0.01573756057769421,-0.0232518890000106,0.016075568750005393,0.0003243337909268635,-0.0020313099700007037
0.5675,-0.001886904000001071,-0.782633360499999,0.00024332905150010572,-2.3548677449999995,-0.0001369002305001199,1.568928774999999,0.7869884025000006,0.039999994750000004,0.03999998835,-9.808998375,-0.015856221131984708,-0.023578585650011207,0.01624209005000573,0.00045998855930979036,-0.002052740355000718
0.5700000000000001,-0.001918731600001969,-0.7826031219999982,0.0002464705960001944,-2.354847179999999,-0.00014046378200022048,1.568897199999998,0.787003710000001,0.039999994000000004,0.0399999894,-9.8089905,-0.01598634682596527,-0.023911632600020605,0.01641231920001053,0.0005987671669657663,-0.00207407712000132
0.5725,-0.0019505592000028658,-0.7825728834999972,0.00024961214050028287,-2.354826614999998,-0.00014402733350032086,1.568865624999997,0.7870190175000015,0.039999993250000004,0.03999999045,-9.808982624999999,-0.016116472519945826,-0.02424467955002999,0.016582548350015328,0.0007375457746217362,-0.002095413885001921
0.5750000000000001,-0.001982386800003764,-0.7825426449999964,0.0002527536850003715,-2.354806049999998,-0.00014759088500042143,1.5688340499999962,0.7870343250000018,0.0399999925,0.039999991500000005,-9.808974749999999,-0.016246598213926388,-0.024577726500039386,0.016752777500020133,0.0008763243822777122,-0.0021167506500025233
0.5775,-0.0020142144000046603,-0.7825124064999955,0.00025589522950046005,-2.354785484999997,-0.0001511544365005218,1.5688024749999954,0.7870496325000023,0.03999999175,0.03999999255,-9.808966875,-0.016376723907906943,-0.02491077345004877,0.016923006650024927,0.001015102989933682,-0.002138087415003124
0.58,-0.0020460420000055573,-0.7824821679999947,0.0002590367740005486,-2.3547649199999965,-0.0001547179880006222,1.5687708999999945,0.7870649400000027,0.039999991,0.039999993600000006,-9.808958999999998,-0.0165068496018875,-0.025243820400058153,0.017093235800029725,0.0011538815975896519,-0.0021594241800037255
0.5825,-0.002077869600006455,-0.7824519294999939,0.0002621783185006372,-2.354744354999996,-0.00015828153950072277,1.5687393249999935,0.7870802475000032,0.03999999025,0.03999999465,-9.808951124999998,-0.01663697529586806,-0.02557686735006755,0.017263464950034526,0.0012926602052456277,-0.0021807609450043277
0.585,-0.002111132520006922,-0.7824204249999934,0.0002654612930006832,-2.3547227499999956,-0.000162005630000775,1.568706329999993,0.7870962400000033,0.0399999905,0.039999995,-9.808915049999989,-0.01675146203490282,-0.02593666770007602,0.017437278400035772,0.0014355902443934695,-0.0022023531300044245
0.5875,-0.00214511310000649,-0.7823882874999939,0.0002688149825006406,-2.354700624999996,-0.00016580999000072663,1.5686726249999936,0.7871125750000031,0.03999999125,0.039999995,-9.80886487499999,-0.01685812929647215,-0.02630984475007128,0.01761288400003354,0.0015805959992852717,-0.0022240730250041485
0.59,-0.0021790936800060567,-0.7823561499999943,0.0002721686720005978,-2.3546784999999963,-0.0001696143500006781,1.568638919999994,0.787128910000003,0.039999992,0.039999995,-9.80881469999999,-0.016964796558041475,-0.026683021800066518,0.017788489600031304,0.0017256017541770672,-0.0022457929200038716
0.5925,-0.002213074260005625,-0.7823240124999947,0.0002755223615005552,-2.3546563749999962,-0.00017341871000062977,1.5686052149999943,0.7871452450000027,0.039999992750000005,0.039999995,-9.808764524999992,-0.017071463819610805,-0.027056198850061774,0.01796409520002907,0.0018706075090688691,-0.0022675128150035956
0.595,-0.0022470548400051918,-0.7822918749999951,0.0002788760510005124,-2.3546342499999966,-0.00017722307000058124,1.5685715099999948,0.7871615800000025,0.039999993500000004,0.039999995,-9.808714349999992,-0.017178131081180128,-0.027429375900057014,0.01813970080002683,0.002015613263960665,-0.0022892327100033187
0.5975,-0.00228103542000476,-0.7822597374999956,0.0002822297405004698,-2.354612124999997,-0.0001810274300005329,1.5685378049999952,0.7871779150000022,0.039999994250000004,0.039999995,-9.808664174999993,-0.017284798342749458,-0.027802552950052274,0.0183153064000246,0.002160619018852467,-0.0023109526050030427
0.6,-0.0023150160000046088,-0.7822275999999957,0.00028558343000045485,-2.354589999999997,-0.00018483179000051606,1.5685040999999953,0.7871942500000022,0.039999995,0.039999995,-9.808613999999995,-0.017391465604323437,-0.028175730000048877,0.018490912000023053,0.0023056247737450147,-0.0023326725000028595
0.6025,-0.002351215200004643,-0.7821935049999956,0.00028915574450045817,-2.354566524999997,-0.00018888495350051984,1.5684682349999954,0.7872116485000022,0.039999995,0.039999995,-9.808570799999995,-0.01753468131648345,-0.028559637000049237,0.018671962300023222,0.002456539438591065,-0.0023551288050028805
0.605,-0.002387414400004675,-0.7821594099999956,0.00029272805900046133,-2.354543049999997,-0.00019293811700052345,1.5684323699999954,0.7872290470000023,0.039999995,0.039999995,-9.808527599999994,-0.017677897028643457,-0.028943544000049577,0.018853012600023384,0.0026074541034371095,-0.0023775851100029002
0.6075,-0.0024236136000047085,-0.7821253149999956,0.00029630037350046465,-2.3545195749999968,-0.00019699128050052722,1.5683965049999953,0.7872464455000022,0.039999995,0.039999995,-9.808484399999994,-0.01782111274080347,-0.029327451000049937,0.01903406290002355,0.00275836876828316,-0.0024000414150029212
0.61,-0.002459812800004741,-0.7820912199999955,0.0002998726880004678,-2.354496099999997,-0.00020104444400053084,1.5683606399999952,0.7872638440000023,0.039999995,0.039999995,-9.808441199999994,-0.017964328452963477,-0.029711358000050276,0.019215113200023712,0.002909283433129204,-0.002422497720002941
0.6125,-0.0024960120000047745,-0.7820571249999955,0.00030344500250047114,-2.354472624999997,-0.0002050976075005346,1.5683247749999953,0.7872812425000023,0.039999995,0.039999995,-9.808397999999993,-0.01810754416512349,-0.030095265000050636,0.01939616350002388,0.0030601980979752547,-0.002444954025002962
0.615,-0.0025322112000048065,-0.7820230299999955,0.00030701731700047435,-2.3544491499999967,-0.0002091507710005382,1.5682889099999953,0.7872986410000024,0.039999995,0.039999995,-9.808354799999993,-0.018250759877283498,-0.030479172000050975,0.01957721380002404,0.0032111127628212987,-0.002467410330002982
0.6175,-0.0025691716200051456,-0.7819882499999952,0.00031066464200050776,-2.3544250849999964,-0.00021328914900057617,1.568252284999995,0.7873164060000025,0.03999999525,0.039999995,-9.80832825,-0.0183839294128271,-0.03087655365005674,0.019760018700024914,0.003363442234715617,-0.0024900194550030643
0.62,-0.0026076544800051797,-0.7819520999999952,0.00031446198800051114,-2.3543998399999966,-0.00021759795600057998,1.568214139999995,0.7873349040000025,0.039999996,0.039999995,-9.808335,-0.01849700659514994,-0.031300884600057116,0.019946332800025078,0.003518601320704765,-0.0025129342200030844
0.6225,-0.0026461373400052156,-0.7819159499999951,0.0003182593340005147,-2.3543745949999964,-0.000221906763000584,1.568175994999995,0.7873534020000025,0.03999999675,0.039999995,-9.80834175,-0.018610083777472787,-0.031725215550057514,0.020132646900025253,0.0036737604066939197,-0.002535848985003106
0.625,-0.00268462020000525,-0.7818797999999951,0.00032205668000051806,-2.3543493499999966,-0.00022621557000058781,1.568137849999995,0.7873719000000026,0.0399999975,0.039999995,-9.808348500000001,-0.018723160959795628,-0.032149546500057885,0.020318961000025417,0.003828919492683067,-0.0025587637500031264
0.6275000000000001,-0.002723103060005286,-0.781843649999995,0.0003258540260005216,-2.3543241049999963,-0.00023052437700059184,1.5680997049999947,0.7873903980000025,0.03999999825,0.039999995,-9.80835525,-0.01883623814211847,-0.03257387745005828,0.020505275100025592,0.0039840785786722215,-0.0025816785150031478
0.63,-0.00276158592000532,-0.781807499999995,0.000329651372000525,-2.3542988599999966,-0.00023483318400059568,1.5680615599999947,0.7874088960000025,0.039999999,0.039999995,-9.808362,-0.018949315324441312,-0.03299820840005866,0.020691589200025756,0.00413923766466137,-0.002604593280003168
0.6325000000000001,-0.002800068780005356,-0.781771349999995,0.0003334487180005285,-2.3542736149999963,-0.00023914199100059968,1.5680234149999948,0.7874273940000025,0.03999999975,0.039999995,-9.80836875,-0.01906239250676416,-0.03342253935005905,0.02087790330002593,0.004294396750650524,-0.0026275080450031893
0.635,-0.002840116420005719,-0.7817338099999946,0.00033740023500056427,-2.3542473699999964,-0.00024362613400064035,1.5679836999999943,0.7874466380000027,0.04,0.039999994500000004,-9.808334299999991,-0.01919974684717363,-0.03385637090006143,0.021067684500026825,0.004453510139160053,-0.00265080527000329
0.6375000000000001,-0.002880946450005757,-0.7816955749999946,0.00034142883750056804,-2.3542206249999964,-0.0002481979450006446,1.5679431999999944,0.7874662550000028,0.04,0.039999993750000004,-9.808279249999991,-0.019349239766618804,-0.034294952750061836,0.021259199250027002,0.004614600678928538,-0.002674293725003312
0.64,-0.0029217764800057934,-0.7816573399999946,0.0003454574400005716,-2.354193879999996,-0.00025276975600064866,1.5679026999999943,0.7874858720000028,0.04,0.039999993000000005,-9.808224199999993,-0.01949873268606397,-0.03473353460006223,0.021450714000027172,0.0047756912186970165,-0.0026977821800033327
0.6425,-0.0029626065100058297,-0.7816191049999945,0.0003494860425005752,-2.354167134999996,-0.0002573415670006527,1.5678621999999942,0.7875054890000027,0.04,0.03999999225,-9.808169149999992,-0.019648225605509138,-0.03517211645006262,0.021642228750027342,0.004936781758465495,-0.0027212706350033537
0.645,-0.0030034365400058677,-0.7815808699999945,0.00035351464500057897,-2.354140389999996,-0.000261913378000657,1.5678216999999943,0.7875251060000028,0.04,0.0399999915,-9.808114099999992,-0.01979771852495431,-0.035610698300063026,0.021833743500027522,0.00509787229823398,-0.0027447590900033757
0.6475,-0.003044266570005904,-0.7815426349999944,0.0003575432475005825,-2.354113644999996,-0.00026648518900066105,1.5677811999999942,0.7875447230000028,0.04,0.03999999075,-9.808059049999992,-0.019947211444399482,-0.036049280150063416,0.022025258250027692,0.005258962838002458,-0.0027682475450033963
0.65,-0.0030850966000062928,-0.7815043999999941,0.0003615718500006208,-2.354086899999996,-0.00027105700000070457,1.5677406999999939,0.787564340000003,0.04,0.03999999,-9.808003999999999,-0.02009670436384021,-0.03648786200006996,0.022216773000028618,0.005420053377771574,-0.0027917360000035015
0.6525,-0.003128336110006331,-0.781464004999994,0.00036583787250062463,-2.354058354999996,-0.00027589838500070884,1.5676978299999937,0.787585118000003,0.03999999925,0.039999987449999996,-9.807994699999998,-0.020215656980889535,-0.03696859970007039,0.022413430350028792,0.005585474707210411,-0.0028157968250035227
0.655,-0.003171575620006371,-0.781423609999994,0.0003701038950006286,-2.3540298099999957,-0.0002807397700007134,1.5676549599999938,0.7876058960000031,0.0399999985,0.0399999849,-9.8079854,-0.02033460959793887,-0.03744933740007084,0.022610087700028977,0.005750896036649255,-0.0028398576500035452
0.6575,-0.00321481513000641,-0.781383214999994,0.0003743699175006324,-2.354001264999996,-0.0002855811550007177,1.5676120899999937,0.7876266740000031,0.03999999775,0.03999998235,-9.8079761,-0.020453562214988192,-0.037930075100071264,0.02280674505002915,0.005916317366088092,-0.0028639184750035664
0.66,-0.00325805464000645,-0.781342819999994,0.00037863594000063635,-2.353972719999996,-0.0002904225400007222,1.5675692199999935,0.7876474520000031,0.039999997,0.0399999798,-9.807966799999999,-0.020572514832037526,-0.03841081280007171,0.023003402400029335,0.006081738695526936,-0.002887979300003589
0.6625,-0.0033012941500064888,-0.7813024249999939,0.00038290196250064017,-2.3539441749999956,-0.0002952639250007265,1.5675263499999936,0.7876682300000031,0.03999999625,0.03999997725,-9.807957499999999,-0.02069146744908685,-0.03889155050007213,0.02320005975002951,0.006247160024965773,-0.0029120401250036106
0.665,-0.003344533660006529,-0.7812620299999938,0.00038716798500064415,-2.353915629999996,-0.000300105310000731,1.5674834799999935,0.7876890080000032,0.0399999955,0.0399999747,-9.807948199999998,-0.020810420066136183,-0.03937228820007258,0.023396717100029694,0.006412581354404617,-0.0029361009500036327
0.6675,-0.0033885967900069425,-0.7812208929999935,0.00039151516300068494,-2.3538865499999955,-0.00030503859000077717,1.5674397999999932,0.7877101855000034,0.039999994750000004,0.03999997185,-9.807927599999994,-0.02094070315363344,-0.03985742935007502,0.023595040300030626,0.006579873058970901,-0.0029601202750036354
0.67,-0.0034343071600069853,-0.7811782719999935,0.0003960246520006891,-2.3538563999999953,-0.00031015566000078195,1.5673944999999931,0.7877321620000034,0.039999994000000004,0.0399999684,-9.807884399999994,-0.02109364718201111,-0.04035137740007548,0.023796695200030814,0.006750905513789536,-0.0029840566000036576
0.6725,-0.003480017530007026,-0.7811356509999934,0.00040053414100069313,-2.3538262499999956,-0.0003152727300007865,1.5673491999999931,0.7877541385000034,0.039999993250000004,0.03999996495,-9.807841199999993,-0.021246591210388778,-0.040845325450075916,0.023998350100030996,0.006921937968608163,-0.003007992925003679
0.675,-0.003525727900007068,-0.7810930299999934,0.00040504363000069734,-2.3537960999999954,-0.0003203898000007913,1.5673038999999929,0.7877761150000034,0.0399999925,0.0399999615,-9.807797999999993,-0.021399535238766452,-0.04133927350007638,0.024200005000031184,0.007092970423426797,-0.0030319292500037014
0.6775,-0.003571438270007109,-0.7810504089999933,0.00040955311900070133,-2.353765949999995,-0.00032550687000079583,1.5672585999999928,0.7877980915000035,0.03999999175,0.03999995805,-9.807754799999993,-0.021552479267144115,-0.04183322155007682,0.02440165990003136,0.007264002878245424,-0.0030558655750037226
0.68,-0.0036171486400071516,-0.7810077879999933,0.00041406260800070553,-2.3537357999999955,-0.00033062394000080055,1.5672132999999928,0.7878200680000035,0.039999991,0.0399999546,-9.807711599999992,-0.02170542329552179,-0.04232716960007728,0.02460331480003155,0.0074350353330640585,-0.0030798019000037448
0.6825,-0.003662859010007192,-0.7809651669999933,0.0004185720970007095,-2.3537056499999953,-0.0003357410100008051,1.5671679999999928,0.7878420445000035,0.03999999025,0.03999995115,-9.807668399999992,-0.021858367323899456,-0.04282111765007772,0.02480496970003173,0.0076060677878826855,-0.003103738225003766
0.685,-0.0037102567600076353,-0.7809210439999928,0.0004232478240007532,-2.353674309999995,-0.00034104691300085473,1.5671210199999923,0.7878648230000037,0.039999991,0.0399999516,-9.807650699999998,-0.021996596083065683,-0.043345738300085465,0.02500984670003268,0.0077798237093069265,-0.0031286141300040115
0.6875,-0.0037584982000076783,-0.7808761699999929,0.00042800667000075744,-2.353642374999995,-0.00034644723250085955,1.5670731999999923,0.7878880025000037,0.0399999925,0.039999954,-9.807645749999999,-0.022127467207631403,-0.04388569525008594,0.025216334750032866,0.007954941364032997,-0.003153959825004034
0.6900000000000001,-0.0038067396400077234,-0.7808312959999928,0.00043276551600076186,-2.353610439999995,-0.0003518475520008646,1.5670253799999923,0.7879111820000037,0.039999994,0.0399999564,-9.807640799999998,-0.022258338332197133,-0.04442565220008644,0.02542282280003306,0.008130059018759076,-0.0031793055200040575
0.6925,-0.003854981080007766,-0.7807864219999928,0.00043752436200076607,-2.353578504999995,-0.00035724787150086934,1.5669775599999922,0.7879343615000037,0.0399999955,0.0399999588,-9.807635849999999,-0.022389209456762853,-0.044965609150086926,0.02562931085003324,0.008305176673485145,-0.0032046512150040803
0.6950000000000001,-0.003903222520007811,-0.7807415479999927,0.00044228320800077055,-2.353546569999995,-0.0003626481910008744,1.5669297399999922,0.7879575410000037,0.039999997,0.039999961199999996,-9.807630899999998,-0.02252008058132858,-0.04550556610008743,0.025835798900033433,0.008480294328211225,-0.003229996910004104
0.6975,-0.003951463960007854,-0.7806966739999927,0.00044704205400077475,-2.3535146349999945,-0.0003680485105008792,1.5668819199999922,0.7879807205000038,0.0399999985,0.0399999636,-9.807625949999998,-0.0226509517058943,-0.046045523050087904,0.026042286950033616,0.008655411982937296,-0.0032553426050041263
0.7000000000000001,-0.0039997054000083234,-0.7806517999999922,0.00045180090000082097,-2.3534826999999945,-0.00037344883000093156,1.5668340999999917,0.788003900000004,0.04,0.039999966,-9.807620999999994,-0.022781822830465988,-0.0465854800000904,0.026248775000034603,0.008830529637664194,-0.0032806883000042926
0.7025,-0.004050536440009062,-0.7806046099999916,0.00045681493500089387,-2.353449084999994,-0.00037913813050101424,1.566783714999991,0.7880283350000044,0.04,0.0399999711,-9.807585149999992,-0.02294909739869833,-0.047137568800098416,0.026460115250037674,0.009010659251394137,-0.0033069037550046733
0.705,-0.0041013674800098,-0.7805574199999908,0.0004618289700009667,-2.3534154699999936,-0.00038482743100109687,1.5667333299999902,0.7880527700000047,0.04,0.0399999762,-9.807549299999993,-0.02311637196693067,-0.04768965760010644,0.026671455500040745,0.009190788865124078,-0.0033331192100050544
0.7075,-0.004152198520010541,-0.7805102299999902,0.0004668430050010398,-2.353381854999993,-0.0003905167315011798,1.5666829449999895,0.788077205000005,0.04,0.0399999813,-9.807513449999993,-0.02328364653516302,-0.048241746400114485,0.026882795750043823,0.009370918478854028,-0.0033593346650054364
0.71,-0.00420302956001128,-0.7804630399999894,0.00047185704000111267,-2.3533482399999928,-0.00039620603200126245,1.5666325599999888,0.7881016400000054,0.04,0.0399999864,-9.807477599999991,-0.023450921103395358,-0.04879383520012251,0.027094136000046894,0.009551048092583971,-0.003385550120005817
0.7125,-0.004253860600012021,-0.7804158499999888,0.00047687107500118573,-2.3533146249999923,-0.0004018953325013454,1.5665821749999882,0.7881260750000058,0.04,0.0399999915,-9.807441749999992,-0.023618195671627706,-0.049345924000130555,0.027305476250049976,0.009731177706313921,-0.003411765575006199
0.715,-0.004304691640012759,-0.7803686599999882,0.0004818851100012586,-2.353281009999992,-0.0004075846330014281,1.5665317899999873,0.7881505100000061,0.04,0.039999996600000004,-9.807405899999992,-0.023785470239860048,-0.04989801280013858,0.027516816500053047,0.009911307320043864,-0.0034379810300065802
0.7175,-0.004356405060013717,-0.7803206599999872,0.000486986095001353,-2.353246749999991,-0.00041337219600153484,1.5664805399999864,0.7881753720000065,0.04,0.03999999975,-9.807378899999998,-0.02393986582759338,-0.05046641540015416,0.027729705150055396,0.010092797782319253,-0.0034641869700067166
0.72,-0.0044098832400130345,-0.7802710399999878,0.0004922609800012856,-2.3532111999999916,-0.00041935628400145854,1.566427559999987,0.7882010880000062,0.04,0.039999999,-9.807369599999998,-0.024068503454358892,-0.05106744560014649,0.02794569060005264,0.010277009941682319,-0.0034903738800063826
0.7225,-0.004463361420012355,-0.7802214199999885,0.0004975358650012187,-2.353175649999992,-0.00042534037200138246,1.5663745799999877,0.7882268040000059,0.04,0.03999999825,-9.8073603,-0.024197141081124415,-0.051668475800138856,0.0281616760500499,0.010461222101045392,-0.00351656079000605
0.725,-0.004516839600011673,-0.7801717999999891,0.0005028107500011514,-2.3531400999999925,-0.00043132446000130616,1.5663215999999884,0.7882525200000056,0.04,0.0399999975,-9.807350999999999,-0.024325778707889927,-0.05226950600013119,0.028377661500047145,0.010645434260408457,-0.003542747700005716
0.7275,-0.004570317780010993,-0.7801221799999898,0.0005080856350010843,-2.3531045499999927,-0.0004373085480012301,1.5662686199999891,0.7882782360000052,0.04,0.03999999675,-9.807341699999998,-0.02445441633465545,-0.052870536200123545,0.028593646950044398,0.010829646419771532,-0.003568934610005383
0.73,-0.004623795960010311,-0.7800725599999904,0.000513360520001017,-2.353068999999993,-0.0004432926360011538,1.5662156399999898,0.7883039520000049,0.04,0.039999996,-9.807332399999998,-0.02458305396142096,-0.05347156640011588,0.028809632400041644,0.011013858579134598,-0.003595121520005049
0.7325,-0.004677274140009631,-0.7800229399999911,0.00051863540500095,-2.3530334499999936,-0.0004492767240010777,1.5661626599999903,0.7883296680000046,0.04,0.03999999525,-9.8073231,-0.024711691588186483,-0.05407259660010824,0.0290256178500389,0.01119807073849767,-0.0036213084300047165
0.735,-0.004732554650009912,-0.7799716999999908,0.0005240878800009777,-2.3529967099999936,-0.00045546156300110894,1.5661078699999902,0.7883562410000048,0.04,0.039999995,-9.807297499999995,-0.024856869503882714,-0.05469343270011128,0.029244642400038913,0.011385502666268234,-0.003647712880004678
0.7375,-0.004788736325009965,-0.7799196499999907,0.0005296291500009829,-2.3529593749999935,-0.0004617467775011148,1.56605217499999,0.7883832425000048,0.04,0.039999995,-9.807263749999995,-0.025010317564037765,-0.055324171750111874,0.02946518650003912,0.01157454447824128,-0.003674226100004703
0.74,-0.004844918000010015,-0.7798675999999907,0.0005351704200009877,-2.3529220399999935,-0.0004680319920011204,1.56599647999999,0.7884102440000048,0.04,0.039999995,-9.807229999999995,-0.025163765624192813,-0.05595491080011243,0.029685730600039314,0.011763586290214319,-0.003700739320004726
0.7425,-0.004901099675010067,-0.7798155499999907,0.0005407116900009929,-2.3528847049999935,-0.00047431720650112624,1.56594078499999,0.7884372455000048,0.04,0.039999995,-9.807196249999995,-0.025317213684347868,-0.05658564985011302,0.02990627470003952,0.011952628102187364,-0.003727252540004751
0.745,-0.004957281350010117,-0.7797634999999906,0.0005462529600009979,-2.3528473699999934,-0.00048060242100113186,1.5658850899999899,0.7884642470000048,0.04,0.039999995,-9.807162499999995,-0.025470661744502913,-0.05721638890011358,0.030126818800039715,0.012141669914160403,-0.0037537657600047744
0.7475,-0.005013463025010169,-0.7797114499999905,0.000551794230001003,-2.3528100349999934,-0.0004868876355011377,1.56582939499999,0.7884912485000048,0.04,0.039999995,-9.807128749999995,-0.025624109804657968,-0.05784712795011417,0.03034736290003992,0.01233071172613345,-0.0037802789800047993
0.75,-0.005069644700010721,-0.7796593999999901,0.0005573355000010574,-2.352772699999993,-0.0004931728500011994,1.5657736999999894,0.7885182500000051,0.04,0.039999995,-9.807094999999997,-0.025777557864817707,-0.05847786700011749,0.030567907000040948,0.012519753538107236,-0.003806792200004924
0.7525000000000001,-0.005128584770010776,-0.77960486899999,0.0005631485595010629,-2.352733534999993,-0.0004997663775012055,1.5657153049999895,0.7885465835000052,0.04,0.039999995,-9.807072799999997,-0.025956817995789555,-0.059123783950118095,0.03079303090004116,0.01271290639418914,-0.0038338621900049492
0.755,-0.005187524840010828,-0.77955033799999,0.000568961619001068,-2.352694369999993,-0.0005063599050012114,1.5656569099999893,0.7885749170000051,0.04,0.039999995,-9.807050599999997,-0.026136078126761393,-0.05976970090011867,0.03101815480004136,0.012906059250271036,-0.0038609321800049732
0.7575000000000001,-0.005246464910010883,-0.7794958069999899,0.0005747746785010734,-2.352655204999993,-0.0005129534325012176,1.5655985149999891,0.7886032505000052,0.04,0.039999995,-9.807028399999997,-0.02631533825773324,-0.06041561785011927,0.03124327870004157,0.013099212106352941,-0.0038880021700049986
0.76,-0.005305404980010936,-0.7794412759999898,0.0005805877380010786,-2.352616039999993,-0.0005195469600012234,1.5655401199999892,0.7886315840000052,0.04,0.039999995,-9.807006199999995,-0.02649459838870508,-0.061061534800119846,0.03146840260004177,0.013292364962434838,-0.003915072160005023
0.7625000000000001,-0.0053643450500109905,-0.7793867449999898,0.000586400797501084,-2.352576874999993,-0.0005261404875012295,1.565481724999989,0.7886599175000053,0.04,0.039999995,-9.806983999999995,-0.026673858519676928,-0.06170745175012045,0.03169352650004198,0.013485517818516743,-0.0039421421500050475
0.765,-0.005423285120011043,-0.7793322139999898,0.0005922138570010892,-2.352537709999993,-0.0005327340150012354,1.565423329999989,0.7886882510000053,0.04,0.039999995,-9.806961799999995,-0.026853118650648766,-0.06235336870012102,0.03191865040004218,0.01367867067459864,-0.0039692121400050715
0.7675000000000001,-0.005483162640011628,-0.7792768254999892,0.0005981192860011467,-2.3524978799999925,-0.0005394323300013008,1.5653639949999885,0.7887170330000055,0.04,0.039999995,-9.806943749999997,-0.027020070515599796,-0.06301813550013227,0.03214523670004322,0.013873123889826084,-0.003996414445005172
0.77,-0.005544915060011682,-0.7792197219999891,0.0006042094540011522,-2.352456719999992,-0.0005463402200013069,1.5653027799999883,0.7887467120000056,0.04,0.039999995,-9.806933999999998,-0.027162405848530007,-0.0637206020001329,0.03237474780004342,0.0140701778233424,-0.004023881380005196
0.7725,-0.005606667480011737,-0.7791626184999891,0.0006102996220011575,-2.3524155599999923,-0.000553248110001313,1.5652415649999882,0.7887763910000056,0.04,0.039999995,-9.806924249999998,-0.02730474118146022,-0.06442306850013352,0.03260425890004363,0.014267231756858715,-0.0040513483150052204
0.775,-0.005668419900011795,-0.779105514999989,0.0006163897900011632,-2.352374399999992,-0.0005601560000013195,1.5651803499999883,0.7888060700000057,0.04,0.039999995,-9.806914499999998,-0.027447076514390437,-0.06512553500013417,0.03283377000004384,0.014464285690375039,-0.004078815250005246
0.7775,-0.00573017232001185,-0.779048411499989,0.0006224799580011686,-2.352333239999992,-0.0005670638900013256,1.5651191349999882,0.7888357490000056,0.04,0.039999995,-9.806904749999998,-0.02758941184732065,-0.06582800150013479,0.03306328110004404,0.014661339623891354,-0.004106282185005271
0.78,-0.005791924740011907,-0.778991307999989,0.0006285701260011743,-2.352292079999992,-0.000573971780001332,1.5650579199999883,0.7888654280000057,0.04,0.039999995,-9.806894999999997,-0.027731747180250867,-0.06653046800013544,0.033292792200044254,0.014858393557407677,-0.004133749120005296
0.7825,-0.005853677160011962,-0.778934204499989,0.0006346602940011797,-2.352250919999992,-0.0005808796700013381,1.5649967049999882,0.7888951070000058,0.04,0.039999995,-9.806885249999999,-0.02787408251318108,-0.06723293450013607,0.03352230330004446,0.015055447490923992,-0.00416121605500532
0.785,-0.005917339530012578,-0.7788753629999884,0.0006409386720012403,-2.3522084499999916,-0.0005880028300014075,1.5649336099999875,0.788925715000006,0.04,0.039999995,-9.806856299999993,-0.02804698459807716,-0.06794448500013937,0.0337546336000455,0.015255419164935178,-0.004189015380005443
0.7875,-0.0059819568750126345,-0.7788156524999883,0.000647311155001246,-2.3521653249999916,-0.0005952336250014138,1.5648695749999875,0.7889567875000061,0.04,0.039999995,-9.806817749999993,-0.028235170058942823,-0.06866057750014001,0.0339883735000457,0.015456849709192512,-0.004216980900005468
0.79,-0.0060465742200126954,-0.7787559419999882,0.0006536836380012519,-2.3521221999999913,-0.0006024644200014206,1.5648055399999874,0.7889878600000061,0.04,0.039999995,-9.806779199999992,-0.028423355519808492,-0.06937667000014068,0.03422211340004592,0.015658280253449855,-0.004244946420005494
0.7925,-0.006111191565012752,-0.7786962314999882,0.0006600561210012576,-2.3520790749999914,-0.000609695215001427,1.5647415049999873,0.7890189325000061,0.04,0.039999995,-9.806740649999993,-0.028611540980674154,-0.07009276250014132,0.03445585330004613,0.015859710797707188,-0.004272911940005519
0.795,-0.006175808910012813,-0.7786365209999881,0.0006664286040012636,-2.3520359499999914,-0.0006169260100014338,1.5646774699999872,0.7890500050000061,0.04,0.039999995,-9.806702099999992,-0.028799726441539823,-0.07080885500014199,0.034689593200046345,0.01606114134196453,-0.004300877460005545
0.7975,-0.0062404262550128705,-0.7785768104999881,0.0006728010870012693,-2.3519928249999915,-0.0006241568050014401,1.5646134349999872,0.7890810775000062,0.04,0.039999995,-9.806663549999993,-0.02898791190240549,-0.07152494750014263,0.034923333100046555,0.016262571886221867,-0.00432884298000557
0.8,-0.0063050436000135135,-0.7785170999999875,0.0006791735700013327,-2.351949699999991,-0.0006313876000015121,1.5645493999999867,0.7891121500000066,0.04,0.039999995,-9.806624999999997,-0.029176097363263365,-0.07224104000015458,0.035157073000047605,0.01646400243047998,-0.004356808500005642
0.8025,-0.006372576450013574,-0.7784547449999875,0.0006858333645013386,-2.351904744999991,-0.0006389441950015189,1.5644824699999864,0.7891446175000065,0.04,0.039999995,-9.806609699999997,-0.029325336311042442,-0.07301346800015526,0.035394975550047815,0.016669280547689846,-0.004385002425005667
0.805,-0.006440109300013637,-0.7783923899999874,0.0006924931590013448,-2.351859789999991,-0.0006465007900015258,1.5644155399999864,0.7891770850000066,0.04,0.039999995,-9.806594399999998,-0.029474575258821526,-0.07378589600015598,0.03563287810004804,0.016874558664899723,-0.004413196350005693
0.8075,-0.006507642150013697,-0.7783300349999873,0.0006991529535013508,-2.351814834999991,-0.0006540573850015326,1.5643486099999864,0.7892095525000066,0.04,0.039999995,-9.806579099999997,-0.029623814206600603,-0.07455832400015666,0.03587078065004825,0.01707983678210959,-0.004441390275005719
0.81,-0.00657517500001376,-0.7782676799999874,0.0007058127480013569,-2.3517698799999907,-0.0006616139800015397,1.5642816799999864,0.7892420200000066,0.04,0.039999995,-9.806563799999997,-0.029773053154379687,-0.07533075200015737,0.03610868320004847,0.017285114899319467,-0.004469584200005745
0.8125,-0.006642707850013819,-0.7782053249999873,0.0007124725425013629,-2.3517249249999908,-0.0006691705750015463,1.5642147499999863,0.7892744875000067,0.04,0.039999995,-9.806548499999996,-0.029922292102158764,-0.07610318000015806,0.036346585750048684,0.017490393016529333,-0.00449777812500577
0.8150000000000001,-0.006710240700013883,-0.7781429699999872,0.000719132337001369,-2.3516799699999904,-0.0006767271700015534,1.564147819999986,0.7893069550000067,0.04,0.039999995,-9.806533199999997,-0.030071531049937848,-0.07687560800015879,0.0365844883000489,0.01769567113373921,-0.004525972050005796
0.8175,-0.006778761990014555,-0.7780797199999866,0.0007258895465014353,-2.3516343249999903,-0.0006843943000016286,1.5640799199999855,0.789339895000007,0.04,0.039999995,-9.80652125,-0.030236863065551733,-0.07765250750016224,0.03682375550004996,0.017901967652185043,-0.004554273900005888
0.8200000000000001,-0.006849260160014621,-0.7780146799999865,0.0007328415860014417,-2.35158729999999,-0.0006922825000016359,1.5640100799999854,0.789373780000007,0.04,0.039999995,-9.806515999999998,-0.030434381216805383,-0.07843835000016297,0.03706575200005019,0.018110300973100926,-0.004582791600005914
0.8225,-0.006919758330014683,-0.7779496399999865,0.0007397936255014479,-2.35154027499999,-0.000700170700001643,1.5639402399999853,0.7894076650000071,0.04,0.039999995,-9.80651075,-0.030631899368059025,-0.07922419250016367,0.0373077485000504,0.0183186342940168,-0.004611309300005939
0.8250000000000001,-0.006990256500014749,-0.7778845999999864,0.0007467456650014544,-2.35149324999999,-0.0007080589000016503,1.5638703999999854,0.7894415500000072,0.04,0.039999995,-9.806505499999998,-0.030829417519312674,-0.0800100350001644,0.03754974500005063,0.018526967614932686,-0.004639827000005967
0.8275,-0.007060754670014812,-0.7778195599999864,0.0007536977045014606,-2.35144622499999,-0.0007159471000016573,1.5638005599999854,0.7894754350000072,0.04,0.039999995,-9.80650025,-0.031026935670566313,-0.0807958775001651,0.037791741500050845,0.01873530093584856,-0.004668344700005991
0.8300000000000001,-0.007131252840014877,-0.7777545199999863,0.0007606497440014671,-2.35139919999999,-0.0007238353000016646,1.5637307199999853,0.7895093200000072,0.04,0.039999995,-9.806494999999998,-0.031224453821819962,-0.08158172000016584,0.03803373800005107,0.018943634256764444,-0.004696862400006018
0.8325,-0.0072017510100149396,-0.7776894799999863,0.0007676017835014733,-2.35135217499999,-0.0007317235000016716,1.5636608799999852,0.7895432050000072,0.04,0.039999995,-9.806489749999999,-0.0314219719730736,-0.08236756250016654,0.038275734500051284,0.01915196757768032,-0.004725380100006043
0.835,-0.007274258500015644,-0.7776225999999856,0.0007747518040015426,-2.3513037199999895,-0.00073983543000175,1.5635890499999845,0.7895780650000076,0.04,0.039999995,-9.806465699999993,-0.03159261755648619,-0.08319226400017964,0.038520383000052345,0.019363199733242877,-0.004754024200006109
0.8375,-0.007347770650015712,-0.7775547999999856,0.0007820008150015494,-2.3512545499999895,-0.0007480592250017577,1.5635162249999845,0.7896134125000076,0.04,0.039999995,-9.806432249999993,-0.03174982685599108,-0.08403639500018042,0.03876635750005258,0.019575881306127408,-0.004782731500006136
0.84,-0.007421282800015778,-0.7774869999999855,0.0007892498260015559,-2.3512053799999895,-0.0007562830200017651,1.5634433999999844,0.7896487600000076,0.04,0.039999995,-9.806398799999993,-0.03190703615549596,-0.08488052600018117,0.039012332000052795,0.019788562879011925,-0.0048114388000061615
0.8425,-0.007494794950015846,-0.7774191999999854,0.0007964988370015627,-2.3511562099999894,-0.0007645068150017727,1.5633705749999842,0.7896841075000076,0.04,0.039999995,-9.806365349999993,-0.032064245455000855,-0.08572465700018196,0.03925830650005302,0.020001244451896456,-0.004840146100006188
0.845,-0.007568307100015911,-0.7773513999999854,0.0008037478480015691,-2.3511070399999894,-0.00077273061000178,1.5632977499999843,0.7897194550000076,0.04,0.039999995,-9.806331899999993,-0.03222145475450574,-0.08656878800018271,0.039504281000053244,0.020213926024780973,-0.004868853400006213
