rsonawane2002/My_IMU/logs_2/traj_407/imu_400hz_407.csv
time,j1,j2,j3,j4,j5,j6,j7,gripper1,gripper2,imu_ax,imu_ay,imu_az,imu_gx,imu_gy,imu_gz
0.0,0.00016700293,-0.785875,4.0107683e-05,-2.3551247,9.29385e-05,1.570997,0.786,0.04,0.04,-9.492751,-0.0655917525291442,0.099963345,-3.5975242e-07,-0.0011641272576525,8.893957e-07
0.0025,0.0001670042815,-0.785857774,4.01098991e-05,-2.35513919,9.294446850000001e-05,1.570996565,0.786,0.04,0.04,-9.544014550000046,-0.05565503686083502,0.0863285278499876,-5.112009370001378e-07,-0.0013252833683510066,8.939974900000042e-07
0.005,0.00016700563299999998,-0.785840548,4.011211520000001e-05,-2.3551536800000004,9.295043700000001e-05,1.57099613,0.786,0.04,0.04,-9.595278100000094,-0.04571832119252583,0.07269371069997518,-6.626494540002755e-07,-0.0014864394790495132,8.985992800000084e-07
0.0075,0.0001670069845,-0.7858233219999999,4.011433130000001e-05,-2.3551681700000002,9.295640550000002e-05,1.570995695,0.786,0.04,0.04,-9.64654165000014,-0.03578160552421664,0.05905889354996279,-8.140979710004133e-07,-0.0016475955897480195,9.032010700000126e-07
0.01,0.000167008336,-0.785806096,4.011654740000001e-05,-2.35518266,9.296237400000002e-05,1.5709952600000001,0.786,0.04,0.04,-9.697805200000186,-0.025844889855907452,0.045424076399950386,-9.65546488000551e-07,-0.0018087517004465262,9.078028600000167e-07
0.0125,0.0001670096875,-0.78578887,4.011876350000001e-05,-2.3551971500000004,9.296834250000002e-05,1.570994825,0.786,0.04,0.04,-9.749068750000232,-0.015908174187598267,0.03178925924993799,-1.116995005000689e-06,-0.0019699078111450326,9.124046500000209e-07
0.015,0.00016701103899999998,-0.785771644,4.012097960000002e-05,-2.3552116400000003,9.297431100000003e-05,1.57099439,0.786,0.04,0.04,-9.80033230000028,-0.005971458519289083,0.01815444209992559,-1.2684435220008266e-06,-0.002131063921843539,9.170064400000251e-07
0.0175,0.00016701454200000003,-0.785754867,4.012588065000007e-05,-2.3552257350000003,9.298161450000006e-05,1.57099396,0.786,0.04,0.04,-9.834405049999997,0.0006589669064852336,0.008989591049998568,-1.8284961900087692e-06,-0.0022881145356231825,9.170278599999419e-07
0.02,0.00016702234800000003,-0.785738988,4.0136151600000074e-05,-2.3552390400000003,9.299158800000007e-05,1.5709935400000001,0.786,0.04,0.04,-9.834096199999998,0.0006768118473702098,0.008764672199998364,-3.205757160010021e-06,-0.0024369541555653226,9.078885399999336e-07
0.0225,0.00016703015400000007,-0.7857231089999999,4.014642255000009e-05,-2.3552523450000002,9.300156150000007e-05,1.57099312,0.786,0.04,0.04,-9.833787349999998,0.000694656788255186,0.00853975334999816,-4.5830181300112735e-06,-0.0025857937755074632,8.987492199999252e-07
0.025,0.00016703796000000007,-0.7857072299999999,4.0156693500000095e-05,-2.35526565,9.301153500000009e-05,1.5709927,0.786,0.04,0.04,-9.833478499999996,0.0007125017291401622,0.008314834499997955,-5.960279100012527e-06,-0.002734633395449604,8.896098999999169e-07
0.0275,0.00016704576600000008,-0.7856913509999999,4.01669644500001e-05,-2.355278955,9.30215085000001e-05,1.57099228,0.786,0.04,0.04,-9.833169649999997,0.0007303466700251386,0.00808991564999775,-7.337540070013779e-06,-0.002883473015391744,8.804705799999086e-07
0.03,0.0001670535720000001,-0.7856754719999999,4.017723540000011e-05,-2.35529226,9.30314820000001e-05,1.57099186,0.786,0.04,0.04,-9.832860799999997,0.0007481916109101148,0.007864996799997545,-8.71480104001503e-06,-0.003032312635333884,8.713312599999003e-07
0.0325,0.0001670613780000001,-0.7856595929999999,4.018750635000012e-05,-2.355305565,9.304145550000012e-05,1.57099144,0.786,0.04,0.04,-9.832551949999997,0.000766036551795091,0.007640077949997341,-1.0092062010016285e-05,-0.0031811522552760247,8.62191939999892e-07
0.035,0.00016708089900000056,-0.7856445729999997,4.021210500000069e-05,-2.3553181,9.305919060000047e-05,1.57099101,0.786,0.04,0.04,-9.832273799999994,0.0007945342164027483,0.007422266299995323,-1.2951394100078594e-05,-0.0033223459497123287,7.663767239969625e-07
0.0375,0.00016710627750000093,-0.7856299824999995,4.0243867500001156e-05,-2.35533025,9.308080650000079e-05,1.570990575,0.786,0.04,0.04,-9.83201099999999,0.0008283582428714554,0.007208008249992206,-1.655176175013098e-05,-0.0034597166813959226,6.272235599949377e-07
0.04,0.00016713165600000128,-0.7856153919999993,4.027563000000161e-05,-2.3553424000000005,9.31024224000011e-05,1.57099014,0.786,0.04,0.04,-9.831748199999987,0.0008621822693401627,0.006993750199989088,-2.0152129400183375e-05,-0.0035970874130795165,4.880703959929127e-07
0.0425,0.00016715703450000165,-0.785600801499999,4.0307392500002076e-05,-2.355354550000001,9.312403830000142e-05,1.570989705,0.786,0.04,0.04,-9.831485399999984,0.00089600629580887,0.00677949214998597,-2.3752497050235767e-05,-0.0037344581447631107,3.489172319908876e-07
0.045,0.00016718241300000202,-0.7855862109999988,4.033915500000254e-05,-2.3553667000000007,9.314565420000172e-05,1.57098927,0.786,0.04,0.04,-9.831222599999979,0.0009298303222775771,0.006565234099982852,-2.7352864700288157e-05,-0.0038718288764467046,2.0976406798886287e-07
0.0475,0.0001672077915000024,-0.7855716204999986,4.0370917500003e-05,-2.355378850000001,9.316727010000204e-05,1.570988835,0.786,0.04,0.04,-9.830959799999976,0.0009636543487462843,0.006350976049979734,-3.095323235034055e-05,-0.004009199608130299,7.061090398683781e-08
0.05,0.00016723317000000645,-0.7855570299999985,4.040268000000792e-05,-2.3553910000000013,9.318888600000493e-05,1.5709884,0.786,0.04,0.04,-9.830696999999978,0.00099747837521675,0.0061367179999774835,-3.455360000075215e-05,-0.004146570339812771,-6.854226002274832e-08
0.0525,0.0001672923330000057,-0.7855436304999986,4.047524340000699e-05,-2.355402130000001,9.323412435000436e-05,1.57098798,0.786,0.04,0.03999999925,-9.83048519999998,0.001047414261852494,0.0059304055999801104,-4.144522250066439e-05,-0.004273665626545558,-2.76973881020094e-07
0.055,0.00016735149600000495,-0.7855302309999989,4.054780680000607e-05,-2.355413260000001,9.327936270000379e-05,1.57098756,0.786,0.04,0.0399999985,-9.830273399999983,0.0010973501484882382,0.005724093199982737,-4.8336845000576644e-05,-0.0044007609132783445,-4.854055020174403e-07
0.0575,0.0001674106590000042,-0.7855168314999991,4.0620370200005146e-05,-2.355424390000001,9.332460105000321e-05,1.57098714,0.786,0.04,0.03999999775,-9.830061599999986,0.0011472860351239825,0.005517780799985364,-5.52284675004889e-05,-0.004527856200011131,-6.938371230147866e-07
0.06,0.00016746982200000344,-0.7855034319999992,4.0692933600004226e-05,-2.3554355200000003,9.336983940000264e-05,1.57098672,0.786,0.04,0.039999997,-9.829849799999987,0.0011972219217597265,0.005311468399987991,-6.212009000040113e-05,-0.004654951486743918,-9.022687440121322e-07
0.0625,0.0001675289850000027,-0.7854900324999994,4.07654970000033e-05,-2.35544665,9.341507775000206e-05,1.5709863,0.786,0.04,0.03999999625,-9.82963799999999,0.0012471578083954708,0.005105155999990618,-6.90117125003134e-05,-0.004782046773476704,-1.1107003650094785e-06
0.065,0.00016758814800000194,-0.7854766329999996,4.083806040000237e-05,-2.35545778,9.346031610000148e-05,1.57098588,0.786,0.04,0.0399999955,-9.829426199999993,0.001297093695031215,0.004898843599993245,-7.590333500022565e-05,-0.004909142060209491,-1.3191319860068247e-06
0.0675,0.0001676655340000028,-0.7854636099999996,4.093243190000339e-05,-2.35546854,9.351696455000195e-05,1.570985455,0.785999905,0.04,0.03999999525,-9.829206349999994,0.001350149640349231,0.00470143511499559,-8.420272700027296e-05,-0.0050331312231748325,-1.6831815000165837e-06
0.07,0.0001677793660000029,-0.7854513399999997,4.107041960000352e-05,-2.3554785600000003,9.359643320000202e-05,1.57098502,0.78599962,0.04,0.039999996,-9.828970399999994,0.0014094457030311102,0.004521834459995426,-9.531765800028308e-05,-0.005150908138605959,-2.3584668000171984e-06
0.0725,0.000167893198000003,-0.7854390699999997,4.120840730000364e-05,-2.3554885800000003,9.36759018500021e-05,1.570984585,0.7859993350000001,0.04,0.03999999675,-9.828734449999994,0.0014687417657129886,0.004342233804995263,-0.00010643258900029315,-0.005268685054037086,-3.0337521000178097e-06
0.075,0.0001680070300000031,-0.7854267999999996,4.134639500000377e-05,-2.3554986,9.375537050000216e-05,1.57098415,0.78599905,0.04,0.0399999975,-9.828498499999993,0.0015280378283948678,0.0041626331499950995,-0.00011754752000030325,-0.0053864619694682135,-3.7090374000184244e-06
0.0775,0.0001681208620000032,-0.7854145299999996,4.1484382700003894e-05,-2.35550862,9.383483915000225e-05,1.5709837150000001,0.785998765,0.04,0.03999999825,-9.828262549999993,0.0015873338910767467,0.003983032494994937,-0.00012866245100031338,-0.00550423888489934,-4.384322700019039e-06
0.08,0.00016823469400000331,-0.7854022599999996,4.162237040000402e-05,-2.3555186400000006,9.391430780000232e-05,1.57098328,0.78599848,0.04,0.039999999,-9.828026599999994,0.0016466299537586258,0.003803431839994773,-0.0001397773820003235,-0.005622015800330468,-5.059608000019654e-06
0.0825,0.0001683485260000034,-0.7853899899999996,4.1760358100004145e-05,-2.3555286600000005,9.399377645000239e-05,1.570982845,0.785998195,0.04,0.03999999975,-9.827790649999994,0.0017059260164405047,0.003623831184994609,-0.00015089231300033362,-0.0057397927157615955,-5.734893300020268e-06
0.085,0.00016851542500000597,-0.7853784439999997,4.19615079000072e-05,-2.3555383400000003,9.41086638000041e-05,1.57098241,0.7859979100000001,0.04,0.0399999995,-9.827586199999994,0.0017771237529837758,0.003442253149994354,-0.0001645612010004622,-0.005851506628099441,-6.4381610600221815e-06
0.08750000000000001,0.00016870885750000614,-0.7853672599999997,4.219423875000741e-05,-2.35554785,9.424126050000423e-05,1.570981975,0.785997625,0.04,0.03999999875,-9.827397499999995,0.001854272326456931,0.0032596864249941878,-0.0001795070675004758,-0.00596018903889106,-7.155420050022834e-06
0.09,0.00016890229000000634,-0.7853560759999997,4.242696960000762e-05,-2.3555573600000006,9.437385720000435e-05,1.57098154,0.78599734,0.04,0.039999998,-9.827208799999994,0.0019314208999300858,0.0030771196999940225,-0.00019445293400048932,-0.006068871449682678,-7.872679040023483e-06
0.0925,0.0001690957225000065,-0.7853448919999996,4.265970045000783e-05,-2.3555668700000005,9.450645390000446e-05,1.570981105,0.7859970550000001,0.04,0.03999999725,-9.827020099999993,0.002008569473403241,0.0028945529749938564,-0.00020939880050050292,-0.006177553860474297,-8.589938030024136e-06
0.095,0.00016928915500000668,-0.7853337079999996,4.2892431300008046e-05,-2.3555763800000005,9.463905060000459e-05,1.57098067,0.78599677,0.04,0.0399999965,-9.826831399999994,0.0020857180468763963,0.0027119862499936902,-0.00022434466700051655,-0.006286236271265916,-9.30719702002479e-06
0.0975,0.00016948258750000686,-0.7853225239999996,4.3125162150008255e-05,-2.3555858900000004,9.47716473000047e-05,1.570980235,0.7859964850000001,0.04,0.03999999575,-9.826642699999994,0.0021628666203495515,0.002529419524993524,-0.00023929053350053015,-0.006394918682057535,-1.0024456010025443e-05
0.1,0.00016967602000001099,-0.7853113399999997,4.335789300001314e-05,-2.3555954000000003,9.49042440000073e-05,1.5709798,0.7859962,0.04,0.039999995,-9.826453999999995,0.0022400151938227956,0.002346852799994181,-0.00025423640000076295,-0.0065036010928489416,-1.0741715000050638e-05
0.10250000000000001,0.00016997778550001126,-0.7853011114999996,4.371899055001347e-05,-2.355604115,9.510516300000749e-05,1.57097938,0.7859956300000001,0.04,0.03999999575,-9.826315099999995,0.0023196097463398183,0.0021869174899940354,-0.0002752076855007821,-0.00660644019954289,-1.2133538450051904e-05
0.105,0.00017027955100001153,-0.7852908829999996,4.4080088100013794e-05,-2.35561283,9.530608200000767e-05,1.57097896,0.78599506,0.04,0.0399999965,-9.826176199999995,0.00239920429885684,0.002026982179993891,-0.00029617897100080105,-0.006709279306236838,-1.3525361900053164e-05
0.1075,0.0001705813165000118,-0.7852806544999996,4.4441185650014123e-05,-2.3556215450000004,9.550700100000786e-05,1.57097854,0.78599449,0.04,0.03999999725,-9.826037299999994,0.002478798851373863,0.0018670468699937453,-0.00031715025650082013,-0.006812118412930787,-1.491718535005443e-05
0.11,0.00017088308200001207,-0.7852704259999996,4.4802283200014453e-05,-2.3556302600000003,9.570792000000804e-05,1.57097812,0.78599392,0.04,0.039999998,-9.825898399999994,0.002558393403890885,0.0017071115599935995,-0.0003381215420008392,-0.006914957519624735,-1.6309008800055698e-05
0.1125,0.00017118484750001234,-0.7852601974999995,4.5163380750014783e-05,-2.355638975,9.590883900000823e-05,1.5709777,0.78599335,0.04,0.03999999875,-9.825759499999995,0.002637987956407908,0.0015471762499934543,-0.0003590928275008583,-0.007017796626318684,-1.7700832250056966e-05
0.115,0.0001714866130000126,-0.7852499689999995,4.5524478300015107e-05,-2.35564769,9.610975800000841e-05,1.5709772800000001,0.7859927800000001,0.04,0.0399999995,-9.825620599999995,0.00271758250892493,0.0013872409399933085,-0.0003800641130008774,-0.0071206357330126325,-1.909265570005823e-05
0.11750000000000001,0.0001718351295000189,-0.7852400774999996,4.594082050002252e-05,-2.355656075,9.63411465500125e-05,1.570976855,0.7859922085,0.04,0.04,-9.825486849999995,0.0028033077716869137,0.0012245124344928047,-0.0004028703615011318,-0.0072213688632514015,-2.047772060005863e-05
0.12,0.00017227714800001928,-0.7852308599999996,4.6467652000022996e-05,-2.3556638000000003,9.663347420001276e-05,1.57097642,0.785991634,0.04,0.04,-9.825363399999995,0.0029012944549364774,0.0010561975379926524,-0.0004293465360011558,-0.007317890040580613,-2.1849268400059875e-05
0.1225,0.0001727191665000197,-0.7852216424999996,4.699448350002348e-05,-2.3556715250000004,9.692580185001302e-05,1.570975985,0.7859910595,0.04,0.04,-9.825239949999995,0.002999281138186042,0.0008878826414924992,-0.0004558227105011799,-0.0074144112179098266,-2.3220816200061122e-05
0.125,0.0001731611850000201,-0.7852124249999995,4.752131500002396e-05,-2.35567925,9.72181295000133e-05,1.57097555,0.785990485,0.04,0.04,-9.825116499999995,0.003097267821435606,0.000719567744992346,-0.00048229888500120403,-0.007510932395239039,-2.459236400006237e-05
0.1275,0.0001736032035000205,-0.7852032074999996,4.804814650002444e-05,-2.3556869750000002,9.751045715001356e-05,1.570975115,0.7859899105,0.04,0.04,-9.824993049999994,0.00319525450468517,0.0005512528484921926,-0.0005087750595012281,-0.0076074535725682525,-2.596391180006362e-05
0.13,0.0001740452220000209,-0.7851939899999996,4.857497800002492e-05,-2.3556947000000004,9.780278480001383e-05,1.57097468,0.785989336,0.04,0.04,-9.824869599999994,0.0032932411879347343,0.0003829379519920394,-0.0005352512340012522,-0.007703974749897466,-2.733545960006487e-05
0.1325,0.0001744872405000213,-0.7851847724999995,4.910180950002539e-05,-2.3557024250000005,9.809511245001409e-05,1.570974245,0.7859887615,0.04,0.04,-9.824746149999994,0.0033912278711842984,0.0002146230554918862,-0.0005617274085012764,-0.007800495927226678,-2.8707007400066116e-05
0.135,0.00017504604900003032,-0.7851761749999996,4.976629050003602e-05,-2.3557099600000004,9.846281550001991e-05,1.5709738199999999,0.785987998,0.04,0.04,-9.824583099999991,0.0034892376046675843,6.491640099310396e-05,-0.0005932295070016707,-0.007892198301856087,-3.0418839600092436e-05
0.1375,0.00017566325250003087,-0.7851678874999996,5.049959625003668e-05,-2.3557174000000005,9.886820625002028e-05,1.5709734,0.7859871399999999,0.04,0.04,-9.824400249999991,0.003587258863267729,-7.548613250702387e-05,-0.0006272445675017017,-0.007981491275136117,-3.230081400009415e-05
0.14,0.00017628045600003142,-0.7851595999999996,5.123290200003735e-05,-2.35572484,9.927359700002065e-05,1.57097298,0.785986282,0.04,0.04,-9.824217399999991,0.003685280121867873,-0.00021588866600715165,-0.0006612596280017326,-0.008070784248416148,-3.4182788400095865e-05
0.14250000000000002,0.000176897659500032,-0.7851513124999996,5.1966207750038015e-05,-2.3557322800000002,9.967898775002102e-05,1.57097256,0.7859854239999999,0.04,0.04,-9.824034549999991,0.003783301380468017,-0.0003562911995072795,-0.0006952746885017636,-0.00816007722169618,-3.6064762800097574e-05
0.145,0.00017751486300003256,-0.7851430249999996,5.269951350003868e-05,-2.3557397200000003,0.00010008437850002138,1.57097214,0.785984566,0.04,0.04,-9.823851699999992,0.0038813226390681604,-0.0004966937330074057,-0.0007292897490017942,-0.00824937019497621,-3.794673720009927e-05
0.1475,0.0001781320665000331,-0.7851347374999996,5.343281925003935e-05,-2.3557471600000004,0.00010048976925002175,1.57097172,0.785983708,0.04,0.04,-9.82366884999999,0.003979343897668305,-0.0006370962665075336,-0.0007633048095018252,-0.008338663168256242,-3.982871160010099e-05
0.15,0.0001787492700000453,-0.7851264499999996,5.4166125000053666e-05,-2.3557546000000005,0.00010089516000002953,1.5709713,0.7859828499999999,0.04,0.04,-9.823485999999999,0.004077365156269173,-0.0007774988000079895,-0.0007973198700022372,-0.008427956141536078,-4.171068600013594e-05
0.1525,0.00017957917950004604,-0.7851190384999996,5.514969330005456e-05,-2.35576108,0.00010143637860003003,1.570970865,0.7859817025,0.04,0.04,-9.823437549999998,0.004188660765072899,-0.0009239141300081228,-0.0008383195095022746,-0.008513703290377771,-4.420189350013821e-05
0.155,0.0001804090890000468,-0.7851116269999996,5.613326160005546e-05,-2.3557675600000003,0.00010197759720003052,1.57097043,0.785980555,0.04,0.04,-9.823389099999998,0.004299956373876626,-0.0010703294600082562,-0.0008793191490023119,-0.008599450439219464,-4.669310100014048e-05
0.1575,0.00018123899850004755,-0.7851042154999996,5.711682990005636e-05,-2.3557740400000005,0.00010251881580003101,1.570969995,0.7859794075,0.04,0.04,-9.823340649999997,0.004411251982680353,-0.0012167447900083895,-0.0009203187885023493,-0.008685197588061157,-4.9184308500142745e-05
0.16,0.0001820689080000483,-0.7850968039999996,5.810039820005725e-05,-2.35578052,0.00010306003440003151,1.57096956,0.7859782599999999,0.04,0.04,-9.823292199999997,0.004522547591484079,-0.0013631601200085226,-0.0009613184280023866,-0.00877094473690285,-5.167551600014501e-05
0.1625,0.00018289881750004907,-0.7850893924999995,5.9083966500058144e-05,-2.3557870000000003,0.000103601253000032,1.570969125,0.7859771124999999,0.04,0.04,-9.823243749999996,0.004633843200287805,-0.0015095754500086562,-0.0010023180675024239,-0.008856691885744545,-5.416672350014728e-05
0.165,0.00018372872700004981,-0.7850819809999996,6.006753480005904e-05,-2.3557934800000004,0.0001041424716000325,1.57096869,0.7859759649999999,0.04,0.04,-9.823195299999997,0.004745138809091531,-0.0016559907800087893,-0.0010433177070024613,-0.008942439034586238,-5.665793100014955e-05
0.1675,0.00018464279750006596,-0.7850748629999996,6.114997045007801e-05,-2.3557998950000005,0.00010473785180004289,1.57096825,0.7859746584999999,0.03999999975,0.04,-9.823110899999989,0.004856508667587536,-0.001796692085007878,-0.001086862295002964,-0.00902613350190698,-5.920106370016131e-05
0.17,0.00018572519000006695,-0.7850683319999996,6.243014080007918e-05,-2.3558061800000005,0.00010544155520004353,1.5709677999999998,0.7859730339999998,0.039999999,0.04,-9.82295459999999,0.004968027025468058,-0.0019259653400079957,-0.001135496780003008,-0.009105722606186943,-6.184804680016371e-05
0.17250000000000001,0.00018680758250006792,-0.7850618009999996,6.371031115008035e-05,-2.3558124650000005,0.00010614525860004416,1.5709673499999999,0.7859714094999999,0.03999999825,0.04,-9.82279829999999,0.005079545383348579,-0.002055238595008113,-0.0011841312650030524,-0.009185311710466906,-6.449502990016612e-05
0.17500000000000002,0.0001878899750000689,-0.7850552699999996,6.49904815000815e-05,-2.3558187500000005,0.00010684896200004481,1.5709669,0.7859697849999999,0.0399999975,0.04,-9.82264199999999,0.005191063741229101,-0.002184511850008231,-0.0012327657500030968,-0.009264900814746868,-6.714201300016853e-05
0.1775,0.00018897236750006988,-0.7850487389999996,6.627065185008266e-05,-2.3558250350000005,0.00010755266540004544,1.57096645,0.7859681604999998,0.03999999675,0.04,-9.822485699999989,0.005302582099109621,-0.002313785105008347,-0.0012814002350031405,-0.00934448991902683,-6.978899610017092e-05
0.18,0.00019005476000007087,-0.7850422079999996,6.755082220008383e-05,-2.3558313200000005,0.00010825636880004609,1.5709659999999999,0.7859665359999999,0.039999996,0.04,-9.822329399999989,0.005414100456990143,-0.0024430583600084646,-0.0013300347200031846,-0.009424079023306792,-7.243597920017333e-05
0.1825,0.00019113715250007187,-0.7850356769999997,6.8830992550085e-05,-2.3558376050000005,0.00010896007220004672,1.57096555,0.7859649114999998,0.03999999525,0.04,-9.822173099999988,0.0055256188148706635,-0.0025723316150085824,-0.001378669205003229,-0.009503668127586755,-7.508296230017574e-05
0.185,0.00019241573900009265,-0.7850297299999996,7.03413744001094e-05,-2.3558433000000005,0.00010978947800006005,1.5709651,0.7859630329999998,0.039999994500000004,0.04,-9.822109899999997,0.005646238522612524,-0.0027005000300085887,-0.001432203660003768,-0.009581852704291785,-7.817364140022294e-05
0.1875,0.00019379242250009392,-0.7850240749999997,7.196686200011088e-05,-2.3558487000000006,0.00011068173500006086,1.5709646499999999,0.7859610274999999,0.039999993750000004,0.04,-9.822093249999998,0.005771408905283688,-0.002828116025008705,-0.001488188100003819,-0.00965933501720956,-8.148616850022595e-05
0.19,0.00019516910600009515,-0.7850184199999997,7.359234960011236e-05,-2.3558541000000006,0.00011157399200006168,1.5709642,0.7859590219999998,0.039999993000000005,0.04,-9.822076599999999,0.005896579287954852,-0.002955732020008821,-0.0015441725400038699,-0.009736817330127337,-8.479869560022897e-05
0.1925,0.0001965457895000964,-0.7850127649999996,7.521783720011384e-05,-2.3558595,0.00011246624900006249,1.57096375,0.7859570164999998,0.03999999225,0.04,-9.822059949999998,0.0060217496706260155,-0.0030833480150089373,-0.0016001569800039208,-0.009814299643045112,-8.811122270023199e-05
0.195,0.00019792247300009765,-0.7850071099999997,7.684332480011532e-05,-2.3558649000000003,0.00011335850600006331,1.5709632999999998,0.7859550109999999,0.0399999915,0.04,-9.822043299999999,0.006146920053297179,-0.0032109640100090537,-0.0016561414200039716,-0.009891781955962888,-9.142374980023501e-05
0.1975,0.0001992991565000989,-0.7850014549999996,7.84688124001168e-05,-2.3558703000000003,0.00011425076300006412,1.57096285,0.7859530054999998,0.03999999075,0.04,-9.82202665,0.006272090435968344,-0.0033385800050091696,-0.0017121258600040225,-0.009969264268880663,-9.473627690023802e-05
0.2,0.00020067584000012475,-0.7849957999999997,8.00943000001471e-05,-2.3558757000000004,0.00011514302000008075,1.5709624,0.7859509999999997,0.03999999,0.04,-9.82200999999999,0.00639726081863908,-0.0034661960000081124,-0.0017681103000046934,-0.010046746581798043,-9.804880400025746e-05
0.2025,0.0002023903595001029,-0.7849909804999997,8.211580500012135e-05,-2.355880845,0.00011625266300006662,1.57096192,0.7859484544999998,0.0399999897,0.0399999985,-9.821873649999992,0.006516559957533727,-0.003577686950006693,-0.0018326124750038721,-0.010118801333014496,-0.00010158704765021242
0.20500000000000002,0.0002041048790000811,-0.7849861609999997,8.413731000009562e-05,-2.3558859900000004,0.00011736230600005249,1.5709614399999998,0.7859459089999998,0.0399999894,0.039999997,-9.821737299999993,0.006635859096428372,-0.0036891779000052735,-0.0018971146500030508,-0.010190856084230948,-0.00010512529130016736
0.20750000000000002,0.00020581939850005927,-0.7849813414999999,8.615881500006988e-05,-2.3558911350000002,0.00011847194900003835,1.5709609599999999,0.7859433634999998,0.0399999891,0.0399999955,-9.821600949999995,0.006755158235323019,-0.0038006688500038543,-0.0019616168250022295,-0.0102629108354474,-0.00010866353495012231
0.21,0.0002075339180000374,-0.7849765219999999,8.818032000004412e-05,-2.35589628,0.00011958159200002422,1.5709604799999999,0.7859408179999999,0.0399999888,0.039999994,-9.821464599999997,0.006874457374217663,-0.003912159800002433,-0.0020261190000014076,-0.010334965586663853,-0.00011220177860007723
0.2125,0.00020924843750001559,-0.7849717024999999,9.020182500001839e-05,-2.3559014250000003,0.00012069123500001008,1.57096,0.7859382724999999,0.0399999885,0.0399999925,-9.821328249999999,0.00699375651311231,-0.0040236507500010146,-0.0020906211750005865,-0.010407020337880305,-0.00011574002225003217
0.215,0.00021096295699999377,-0.7849668830000001,9.222332999999264e-05,-2.35590657,0.00012180087799999596,1.57095952,0.7859357269999999,0.0399999882,0.039999991,-9.8211919,0.007113055652006956,-0.004135141699999595,-0.0021551233499997654,-0.010479075089096757,-0.00011927826589998712
0.2175,0.00021280511799998475,-0.7849623435,9.439432869998203e-05,-2.355911495,0.00012299191549999014,1.570959015,0.7859330035,0.0399999878,0.03999999025,-9.82109735,0.00723724933341041,-0.00424704637999918,-0.0022223662749994706,-0.010550567368044933,-0.00012310940774996787
0.22,0.00021490256200001526,-0.784958364,9.686431480001798e-05,-2.3559159800000002,0.00012434574200000985,1.57095846,0.785929924,0.0399999872,0.039999991,-9.8210864,0.007371232099832015,-0.004359778520000821,-0.002295090700000529,-0.010620934702456493,-0.00012752634600003213
0.2225,0.00021700000600004577,-0.7849543844999999,9.933430090005392e-05,-2.355920465,0.00012569956850002955,1.570957905,0.7859268444999999,0.0399999866,0.03999999175,-9.82107545,0.00750521486625362,-0.004472510660002461,-0.0023678151250015873,-0.01069130203686805,-0.00013194328425009642
0.225,0.0002190974500000763,-0.7849504049999999,0.00010180428700008986,-2.3559249500000004,0.00012705339500004926,1.5709573499999998,0.7859237649999998,0.039999986,0.039999992500000005,-9.8210645,0.007639197632675224,-0.004585242800004102,-0.0024405395500026457,-0.01076166937127961,-0.00013636022250016069
0.2275,0.00022119489400010682,-0.7849464254999998,0.0001042742731001258,-2.355929435,0.00012840722150006897,1.5709567949999999,0.7859206854999998,0.0399999854,0.039999993250000004,-9.82105355,0.0077731803990968296,-0.004697974940005742,-0.0025132639750037045,-0.010832036705691168,-0.00014077716075022498
0.23,0.00022329233800013736,-0.7849424459999997,0.00010674425920016175,-2.3559339200000005,0.00012976104800008865,1.57095624,0.7859176059999998,0.0399999848,0.039999994000000004,-9.8210426,0.007907163165518434,-0.004810707080007383,-0.002585988400004763,-0.010902404040102728,-0.00014519409900028927
0.2325,0.00022538978200016787,-0.7849384664999998,0.00010921424530019769,-2.3559384050000003,0.00013111487450010836,1.570955685,0.7859145264999998,0.039999984200000005,0.039999994750000004,-9.82103165,0.008041145931940039,-0.004923439220009023,-0.002658712825005821,-0.010972771374514287,-0.00014961103725035353
0.23500000000000001,0.00022777340000021602,-0.7849350659999997,0.00011201917160025413,-2.3559426600000006,0.00013265184800013925,1.5709548299999998,0.7859110469999997,0.039999983600000004,0.039999994500000004,-9.820964999999992,0.00816852580757007,-0.005023658470008034,-0.0027373366000069746,-0.011040724068885706,-0.0001541967440003993
0.23750000000000002,0.00023030010500021833,-0.7849319549999998,0.00011499156800025684,-2.3559468000000003,0.00013428039500014072,1.570953825,0.7859073674999997,0.039999983,0.039999993750000004,-9.820870499999993,0.00829260423780557,-0.005117621275008119,-0.002818910050007049,-0.011107469443237516,-0.00015886683500040353
0.24,0.0002328268100002206,-0.7849288439999997,0.00011796396440025952,-2.3559509400000005,0.00013590894200014218,1.5709528199999998,0.7859036879999998,0.0399999824,0.039999993000000005,-9.820775999999992,0.008416682668041074,-0.005211584080008203,-0.002900483500007122,-0.011174214817589326,-0.00016353692600040774
0.2425,0.0002353535150002229,-0.7849257329999997,0.00012093636080026222,-2.3559550800000006,0.00013753748900014368,1.570951815,0.7859000084999997,0.0399999818,0.03999999225,-9.820681499999992,0.008540761098276577,-0.005305546885008289,-0.002982056950007196,-0.011240960191941138,-0.00016820701700041198
0.245,0.0002378802200002252,-0.7849226219999997,0.00012390875720026494,-2.3559592200000004,0.00013916603600014514,1.5709508099999998,0.7858963289999997,0.0399999812,0.0399999915,-9.820586999999993,0.008664839528512078,-0.0053995096900083745,-0.0030636304000072703,-0.011307705566292948,-0.00017287710800041622
0.2475,0.0002404069250002275,-0.7849195109999997,0.00012688115360026764,-2.3559633600000005,0.00014079458300014663,1.570949805,0.7858926494999997,0.0399999806,0.03999999075,-9.820492499999991,0.008788917958747582,-0.00549347249500846,-0.0031452038500073445,-0.01137445094064476,-0.00017754719900042048
0.25,0.00024293363000027317,-0.7849163999999997,0.00012985355000032106,-2.3559675000000007,0.00014242313000017583,1.5709488,0.7858889699999996,0.03999998,0.03999999,-9.820398,0.008912996388984894,-0.005587435300007744,-0.0032267773000082415,-0.011441196314996576,-0.00018221729000047246
0.2525,0.0002459370095002759,-0.7849141349999997,0.00013338353150032427,-2.3559714300000008,0.0001443563855001776,1.5709478099999998,0.7858845794999996,0.03999997895,0.0399999891,-9.8203929,0.009056966751827105,-0.005672589505007822,-0.003317395210008324,-0.011508011538541467,-0.0001874121545004772
0.255,0.0002489403890002786,-0.7849118699999997,0.00013691351300032747,-2.3559753600000004,0.00014628964100017934,1.5709468199999999,0.7858801889999997,0.0399999779,0.0399999882,-9.8203878,0.009200937114669317,-0.0057577437100079,-0.0034080131200084065,-0.011574826762086357,-0.00019260701900048193
0.2575,0.0002519437685002814,-0.7849096049999997,0.0001404434945003307,-2.3559792900000005,0.0001482228965001811,1.5709458299999999,0.7858757984999997,0.03999997685,0.0399999873,-9.8203827,0.009344907477511526,-0.005842897915007977,-0.003498631030008489,-0.01164164198563125,-0.00019780188350048664
0.26,0.0002549471480002841,-0.7849073399999997,0.00014397347600033391,-2.3559832200000006,0.00015015615200018287,1.57094484,0.7858714079999997,0.0399999758,0.0399999864,-9.8203776,0.009488877840353738,-0.005928052120008054,-0.0035892489400085716,-0.01170845720917614,-0.00020299674800049137
0.2625,0.00025795052750028684,-0.7849050749999998,0.00014750345750033712,-2.3559871500000003,0.00015208940750018464,1.57094385,0.7858670174999997,0.03999997475,0.0399999855,-9.8203725,0.009632848203195949,-0.0060132063250081325,-0.003679866850008654,-0.01177527243272103,-0.0002081916125004961
0.265,0.00026095390700028956,-0.7849028099999998,0.00015103343900034033,-2.3559910800000003,0.00015402266300018638,1.57094286,0.7858626269999996,0.039999973700000004,0.0399999846,-9.820367399999999,0.00977681856603816,-0.00609836053000821,-0.0037704847600087367,-0.011842087656265921,-0.00021338647700050084
0.2675,0.00026413230550034343,-0.7849008329999999,0.0001547680420004033,-2.355994775,0.0001560676990002208,1.5709418599999998,0.7858579864999995,0.03999997265,0.0399999838,-9.820356599999997,0.009913884103310155,-0.006182575750008013,-0.0038641073150096966,-0.011908488441264992,-0.00021880289400057025
0.27,0.0002676607420003466,-0.7848994319999999,0.00015891188800040706,-2.3559980000000005,0.00015833629600022286,1.5709408399999998,0.7858528459999995,0.0399999716,0.0399999832,-9.820334399999998,0.010037139989447746,-0.006264913000008088,-0.0039637391600097875,-0.011974060349172781,-0.00022466241600057558
0.2725,0.00027118917850034983,-0.7848980309999999,0.00016305573400041086,-2.3560012250000004,0.0001606048930002249,1.5709398199999998,0.7858477054999995,0.03999997055,0.0399999826,-9.820312199999998,0.01016039587558534,-0.006347250250008163,-0.004063371005009878,-0.012039632257080572,-0.00023052193800058093
0.275,0.00027471761500035306,-0.7848966299999999,0.00016719958000041462,-2.3560044500000004,0.00016287349000022698,1.5709388,0.7858425649999995,0.039999969499999996,0.039999981999999996,-9.820289999999998,0.010283651761722933,-0.006429587500008238,-0.0041630028500099685,-0.012105204164988361,-0.00023638146000058626
0.2775,0.0002782460515003563,-0.7848952289999999,0.0001713434260004184,-2.3560076750000003,0.00016514208700022905,1.57093778,0.7858374244999995,0.03999996845,0.0399999814,-9.820267799999998,0.010406907647860524,-0.006511924750008313,-0.0042626346950100594,-0.01217077607289615,-0.00024224098200059159
0.28,0.00028177448800035946,-0.784893828,0.00017548727200042215,-2.3560109000000002,0.00016741068400023113,1.57093676,0.7858322839999995,0.039999967399999996,0.0399999808,-9.820245599999998,0.010530163533998117,-0.006594262000008387,-0.0043622665400101495,-0.012236347980803941,-0.0002481005040005969
0.28250000000000003,0.0002853029245003627,-0.784892427,0.00017963111800042592,-2.356014125,0.00016967928100023317,1.57093574,0.7858271434999995,0.03999996635,0.0399999802,-9.820223399999998,0.010653419420135708,-0.006676599250008463,-0.0044618983850102404,-0.01230191988871173,-0.00025396002600060224
0.28500000000000003,0.00028921411700042545,-0.784891614,0.0001842222670004993,-2.3560171600000004,0.00017219228600027326,1.57093468,0.7858214469999995,0.0399999652,0.039999979299999995,-9.820172499999993,0.01078618830071319,-0.006757119600008255,-0.0045677555000112995,-0.012365290336317298,-0.00026009723500065076
0.28750000000000003,0.00029331668750042915,-0.784891095,0.00018903706750050367,-2.3560201000000003,0.00017482749500027567,1.5709335999999998,0.7858154724999994,0.039999964,0.03999997825,-9.820107249999994,0.01092371367850841,-0.006836731500008328,-0.004676725250011398,-0.012427560053772263,-0.0002663732875006565
0.29,0.0002974192580004328,-0.784890576,0.00019385186800050793,-2.35602304,0.000177462704000278,1.57093252,0.7858094979999994,0.0399999628,0.0399999772,-9.820041999999994,0.011061239056303627,-0.006916343400008398,-0.0047856950000114955,-0.012489829771227229,-0.0002726493400006621
0.2925,0.00030152182850043657,-0.7848900569999999,0.0001986666685005123,-2.3560259800000005,0.0001800979130002804,1.5709314399999998,0.7858035234999994,0.0399999616,0.03999997615,-9.819976749999993,0.011198764434098847,-0.006995955300008471,-0.0048946647500115945,-0.012552099488682196,-0.0002789253925006678
0.295,0.00030562439900044027,-0.7848895379999999,0.0002034814690005167,-2.3560289200000004,0.0001827331220002828,1.57093036,0.7857975489999993,0.0399999604,0.0399999751,-9.819911499999993,0.011336289811894069,-0.007075567200008543,-0.005003634500011693,-0.012614369206137161,-0.0002852014450006735
0.2975,0.00030972696950044403,-0.784889019,0.0002082962695005211,-2.3560318600000003,0.0001853683310002852,1.5709292799999999,0.7857915744999994,0.039999959200000004,0.03999997405,-9.819846249999994,0.011473815189689289,-0.007155179100008616,-0.005112604250011793,-0.012676638923592129,-0.0002914774975006792
0.3,0.0003138295400005158,-0.7848885,0.000213111070000605,-2.3560348000000007,0.00018800354000033103,1.5709281999999998,0.7857855999999992,0.039999958,0.039999973,-9.819781,0.011611340567485858,-0.007234791000007874,-0.005221574000012909,-0.01273890864104696,-0.00029775355000074524
0.3025,0.0003185559170005201,-0.784888845,0.00021865460050061005,-2.3560376500000006,0.00019103682650033378,1.5709266249999998,0.7857787359999993,0.0399999568,0.03999997195,-9.81977665,0.011761231906728465,-0.007306941750007939,-0.0053398578500130165,-0.012799947056926022,-0.0003045817975007514
0.305,0.00032328229400052443,-0.78488919,0.00022419813100061508,-2.3560405000000006,0.00019407011300033656,1.5709250499999998,0.7857718719999992,0.0399999556,0.0399999709,-9.8197723,0.01191112324597107,-0.007379092500008006,-0.005458141700013124,-0.012860985472805082,-0.00031141004500075765
0.3075,0.0003280086710005287,-0.784889535,0.00022974166150062014,-2.3560433500000006,0.00019710339950033932,1.5709234749999998,0.7857650079999992,0.0399999544,0.03999996985,-9.81976795,0.012061014585213678,-0.007451243250008071,-0.0055764255500132314,-0.012922023888684143,-0.0003182382925007639
0.31,0.00033273504800053304,-0.78488988,0.0002352851920006252,-2.3560462000000006,0.00020013668600034207,1.5709218999999999,0.7857581439999992,0.0399999532,0.0399999688,-9.8197636,0.012210905924456283,-0.007523394000008137,-0.005694709400013339,-0.012983062304563203,-0.00032506654000077006
0.3125,0.0003374614250005373,-0.784890225,0.00024082872250063024,-2.3560490500000006,0.00020316997250034485,1.570920325,0.7857512799999992,0.039999952,0.03999996775,-9.819759249999999,0.01236079726369889,-0.007595544750008202,-0.005812993250013447,-0.013044100720442264,-0.0003318947875007763
0.315,0.00034218780200054164,-0.7848905700000001,0.00024637225300063527,-2.3560519000000006,0.0002062032590003476,1.57091875,0.7857444159999992,0.039999950799999996,0.0399999667,-9.8197549,0.012510688602941498,-0.007667695500008268,-0.005931277100013555,-0.013105139136321326,-0.0003387230350007825
0.3175,0.00034713882250062374,-0.7848912275000002,0.00025217811800073124,-2.3560545400000006,0.00020937980350040002,1.57091717,0.7857372264999991,0.03999995,0.0399999662,-9.819759800000002,0.012651360500618014,-0.007731291200005369,-0.0060527217200147575,-0.01316691255197653,-0.00034578102250086833
0.32,0.00035253913000062866,-0.7848925100000002,0.000258508652000737,-2.3560567600000004,0.00021284286400040316,1.5709155799999999,0.7857293859999991,0.03999995,0.0399999668,-9.819783200000002,0.01277359351517191,-0.007777776800005412,-0.0061804878800148745,-0.013230155967183263,-0.00035329849000087515
0.3225,0.0003579394375006336,-0.7848937925000001,0.00026483918600074275,-2.3560589800000002,0.00021630592450040632,1.5709139899999998,0.7857215454999991,0.03999995,0.0399999674,-9.819806600000001,0.012895826529725807,-0.007824262400005454,-0.006308254040014991,-0.013293399382389996,-0.00036081595750088203
0.325,0.0003633397450006385,-0.7848950750000001,0.0002711697200007485,-2.3560612000000005,0.00021976898500040946,1.5709123999999999,0.785713704999999,0.03999995,0.039999968000000004,-9.819830000000003,0.013018059544279703,-0.007870748000005496,-0.006436020200015107,-0.013356642797596728,-0.00036833342500088885
0.3275,0.0003687400525006434,-0.7848963575000002,0.00027750025400075426,-2.3560634200000004,0.00022323204550041262,1.5709108099999998,0.785705864499999,0.03999995,0.0399999686,-9.819853400000003,0.013140292558833599,-0.00791723360000554,-0.006563786360015223,-0.01341988621280346,-0.00037585089250089567
0.33,0.00037414036000064834,-0.7848976400000002,0.00028383078800076,-2.35606564,0.00022669510600041576,1.5709092199999997,0.7856980239999991,0.03999995,0.0399999692,-9.819876800000003,0.013262525573387496,-0.00796371920000558,-0.00669155252001534,-0.013483129628010192,-0.00038336836000090255
0.3325,0.00037954066750065326,-0.7848989225000002,0.0002901613220007658,-2.3560678600000005,0.00023015816650041892,1.5709076299999998,0.7856901834999991,0.03999995,0.0399999698,-9.819900200000003,0.013384758587941392,-0.008010204800005624,-0.006819318680015456,-0.013546373043216925,-0.00039088582750090937
0.335,0.00038542388300074644,-0.7849008250000002,0.0002970556280008746,-2.3560698400000004,0.0002339291980004784,1.5709059999999997,0.7856816429999989,0.03999995,0.03999997,-9.819877999999994,0.013527489267308256,-0.008065842200007339,-0.006953429160016732,-0.013607650063939249,-0.00039869435500096943
0.3375,0.00039154855250075204,-0.7849030375000002,0.0003042318200008812,-2.3560717,0.00023785421500048195,1.5709043499999997,0.7856727524999989,0.03999995,0.03999997,-9.819832999999994,0.01368046877907601,-0.008126055500007393,-0.007090711800016857,-0.013667943887419903,-0.0004066484125009767
0.34,0.0003976732220007576,-0.7849052500000002,0.0003114080120008877,-2.3560735600000005,0.00024177923200048552,1.5709026999999998,0.7856638619999988,0.03999995,0.03999997,-9.819787999999994,0.013833448290843764,-0.00818626880000745,-0.007227994440016982,-0.013728237710900558,-0.0004146024700009839
0.3425,0.0004037978915007632,-0.7849074625000002,0.00031858420400089426,-2.3560754200000003,0.0002457042490004891,1.5709010499999998,0.7856549714999989,0.03999995,0.03999997,-9.819742999999995,0.013986427802611518,-0.008246482100007503,-0.0073652770800171075,-0.013788531534381213,-0.00042255652750099117
0.34500000000000003,0.00040992256100076874,-0.7849096750000002,0.00032576039600090077,-2.3560772800000005,0.0002496292660004927,1.5708993999999996,0.7856460809999989,0.03999995,0.03999997,-9.819697999999995,0.014139407314379272,-0.008306695400007558,-0.007502559720017232,-0.013848825357861869,-0.0004305105850009984
0.34750000000000003,0.00041604723050077435,-0.7849118875000002,0.00033293658800090734,-2.3560791400000003,0.00025355428300049627,1.5708977499999996,0.7856371904999988,0.03999995,0.03999997,-9.819652999999995,0.014292386826147026,-0.008366908700007614,-0.007639842360017357,-0.013909119181342524,-0.00043846464250100564
0.35000000000000003,0.0004221719000008786,-0.7849141000000004,0.00034011278000102904,-2.356081,0.0002574793000005627,1.5708960999999997,0.7856282999999987,0.03999995,0.03999997,-9.819607999999999,0.01444536633791057,-0.008427122000004627,-0.007777125000018691,-0.01396941300482305,-0.00044641870000110154
0.3525,0.00042907154600097886,-0.7849172500000005,0.00034819353800114646,-2.3560827250000003,0.00026189818900062694,1.5708939549999996,0.7856182949999986,0.03999995,0.039999970450000005,-9.819590449999998,0.014565286505984303,-0.008463454250005154,-0.007923900300020824,-0.014028696250178807,-0.0004550688955012272
0.355,0.00043597119200107926,-0.7849204000000004,0.00035627429600126404,-2.3560844500000004,0.00026631707800069127,1.5708918099999996,0.7856082899999984,0.03999995,0.0399999709,-9.819572899999997,0.014685206674058038,-0.008499786500005683,-0.00807067560002296,-0.014087979495534564,-0.0004637190910013531
0.3575,0.00044287083800117967,-0.7849235500000005,0.00036435505400138167,-2.356086175,0.00027073596700075554,1.5708896649999995,0.7855982849999983,0.03999995,0.03999997135,-9.819555349999996,0.014805126842131774,-0.008536118750006212,-0.008217450900025096,-0.014147262740890322,-0.000472369286501479
0.36,0.0004497704840012801,-0.7849267000000005,0.00037243581200149925,-2.3560879000000003,0.00027515485600081987,1.5708875199999996,0.7855882799999981,0.03999995,0.0399999718,-9.819537799999997,0.014925047010205509,-0.008572451000006741,-0.008364226200027232,-0.014206545986246079,-0.00048101948200160487
0.3625,0.0004566701300013805,-0.7849298500000006,0.00038051657000161683,-2.3560896250000005,0.0002795737450008842,1.5708853749999996,0.785578274999998,0.03999995,0.03999997225,-9.819520249999997,0.015044967178279243,-0.008608783250007268,-0.008511001500029368,-0.014265829231601837,-0.0004896696775017308
0.365,0.0004635697760014809,-0.7849330000000007,0.00038859732800173446,-2.3560913500000003,0.0002839926340009485,1.5708832299999995,0.7855682699999978,0.03999995,0.039999972700000004,-9.819502699999996,0.01516488734635298,-0.008645115500007797,-0.008657776800031504,-0.014325112476957594,-0.0004983198730018567
0.3675,0.0004707446600017003,-0.7849364800000009,0.0003969992735019906,-2.356092965,0.0002885868995010884,1.5708810799999995,0.7855578599999975,0.0399999502,0.03999997335,-9.819503400000007,0.015295568760517894,-0.008679912000006982,-0.008807746250034413,-0.014385008020339898,-0.0005071616090020303
0.37,0.000478470020001602,-0.7849406200000009,0.0004060435940018755,-2.35609436,0.00029353191800102544,1.5708789199999995,0.7855466399999976,0.039999950799999996,0.0399999744,-9.819540600000007,0.01544777266684344,-0.008711637000006578,-0.008964104000032422,-0.014446128159774054,-0.0005163864260019129
0.3725,0.0004861953800015036,-0.7849447600000008,0.0004150879145017603,-2.356095755,0.0002984769365009625,1.5708767599999995,0.7855354199999978,0.0399999514,0.03999997545,-9.819577800000006,0.015599976573168988,-0.008743362000006175,-0.009120461750030432,-0.01450724829920821,-0.0005256112430017954
0.375,0.0004939207400014052,-0.7849489000000007,0.0004241322350016452,-2.35609715,0.0003034219550008995,1.5708745999999996,0.785524199999998,0.039999952,0.0399999765,-9.819615000000006,0.015752180479494535,-0.00877508700000577,-0.009276819500028441,-0.014568368438642367,-0.000534836060001678
0.3775,0.0005016461000013068,-0.7849530400000007,0.00043317655550153,-2.356098545,0.00030836697350083655,1.5708724399999996,0.7855129799999981,0.0399999526,0.039999977549999996,-9.819652200000005,0.01590438438582008,-0.008806812000005368,-0.00943317725002645,-0.014629488578076525,-0.0005440608770015605
0.38,0.0005093714600012086,-0.7849571800000007,0.00044222087600141486,-2.35609994,0.00031331199200077355,1.5708702799999996,0.7855017599999983,0.0399999532,0.0399999786,-9.819689400000005,0.01605658829214563,-0.008838537000004964,-0.00958953500002446,-0.014690608717510682,-0.000553285694001443
0.3825,0.0005170968200011102,-0.7849613200000006,0.00045126519650129967,-2.356101335,0.0003182570105007106,1.5708681199999996,0.7854905399999984,0.039999953799999995,0.039999979649999996,-9.819726600000006,0.016208792198471177,-0.00887026200000456,-0.009745892750022469,-0.014751728856944838,-0.0005625105110013257
0.385,0.0005254064360012048,-0.7849661200000008,0.00046099121800141,-2.35610249,0.0003235742510007708,1.5708658499999997,0.7854784869999983,0.0399999546,0.0399999808,-9.819734599999999,0.01633692104371021,-0.00889573530000313,-0.009908555100023225,-0.014812348037966556,-0.0005720325150013545
0.3875,0.0005340081800012126,-0.7849712500000008,0.0004710580900014192,-2.356103525,0.0003290776025007758,1.5708635249999998,0.7854660174999982,0.039999955499999996,0.039999981999999996,-9.819728,0.01645301235841354,-0.00891808275000315,-0.010074369750023376,-0.01487271673978221,-0.0005817031125013633
0.39,0.0005426099240012205,-0.7849763800000007,0.00048112496200142837,-2.35610456,0.00033458095400078084,1.5708611999999997,0.7854535479999982,0.0399999564,0.0399999832,-9.819721399999999,0.01656910367311687,-0.008940430200003171,-0.010240184400023528,-0.014933085441597865,-0.0005913737100013721
0.3925,0.0005512116680012282,-0.7849815100000007,0.0004911918340014376,-2.3561055950000003,0.00034008430550078585,1.5708588749999997,0.7854410784999982,0.0399999573,0.0399999844,-9.819714799999998,0.0166851949878202,-0.008962777650003192,-0.010405999050023679,-0.01499345414341352,-0.0006010443075013809
0.395,0.0005598134120012361,-0.7849866400000007,0.0005012587060014467,-2.35610663,0.00034558765700079086,1.5708565499999998,0.7854286089999982,0.0399999582,0.0399999856,-9.819708199999999,0.016801286302523533,-0.00898512510000321,-0.01057181370002383,-0.015053822845229175,-0.0006107149050013897
0.3975,0.0005684151560012439,-0.7849917700000008,0.0005113255780014559,-2.356107665,0.00035109100850079587,1.5708542249999997,0.7854161394999982,0.0399999591,0.0399999868,-9.819701599999998,0.016917377617226864,-0.009007472550003231,-0.010737628350023981,-0.01511419154704483,-0.0006203855025013986
0.4,0.0005770169000013866,-0.7849969000000009,0.0005213924500016224,-2.3561087,0.00035659436000088696,1.5708518999999996,0.785403669999998,0.03999996,0.039999988,-9.819695,0.017033468931935285,-0.009029820000003318,-0.010903443000025523,-0.015174560248860392,-0.0006300561000014904
0.4025,0.0005865456590013953,-0.7850030650000009,0.0005325406675016325,-2.356109405,0.0003626893760008925,1.5708491699999996,0.785389865499998,0.0399999609,0.0399999883,-9.8197004,0.017184547428063742,-0.009052620900003338,-0.011078826150025683,-0.015234289830559227,-0.0006402974700014997
0.405,0.000596074418001404,-0.7850092300000009,0.0005436888850016427,-2.35611011,0.0003687843920008981,1.5708464399999997,0.7853760609999979,0.0399999618,0.0399999886,-9.819705800000001,0.017335625924192202,-0.009075421800003359,-0.011254209300025842,-0.01529401941225806,-0.0006505388400015091
0.40750000000000003,0.0006056031770014127,-0.785015395000001,0.0005548371025016529,-2.356110815,0.0003748794080009036,1.5708437099999997,0.7853622564999979,0.0399999627,0.0399999889,-9.8197112,0.01748670442032066,-0.00909822270000338,-0.011429592450026003,-0.015353748993956895,-0.0006607802100015184
0.41000000000000003,0.0006151319360014213,-0.7850215600000009,0.0005659853200016629,-2.3561115200000002,0.00038097442400090916,1.5708409799999996,0.7853484519999979,0.0399999636,0.0399999892,-9.819716600000001,0.017637782916449116,-0.009121023600003402,-0.011604975600026162,-0.01541347857565573,-0.0006710215800015278
0.41250000000000003,0.0006246606950014301,-0.785027725000001,0.0005771335375016731,-2.356112225,0.00038706944000091475,1.5708382499999998,0.7853346474999979,0.0399999645,0.0399999895,-9.819722,0.017788861412577576,-0.009143824500003422,-0.011780358750026322,-0.015473208157354564,-0.000681262950001537
0.41500000000000004,0.0006341894540014387,-0.7850338900000009,0.0005882817550016833,-2.35611293,0.0003931644560009203,1.5708355199999997,0.7853208429999979,0.0399999654,0.039999989799999996,-9.819727400000001,0.017939939908706033,-0.009166625400003443,-0.011955741900026481,-0.015532937739053398,-0.0006915043200015464
0.4175,0.0006440440270015956,-0.7850403930000011,0.0005998099900018663,-2.35611359,0.00039946641500102,1.5708327399999997,0.7853065679999977,0.0399999662,0.0399999905,-9.819731,0.01807647626848653,-0.009179638299999003,-0.01213429402502808,-0.01559296273627303,-0.0007020285735016843
0.42,0.0006545502280016052,-0.7850475720000011,0.0006120982600018775,-2.35611416,0.00040618226000102613,1.5708298599999997,0.7852913519999977,0.0399999668,0.039999992,-9.819731,0.018183928355590958,-0.009173075199998998,-0.01231918410002825,-0.015653578564533862,-0.0007131185940016945
0.4225,0.0006650564290016147,-0.7850547510000011,0.0006243865300018887,-2.35611473,0.0004128981050010322,1.5708269799999997,0.7852761359999977,0.0399999674,0.0399999935,-9.819731,0.018291380442695387,-0.009166512099998992,-0.012504074175028418,-0.015714194392794693,-0.0007242086145017046
0.425,0.0006755626300016243,-0.7850619300000011,0.0006366748000018998,-2.3561153,0.00041961395000103833,1.5708240999999996,0.7852609199999976,0.039999968000000004,0.039999995,-9.819731,0.018398832529799812,-0.009159948999998986,-0.012688964250028587,-0.01577481022105552,-0.0007352986350017146
0.4275,0.0006860688310016339,-0.7850691090000012,0.0006489630700019111,-2.35611587,0.00042632979500104446,1.5708212199999996,0.7852457039999976,0.0399999686,0.0399999965,-9.819731,0.01850628461690424,-0.00915338589999898,-0.012873854325028754,-0.015835426049316353,-0.0007463886555017247
0.43,0.0006965750320016435,-0.7850762880000012,0.0006612513400019223,-2.35611644,0.00043304564000105054,1.5708183399999995,0.7852304879999976,0.0399999692,0.039999998,-9.819731,0.01861373670400867,-0.009146822799998974,-0.013058744400028924,-0.015896041877577184,-0.0007574786760017349
0.4325,0.000707081233001653,-0.7850834670000012,0.0006735396100019334,-2.35611701,0.00043976148500105667,1.5708154599999995,0.7852152719999975,0.0399999698,0.0399999995,-9.819731,0.0187211887911131,-0.009140259699998968,-0.013243634475029091,-0.015956657705838012,-0.0007685686965017449
0.435,0.0007182724900018252,-0.7850913840000013,0.0006866267950021343,-2.35611747,0.00044691492000116664,1.5708122899999994,0.7851990599999973,0.0399999703,0.04,-9.819758800000008,0.01885764952751401,-0.009143033100001178,-0.013434816500030753,-0.01601768620313176,-0.0007797796760017837
0.4375,0.0007298062750018357,-0.7850996700000014,0.0007001134375021465,-2.356117875,0.00045428715000117337,1.5708089749999994,0.7851823499999974,0.03999997075,0.04,-9.819800500000007,0.019008614588552877,-0.009150474750001185,-0.01362914450003093,-0.016078921034941823,-0.000791051135001794
0.44,0.0007413400600018462,-0.7851079560000014,0.0007136000800021589,-2.35611828,0.00046165938000118005,1.5708056599999995,0.7851656399999973,0.039999971200000005,0.04,-9.819842200000007,0.019159579649591744,-0.009157916400001192,-0.013823472500031107,-0.016140155866751882,-0.0008023225940018043
0.4425,0.0007528738450018567,-0.7851162420000014,0.0007270867225021711,-2.3561186849999998,0.0004690316100011868,1.5708023449999995,0.7851489299999973,0.03999997165,0.04,-9.819883900000008,0.019310544710630612,-0.009165358050001198,-0.014017800500031284,-0.016201390698561944,-0.0008135940530018145
0.445,0.0007644076300018672,-0.7851245280000013,0.0007405733650021834,-2.35611909,0.00047640384000119347,1.5707990299999994,0.7851322199999973,0.0399999721,0.04,-9.819925600000008,0.01946150977166948,-0.009172799700001205,-0.01421212850003146,-0.016262625530372003,-0.0008248655120018248
0.4475,0.0007759414150018777,-0.7851328140000013,0.0007540600075021957,-2.356119495,0.00048377607000120015,1.5707957149999994,0.7851155099999972,0.03999997255,0.04,-9.819967300000007,0.019612474832708348,-0.009180241350001212,-0.014406456500031637,-0.016323860362182065,-0.0008361369710018351
0.45,0.0007874752000020647,-0.7851411000000016,0.0007675466500024137,-2.3561199,0.0004911483000013197,1.5707923999999993,0.785098799999997,0.039999973,0.04,-9.820009000000004,0.01976343989373926,-0.00918768299999544,-0.01460078450003334,-0.016385095193992387,-0.0008474084300019271
0.4525,0.0008000864200020761,-0.7851505050000016,0.0007822896580024271,-2.356119915,0.0004992099225013271,1.5707889349999995,0.785080544999997,0.0399999736,0.04,-9.820031050000004,0.019865813944505588,-0.009159822599995414,-0.014804432525033525,-0.01644793320448238,-0.0008591793455019378
0.455,0.0008126976400020876,-0.7851599100000016,0.0007970326660024405,-2.35611993,0.0005072715450013344,1.5707854699999995,0.7850622899999969,0.0399999742,0.04,-9.820053100000004,0.019968187995271915,-0.009131962199995389,-0.01500808055003371,-0.01651077121497237,-0.0008709502610019485
0.4575,0.0008253088600020991,-0.7851693150000015,0.0008117756740024539,-2.356119945,0.0005153331675013418,1.5707820049999994,0.785044034999997,0.0399999748,0.04,-9.820075150000005,0.020070562046038243,-0.009104101799995363,-0.015211728575033896,-0.016573609225462364,-0.0008827211765019593
0.46,0.0008379200800021105,-0.7851787200000016,0.0008265186820024673,-2.35611996,0.0005233947900013491,1.5707785399999994,0.7850257799999969,0.0399999754,0.04,-9.820097200000005,0.02017293609680457,-0.009076241399995338,-0.015415376600034081,-0.016636447235952357,-0.0008944920920019699
0.4625,0.0008505313000021221,-0.7851881250000016,0.0008412616900024808,-2.3561199750000004,0.0005314564125013565,1.5707750749999994,0.7850075249999969,0.039999976,0.04,-9.820119250000005,0.0202753101475709,-0.009048380999995312,-0.015619024625034266,-0.016699285246442347,-0.0009062630075019806
0.465,0.0008631425200021335,-0.7851975300000016,0.0008560046980024942,-2.3561199900000003,0.0005395180350013638,1.5707716099999995,0.7849892699999969,0.0399999766,0.04,-9.820141300000005,0.02037768419833723,-0.009020520599995287,-0.01582267265003445,-0.01676212325693234,-0.0009180339230019913
0.4675,0.0008761293750022743,-0.7852073150000017,0.0008711856715026581,-2.3561199,0.0005478189040014533,1.5707679999999993,0.7849704749999967,0.039999977,0.04,-9.820162050000004,0.020493524894141944,-0.008997942299998011,-0.01602942620003525,-0.016824875865141913,-0.0009300779200020841
0.47000000000000003,0.0008898675000020993,-0.7852178600000016,0.0008872425760024536,-2.3561196,0.0005565982660013416,1.5707640999999994,0.784950599999997,0.039999977,0.04,-9.820180200000003,0.020636298880002856,-0.008985928199998165,-0.016242390800032543,-0.01688745766879078,-0.0009426680800019238
0.47250000000000003,0.0009036056250019244,-0.7852284050000015,0.0009032994805022492,-2.3561193,0.0005653776280012297,1.5707601999999994,0.7849307249999972,0.039999977,0.04,-9.820198350000004,0.02077907286586377,-0.008973914099998316,-0.01645535540002983,-0.01695003947243965,-0.0009552582400017635
0.47500000000000003,0.0009173437500017494,-0.7852389500000013,0.0009193563850020448,-2.356119,0.000574156990001118,1.5707562999999996,0.7849108499999975,0.039999977,0.04,-9.820216500000003,0.02092184685172468,-0.00896189999999847,-0.016668320000027118,-0.01701262127608852,-0.0009678484000016033
0.47750000000000004,0.0009310818750015746,-0.7852494950000012,0.0009354132895018403,-2.3561187,0.0005829363520010062,1.5707523999999995,0.7848909749999977,0.039999977,0.04,-9.820234650000003,0.021064620837585594,-0.008949885899998624,-0.01688128460002441,-0.017075203079737387,-0.000980438560001443
0.48,0.0009448200000013993,-0.785260040000001,0.0009514701940016354,-2.3561184,0.0005917157140008943,1.5707484999999997,0.7848710999999979,0.039999977,0.04,-9.820252800000002,0.021207394823446503,-0.008937871799998777,-0.01709424920002169,-0.017137784883386253,-0.0009930287200012825
0.4825,0.0009585581250012244,-0.7852705850000009,0.000967527098501431,-2.3561180999999998,0.0006004950760007824,1.5707445999999996,0.7848512249999983,0.039999977,0.04,-9.820270950000003,0.021350168809307415,-0.00892585769999893,-0.01730721380001898,-0.01720036668703512,-0.0010056188800011221
0.485,0.0009730801500014107,-0.785281913000001,0.0009844979700016484,-2.35611766,0.0006097729370009011,1.5707405499999996,0.7848302149999979,0.0399999766,0.04,-9.8202753,0.02145957667381447,-0.008891107299995638,-0.01752635900002102,-0.01726345978677866,-0.0010186705700012562
0.4875,0.0009879941250016276,-0.7852936325000013,0.001001925825001902,-2.3561171499999998,0.0006193000475010397,1.5707364249999995,0.7848086374999976,0.039999976,0.04,-9.82027275,0.02155230147765097,-0.008844988749994967,-0.017748594500024254,-0.017326808534569436,-0.0010319530250014496
0.49,0.0010029081000018448,-0.7853053520000014,0.0010193536800021557,-2.3561166399999998,0.0006288271580011783,1.5707322999999995,0.7847870599999973,0.0399999754,0.04,-9.8202702,0.02164502628148747,-0.008798870199994296,-0.01797083000002749,-0.017390157282360215,-0.0010452354800016429
0.4925,0.0010178220750020617,-0.7853170715000016,0.0010367815350024092,-2.35611613,0.000638354268501317,1.5707281749999995,0.784765482499997,0.0399999748,0.04,-9.82026765,0.02173775108532397,-0.008752751649993624,-0.018193065500030723,-0.017453506030150993,-0.001058517935001836
0.495,0.0010327360500022788,-0.7853287910000017,0.001054209390002663,-2.35611562,0.0006478813790014557,1.5707240499999995,0.7847439049999967,0.0399999742,0.04,-9.820265099999999,0.02183047588916047,-0.008706633099992953,-0.018415301000033957,-0.01751685477794177,-0.0010718003900020295
0.4975,0.0010476500250024957,-0.785340510500002,0.0010716372450029165,-2.35611511,0.0006574084895015944,1.5707199249999995,0.7847223274999964,0.0399999736,0.04,-9.820262549999999,0.02192320069299697,-0.008660514549992282,-0.018637536500037192,-0.017580203525732547,-0.0010850828450022227
0.5,0.0010625640000029356,-0.7853522300000023,0.0010890651000034298,-2.3561146,0.0006669356000018744,1.5707157999999992,0.7847007499999957,0.039999973,0.04,-9.820260000000006,0.022015925496841858,-0.008614395999993717,-0.018859772000042078,-0.017643552273523436,-0.0010983653000025408
0.5025000000000001,0.0010787023950029507,-0.7853651765000024,0.0011079203250034474,-2.35611403,0.000677239910001884,1.5707112849999993,0.7846774024999957,0.03999997255,0.04,-9.820299150000006,0.022154784854526835,-0.008579850249993684,-0.019091100800042296,-0.017707521561544825,-0.001112334425002554
0.505,0.0010948407900029649,-0.7853781230000024,0.001126775550003464,-2.35611346,0.0006875442200018931,1.5707067699999993,0.7846540549999956,0.0399999721,0.04,-9.820338300000007,0.0222936442122118,-0.008545304499993652,-0.0193224296000425,-0.017771490849566213,-0.0011263035500025664
0.5075000000000001,0.00111097918500298,-0.7853910695000024,0.0011456307750034817,-2.35611289,0.0006978485300019028,1.5707022549999992,0.7846307074999956,0.03999997165,0.04,-9.820377450000006,0.022432503569896775,-0.008510758749993621,-0.019553758400042715,-0.017835460137587602,-0.0011402726750025793
0.51,0.0011271175800029944,-0.7854040160000024,0.0011644860000034985,-2.3561123200000003,0.0007081528400019119,1.5706977399999993,0.7846073599999956,0.039999971200000005,0.04,-9.820416600000007,0.022571362927581745,-0.00847621299999359,-0.019785087200042923,-0.01789942942560899,-0.0011542418000025918
0.5125,0.0011432559750030086,-0.7854169625000024,0.001183341225003515,-2.35611175,0.0007184571500019211,1.5706932249999992,0.7845840124999957,0.03999997075,0.04,-9.820455750000006,0.02271022228526671,-0.008441667249993559,-0.020016416000043127,-0.017963398713630375,-0.0011682109250026043
0.515,0.0011593943700030237,-0.7854299090000024,0.0012021964500035327,-2.35611118,0.0007287614600019307,1.5706887099999993,0.7845606649999957,0.0399999703,0.04,-9.820494900000007,0.02284908164295169,-0.008407121499993528,-0.020247744800043342,-0.018027368001651767,-0.0011821800500026172
0.5175,0.0011759568800032776,-0.7854432695000026,0.0012215460700038287,-2.35611048,0.0007393354250020921,1.5706840649999991,0.7845367049999953,0.0399999698,0.04,-9.820534350000006,0.022969743050650655,-0.008361432649987203,-0.02048208455004525,-0.01809200420976921,-0.0011962993500027146
0.52,0.0011933676200032938,-0.7854574580000027,0.0012418844800038476,-2.35610952,0.0007504487000021025,1.5706791599999992,0.7845115199999952,0.0399999692,0.04,-9.820574400000007,0.0230540085584084,-0.00829345759998714,-0.020722446200045472,-0.018157974258077643,-0.001210719000002728
0.5225,0.0012107783600033093,-0.7854716465000027,0.0012622228900038657,-2.35610856,0.0007615619750021124,1.5706742549999992,0.7844863349999952,0.0399999686,0.04,-9.820614450000008,0.023138274066166146,-0.00822548254998708,-0.020962807850045687,-0.01822394430638607,-0.0012251386500027406
0.525,0.0012281891000033255,-0.7854858350000027,0.0012825613000038848,-2.3561076,0.0007726752500021227,1.570669349999999,0.7844611499999952,0.039999968,0.04,-9.820654500000007,0.023222539573923895,-0.008157507499987017,-0.021203169500045912,-0.0182899143546945,-0.0012395583000027542
0.5275,0.001245599840003341,-0.7855000235000027,0.0013028997100039028,-2.3561066399999997,0.0007837885250021326,1.5706644449999991,0.7844359649999951,0.0399999674,0.04,-9.820694550000008,0.02330680508168164,-0.008089532449986957,-0.021443531150046123,-0.01835588440300293,-0.0012539779500027669
0.53,0.0012630105800033571,-0.7855142120000027,0.0013232381200039217,-2.3561056799999998,0.000794901800002143,1.5706595399999992,0.7844107799999951,0.0399999668,0.04,-9.820734600000009,0.02339107058943939,-0.008021557399986893,-0.02168389280004635,-0.01842185445131136,-0.0012683976000027804
0.5325,0.0012804213200033727,-0.7855284005000027,0.0013435765300039398,-2.35610472,0.0008060150750021528,1.570654634999999,0.7843855949999952,0.0399999662,0.04,-9.820774650000008,0.02347533609719713,-0.007953582349986834,-0.02192425445004656,-0.01848782449961979,-0.001282817250002793
0.535,0.0012987118800036458,-0.7855434370000031,0.0013649404800042582,-2.35610361,0.0008176885530023268,1.5706495399999991,0.7843591399999947,0.0399999652,0.0399999995,-9.820793900000002,0.0235742518678514,-0.007886196299986941,-0.022170515700048507,-0.018554185144616136,-0.0012975389700028948
0.5375,0.0013174423500036624,-0.7855588975000031,0.0013868172000042777,-2.3561024249999996,0.0008296421325023373,1.5706443499999991,0.7843320499999947,0.039999964,0.03999999875,-9.820802750000002,0.023680492769947523,-0.007819104749986882,-0.02241972675004873,-0.018620741087956263,-0.001312411725002908
0.54,0.0013361728200036798,-0.7855743580000031,0.0014086939200042981,-2.3561012399999997,0.0008415957120023485,1.5706391599999991,0.7843049599999947,0.0399999628,0.039999998,-9.820811600000003,0.023786733672043654,-0.007752013199986819,-0.02266893780004896,-0.018687297031296395,-0.001327284480002922
0.5425,0.0013549032900036964,-0.7855898185000031,0.0014305706400043175,-2.3561000549999997,0.000853549291502359,1.5706339699999992,0.7842778699999947,0.0399999616,0.03999999725,-9.820820450000003,0.023892974574139778,-0.00768492164998676,-0.022918148850049183,-0.018753852974636526,-0.0013421572350029352
0.545,0.001373633760003714,-0.7856052790000031,0.001452447360004338,-2.35609887,0.0008655028710023703,1.570628779999999,0.7842507799999946,0.0399999604,0.0399999965,-9.820829300000002,0.023999215476235906,-0.007617830099986697,-0.023167359900049415,-0.018820408917976657,-0.001357029990002949
0.5475,0.0013923642300037306,-0.7856207395000031,0.0014743240800043573,-2.356097685,0.0008774564505023808,1.570623589999999,0.7842236899999946,0.039999959200000004,0.03999999575,-9.820838150000002,0.02410545637833203,-0.007550738549986637,-0.023416570950049637,-0.018886964861316788,-0.0013719027450029622
0.55,0.0014110947000040214,-0.7856362000000033,0.0014962008000046964,-2.3560964999999996,0.0008894100300025655,1.570618399999999,0.7841965999999942,0.039999958,0.039999995,-9.82084700000001,0.024211697280432588,-0.007483646999986733,-0.023665782000051625,-0.018953520804657054,-0.0013867755000031364
0.5525,0.0014311916250040393,-0.7856529625000034,0.0015196702350047174,-2.356095,0.000902231125502577,1.570612744999999,0.7841675449999942,0.0399999574,0.03999999575,-9.820887500000008,0.02434006277474356,-0.007417345754986674,-0.023923770900051853,-0.019020761270089524,-0.0014024489100031502
0.555,0.0014512885500040582,-0.7856697250000034,0.0015431396700047392,-2.3560934999999996,0.0009150522210025889,1.5706070899999989,0.7841384899999941,0.0399999568,0.0399999965,-9.82092800000001,0.02446842826905454,-0.007351044509986612,-0.024181759800052095,-0.019088001735521998,-0.001418122320003165
0.5575,0.001471385475004076,-0.7856864875000034,0.00156660910500476,-2.356092,0.0009278733165026002,1.5706014349999988,0.7841094349999941,0.0399999562,0.03999999725,-9.820968500000008,0.024596793763365515,-0.007284743264986553,-0.024439748700052322,-0.019155242200954468,-0.0014337957300031789
0.56,0.0014914824000040947,-0.7857032500000034,0.001590078540004782,-2.3560904999999996,0.0009406944120026122,1.570595779999999,0.784080379999994,0.0399999556,0.039999998,-9.821009000000007,0.024725159257676495,-0.007218442019986492,-0.024697737600052564,-0.01922248266638694,-0.0014494691400031934
0.5625,0.0015115793250041127,-0.7857200125000035,0.0016135479750048027,-2.356089,0.0009535155075026236,1.570590124999999,0.784051324999994,0.039999955,0.03999999875,-9.821049500000008,0.024853524751987467,-0.007152140774986432,-0.024955726500052795,-0.01928972313181941,-0.0014651425500032075
0.5650000000000001,0.0015316762500041314,-0.7857367750000034,0.0016370174100048245,-2.3560874999999997,0.0009663366030026356,1.570584469999999,0.784022269999994,0.039999954399999996,0.0399999995,-9.821090000000007,0.024981890246298447,-0.007085839529986371,-0.025213715400053033,-0.019356963597251885,-0.001480815960003222
0.5675,0.0015522440400044409,-0.7857539905000037,0.0016610356200051854,-2.3560859249999995,0.0009794570500028324,1.5705786999999989,0.7839925374999935,0.039999953799999995,0.04,-9.821120650000001,0.025090475846096198,-0.007007752294979012,-0.025474595200055055,-0.019424611236914226,-0.0014966371800033274
0.5700000000000001,0.001573753560004461,-0.7857721120000037,0.0016861513800052086,-2.3560841999999997,0.0009931762000028451,1.5705726999999987,0.7839614499999935,0.0399999532,0.04,-9.821131600000001,0.025159501656904195,-0.006906093079978917,-0.025741256800055304,-0.01949307322503556,-0.0015127540200033426
0.5725,0.00159526308000448,-0.7857902335000038,0.001711267140005231,-2.3560824749999996,0.0010068953500028575,1.5705666999999988,0.7839303624999935,0.0399999526,0.04,-9.821142550000001,0.025228527467712192,-0.006804433864978827,-0.02600791840005554,-0.01956153521315689,-0.0015288708600033568
0.5750000000000001,0.0016167726000045001,-0.7858083550000038,0.0017363829000052544,-2.35608075,0.0010206145000028703,1.5705606999999988,0.7838992749999935,0.039999952,0.04,-9.821153500000001,0.02529755327852019,-0.006702774649978731,-0.026274580000055787,-0.019629997201278223,-0.001544987700003372
0.5775,0.0016382821200045191,-0.7858264765000038,0.0017614986600052768,-2.3560790249999997,0.0010343336500028824,1.5705546999999989,0.7838681874999934,0.0399999514,0.04,-9.821164450000001,0.025366579089328187,-0.006601115434978641,-0.026541241600056026,-0.019698459189399557,-0.0015611045400033862
0.58,0.0016597916400045382,-0.7858445980000038,0.001786614420005299,-2.3560773,0.0010480528000028945,1.5705486999999987,0.7838370999999934,0.039999950799999996,0.04,-9.821175400000001,0.025435604900136185,-0.006499456219978551,-0.026807903200056264,-0.019766921177520887,-0.0015772213800034005
0.5825,0.0016813011600045583,-0.7858627195000039,0.0018117301800053224,-2.3560755749999998,0.0010617719500029073,1.5705426999999987,0.7838060124999934,0.0399999502,0.04,-9.821186350000001,0.025504630710944182,-0.006397797004978456,-0.027074564800056513,-0.01983538316564222,-0.0015933382200034156
0.585,0.0017037826100048876,-0.7858817440000042,0.0018379787700057064,-2.3560738399999996,0.0010761091600031169,1.5705364499999988,0.7837735249999929,0.0399999497,0.04,-9.821213800000008,0.025609856285180983,-0.006301105469979952,-0.02734692850005857,-0.01990437582136673,-0.0016098298900035495
0.5875,0.0017267500250049092,-0.7859012200000042,0.0018647937750057313,-2.3560720999999996,0.0010907554000031306,1.5705300749999986,0.7837403374999928,0.03999994925,0.04,-9.821249500000008,0.02573318174111491,-0.0062068977749798636,-0.027622143250058826,-0.01997363381089258,-0.0016265089750035651
0.59,0.0017497174400049294,-0.7859206960000042,0.0018916087800057552,-2.35607036,0.0011054016400031436,1.5705236999999987,0.7837071499999928,0.0399999488,0.04,-9.821285200000007,0.02585650719704883,-0.00611269007997978,-0.027897358000059068,-0.020042891800418426,-0.0016431880600035799
0.5925,0.0017726848550049508,-0.7859401720000042,0.00191842378500578,-2.35606862,0.0011200478800031572,1.5705173249999986,0.7836739624999929,0.03999994835,0.04,-9.821320900000007,0.025979832652982753,-0.006018482384979693,-0.028172572750059327,-0.020112149789944272,-0.0016598671450035955
0.595,0.0017956522700049713,-0.7859596480000042,0.001945238790005804,-2.3560668799999998,0.0011346941200031703,1.5705109499999987,0.7836407749999929,0.0399999479,0.04,-9.821356600000007,0.026103158108916672,-0.005924274689979608,-0.02844778750005957,-0.02018140777947012,-0.0016765462300036102
0.5975,0.0018186196850049927,-0.7859791240000042,0.001972053795005829,-2.3560651399999997,0.001149340360003184,1.5705045749999986,0.7836075874999928,0.039999947450000004,0.04,-9.821392300000007,0.0262264835648506,-0.005830066994979521,-0.028723002250059828,-0.02025066576899597,-0.0016932253150036259
0.6,0.001841587100005341,-0.7859986000000045,0.001998868800006235,-2.3560633999999996,0.001163986600003406,1.5704981999999985,0.7835743999999922,0.039999947,0.04,-9.82142800000001,0.026349809020770065,-0.005735859299973729,-0.0289982170000619,-0.0203199237585223,-0.0017099044000037124
0.6025,0.001866057140005364,-0.7860194800000045,0.002027435055006262,-2.3560612099999996,0.0011795903800034205,1.5704913599999986,0.7835390404999922,0.039999947,0.03999999925,-9.82147960000001,0.026406921353203588,-0.005615501729973617,-0.02928182335006217,-0.020391402393595083,-0.0017269119100037282
0.605,0.0018905271800053857,-0.7860403600000045,0.002056001310006287,-2.3560590199999996,0.0011951941600034342,1.5704845199999986,0.7835036809999922,0.039999947,0.0399999985,-9.82153120000001,0.026464033685637108,-0.0054951441599735106,-0.02956542970006242,-0.020462881028667862,-0.0017439194200037432
0.6075,0.0019149972200054085,-0.7860612400000047,0.0020845675650063137,-2.3560568299999995,0.0012107979400034488,1.5704776799999987,0.7834683214999922,0.039999947,0.03999999775,-9.82158280000001,0.02652114601807063,-0.005374786589973399,-0.029849036050062682,-0.020534359663740644,-0.0017609269300037592
0.61,0.0019394672600054302,-0.7860821200000047,0.002113133820006339,-2.3560546399999995,0.0012264017200034627,1.5704708399999985,0.7834329619999921,0.039999947,0.039999997,-9.821634400000011,0.026578258350504154,-0.005254429019973292,-0.030132642400062935,-0.020605838298813423,-0.0017779344400037742
0.6125,0.001963937300005453,-0.7861030000000047,0.002141700075006366,-2.3560524499999995,0.0012420055000034772,1.5704639999999985,0.7833976024999921,0.039999947,0.03999999625,-9.82168600000001,0.026635370682937677,-0.005134071449973179,-0.0304162487500632,-0.020677316933886206,-0.00179494195000379
0.615,0.001988407340005475,-0.7861238800000047,0.0021702663300063913,-2.3560502599999995,0.0012576092800034911,1.5704571599999986,0.7833622429999921,0.039999947,0.0399999955,-9.821737600000011,0.026692483015371197,-0.005013713879973072,-0.030699855100063452,-0.020748795568958985,-0.0018119494600038052
0.6175,0.002013392885005963,-0.7861452450000052,0.0021994333350069607,-2.3560479899999995,0.0012735406600038017,1.5704501699999984,0.7833261464999914,0.03999994735,0.03999999525,-9.821776900000003,0.02676850548016652,-0.004894279674973048,-0.030986206000066893,-0.02082039825619911,-0.001829222550004081
0.62,0.0020394094400063415,-0.7861675800000054,0.002229801840007402,-2.356045559999999,0.0012901272400040428,1.5704428799999983,0.7832885759999909,0.0399999484,0.039999996,-9.821791600000003,0.026882348209647248,-0.004776692199971339,-0.031278046000071134,-0.020892249047773676,-0.0018470268000043398
0.6225,0.0020654259950067203,-0.7861899150000058,0.002260170345007845,-2.3560431299999993,0.0013067138200042845,1.5704355899999982,0.7832510054999903,0.03999994945,0.03999999675,-9.821806300000004,0.02699619093912798,-0.004659104724969625,-0.03156988600007539,-0.02096409983934824,-0.0018648310500045992
0.625,0.0020914425500070987,-0.786212250000006,0.002290538850008286,-2.3560406999999994,0.0013233004000045255,1.5704282999999981,0.7832134349999897,0.0399999505,0.0399999975,-9.821821000000003,0.02711003366860871,-0.004541517249967916,-0.03186172600007963,-0.021035950630922805,-0.0018826353000048579
0.6275000000000001,0.002117459105007478,-0.7862345850000064,0.0023209073550087287,-2.356038269999999,0.0013398869800047672,1.5704210099999978,0.7831758644999892,0.039999951549999996,0.03999999825,-9.821835700000005,0.027223876398089444,-0.004423929774966202,-0.032153566000083886,-0.021107801422497373,-0.0019004395500051173
0.63,0.002143475660007856,-0.7862569200000068,0.00235127586000917,-2.356035839999999,0.0013564735600050083,1.5704137199999977,0.7831382939999887,0.0399999526,0.039999999,-9.821850400000004,0.027337719127570173,-0.004306342299964494,-0.03244540600008813,-0.021179652214071937,-0.001918243800005376
0.6325000000000001,0.002169492215008235,-0.7862792550000071,0.0023816443650096124,-2.356033409999999,0.0013730601400052502,1.5704064299999976,0.7831007234999882,0.039999953649999996,0.03999999975,-9.821865100000005,0.02745156185705091,-0.00418875482496278,-0.03273724600009238,-0.021251503005646502,-0.0019360480500056356
0.635,0.002196568560008637,-0.7863025740000075,0.002413247900010081,-2.356030789999999,0.0013903221100055063,1.5703988899999974,0.7830616099999875,0.0399999536,0.04,-9.821880950000006,0.02751953937114692,-0.004049740539953155,-0.03303454620009387,-0.021324135176860236,-0.0019540701200056725
0.6375000000000001,0.0022241748000082864,-0.7863263850000072,0.0024454689500096713,-2.356028074999999,0.0014079217750052827,1.5703912249999976,0.783021724999988,0.039999953,0.04,-9.821897375000006,0.027564584277583744,-0.0039000128499550573,-0.03333457650009006,-0.021397158037892994,-0.001972201100005442
0.64,0.002251781040007934,-0.7863501960000069,0.0024776900000092607,-2.356025359999999,0.0014255214400050581,1.5703835599999978,0.7829818399999885,0.0399999524,0.04,-9.821913800000004,0.027609629184020566,-0.0037502851599569673,-0.03363460680008623,-0.021470180898925748,-0.001990332080005211
0.6425,0.002279387280007582,-0.7863740070000066,0.0025099110500088496,-2.356022644999999,0.0014431211050048337,1.570375894999998,0.7829419549999891,0.039999951799999996,0.04,-9.821930225000004,0.027654674090457385,-0.003600557469958877,-0.033934637100082404,-0.0215432037599585,-0.0020084630600049795
0.645,0.002306993520007231,-0.7863978180000063,0.0025421321000084402,-2.356019929999999,0.00146072077000461,1.570368229999998,0.7829020699999896,0.0399999512,0.04,-9.821946650000005,0.02769971899689421,-0.00345082977996078,-0.03423466740007859,-0.021616226620991257,-0.002026594040004749
0.6475,0.002334599760006879,-0.786421629000006,0.002574353150008029,-2.3560172149999996,0.0014783204350043856,1.570360564999998,0.78286218499999,0.0399999506,0.04,-9.821963075000003,0.02774476390333103,-0.0033011020899626894,-0.034534697700074765,-0.02168924948202401,-0.002044725020004518
0.65,0.002362206000006914,-0.786445440000006,0.0026065742000080695,-2.3560144999999992,0.001495920100004407,1.570352899999998,0.78282229999999,0.03999995,0.04,-9.821979500000008,0.027789808809781987,-0.003151374399966615,-0.0348347280000728,-0.021762272343056947,-0.002062856000004474
0.6525,0.0023914443000069402,-0.786470733000006,0.0026406971000080995,-2.3560116349999993,0.0015145566250044237,1.570344784999998,0.7827800749999899,0.03999995,0.04,-9.822016700000008,0.027894621714974456,-0.00301020009996649,-0.03514257630007307,-0.021836048737185806,-0.0020817752750044907
0.655,0.0024206826000069672,-0.786496026000006,0.0026748200000081316,-2.3560087699999994,0.0015331931500044411,1.570336669999998,0.78273784999999,0.03999995,0.04,-9.822053900000009,0.02799943462016693,-0.0028690257999663582,-0.03545042460007336,-0.021909825131314672,-0.0021006945500045083
0.6575,0.0024499209000069934,-0.7865213190000061,0.0027089429000081615,-2.3560059049999995,0.0015518296750044575,1.5703285549999981,0.7826956249999899,0.03999995,0.04,-9.822091100000009,0.028104247525359394,-0.0027278514999662332,-0.035758272900073634,-0.02198360152544353,-0.0021196138250045254
0.66,0.002479159200007021,-0.7865466120000061,0.0027430658000081936,-2.356003039999999,0.001570466200004475,1.5703204399999982,0.7826533999999898,0.03999995,0.04,-9.822128300000008,0.028209060430551866,-0.0025866771999661013,-0.03606612120007392,-0.022057377919572393,-0.002138533100004543
0.6625,0.0025083975000070465,-0.7865719050000061,0.0027771887000082236,-2.3560001749999993,0.0015891027250044916,1.570312324999998,0.7826111749999899,0.03999995,0.04,-9.82216550000001,0.028313873335744335,-0.0024455028999659763,-0.03637396950007419,-0.022131154313701256,-0.0021574523750045598
0.665,0.002537635800007074,-0.7865971980000062,0.0028113116000082557,-2.3559973099999993,0.0016077392500045088,1.570304209999998,0.7825689499999898,0.03999995,0.04,-9.822202700000009,0.028418686240936807,-0.0023043285999658444,-0.03668181780007448,-0.02220493070783012,-0.0021763716500045774
0.6675,0.0025674319500075065,-0.7866230020000066,0.0028460846250087596,-2.355994379999999,0.0016267304000047837,1.570295924999998,0.7825259199999892,0.03999995,0.04,-9.822237875000008,0.02849903423339888,-0.0021515936749572973,-0.03699229970007667,-0.022279289085436284,-0.002195472935004727
0.67,0.0025983438000075354,-0.7866498280000065,0.002882157900008793,-2.3559913199999993,0.0016464308000048021,1.570287299999998,0.7824812799999892,0.03999995,0.04,-9.822269000000007,0.028530452400453557,-0.0019757374999571334,-0.037308048800076966,-0.02235481142999579,-0.002214938240004745
0.6725,0.0026292556500075626,-0.7866766540000065,0.0029182311750088254,-2.3559882599999993,0.0016661312000048197,1.570278674999998,0.7824366399999891,0.03999995,0.04,-9.822300125000009,0.028561870567508234,-0.0017998813249569773,-0.03762379790007724,-0.02243033377455529,-0.002234403545004762
0.675,0.0026601675000075915,-0.7867034800000066,0.0029543044500088588,-2.3559851999999992,0.0016858316000048382,1.5702700499999978,0.7823919999999891,0.03999995,0.04,-9.822331250000008,0.028593288734562915,-0.001624025149956813,-0.03793954700007754,-0.022505856119114796,-0.00225386885000478
0.6775,0.002691079350007619,-0.7867303060000066,0.002990377725008891,-2.355982139999999,0.0017055320000048555,1.5702614249999978,0.7823473599999891,0.03999995,0.04,-9.822362375000008,0.028624706901617593,-0.001448168974956657,-0.03825529610007782,-0.0225813784636743,-0.0022733341550047973
0.68,0.0027219912000076476,-0.7867571320000066,0.0030264510000089246,-2.355979079999999,0.001725232400004874,1.5702527999999978,0.782302719999989,0.03999995,0.04,-9.822393500000008,0.028656125068672274,-0.0012723127999564928,-0.03857104520007811,-0.022656900808233803,-0.002292799460004816
0.6825,0.002752903050007675,-0.7867839580000067,0.0030625242750089566,-2.355976019999999,0.0017449328000048916,1.5702441749999978,0.782258079999989,0.03999995,0.04,-9.822424625000009,0.02868754323572695,-0.0010964566249563367,-0.038886794300078395,-0.022732423152793304,-0.002312264765004833
0.685,0.002784957700008131,-0.7868118460000071,0.003099929310009488,-2.3559727699999993,0.0017653620600051824,1.5702352099999977,0.7822117939999883,0.0399999504,0.04,-9.822463800000012,0.02876363173129622,-0.0009266669524584406,-0.039207609000080586,-0.022808857075889182,-0.002331871620004904
0.6875,0.0028175837500081604,-0.7868402650000071,0.003138000225009522,-2.355969424999999,0.0017861557500052007,1.5702260749999977,0.7821646849999883,0.039999951,0.04,-9.82250700000001,0.02886205539109779,-0.0007599105312082926,-0.03953095650008087,-0.02288574678825273,-0.0023515492500049214
0.6900000000000001,0.0028502098000081906,-0.7868686840000071,0.0031760711400095573,-2.355966079999999,0.0018069494400052202,1.5702169399999977,0.7821175759999882,0.0399999516,0.04,-9.822550200000011,0.02896047905089937,-0.000593154109958137,-0.03985430400008117,-0.022962636500616283,-0.0023712268800049397
0.6925,0.00288283585000822,-0.7868971030000071,0.003214142055009591,-2.355962734999999,0.0018277431300052387,1.5702078049999977,0.7820704669999882,0.0399999522,0.04,-9.822593400000011,0.02905890271070094,-0.0004263976887079889,-0.04017765150008146,-0.02303952621297983,-0.0023909045100049572
0.6950000000000001,0.00291546190000825,-0.7869255220000072,0.003252212970009627,-2.3559593899999993,0.001848536820005258,1.5701986699999977,0.7820233579999881,0.039999952799999995,0.04,-9.822636600000012,0.02915732637050252,-0.00025964126745783335,-0.040500999000081764,-0.02311641592534338,-0.0024105821400049756
0.6975,0.002948087950008279,-0.7869539410000073,0.0032902838850096604,-2.355956044999999,0.0018693305100052765,1.5701895349999977,0.7819762489999881,0.039999953399999996,0.04,-9.82267980000001,0.02925575003030409,-9.28848462076853e-05,-0.04082434650008205,-0.02319330563770693,-0.002430259770004993
0.7000000000000001,0.002980714000008756,-0.7869823600000077,0.0033283548000102164,-2.355952699999999,0.0018901242000055798,1.5701803999999975,0.7819291399999874,0.039999954,0.04,-9.822723000000005,0.029354173690084612,7.387157505260742e-05,-0.041147694000084264,-0.023270195350070848,-0.0024499374000052413
0.7025,0.003015094450008787,-0.7870123810000077,0.003368469930010252,-2.3559490999999992,0.001912032240005599,1.5701707999999974,0.7818794989999873,0.039999954,0.04,-9.822745200000005,0.029369923006747175,0.0002804301738027909,-0.04147856040008456,-0.023348523117621863,-0.0024705177900052598
0.705,0.0030494749000088174,-0.7870424020000077,0.003408585060010288,-2.3559454999999994,0.0019339402800056186,1.5701611999999976,0.7818298579999873,0.039999954,0.04,-9.822767400000005,0.02938567232340974,0.0004869887725529744,-0.041809426800084856,-0.02342685088517288,-0.002491098180005278
0.7075,0.0030838553500088495,-0.7870724230000077,0.003448700190010325,-2.355941899999999,0.001955848320005639,1.5701515999999975,0.7817802169999872,0.039999954,0.04,-9.822789600000005,0.029401421640072305,0.000693547371303167,-0.04214029320008516,-0.023505178652723894,-0.002511678570005297
0.71,0.00311823580000888,-0.7871024440000077,0.003488815320010361,-2.355938299999999,0.0019777563600056583,1.5701419999999975,0.7817305759999872,0.039999954,0.04,-9.822811800000006,0.029417170956734868,0.0009001059700533505,-0.042471159600085455,-0.02358350642027491,-0.0025322589600053156
0.7125,0.003152616250008912,-0.7871324650000078,0.0035289304500103983,-2.3559346999999993,0.0019996644000056787,1.5701323999999977,0.7816809349999871,0.039999954,0.04,-9.822834000000006,0.029432920273397434,0.0011066645688035432,-0.042802026000085765,-0.023661834187825928,-0.0025528393500053345
0.715,0.0031869967000089424,-0.7871624860000078,0.003569045580010434,-2.3559310999999994,0.0020215724400056982,1.5701227999999976,0.7816312939999871,0.039999954,0.04,-9.822856200000006,0.029448669590059998,0.0013132231675537266,-0.04313289240008606,-0.023740161955376943,-0.002573419740005353
0.7175,0.0032219749000094427,-0.7871930500000083,0.0036098572000110166,-2.355927414999999,0.002043861140006017,1.5701130449999974,0.7815807929999864,0.0399999542,0.04,-9.822881350000008,0.029488528054230512,0.0015155783750506276,-0.04346619085008827,-0.02381870476531061,-0.0025941016150054516
0.72,0.0032581486000094746,-0.7872247000000083,0.003652061800011054,-2.355923559999999,0.0020669111600060373,1.5701029799999975,0.7815285719999864,0.0399999548,0.04,-9.822912400000007,0.02957660481336035,0.0017095268000507998,-0.04380435340008857,-0.023897677660009064,-0.00261498646000547
0.7225,0.0032943223000095087,-0.7872563500000083,0.0036942664000110936,-2.3559197049999994,0.0020899611800060587,1.5700929149999974,0.7814763509999862,0.0399999554,0.04,-9.822943450000007,0.029664681572490192,0.0019034752250509806,-0.04414251595008889,-0.023976650554707525,-0.0026358713050054897
0.725,0.0033304960000095406,-0.7872880000000083,0.003736471000011131,-2.3559158499999993,0.002113011200006079,1.5700828499999975,0.7814241299999862,0.039999956,0.04,-9.822974500000008,0.02975275833162003,0.002097423650051153,-0.04448067850008919,-0.02405562344940598,-0.002656756150005508
0.7275,0.0033666697000095743,-0.7873196500000084,0.0037786756000111705,-2.355911994999999,0.002136061220006101,1.5700727849999974,0.7813719089999862,0.0399999566,0.04,-9.823005550000008,0.029840835090749872,0.002291372075051334,-0.0448188410500895,-0.024134596344104437,-0.002677640995005528
0.73,0.0034028434000096066,-0.7873513000000084,0.003820880200011208,-2.355908139999999,0.0021591112400061213,1.5700627199999972,0.7813196879999861,0.0399999572,0.04,-9.823036600000009,0.02992891184987971,0.002485320500051506,-0.045157003600089805,-0.02421356923880289,-0.0026985258400055463
0.7325,0.0034390171000096403,-0.7873829500000084,0.0038630848000112475,-2.355904284999999,0.0021821612600061427,1.5700526549999974,0.7812674669999861,0.0399999578,0.04,-9.82306765000001,0.030016988609009553,0.0026792689250516866,-0.04549516615009012,-0.024292542133501353,-0.002719410685005566
0.735,0.003476411650010162,-0.7874157100000089,0.003906712200011856,-2.355900319999999,0.002205988590006475,1.570042249999997,0.7812135039999853,0.039999957600000004,0.04,-9.823089100000004,0.030049293860794232,0.002898344460061937,-0.045838108300092335,-0.024372341297588328,-0.002740668760005734
0.7375,0.0035144166250101975,-0.7874490250000089,0.003951051000011897,-2.355896299999999,0.0022302045750064977,1.5700316749999972,0.7811586699999853,0.039999957,0.04,-9.823105750000005,0.03005371335893981,0.0031299835500621528,-0.04618344025009266,-0.024452553596369074,-0.002762113450005754
0.74,0.0035524216000102312,-0.7874823400000089,0.003995389800011936,-2.355892279999999,0.002254420560006519,1.570021099999997,0.7811038359999852,0.0399999564,0.04,-9.823122400000004,0.03005813285708539,0.0033616226400623585,-0.046528772200092966,-0.024532765895149813,-0.0027835581400057732
0.7425,0.0035904265750102667,-0.787515655000009,0.004039728600011978,-2.355888259999999,0.0022786365450065417,1.5700105249999972,0.7810490019999852,0.0399999558,0.04,-9.823139050000004,0.03006255235523097,0.0035932617300625746,-0.046874104150093285,-0.02461297819393056,-0.002805002830005793
0.745,0.0036284315500103004,-0.787548970000009,0.004084067400012017,-2.355884239999999,0.002302852530006563,1.569999949999997,0.7809941679999851,0.0399999552,0.04,-9.823155700000004,0.030066971853376548,0.0038249008200627803,-0.04721943610009359,-0.0246931904927113,-0.002826447520005812
0.7475,0.003666436525010336,-0.787582285000009,0.004128406200012058,-2.355880219999999,0.002327068515006586,1.5699893749999971,0.780939333999985,0.0399999546,0.04,-9.823172350000004,0.030071391351522127,0.004056539910062996,-0.047564768050093915,-0.024773402791492045,-0.002847892210005832
0.75,0.0037044415000108796,-0.7876156000000095,0.004172745000012692,-2.3558761999999986,0.002351284500006931,1.5699787999999968,0.7808844999999843,0.039999954,0.04,-9.823189000000013,0.030075810849686874,0.0042881790000604495,-0.04791010000009616,-0.024853615090273177,-0.0028693369000060607
0.7525000000000001,0.003744315430010917,-0.7876505845000096,0.004219261305012736,-2.3558718799999987,0.002376687045006955,1.569967729999997,0.7808269449999842,0.039999954,0.04,-9.823244200000014,0.030150491930564734,0.004509730005060656,-0.04826254645009649,-0.02493525985630595,-0.0028915495000060814
0.755,0.003784189360010952,-0.7876855690000096,0.0042657776100127765,-2.3558675599999988,0.0024020895900069773,1.569956659999997,0.7807693899999841,0.039999954,0.04,-9.823299400000014,0.03022517301144259,0.004731281010060853,-0.048614992900096805,-0.025016904622338725,-0.0029137621000061014
0.7575000000000001,0.0038240632900109896,-0.7877205535000097,0.00431229391501282,-2.355863239999999,0.002427492135007001,1.569945589999997,0.7807118349999841,0.039999954,0.04,-9.823354600000014,0.03029985409232045,0.004952832015061059,-0.04896743935009713,-0.0250985493883715,-0.0029359747000061217
0.76,0.0038639372200110246,-0.7877555380000097,0.0043588102200128615,-2.355858919999999,0.0024528946800070235,1.569934519999997,0.780654279999984,0.039999954,0.04,-9.823409800000015,0.030374535173198308,0.005174383020061256,-0.04931988580009745,-0.025180194154404274,-0.0029581873000061416
0.7625000000000001,0.0039038111500110623,-0.7877905225000097,0.004405326525012905,-2.355854599999999,0.0024782972250070472,1.569923449999997,0.780596724999984,0.039999954,0.04,-9.823465000000015,0.030449216254076168,0.005395934025061463,-0.049672332250097775,-0.025261838920437048,-0.0029803999000061624
0.765,0.003943685080011097,-0.7878255070000098,0.004451842830012946,-2.355850279999999,0.00250369977000707,1.569912379999997,0.780539169999984,0.039999954,0.04,-9.823520200000015,0.030523897334954024,0.00561748503006166,-0.05002477870009809,-0.025343483686469822,-0.0030026125000061823
0.7675000000000001,0.003984194000011667,-0.7878610760000103,0.00449909913001361,-2.3558458799999986,0.002529506135007432,1.5699011299999968,0.7804807049999831,0.039999954,0.04,-9.823559350000002,0.030570267699655974,0.0058517829150725445,-0.0503794677001003,-0.025425452459626574,-0.0030249664300063214
0.77,0.004025972900011704,-0.7878978140000104,0.004547835420013652,-2.355841319999999,0.0025561201400074555,1.569889519999997,0.7804204199999831,0.039999954,0.04,-9.8235664,0.030560016632077167,0.006111574560072775,-0.05073864180010062,-0.025508069247030463,-0.0030476030200063415
0.7725,0.0040677518000117405,-0.7879345520000104,0.004596571710013696,-2.355836759999999,0.0025827341450074793,1.5698779099999969,0.780360134999983,0.039999954,0.04,-9.823573450000001,0.030549765564498364,0.006371366205073006,-0.051097815900100936,-0.025590686034434353,-0.0030702396100063616
0.775,0.00410953070001178,-0.7879712900000104,0.0046453080000137415,-2.3558321999999987,0.002609348150007504,1.5698662999999968,0.780299849999983,0.039999954,0.04,-9.823580500000002,0.030539514496919558,0.006631157850073249,-0.051456990000101274,-0.025673302821838245,-0.0030928762000063826
0.7775,0.004151309600011817,-0.7880080280000105,0.004694044290013784,-2.355827639999999,0.0026359621550075276,1.5698546899999968,0.7802395649999829,0.039999954,0.04,-9.823587550000001,0.030529263429340755,0.00689094949507348,-0.05181616410010159,-0.02575591960924213,-0.0031155127900064027
0.78,0.004193088500011856,-0.7880447660000105,0.00474278058001383,-2.3558230799999986,0.002662576160007552,1.5698430799999967,0.7801792799999829,0.039999954,0.04,-9.823594600000002,0.030519012361761952,0.007150741140073722,-0.05217533820010192,-0.025838536396646024,-0.0031381493800064237
0.7825,0.004234867400011892,-0.7880815040000105,0.0047915168700138734,-2.355818519999999,0.002689190165007576,1.5698314699999967,0.7801189949999828,0.039999954,0.04,-9.823601650000002,0.030508761294183145,0.007410532785073953,-0.05253451230010224,-0.025921153184049913,-0.003160785970006444
0.785,0.004277940030012088,-0.7881194050000107,0.004841760770014101,-2.355813769999999,0.0027166258100076997,1.5698194799999967,0.7800568439999825,0.039999954,0.04,-9.823624800000008,0.030520429462200644,0.0076753888000739325,-0.05289814230010116,-0.02600463144483494,-0.003183852340006437
0.7875,0.00432165952501153,-0.7881578875000101,0.00489275847501345,-2.355808924999999,0.0027444722750073446,1.5698072999999968,0.7799937599999834,0.039999954,0.04,-9.823656000000009,0.030543057248002242,0.007942777000070522,-0.05326400025009649,-0.02608854044230998,-0.0032071336000061403
0.79,0.004365379020010975,-0.7881963700000096,0.004943756180012802,-2.3558040799999986,0.0027723187400069903,1.5697951199999969,0.7799306759999842,0.039999954,0.04,-9.823687200000007,0.03056568503380384,0.008210165200067124,-0.05362985820009184,-0.026172449439785025,-0.0032304148600058443
0.7925,0.004409098515010417,-0.7882348525000091,0.0049947538850121515,-2.3557992349999988,0.0028001652050066352,1.5697829399999972,0.779867591999985,0.039999954,0.04,-9.823718400000008,0.030588312819605435,0.008477553400063714,-0.05399571615008718,-0.026256358437260062,-0.0032536961200055475
0.795,0.004452818010009862,-0.7882733350000086,0.005045751590011503,-2.355794389999999,0.0028280116700062814,1.5697707599999973,0.7798045079999858,0.039999954,0.04,-9.823749600000006,0.030610940605407033,0.008744941600060315,-0.05436157410008253,-0.026340267434735106,-0.0032769773800052516
0.7975,0.004496537505009304,-0.7883118175000081,0.005096749295010854,-2.355789544999999,0.0028558581350059263,1.5697585799999976,0.7797414239999866,0.039999954,0.04,-9.823780800000007,0.030633568391208628,0.009012329800056904,-0.054727432050077865,-0.026424176432210147,-0.0033002586400049543
0.8,0.0045402570000091435,-0.788350300000008,0.005147747000010666,-2.355784699999999,0.0028837046000058236,1.5697463999999977,0.7796783399999868,0.039999954,0.04,-9.823812000000006,0.03065619617701736,0.009279718000053304,-0.05509329000007451,-0.02650808542968534,-0.0033235399000047664
0.8025,0.004585952010009808,-0.7883905600000086,0.0052010466500114405,-2.3557795849999987,0.0029128061150062463,1.5697336649999973,0.7796124089999859,0.039999953399999996,0.04,-9.823842975000007,0.030714474711579613,0.009546097300057175,-0.05546564700007992,-0.026592748798448102,-0.0033473602900051126
0.805,0.004631647020010474,-0.7884308200000092,0.005254346300012217,-2.3557744699999987,0.0029419076300066706,1.5697209299999972,0.7795464779999849,0.039999952799999995,0.04,-9.823873950000007,0.030772753246141867,0.009812476600061057,-0.05583800400008535,-0.026677412167210864,-0.0033711806800054596
0.8075,0.004677342030011138,-0.7884710800000098,0.005307645950012992,-2.3557693549999987,0.0029710091450070933,1.569708194999997,0.7794805469999839,0.0399999522,0.04,-9.823904925000008,0.030831031780704118,0.010078855900064928,-0.05621036100009076,-0.026762075535973626,-0.0033950010700058058
0.81,0.004723037040011804,-0.7885113400000103,0.0053609456000137685,-2.3557642399999987,0.0030001106600075172,1.5696954599999968,0.779414615999983,0.0399999516,0.04,-9.823935900000007,0.03088931031526637,0.01034523520006881,-0.05658271800009619,-0.02684673890473639,-0.0034188214600061532
0.8125,0.004768732050012468,-0.788551600000011,0.005414245250014543,-2.3557591249999987,0.0030292121750079403,1.5696827249999965,0.779348684999982,0.039999951,0.04,-9.823966875000009,0.030947588849828626,0.010611614500072681,-0.0569550750001016,-0.02693140227349915,-0.0034426418500064994
0.8150000000000001,0.004814427060013134,-0.7885918600000116,0.00546754490001532,-2.3557540099999983,0.0030583136900083643,1.5696699899999964,0.779282753999981,0.0399999504,0.04,-9.823997850000008,0.03100586738439088,0.010877993800076565,-0.05732743200010702,-0.027016065642261913,-0.0034664622400068464
0.8175,0.0048607917800141875,-0.7886327270000125,0.005521624850016548,-2.355748844999998,0.0030878408900090345,1.569657069999996,0.7792158599999796,0.03999994985,0.04,-9.824022775000003,0.031033980194469638,0.011157726125091137,-0.057701910750112634,-0.02710113422947687,-0.0034904177650072047
0.8200000000000001,0.004908495920014232,-0.7886748080000126,0.005577265400016599,-2.355743579999998,0.003118219460009063,1.569643779999996,0.7791470399999795,0.0399999494,0.04,-9.824035600000004,0.031001761555662068,0.011464164500091422,-0.05808063300011299,-0.02718701325359514,-0.0035146435600072277
0.8225,0.004956200060014275,-0.7887168890000126,0.005632905950016649,-2.355738314999998,0.00314859803000909,1.569630489999996,0.7790782199999794,0.03999994895,0.04,-9.824048425000003,0.030969542916854498,0.011770602875091695,-0.05845935525011332,-0.027272892277713408,-0.003538869355007249
0.8250000000000001,0.005003904200014319,-0.7887589700000126,0.005688546500016701,-2.355733049999998,0.0031789766000091184,1.5696171999999962,0.7790093999999793,0.0399999485,0.04,-9.824061250000003,0.030937324278046928,0.01207704125009198,-0.05883807750011368,-0.027358771301831678,-0.0035630951500072714
0.8275,0.005051608340014361,-0.7888010510000126,0.00574418705001675,-2.3557277849999982,0.0032093551700091453,1.569603909999996,0.7789405799999793,0.03999994805,0.04,-9.824074075000004,0.030905105639239358,0.012383479625092252,-0.05921679975011401,-0.027444650325949945,-0.003587320945007293
0.8300000000000001,0.005099312480014406,-0.7888431320000127,0.005799827600016802,-2.3557225199999983,0.003239733740009174,1.569590619999996,0.7788717599999793,0.0399999476,0.04,-9.824086900000005,0.030872887000431788,0.012689918000092539,-0.05959552200011437,-0.027530529350068215,-0.0036115467400073156
0.8325,0.005147016620014448,-0.7888852130000128,0.005855468150016851,-2.3557172549999983,0.003270112310009201,1.569577329999996,0.7788029399999792,0.03999994715,0.04,-9.824099725000004,0.030840668361624222,0.01299635637509281,-0.0599742442501147,-0.027616408374186482,-0.0036357725350073373
0.835,0.005196081930015111,-0.7889284960000134,0.005912694900017623,-2.3557117799999983,0.0033013551700096216,1.569563679999996,0.7787321539999782,0.039999947,0.04,-9.824140400000017,0.0308603271842141,0.013297626350090727,-0.060357037500116895,-0.027703292481627725,-0.0036604306200075554
0.8375,0.005245827825015157,-0.7889723800000134,0.0059707147500176775,-2.3557061999999984,0.003333030175009651,1.5695498499999958,0.7786603849999781,0.039999947,0.04,-9.824195000000017,0.030905924737467318,0.013596312125091006,-0.06074186625011725,-0.027790679130729776,-0.003685304850007579
0.84,0.005295573720015202,-0.7890162640000135,0.006028734600017729,-2.3557006199999986,0.0033647051800096794,1.5695360199999957,0.7785886159999781,0.039999947,0.04,-9.824249600000016,0.030951522290720533,0.013894997900091272,-0.061126695000117595,-0.027878065779831825,-0.003710179080007601
0.8425,0.005345319615015247,-0.7890601480000135,0.006086754450017783,-2.3556950399999983,0.003396380185009709,1.5695221899999958,0.778516846999978,0.039999947,0.04,-9.824304200000016,0.03099711984397375,0.01419368367509155,-0.06151152375011795,-0.027965452428933876,-0.003735053310007624
0.845,0.005395065510015292,-0.7891040320000134,0.006144774300017835,-2.3556894599999985,0.003428055190009737,1.5695083599999957,0.7784450779999779,0.039999947,0.04,-9.824358800000017,0.031042717397226964,0.014492369450091816,-0.061896352500118296,-0.028052839078035924,-0.0037599275400076464
0.8475,0.005444811405015338,-0.7891479160000135,0.006202794150017889,-2.355683879999998,0.0034597301950097664,1.5694945299999956,0.7783733089999778,0.039999947,0.04,-9.824413400000017,0.031088314950480183,0.014791055225092095,-0.06228118125011865,-0.028140225727137976,-0.0037848017700076696
0.85,0.005494557300016024,-0.7891918000000141,0.006260814000018688,-2.3556782999999983,0.003491405200010202,1.5694806999999955,0.7783015399999769,0.039999947,0.04,-9.824468000000001,0.031133912503704255,0.015089741000103596,-0.06266601000012084,-0.028227612376240302,-0.003809676000007857
