rsonawane2002/My_IMU/logs_2/traj_419/imu_400hz_419.csv
time,j1,j2,j3,j4,j5,j6,j7,gripper1,gripper2,imu_ax,imu_ay,imu_az,imu_gx,imu_gy,imu_gz
0.0,0.00016700293,-0.785875,4.0107683e-05,-2.3551247,9.29385e-05,1.570997,0.786,0.04,0.04,-9.505445,0.0096054803580045,0.0651547,-1.5831527e-07,-0.0011641274904832,3.4248876e-07
0.0025,0.0001670021305,-0.7858577740000002,4.0107551450000004e-05,-2.35513919,9.294302399999995e-05,1.570996565,0.786,0.04,0.04,-9.554775349999371,0.00825626036968862,0.05674941805010702,-1.0354523300069739e-07,-0.0013251986645606993,4.4089128599874706e-07
0.005,0.00016700133100000001,-0.7858405480000005,4.0107419900000005e-05,-2.35515368,9.294754799999989e-05,1.57099613,0.786,0.04,0.04,-9.604105699998744,0.006907040381372739,0.04834413610021404,-4.877519600139477e-08,-0.0014862698386381983,5.392938119974941e-07
0.0075,0.0001670005315,-0.7858233220000007,4.0107288350000006e-05,-2.35516817,9.295207199999983e-05,1.5709956950000001,0.786,0.04,0.04,-9.653436049998115,0.0055578203930568585,0.03993885415032107,5.994840997907856e-09,-0.0016473410127156975,6.376963379962412e-07
0.01,0.00016699973200000003,-0.785806096000001,4.010715680000001e-05,-2.3551826599999997,9.295659599999977e-05,1.5709952600000001,0.786,0.04,0.04,-9.702766399997486,0.0042086004047409776,0.031533572200428094,6.076487799721047e-08,-0.0018084121867931965,7.360988639949883e-07
0.0125,0.00016699893250000003,-0.7857888700000011,4.010702525000001e-05,-2.355197149999999,9.296111999999972e-05,1.570994825,0.786,0.04,0.04,-9.75209674999686,0.0028593804164250974,0.023128290250535116,1.155349149965131e-07,-0.0019694833608706955,8.345013899937352e-07
0.015,0.00016699813300000005,-0.7857716440000013,4.010689370000001e-05,-2.355211639999999,9.296564399999965e-05,1.57099439,0.786,0.04,0.04,-9.80142709999623,0.0015101604281092165,0.014723008300642146,1.703049519958157e-07,-0.002130554534948195,9.329039159924823e-07
0.0175,0.00016699448300000073,-0.7857548620000013,4.010403680000066e-05,-2.355225734999999,9.296866425e-05,1.57099396,0.786,0.04,0.03999999975,-9.834219850000022,0.000604246003787585,0.009042812100018411,3.0414096947663236e-07,-0.0022871630382605506,1.0605965199850917e-06
0.02,0.0001669851320000006,-0.7857389680000011,4.009572920000054e-05,-2.3552390399999994,9.2968677e-05,1.5709935400000001,0.786,0.04,0.039999999,-9.833937400000018,0.0005849427077931241,0.008812787400015063,5.961089479808809e-07,-0.002434846200039209,1.2468692799878023e-06
0.0225,0.00016697578100000046,-0.7857230740000009,4.008742160000042e-05,-2.3552523449999994,9.296868975e-05,1.57099312,0.786,0.04,0.03999999825,-9.833654950000014,0.0005656394117986631,0.008582762700011716,8.880769264851295e-07,-0.0025825293618178683,1.433142039990513e-06
0.025,0.00016696643000000034,-0.7857071800000006,4.0079114000000304e-05,-2.3552656499999993,9.296870249999999e-05,1.5709927000000001,0.786,0.04,0.0399999975,-9.83337250000001,0.0005463361158042023,0.008352738000008368,1.1800449049893785e-06,-0.0027302125235965278,1.6194147999932238e-06
0.0275,0.0001669570790000002,-0.7856912860000004,4.007080640000018e-05,-2.3552789549999997,9.296871525e-05,1.57099228,0.786,0.04,0.03999999675,-9.833090050000006,0.0005270328198097413,0.008122713300005021,1.472012883493627e-06,-0.0028778956853751864,1.8056875599959344e-06
0.03,0.00016694772800000007,-0.7856753920000001,4.006249880000006e-05,-2.3552922599999997,9.2968728e-05,1.57099186,0.786,0.04,0.039999996,-9.832807600000002,0.0005077295238152805,0.007892688600001673,1.7639808619978756e-06,-0.0030255788471538455,1.9919603199986445e-06
0.0325,0.00016693837699999992,-0.7856594979999999,4.005419119999994e-05,-2.355305565,9.296874075e-05,1.57099144,0.786,0.04,0.03999999525,-9.832525149999997,0.0004884262278208195,0.007662663899998326,2.0559488405021247e-06,-0.003173262008932505,2.1782330800013556e-06
0.035,0.0001669136809999996,-0.7856444399999998,4.003153819999962e-05,-2.3553181,9.295741549999979e-05,1.57099101,0.786,0.04,0.0399999955,-9.832223599999995,0.00045583746686986043,0.0074611091999976144,2.6997845000104393e-06,-0.003312612930314412,2.212786039999474e-06
0.0375,0.00016688131249999955,-0.7856297999999998,4.000171249999959e-05,-2.35533025,9.294042124999977e-05,1.570990575,0.786,0.04,0.03999999625,-9.831912499999996,0.0004166059734410148,0.007273789499997445,3.5195540000111835e-06,-0.003447797731498169,2.1714790999994366e-06
0.04,0.00016684894399999952,-0.7856151599999998,3.997188679999957e-05,-2.3553424,9.292342699999975e-05,1.57099014,0.786,0.04,0.039999997,-9.831601399999995,0.0003773744800121691,0.007086469799997274,4.33932350001193e-06,-0.0035829825326819274,2.130172159999399e-06
0.0425,0.00016681657549999949,-0.7856005199999998,3.994206109999954e-05,-2.35535455,9.290643274999973e-05,1.5709897050000001,0.786,0.04,0.03999999775,-9.831290299999994,0.00033814298658332344,0.006899150099997103,5.159093000012675e-06,-0.003718167333865685,2.0888652199993614e-06
0.045,0.00016678420699999948,-0.7855858799999997,3.9912235399999515e-05,-2.3553667000000003,9.288943849999972e-05,1.57098927,0.786,0.04,0.0399999985,-9.830979199999994,0.00029891149315447777,0.006711830399996933,5.978862500013419e-06,-0.003853352135049443,2.047558279999324e-06
0.0475,0.00016675183849999944,-0.7855712399999998,3.988240969999949e-05,-2.35537885,9.28724442499997e-05,1.570988835,0.786,0.04,0.03999999925,-9.830668099999993,0.0002596799997256321,0.006524510699996763,6.798632000014166e-06,-0.003988536936233201,2.0062513399992862e-06
0.05,0.00016671946999999862,-0.7855565999999998,3.985258399999872e-05,-2.355391,9.285544999999916e-05,1.5709884,0.786,0.04,0.04,-9.830356999999994,0.00022044850629648498,0.006337190999996732,7.618401500026782e-06,-0.004123721737416731,1.9649444000000548e-06
0.0525,0.0001666429834999996,-0.7855430999999999,3.978204679999962e-05,-2.35540213,9.280948939999975e-05,1.57098798,0.786,0.04,0.04,-9.830091799999998,0.00016464932559722556,0.006157541549999019,9.090688175008033e-06,-0.0042464166646829045,1.9679503400000164e-06
0.055,0.00016656649700000055,-0.7855296000000002,3.971150960000052e-05,-2.3554132599999997,9.276352880000034e-05,1.57098756,0.786,0.04,0.04,-9.8298266,0.00010885014489796598,0.005977892100001307,1.0562974849989288e-05,-0.004369111591949077,1.970956279999978e-06
0.0575,0.00016649001050000154,-0.7855161000000003,3.9640972400001415e-05,-2.3554243899999996,9.271756820000093e-05,1.57098714,0.786,0.04,0.04,-9.829561400000005,5.305096419870641e-05,0.005798242650003595,1.2035261524970543e-05,-0.00449180651921525,1.97396221999994e-06
0.06,0.0001664135240000025,-0.7855026000000005,3.957043520000231e-05,-2.3554355199999994,9.26716076000015e-05,1.57098672,0.786,0.04,0.04,-9.829296200000007,-2.748216500553008e-06,0.005618593200005882,1.3507548199951794e-05,-0.004614501446481422,1.9769681599999017e-06
0.0625,0.00016633703750000347,-0.7854891000000006,3.949989800000321e-05,-2.3554466499999993,9.262564700000209e-05,1.5709863,0.786,0.04,0.04,-9.829031000000011,-5.8547397199812585e-05,0.005438943750008169,1.4979834874933049e-05,-0.004737196373747595,1.9799740999998634e-06
0.065,0.00016626055100000444,-0.7854756000000008,3.942936080000411e-05,-2.355457779999999,9.257968640000268e-05,1.57098588,0.786,0.04,0.04,-9.828765800000015,-0.00011434657789907216,0.005259294300010457,1.6452121549914303e-05,-0.0048598913010137685,1.982980039999825e-06
0.0675,0.00016616033700000914,-0.7854624370000007,3.9337088800008396e-05,-2.3554685699999993,9.251880870000561e-05,1.570985455,0.785999905,0.04,0.04,-9.828488700000017,-0.00017391591681682468,0.005090020700009185,1.8162289849864816e-05,-0.0049785307608475795,2.051753279987612e-06
0.07,0.00016601266800000698,-0.7854499480000006,3.920134720000642e-05,-2.3554786799999996,9.24280968000043e-05,1.57098502,0.78599962,0.04,0.04,-9.828187800000013,-0.00024102557217382635,0.004941498800007024,2.0348221399896628e-05,-0.0050890592858142325,2.252061119990527e-06
0.0725,0.00016586499900000484,-0.7854374590000004,3.906560560000444e-05,-2.3554887899999994,9.233738490000298e-05,1.570984585,0.7859993350000001,0.04,0.04,-9.827886900000008,-0.0003081352275308276,0.004792976900004863,2.2534152949928427e-05,-0.0051995878107808854,2.452368959993441e-06
0.075,0.00016571733000000268,-0.7854249700000002,3.892986400000247e-05,-2.3554988999999997,9.224667300000166e-05,1.5709841500000001,0.78599905,0.04,0.04,-9.827586000000005,-0.0003752448828878292,0.004644455000002701,2.472008449996024e-05,-0.005310116335747539,2.6526767999963562e-06
0.0775,0.00016556966100000054,-0.785412481,3.879412240000049e-05,-2.35550901,9.215596110000034e-05,1.5709837150000001,0.785998765,0.04,0.04,-9.827285100000001,-0.0004423545382448309,0.0044959331000005405,2.6906016049992047e-05,-0.005420644860714193,2.852984639999271e-06
0.08,0.00016542199199999838,-0.7853999919999999,3.8658380799998517e-05,-2.3555191200000003,9.206524919999902e-05,1.57098328,0.78599848,0.04,0.04,-9.826984199999997,-0.0005094641936018325,0.004347411199998379,2.9091947600023863e-05,-0.005531173385680846,3.053292480002186e-06
0.0825,0.00016527432299999625,-0.7853875029999997,3.852263919999654e-05,-2.35552923,9.197453729999769e-05,1.570982845,0.785998195,0.04,0.04,-9.826683299999992,-0.0005765738489588342,0.004198889299996218,3.127787915005567e-05,-0.0056417019106475,3.253600320005101e-06
0.085,0.00016505763399999224,-0.7853756559999996,3.832397179999288e-05,-2.3555391100000005,9.184023699999518e-05,1.57098241,0.7859979100000001,0.04,0.04,-9.826409599999991,-0.000655745639235485,0.004052608969995511,3.490290370013436e-05,-0.005744278617206199,3.406582840003999e-06
0.08750000000000001,0.000164806434999992,-0.7853641299999996,3.809384149999267e-05,-2.355548875,9.168414249999504e-05,1.570981975,0.785997625,0.04,0.04,-9.82614949999999,-0.0007409484969711376,0.003907449424995379,3.9247474750138316e-05,-0.005842879414561464,3.535902700004117e-06
0.09,0.00016455523599999178,-0.7853526039999996,3.7863711199992466e-05,-2.3555586400000004,9.15280479999949e-05,1.57098154,0.78599734,0.04,0.04,-9.82588939999999,-0.0008261513547067897,0.0037622898799952475,4.359204580014224e-05,-0.005941480211916728,3.6652225600042336e-06
0.0925,0.00016430403699999155,-0.7853410779999996,3.7633580899992256e-05,-2.3555684050000005,9.137195349999476e-05,1.570981105,0.7859970550000001,0.04,0.04,-9.82562929999999,-0.0009113542124424422,0.0036171303349951155,4.7936616850146195e-05,-0.006040081009271993,3.7945424200043516e-06
0.095,0.00016405283799999132,-0.7853295519999997,3.7403450599992046e-05,-2.3555781700000002,9.12158589999946e-05,1.57098067,0.78599677,0.04,0.04,-9.825369199999992,-0.0009965570701780948,0.003471970789994983,5.228118790015015e-05,-0.006138681806627258,3.923862280004469e-06
0.0975,0.0001638016389999911,-0.7853180259999996,3.7173320299991836e-05,-2.3555879350000004,9.105976449999446e-05,1.570980235,0.7859964850000001,0.04,0.04,-9.825109099999992,-0.0010817599279137474,0.003326811244994851,5.662575895015411e-05,-0.006237282603982522,4.053182140004587e-06
0.1,0.00016355043999998574,-0.7853064999999996,3.694318999998698e-05,-2.3555977000000006,9.090366999999111e-05,1.5709798,0.7859962,0.04,0.04,-9.824848999999993,-0.0011669627856496895,0.0031816516999957443,6.097033000018848e-05,-0.006335883401337467,4.182502000005701e-06
0.10250000000000001,0.00016315856049999074,-0.7852957749999998,3.658525879999154e-05,-2.35560646,9.065929359999422e-05,1.57097938,0.7859958775,0.04,0.04,-9.824646049999995,-0.0012601248803570334,0.003064680634997234,6.615103600012252e-05,-0.006425692769700839,4.339221850003706e-06
0.105,0.0001627666809999957,-0.7852850499999999,3.62273275999961e-05,-2.3556152200000002,9.041491719999734e-05,1.57097896,0.7859955550000001,0.04,0.04,-9.824443099999998,-0.0013532869750643767,0.0029477095699987237,7.133174200005653e-05,-0.00651550213806421,4.49594170000171e-06
0.1075,0.00016237480150000071,-0.785274325,3.586939640000065e-05,-2.3556239800000003,9.017054080000044e-05,1.57097854,0.7859952325,0.04,0.04,-9.824240150000001,-0.0014464490697717206,0.002830738505000213,7.651244799999058e-05,-0.006605311506427581,4.6526615499997146e-06
0.11,0.0001619829220000057,-0.7852636000000002,3.5511465200005205e-05,-2.35563274,8.992616440000356e-05,1.57097812,0.78599491,0.04,0.04,-9.824037200000003,-0.0015396111644790642,0.002713767440001702,8.169315399992462e-05,-0.006695120874790953,4.809381399997719e-06
0.1125,0.0001615910425000107,-0.7852528750000003,3.5153534000009766e-05,-2.3556415,8.968178800000667e-05,1.5709777,0.7859945875000001,0.04,0.04,-9.823834250000006,-0.0016327732591864081,0.0025967963750031914,8.687385999985866e-05,-0.006784930243154325,4.966101249995724e-06
0.115,0.00016119916300001567,-0.7852421500000004,3.479560280001432e-05,-2.3556502599999996,8.943741160000978e-05,1.5709772800000001,0.785994265,0.04,0.04,-9.823631300000008,-0.001725935353893752,0.0024798253100046805,9.20545659997927e-05,-0.006874739611517696,5.122821099993729e-06
0.11750000000000001,0.00016074659650002504,-0.7852316550000005,3.438267690002283e-05,-2.3556588799999996,8.915450280001571e-05,1.570976995,0.7859938595,0.03999999975,0.04,-9.823407825000013,-0.0018245682353105668,0.002361763540005249,9.755047449973258e-05,-0.0069606153760070595,5.2492626249971245e-06
0.12,0.0001601726560000167,-0.7852216200000003,3.385976160001522e-05,-2.35566722,8.879452920001048e-05,1.57097698,0.785993288,0.039999999,0.04,-9.823143300000009,-0.0019341426901487108,0.0022415203600034996,0.0001036767879998217,-0.00703862393274669,5.315147499998082e-06
0.1225,0.00015959871550000833,-0.7852115850000002,3.3336846300007606e-05,-2.35567556,8.843455560000524e-05,1.570976965,0.7859927165,0.03999999825,0.04,-9.822878775000005,-0.0020437171449868554,0.00212127718000175,0.00010980310149991086,-0.00711663248948632,5.381032374999041e-06
0.125,0.000159024775,-0.78520155,3.2813931e-05,-2.3556839,8.8074582e-05,1.57097695,0.785992145,0.0399999975,0.04,-9.82261425,-0.002153291599825,0.002001034,0.00011592941500000002,-0.00719464104622595,5.44691725e-06
0.1275,0.00015845083449999165,-0.7851915149999998,3.229101569999239e-05,-2.35569224,8.771460839999477e-05,1.570976935,0.7859915734999999,0.03999999675,0.04,-9.822349724999995,-0.0022628660546631443,0.00188079081999825,0.00012205572850008917,-0.00727264960296558,5.512802125000959e-06
0.13,0.0001578768939999833,-0.7851814799999998,3.176810039998478e-05,-2.35570058,8.735463479998953e-05,1.57097692,0.7859910019999999,0.039999996,0.04,-9.822085199999991,-0.002372440509501289,0.0017605476399965001,0.0001281820420001783,-0.00735065815970521,5.578687000001918e-06
0.1325,0.00015730295349997495,-0.7851714449999996,3.124518509997717e-05,-2.3557089200000005,8.699466119998429e-05,1.570976905,0.7859904305,0.03999999525,0.04,-9.821820674999987,-0.0024820149643394337,0.0016403044599947502,0.0001343083555002675,-0.007428666716444841,5.644571875002876e-06
0.135,0.00015657749299996792,-0.7851618299999996,3.058523169997085e-05,-2.3557167800000003,8.653944499997988e-05,1.57097688,0.7859896659999999,0.0399999943,0.0399999988,-9.82158214999999,-0.0025916044367520963,0.0015270860499956094,0.0001416576140003186,-0.007499344879763942,5.90773865001448e-06
0.1375,0.00015577627249997814,-0.7851524249999997,2.985675924998012e-05,-2.3557244,8.603660749998628e-05,1.5709768499999999,0.7859888049999999,0.039999993250000004,0.039999997,-9.821356624999993,-0.0027012014179520157,0.0014173800249970062,0.00014961834500021724,-0.007566357846373579,6.269546375009873e-06
0.14,0.00015497505199998834,-0.7851430199999999,2.9128286799989393e-05,-2.35573202,8.553376999999268e-05,1.57097682,0.7859879439999999,0.0399999922,0.0399999952,-9.821131099999997,-0.0028107983991519352,0.001307673999998403,0.0001575790760001159,-0.007633370812983215,6.6313541000052665e-06
0.14250000000000002,0.00015417383149999854,-0.785133615,2.839981434999867e-05,-2.35573964,8.503093249999908e-05,1.57097679,0.785987083,0.039999991150000004,0.0399999934,-9.820905575,-0.002920395380351855,0.0011979679749997997,0.00016553980700001453,-0.007700383779592852,6.99316182500066e-06
0.145,0.00015337261100000873,-0.7851242100000001,2.7671341900007952e-05,-2.35574726,8.452809500000549e-05,1.57097676,0.785986222,0.0399999901,0.0399999916,-9.820680050000002,-0.0030299923615517733,0.0010882619500011976,0.00017350053799991308,-0.007767396746202488,7.35496954999605e-06
0.1475,0.00015257139050001893,-0.7851148050000002,2.694286945001723e-05,-2.3557548799999997,8.40252575000119e-05,1.57097673,0.7859853609999999,0.039999989050000004,0.0399999898,-9.820454525000004,-0.0031395893427516933,0.0009785559250025944,0.0001814612689998117,-0.007834409712812124,7.716777274991443e-06
0.15,0.00015177017000002913,-0.7851054000000003,2.62143970000265e-05,-2.3557624999999995,8.35224200000183e-05,1.5709767,0.7859845,0.039999988,0.039999988,-9.820229000000008,-0.0032491863239516128,0.0008688499000039912,0.00018942199999971037,-0.007901422679421762,8.078584999986837e-06
0.1525,0.0001506931340000382,-0.7850965500000002,2.5236842500034676e-05,-2.3557699249999997,8.284743560002395e-05,1.570976685,0.78598336,0.0399999874,0.0399999868,-9.819985700000009,-0.0033717720420055816,0.000777451885003242,0.0001993647199996473,-0.007957911957053245,8.477496724985849e-06
0.155,0.00014961609800003722,-0.7850877000000003,2.4259288000033784e-05,-2.35577735,8.217245120002333e-05,1.5709766699999999,0.7859822200000001,0.0399999868,0.0399999856,-9.819742400000008,-0.0034943577600600236,0.0006860538700031588,0.00020930743999965636,-0.008014401234684347,8.876408449986213e-06
0.1575,0.00014853906200003623,-0.7850788500000003,2.3281733500032895e-05,-2.3557847749999996,8.149746680002272e-05,1.570976655,0.78598108,0.039999986200000004,0.0399999844,-9.819499100000009,-0.003616943478114465,0.0005946558550030755,0.00021925015999966542,-0.008070890512315448,9.275320174986575e-06
0.16,0.00014746202600003527,-0.7850700000000003,2.2304179000032002e-05,-2.3557922,8.08224824000221e-05,1.57097664,0.78597994,0.0399999856,0.0399999832,-9.819255800000008,-0.0037395291961689068,0.0005032578400029923,0.00022919287999967447,-0.00812737978994655,9.67423189998694e-06
0.1625,0.0001463849900000343,-0.7850611500000003,2.1326624500031114e-05,-2.3557996249999995,8.014749800002149e-05,1.5709766250000001,0.7859788,0.039999985,0.039999981999999996,-9.819012500000008,-0.0038621149142233483,0.00041185982500290913,0.00023913559999968353,-0.008183869067577652,1.0073143624987303e-05
0.165,0.0001453079540000333,-0.7850523000000003,2.0349070000030225e-05,-2.3558070499999997,7.947251360002087e-05,1.57097661,0.78597766,0.0399999844,0.0399999808,-9.818769200000007,-0.00398470063227779,0.00032046181000282596,0.00024907831999969256,-0.008240358345208754,1.0472055349987666e-05
0.1675,0.00014412181450003576,-0.7850435950000002,1.9273104300032407e-05,-2.3558142349999995,7.872946330002238e-05,1.570976595,0.7859764225,0.03999998365,0.039999979649999996,-9.818550800000004,-0.004112229426387906,0.00023147184500214323,0.00025962312499970086,-0.008294140920041713,1.0842223424992038e-05
0.17,0.0001427174680000153,-0.7850351800000002,1.8000316200013883e-05,-2.3558209399999996,7.785028120000959e-05,1.57097658,0.78597499,0.039999982600000004,0.0399999786,-9.818382200000002,-0.004249644372610721,0.00014729798000091826,0.00027137209999987186,-0.008342510089277652,1.115490419999659e-05
0.17250000000000001,0.0001413131214999949,-0.785026765,1.6727528099995362e-05,-2.3558276449999997,7.69710990999968e-05,1.570976565,0.7859735575,0.03999998155,0.039999977549999996,-9.8182136,-0.0043870593188335355,6.312411499969332e-05,0.00028312107500004285,-0.008390879258513591,1.146758497500114e-05
0.17500000000000002,0.00013990877499997444,-0.7850183499999999,1.5454739999976838e-05,-2.35583435,7.6091916999984e-05,1.57097655,0.7859721249999999,0.0399999805,0.0399999765,-9.818044999999996,-0.004524474265056351,-2.1049750001531618e-05,0.0002948700500002138,-0.00843924842774953,1.178026575000569e-05
0.1775,0.000138504428499954,-0.7850099349999997,1.418195189995833e-05,-2.355841055,7.521273489997121e-05,1.570976535,0.7859706925,0.03999997945,0.03999997545,-9.817876399999994,-0.004661889211279164,-0.00010522361500275564,0.00030661902500038463,-0.008487617596985467,1.2092946525010236e-05
0.18,0.0001371000819999336,-0.7850015199999997,1.2909163799939806e-05,-2.35584776,7.433355279995842e-05,1.57097652,0.7859692599999999,0.0399999784,0.0399999744,-9.817707799999992,-0.004799304157501978,-0.00018939748000398058,0.0003183680000005556,-0.008535986766221406,1.2405627300014786e-05
0.1825,0.00013569573549991314,-0.7849931049999995,1.1636375699921286e-05,-2.355854465,7.345437069994563e-05,1.570976505,0.7859678274999998,0.03999997735,0.03999997335,-9.817539199999988,-0.0049367191037247935,-0.00027357134500520557,0.0003301169750007266,-0.008584355935457345,1.2718308075019338e-05
0.185,0.00013403711299989605,-0.7849849249999995,1.0134444375905908e-05,-2.3558609900000005,7.2416907599935e-05,1.57097649,0.7859660799999999,0.0399999766,0.0399999723,-9.817309499999984,-0.005069488892339292,-0.00035232413400442615,0.0003429846730007816,-0.008625590708108932,1.3146104300028252e-05
0.1875,0.00013225135249991877,-0.7849768624999997,8.517941439926491e-06,-2.355867425,7.130030399994922e-05,1.570976475,0.7859641749999998,0.039999976,0.03999997125,-9.817049249999988,-0.005199936102150332,-0.000428366385003458,0.0003564117325006106,-0.008663258282469413,1.3631458250022073e-05
0.19,0.00013046559199994152,-0.7849687999999997,6.901438503947072e-06,-2.35587386,7.018370039996344e-05,1.57097646,0.7859622699999999,0.0399999754,0.0399999702,-9.816788999999991,-0.005330383311961371,-0.0005044086360024898,0.00036983879200043967,-0.008700925856829893,1.4116812200015893e-05
0.1925,0.00012867983149996427,-0.7849607374999998,5.284935567967653e-06,-2.355880295,6.906709679997766e-05,1.5709764449999999,0.7859603649999999,0.0399999748,0.03999996915,-9.816528749999994,-0.00546083052177241,-0.0005804508870015216,0.0003832658515002687,-0.008738593431190374,1.4602166150009714e-05
0.195,0.000126894070999987,-0.7849526749999999,3.668432631988235e-06,-2.35588673,6.795049319999187e-05,1.57097643,0.7859584599999999,0.0399999742,0.0399999681,-9.816268499999998,-0.005591277731583449,-0.0006564931380005534,0.00039669291100009776,-0.008776261005550855,1.5087520100003534e-05
0.1975,0.00012510831050000973,-0.7849446125,2.0519296960088167e-06,-2.355893165,6.683388960000609e-05,1.5709764149999998,0.785956555,0.0399999736,0.03999996705,-9.816008250000001,-0.0057217249413944885,-0.0007325353889995853,0.0004101199704999268,-0.008813928579911335,1.5572874049997353e-05
0.2,0.00012332255000003248,-0.7849365500000001,4.3542676002939774e-07,-2.3558996,6.57172860000203e-05,1.5709764,0.78595465,0.039999973,0.039999966,-9.815748000000005,-0.005852172151205527,-0.0008085776399986171,0.00042354702999975586,-0.008851596154271816,1.6058227999991175e-05
0.2025,0.00012109902500003842,-0.7849287425000001,-1.575218953965266e-06,-2.35590596,6.4328307600024e-05,1.570976385,0.7859523535,0.03999997255,0.0399999651,-9.815566500000003,-0.006003724574108762,-0.0008835734789987045,0.00043927251549972834,-0.008880974864586623,1.646126479999304e-05
0.20500000000000002,0.00011887550000003639,-0.784920935,-3.585864667967097e-06,-2.35591232,6.293932920002274e-05,1.57097637,0.785950057,0.0399999721,0.0399999642,-9.815385000000003,-0.00615527699701238,-0.0009585693179987728,0.0004549980009997427,-0.00891035357490128,1.6864301599993406e-05
0.20750000000000002,0.00011665197500003437,-0.7849131275000001,-5.596510381968928e-06,-2.35591868,6.155035080002147e-05,1.570976355,0.7859477605,0.03999997165,0.0399999633,-9.815203500000003,-0.006306829419915998,-0.001033565156998841,0.00047072348649975697,-0.008939732285215937,1.7267338399993773e-05
0.21,0.00011442845000003236,-0.7849053200000001,-7.6071560959707365e-06,-2.35592504,6.016137240002022e-05,1.57097634,0.785945464,0.039999971200000005,0.0399999624,-9.815022000000003,-0.0064583818428196145,-0.0011085609959989085,0.00048644897199977115,-0.008969110995530593,1.7670375199994136e-05
0.2125,0.00011220492500003033,-0.7848975125000001,-9.617801809972565e-06,-2.3559314000000002,5.877239400001896e-05,1.5709763250000002,0.7859431675,0.03999997075,0.0399999615,-9.814840500000003,-0.006609934265723232,-0.0011835568349989768,0.0005021744574997854,-0.008998489705845249,1.8073411999994503e-05
0.215,0.00010998140000002832,-0.7848897050000001,-1.1628447523974395e-05,-2.35593776,5.738341560001769e-05,1.57097631,0.785940871,0.0399999703,0.0399999606,-9.814659000000002,-0.006761486688626851,-0.001258552673999045,0.0005178999429997997,-0.009027868416159907,1.847644879999487e-05
0.2175,0.00010759252400001979,-0.7848819585000001,-1.3787876349982121e-05,-2.3559441000000003,5.589168950001235e-05,1.5709763,0.785938386,0.03999997,0.03999996,-9.814481050000001,-0.00690902003552662,-0.0013311163949995075,0.0005342328099998723,-0.009054729854687827,1.88964605499967e-05
0.22,0.00010487294599998021,-0.784874334,-1.6244871400017877e-05,-2.3559504000000002,5.419446799998765e-05,1.5709763,0.785935524,0.03999997,0.03999996,-9.8143102,-0.007048515230418255,-0.0013988158800004927,0.0005517804400001277,-0.009076556749641999,1.9350422200003304e-05
0.2225,0.00010215336799994063,-0.7848667094999998,-1.8701866450053635e-05,-2.3559567,5.249724649996295e-05,1.5709763,0.7859326619999999,0.03999997,0.03999996,-9.814139349999996,-0.0071880104253098905,-0.0014665153650014779,0.0005693280700003831,-0.009098383644596171,1.980438385000991e-05
0.225,9.943378999990105e-05,-0.7848590849999998,-2.115886150008939e-05,-2.3559630000000005,5.080002499993825e-05,1.5709763,0.7859297999999999,0.03999997,0.03999996,-9.813968499999994,-0.007327505620201525,-0.001534214850002463,0.0005868757000006384,-0.009120210539550344,2.0258345500016517e-05
0.2275,9.671421199986147e-05,-0.7848514604999997,-2.3615856550125143e-05,-2.3559693000000004,4.9102803499913555e-05,1.5709763,0.7859269379999999,0.03999997,0.03999996,-9.813797649999993,-0.00746700081509316,-0.0016019143350034484,0.0006044233300008938,-0.009142037434504516,2.0712307150023122e-05
0.23,9.39946339998219e-05,-0.7848438359999995,-2.60728516001609e-05,-2.3559756000000003,4.740558199988885e-05,1.5709763,0.7859240759999998,0.03999997,0.03999996,-9.813626799999989,-0.007606496009984795,-0.0016696138200044336,0.0006219709600011492,-0.00916386432945869,2.1166268800029727e-05
0.2325,9.127505599978232e-05,-0.7848362114999994,-2.8529846650196658e-05,-2.3559819,4.570836049986415e-05,1.5709763,0.7859212139999998,0.03999997,0.03999996,-9.813455949999987,-0.00774599120487643,-0.0017373133050054188,0.0006395185900014046,-0.009185691224412863,2.1620230450036335e-05
0.23500000000000001,8.818480759974972e-05,-0.7848286689999995,-3.1320202700225926e-05,-2.3559880700000004,4.378103039984395e-05,1.5709763,0.7859179739999997,0.0399999703,0.03999996,-9.813285399999987,-0.007899578660738803,-0.001808403150005561,0.0006586024150015168,-0.009202340245247945,2.2194865700048513e-05
0.23750000000000002,8.490922399979144e-05,-0.7848211674999995,-3.4277239250188275e-05,-2.355994175,4.1738645999869956e-05,1.5709763,0.7859145449999998,0.03999997075,0.03999996,-9.81311499999999,-0.008060212247083852,-0.0018811881750046345,0.000678454337501264,-0.00921640032902447,2.282983775004043e-05
0.24,8.163364039983317e-05,-0.7848136659999997,-3.72342758001506e-05,-2.3560002800000004,3.969626159989598e-05,1.5709763,0.7859111159999999,0.039999971200000005,0.03999996,-9.812944599999991,-0.0082208458334289,-0.001953973200003707,0.0006983062600010111,-0.009230460412800996,2.3464809800032337e-05
0.2425,7.835805679987489e-05,-0.7848061644999997,-4.0191312350112946e-05,-2.356006385,3.765387719992199e-05,1.5709763,0.7859076869999999,0.03999997165,0.03999996,-9.812774199999993,-0.00838147941977395,-0.0020267582250027803,0.0007181581825007583,-0.009244520496577521,2.409978185002425e-05
0.245,7.508247319991659e-05,-0.7847986629999998,-4.3148348900075295e-05,-2.35601249,3.561149279994799e-05,1.5709763,0.7859042579999999,0.0399999721,0.03999996,-9.812603799999996,-0.008542113006119,-0.0020995432500018536,0.0007380101050005056,-0.009258580580354047,2.473475390001617e-05
0.2475,7.180688959995828e-05,-0.7847911615,-4.610538545003765e-05,-2.356018595,3.3569108399974e-05,1.5709763,0.7859008289999999,0.03999997255,0.03999996,-9.812433399999998,-0.00870274659246405,-0.002172328275000927,0.0007578620275002527,-0.009272640664130574,2.5369725950008085e-05
0.25,6.8531306e-05,-0.78478366,-4.9062422e-05,-2.3560247,3.1526724e-05,1.5709763,0.7858974,0.039999973,0.03999996,-9.812263,-0.0088633801788091,-0.0022451133,0.00077771395,-0.0092867007479071,2.6004698e-05
0.2525,6.463832659994334e-05,-0.7847762034999999,-5.257443470005111e-05,-2.356030595,2.91011207999647e-05,1.57097627,0.7858933094999999,0.0399999736,0.0399999609,-9.812078199999997,-0.009007780253889222,-0.0023130097800009883,0.0007996735225003196,-0.009292621305212405,2.6564089100008142e-05
0.255,6.074534719988669e-05,-0.7847687469999998,-5.608644740010222e-05,-2.35603649,2.6675517599929403e-05,1.57097624,0.7858892189999999,0.0399999742,0.0399999618,-9.811893399999994,-0.009152180328969342,-0.002380906260001976,0.0008216330950006391,-0.009298541862517712,2.712348020001628e-05
0.2575,5.685236779983004e-05,-0.7847612904999997,-5.959846010015333e-05,-2.3560423850000003,2.4249914399894105e-05,1.57097621,0.7858851284999998,0.0399999748,0.0399999627,-9.811708599999992,-0.009296580404049464,-0.002448802740002964,0.0008435926675009587,-0.009304462419823018,2.7682871300024423e-05
0.26,5.295938839977338e-05,-0.7847538339999995,-6.311047280020443e-05,-2.3560482800000004,2.1824311199858803e-05,1.57097618,0.7858810379999998,0.0399999754,0.0399999636,-9.81152379999999,-0.009440980479129585,-0.0025166992200039524,0.0008655522400012783,-0.009310382977128325,2.824226240003256e-05
0.2625,4.9066408999716725e-05,-0.7847463774999994,-6.662248550025554e-05,-2.356054175,1.9398707999823502e-05,1.57097615,0.7858769474999997,0.039999976,0.0399999645,-9.811338999999986,-0.009585380554209707,-0.0025845957000049406,0.0008875118125015978,-0.00931630353443363,2.8801653500040704e-05
0.265,4.5173429599660075e-05,-0.7847389209999993,-7.013449820030665e-05,-2.3560600700000003,1.6973104799788203e-05,1.57097612,0.7858728569999995,0.0399999766,0.0399999654,-9.811154199999983,-0.009729780629289829,-0.002652492180005929,0.0009094713850019174,-0.009322224091738938,2.9361044600048846e-05
0.2675,4.105380597453416e-05,-0.7847314424999993,-7.385016150042e-05,-2.3560659600000005,1.4406960684709952e-05,1.5709761,0.7858685434999995,0.039999976799999996,0.0399999656,-9.81096534999998,-0.009882579324784266,-0.0027204014950069208,0.0009321970700024711,-0.009325347887351818,2.9982164900075852e-05
0.27,3.6480893899467606e-05,-0.7847239199999991,-7.797312600048001e-05,-2.3560718400000007,1.1559734739668518e-05,1.5709761,0.7858637839999995,0.0399999762,0.0399999644,-9.810768399999978,-0.010052175261100004,-0.002788336480007909,0.0009564549800028241,-0.009322878159582293,3.072674360008669e-05
0.2725,3.190798182440106e-05,-0.784716397499999,-8.209609050054001e-05,-2.356077720000001,8.712508794627083e-06,1.5709761,0.7858590244999993,0.0399999756,0.0399999632,-9.810571449999975,-0.010221771197415743,-0.0028562714650088978,0.0009807128900031772,-0.009320408431812767,3.1471322300097524e-05
0.275,2.733506974933451e-05,-0.784708874999999,-8.62190550006e-05,-2.3560836000000007,5.865282849585647e-06,1.5709761,0.7858542649999993,0.039999975,0.039999962,-9.810374499999972,-0.010391367133731481,-0.0029242064500098865,0.0010049708000035302,-0.00931793870404324,3.221590100010836e-05
0.2775,2.2762157674267963e-05,-0.7847013524999988,-9.034201950066001e-05,-2.356089480000001,3.018056904544213e-06,1.5709761,0.7858495054999992,0.0399999744,0.0399999608,-9.810177549999969,-0.010560963070047218,-0.0029921414350108752,0.0010292287100038832,-0.009315468976273715,3.2960479700119196e-05
0.28,1.8189245599201415e-05,-0.7846938299999987,-9.446498400072001e-05,-2.356095360000001,1.7083095950277873e-07,1.5709761,0.7858447459999992,0.0399999738,0.0399999596,-9.809980599999966,-0.010730559006362956,-0.003060076420011864,0.0010534866200042363,-0.009312999248504188,3.370505840013003e-05
0.28250000000000003,1.3616333524134868e-05,-0.7846863074999986,-9.858794850078e-05,-2.3561012400000014,-2.6763949855386573e-06,1.5709761,0.7858399864999991,0.039999973200000004,0.0399999584,-9.809783649999963,-0.010900154942678694,-0.0031280114050128522,0.0010777445300045893,-0.009310529520734662,3.444963710014087e-05
0.28500000000000003,8.547806748965205e-06,-0.7846786999999985,-0.00010315608100093248,-2.3561071800000013,-5.830878270643905e-06,1.5709761,0.7858346949999989,0.0399999734,0.039999958200000005,-9.809605299999967,-0.011055178847192655,-0.0032003139800144986,0.0011033731300051218,-0.009303081035612065,3.514700660013115e-05
0.28750000000000003,3.2314726239603657e-06,-0.7846710499999986,-0.00010794679750093684,-2.3561131500000014,-9.138990225646917e-06,1.5709761,0.7858291374999989,0.039999974,0.0399999585,-9.809436249999967,-0.01120291673581209,-0.0032748003500145664,0.0011296870750051459,-0.009293143171815106,3.582077150013176e-05
0.29,-2.0848615010443567e-06,-0.7846633999999986,-0.0001127375140009411,-2.356119120000001,-1.2447102180649856e-05,1.5709761,0.785823579999999,0.0399999746,0.0399999588,-9.809267199999967,-0.011350654624431522,-0.0033492867200146325,0.0011560010200051692,-0.009283205308018147,3.649453640013235e-05
0.2925,-7.401195626049196e-06,-0.7846557499999985,-0.00011752823050094547,-2.3561250900000013,-1.5755214135652865e-05,1.5709761,0.7858180224999989,0.0399999752,0.0399999591,-9.809098149999967,-0.011498392513050956,-0.0034237730900147003,0.0011823149650051932,-0.00927326744422119,3.716830130013297e-05
0.295,-1.2717529751054035e-05,-0.7846480999999985,-0.00012231894700094983,-2.356131060000001,-1.906332609065588e-05,1.5709761,0.7858124649999989,0.0399999758,0.0399999594,-9.808929099999967,-0.01164613040167039,-0.0034982594600147677,0.001208628910005217,-0.00926332958042423,3.784206620013358e-05
0.2975,-1.8033863876058878e-05,-0.7846404499999985,-0.0001271096635009542,-2.356137030000001,-2.2371438045658892e-05,1.5709761,0.7858069074999988,0.0399999764,0.039999959700000004,-9.808760049999966,-0.011793868290289826,-0.0035727458300148355,0.001234942855005241,-0.009253391716627271,3.8515831100134195e-05
0.3,-2.335019800122532e-05,-0.7846327999999985,-0.00013190038000110367,-2.356143000000001,-2.567955000076201e-05,1.5709761,0.7858013499999986,0.039999977,0.03999996,-9.808590999999968,-0.011941606178914854,-0.0036472322000148456,0.0012612568000057395,-0.009243453852828933,3.918959600017297e-05
0.3025,-2.947422130114735e-05,-0.7846249549999985,-0.00013741638850103344,-2.356149300000001,-2.9487992700713523e-05,1.5709761,0.7857949569999988,0.039999977,0.039999959700000004,-9.808434849999971,-0.012117298692497707,-0.0037214307200139013,0.0012899426050053742,-0.009226622572165537,4.005407840016196e-05
0.305,-3.559824460106937e-05,-0.7846171099999987,-0.0001429323970009632,-2.356155600000001,-3.3296435400665033e-05,1.5709761,0.7857885639999989,0.039999977,0.0399999594,-9.808278699999972,-0.01229299120608056,-0.0037956292400129566,0.0013186284100050092,-0.00920979129150214,4.0918560800150956e-05
0.3075,-4.172226790099141e-05,-0.7846092649999987,-0.00014844840550089298,-2.356161900000001,-3.710487810061654e-05,1.5709761,0.7857821709999989,0.039999977,0.0399999591,-9.808122549999975,-0.012468683719663413,-0.003869827760012012,0.001347314215004644,-0.009192960010838745,4.178304320013995e-05
0.31,-4.784629120091343e-05,-0.7846014199999989,-0.00015396441400082275,-2.356168200000001,-4.0913320800568055e-05,1.5709761,0.785775777999999,0.039999977,0.0399999588,-9.807966399999977,-0.012644376233246267,-0.003944026280011067,0.0013760000200042787,-0.00917612873017535,4.2647525600128945e-05
0.3125,-5.397031450083546e-05,-0.7845935749999989,-0.00015948042250075252,-2.3561745000000007,-4.472176350051957e-05,1.5709761,0.785769384999999,0.039999977,0.0399999585,-9.80781024999998,-0.01282006874682912,-0.004018224800010122,0.0014046858250039134,-0.009159297449511954,4.3512008000117935e-05
0.315,-6.009433780075749e-05,-0.7845857299999991,-0.0001649964310006823,-2.3561808000000006,-4.853020620047108e-05,1.5709761,0.7857629919999992,0.039999977,0.039999958200000005,-9.807654099999981,-0.012995761260411973,-0.0040924233200091776,0.0014333716300035482,-0.009142466168848559,4.4376490400106926e-05
0.3175,-6.650919500083996e-05,-0.7845778074999991,-0.00017077354000075625,-2.3561871000000005,-5.251883110052212e-05,1.5709761,0.7857563014999991,0.03999997715,0.0399999581,-9.807507949999986,-0.013162360386940733,-0.004169257265009857,0.0014628255500037206,-0.009123656712469681,4.521939710009601e-05
0.32,-7.350572000094178e-05,-0.784569729999999,-0.00017707285000084793,-2.356193400000001,-5.686782040058541e-05,1.5709761,0.785749015999999,0.0399999776,0.0399999584,-9.807381799999984,-0.013310772739370738,-0.004251362060011052,0.0014938157000041715,-0.009100890904661896,4.601915240010765e-05
0.3225,-8.05022450010436e-05,-0.7845616524999988,-0.0001833721600009396,-2.356199700000001,-6.12168097006487e-05,1.5709761,0.785741730499999,0.039999978049999996,0.039999958700000005,-9.807255649999982,-0.013459185091800743,-0.004333466855012247,0.0015248058500046224,-0.00907812509685411,4.681890770011929e-05
0.325,-8.749877000114543e-05,-0.7845535749999987,-0.0001896714700010313,-2.356206000000001,-6.556579900071199e-05,1.5709761,0.7857344449999988,0.0399999785,0.039999959,-9.807129499999979,-0.013607597444230747,-0.004415571650013442,0.0015557960000050735,-0.009055359289046322,4.761866300013093e-05
0.3275,-9.449529500124724e-05,-0.7845454974999986,-0.00019597078000112294,-2.356212300000001,-6.991478830077528e-05,1.5709761,0.7857271594999987,0.03999997895,0.0399999593,-9.807003349999977,-0.013756009796660753,-0.004497676445014636,0.0015867861500055245,-0.009032593481238537,4.841841830014257e-05
0.33,-0.00010149182000134906,-0.7845374199999985,-0.00020227009000121462,-2.3562186000000014,-7.426377760083857e-05,1.5709761,0.7857198739999987,0.039999979399999996,0.0399999596,-9.806877199999976,-0.013904422149090757,-0.004579781240015832,0.0016177763000059756,-0.00900982767343075,4.9218173600154206e-05
0.3325,-0.00010848834500145088,-0.7845293424999983,-0.0002085694000013063,-2.3562249000000013,-7.861276690090186e-05,1.5709761,0.7857125884999985,0.03999997985,0.0399999599,-9.806751049999974,-0.01405283450152076,-0.004661886035017026,0.0016487664500064265,-0.008987061865622965,5.001792890016585e-05
0.335,-0.00011611002600161648,-0.7845210249999983,-0.00021542981600145486,-2.3562312400000014,-8.334878240100431e-05,1.57097609,0.7857046539999983,0.039999980399999996,0.03999996,-9.806587799999964,-0.014222645200825735,-0.004745475870017181,0.0016812308800067644,-0.00895914649590221,5.09399461002003e-05
0.3375,-0.00012404428500151546,-0.7845125874999984,-0.00022257078500136394,-2.3562376000000014,-8.827831100094155e-05,1.570976075,0.7856963949999984,0.039999981,0.03999996,-9.806405999999965,-0.014403155073557978,-0.004829808225016108,0.0017144324500063415,-0.008928656345227427,5.1923094250187784e-05
0.34,-0.00013197854400141443,-0.7845041499999985,-0.00022971175400127302,-2.3562439600000014,-9.320783960087879e-05,1.57097606,0.7856881359999985,0.0399999816,0.03999996,-9.806224199999967,-0.01458366494629022,-0.004914140580015034,0.0017476340200059189,-0.008898166194552646,5.290624240017527e-05
0.3425,-0.00013991280300131343,-0.7844957124999986,-0.0002368527230011821,-2.356250320000001,-9.813736820081603e-05,1.5709760449999999,0.7856798769999986,0.0399999822,0.03999996,-9.80604239999997,-0.01476417481902246,-0.004998472935013961,0.0017808355900054962,-0.008867676043877863,5.388939055016275e-05
0.34500000000000003,-0.0001478470620012124,-0.7844872749999987,-0.0002439936920010912,-2.356256680000001,-0.00010306689680075327,1.57097603,0.7856716179999987,0.0399999828,0.03999996,-9.805860599999972,-0.014944684691754702,-0.005082805290012887,0.0018140371600050735,-0.008837185893203082,5.487253870015023e-05
0.34750000000000003,-0.0001557813210011114,-0.7844788374999988,-0.00025113466100100027,-2.356263040000001,-0.0001079964254006905,1.5709760149999998,0.7856633589999988,0.0399999834,0.03999996,-9.805678799999976,-0.015125194564486945,-0.0051671376450118135,0.0018472387300046507,-0.008806695742528299,5.585568685013771e-05
0.35000000000000003,-0.00016371558000113811,-0.7844703999999989,-0.000258275630001024,-2.356269400000001,-0.00011292595400070686,1.570976,0.7856550999999988,0.039999984,0.03999996,-9.805496999999981,-0.01530570443721545,-0.005251470000012117,0.0018804403000045227,-0.008776205591852663,5.6838835000035444e-05
0.3525,-0.00017265304350114606,-0.7844615724999989,-0.00026631687800103115,-2.3562758650000006,-0.0001184767964007118,1.570976,0.7856457999999988,0.039999984,0.03999996195,-9.80534384999998,-0.01545687359759654,-0.005346623190012202,0.0019159562050045543,-0.008738999441261254,5.711718325003569e-05
0.355,-0.0001815905070011542,-0.7844527449999988,-0.0002743581260010385,-2.356282330000001,-0.00012402763880071686,1.570976,0.7856364999999988,0.039999984,0.039999963900000005,-9.805190699999981,-0.015608042757977633,-0.005441776380012289,0.0019514721100045867,-0.008701793290669845,5.739553150003595e-05
0.3575,-0.00019052797050116233,-0.7844439174999989,-0.00028239937400104575,-2.3562887950000007,-0.0001295784812007219,1.570976,0.7856271999999989,0.039999984,0.03999996585,-9.80503754999998,-0.015759211918358725,-0.005536929570012375,0.001986988015004619,-0.008664587140078436,5.7673879750036195e-05
0.36,-0.00019946543400117047,-0.7844350899999988,-0.0002904406220010531,-2.356295260000001,-0.00013512932360072694,1.570976,0.7856178999999989,0.039999984,0.0399999678,-9.80488439999998,-0.015910381078739818,-0.005632082760012461,0.002022503920004651,-0.008627380989487028,5.795222800003645e-05
0.3625,-0.0002084028975011786,-0.7844262624999988,-0.0002984818700010604,-2.3563017250000007,-0.000140680166000732,1.570976,0.7856085999999988,0.039999984,0.03999996975,-9.80473124999998,-0.01606155023912091,-0.005727235950012548,0.002058019825004684,-0.008590174838895619,5.8230576250036705e-05
0.365,-0.00021734036100118674,-0.7844174349999988,-0.00030652311800106774,-2.356308190000001,-0.00014623100840073706,1.570976,0.7855992999999988,0.039999984,0.039999971700000005,-9.80457809999998,-0.016212719399502005,-0.005822389140012634,0.002093535730004716,-0.00855296868830421,5.850892450003696e-05
0.3675,-0.0002266341115013833,-0.7844084524999987,-0.0003148840310012442,-2.356314755000001,-0.00015200221650085876,1.570976,0.7855896349999986,0.039999984,0.039999973200000004,-9.804416449999975,-0.01637382963674774,-0.005918139470013402,0.002129811120005225,-0.008513283776113134,5.898816150012179e-05
0.37,-0.00023664043600152892,-0.7843991599999985,-0.00032388427400137517,-2.356321520000001,-0.00015821415600094916,1.570976,0.7855792399999985,0.039999984,0.0399999738,-9.804237799999973,-0.016554822027710834,-0.006015084080014812,0.0021676054800057747,-0.0084686413407257,5.986917600013461e-05
0.3725,-0.00024664676050167454,-0.7843898674999984,-0.00033288451700150615,-2.356328285000001,-0.00016442609550103955,1.570976,0.7855688449999982,0.039999984,0.0399999744,-9.80405914999997,-0.01673581441867393,-0.006112028690016223,0.0022053998400063247,-0.008423998905338265,6.0750190500147435e-05
0.375,-0.00025665308500182017,-0.7843805749999982,-0.0003418847600016371,-2.356335050000001,-0.00017063803500112995,1.570976,0.7855584499999981,0.039999984,0.039999975,-9.803880499999968,-0.016916806809637024,-0.006208973300017634,0.0022431942000068748,-0.00837935646995083,6.163120500016026e-05
0.3775,-0.0002666594095019658,-0.7843712824999981,-0.0003508850030017681,-2.3563418150000013,-0.00017684997450122036,1.570976,0.785548054999998,0.039999984,0.0399999756,-9.803701849999966,-0.017097799200600117,-0.006305917910019045,0.002280988560007425,-0.008334714034563396,6.251221950017308e-05
0.38,-0.0002766657340021114,-0.7843619899999981,-0.0003598852460018991,-2.3563485800000015,-0.00018306191400131077,1.570976,0.7855376599999978,0.039999984,0.0399999762,-9.803523199999963,-0.01727879159156321,-0.006402862520020455,0.002318782920007975,-0.00829007159917596,6.33932340001859e-05
0.3825,-0.00028667205850225704,-0.7843526974999979,-0.0003688854890020301,-2.3563553450000017,-0.00018927385350140118,1.570976,0.7855272649999977,0.039999984,0.039999976799999996,-9.803344549999961,-0.017459783982526303,-0.006499807130021866,0.002356577280008525,-0.008245429163788526,6.427424850019872e-05
0.385,-0.00029743465300247237,-0.7843430929999978,-0.0003785642180022232,-2.3563625400000014,-0.0001959536040015343,1.570976,0.7855160839999974,0.0399999844,0.0399999759,-9.803200499999972,-0.01761297136548267,-0.006606065600024614,0.0023958705800088864,-0.00819681342690051,6.563685700035583e-05
0.3875,-0.00030857538250233054,-0.7843333324999979,-0.00038858219000209565,-2.3563699500000013,-0.00020286726000144626,1.570976,0.7855045099999975,0.039999985,0.03999997425,-9.803073749999974,-0.017752256244450086,-0.006716981000023202,0.0024359133500083765,-0.008146211039264264,6.724026250033542e-05
0.39,-0.00031971611200218866,-0.784323571999998,-0.0003986001620019681,-2.3563773600000015,-0.00020978091600135822,1.570976,0.7854929359999977,0.0399999856,0.039999972599999996,-9.802946999999977,-0.017891541123417502,-0.00682789640002179,0.0024759561200078666,-0.00809560865162802,6.8843668000315e-05
0.3925,-0.00033085684150204684,-0.7843138114999982,-0.00040861813400184057,-2.3563847700000013,-0.0002166945720012702,1.570976,0.7854813619999979,0.039999986200000004,0.03999997095,-9.802820249999977,-0.01803082600238492,-0.006938811800020378,0.0025159988900073566,-0.008045006263991773,7.044707350029458e-05
0.395,-0.00034199757100190496,-0.7843040509999983,-0.000418636106001713,-2.356392180000001,-0.00022360822800118217,1.570976,0.785469787999998,0.0399999868,0.0399999693,-9.802693499999979,-0.018170110881352335,-0.007049727200018965,0.002556041660006847,-0.007994403876355527,7.205047900027417e-05
0.3975,-0.00035313830050176314,-0.7842942904999984,-0.00042865407800158543,-2.356399590000001,-0.00023052188400109414,1.570976,0.7854582139999982,0.0399999874,0.039999967649999996,-9.802566749999981,-0.01830939576031975,-0.007160642600017553,0.002596084430006337,-0.007943801488719282,7.365388450025375e-05
0.4,-0.00036427903000179593,-0.7842845299999984,-0.00043867205000161453,-2.356407000000001,-0.00023743554000111414,1.570976,0.7854466399999981,0.039999988,0.039999966,-9.802439999999985,-0.018448680639291,-0.007271558000016769,0.002636127200006162,-0.00789319910108226,7.525729000018932e-05
0.4025,-0.00037661960500180714,-0.7842741859999984,-0.0004497662720016246,-2.356414575000001,-0.0002450914560011211,1.570975985,0.7854338284999981,0.0399999883,0.039999966,-9.802328549999984,-0.018614298664057605,-0.007386786200016874,0.002678471810006201,-0.007837274833574126,7.655828500019052e-05
0.405,-0.0003889601800018184,-0.7842638419999984,-0.00046086049400163474,-2.356422150000001,-0.0002527473720011281,1.5709759699999999,0.7854210169999981,0.0399999886,0.039999966,-9.802217099999984,-0.018779916688824214,-0.007502014400016979,0.0027208164200062395,-0.0077813505660659895,7.78592800001917e-05
0.40750000000000003,-0.0004013007550018296,-0.7842534979999984,-0.0004719547160016448,-2.356429725000001,-0.000260403288001135,1.570975955,0.7854082054999981,0.0399999889,0.039999966,-9.802105649999984,-0.01894553471359082,-0.0076172426000170835,0.002763161030006278,-0.0077254262985578534,7.916027500019289e-05
0.41000000000000003,-0.00041364133000184087,-0.7842431539999984,-0.00048304893800165495,-2.356437300000001,-0.000268059204001142,1.57097594,0.7853953939999981,0.0399999892,0.039999966,-9.801994199999983,-0.019111152738357423,-0.007732470800017189,0.0028055056400063164,-0.007669502031049718,8.046127000019406e-05
0.41250000000000003,-0.0004259819050018521,-0.7842328099999984,-0.0004941431600016651,-2.356444875000001,-0.000275715120001149,1.570975925,0.785382582499998,0.0399999895,0.039999966,-9.801882749999985,-0.019276770763124028,-0.007847699000017293,0.002847850250006355,-0.007613577763541582,8.176226500019526e-05
0.41500000000000004,-0.00043832248000186334,-0.7842224659999985,-0.0005052373820016752,-2.356452450000001,-0.000283371036001156,1.57097591,0.785369770999998,0.039999989799999996,0.039999966,-9.801771299999984,-0.019442388787890636,-0.007962927200017398,0.002890194860006394,-0.007557653496033446,8.306326000019645e-05
0.4175,-0.0004510847435021283,-0.7842118984999983,-0.0005167098215019129,-2.356460170000001,-0.00029128776800132,1.570975905,0.7853565214999978,0.03999999025,0.0399999667,-9.801642149999974,-0.019616062939196707,-0.00808140420001955,0.002933283595006973,-0.007499575242390406,8.422093550013626e-05
0.42,-0.00046469038400232627,-0.7842008839999981,-0.0005289386960020909,-2.356468180000001,-0.00029972613200144276,1.57097592,0.7853423959999976,0.039999991,0.0399999688,-9.801477599999972,-0.019805849343570728,-0.008206378800021369,0.0029778605800076215,-0.0074371890164804935,8.509197200014894e-05
0.4225,-0.00047829602450252427,-0.7841898694999979,-0.0005411675705022689,-2.3564761900000013,-0.00030816449600156554,1.570975935,0.7853282704999974,0.03999999175,0.0399999709,-9.801313049999969,-0.01999563574794475,-0.008331353400023186,0.0030224375650082704,-0.007374802790570581,8.596300850016161e-05
0.425,-0.0004919016650027223,-0.7841788549999978,-0.0005533964450024468,-2.3564842000000015,-0.0003166028600016884,1.57097595,0.7853141449999972,0.039999992500000005,0.039999973,-9.801148499999966,-0.020185422152318774,-0.008456328000025005,0.0030670145500089193,-0.007312416564660668,8.683404500017428e-05
0.4275,-0.0005055073055029203,-0.7841678404999977,-0.0005656253195026248,-2.3564922100000016,-0.00032504122400181117,1.570975965,0.785300019499997,0.039999993250000004,0.0399999751,-9.800983949999965,-0.020375208556692795,-0.008581302600026824,0.003111591535009568,-0.007250030338750755,8.770508150018696e-05
0.43,-0.0005191129460031182,-0.7841568259999975,-0.0005778541940028028,-2.356500220000002,-0.00033347958800193395,1.57097598,0.7852858939999968,0.039999994000000004,0.039999977199999995,-9.800819399999963,-0.020564994961066816,-0.008706277200028643,0.0031561685200102167,-0.007187644112840842,8.857611800019963e-05
0.4325,-0.0005327185865033162,-0.7841458114999974,-0.0005900830685029807,-2.356508230000002,-0.0003419179520020568,1.570975995,0.7852717684999966,0.039999994750000004,0.039999979299999995,-9.80065484999996,-0.020754781365440837,-0.00883125180003046,0.0032007455050108652,-0.007125257886930929,8.944715450021232e-05
0.435,-0.0005472108700035861,-0.7841343359999973,-0.0006031071040032226,-2.356516670000002,-0.0003509042120022234,1.570976,0.7852567239999962,0.039999995,0.0399999815,-9.80052109999997,-0.020908851362797524,-0.008971942700035667,0.003246845710011252,-0.007058997731639396,9.048064600026766e-05
0.4375,-0.0005621464750033959,-0.7841226299999974,-0.0006165287200030517,-2.356525325000002,-0.0003601644200021055,1.570976,0.7852412199999965,0.039999995,0.03999998375,-9.800402749999973,-0.02104506315666552,-0.009120491750033776,0.003293707525010655,-0.006990800611659219,9.159536500025346e-05
0.44,-0.0005770820800032058,-0.7841109239999975,-0.0006299503360028808,-2.356533980000002,-0.00036942462800198763,1.570976,0.7852257159999967,0.039999995,0.039999986,-9.800284399999974,-0.021181274950533516,-0.009269040800031885,0.0033405693400100586,-0.006922603491679042,9.271008400023927e-05
0.4425,-0.0005920176850030156,-0.7840992179999977,-0.00064337195200271,-2.3565426350000016,-0.00037868483600186974,1.570976,0.7852102119999969,0.039999995,0.03999998825,-9.800166049999977,-0.021317486744401513,-0.009417589850029993,0.0033874311550094616,-0.006854406371698866,9.382480300022507e-05
0.445,-0.0006069532900028255,-0.7840875119999978,-0.000656793568002539,-2.356551290000002,-0.00038794504400175184,1.570976,0.7851947079999971,0.039999995,0.0399999905,-9.800047699999977,-0.02145369853826951,-0.009566138900028102,0.003434292970008865,-0.006786209251718689,9.493952200021089e-05
0.4475,-0.0006218888950026353,-0.7840758059999979,-0.0006702151840023682,-2.3565599450000017,-0.00039720525200163395,1.570976,0.7851792039999973,0.039999995,0.039999992750000005,-9.79992934999998,-0.021589910332137505,-0.009714687950026212,0.0034811547850082687,-0.006718012131738512,9.605424100019669e-05
0.45,-0.0006368245000026734,-0.784064099999998,-0.000683636800002402,-2.3565686000000015,-0.0004064654600016574,1.570976,0.7851636999999972,0.039999995,0.039999995,-9.79981099999998,-0.02172612212601296,-0.009863237000024602,0.0035280166000080503,-0.006649815011757538,9.716896000033831e-05
0.4525,-0.0006531544855026883,-0.784051649999998,-0.0006983088700024154,-2.3565773900000018,-0.00041658901100166657,1.570976,0.7851467574999972,0.039999994250000004,0.039999990650000004,-9.799692349999981,-0.02190790157768138,-0.01001351570002474,0.003577191415008095,-0.006576747028145046,9.923543800034019e-05
0.455,-0.0006694844710027031,-0.7840391999999979,-0.0007129809400024288,-2.3565861800000016,-0.0004267125620016758,1.570976,0.7851298149999972,0.039999993500000004,0.0399999863,-9.79957369999998,-0.0220896810293498,-0.010163794400024876,0.00362636623000814,-0.006503679044532555,0.00010130191600034208
0.4575,-0.000685814456502718,-0.784026749999998,-0.0007276530100024421,-2.3565949700000015,-0.000436836113001685,1.570976,0.7851128724999972,0.039999992750000005,0.03999998195,-9.799455049999981,-0.02227146048101822,-0.010314073100025013,0.0036755410450081847,-0.006430611060920063,0.00010336839400034395
0.46,-0.0007021444420027328,-0.7840142999999979,-0.0007423250800024555,-2.356603760000002,-0.00044695966400169426,1.570976,0.7850959299999972,0.039999992,0.0399999776,-9.79933639999998,-0.022453239932686643,-0.01046435180002515,0.0037247158600082295,-0.006357543077307572,0.00010543487200034583
0.4625,-0.0007184744275027478,-0.7840018499999979,-0.0007569971500024688,-2.3566125500000017,-0.00045708321500170345,1.570976,0.7850789874999972,0.03999999125,0.03999997325,-9.79921774999998,-0.022635019384355064,-0.010614630500025287,0.0037738906750082743,-0.00628447509369508,0.00010750135000034771
0.465,-0.0007348044130027627,-0.7839893999999978,-0.0007716692200024822,-2.3566213400000016,-0.0004672067660017127,1.570976,0.7850620449999971,0.0399999905,0.039999968899999995,-9.79909909999998,-0.022816798836023482,-0.010764909200025423,0.003823065490008319,-0.006211407110082588,0.00010956782800034959
0.4675,-0.0007516205240030256,-0.7839766824999977,-0.000786777185002718,-2.3566304400000018,-0.00047763045650187503,1.570976,0.7850445974999969,0.0399999895,0.039999964299999996,-9.798967549999974,-0.022981358226410738,-0.010922317850029199,0.0038729530150087275,-0.006135998480008253,0.00011177305750042227
0.47000000000000003,-0.0007694088860030417,-0.7839634299999977,-0.0008027569400027325,-2.3566401600000018,-0.0004886544260018851,1.570976,0.7850261399999968,0.039999988,0.0399999592,-9.798810199999973,-0.02311147749426197,-0.011093986400029355,0.003924265960008774,-0.0060559085570138045,0.00011425579000042453
0.47250000000000003,-0.0007871972480030579,-0.7839501774999977,-0.0008187366950027471,-2.3566498800000018,-0.0004996783955018952,1.570976,0.7850076824999969,0.0399999865,0.0399999541,-9.798652849999973,-0.023241596762113206,-0.011265654950029512,0.003975578905008821,-0.005975818634019357,0.0001167385225004268
0.47500000000000003,-0.0008049856100030741,-0.7839369249999977,-0.0008347164500027616,-2.3566596000000017,-0.0005107023650019051,1.570976,0.7849892249999968,0.039999984999999995,0.039999949,-9.798495499999973,-0.023371716029964438,-0.011437323500029668,0.0040268918500088674,-0.0058957287110249085,0.00011922125500042906
0.47750000000000004,-0.0008227739720030903,-0.7839236724999977,-0.0008506962050027762,-2.3566693200000017,-0.0005217263345019152,1.570976,0.7849707674999968,0.039999983499999996,0.0399999439,-9.798338149999973,-0.02350183529781567,-0.011608992050029823,0.004078204795008915,-0.005815638788030461,0.00012170398750043132
0.48,-0.0008405623340031061,-0.7839104199999977,-0.0008666759600027904,-2.3566790400000017,-0.000532750304001925,1.570976,0.7849523099999968,0.039999981999999996,0.0399999388,-9.798180799999972,-0.023631954565666902,-0.011780660600029975,0.00412951774000896,-0.005735548865036015,0.00012418672000043352
0.4825,-0.0008583506960031223,-0.7838971674999977,-0.0008826557150028049,-2.3566887600000017,-0.000543774273501935,1.570976,0.7849338524999968,0.0399999805,0.039999933700000004,-9.798023449999972,-0.023762073833518135,-0.011952329150030132,0.004180830685009007,-0.005655458942041567,0.0001266694525004358
0.485,-0.000877153555003407,-0.7838833449999976,-0.0008995451300030603,-2.3566986400000016,-0.0005554254810021111,1.570976,0.7849143499999964,0.039999980399999996,0.039999932,-9.797910999999985,-0.023931320756707043,-0.012127711850031272,0.004233621340009444,-0.005572813097372673,0.00012878493000034085
0.4875,-0.0008964636625034246,-0.7838692374999975,-0.000916889375003076,-2.3567086000000015,-0.0005673903075021219,1.570976,0.7848943249999965,0.039999981,0.039999932,-9.797820999999985,-0.02412013150754931,-0.012304951625031433,0.004287150850009493,-0.005488889291867566,0.0001307167800003426
0.49,-0.0009157737700034421,-0.7838551299999975,-0.0009342336200030918,-2.356718560000002,-0.0005793551340021329,1.570976,0.7848742999999965,0.0399999816,0.039999932,-9.797730999999985,-0.024308942258391576,-0.012482191400031595,0.004340680360009542,-0.00540496548636246,0.00013264863000034437
0.4925,-0.0009350838775034597,-0.7838410224999974,-0.0009515778650031076,-2.3567285200000017,-0.0005913199605021437,1.570976,0.7848542749999964,0.0399999822,0.039999932,-9.797640999999985,-0.024497753009233843,-0.012659431175031755,0.004394209870009591,-0.0053210416808573534,0.0001345804800003461
0.495,-0.0009543939850034773,-0.7838269149999975,-0.0009689221100031234,-2.3567384800000015,-0.0006032847870021547,1.570976,0.7848342499999964,0.0399999828,0.039999932,-9.797550999999984,-0.02468656376007611,-0.012836670950031917,0.004447739380009639,-0.005237117875352247,0.00013651233000034789
0.4975,-0.0009737040925034949,-0.7838128074999974,-0.000986266355003139,-2.356748440000002,-0.0006152496135021655,1.570976,0.7848142249999964,0.0399999834,0.039999932,-9.797460999999984,-0.024875374510918376,-0.013013910725032078,0.0045012688900096885,-0.005153194069847141,0.00013844418000034963
0.5,-0.0009930142000038008,-0.7837986999999972,-0.0010036106000034133,-2.3567584000000017,-0.0006272144400023546,1.570976,0.7847941999999961,0.039999984,0.039999932,-9.797370999999973,-0.02506418526175005,-0.013191150500036813,0.004554798400010137,-0.005069270264340819,0.00014037603000025334
0.5025000000000001,-0.0010139087200038202,-0.7837836549999972,-0.001022375435003431,-2.356769380000002,-0.0006401590230023667,1.570976,0.7847725399999961,0.0399999846,0.039999933200000004,-9.797222649999973,-0.025194757990562866,-0.013393526075037,0.004610526340010189,-0.004978665453365234,0.00014176888050025465
0.505,-0.0010348032400038388,-0.7837686099999972,-0.0010411402700034474,-2.356780360000002,-0.0006531036060023782,1.570976,0.784750879999996,0.039999985200000004,0.0399999344,-9.797074299999972,-0.025325330719375677,-0.01359590165003718,0.004666254280010238,-0.004888060642389654,0.0001431617310002559
0.5075000000000001,-0.0010556977600038582,-0.7837535649999972,-0.001059905105003465,-2.356791340000002,-0.0006660481890023903,1.570976,0.784729219999996,0.0399999858,0.0399999356,-9.796925949999972,-0.025455903448188495,-0.013798277225037368,0.00472198222001029,-0.0047974558314140695,0.00014455458150025718
0.51,-0.0010765922800038768,-0.7837385199999972,-0.0010786699400034817,-2.356802320000002,-0.0006789927720024018,1.570976,0.784707559999996,0.0399999864,0.0399999368,-9.796777599999972,-0.025586476177001306,-0.014000652800037549,0.004777710160010339,-0.004706851020438489,0.00014594743200025843
0.5125,-0.0010974868000038953,-0.7837234749999972,-0.0010974347750034984,-2.356813300000002,-0.0006919373550024132,1.570976,0.7846858999999959,0.039999987,0.039999938,-9.796629249999972,-0.025717048905814117,-0.01420302837503773,0.0048334381000103895,-0.004616246209462909,0.00014734028250025968
0.515,-0.0011183813200039147,-0.7837084299999972,-0.0011161996100035158,-2.356824280000002,-0.0007048819380024253,1.570976,0.7846642399999959,0.0399999876,0.0399999392,-9.796480899999972,-0.025847621634626936,-0.014405403950037917,0.0048891660400104415,-0.004525641398487324,0.00014873313300026097
0.5175,-0.0011398246750042433,-0.783693084999997,-0.0011354565050038104,-2.3568354000000022,-0.0007181656870026283,1.570976,0.7846420119999955,0.0399999881,0.039999940149999996,-9.796356349999986,-0.025995094422285033,-0.014610696750039745,0.00494560200001089,-0.004433973331452303,0.00015030062300036085
0.52,-0.0011623657000042642,-0.783677139999997,-0.0011556975200038293,-2.3568468000000022,-0.0007321277680026414,1.570976,0.7846186479999956,0.0399999884,0.0399999406,-9.796279399999985,-0.026176367327605133,-0.014821824000039941,0.005003454000010944,-0.004340178752300196,0.00015221739200036263
0.5225,-0.0011849067250042844,-0.783661194999997,-0.0011759385350038473,-2.3568582000000022,-0.0007460898490026538,1.570976,0.7845952839999956,0.0399999887,0.03999994105,-9.796202449999985,-0.026357640232925226,-0.015032951250040128,0.005061306000010996,-0.004246384173148093,0.00015413416100036432
0.525,-0.0012074477500043054,-0.783645249999997,-0.0011961795500038661,-2.3568696000000022,-0.0007600519300026668,1.570976,0.7845719199999955,0.039999989,0.039999941500000004,-9.796125499999984,-0.026538913138245326,-0.015244078500040326,0.00511915800001105,-0.004152589593995985,0.00015605093000036613
0.5275,-0.0012299887750043255,-0.783629304999997,-0.0012164205650038841,-2.3568810000000022,-0.0007740140110026792,1.570976,0.7845485559999955,0.0399999893,0.03999994195,-9.796048549999984,-0.026720186043565415,-0.015455205750040514,0.0051770100000111015,-0.004058795014843882,0.00015796769900036783
0.53,-0.0012525298000043465,-0.7836133599999969,-0.001236661580003903,-2.356892400000002,-0.0007879760920026923,1.570976,0.7845251919999955,0.0399999896,0.0399999424,-9.795971599999985,-0.026901458948885515,-0.01566633300004071,0.005234862000011155,-0.003965000435691774,0.0001598844680003696
0.5325,-0.0012750708250043664,-0.7835974149999969,-0.0012569025950039208,-2.356903800000002,-0.0008019381730027047,1.570976,0.7845018279999955,0.0399999899,0.039999942850000005,-9.795894649999985,-0.027082731854205604,-0.015877460250040897,0.005292714000011207,-0.0038712058565396707,0.0001618012370003713
0.535,-0.0012987504000047199,-0.7835807759999968,-0.0012781642800042377,-2.3569157500000024,-0.0008166038000029231,1.570976,0.7844772909999951,0.0399999905,0.0399999434,-9.795779699999974,-0.02722265161576201,-0.01610418440004565,0.005351960000011668,-0.003773217508549789,0.00016381828900040237
0.5375,-0.0013229992500047414,-0.7835637899999967,-0.0012999363000042571,-2.3569279750000023,-0.0008316212000029364,1.570976,0.7844521674999951,0.03999999125,0.039999944,-9.795645749999974,-0.027341894805454618,-0.016338707000045857,0.005411903000011721,-0.003673132276142855,0.00016588548250040422
0.54,-0.0013472481000047641,-0.7835468039999967,-0.0013217083200042774,-2.356940200000002,-0.0008466386000029504,1.570976,0.7844270439999951,0.039999992,0.039999944600000004,-9.795511799999973,-0.02746113799514723,-0.016573229600046077,0.005471846000011777,-0.0035730470437359166,0.00016795267600040615
0.5425,-0.0013714969500047856,-0.7835298179999967,-0.0013434803400042968,-2.3569524250000025,-0.0008616560000029637,1.570976,0.784401920499995,0.039999992750000005,0.039999945200000005,-9.795377849999973,-0.027580381184839832,-0.016807752200046284,0.00553178900001183,-0.003472961811328983,0.00017001986950040797
0.545,-0.0013957458000048082,-0.7835128319999967,-0.0013652523600043171,-2.3569646500000023,-0.0008766734000029777,1.570976,0.784376796999995,0.039999993500000004,0.0399999458,-9.795243899999974,-0.027699624374532446,-0.017042274800046504,0.005591732000011886,-0.0033728765789220443,0.0001720870630004099
0.5475,-0.0014199946500048296,-0.7834958459999967,-0.0013870243800043365,-2.356976875000002,-0.000891690800002991,1.570976,0.7843516734999949,0.039999994250000004,0.0399999464,-9.795109949999974,-0.02781886756422505,-0.01727679740004671,0.005651675000011939,-0.0032727913465151106,0.00017415425650041172
0.55,-0.001444243500005206,-0.7834788599999964,-0.001408796400004674,-2.3569891000000025,-0.0009067082000032237,1.570976,0.7843265499999945,0.039999995,0.039999947,-9.794975999999979,-0.027938110753930604,-0.01751132000004932,0.005711618000012404,-0.0031727061141073637,0.00017622145000034117
0.5525,-0.0014702605200052293,-0.7834608509999964,-0.0014321537100046948,-2.3570022850000023,-0.000922818440003238,1.570976,0.7842995874999945,0.03999999575,0.03999994985,-9.79487084999998,-0.028122027311510995,-0.017757782000049536,0.005773604105012459,-0.003068580629748746,0.00017792638000034268
0.555,-0.0014962775400052535,-0.7834428419999964,-0.0014555110200047165,-2.3570154700000026,-0.000938928680003253,1.570976,0.7842726249999945,0.0399999965,0.0399999527,-9.79476569999998,-0.0283059438690914,-0.01800424400004977,0.005835590210012517,-0.0029644551453901244,0.00017963131000034427
0.5575,-0.0015222945600052767,-0.7834248329999963,-0.0014788683300047372,-2.3570286550000024,-0.0009550389200032674,1.570976,0.7842456624999945,0.03999999725,0.03999995555,-9.794660549999978,-0.02848986042667179,-0.018250706000049986,0.0058975763150125714,-0.002860329661031507,0.00018133624000034578
0.56,-0.0015483115800053009,-0.7834068239999964,-0.001502225640004759,-2.3570418400000026,-0.0009711491600032825,1.570976,0.7842186999999945,0.039999998,0.0399999584,-9.794555399999979,-0.02867377698425219,-0.018497168000050215,0.0059595624200126296,-0.0027562041766728846,0.00018304117000034737
0.5625,-0.0015743286000053241,-0.7833888149999964,-0.0015255829500047799,-2.3570550250000024,-0.0009872594000032969,1.570976,0.7841917374999945,0.03999999875,0.03999996125,-9.79445024999998,-0.028857693541832586,-0.018743630000050433,0.006021548525012685,-0.002652078692314267,0.00018474610000034889
0.5650000000000001,-0.0016003456200053483,-0.7833708059999963,-0.0015489402600048015,-2.3570682100000027,-0.001003369640003312,1.570976,0.7841647749999945,0.0399999995,0.0399999641,-9.79434509999998,-0.029041610099412987,-0.018990092000050664,0.006083534630012742,-0.0025479532079556453,0.00018645103000035048
0.5675,-0.0016269719350057489,-0.7833524229999961,-0.0015728437400051606,-2.3570815100000027,-0.0010198563650035593,1.570976,0.784137181999994,0.04,0.0399999657,-9.794252199999987,-0.029200817737750958,-0.01924595980005671,0.00614621849001323,-0.0024425017589013664,0.0001883405145004663
0.5700000000000001,-0.0016548168400057747,-0.783333291999996,-0.001597839560005184,-2.3570950400000026,-0.0010370960600035754,1.570976,0.7841083279999941,0.04,0.039999964799999996,-9.794183799999987,-0.02931060753764993,-0.019520639200056963,0.00621029786001329,-0.0023343983804582206,0.00019059910800046841
0.5725,-0.0016826617450057995,-0.7833141609999961,-0.0016228353800052061,-2.357108570000003,-0.0010543357550035907,1.570976,0.784079473999994,0.04,0.0399999639,-9.794115399999987,-0.029420397337548896,-0.019795318600057208,0.006274377230013346,-0.0022262950020150796,0.0001928577015004704
0.5750000000000001,-0.0017105066500058255,-0.783295029999996,-0.0016478312000052294,-2.357122100000003,-0.0010715754500036068,1.570976,0.784050619999994,0.04,0.039999963,-9.794046999999985,-0.02953018713744787,-0.020069998000057463,0.006338456600013406,-0.002118191623571934,0.00019511629500047252
0.5775,-0.00173835155500585,-0.783275898999996,-0.0016728270200052516,-2.357135630000003,-0.001088815145003622,1.570976,0.784021765999994,0.04,0.0399999621,-9.793978599999985,-0.029639976937346837,-0.020344677400057708,0.006402535970013463,-0.002010088245128793,0.00019737488850047453
0.58,-0.0017661964600058748,-0.783256767999996,-0.001697822840005274,-2.3571491600000027,-0.0011060548400036374,1.570976,0.783992911999994,0.04,0.0399999612,-9.793910199999985,-0.029749766737245806,-0.020619356800057952,0.006466615340013519,-0.0019019848666856519,0.00019963348200047654
0.5825,-0.0017940413650059008,-0.7832376369999959,-0.0017228186600052973,-2.357162690000003,-0.0011232945350036533,1.570976,0.7839640579999939,0.04,0.0399999603,-9.793841799999985,-0.02985955653714478,-0.020894036200058207,0.006530694710013579,-0.0017938814882425059,0.00020189207550047863
0.585,-0.0018231439600065974,-0.7832177299999955,-0.001748941940005922,-2.3571768800000035,-0.0011413112000040841,1.570976,0.7839339119999932,0.04,0.0399999583,-9.793706899999961,-0.03001172188673288,-0.021175482600063203,0.0065961191900146664,-0.001681723608609972,0.00020477105600070767
0.5875,-0.0018528754000070307,-0.7831974349999952,-0.001775628950006311,-2.3571914000000036,-0.0011597163500043524,1.570976,0.7839031199999927,0.04,0.03999995575,-9.793538749999959,-0.03018507501114532,-0.021460312500067354,0.00666221622501563,-0.0015675384783846729,0.00020796023000075415
0.59,-0.0018826068400074629,-0.7831771399999949,-0.0018023159600066988,-2.3572059200000037,-0.0011781215000046198,1.570976,0.7838723279999923,0.04,0.0399999532,-9.793370599999957,-0.030358428135557756,-0.021745142400071495,0.00672831326001659,-0.0014533533481593786,0.0002111494040008005
0.5925,-0.0019123382800078962,-0.7831568449999946,-0.0018290029700070876,-2.357220440000004,-0.001196526650004888,1.570976,0.7838415359999918,0.04,0.039999950650000005,-9.793202449999955,-0.030531781259970196,-0.022029972300075647,0.006794410295017554,-0.0013391682179340794,0.00021433857800084698
0.595,-0.0019420697200083282,-0.7831365499999944,-0.0018556899800074756,-2.357234960000004,-0.0012149318000051555,1.570976,0.7838107439999914,0.04,0.0399999481,-9.793034299999952,-0.03070513438438263,-0.022314802200079784,0.006860507330018514,-0.0012249830877087853,0.00021752775200089332
0.5975,-0.0019718011600087615,-0.783116254999994,-0.0018823769900078644,-2.357249480000004,-0.0012333369500054237,1.570976,0.7837799519999908,0.04,0.03999994555,-9.79286614999995,-0.03087848750879507,-0.022599632100083936,0.006926604365019478,-0.001110797957483486,0.0002207169260009398
0.6,-0.0020015326000097948,-0.7830959599999934,-0.0019090640000087912,-2.3572640000000047,-0.0012517421000060626,1.570976,0.7837491599999898,0.04,0.039999943,-9.79269799999998,-0.03105184063318691,-0.022884462000098308,0.006992701400021039,-0.0009966128272570422,0.00022390610000092888
0.6025,-0.002033208445009392,-0.7830744934999937,-0.0019374940400084298,-2.3572795700000047,-0.0012713485400058136,1.570976,0.7837163609999902,0.03999999925,0.039999941350000005,-9.79263649999998,-0.031158588640423455,-0.023202383100094266,0.007060741850020175,-0.0008787097903782356,0.0002269100495008907
0.605,-0.002064884290008988,-0.7830530269999939,-0.001965924080008067,-2.357295140000004,-0.0012909549800055634,1.570976,0.7836835619999907,0.0399999985,0.0399999397,-9.792574999999982,-0.03126533664765999,-0.023520304200090214,0.0071287823000193064,-0.0007608067534994344,0.00022991399900085238
0.6075,-0.002096560135008586,-0.7830315604999942,-0.001994354120007706,-2.357310710000004,-0.0013105614200053142,1.570976,0.783650762999991,0.03999999775,0.03999993805,-9.792513499999982,-0.031372084654896534,-0.023838225300086172,0.007196822750018442,-0.0006429037166206279,0.0002329179485008142
0.61,-0.002128235980008182,-0.7830100939999944,-0.0020227841600073434,-2.357326280000004,-0.0013301678600050643,1.570976,0.7836179639999915,0.039999997,0.039999936400000005,-9.792451999999983,-0.031478832662133076,-0.024156146400082117,0.007264863200017574,-0.0005250006797418267,0.0002359218980007759
0.6125,-0.002159911825007779,-0.7829886274999948,-0.002051214200006982,-2.3573418500000036,-0.001349774300004815,1.570976,0.783585164999992,0.03999999625,0.03999993475,-9.792390499999984,-0.03158558066936962,-0.02447406750007808,0.00733290365001671,-0.00040709764286302023,0.0002389258475007377
0.615,-0.002191587670007375,-0.7829671609999951,-0.0020796442400066195,-2.3573574200000036,-0.001369380740004565,1.570976,0.7835523659999923,0.0399999955,0.0399999331,-9.792328999999985,-0.03169232867660615,-0.024791988600074023,0.0074009441000158415,-0.00028919460598421896,0.0002419297970006994
0.6175,-0.0022239305050078726,-0.7829452924999948,-0.002108672170007065,-2.3573733300000037,-0.0013893992150048721,1.570976,0.7835188699999919,0.039999995,0.03999993125,-9.792257424999978,-0.03182050939653333,-0.02511169520007557,0.0074696159300163475,-0.0001701594242774801,0.0002451746285008711
0.62,-0.002257607320008821,-0.7829226199999941,-0.0021388958800079164,-2.3573899200000046,-0.0014102417600054594,1.570976,0.7834839799999909,0.039999995,0.039999929000000004,-9.792165699999975,-0.031991555541798486,-0.025434972800084676,0.007539550520018318,-4.88599529171677e-05,0.00024890122400097613
0.6225,-0.0022912841350097714,-0.7828999474999935,-0.0021691195900087694,-2.357406510000005,-0.0014310843050060475,1.570976,0.7834490899999899,0.039999995,0.039999926750000005,-9.792073974999973,-0.03216260168706364,-0.0257582504000938,0.0076094851100202915,7.243951844315008e-05,0.00025262781950108126
0.625,-0.0023249609500107203,-0.7828772749999928,-0.0021993433000096207,-2.3574231000000054,-0.0014519268500066346,1.570976,0.7834141999999888,0.039999995,0.0399999245,-9.79198224999997,-0.032333647832328796,-0.026081528000102907,0.007679419700022262,0.0001937389898034624,0.0002563544150011863
0.6275000000000001,-0.0023586377650116706,-0.7828546024999922,-0.002229567010010474,-2.357439690000006,-0.0014727693950072228,1.570976,0.783379309999988,0.039999995,0.03999992225,-9.791890524999967,-0.03250469397759396,-0.02640480560011203,0.0077493542900242355,0.00031503846116378014,0.0002600810105012914
0.63,-0.0023923145800126195,-0.7828319299999915,-0.002259790720011325,-2.3574562800000063,-0.00149361194000781,1.570976,0.7833444199999869,0.039999995,0.03999992,-9.791798799999965,-0.032675740122859114,-0.026728083200121135,0.007819288880026205,0.0004363379325240925,0.00026380760600139643
0.6325000000000001,-0.0024259913950135698,-0.7828092574999909,-0.002290014430012178,-2.3574728700000067,-0.0015144544850083982,1.570976,0.7833095299999859,0.039999995,0.03999991775,-9.791707074999962,-0.032846786268124276,-0.027051360800130257,0.007889223470028179,0.0005576374038844102,0.00026753420150150156
0.635,-0.00246103948001443,-0.7827857099999903,-0.0023214673500129494,-2.357489720000007,-0.0015361443700089299,1.570976,0.7832732399999851,0.039999994500000004,0.0399999159,-9.791638649999976,-0.032969880104104884,-0.027399580500145654,0.00796049240002905,0.0006812416366805091,0.00027114468700143455
0.6375000000000001,-0.0024967732000139757,-0.7827617249999906,-0.002353534875012542,-2.3575067000000067,-0.0015582579250086488,1.570976,0.7832362499999855,0.039999993750000004,0.039999914250000004,-9.791581874999977,-0.03306899778548771,-0.027760271250141067,0.008032428500028135,0.0008059982501923685,0.0002746971175013894
0.64,-0.00253250692001352,-0.782737739999991,-0.002385602400012133,-2.3575236800000066,-0.001580371480008367,1.570976,0.783199259999986,0.039999993000000005,0.0399999126,-9.791525099999978,-0.03316811546687054,-0.028120962000136467,0.008104364600027218,0.0009307548637042223,0.0002782495480013441
0.6425,-0.0025682406400130645,-0.7827137549999913,-0.002417669925011724,-2.3575406600000064,-0.0016024850350080848,1.570976,0.7831622699999865,0.03999999225,0.03999991095,-9.791468324999979,-0.03326723314825337,-0.028481652750131866,0.0081763007000263,0.001055511477216076,0.0002818019785012988
0.645,-0.0026039743600126102,-0.7826897699999916,-0.0024497374500113164,-2.3575576400000062,-0.0016245985900078038,1.570976,0.7831252799999869,0.0399999915,0.039999909300000004,-9.79141154999998,-0.033366350829636196,-0.028842343500127283,0.008248236800025385,0.0011802680907279355,0.00028535440900125363
0.6475,-0.002639708080012154,-0.7826657849999918,-0.0024818049750109073,-2.357574620000006,-0.0016467121450075217,1.570976,0.7830882899999875,0.03999999075,0.03999990765,-9.79135477499998,-0.033465468511019024,-0.029203034250122682,0.008320172900024469,0.0013050247042397892,0.0002889068395012083
0.65,-0.0026754418000123916,-0.7826417999999917,-0.0025138725000111196,-2.357591600000006,-0.0016688257000076678,1.570976,0.7830512999999871,0.03999999,0.039999906,-9.791297999999948,-0.03356458619241205,-0.029563725000124733,0.008392109000024121,0.001429781317753755,0.00029245927000124127
0.6525,-0.002713287430011909,-0.7826165204999921,-0.0025478330700106867,-2.357609630000006,-0.0016922437300073692,1.570976,0.7830121049999876,0.03999999075,0.039999904350000004,-9.79113839999995,-0.03369485493753473,-0.029944677750119875,0.008465776100023182,0.0015609705704676365,0.00029625022450119294
0.655,-0.002751133060011428,-0.7825912409999924,-0.002581793640010255,-2.3576276600000057,-0.0017156617600070714,1.570976,0.7829729099999881,0.0399999915,0.0399999027,-9.790978799999952,-0.0338251236826574,-0.030325630500115032,0.008539443200022244,0.0016921598231815242,0.0003000411790011447
0.6575,-0.002788978690010945,-0.7825659614999927,-0.0026157542100098217,-2.3576456900000053,-0.0017390797900067728,1.570976,0.7829337149999887,0.03999999225,0.03999990105,-9.790819199999953,-0.033955392427780076,-0.030706583250110175,0.008613110300021305,0.001823349075895406,0.0003038321335010964
0.66,-0.0028268243200104642,-0.782540681999993,-0.00264971478000939,-2.357663720000005,-0.001762497820006475,1.570976,0.7828945199999892,0.039999993000000005,0.039999899400000004,-9.790659599999955,-0.03408566117290276,-0.03108753600010533,0.008686777400020369,0.0019545383286092934,0.0003076230880010482
0.6625,-0.0028646699500099815,-0.7825154024999933,-0.0026836753500089567,-2.3576817500000047,-0.0017859158500061765,1.570976,0.7828553249999897,0.039999993750000004,0.03999989775,-9.790499999999957,-0.03421592991802543,-0.03146848875010047,0.00876044450001943,0.0020857275813231753,0.00031141404250099983
0.665,-0.0029025155800095005,-0.7824901229999937,-0.002717635920008525,-2.357699780000005,-0.0018093338800058787,1.570976,0.7828161299999902,0.039999994500000004,0.0399998961,-9.790340399999959,-0.03434619866314811,-0.03184944150009563,0.008834111600018494,0.0022169168340370627,0.00031520499700095166
0.6675,-0.0029410829800098977,-0.7824643864999934,-0.0027522434850088813,-2.357718155000005,-0.0018331979750061242,1.570976,0.7827761929999898,0.039999995,0.03999989535,-9.790200549999975,-0.034489792771679455,-0.0322338483500968,0.008908421000018702,0.0023492793669325136,0.00031891091000087467
0.67,-0.002981093920010481,-0.782437735999993,-0.0027881450400094043,-2.357737220000005,-0.0018579542000064849,1.570976,0.7827347719999891,0.039999995,0.0399998964,-9.790100199999973,-0.034660037606999074,-0.032625163400102505,0.008984015000019803,0.002483988460188547,0.0003224467400009262
0.6725,-0.0030211048600110625,-0.7824110854999926,-0.002824046595009926,-2.3577562850000056,-0.0018827104250068447,1.570976,0.7826933509999885,0.039999995,0.03999989745,-9.789999849999973,-0.03483028244231868,-0.03301647845010819,0.009059609000020901,0.0026186975534445746,0.00032598257000097757
0.675,-0.0030611158000116456,-0.7823844349999922,-0.0028599481500104496,-2.3577753500000056,-0.0019074666500072054,1.570976,0.7826519299999879,0.039999995,0.0399998985,-9.78989949999997,-0.0350005272776383,-0.03340779350011389,0.009135203000022003,0.002753406646700608,0.00032951840000102915
0.6775,-0.003101126740012227,-0.7823577844999918,-0.0028958497050109713,-2.3577944150000056,-0.0019322228750075653,1.570976,0.7826105089999873,0.039999995,0.039999899549999995,-9.789799149999968,-0.03517077211295791,-0.033799108550119576,0.009210797000023101,0.002888115739956635,0.0003330542300010805
0.68,-0.00314113768001281,-0.7823311339999914,-0.0029317512600114943,-2.357813480000006,-0.001956979100007926,1.570976,0.7825690879999867,0.039999995,0.0399999006,-9.789698799999968,-0.03534101694827752,-0.03419042360012528,0.009286391000024203,0.0030228248332126685,0.00033659006000113205
0.6825,-0.0031811486200133913,-0.782304483499991,-0.002967652815012016,-2.357832545000006,-0.0019817353250082856,1.570976,0.7825276669999861,0.039999995,0.039999901649999996,-9.789598449999966,-0.035511261783597134,-0.034581738650130964,0.0093619850000253,0.003157533926468696,0.0003401258900011834
0.685,-0.0032226382900143653,-0.7822768999999904,-0.0030048799700128893,-2.3578523400000067,-0.002007405090008888,1.570976,0.7824847139999851,0.0399999955,0.039999902399999995,-9.78952589999998,-0.035623471438912944,-0.034999833100146774,0.009438731900026304,0.0032945982646667062,0.0003439119100013305
0.6875,-0.003264867325014403,-0.7822488499999904,-0.003042769925012923,-2.3578725000000067,-0.002033531625008911,1.570976,0.7824409949999851,0.03999999625,0.039999902999999996,-9.78946724999998,-0.035706663504271194,-0.03543131725014716,0.009516055250026372,0.003432840225333899,0.00034782302500133394
0.6900000000000001,-0.003307096360014442,-0.7822207999999904,-0.0030806598800129583,-2.3578926600000067,-0.002059658160008935,1.570976,0.7823972759999851,0.039999997,0.0399999036,-9.78940859999998,-0.03578985556962945,-0.03586280140014756,0.009593378600026445,0.003571082186001098,0.0003517341400013376
0.6925,-0.0033493253950144797,-0.7821927499999904,-0.003118549835012992,-2.357912820000007,-0.0020857846950089586,1.570976,0.782353556999985,0.03999999775,0.0399999042,-9.789349949999979,-0.0358730476349877,-0.036294285550147944,0.009670701950026513,0.0037093241466682907,0.00035564525500134103
0.6950000000000001,-0.003391554430014519,-0.7821646999999904,-0.0031564397900130273,-2.357932980000007,-0.002111911230008983,1.570976,0.782309837999985,0.0399999985,0.0399999048,-9.789291299999979,-0.03595623970034595,-0.03672576970014835,0.009748025300026584,0.0038475661073354896,0.0003595563700013447
0.6975,-0.0034337834650145565,-0.7821366499999903,-0.003194329745013061,-2.357953140000007,-0.002138037765009006,1.570976,0.7822661189999849,0.03999999925,0.0399999054,-9.78923264999998,-0.0360394317657042,-0.03715725385014873,0.009825348650026653,0.003985808068002682,0.0003634674850013482
0.7000000000000001,-0.0034760125000153803,-0.7821085999999898,-0.0032322197000137992,-2.3579733000000074,-0.002164164300009515,1.570976,0.7822223999999841,0.04,0.039999906,-9.789173999999969,-0.03612262383109097,-0.037588738000152715,0.009902672000027314,0.004124050028670924,0.00036737860000129156
0.7025,-0.003520511425014813,-0.7820791324999903,-0.00327214424001329,-2.357994585000007,-0.002191693095009164,1.570975985,0.7821763349999846,0.04,0.039999906,-9.78908474999997,-0.03628832679247411,-0.03803057890014708,0.009981698450026307,0.004265308287041662,0.0003711153100012439
0.705,-0.003565010350014245,-0.7820496649999906,-0.003312068780012781,-2.3580158700000067,-0.0022192218900088127,1.5709759699999999,0.7821302699999853,0.04,0.039999906,-9.78899549999997,-0.036454029753857246,-0.03847241980014144,0.010060724900025297,0.004406566545412401,0.00037485202000119624
0.7075,-0.0036095092750136797,-0.782020197499991,-0.0033519933200122734,-2.3580371550000065,-0.0022467506850084628,1.570975955,0.7820842049999858,0.04,0.039999906,-9.788906249999972,-0.03661973271524039,-0.03891426070013583,0.010139751350024293,0.004547824803783145,0.00037858873000114874
0.71,-0.0036540082000131122,-0.7819907299999913,-0.0033919178600117644,-2.358058440000006,-0.0022742794800081115,1.57097594,0.7820381399999864,0.04,0.039999906,-9.788816999999973,-0.036785435676623526,-0.03935610160013019,0.010218777800023286,0.004689083062153884,0.0003823254400011011
0.7125,-0.0036985071250125465,-0.7819612624999918,-0.003431842400011257,-2.358079725000006,-0.0023018082750077616,1.570975925,0.781992074999987,0.04,0.039999906,-9.788727749999975,-0.03695113863800667,-0.039797942500124577,0.010297804250022281,0.004830341320524629,0.0003860621500010536
0.715,-0.003743006050011979,-0.7819317949999921,-0.0034717669400107475,-2.3581010100000057,-0.0023293370700074104,1.57097591,0.7819460099999875,0.04,0.039999906,-9.788638499999976,-0.037116841599389806,-0.04023978340011894,0.010376830700021274,0.004971599578895367,0.0003897988600010059
0.7175,-0.0037882784200124345,-0.7819018444999918,-0.0035123847600111555,-2.3581225900000056,-0.0023573433700076916,1.5709758950000001,0.7818991499999871,0.04,0.0399999052,-9.788561699999986,-0.03724907618017738,-0.04069571855012857,0.010456417900021435,0.005113935889714505,0.0003941731070015004
0.72,-0.0038350976800131144,-0.7818709279999914,-0.003554389140011766,-2.3581447600000063,-0.0023863046800081124,1.57097588,0.7818506999999865,0.04,0.0399999028,-9.788509799999986,-0.03731437399985233,-0.04117984220013561,0.010537126600022607,0.005258428305427895,0.00039982242800158245
0.7225,-0.003881916940013797,-0.7818400114999909,-0.003596393520012378,-2.3581669300000065,-0.0024152659900085346,1.570975865,0.7818022499999857,0.04,0.0399999004,-9.788457899999985,-0.03737967181952729,-0.04166396585014266,0.010617835300023784,0.00540292072114129,0.0004054717490016648
0.725,-0.003928736200014478,-0.7818090949999904,-0.0036383979000129884,-2.358189100000007,-0.0024442273000089554,1.57097585,0.7817537999999851,0.04,0.039999898,-9.788405999999984,-0.03744496963920224,-0.0421480895001497,0.010698544000024957,0.00554741313685468,0.0004111210700017469
0.7275,-0.003975555460015159,-0.78177817849999,-0.0036804022800136006,-2.358211270000007,-0.0024731886100093775,1.570975835,0.7817053499999843,0.04,0.0399998956,-9.788354099999983,-0.0375102674588772,-0.04263221315015676,0.010779252700026132,0.005691905552568076,0.0004167703910018292
0.73,-0.00402237472001584,-0.7817472619999896,-0.003722406660014211,-2.3582334400000073,-0.0025021499200097983,1.5709758200000001,0.7816568999999837,0.04,0.039999893200000004,-9.788302199999983,-0.03757556527855215,-0.04311633680016379,0.010859961400027306,0.0058363979682814655,0.0004224197120019113
0.7325,-0.004069193980016522,-0.781716345499989,-0.003764411040014823,-2.3582556100000076,-0.0025311112300102205,1.570975805,0.7816084499999829,0.04,0.0399998908,-9.788250299999982,-0.037640863098227104,-0.043600460450170846,0.010940670100028482,0.005980890383994861,0.0004280690330019936
0.735,-0.004117592820017178,-0.7816844159999886,-0.0038078314900154113,-2.358278400000008,-0.002561048980010626,1.5709758,0.7815583699999823,0.04,0.039999891,-9.788144199999953,-0.037771565467176214,-0.044089682800171746,0.011022447300028746,0.0061283134855849575,0.0004332734110017399
0.7375,-0.004166781450016553,-0.781651979999989,-0.0038519599750148504,-2.358301500000008,-0.002591474950010239,1.5709758,0.7815074749999829,0.04,0.0399998925,-9.788010999999955,-0.037934970110709766,-0.0445814545001655,0.0111047587500277,0.0062772019301110555,0.00043825531750167656
0.74,-0.004215970080015926,-0.7816195439999895,-0.0038960884600142878,-2.3583246000000075,-0.002621900920009851,1.5709758,0.7814565799999835,0.04,0.039999894,-9.787877799999958,-0.038098374754243304,-0.045073226200159223,0.01118707020002665,0.006426090374637147,0.000443237224001613
0.7425,-0.004265158710015301,-0.7815871079999899,-0.003940216945013727,-2.3583477000000075,-0.0026523268900094646,1.5709758,0.7814056849999842,0.04,0.0399998955,-9.787744599999959,-0.038261779397776856,-0.045564997900152976,0.011269381650025605,0.006574978819163245,0.0004482191305015497
0.745,-0.004314347340014673,-0.7815546719999903,-0.003984345430013164,-2.358370800000007,-0.0026827528600090766,1.5709758,0.7813547899999848,0.04,0.039999897,-9.78761139999996,-0.038425184041310394,-0.0460567696001467,0.011351693100024554,0.006723867263689336,0.00045320103700148616
0.7475,-0.004363535970014048,-0.7815222359999907,-0.004028473915012603,-2.358393900000007,-0.00271317883000869,1.5709758,0.7813038949999854,0.04,0.0399998985,-9.787478199999962,-0.038588588684843945,-0.04654854130014045,0.011434004550023509,0.006872755708215433,0.00045818294350142284
0.75,-0.004412724600014081,-0.7814897999999907,-0.004072602400012631,-2.358417000000007,-0.002743604800008709,1.5709758,0.7812529999999854,0.04,0.0399999,-9.787344999999982,-0.03875199332834999,-0.04704031300014704,0.011516316000022892,0.007021644152742603,0.00046316485000160286
0.7525000000000001,-0.004464331140014129,-0.7814558144999907,-0.0041188978900126745,-2.358441180000007,-0.0027755236900087387,1.5709757850000001,0.7811995999999853,0.03999999925,0.039999893999999994,-9.787277499999982,-0.03881463743747995,-0.047579219050147545,0.01160021130002297,0.007174487737980596,0.00046903945000160833
0.755,-0.0045159376800141746,-0.7814218289999907,-0.004165193380012716,-2.358465360000007,-0.002807442580008767,1.57097577,0.7811461999999852,0.0399999985,0.039999888,-9.787209999999982,-0.038877281546609896,-0.04811812510014802,0.011684106600023043,0.0073273313232185815,0.0004749140500016135
0.7575000000000001,-0.004567544220014223,-0.7813878434999906,-0.004211488870012759,-2.358489540000007,-0.002839361470008797,1.570975755,0.7810927999999853,0.03999999775,0.039999881999999994,-9.787142499999982,-0.03893992565573985,-0.04865703115014852,0.011768001900023122,0.007480174908456574,0.00048078865000161905
0.76,-0.004619150760014268,-0.7813538579999906,-0.0042577843600128005,-2.358513720000007,-0.002871280360008825,1.57097574,0.7810393999999852,0.039999997,0.039999876,-9.78707499999998,-0.0390025697648698,-0.049195937200149004,0.011851897200023196,0.007633018493694559,0.00048666325000162425
0.7625000000000001,-0.0046707573000143165,-0.7813198724999906,-0.004304079850012844,-2.358537900000007,-0.002903199250008855,1.570975725,0.7809859999999852,0.03999999625,0.03999987,-9.78700749999998,-0.039065213873999756,-0.049734843250149506,0.011935792500023275,0.007785862078932552,0.0004925378500016298
0.765,-0.004722363840014362,-0.7812858869999906,-0.004350375340012885,-2.358562080000007,-0.0029351181400088834,1.57097571,0.7809325999999851,0.0399999955,0.039999863999999996,-9.78693999999998,-0.039127857983129705,-0.05027374930014998,0.012019687800023349,0.007938705664170537,0.000498412450001635
0.7675000000000001,-0.004774792090015345,-0.7812513784999899,-0.004397407435013765,-2.3585866400000075,-0.0029675447800094905,1.57097569,0.7808783499999841,0.03999999525,0.03999986025,-9.786857849999969,-0.03922196216885725,-0.05081533300015522,0.012104096750024246,0.008092713402628491,0.0005041423595015439
0.77,-0.004828863760016131,-0.7812158239999893,-0.0044459127400144705,-2.3586119600000077,-0.0030009869200099764,1.57097566,0.7808223999999833,0.039999996,0.039999861,-9.786746399999966,-0.03937898650770096,-0.05136227200016316,0.012189533000025487,0.008249049447523438,0.000509582888001623
0.7725,-0.004882935430016916,-0.7811802694999889,-0.004494418045015176,-2.358637280000008,-0.0030344290600104627,1.57097563,0.7807664499999825,0.03999999675,0.03999986175,-9.786634949999964,-0.039536010846544685,-0.05190921100017111,0.012274969250026729,0.008405385492418385,0.000515023416501702
0.775,-0.004937007100017704,-0.7811447149999884,-0.0045429233500158825,-2.3586626000000086,-0.00306787120001095,1.5709756,0.7807104999999817,0.0399999975,0.039999862500000004,-9.786523499999962,-0.039693035185388414,-0.052456150000179086,0.012360405500027975,0.008561721537313337,0.0005204639450017813
0.7775,-0.00499107877001849,-0.7811091604999878,-0.004591428655016587,-2.358687920000009,-0.0031013133400114357,1.57097557,0.7806545499999809,0.03999999825,0.03999986325,-9.786412049999962,-0.03985005952423214,-0.05300308900018703,0.012445841750029217,0.008718057582208285,0.0005259044735018604
0.78,-0.005045150440019278,-0.7810736059999873,-0.004639933960017294,-2.358713240000009,-0.0031347554800119234,1.57097554,0.78059859999998,0.039999999,0.039999864,-9.78630059999996,-0.04000708386307587,-0.053550028000195,0.012531278000030462,0.008874393627103239,0.0005313450020019398
0.7825,-0.005099222110020064,-0.7810380514999868,-0.004688439265017999,-2.3587385600000097,-0.0031681976200124092,1.57097551,0.7805426499999792,0.03999999975,0.03999986475,-9.786189149999958,-0.04016410820191958,-0.054096967000202945,0.012616714250031703,0.009030729671998184,0.0005367855305020187
0.785,-0.005154967770020791,-0.7810014299999863,-0.004738445210018651,-2.3587646400000097,-0.003202673800012858,1.5709754900000001,0.7804849659999785,0.0399999995,0.0399998643,-9.786120599999983,-0.04025303311647995,-0.054673829500217465,0.012703162400031952,0.009189153648971465,0.0005426857660022525
0.7875,-0.005211550425020069,-0.7809642749999869,-0.004789201475018003,-2.3587911000000097,-0.003237667000012412,1.570975475,0.7804264149999792,0.03999999875,0.03999986325,-9.786073499999983,-0.04030790831895624,-0.05526565375020991,0.012790116500030842,0.009348621591982137,0.0005488158550021743
0.79,-0.00526813308001935,-0.7809271199999873,-0.004839957740017358,-2.358817560000009,-0.003272660200011967,1.57097546,0.7803678639999799,0.039999998,0.0399998622,-9.786026399999983,-0.04036278352143253,-0.055857478000202396,0.012877070600029737,0.009508089534992815,0.0005549459440020964
0.7925,-0.005324715735018628,-0.7808899649999878,-0.00489071400501671,-2.3588440200000087,-0.0033076534000115207,1.570975445,0.7803093129999807,0.03999999725,0.03999986115,-9.785979299999985,-0.04041765872390881,-0.056449302250194844,0.012964024700028628,0.009667557478003486,0.0005610760330020182
0.795,-0.005381298390017909,-0.7808528099999883,-0.004941470270016065,-2.3588704800000087,-0.003342646600011076,1.57097543,0.7802507619999814,0.0399999965,0.0399998601,-9.785932199999985,-0.0404725339263851,-0.05704112650018733,0.013050978800027523,0.009827025421014164,0.0005672061220019403
0.7975,-0.005437881045017187,-0.7808156549999887,-0.004992226535015418,-2.358896940000008,-0.0033776398000106298,1.570975415,0.7801922109999821,0.03999999575,0.03999985905,-9.785885099999986,-0.04052740912886139,-0.057632950750179775,0.013137932900026413,0.009986493364024835,0.0005733362110018622
0.8,-0.005494463700017212,-0.7807784999999887,-0.00504298280001544,-2.358923400000008,-0.0034126330000106442,1.5709754,0.7801336599999822,0.039999995,0.039999858,-9.78583799999997,-0.04058228433136396,-0.05822477500017478,0.013224887000025736,0.01014596130703643,0.0005794663000019163
0.8025,-0.005553602085017264,-0.7807397249999887,-0.005096029700015487,-2.358951015000008,-0.003449204425010677,1.5709753850000001,0.780072480999982,0.03999999575,0.0399998568,-9.78573359999997,-0.04072747789327567,-0.058825293700175314,0.013313310200025814,0.010308576514991818,0.0005860500850019221
0.805,-0.00561274047001732,-0.7807009499999886,-0.005149076600015536,-2.358978630000008,-0.003485775850010711,1.57097537,0.780011301999982,0.0399999965,0.0399998556,-9.785629199999969,-0.04087267145518737,-0.05942581240017588,0.013401733400025897,0.010471191722947215,0.0005926338700019283
0.8075,-0.005671878855017373,-0.7806621749999886,-0.005202123500015583,-2.359006245000008,-0.0035223472750107432,1.570975355,0.779950122999982,0.03999999725,0.0399998544,-9.785524799999969,-0.04101786501709908,-0.06002633110017641,0.013490156600025975,0.010633806930902606,0.0005992176550019342
0.81,-0.0057310172400174275,-0.7806233999999885,-0.005255170400015633,-2.3590338600000083,-0.0035589187000107775,1.57097534,0.779888943999982,0.039999998,0.039999853200000005,-9.78542039999997,-0.041163058579010786,-0.06062684980017697,0.013578579800026058,0.010796422138858001,0.0006058014400019403
0.8125,-0.0057901556250174804,-0.7805846249999886,-0.0053082173000156795,-2.3590614750000083,-0.00359549012501081,1.570975325,0.779827764999982,0.03999999875,0.039999852,-9.78531599999997,-0.04130825214092249,-0.06122736850017751,0.013667003000026136,0.010959037346813392,0.0006123852250019461
0.8150000000000001,-0.005849294010017535,-0.7805458499999886,-0.005361264200015729,-2.3590890900000083,-0.003632061550010844,1.57097531,0.7797665859999818,0.0399999995,0.0399998508,-9.78521159999997,-0.041453445702834206,-0.06182788720017807,0.013755426200026219,0.01112165255476879,0.0006189690100019522
0.8175,-0.005909298770018642,-0.7805065214999878,-0.005415087810016721,-2.3591171100000086,-0.0036691683250115277,1.570975295,0.7797045114999808,0.04,0.039999850200000006,-9.785123599999984,-0.0415663601830747,-0.06244429185019572,0.013844307650027116,0.0112853965722525,0.0006256627565020877
0.8200000000000001,-0.005971036280019541,-0.7804660859999872,-0.005470464840017528,-2.359145940000009,-0.0037073458000120843,1.5709752799999999,0.7796406459999798,0.04,0.0399998508,-9.785068399999982,-0.04161471650005911,-0.06309246840020517,0.013934105600028423,0.011451398208789845,0.0006325764260021884
0.8225,-0.006032773790020439,-0.7804256504999866,-0.0055258418700183335,-2.3591747700000094,-0.003745523275012639,1.570975265,0.7795767804999789,0.04,0.0399998514,-9.785013199999982,-0.04166307281704351,-0.06374064495021459,0.014023903550029729,0.011617399845327182,0.0006394900955022888
0.8250000000000001,-0.006094511300021339,-0.780385214999986,-0.005581218900019141,-2.35920360000001,-0.0037837007500131957,1.5709752499999998,0.779512914999978,0.04,0.039999852,-9.784957999999982,-0.041711429134027915,-0.06438882150022404,0.014113701500031037,0.011783401481864526,0.0006464037650023896
0.8275,-0.0061562488100222355,-0.7803447794999855,-0.005636595930019945,-2.3592324300000107,-0.0038218782250137506,1.570975235,0.7794490494999771,0.04,0.039999852600000003,-9.78490279999998,-0.04175978545101232,-0.06503699805023345,0.014203499450032343,0.011949403118401864,0.00065331743450249
0.8300000000000001,-0.006217986320023136,-0.7803043439999849,-0.005691972960020752,-2.359261260000011,-0.0038600557000143068,1.57097522,0.7793851839999761,0.04,0.039999853200000005,-9.78484759999998,-0.04180814176799672,-0.0656851746002429,0.01429329740003365,0.012115404754939208,0.0006602311040025909
0.8325,-0.006279723830024033,-0.7802639084999843,-0.005747349990021557,-2.3592900900000116,-0.0038982331750148616,1.5709752049999999,0.7793213184999752,0.04,0.0399998538,-9.78479239999998,-0.041856498084981125,-0.06633335115025232,0.014383095350034956,0.012281406391476546,0.0006671447735026913
0.835,-0.006343222900024825,-0.7802223469999838,-0.005804305850022267,-2.3593197300000117,-0.0039374984600153515,1.57097519,0.7792556309999743,0.04,0.0399998532,-9.784713999999965,-0.04196444563572944,-0.0669897440002547,0.014473774500035137,0.012449118029391111,0.0006744742230029065
0.8375,-0.006407602750024007,-0.7801802224999843,-0.005862051125021533,-2.359349775000011,-0.003977307650014845,1.5709751749999998,0.7791890324999752,0.04,0.039999852,-9.784623999999967,-0.042102188803306864,-0.0676502450002463,0.014564894250033978,0.012617684667992785,0.0006820115625028107
0.84,-0.006471982600023187,-0.7801380979999849,-0.0059197964000207975,-2.359379820000011,-0.004017116840014337,1.57097516,0.779122433999976,0.04,0.0399998508,-9.784533999999969,-0.042239931970884284,-0.06831074600023787,0.014656014000032816,0.01278625130659445,0.0006895489020027146
0.8425,-0.006536362450022368,-0.7800959734999854,-0.0059775416750200636,-2.3594098650000106,-0.0040569260300138315,1.570975145,0.7790558354999768,0.04,0.0399998496,-9.784443999999969,-0.04237767513846172,-0.06897124700022948,0.014747133750031657,0.012954817945196121,0.0006970862415026188
0.845,-0.006600742300021547,-0.780053848999986,-0.006035286950019326,-2.35943991000001,-0.004096735220013323,1.57097513,0.7789892369999777,0.04,0.039999848399999996,-9.78435399999997,-0.04251541830603914,-0.06963174800022105,0.014838253500030495,0.013123384583797786,0.0007046235810025226
0.8475,-0.006665122150020728,-0.7800117244999865,-0.006093032225018592,-2.35946995500001,-0.004136544410012818,1.570975115,0.7789226384999786,0.04,0.0399998472,-9.784263999999972,-0.04265316147361657,-0.07029224900021266,0.014929373250029337,0.013291951222399458,0.0007121609205024269
