rsonawane2002/My_IMU/logs_2/traj_478/imu_478.csv
time,j1,j2,j3,j4,j5,j6,j7,gripper1,gripper2,imu_ax,imu_ay,imu_az,imu_gx,imu_gy,imu_gz
2509.3833333376742,0.00016700293,-0.785875,4.0107683e-05,-2.3551247,9.29385e-05,1.570997,0.786,0.04,0.04,-9.565174,-0.04312507435679436,0.07963192,-5.1828215e-07,-0.0011641272576525807,8.1691803e-07
2509.400000004341,0.00016699989,-0.78576016,4.0120427e-05,-2.3552213,9.29715e-05,1.5709941,0.786,0.04,0.04,-9.834489,0.0006297784857451916,0.009048019,-5.513884e-07,-0.0022379355505108833,6.070447e-07
2509.416666671008,0.0001669566,-0.7856542,4.0172814e-05,-2.35531,9.298427e-05,1.5709913,0.786,0.04,0.04,-9.832567,0.0006417608237825334,0.0075717927,-2.72895e-06,-0.0032266005873680115,-1.6084082e-06
2509.433333337675,0.00016680795,-0.78555673,4.03309e-05,-2.355391,9.294822e-05,1.5709884,0.786,0.04,0.04,-9.8305,0.0006528580561280251,0.0063540484,-8.572788e-06,-0.00413603475317359,-8.209042e-06
2509.4500000043417,0.00016646119,-0.78546685,4.06893e-05,-2.3554652,9.282273e-05,1.5709856,0.786,0.04,0.04,-9.829074,0.0006730813183821738,0.0050778133,-1.9848196e-05,-0.004966887645423412,-2.1072095e-05
2509.4666666710086,0.00016579879,-0.7853838,4.1368472e-05,-2.355532,9.2555834e-05,1.5709827,0.786,0.04,0.04,-9.827611,0.0006894336547702551,0.004011503,-3.8633116e-05,-0.0057283868081867695,-4.188236e-05
2509.4833333376755,0.0001646808,-0.78530717,4.2511954e-05,-2.3555934,9.208419e-05,1.5709798,0.7859981,0.04,0.04,-9.825855,0.0007115621701814234,0.0031153685,-6.6500565e-05,-0.006419365759938955,-7.214891e-05
2509.5000000043424,0.00016294721,-0.7852362,4.428389e-05,-2.355651,9.133859e-05,1.570977,0.7859962,0.04,0.04,-9.824922,0.000725821009837091,0.0021761414,-9.682402e-05,-0.007050683721899986,-0.00011324698
2509.5166666710093,0.00016042028,-0.78516984,4.6867048e-05,-2.3557014,9.0239904e-05,1.5709741,0.7859924,0.04,0.04,-9.824009,0.0007431972189806402,0.0013906094,-0.00014002773,-0.007632079068571329,-0.00016636695
2509.533333337676,0.00015690627,-0.7851083,5.046043e-05,-2.3557465,8.8711786e-05,1.5709711,0.78598857,0.04,0.039999995,-9.822792,0.0007545722182840109,0.000641373,-0.00018899515,-0.008152448572218418,-0.00023184913
2509.550000004343,0.00015219746,-0.7850506,5.527784e-05,-2.3557885,8.66509e-05,1.5709682,0.78598285,0.04,0.039999995,-9.821605,0.000750060542486608,7.0379116e-05,-0.00025475392,-0.008617977611720562,-0.0003121911
2509.56666667101,0.00014607365,-0.7849961,6.154584e-05,-2.355824,8.39588e-05,1.5709648,0.7859752,0.04,0.039999995,-9.821154,0.0007439553737640381,-0.00057155546,-0.00032997102,-0.009043395519256592,-0.00040743258
2509.583333337677,0.00013830395,-0.7849445,6.950237e-05,-2.3558564,8.052441e-05,1.5709581,0.7859657,0.04,0.04,-9.82018,0.0007140446687117219,-0.0011049056,-0.0004163926,-0.009416637010872364,-0.0005190893
2509.6000000043437,0.00012864765,-0.784895,7.939487e-05,-2.3558836,7.625066e-05,1.5709515,0.78595424,0.04,0.04,-9.819721,0.0006793511565774679,-0.0015169096,-0.00051633344,-0.009767010807991028,-0.0006462078
2509.6166666710105,0.00011685604,-0.7848474,9.147949e-05,-2.355906,7.102684e-05,1.5709447,0.78594023,0.04,0.04,-9.818872,0.0006092676776461303,-0.0019793576,-0.00063102844,-0.010072024539113045,-0.0007901818
2509.6333333376774,0.000102673526,-0.78480124,0.000106019725,-2.355925,6.473873e-05,1.5709373,0.78592306,0.039999995,0.04,-9.818385,0.0005249578389339149,-0.0024321475,-0.0007595456,-0.010336206294596195,-0.0009520944
2509.6500000043443,8.5838394e-05,-0.78475595,0.00012328502,-2.355938,5.7270747e-05,1.5709268,0.7859029,0.03999999,0.03999999,-9.817995,0.000420544994994998,-0.0028022914,-0.0009004137,-0.010568330064415932,-0.0011304953
2509.666666671011,6.608413e-05,-0.7847112,0.00014354993,-2.3559482,4.850309e-05,1.5709159,0.78587925,0.039999988,0.039999988,-9.8173485,0.00027595902793109417,-0.0031113573,-0.0010565697,-0.01076815091073513,-0.0013275668
2509.683333337678,4.314011e-05,-0.7846664,0.00016709325,-2.3559525,3.8319875e-05,1.5709027,0.7858518,0.039999988,0.039999984,-9.817052,9.827531175687909e-05,-0.003460803,-0.0012271192,-0.01094221044331789,-0.0015421644
2509.700000004345,1.6732723e-05,-0.7846213,0.0001941972,-2.3559523,2.6593772e-05,1.5708883,0.7858202,0.039999988,0.039999984,-9.816612,-0.00010736071271821856,-0.0037689223,-0.0014125555,-0.011084290221333504,-0.0017761183
2509.716666671012,-1.3414242e-05,-0.7845756,0.00022514624,-2.3559484,1.3200645e-05,1.5708716,0.7857841,0.039999984,0.03999998,-9.816302,-0.00035493657924234867,-0.0040809726,-0.0016125645,-0.011198582127690315,-0.0020287707
2509.7333333376787,-4.7578564e-05,-0.7845288,0.00026022692,-2.3559387,-1.982805e-06,1.5708531,0.7857432,0.03999998,0.039999977,-9.81605,-0.0006591676501557231,-0.0043614698,-0.0018276557,-0.011293071322143078,-0.002300172
2509.7500000043456,-8.603917e-05,-0.7844806,0.0002997266,-2.3559246,-1.9080231e-05,1.5708312,0.7856971,0.03999998,0.039999977,-9.815709,-0.0009837981779128313,-0.0046456447,-0.0020575437,-0.011357312090694904,-0.0025904998
2509.7666666710124,-0.00012907547,-0.7844306,0.0003439333,-2.3559055,-3.821546e-05,1.5708082,0.78564554,0.03999998,0.039999977,-9.815565,-0.0013682350981980562,-0.004901333,-0.0023022066,-0.011406362056732178,-0.0028994966
2509.7833333376793,-0.00017696669,-0.7843785,0.00039313498,-2.3558812,-5.9513186e-05,1.5707821,0.78558815,0.039999977,0.039999973,-9.815345,-0.001812472939491272,-0.0052145943,-0.0025619236,-0.011428401805460453,-0.0032278572
2509.800000004346,-0.0002299916,-0.784324,0.00044761918,-2.3558514,-8.3097584e-05,1.5707526,0.78552467,0.039999977,0.039999973,-9.815049,-0.0023204900790005922,-0.005503976,-0.002836145,-0.01143100019544363,-0.0035748305
2509.816666671013,-0.0002884279,-0.7842667,0.0005076721,-2.3558168,-0.00010909273,1.5707213,0.78545463,0.039999977,0.039999973,-9.814975,-0.002860537264496088,-0.0057664304,-0.0031259772,-0.01141687948256731,-0.0039405683
2509.83333333768,-0.00035255178,-0.7842063,0.00057357876,-2.3557763,-0.0001376219,1.5706868,0.7853777,0.039999973,0.03999997,-9.814869,-0.003482022089883685,-0.0060969675,-0.0034300764,-0.011382491327822208,-0.0043249717
2509.850000004347,-0.000422638,-0.7841428,0.00064562226,-2.35573,-0.0001688074,1.5706488,0.78529364,0.039999977,0.039999973,-9.814696,-0.004164481069892645,-0.006418027,-0.003748183,-0.011328993365168571,-0.0047278954
2509.8666666710137,-0.00049895863,-0.7840756,0.00072408334,-2.355678,-0.00020277099,1.5706073,0.7852021,0.039999977,0.039999973,-9.814484,-0.004933287389576435,-0.006758894,-0.0040814406,-0.011258828453719616,-0.0051491885
2509.8833333376806,-0.0005817839,-0.7840044,0.00080924074,-2.3556204,-0.0002396335,1.5705621,0.7851028,0.039999973,0.039999973,-9.814507,-0.005747084505856037,-0.0070757386,-0.0044287713,-0.01117481105029583,-0.005589517
2509.9000000043475,-0.0006713806,-0.78392917,0.00090136967,-2.3555567,-0.00027951252,1.5705136,0.7849953,0.039999973,0.03999997,-9.814432,-0.006634334102272987,-0.0074499096,-0.0047905017,-0.01107704546302557,-0.0060461094
2509.9166666710144,-0.00076801295,-0.7838493,0.0010007428,-2.3554864,-0.00032252827,1.5704613,0.7848795,0.039999973,0.039999973,-9.814401,-0.007624013349413872,-0.007847471,-0.0051661194,-0.010964467190206051,-0.0065221717
2509.9333333376812,-0.00087194203,-0.78376484,0.0011076295,-2.3554096,-0.00036879515,1.570405,0.7847549,0.039999973,0.03999997,-9.814232,-0.008699517697095871,-0.008335785,-0.0055562295,-0.01083698682487011,-0.007014036
2509.950000004348,-0.0009834255,-0.7836753,0.0012222946,-2.3553264,-0.0004184294,1.5703446,0.7846212,0.03999997,0.039999966,-9.814255,-0.009825433604419231,-0.008734483,-0.005959788,-0.010695506818592548,-0.0075240107
2509.966666671015,-0.0011027168,-0.7835807,0.0013450007,-2.355236,-0.0004715438,1.5702801,0.7844781,0.03999997,0.039999966,-9.814222,-0.011058037169277668,-0.00921436,-0.0063768523,-0.010543056763708591,-0.008050972
2509.983333337682,-0.0012300668,-0.7834808,0.0014760062,-2.3551395,-0.0005282504,1.5702112,0.7843254,0.03999997,0.039999966,-9.814102,-0.01240315567702055,-0.009775497,-0.0068074814,-0.010375668294727802,-0.008594643
2510.0000000043487,-0.0013657209,-0.78337526,0.0016155642,-2.3550363,-0.00058865896,1.570138,0.78416264,0.03999997,0.039999966,-9.81422,-0.013797376304864883,-0.010254312,-0.0072509144,-0.01020017545670271,-0.009154699
2510.0166666710156,-0.0015099207,-0.783264,0.0017639251,-2.3549256,-0.0006528775,1.5700603,0.7839897,0.03999997,0.039999966,-9.814252,-0.015304505825042725,-0.010858845,-0.0077072144,-0.010013571940362453,-0.009730861
2510.0333333376825,-0.0016629045,-0.7831467,0.0019213336,-2.3548074,-0.00072101207,1.5699776,0.78380615,0.03999997,0.039999966,-9.81418,-0.01691707782447338,-0.011457596,-0.008176437,-0.009813808836042881,-0.010322794
2510.0500000043494,-0.001824906,-0.78302234,0.002088031,-2.3546817,-0.00079316704,1.5698905,0.78361183,0.03999997,0.039999966,-9.814109,-0.018656050786376,-0.012174811,-0.008657572,-0.00960397720336914,-0.010930248
2510.0666666710163,-0.0019961544,-0.78289187,0.002264253,-2.3545485,-0.00086944323,1.5697981,0.7834063,0.039999966,0.03999996,-9.814251,-0.020443741232156754,-0.012882605,-0.009151286,-0.009386871941387653,-0.011552641
2510.083333337683,-0.0021768734,-0.78275514,0.002450232,-2.3544075,-0.0009499428,1.5697005,0.7831896,0.039999966,0.03999996,-9.814225,-0.022365635260939598,-0.0135945305,-0.0096565075,-0.009158920496702194,-0.01218988
2510.10000000435,-0.0023672835,-0.7826111,0.0026461948,-2.3542585,-0.0010347635,1.569598,0.78296113,0.039999966,0.03999996,-9.814257,-0.024400977417826653,-0.014348883,-0.010174383,-0.008922534994781017,-0.012841615
2510.116666671017,-0.0025675988,-0.78246045,0.0028523628,-2.354101,-0.0011240022,1.5694897,0.78272086,0.03999997,0.03999997,-9.814206,-0.026581931859254837,-0.015303626,-0.01070312,-0.008676714263856411,-0.013509018
2510.133333337684,-0.0027780305,-0.78230244,0.0030689538,-2.3539343,-0.0012177512,1.5693763,0.78246844,0.03999997,0.03999999,-9.814184,-0.028830060735344887,-0.016072102,-0.01124341,-0.00841907225549221,-0.014193531
2510.1500000043507,-0.002998784,-0.7821369,0.0032961795,-2.3537595,-0.0013160964,1.5692571,0.78220356,0.039999966,0.039999995,-9.814127,-0.031175687909126282,-0.017012471,-0.011794961,-0.008149736560881138,-0.014887016
2510.1666666710175,-0.0032300607,-0.78196394,0.003534247,-2.3535764,-0.0014191411,1.5691324,0.78192604,0.03999997,0.04,-9.814186,-0.03366532549262047,-0.017987281,-0.012356462,-0.00787440873682499,-0.015592607
2510.1833333376844,-0.003472056,-0.78178334,0.0037833594,-2.353384,-0.0015269582,1.5690019,0.7816357,0.03999997,0.04,-9.814179,-0.036306191235780716,-0.019092927,-0.012928878,-0.0075920079834759235,-0.016310778
2510.2000000043513,-0.0037249604,-0.781595,0.0040437137,-2.3531833,-0.0016396281,1.5688653,0.7813322,0.03999997,0.04,-9.814172,-0.03901337459683418,-0.020073531,-0.01351146,-0.007298925891518593,-0.017041177
2510.216666671018,-0.003988961,-0.7813983,0.0043155015,-2.3529742,-0.0017572428,1.568723,0.7810154,0.03999997,0.04,-9.814232,-0.04187116399407387,-0.021199353,-0.014103743,-0.0070000700652599335,-0.017783368
2510.233333337685,-0.0042642388,-0.7811937,0.0045989086,-2.3527548,-0.001879875,1.5685743,0.7806851,0.03999997,0.04,-9.814291,-0.0448877178132534,-0.022495508,-0.014705801,-0.006697255186736584,-0.018537013
2510.250000004352,-0.0045509683,-0.7809805,0.004894119,-2.352526,-0.0020076323,1.5684198,0.7803411,0.03999997,0.04,-9.8141985,-0.04796881973743439,-0.023641542,-0.015317741,-0.006381765939295292,-0.01930154
2510.266666671019,-0.0048493226,-0.7807591,0.005201309,-2.3522882,-0.002140561,1.5682589,0.77998316,0.03999997,0.04,-9.814192,-0.051214829087257385,-0.02496385,-0.015938563,-0.006057480350136757,-0.020076731
2510.2833333376857,-0.005159466,-0.780529,0.005520651,-2.3520417,-0.0022787428,1.5680914,0.7796111,0.039999973,0.04,-9.814267,-0.054587915539741516,-0.026307274,-0.016568849,-0.005729103460907936,-0.02086135
2510.3000000043526,-0.005481559,-0.7802903,0.005852308,-2.3517842,-0.0024222527,1.5679175,0.7792245,0.039999973,0.04,-9.814326,-0.058141667395830154,-0.027822457,-0.017207908,-0.005399296525865793,-0.021657458
2510.3166666710194,-0.0058157598,-0.7800427,0.006196444,-2.351517,-0.00257116,1.5677373,0.7788234,0.03999997,0.04,-9.814188,-0.0617501474916935,-0.02921607,-0.017854493,-0.005055328365415335,-0.022462914
2510.3333333376863,-0.006162219,-0.7797862,0.006553214,-2.3512409,-0.0027255455,1.5675505,0.7784075,0.03999996,0.04,-9.814211,-0.06554176658391953,-0.030771125,-0.018508954,-0.004704184830188751,-0.02327817
2510.350000004353,-0.006521084,-0.7795206,0.00692277,-2.3509538,-0.0028854678,1.567357,0.7779768,0.039999958,0.04,-9.814305,-0.06945710629224777,-0.032367148,-0.019171594,-0.004350670147687197,-0.024101174
2510.36666667102,-0.006892493,-0.7792458,0.007305255,-2.3506565,-0.0030509855,1.5671566,0.777531,0.039999954,0.04,-9.81412,-0.07355080544948578,-0.03415306,-0.019842025,-0.003987626638263464,-0.0249323
2510.383333337687,-0.0072765825,-0.7789617,0.007700812,-2.3503501,-0.0032221684,1.5669492,0.77707005,0.03999995,0.04,-9.814181,-0.07771945744752884,-0.03579507,-0.020520013,-0.003618169343098998,-0.02577116
2510.400000004354,-0.007673486,-0.7786683,0.008109575,-2.3500323,-0.0033990636,1.5667349,0.7765937,0.039999947,0.04,-9.814282,-0.08206512778997421,-0.037597887,-0.021204837,-0.0032479558140039444,-0.02661744
2510.4166666710207,-0.00808333,-0.7783654,0.008531678,-2.3497047,-0.0035817313,1.5665138,0.7761018,0.039999943,0.04,-9.814126,-0.08655507862567902,-0.03948505,-0.02189691,-0.0028667133301496506,-0.02747065
2510.4333333376876,-0.008506232,-0.7780528,0.0089672385,-2.3493667,-0.0037702248,1.5662856,0.7755942,0.03999994,0.04,-9.81409,-0.09121730178594589,-0.041530624,-0.022595726,-0.0024817436933517456,-0.028330414
2510.4500000043545,-0.008942311,-0.7777307,0.009416385,-2.3490176,-0.0039645894,1.5660503,0.7750708,0.03999994,0.04,-9.8141365,-0.09596260637044907,-0.043468922,-0.023300549,-0.002090886700898409,-0.029195549
2510.4666666710214,-0.009391677,-0.7773987,0.00987923,-2.348659,-0.0041648727,1.565808,0.7745313,0.039999936,0.04,-9.814035,-0.10088828951120377,-0.045548227,-0.024011794,-0.001692796591669321,-0.030067287
2510.4833333376882,-0.009854437,-0.77705705,0.010355883,-2.3482885,-0.0043711397,1.5655584,0.7739759,0.039999932,0.04,-9.81407,-0.105990931391716,-0.047838386,-0.024728084,-0.0012937578139826655,-0.030944314
2510.500000004355,-0.010330695,-0.77670544,0.010846451,-2.347908,-0.0045834286,1.5653015,0.7734042,0.039999932,0.04,-9.813907,-0.11118260025978088,-0.049964312,-0.025451288,-0.0008828689460642636,-0.031826302
2510.516666671022,-0.010820543,-0.77634364,0.011351034,-2.3475156,-0.004801783,1.5650374,0.7728162,0.039999932,0.04,-9.813977,-0.11654897779226303,-0.052294075,-0.026178913,-0.00047109861043281853,-0.032712806
2510.533333337689,-0.011324081,-0.77597195,0.011869724,-2.347113,-0.0050262315,1.5647658,0.7722118,0.03999993,0.04,-9.813805,-0.12206894159317017,-0.054699533,-0.026912214,-5.090964259579778e-05,-0.03360347
2510.5500000043558,-0.011841388,-0.77559006,0.012402615,-2.3466988,-0.0052568153,1.5644866,0.77159095,0.039999925,0.04,-9.813716,-0.12776441872119904,-0.0572693,-0.027650442,0.0003734001365955919,-0.034497116
2510.5666666710226,-0.01237255,-0.7751979,0.012949789,-2.3462734,-0.0054935915,1.5642,0.7709534,0.039999925,0.04,-9.813671,-0.1335555911064148,-0.05971819,-0.028393956,0.0008025398128665984,-0.035394866
2510.5833333376895,-0.012917644,-0.77479565,0.01351133,-2.345837,-0.0057365797,1.563906,0.7702992,0.039999925,0.04,-9.813566,-0.13952195644378662,-0.062350333,-0.029141476,0.0012375309597700834,-0.03629557
2510.6000000043564,-0.013476744,-0.77438295,0.01408731,-2.3453891,-0.0059858025,1.5636042,0.7696281,0.039999925,0.04,-9.8134575,-0.1456400454044342,-0.06506532,-0.029893639,0.0016782230231910944,-0.03719803
2510.6166666710233,-0.014049922,-0.7739602,0.014677802,-2.3449306,-0.0062413053,1.5632951,0.76894003,0.03999992,0.04,-9.813261,-0.15195360779762268,-0.06797736,-0.030649433,0.0021240124478936195,-0.038103558
2510.63333333769,-0.014637239,-0.7735268,0.015282873,-2.3444602,-0.0065031247,1.562978,0.7682349,0.039999925,0.04,-9.813247,-0.1583506017923355,-0.07073008,-0.031408735,0.00257486361078918,-0.03901158
2510.650000004357,-0.0152387535,-0.77308285,0.015902586,-2.3439786,-0.006771269,1.5626534,0.767513,0.039999925,0.04,-9.813099,-0.16491959989070892,-0.07370703,-0.032171294,0.003029216080904007,-0.03992021
2510.666666671024,-0.015854517,-0.77262837,0.016536996,-2.3434858,-0.0070457733,1.562321,0.7667739,0.039999917,0.04,-9.812991,-0.17165516316890717,-0.076773405,-0.032938015,0.0034876405261456966,-0.040830642
2510.683333337691,-0.01648459,-0.7721634,0.017186157,-2.342981,-0.007326657,1.561981,0.7660174,0.039999913,0.04,-9.812759,-0.1785629540681839,-0.080024965,-0.03370788,0.003950465004891157,-0.04174088
2510.7000000043577,-0.017129008,-0.7716879,0.017850108,-2.3424652,-0.007613955,1.5616332,0.76524377,0.039999906,0.04,-9.812636,-0.1855708211660385,-0.083145924,-0.034479406,0.0044198050163686275,-0.042652074
2510.7166666710245,-0.017787822,-0.7712017,0.018528907,-2.3419368,-0.007907674,1.5612776,0.76445305,0.039999902,0.04,-9.812461,-0.19274604320526123,-0.08645504,-0.03525396,0.004893648438155651,-0.043562282
2510.7333333376914,-0.01846106,-0.7707049,0.01922258,-2.3413978,-0.008207832,1.5609142,0.76364493,0.0399999,0.04,-9.812131,-0.20011618733406067,-0.0899822,-0.03603206,0.005374284461140633,-0.044472698
2510.7500000043583,-0.019148756,-0.77019733,0.019931164,-2.3408465,-0.008514425,1.560543,0.7628193,0.039999895,0.04,-9.812096,-0.2075648307800293,-0.09336126,-0.03681195,0.005855249706655741,-0.045380697
2510.766666671025,-0.019850941,-0.76967925,0.020654693,-2.3402846,-0.008827489,1.560164,0.7619763,0.039999887,0.04,-9.811847,-0.21521718800067902,-0.096966825,-0.037592933,0.006342337932437658,-0.046289016
2510.783333337692,-0.020567643,-0.7691505,0.021393191,-2.3397105,-0.0091470275,1.5597773,0.76111597,0.039999884,0.04,-9.811663,-0.22299690544605255,-0.10064198,-0.038376004,0.006832828279584646,-0.04719486
2510.800000004359,-0.02129887,-0.76861095,0.022146668,-2.3391244,-0.009473046,1.5593826,0.7602382,0.03999988,0.04,-9.811322,-0.23096835613250732,-0.10454293,-0.039161175,0.007328991778194904,-0.04809865
2510.816666671026,-0.02204465,-0.7680607,0.022915155,-2.338527,-0.0098055545,1.5589801,0.7593429,0.039999876,0.04,-9.811086,-0.23902283608913422,-0.10828546,-0.039947547,0.007830250076949596,-0.04900018
2510.8333333376927,-0.022804981,-0.76749974,0.023698652,-2.3379176,-0.01014456,1.5585698,0.7584301,0.039999872,0.04,-9.810842,-0.24726924300193787,-0.11227111,-0.040735055,0.008335412479937077,-0.04989969
2510.8500000043596,-0.023579884,-0.766928,0.024497176,-2.3372967,-0.010490048,1.5581516,0.75749993,0.03999987,0.04,-9.810536,-0.25564658641815186,-0.11632939,-0.04152332,0.008845267817378044,-0.050795313
2510.8666666710265,-0.024369353,-0.76634544,0.025310721,-2.3366642,-0.010842049,1.5577255,0.7565522,0.03999987,0.04,-9.810166,-0.2642137408256531,-0.12061595,-0.04231296,0.00935936439782381,-0.051688302
2510.8833333376933,-0.02517339,-0.7657522,0.026139295,-2.3360195,-0.011200542,1.5572916,0.7555869,0.03999987,0.04,-9.80996,-0.2728612720966339,-0.124767825,-0.043102626,0.009875300340354443,-0.05257668
2510.90000000436,-0.025991984,-0.7651483,0.026982883,-2.3353639,-0.011565527,1.55685,0.75460434,0.03999986,0.04,-9.809528,-0.2816869914531708,-0.1291257,-0.04389251,0.010398931801319122,-0.05346171
2510.916666671027,-0.026825128,-0.7645334,0.027841482,-2.3346963,-0.011937006,1.5564003,0.7536042,0.039999854,0.04,-9.809275,-0.29066261649131775,-0.13358882,-0.0446834,0.010923194698989391,-0.05434232
2510.933333337694,-0.027672816,-0.7639079,0.028715078,-2.3340173,-0.012314979,1.5559429,0.7525866,0.03999985,0.04,-9.808823,-0.29979053139686584,-0.13830216,-0.04547344,0.011451108381152153,-0.05521728
2510.950000004361,-0.028535023,-0.76327187,0.029603662,-2.3333263,-0.012699438,1.5554776,0.75155157,0.03999985,0.04,-9.8085375,-0.30902808904647827,-0.14284246,-0.046263903,0.0119817228987813,-0.0560879
2510.9666666710277,-0.029411737,-0.7626249,0.0305072,-2.3326242,-0.013090371,1.5550045,0.75049907,0.039999846,0.04,-9.808052,-0.31844308972358704,-0.14760914,-0.04705352,0.012519213370978832,-0.056956265
2510.9833333376946,-0.030302918,-0.76196736,0.031425666,-2.3319101,-0.0134877525,1.5545235,0.74942917,0.039999858,0.04,-9.807642,-0.32800114154815674,-0.15263149,-0.047842246,0.013057119213044643,-0.057818204
2511.0000000043615,-0.031208547,-0.7612991,0.03235905,-2.3311846,-0.013891582,1.5540348,0.7483418,0.039999858,0.04,-9.807205,-0.3376544415950775,-0.1575044,-0.048630156,0.013599809259176254,-0.05867386
2511.0166666710284,-0.032128595,-0.76062024,0.033307288,-2.3304477,-0.014301831,1.5535383,0.7472372,0.039999854,0.04,-9.806777,-0.3474443256855011,-0.16259965,-0.049416576,0.014144744724035263,-0.059519835
2511.0333333376952,-0.033063006,-0.75993073,0.034270365,-2.329699,-0.01471849,1.5530341,0.7461153,0.03999985,0.04,-9.806278,-0.35740065574645996,-0.16781221,-0.050202105,0.014693675562739372,-0.060359877
2511.050000004362,-0.03401176,-0.7592307,0.035248235,-2.3289394,-0.015141559,1.5525221,0.7449764,0.03999985,0.04,-9.8057,-0.367502897977829,-0.17325784,-0.050985966,0.015245819464325905,-0.061192762
2511.066666671029,-0.03497481,-0.75852,0.036240853,-2.3281677,-0.015571003,1.5520022,0.74382013,0.039999843,0.04,-9.805316,-0.3777049481868744,-0.17855781,-0.051769305,0.015798624604940414,-0.062018428
2511.083333337696,-0.03595211,-0.7577989,0.03724817,-2.327385,-0.016006805,1.5514747,0.7426468,0.03999983,0.04,-9.804677,-0.3880535364151001,-0.1840973,-0.052549783,0.01635630428791046,-0.06283635
2511.1000000043628,-0.03694361,-0.7570674,0.03827014,-2.3265908,-0.016448924,1.5509396,0.74145645,0.03999983,0.04,-9.804139,-0.3985191583633423,-0.18975274,-0.053328846,0.016915813088417053,-0.063644655
2511.1166666710296,-0.03794924,-0.7563254,0.03930669,-2.3257852,-0.016897371,1.5503967,0.7402491,0.039999824,0.04,-9.803475,-0.40917032957077026,-0.19563586,-0.054105766,0.017478568479418755,-0.06444799
2511.1333333376965,-0.03896897,-0.755573,0.040357783,-2.324968,-0.017352106,1.5498463,0.73902476,0.03999982,0.04,-9.802875,-0.41986456513404846,-0.20139474,-0.05488055,0.01804511994123459,-0.06524032
2511.1500000043634,-0.040002715,-0.7548101,0.041423336,-2.3241398,-0.017813077,1.5492884,0.7377837,0.039999817,0.04,-9.802249,-0.43073171377182007,-0.20739253,-0.055652138,0.018613435328006744,-0.06602467
2511.1666666710303,-0.041050423,-0.7540369,0.042503297,-2.3233006,-0.01828026,1.5487229,0.7365257,0.039999817,0.04,-9.801575,-0.44170254468917847,-0.21351765,-0.0564217,0.019184593111276627,-0.06679829
2511.183333337697,-0.042112004,-0.7532535,0.043597598,-2.3224502,-0.018753646,1.54815,0.7352512,0.039999798,0.04,-9.800847,-0.4528418779373169,-0.21986291,-0.05718802,0.01975717395544052,-0.06756601
2511.200000004364,-0.04318741,-0.7524598,0.044706155,-2.321588,-0.019233216,1.5475696,0.73396015,0.039999794,0.04,-9.800179,-0.46403151750564575,-0.22608541,-0.057951458,0.02033182978630066,-0.068321474
2511.216666671031,-0.04427656,-0.751656,0.045828883,-2.3207152,-0.01971891,1.5469818,0.7326526,0.03999979,0.04,-9.799341,-0.4753754436969757,-0.23255056,-0.05871245,0.02091251313686371,-0.06906758
2511.233333337698,-0.045379378,-0.7508422,0.04696572,-2.3198316,-0.02021069,1.5463866,0.7313285,0.039999783,0.04,-9.798534,-0.4868323504924774,-0.23924826,-0.059470337,0.02149343118071556,-0.06980313
2511.2500000043647,-0.046495777,-0.7500183,0.04811658,-2.3189373,-0.020708537,1.5457842,0.7299881,0.039999776,0.04,-9.797842,-0.49840056896209717,-0.24581857,-0.060223658,0.022074760869145393,-0.0705299
2511.2666666710315,-0.04762566,-0.7491846,0.049281362,-2.3180315,-0.021212405,1.5451744,0.7286316,0.039999776,0.04,-9.797002,-0.5100657343864441,-0.25264236,-0.06097348,0.0226583294570446,-0.07124427
2511.2833333376984,-0.04876896,-0.74834114,0.05045999,-2.3171148,-0.021722259,1.5445572,0.727259,0.03999977,0.04,-9.79605,-0.5218601822853088,-0.25955915,-0.061720055,0.023246657103300095,-0.07195013
2511.3000000043653,-0.04992558,-0.7474876,0.05165236,-2.3161879,-0.02223805,1.5439329,0.72587025,0.03999977,0.04,-9.795107,-0.5337530970573425,-0.2667284,-0.062462725,0.023836269974708557,-0.07264238
2511.316666671032,-0.05109543,-0.7466243,0.052858397,-2.3152504,-0.022759736,1.5433016,0.72446567,0.039999757,0.04,-9.794287,-0.5457462072372437,-0.27380463,-0.063200526,0.024425582960247993,-0.07332508
2511.333333337699,-0.0522784,-0.7457514,0.054077964,-2.3143027,-0.023287296,1.5426632,0.7230454,0.039999753,0.04,-9.793361,-0.5578412413597107,-0.28110725,-0.0639342,0.025015821680426598,-0.07399526
2511.350000004366,-0.053474396,-0.7448687,0.055311,-2.3133445,-0.023820667,1.5420176,0.72160923,0.03999975,0.04,-9.792388,-0.570034384727478,-0.288538,-0.06466365,0.025606760755181313,-0.07465385
2511.366666671033,-0.054683328,-0.7439763,0.056557372,-2.3123755,-0.024359802,1.5413649,0.72015756,0.039999746,0.04,-9.791356,-0.5823392868041992,-0.29621512,-0.06538731,0.02619706466794014,-0.075300515
2511.3833333376997,-0.05590505,-0.74307436,0.057816975,-2.3113968,-0.024904644,1.5407052,0.7186908,0.03999974,0.04,-9.790324,-0.5947180986404419,-0.30378544,-0.06610643,0.026788895949721336,-0.07593589
2511.4000000043666,-0.057139494,-0.74216354,0.05908969,-2.3104074,-0.025455156,1.540039,0.7172088,0.039999735,0.04,-9.789315,-0.6071898937225342,-0.31160083,-0.06682165,0.02737860195338726,-0.076557405
2511.4166666710335,-0.05838653,-0.7412433,0.060375426,-2.309408,-0.02601129,1.5393655,0.7157112,0.039999727,0.04,-9.788112,-0.6197648644447327,-0.31948602,-0.06753241,0.02797395922243595,-0.07716761
2511.4333333377003,-0.05964606,-0.74031365,0.061674044,-2.3083992,-0.026573002,1.5386859,0.71419907,0.039999716,0.04,-9.786942,-0.6324301362037659,-0.32765993,-0.068235256,0.028567954897880554,-0.077765144
2511.450000004367,-0.06091796,-0.739375,0.06298544,-2.3073797,-0.027140219,1.5379995,0.71267194,0.039999712,0.04,-9.785913,-0.6451526284217834,-0.33574986,-0.068935335,0.029159730300307274,-0.07834842
2511.466666671034,-0.0622021,-0.73842716,0.06430949,-2.3063505,-0.027712896,1.5373062,0.71113014,0.0399997,0.04,-9.784567,-0.65798419713974,-0.34404415,-0.069628954,0.02975679375231266,-0.078919806
2511.483333337701,-0.06349836,-0.7374704,0.06564604,-2.305312,-0.028291004,1.5366063,0.70957357,0.03999969,0.04,-9.783342,-0.6708829402923584,-0.35259017,-0.070316985,0.030350057408213615,-0.07947816
2511.500000004368,-0.06480662,-0.73650485,0.06699498,-2.3042638,-0.028874438,1.5359002,0.70800275,0.03999969,0.04,-9.782149,-0.6838396191596985,-0.36104643,-0.0709983,0.03094204142689705,-0.080020696
2511.5166666710347,-0.066126734,-0.7355306,0.068356186,-2.3032055,-0.02946319,1.5351876,0.7064178,0.039999675,0.04,-9.780834,-0.696923553943634,-0.369727,-0.0716742,0.031534593552351,-0.080554515
2511.5333333377016,-0.067458585,-0.73454756,0.069729514,-2.3021383,-0.030057192,1.5344688,0.70481867,0.039999682,0.04,-9.779371,-0.7100121974945068,-0.37852475,-0.07234491,0.03213036432862282,-0.08107013
2511.5500000043685,-0.06880206,-0.73355603,0.07111484,-2.301062,-0.030656332,1.5337434,0.70320565,0.03999967,0.04,-9.778076,-0.7232096791267395,-0.3875998,-0.073008694,0.032720912247896194,-0.081573136
2511.5666666710354,-0.070157,-0.7325559,0.072511986,-2.2999759,-0.031260617,1.5330118,0.7015788,0.039999656,0.04,-9.776681,-0.7364727258682251,-0.39654142,-0.07366626,0.03331024572253227,-0.08206382
2511.5833333377022,-0.07152328,-0.7315474,0.07392085,-2.2988803,-0.03186995,1.5322742,0.6999383,0.03999965,0.04,-9.775171,-0.7497721910476685,-0.40575182,-0.07431726,0.033900026232004166,-0.0825385
2511.600000004369,-0.072900735,-0.7305307,0.0753413,-2.2977765,-0.032484304,1.5315307,0.6982843,0.039999645,0.04,-9.773605,-0.763154149055481,-0.41507673,-0.07496159,0.0344921313226223,-0.083000414
2511.616666671036,-0.074289225,-0.72950584,0.07677313,-2.2966642,-0.03310357,1.5307816,0.6966171,0.039999645,0.04,-9.772132,-0.7765638828277588,-0.42463773,-0.07559846,0.035079438239336014,-0.08344566
2511.633333337703,-0.075688675,-0.72847295,0.078216225,-2.2955427,-0.033727694,1.5300263,0.6949369,0.039999638,0.04,-9.770677,-0.7900683283805847,-0.43412146,-0.07622854,0.03566436842083931,-0.08387822
2511.6500000043698,-0.07709883,-0.72743195,0.079670444,-2.2944129,-0.034356598,1.5292654,0.6932437,0.03999963,0.04,-9.768963,-0.8035883903503418,-0.44381708,-0.076852486,0.03624957427382469,-0.0842952
2511.6666666710366,-0.07851963,-0.7263832,0.08113565,-2.2932742,-0.034990236,1.5284985,0.6915377,0.039999623,0.04,-9.767398,-0.8171770572662354,-0.45367602,-0.077468365,0.0368303544819355,-0.08469704
2511.6833333377035,-0.07995086,-0.7253269,0.08261166,-2.2921271,-0.035628565,1.5277258,0.68981916,0.03999961,0.04,-9.765636,-0.8308065533638,-0.46373704,-0.078076616,0.03741033375263214,-0.085086994
2511.7000000043704,-0.08139243,-0.7242628,0.08409831,-2.2909715,-0.036271453,1.5269476,0.68808836,0.039999608,0.04,-9.763909,-0.8444699048995972,-0.4737047,-0.07867784,0.03798862546682358,-0.0854596
2511.7166666710373,-0.082844116,-0.7231914,0.08559545,-2.2898083,-0.036918886,1.5261638,0.6863453,0.039999608,0.04,-9.76215,-0.8581879138946533,-0.48393044,-0.079272024,0.03856413811445236,-0.085819095
2511.733333337704,-0.08430579,-0.7221124,0.08710288,-2.2886364,-0.037570793,1.5253749,0.6845901,0.039999593,0.04,-9.760361,-0.8719274997711182,-0.49437043,-0.079857655,0.03913530707359314,-0.08616613
2511.750000004371,-0.0857773,-0.72102624,0.08862051,-2.287457,-0.038227074,1.5245806,0.6828231,0.039999593,0.04,-9.758485,-0.88569176197052,-0.50476176,-0.080435045,0.03970673680305481,-0.08649368
2511.766666671038,-0.087258466,-0.71993285,0.090148106,-2.28627,-0.038887657,1.523781,0.6810447,0.03999959,0.04,-9.756625,-0.8995058536529541,-0.51536036,-0.08100456,0.04027390107512474,-0.086807
2511.783333337705,-0.08874912,-0.7188325,0.09168554,-2.285075,-0.039552476,1.5229764,0.6792548,0.03999959,0.04,-9.754708,-0.9133408069610596,-0.526084,-0.081566654,0.04083690792322159,-0.08710699
2511.8000000043717,-0.090249136,-0.7177251,0.093232624,-2.2838726,-0.040221464,1.5221664,0.67745364,0.039999582,0.04,-9.752714,-0.9271798729896545,-0.53704,-0.08211977,0.041397690773010254,-0.087390855
2511.8166666710385,-0.09175829,-0.716611,0.0947892,-2.282663,-0.04089453,1.5213518,0.6756414,0.039999574,0.04,-9.750754,-0.9410619735717773,-0.54791856,-0.08266472,0.041952453553676605,-0.087658845
2511.8333333377054,-0.09327644,-0.7154902,0.096355066,-2.281446,-0.04157161,1.5205323,0.6738185,0.039999574,0.04,-9.748732,-0.954957902431488,-0.55901754,-0.083200626,0.042503613978624344,-0.087910704
2511.8500000043723,-0.09480344,-0.714363,0.09793006,-2.280222,-0.042252634,1.5197079,0.6719849,0.039999567,0.04,-9.746568,-0.9688680768013,-0.57024795,-0.083728656,0.04305337369441986,-0.08814787
2511.866666671039,-0.096339084,-0.7132294,0.09951399,-2.278991,-0.04293752,1.5188789,0.670141,0.039999552,0.04,-9.744455,-0.9827679395675659,-0.5816855,-0.08424765,0.043597616255283356,-0.088370524
2511.883333337706,-0.09788319,-0.7120896,0.10110669,-2.2777536,-0.04362617,1.5180452,0.6682868,0.03999955,0.04,-9.7423115,-0.996696949005127,-0.59305245,-0.08475787,0.0441373735666275,-0.08857473
2511.900000004373,-0.09943562,-0.7109435,0.102707975,-2.2765095,-0.044318534,1.5172073,0.6664227,0.039999533,0.04,-9.740151,-1.0106523036956787,-0.6046478,-0.08525877,0.04466984048485756,-0.08876722
2511.91666667104,-0.10099617,-0.7097916,0.10431768,-2.275259,-0.045014527,1.516365,0.66454893,0.039999522,0.04,-9.737887,-1.0245749950408936,-0.6163848,-0.08575101,0.04519904404878616,-0.08894253
2511.9333333377067,-0.10256465,-0.7086337,0.105935596,-2.2740018,-0.045714054,1.5155183,0.6626654,0.039999515,0.04,-9.735577,-1.0384882688522339,-0.62829536,-0.08623408,0.04572397843003273,-0.089103065
2511.9500000043736,-0.10414091,-0.7074702,0.10756154,-2.2727385,-0.046417046,1.5146673,0.6607727,0.039999515,0.04,-9.733233,-1.0524417161941528,-0.64017206,-0.08670719,0.04624324291944504,-0.08924766
2511.9666666710405,-0.10572474,-0.70630103,0.109195314,-2.2714689,-0.047123406,1.5138123,0.6588707,0.039999507,0.04,-9.73084,-1.0663729906082153,-0.652232,-0.08717106,0.046757761389017105,-0.08937757
2511.9833333377073,-0.10731594,-0.7051264,0.11083674,-2.2701936,-0.047833063,1.5129533,0.65695995,0.039999496,0.04,-9.728404,-1.0802533626556396,-0.6645141,-0.087625094,0.04726719483733177,-0.0894932
2512.000000004374,-0.108914346,-0.7039463,0.112485625,-2.268913,-0.048545934,1.5120903,0.6550407,0.039999492,0.04,-9.725984,-1.0941764116287231,-0.6767376,-0.0880698,0.04776913300156593,-0.08959141
2512.016666671041,-0.110519804,-0.70276105,0.114141785,-2.2676263,-0.04926193,1.5112237,0.6531127,0.03999948,0.04,-9.723586,-1.1080812215805054,-0.689182,-0.088505,0.0482616201043129,-0.08967646
2512.033333337708,-0.11213207,-0.7015708,0.11580501,-2.2663338,-0.049980976,1.5103533,0.65117663,0.03999947,0.04,-9.720942,-1.121935486793518,-0.70171887,-0.08892926,0.04875178635120392,-0.08974674
2512.050000004375,-0.11375098,-0.70037556,0.11747511,-2.2650363,-0.050702997,1.5094793,0.64923257,0.039999466,0.04,-9.718313,-1.135741114616394,-0.7144386,-0.0893441,0.04923699423670769,-0.089800745
2512.0666666710417,-0.115376316,-0.69917566,0.11915191,-2.263734,-0.05142787,1.5086017,0.6472808,0.039999466,0.04,-9.715738,-1.1495834589004517,-0.727137,-0.089748874,0.049713071435689926,-0.08983787
2512.0833333377086,-0.11700791,-0.6979709,0.12083516,-2.2624264,-0.05215555,1.5077207,0.64532155,0.039999448,0.04,-9.713128,-1.1634165048599243,-0.74001294,-0.09014325,0.05018075183033943,-0.08986488
2512.1000000043755,-0.11864558,-0.696762,0.1225247,-2.2611134,-0.052885927,1.5068365,0.64335495,0.039999437,0.04,-9.710378,-1.1771515607833862,-0.7530236,-0.09052746,0.050642479211091995,-0.08987381
2512.1166666710424,-0.120289095,-0.6955488,0.12422033,-2.2597964,-0.053618915,1.5059493,0.64138126,0.03999943,0.04,-9.7075405,-1.190835952758789,-0.76614803,-0.09090143,0.05110040307044983,-0.08986749
2512.1333333377092,-0.1219383,-0.69433117,0.12592185,-2.2584743,-0.05435442,1.5050589,0.63940096,0.03999942,0.04,-9.704821,-1.2045708894729614,-0.779289,-0.091264576,0.05154919996857643,-0.089845814
2512.150000004376,-0.12359295,-0.69310945,0.12762909,-2.257148,-0.055092346,1.5041658,0.63741404,0.039999414,0.04,-9.701953,-1.21822988986969,-0.79260564,-0.09161815,0.051991015672683716,-0.08981024
2512.166666671043,-0.12525289,-0.6918837,0.12934172,-2.2558177,-0.055832624,1.5032697,0.6354208,0.0399994,0.04,-9.699087,-1.231860637664795,-0.806034,-0.09196022,0.05242560803890228,-0.08976162
2512.18333333771,-0.12691788,-0.6906544,0.13105962,-2.2544835,-0.056575198,1.5023705,0.6334213,0.039999384,0.04,-9.696231,-1.2453784942626953,-0.8196192,-0.092291944,0.052850060164928436,-0.08969983
2512.2000000043768,-0.12858777,-0.68942165,0.13278256,-2.2531452,-0.057319928,1.5014691,0.6314159,0.03999938,0.04,-9.693285,-1.2589291334152222,-0.8331517,-0.09261183,0.053264789283275604,-0.08962061
2512.2166666710436,-0.1302623,-0.68818533,0.13451035,-2.2518034,-0.05806672,1.5005654,0.629405,0.03999938,0.04,-9.690248,-1.2724006175994873,-0.84686124,-0.092920676,0.053674519062042236,-0.08952688
2512.2333333377105,-0.13194135,-0.6869458,0.13624287,-2.2504575,-0.058815498,1.4996588,0.6273887,0.03999937,0.04,-9.687236,-1.285786509513855,-0.86075234,-0.0932192,0.05407632887363434,-0.08942133
2512.2500000043774,-0.13362463,-0.685703,0.13797973,-2.249108,-0.0595662,1.4987501,0.6253674,0.039999355,0.04,-9.684114,-1.299200177192688,-0.874573,-0.09350642,0.05446935072541237,-0.08930166
2512.2666666710443,-0.13531195,-0.68445724,0.13972083,-2.2477555,-0.060318723,1.4978393,0.6233411,0.03999935,0.04,-9.680975,-1.312493920326233,-0.8885909,-0.09378279,0.05485454574227333,-0.089166366
2512.283333337711,-0.13700315,-0.68320864,0.14146595,-2.2464,-0.061072953,1.4969263,0.6213101,0.03999935,0.04,-9.67785,-1.3257335424423218,-0.9026812,-0.094047524,0.055230915546417236,-0.08901658
2512.300000004378,-0.13869794,-0.6819573,0.14321485,-2.245042,-0.061828792,1.4960115,0.6192748,0.039999336,0.04,-9.674698,-1.3388868570327759,-0.9169111,-0.09430046,0.055596593767404556,-0.08885583
2512.316666671045,-0.14039628,-0.6807034,0.14496735,-2.2436802,-0.06258619,1.4950945,0.61723536,0.039999325,0.04,-9.67148,-1.3520572185516357,-0.93115026,-0.094541915,0.05595332384109497,-0.08868157
2512.333333337712,-0.14209786,-0.679447,0.1467232,-2.2423167,-0.06334504,1.494176,0.6151921,0.039999314,0.04,-9.668096,-1.3650953769683838,-0.94549733,-0.0947725,0.056303463876247406,-0.08849342
2512.3500000043787,-0.14380245,-0.67818844,0.14848226,-2.2409506,-0.06410523,1.4932557,0.6131451,0.039999314,0.04,-9.664932,-1.3780574798583984,-0.9599541,-0.09499187,0.05663953348994255,-0.08828992
2512.3666666710456,-0.14550984,-0.6769277,0.15024428,-2.2395818,-0.06486665,1.492334,0.6110947,0.03999931,0.04,-9.661562,-1.3909213542938232,-0.97452044,-0.09519862,0.05696696788072586,-0.0880738
2512.3833333377124,-0.14721985,-0.6756649,0.152009,-2.2382116,-0.06562923,1.4914107,0.60904115,0.039999295,0.04,-9.658143,-1.4038182497024536,-0.9891021,-0.09539339,0.057286106050014496,-0.087846234
2512.4000000043793,-0.14893225,-0.67440057,0.1537762,-2.2368386,-0.0663929,1.4904864,0.60698473,0.039999284,0.04,-9.654796,-1.4165693521499634,-1.0037985,-0.09557623,0.057592444121837616,-0.08760653
2512.416666671046,-0.15064685,-0.6731346,0.15554574,-2.2354648,-0.06715751,1.4895608,0.60492575,0.039999276,0.04,-9.651223,-1.429236650466919,-1.0185369,-0.095747724,0.05789400264620781,-0.08735244
2512.433333337713,-0.15236342,-0.6718672,0.15731733,-2.2340882,-0.067923024,1.4886341,0.60286415,0.03999926,0.04,-9.647893,-1.4417980909347534,-1.0334182,-0.09590727,0.05818068981170654,-0.08708837
2512.45000000438,-0.15408178,-0.6705984,0.15909083,-2.2327106,-0.068689354,1.4877064,0.6008006,0.039999258,0.04,-9.644185,-1.4543378353118896,-1.0482836,-0.096054,0.058462318032979965,-0.086809665
2512.466666671047,-0.15580173,-0.6693284,0.16086593,-2.2313325,-0.06945634,1.4867778,0.5987351,0.039999258,0.04,-9.640682,-1.4667595624923706,-1.0632718,-0.09618911,0.05873194336891174,-0.08651739
2512.4833333377137,-0.15752302,-0.6680574,0.16264251,-2.2299528,-0.070223935,1.4858485,0.596668,0.039999243,0.04,-9.63724,-1.4790630340576172,-1.0783483,-0.096311726,0.05898585170507431,-0.08621769
2512.5000000043806,-0.1592454,-0.6667854,0.16442028,-2.228572,-0.07099204,1.4849187,0.59459966,0.039999228,0.04,-9.633537,-1.4913662672042847,-1.0934464,-0.09642244,0.05923232063651085,-0.08590547
2512.5166666710475,-0.16096878,-0.6655128,0.16619903,-2.2271907,-0.07176057,1.4839882,0.5925301,0.039999224,0.04,-9.62983,-1.503502368927002,-1.108629,-0.09652124,0.05946902930736542,-0.08558011
2512.5333333377143,-0.16269287,-0.66423976,0.16797858,-2.225809,-0.0725294,1.4830575,0.59045976,0.03999921,0.04,-9.626235,-1.5155714750289917,-1.1238687,-0.096607246,0.05969153717160225,-0.0852455
2512.550000004381,-0.16441743,-0.66296643,0.16975866,-2.2244272,-0.07329847,1.4821264,0.5883886,0.039999206,0.04,-9.622505,-1.5274722576141357,-1.1391762,-0.09668149,0.0599052831530571,-0.0848969
2512.566666671048,-0.16614231,-0.6616928,0.17153911,-2.2230453,-0.07406763,1.4811951,0.5863171,0.039999202,0.04,-9.618773,-1.5393884181976318,-1.1545016,-0.09674205,0.06010553240776062,-0.08453735
2512.583333337715,-0.16786723,-0.66041905,0.17331967,-2.2216632,-0.07483682,1.4802637,0.58424556,0.039999194,0.04,-9.615031,-1.5511667728424072,-1.1699411,-0.09678994,0.06029374152421951,-0.08416875
2512.600000004382,-0.1695921,-0.65914524,0.17510015,-2.2202814,-0.07560599,1.4793326,0.5821741,0.039999176,0.04,-9.611231,-1.5628565549850464,-1.1853968,-0.09682551,0.0604703314602375,-0.0837928
2512.6166666710487,-0.17131656,-0.6578718,0.1768803,-2.2188993,-0.076375,1.4784015,0.58010304,0.039999165,0.04,-9.607411,-1.5743377208709717,-1.2009333,-0.0968483,0.060635969042778015,-0.0834041
2512.6333333377156,-0.17304052,-0.6565985,0.17865993,-2.2175174,-0.077143766,1.4774709,0.5780328,0.03999916,0.04,-9.603456,-1.5858412981033325,-1.2164716,-0.096858636,0.060792166739702225,-0.08300335
2512.6500000043825,-0.17476368,-0.65532583,0.18043879,-2.216136,-0.077912204,1.4765404,0.5759633,0.039999157,0.04,-9.599552,-1.597197413444519,-1.2320884,-0.0968567,0.06093752756714821,-0.08259397
2512.6666666710494,-0.17648591,-0.654054,0.18221664,-2.2147553,-0.07868019,1.4756107,0.57389504,0.039999157,0.04,-9.595629,-1.608444094657898,-1.2477226,-0.09684164,0.06107053533196449,-0.08217345
2512.6833333377162,-0.17820695,-0.6527829,0.18399338,-2.2133765,-0.0794476,1.4746815,0.57182825,0.039999153,0.04,-9.591696,-1.6195074319839478,-1.263384,-0.09681432,0.06119322404265404,-0.08174346
2512.700000004383,-0.17992659,-0.65151316,0.1857687,-2.211998,-0.080214374,1.4737531,0.5697631,0.039999146,0.04,-9.587825,-1.6306170225143433,-1.2791231,-0.096773855,0.06129930913448334,-0.08130595
2512.71666667105,-0.18164459,-0.6502444,0.18754236,-2.21062,-0.08098046,1.4728256,0.5676999,0.039999127,0.04,-9.583684,-1.6415436267852783,-1.2948339,-0.096721165,0.06139930337667465,-0.08086039
2512.733333337717,-0.18336079,-0.64897716,0.1893142,-2.209245,-0.081745744,1.471899,0.5656389,0.03999912,0.04,-9.579606,-1.6522759199142456,-1.3106029,-0.09665547,0.0614904910326004,-0.08040433
2512.7500000043838,-0.18507496,-0.6477112,0.19108398,-2.207871,-0.08251013,1.4709735,0.5635802,0.039999112,0.04,-9.575737,-1.6630241870880127,-1.3264169,-0.0965766,0.06156235188245773,-0.0799389
2512.7666666710506,-0.18678686,-0.6464469,0.1928515,-2.2064986,-0.083273515,1.4700495,0.5615243,0.0399991,0.04,-9.571627,-1.6736019849777222,-1.3422583,-0.096484505,0.061623234301805496,-0.07946565
2512.7833333377175,-0.18849634,-0.6451844,0.19461654,-2.205128,-0.08403578,1.4691266,0.55947125,0.0399991,0.04,-9.567497,-1.6840522289276123,-1.3581241,-0.09637967,0.061674945056438446,-0.07898261
2512.8000000043844,-0.19020316,-0.64392394,0.19637881,-2.20376,-0.08479686,1.468205,0.5574213,0.039999094,0.04,-9.563386,-1.6943341493606567,-1.3739607,-0.09626218,0.06171509623527527,-0.07849249
2512.8166666710513,-0.19190712,-0.64266545,0.19813818,-2.202394,-0.08555665,1.4672853,0.555375,0.039999083,0.04,-9.55928,-1.7046200037002563,-1.3898605,-0.09613116,0.06174125522375107,-0.07799506
2512.833333337718,-0.19360802,-0.6414094,0.19989441,-2.2010307,-0.086315066,1.466367,0.5533322,0.039999075,0.04,-9.555137,-1.714716911315918,-1.4057846,-0.095987916,0.06175593286752701,-0.07748919
2512.850000004385,-0.19530557,-0.6401557,0.20164736,-2.1996698,-0.08707203,1.4654506,0.5512935,0.039999053,0.04,-9.550986,-1.7247284650802612,-1.4216843,-0.095831215,0.06175835803151131,-0.076979786
2512.866666671052,-0.19699962,-0.6389047,0.20339663,-2.1983113,-0.087827444,1.4645357,0.549259,0.039999045,0.04,-9.546793,-1.7345170974731445,-1.4375862,-0.09566174,0.06174968555569649,-0.076459594
2512.883333337719,-0.19869006,-0.63765633,0.20514213,-2.1969562,-0.08858118,1.4636233,0.5472288,0.03999904,0.04,-9.542529,-1.744316577911377,-1.4535091,-0.095479995,0.06172860413789749,-0.0759328
2512.9000000043857,-0.20037653,-0.6364108,0.20688367,-2.195605,-0.08933318,1.4627126,0.5452033,0.039999034,0.04,-9.538364,-1.7539243698120117,-1.4694678,-0.09528471,0.061695437878370285,-0.075398915
2512.9166666710526,-0.20205894,-0.63516814,0.20862101,-2.194256,-0.09008333,1.4618045,0.5431829,0.03999903,0.04,-9.534253,-1.763439655303955,-1.4854115,-0.09507602,0.06164494529366493,-0.074859574
2512.9333333377194,-0.20373707,-0.63392866,0.21035391,-2.192911,-0.090831555,1.4608985,0.54116756,0.039999023,0.04,-9.529915,-1.7727420330047607,-1.5013075,-0.09485529,0.0615878626704216,-0.07431346
2512.9500000043863,-0.20541064,-0.6326926,0.21208224,-2.191569,-0.09157777,1.4599948,0.5391576,0.039999016,0.04,-9.525656,-1.7820477485656738,-1.5172776,-0.0946213,0.061516206711530685,-0.073762104
2512.966666671053,-0.20707949,-0.63146,0.21380569,-2.1902313,-0.09232185,1.4590938,0.5371534,0.03999901,0.04,-9.521364,-1.7911815643310547,-1.5331833,-0.094374344,0.06143339350819588,-0.07320458
2512.98333333772,-0.20874347,-0.630231,0.21552415,-2.1888971,-0.09306377,1.4581954,0.53515494,0.039999004,0.04,-9.517159,-1.8001184463500977,-1.5490562,-0.09411435,0.06133749708533287,-0.072641075
2513.000000004387,-0.21040231,-0.62900585,0.21723737,-2.187568,-0.09380337,1.4572996,0.53316265,0.039998997,0.04,-9.512761,-1.8090519905090332,-1.5649942,-0.09384132,0.06123190000653267,-0.07207208
2513.016666671054,-0.21205583,-0.6277846,0.21894513,-2.186242,-0.09454065,1.4564068,0.53117687,0.03999898,0.04,-9.508602,-1.817828893661499,-1.5808926,-0.09355514,0.061108775436878204,-0.07150166
2513.0333333377207,-0.21370386,-0.62656736,0.22064722,-2.1849213,-0.09527542,1.4555172,0.5291977,0.03999897,0.04,-9.504172,-1.8264238834381104,-1.5967394,-0.09325695,0.060978375375270844,-0.07092192
2513.0500000043876,-0.21534617,-0.62535435,0.22234349,-2.1836047,-0.09600766,1.4546305,0.5272253,0.039998963,0.04,-9.499973,-1.8348740339279175,-1.6125389,-0.09294562,0.0608334057033062,-0.0703392
2513.0666666710545,-0.21698257,-0.6241457,0.2240337,-2.1822925,-0.09673729,1.4537469,0.52526,0.03999896,0.04,-9.495592,-1.8433070182800293,-1.6284082,-0.09262138,0.060676682740449905,-0.06975163
2513.0833333377213,-0.21861288,-0.62294155,0.22571765,-2.1809857,-0.09746412,1.4528666,0.52330214,0.039998952,0.04,-9.491171,-1.851547122001648,-1.6441805,-0.09228445,0.060511235147714615,-0.06915822
2513.100000004388,-0.2202369,-0.62174195,0.22739509,-2.1796837,-0.09818817,1.4519894,0.5213517,0.039998956,0.04,-9.486944,-1.8596687316894531,-1.6599548,-0.091934964,0.06032954901456833,-0.06856064
2513.116666671055,-0.22185443,-0.6205472,0.2290659,-2.178387,-0.09890933,1.4511161,0.5194092,0.039998945,0.04,-9.482636,-1.8676109313964844,-1.6756152,-0.09157254,0.060135651379823685,-0.06796222
2513.133333337722,-0.22346528,-0.6193574,0.2307298,-2.1770957,-0.099627495,1.4502462,0.51747453,0.039998937,0.04,-9.478215,-1.8755279779434204,-1.6913811,-0.09119804,0.05993270501494408,-0.067358695
2513.150000004389,-0.22506925,-0.6181727,0.2323867,-2.17581,-0.100342594,1.44938,0.515548,0.03999893,0.04,-9.473928,-1.8832775354385376,-1.7070315,-0.09081031,0.05971592664718628,-0.06675237
2513.1666666710557,-0.22666612,-0.61699325,0.23403631,-2.1745296,-0.10105454,1.4485178,0.5136302,0.03999892,0.04,-9.4695835,-1.8908864259719849,-1.722645,-0.09040914,0.0594867579638958,-0.066140495
2513.1833333377226,-0.22825578,-0.61581916,0.23567851,-2.173255,-0.10176325,1.4476595,0.51172113,0.039998915,0.04,-9.465177,-1.8983153104782104,-1.7381262,-0.0899972,0.05925029516220093,-0.06552458
2513.2000000043895,-0.22983797,-0.6146505,0.23731305,-2.1719868,-0.10246861,1.4468052,0.50982094,0.039998908,0.04,-9.4608555,-1.9057492017745972,-1.7537342,-0.08957267,0.058999840170145035,-0.064907186
2513.2166666710564,-0.23141256,-0.61348736,0.23893975,-2.1707246,-0.10317059,1.4459553,0.50792986,0.039998885,0.04,-9.456534,-1.91300368309021,-1.7692155,-0.08913533,0.0587376244366169,-0.0642888
2513.2333333377233,-0.23297931,-0.61233,0.24055842,-2.1694686,-0.10386909,1.4451095,0.506048,0.039998878,0.04,-9.452265,-1.9200564622879028,-1.7845739,-0.08868548,0.058463409543037415,-0.06366746
2513.25000000439,-0.23453812,-0.61117846,0.24216887,-2.168219,-0.104564026,1.4442681,0.50417584,0.03999887,0.04,-9.447842,-1.9271061420440674,-1.8000244,-0.088222705,0.05817960575222969,-0.06304339
2513.266666671057,-0.23608875,-0.6100331,0.24377094,-2.1669762,-0.10525531,1.4434309,0.5023136,0.039998863,0.04,-9.443532,-1.9339662790298462,-1.8153421,-0.0877485,0.05788378790020943,-0.06241701
2513.283333337724,-0.23763104,-0.6088939,0.24536444,-2.1657395,-0.105942905,1.4425981,0.5004612,0.039998855,0.04,-9.439222,-1.9407278299331665,-1.8305892,-0.08726287,0.05757579579949379,-0.061790433
2513.3000000043908,-0.23916477,-0.6077607,0.24694909,-2.1645098,-0.106626675,1.4417698,0.49861932,0.039998848,0.04,-9.434892,-1.947302222251892,-1.8456877,-0.08676428,0.057258401066064835,-0.061160635
2513.3166666710576,-0.24068987,-0.6066342,0.24852481,-2.163287,-0.10730657,1.4409465,0.49678764,0.039998844,0.04,-9.430536,-1.9538376331329346,-1.8609134,-0.08625514,0.05692950636148453,-0.060530223
2513.3333333377245,-0.24220617,-0.605514,0.25009143,-2.1620712,-0.10798247,1.440128,0.4949665,0.03999884,0.04,-9.426231,-1.960217833518982,-1.8759674,-0.085733645,0.0565902516245842,-0.059898183
2513.3500000043914,-0.24371332,-0.6044006,0.25164872,-2.160863,-0.10865436,1.4393144,0.4931565,0.039998833,0.04,-9.421946,-1.9664720296859741,-1.8909817,-0.08519966,0.05624043196439743,-0.059265383
2513.3666666710583,-0.2452113,-0.603294,0.2531967,-2.159662,-0.10932213,1.4385056,0.49135736,0.039998826,0.04,-9.417729,-1.9725816249847412,-1.9057957,-0.084655106,0.05587930977344513,-0.058632188
2513.383333337725,-0.24669985,-0.60219425,0.25473487,-2.1584685,-0.10998574,1.4377021,0.48956954,0.03999882,0.04,-9.4133835,-1.9786580801010132,-1.9207507,-0.08409799,0.05550829693675041,-0.05799779
2513.400000004392,-0.2481789,-0.6011017,0.2562632,-2.1572826,-0.11064509,1.4369035,0.48779324,0.03999881,0.04,-9.409117,-1.9845515489578247,-1.9355259,-0.08352982,0.05512690916657448,-0.057362404
2513.416666671059,-0.24964823,-0.60001624,0.25778154,-2.1561043,-0.111300096,1.4361105,0.4860286,0.03999881,0.04,-9.404863,-1.9903277158737183,-1.950201,-0.08295089,0.054735321551561356,-0.05672665
2513.433333337726,-0.25110778,-0.59893817,0.25928977,-2.1549344,-0.11195069,1.4353224,0.48427582,0.039998807,0.04,-9.400631,-1.995948076248169,-1.9647175,-0.08236084,0.054335691034793854,-0.056089375
2513.4500000043927,-0.25255713,-0.59786755,0.26078773,-2.1537724,-0.11259681,1.4345396,0.4825351,0.0399988,0.04,-9.3964405,-2.0015645027160645,-1.9793395,-0.081759565,0.05392216891050339,-0.05545364
2513.4666666710596,-0.2539963,-0.5968044,0.26227513,-2.1526184,-0.11323838,1.4337623,0.4808065,0.039998792,0.04,-9.392199,-2.0070154666900635,-1.9937795,-0.08114698,0.05349920317530632,-0.05481773
2513.4833333377264,-0.25542527,-0.5957488,0.2637519,-2.1514728,-0.11387533,1.4329909,0.47909042,0.039998785,0.04,-9.388067,-2.012298583984375,-2.0080335,-0.08052271,0.05306629464030266,-0.054183006
2513.5000000043933,-0.25684366,-0.59470093,0.26521787,-2.1503358,-0.11450762,1.4322252,0.47738695,0.039998773,0.04,-9.383829,-2.01753830909729,-2.0224147,-0.079888955,0.052625011652708054,-0.053547665
2513.51666667106,-0.25825146,-0.59366107,0.2666729,-2.1492076,-0.11513516,1.4314654,0.4756963,0.039998766,0.04,-9.379683,-2.0226457118988037,-2.0366108,-0.07924388,0.05217449739575386,-0.05291332
2513.533333337727,-0.25964847,-0.592629,0.26811677,-2.1480877,-0.11575787,1.4307113,0.47401854,0.039998762,0.04,-9.37559,-2.027634859085083,-2.0506792,-0.07858869,0.05171305686235428,-0.05227916
2513.550000004394,-0.26103443,-0.5916051,0.26954937,-2.1469767,-0.11637569,1.4299631,0.47235397,0.039998755,0.04,-9.371464,-2.0324654579162598,-2.0645552,-0.077922925,0.05124368518590927,-0.051646084
2513.566666671061,-0.2624093,-0.5905893,0.27097055,-2.1458745,-0.11698857,1.4292206,0.4707027,0.039998744,0.04,-9.36733,-2.037292242050171,-2.078557,-0.07724656,0.0507652573287487,-0.051013775
2513.5833333377277,-0.2637731,-0.58958185,0.27238026,-2.1447816,-0.11759647,1.4284843,0.46906492,0.039998736,0.04,-9.363275,-2.041963577270508,-2.0923483,-0.076559864,0.05027547478675842,-0.050384037
2513.6000000043946,-0.26512536,-0.58858263,0.27377826,-2.143698,-0.118199274,1.4277543,0.46744075,0.03999873,0.04,-9.359227,-2.0465176105499268,-2.1060302,-0.07586379,0.04977743700146675,-0.049754947
2513.6166666710615,-0.2664661,-0.5875922,0.27516428,-2.1426232,-0.118796945,1.4270302,0.46583045,0.039998725,0.04,-9.355278,-2.05094575881958,-2.1195173,-0.07515642,0.04926953837275505,-0.049127135
2513.6333333377283,-0.26779523,-0.58661014,0.2765383,-2.1415575,-0.11938944,1.4263126,0.46423408,0.03999872,0.04,-9.351159,-2.0553207397460938,-2.1330824,-0.07444029,0.048755206167697906,-0.048500404
2513.650000004395,-0.26911253,-0.58563685,0.2779002,-2.1405013,-0.11997665,1.4256015,0.46265194,0.03999872,0.04,-9.347146,-2.059558153152466,-2.146458,-0.07371463,0.048233285546302795,-0.047874406
2513.666666671062,-0.27041805,-0.58467245,0.27924985,-2.1394548,-0.12055853,1.4248965,0.46108407,0.03999872,0.04,-9.343159,-2.063709259033203,-2.1597092,-0.072979786,0.047704968601465225,-0.04724966
2513.683333337729,-0.27171144,-0.5837167,0.28058705,-2.138418,-0.121135056,1.4241982,0.4595306,0.03999871,0.04,-9.339351,-2.0677413940429688,-2.1727123,-0.07223589,0.0471651665866375,-0.046630166
2513.700000004396,-0.27299267,-0.58277005,0.2819117,-2.137391,-0.12170616,1.4235063,0.4579918,0.03999871,0.04,-9.335344,-2.0717051029205322,-2.1858876,-0.07148232,0.04661917686462402,-0.046010103
2513.7166666710627,-0.2742616,-0.5818325,0.28322372,-2.136374,-0.12227179,1.4228213,0.45646778,0.039998706,0.04,-9.331521,-2.0755722522735596,-2.1987925,-0.070720196,0.04606388881802559,-0.045393515
2513.7333333377296,-0.27551818,-0.58090425,0.28452286,-2.1353664,-0.12283185,1.4221429,0.45495868,0.0399987,0.04,-9.327689,-2.07930064201355,-2.2114587,-0.06994929,0.04550252482295036,-0.04477848
2513.7500000043965,-0.27676222,-0.5799848,0.28580916,-2.1343694,-0.12338636,1.4214711,0.4534646,0.03999869,0.04,-9.323741,-2.082975387573242,-2.2242403,-0.069170825,0.044936325401067734,-0.04416531
2513.7666666710634,-0.27799365,-0.5790748,0.28708237,-2.133382,-0.12393523,1.4208062,0.45198578,0.039998688,0.04,-9.320072,-2.0865416526794434,-2.236849,-0.068382785,0.044357962906360626,-0.043555606
2513.7833333377303,-0.27921233,-0.5781743,0.28834242,-2.1324048,-0.12447841,1.420148,0.45052204,0.039998688,0.04,-9.316221,-2.0900096893310547,-2.2492552,-0.06758798,0.04377571865916252,-0.042948272
2513.800000004397,-0.2804181,-0.5772833,0.28958926,-2.1314383,-0.12501584,1.4194971,0.44907376,0.039998688,0.04,-9.31252,-2.093381881713867,-2.2614138,-0.066784255,0.04318755865097046,-0.042343374
2513.816666671064,-0.28161085,-0.57640195,0.29082268,-2.1304824,-0.12554748,1.4188533,0.44764122,0.039998677,0.04,-9.308798,-2.0967140197753906,-2.273753,-0.06597215,0.04259255900979042,-0.041741148
2513.833333337731,-0.28279057,-0.5755302,0.29204264,-2.1295369,-0.12607332,1.4182166,0.4462243,0.039998677,0.04,-9.305204,-2.0999271869659424,-2.2858136,-0.06515264,0.04198847711086273,-0.04114198
2513.8500000043978,-0.28395715,-0.57466817,0.2932491,-2.1286016,-0.12659325,1.4175867,0.44482324,0.039998665,0.04,-9.301502,-2.1030337810516357,-2.2977421,-0.06432602,0.04138043522834778,-0.04054347
2513.8666666710646,-0.28511035,-0.57381606,0.29444176,-2.1276772,-0.12710728,1.4169639,0.4434381,0.03999865,0.04,-9.297929,-2.1060776710510254,-2.309386,-0.06349222,0.040766723453998566,-0.039949216
2513.8833333377315,-0.28625023,-0.57297397,0.2956208,-2.126763,-0.12761538,1.4163486,0.44206902,0.039998643,0.04,-9.294326,-2.10904860496521,-2.3211863,-0.06265147,0.040146440267562866,-0.03935779
2513.9000000043984,-0.28737673,-0.57214165,0.2967859,-2.1258593,-0.12811744,1.4157403,0.4407161,0.03999864,0.04,-9.290731,-2.1119487285614014,-2.3327065,-0.061803866,0.03952297568321228,-0.03876838
2513.9166666710653,-0.28848958,-0.57131934,0.29793704,-2.1249676,-0.12861346,1.4151393,0.4393794,0.03999864,0.04,-9.287167,-2.114713191986084,-2.3440936,-0.060950186,0.03889545425772667,-0.038181234
2513.933333337732,-0.28958878,-0.5705072,0.29907408,-2.1240866,-0.1291034,1.4145459,0.43805906,0.039998624,0.04,-9.283931,-2.117457866668701,-2.355249,-0.06008892,0.03825767710804939,-0.03760045
2513.950000004399,-0.2906745,-0.56970507,0.30019698,-2.1232164,-0.12958723,1.4139597,0.43675518,0.03999862,0.04,-9.280402,-2.120107412338257,-2.3665125,-0.059221704,0.0376167967915535,-0.037022304
2513.966666671066,-0.2917464,-0.5689132,0.30130565,-2.1223567,-0.13006496,1.413381,0.43546784,0.03999862,0.04,-9.277006,-2.122645139694214,-2.3775103,-0.058349434,0.03697061538696289,-0.036448322
2513.983333337733,-0.29280436,-0.56813145,0.3024,-2.1215086,-0.13053647,1.4128096,0.43419722,0.039998613,0.04,-9.273634,-2.125141143798828,-2.3881843,-0.057471827,0.0363224595785141,-0.035877068
2514.0000000043997,-0.29384834,-0.56736004,0.30348003,-2.1206715,-0.13100177,1.4122459,0.43294328,0.039998617,0.04,-9.270318,-2.127568006515503,-2.3990722,-0.056588165,0.035667676478624344,-0.0353101
2514.0166666710666,-0.2948784,-0.56659883,0.3045456,-2.1198459,-0.13146083,1.4116899,0.43170613,0.039998613,0.04,-9.267057,-2.1299405097961426,-2.4096396,-0.055698797,0.035008177161216736,-0.0347472
2514.0333333377334,-0.29589435,-0.56584805,0.3055967,-2.119031,-0.13191363,1.4111413,0.4304859,0.039998613,0.04,-9.263814,-2.1321985721588135,-2.420099,-0.054804478,0.03434571251273155,-0.03418712
2514.0500000044003,-0.2968962,-0.56510776,0.3066331,-2.1182275,-0.1323601,1.4106005,0.4292826,0.039998613,0.04,-9.260626,-2.1344103813171387,-2.4302166,-0.05390539,0.033680371940135956,-0.033630375
2514.066666671067,-0.29788387,-0.5643779,0.30765492,-2.1174357,-0.13280027,1.4100674,0.42809635,0.03999861,0.04,-9.257393,-2.1365435123443604,-2.4405026,-0.053002317,0.03301280736923218,-0.033077378
2514.083333337734,-0.2988572,-0.56365854,0.308662,-2.116655,-0.1332341,1.409542,0.42692727,0.039998602,0.04,-9.254353,-2.1386351585388184,-2.4505222,-0.05209443,0.032339345663785934,-0.03252967
2514.100000004401,-0.29981625,-0.5629498,0.30965444,-2.1158867,-0.13366157,1.4090241,0.4257753,0.039998595,0.04,-9.251246,-2.1406497955322266,-2.4603832,-0.051182475,0.031663667410612106,-0.031985622
2514.116666671068,-0.30076104,-0.56225157,0.31063205,-2.115129,-0.13408265,1.4085139,0.4246406,0.03999859,0.04,-9.248313,-2.14262056350708,-2.469944,-0.050265927,0.030982520431280136,-0.031445086
2514.1333333377347,-0.30169144,-0.56156397,0.3115948,-2.1143837,-0.13449728,1.4080112,0.42352307,0.039998587,0.04,-9.245219,-2.1444993019104004,-2.4796567,-0.049346823,0.030300229787826538,-0.030909855
2514.1500000044016,-0.30260742,-0.5608871,0.31254262,-2.1136491,-0.1349055,1.4075167,0.42242295,0.039998583,0.04,-9.242341,-2.1463401317596436,-2.4890902,-0.048423395,0.02961190789937973,-0.030379172
2514.1666666710685,-0.3035089,-0.5602207,0.31347552,-2.112927,-0.13530736,1.4070299,0.42134023,0.03999858,0.04,-9.239357,-2.148092746734619,-2.4983587,-0.047497943,0.028925348073244095,-0.029851269
2514.1833333377353,-0.30439597,-0.55956507,0.31439352,-2.1122153,-0.13570268,1.4065508,0.4202748,0.03999858,0.04,-9.236653,-2.149813175201416,-2.5073564,-0.046569057,0.028231404721736908,-0.029328406
2514.200000004402,-0.30526847,-0.5589203,0.3152965,-2.1115158,-0.13609153,1.4060795,0.41922683,0.03999858,0.04,-9.233595,-2.151459217071533,-2.5164635,-0.045637995,0.027542125433683395,-0.028807571
2514.216666671069,-0.30612648,-0.5582861,0.3161845,-2.110828,-0.13647388,1.4056163,0.41819635,0.03999858,0.04,-9.230894,-2.1530792713165283,-2.5252926,-0.04470451,0.02684834599494934,-0.028291801
2514.233333337736,-0.30696988,-0.5576626,0.31705743,-2.1101515,-0.13684975,1.4051609,0.4171834,0.039998572,0.04,-9.228227,-2.154629945755005,-2.533849,-0.043768875,0.026153456419706345,-0.027781948
2514.250000004403,-0.30779868,-0.55705017,0.31791535,-2.1094873,-0.13721915,1.4047134,0.41618794,0.03999857,0.04,-9.225471,-2.1561248302459717,-2.5425327,-0.042831637,0.025457097217440605,-0.027275626
2514.2666666710697,-0.30861285,-0.5564484,0.3187581,-2.1088343,-0.13758203,1.4042736,0.41520995,0.03999857,0.04,-9.222844,-2.1575913429260254,-2.5508978,-0.041892897,0.02475913055241108,-0.026772605
2514.2833333377366,-0.30941245,-0.5558573,0.3195858,-2.1081936,-0.1379384,1.403842,0.41424954,0.039998565,0.04,-9.220169,-2.1589713096618652,-2.5591168,-0.04095296,0.024061692878603935,-0.026273055
2514.3000000044035,-0.3101975,-0.55527705,0.32039833,-2.1075637,-0.13828829,1.4034182,0.41330662,0.03999856,0.04,-9.217761,-2.1603493690490723,-2.567085,-0.0400116,0.023361697793006897,-0.025780858
2514.3166666710704,-0.3109679,-0.5547076,0.3211958,-2.1069465,-0.13863169,1.403002,0.4123813,0.03999856,0.04,-9.21508,-2.1616134643554688,-2.5751414,-0.039070703,0.022664863616228104,-0.025290536
2514.3333333377373,-0.31172365,-0.5541488,0.32197827,-2.1063406,-0.13896854,1.4025936,0.4114735,0.03999856,0.04,-9.212727,-2.1628923416137695,-2.582943,-0.038128775,0.0219630878418684,-0.024806079
2514.350000004404,-0.31246474,-0.55360085,0.32274565,-2.1057467,-0.13929884,1.4021935,0.41058323,0.03999856,0.04,-9.210278,-2.164121389389038,-2.5905757,-0.037186407,0.02126115746796131,-0.024326265
2514.366666671071,-0.31319118,-0.55306375,0.32349792,-2.105164,-0.13962266,1.4018011,0.4097105,0.039998557,0.04,-9.207968,-2.1653215885162354,-2.59793,-0.036243696,0.020560717210173607,-0.023851298
2514.383333337738,-0.3139033,-0.5525375,0.32423517,-2.104593,-0.13993998,1.4014168,0.4088552,0.03999855,0.04,-9.205501,-2.1664271354675293,-2.6053858,-0.03530224,0.019862599670886993,-0.023378644
2514.400000004405,-0.3146008,-0.5520219,0.32495746,-2.1040337,-0.14025082,1.4010403,0.40801743,0.039998546,0.04,-9.203244,-2.1675162315368652,-2.612571,-0.03436192,0.01916535012423992,-0.022911893
2514.4166666710717,-0.31528383,-0.551517,0.32566464,-2.1034863,-0.14055519,1.4006717,0.40719715,0.039998543,0.04,-9.200971,-2.1685783863067627,-2.6196032,-0.033422556,0.018469806760549545,-0.022448497
2514.4333333377385,-0.3159523,-0.5510228,0.3263569,-2.1029503,-0.14085309,1.4003108,0.40639424,0.03999854,0.04,-9.198862,-2.16959547996521,-2.6263375,-0.032485273,0.01777413673698902,-0.021991313
2514.4500000044054,-0.31660622,-0.5505393,0.32703424,-2.102426,-0.14114456,1.3999574,0.40560868,0.03999854,0.04,-9.196672,-2.1705715656280518,-2.633223,-0.031548988,0.017079003155231476,-0.021538265
2514.4666666710723,-0.31724572,-0.55006665,0.32769662,-2.1019135,-0.14142956,1.3996121,0.40484047,0.03999854,0.04,-9.194553,-2.1715259552001953,-2.6398041,-0.030614218,0.016384819522500038,-0.0210898
2514.483333337739,-0.3178709,-0.5496044,0.32834414,-2.101412,-0.14170817,1.3992746,0.40408954,0.03999854,0.04,-9.192565,-2.1724531650543213,-2.6460764,-0.029682085,0.015692804008722305,-0.02064616
2514.500000004406,-0.31848168,-0.5491528,0.32897684,-2.100923,-0.14198038,1.398945,0.40335587,0.039998535,0.04,-9.190452,-2.1733012199401855,-2.6525295,-0.028752686,0.015004999935626984,-0.020207167
2514.516666671073,-0.31907827,-0.5487117,0.32959476,-2.1004446,-0.14224622,1.3986229,0.40263915,0.03999853,0.04,-9.188594,-2.174151659011841,-2.6586828,-0.027826114,0.014315924607217312,-0.019773573
2514.53333333774,-0.31966057,-0.54828125,0.33019796,-2.0999784,-0.14250575,1.3983086,0.40193966,0.03999853,0.04,-9.186545,-2.1749398708343506,-2.6646457,-0.026902704,0.013632787391543388,-0.019342989
2514.5500000044067,-0.32022873,-0.5478612,0.33078647,-2.0995226,-0.14275892,1.398002,0.4012572,0.039998524,0.04,-9.184837,-2.175764560699463,-2.67036,-0.02598289,0.012949255295097828,-0.018919338
2514.5666666710736,-0.32078272,-0.5474517,0.33136037,-2.0990791,-0.14300582,1.3977028,0.40059167,0.03999852,0.04,-9.182834,-2.1764769554138184,-2.6761823,-0.025067853,0.012272904627025127,-0.018499497
2514.5833333377404,-0.3213228,-0.5470524,0.33191988,-2.098646,-0.14324649,1.3974111,0.399943,0.03999852,0.04,-9.18119,-2.1772096157073975,-2.6817517,-0.02415629,0.011594120413064957,-0.018085675
2514.6000000044073,-0.32184884,-0.5466634,0.3324649,-2.0982244,-0.14348093,1.3971269,0.39931116,0.03999852,0.04,-9.179331,-2.1778974533081055,-2.6871424,-0.023249784,0.010922249406576157,-0.01767534
2514.616666671074,-0.32236102,-0.54628474,0.3329956,-2.0978134,-0.14370917,1.3968503,0.39869595,0.039998516,0.04,-9.177737,-2.178590774536133,-2.6922743,-0.022348277,0.01025258470326662,-0.017271291
2514.633333337741,-0.32285938,-0.54591626,0.333512,-2.0974138,-0.14393134,1.3965813,0.39809728,0.039998513,0.04,-9.175957,-2.1792097091674805,-2.6975143,-0.021452157,0.009590128436684608,-0.016870936
2514.650000004408,-0.32334402,-0.54555786,0.3340142,-2.097025,-0.14414738,1.3963195,0.39751515,0.039998513,0.04,-9.174388,-2.179826021194458,-2.7024946,-0.020561308,0.008930585347115993,-0.016474867
2514.666666671075,-0.32381514,-0.54520947,0.33450243,-2.0966475,-0.14435731,1.3960651,0.39694935,0.03999851,0.04,-9.172811,-2.1804141998291016,-2.707321,-0.019676901,0.008275839500129223,-0.016084798
2514.6833333377417,-0.32427266,-0.54487115,0.3349765,-2.0962803,-0.14456125,1.3958179,0.3963997,0.03999851,0.04,-9.171424,-2.1810214519500732,-2.7118962,-0.018797925,0.007622716948390007,-0.015700022
2514.7000000044086,-0.3247168,-0.5445429,0.33543688,-2.0959244,-0.14475921,1.395578,0.3958662,0.03999851,0.04,-9.1698065,-2.1815216541290283,-2.7165523,-0.017926311,0.006977772805839777,-0.015319578
2514.7166666710755,-0.32514757,-0.5442243,0.33588347,-2.095579,-0.14495122,1.3953454,0.39534873,0.03999851,0.04,-9.168435,-2.1820755004882812,-2.7209706,-0.017060965,0.006336606107652187,-0.014943918
2514.7333333377424,-0.3255651,-0.5439156,0.33631623,-2.0952437,-0.14513735,1.3951201,0.39484707,0.03999851,0.04,-9.167079,-2.1826024055480957,-2.7251167,-0.016203007,0.005701401270925999,-0.014573643
2514.7500000044092,-0.32596964,-0.54361653,0.33673555,-2.094919,-0.14531766,1.3949018,0.3943611,0.03999851,0.04,-9.165653,-2.183051586151123,-2.7293613,-0.0153532615,0.0050742714665830135,-0.014207985
2514.766666671076,-0.32636124,-0.543327,0.33714157,-2.094605,-0.14549221,1.3946903,0.3938908,0.039998505,0.04,-9.164332,-2.183518886566162,-2.733354,-0.014511682,0.004453565925359726,-0.0138479145
2514.783333337743,-0.32673985,-0.5430468,0.33753437,-2.0943012,-0.145661,1.3944858,0.39343584,0.039998505,0.04,-9.163153,-2.183978319168091,-2.7372348,-0.013678032,0.003835957730188966,-0.013493239
2514.80000000441,-0.327106,-0.54277605,0.337914,-2.0940075,-0.14582418,1.3942881,0.39299607,0.039998505,0.04,-9.161994,-2.184446096420288,-2.740857,-0.012851919,0.00322447600774467,-0.013144293
2514.8166666710767,-0.32745957,-0.54251456,0.33828065,-2.093724,-0.14598174,1.3940972,0.39257142,0.039998505,0.04,-9.160736,-2.1848113536834717,-2.7445636,-0.012036085,0.002621111460030079,-0.012800094
2514.8333333377436,-0.3278007,-0.5422622,0.33863443,-2.0934505,-0.14613378,1.3939129,0.39216164,0.039998505,0.04,-9.159648,-2.185211181640625,-2.7480466,-0.01122958,0.002024011453613639,-0.012461565
2514.8500000044105,-0.32812956,-0.54201895,0.3389755,-2.0931864,-0.14628035,1.3937353,0.39176652,0.0399985,0.04,-9.158573,-2.1855976581573486,-2.7513816,-0.010432308,0.0014328581746667624,-0.012130127
2514.8666666710774,-0.32844633,-0.5417845,0.33930415,-2.0929325,-0.14642154,1.3935643,0.3913861,0.0399985,0.04,-9.157511,-2.1859681606292725,-2.754455,-0.009645687,0.0008517366368323565,-0.0118026715
2514.8833333377443,-0.3287512,-0.5415589,0.33962044,-2.0926883,-0.14655739,1.3933995,0.39101985,0.0399985,0.04,-9.156502,-2.186309337615967,-2.7576823,-0.008869494,0.0002771829895209521,-0.011480863
2514.900000004411,-0.32904425,-0.54134226,0.33992448,-2.092453,-0.14668797,1.3932413,0.3906679,0.0399985,0.04,-9.155613,-2.1866445541381836,-2.7606602,-0.008103242,-0.0002929762995336205,-0.011166342
2514.916666671078,-0.32932577,-0.541134,0.34021658,-2.092227,-0.14681344,1.3930892,0.3903296,0.0399985,0.04,-9.154558,-2.1869523525238037,-2.7634614,-0.007349686,-0.0008490451727993786,-0.010855341
2514.933333337745,-0.32959583,-0.540934,0.34049684,-2.092011,-0.1469338,1.3929435,0.39000523,0.039998498,0.04,-9.153742,-2.187283754348755,-2.7660682,-0.006606661,-0.0013983161188662052,-0.010551298
2514.950000004412,-0.32985467,-0.5407426,0.34076545,-2.0918038,-0.14704914,1.3928037,0.3896943,0.039998498,0.04,-9.152993,-2.1875593662261963,-2.7688377,-0.005875095,-0.0019430287647992373,-0.010254421
2514.9666666710787,-0.33010244,-0.54055935,0.34102267,-2.0916047,-0.14715959,1.3926698,0.38939667,0.0399985,0.04,-9.152105,-2.187830924987793,-2.7712839,-0.005156775,-0.002476152963936329,-0.009961812
2514.9833333377455,-0.33033934,-0.5403842,0.3412687,-2.0914142,-0.1472652,1.3925418,0.38911206,0.0399985,0.04,-9.151271,-2.188129186630249,-2.773524,-0.0044514653,-0.0029970919713377953,-0.009674308
2515.0000000044124,-0.33056563,-0.5402168,0.34150362,-2.091232,-0.14736606,1.3924196,0.38884017,0.0399985,0.04,-9.150517,-2.188371419906616,-2.7758744,-0.0037589897,-0.003508838126435876,-0.0093929665
2515.0166666710793,-0.33078155,-0.5400573,0.34172776,-2.0910585,-0.14746232,1.3923029,0.3885808,0.039998498,0.04,-9.149772,-2.1886065006256104,-2.7780182,-0.0030801343,-0.004008545074611902,-0.009117987
2515.033333337746,-0.33098724,-0.53990525,0.34194136,-2.090894,-0.14755398,1.3921919,0.38833374,0.039998498,0.04,-9.149127,-2.1888506412506104,-2.7800245,-0.0024154447,-0.0044992780312895775,-0.008848477
2515.050000004413,-0.3311828,-0.5397605,0.34214464,-2.0907385,-0.14764117,1.3920861,0.38809875,0.039998498,0.04,-9.148644,-2.1891050338745117,-2.7818851,-0.001764112,-0.004982988350093365,-0.008586883
2515.06666667108,-0.33136863,-0.53962266,0.34233773,-2.0905907,-0.14772397,1.3919857,0.38787553,0.039998498,0.04,-9.1481695,-2.189326524734497,-2.783856,-0.0011259036,-0.0054619200527668,-0.008334141
2515.083333337747,-0.33154494,-0.5394922,0.34252092,-2.0904505,-0.14780256,1.3918904,0.38766375,0.039998498,0.04,-9.147572,-2.189509391784668,-2.7855988,-0.00050288026,-0.005928887985646725,-0.008088166
2515.1000000044137,-0.33171186,-0.5393686,0.34269446,-2.0903175,-0.14787696,1.3918005,0.38746312,0.039998498,0.04,-9.147056,-2.1897072792053223,-2.787206,0.000104524326,-0.006385172717273235,-0.007848432
2515.1166666710806,-0.3318697,-0.5392517,0.34285858,-2.0901911,-0.14794739,1.3917149,0.3872735,0.039998498,0.04,-9.146499,-2.1899094581604004,-2.788637,0.0006959847,-0.006824852898716927,-0.007613541
2515.1333333377474,-0.33201873,-0.5391413,0.34301355,-2.090071,-0.14801383,1.3916342,0.3870944,0.039998494,0.04,-9.145932,-2.1900665760040283,-2.7901385,0.0012706806,-0.0072528645396232605,-0.007386257
2515.1500000044143,-0.33215913,-0.53903717,0.34315956,-2.089958,-0.14807643,1.3915586,0.38692564,0.039998494,0.04,-9.1454115,-2.190235137939453,-2.791454,0.0018286674,-0.007665538694709539,-0.0071640997
2515.166666671081,-0.33229116,-0.5389393,0.34329692,-2.0898511,-0.14813532,1.3914878,0.38676694,0.039998494,0.04,-9.145025,-2.1903913021087646,-2.792712,0.0023698558,-0.008064177818596363,-0.006948638
2515.183333337748,-0.3324153,-0.53884727,0.34342593,-2.0897508,-0.14819063,1.3914211,0.38661784,0.03999849,0.04,-9.144606,-2.1905815601348877,-2.793752,0.0028930292,-0.008446828462183475,-0.0067397943
2515.200000004415,-0.33253163,-0.53876114,0.343547,-2.0896573,-0.14824255,1.3913584,0.3864781,0.03999849,0.04,-9.144264,-2.190692901611328,-2.794894,0.0033983858,-0.008818554691970348,-0.0065385
2515.216666671082,-0.33264044,-0.5386805,0.3436603,-2.0895703,-0.1482911,1.3912996,0.3863474,0.03999849,0.04,-9.143994,-2.190873861312866,-2.7958777,0.0038860822,-0.009179663844406605,-0.006344889
2515.2333333377487,-0.332742,-0.53860533,0.34376603,-2.089489,-0.14833638,1.3912448,0.3862253,0.03999849,0.04,-9.143789,-2.1910436153411865,-2.79672,0.004355854,-0.009529870934784412,-0.006159947
2515.2500000044156,-0.33283657,-0.5385352,0.34386465,-2.089413,-0.14837866,1.3911937,0.38611156,0.03999849,0.04,-9.143474,-2.1911582946777344,-2.797604,0.004806558,-0.009864997118711472,-0.0059824707
2515.2666666710825,-0.33292454,-0.53847,0.34395647,-2.0893419,-0.14841788,1.3911464,0.3860058,0.03999849,0.04,-9.143182,-2.1913037300109863,-2.798362,0.005238453,-0.01018387358635664,-0.005811481
2515.2833333377494,-0.3330062,-0.5384095,0.34404162,-2.0892773,-0.1484543,1.3911028,0.38590768,0.039998494,0.04,-9.142899,-2.191420316696167,-2.7990391,0.005650048,-0.010485959239304066,-0.0056477077
2515.3000000044162,-0.33308187,-0.5383533,0.34412047,-2.0892165,-0.14848803,1.3910626,0.38581672,0.03999849,0.04,-9.142891,-2.1915664672851562,-2.7996154,0.006041936,-0.010778320953249931,-0.0054950183
2515.316666671083,-0.33315185,-0.5383014,0.34419337,-2.08916,-0.14851922,1.3910238,0.38573277,0.03999849,0.04,-9.142588,-2.1916515827178955,-2.8002164,0.0064129555,-0.011050769127905369,-0.0053480617
2515.33333333775,-0.33321637,-0.5382535,0.34426072,-2.0891082,-0.14854804,1.3909886,0.38565525,0.03999849,0.04,-9.142401,-2.191765546798706,-2.8006427,0.006761667,-0.011313303373754025,-0.0052121757
2515.350000004417,-0.33327588,-0.5382093,0.34432283,-2.0890598,-0.14857458,1.3909569,0.3855837,0.03999849,0.04,-9.142322,-2.1918842792510986,-2.801111,0.0070898775,-0.011559290811419487,-0.0050838543
2515.3666666710837,-0.3333306,-0.53816867,0.34438008,-2.089016,-0.14859901,1.3909266,0.38551775,0.03999849,0.04,-9.142104,-2.191988468170166,-2.8014314,0.007396312,-0.011782453395426273,-0.0049617044
2515.3833333377506,-0.3333811,-0.5381313,0.34443274,-2.0889745,-0.14862153,1.3908991,0.38545716,0.03999849,0.04,-9.14208,-2.192108392715454,-2.801786,0.0076816296,-0.011996661312878132,-0.0048512626
2515.4000000044175,-0.33342755,-0.53809685,0.3444813,-2.0889373,-0.14864224,1.3908749,0.3854014,0.03999849,0.04,-9.141849,-2.1921792030334473,-2.802037,0.007942631,-0.012188071385025978,-0.004747134
2515.4166666710844,-0.3334703,-0.5380652,0.34452596,-2.0889032,-0.1486613,1.3908513,0.38535008,0.03999849,0.04,-9.141875,-2.1922805309295654,-2.8023398,0.0081838975,-0.012363962829113007,-0.00465098
2515.4333333377513,-0.3335096,-0.53803617,0.34456703,-2.0888715,-0.14867881,1.3908309,0.3853029,0.03999849,0.04,-9.141848,-2.1923885345458984,-2.802497,0.008405878,-0.012531626969575882,-0.0045648627
2515.450000004418,-0.33354568,-0.53800935,0.34460488,-2.0888424,-0.14869493,1.390811,0.38525945,0.03999849,0.04,-9.1416855,-2.192448139190674,-2.8027565,0.008609792,-0.01267844159156084,-0.004482739
2515.466666671085,-0.3335789,-0.53798455,0.34463963,-2.0888162,-0.14870976,1.3907928,0.3852195,0.03999849,0.04,-9.141671,-2.192539691925049,-2.8029342,0.008798284,-0.012819199822843075,-0.0044093295
2515.483333337752,-0.33360958,-0.53796166,0.34467173,-2.088791,-0.14872342,1.3907768,0.3851827,0.03999849,0.04,-9.141689,-2.1926023960113525,-2.803113,0.008971687,-0.012950686737895012,-0.0043430217
2515.500000004419,-0.33363777,-0.5379407,0.3447013,-2.0887682,-0.148736,1.3907608,0.3851488,0.03999849,0.04,-9.141472,-2.1926379203796387,-2.8032997,0.009130907,-0.013064609840512276,-0.004278889
2515.5166666710857,-0.3336638,-0.5379215,0.34472838,-2.0887477,-0.14874756,1.3907468,0.3851176,0.03999849,0.04,-9.141522,-2.192723512649536,-2.8034294,0.009278124,-0.013176778331398964,-0.0042225537
2515.5333333377525,-0.33368766,-0.5379039,0.34475338,-2.0887291,-0.14875817,1.3907346,0.385089,0.03999849,0.04,-9.141494,-2.1927497386932373,-2.8035812,0.009412879,-0.01327774953097105,-0.0041702245
2515.5500000044194,-0.33370966,-0.5378877,0.34477636,-2.0887113,-0.14876798,1.3907224,0.3850626,0.03999849,0.04,-9.141461,-2.1928205490112305,-2.8037043,0.009536978,-0.013369202613830566,-0.0041211103
2515.5666666710863,-0.33372992,-0.53787255,0.34479752,-2.0886948,-0.14877696,1.3907104,0.38503835,0.03999849,0.04,-9.141343,-2.19284987449646,-2.803801,0.009650893,-0.01345380861312151,-0.004076299
2515.583333337753,-0.33374855,-0.53785884,0.34481698,-2.0886798,-0.14878526,1.3907007,0.38501602,0.03999849,0.04,-9.141347,-2.1928844451904297,-2.8039207,0.009755842,-0.013536055572330952,-0.004037223
2515.60000000442,-0.3337657,-0.5378461,0.34483495,-2.0886664,-0.14879288,1.3906922,0.38499543,0.03999849,0.04,-9.141275,-2.192918062210083,-2.8040378,0.009852235,-0.013605553656816483,-0.003998243
2515.616666671087,-0.3337814,-0.5378344,0.34485155,-2.0886543,-0.14879993,1.3906838,0.38497654,0.03999849,0.04,-9.141306,-2.1929633617401123,-2.8041453,0.009941938,-0.013670177198946476,-0.003962714
2515.633333337754,-0.33379593,-0.5378237,0.34486675,-2.0886433,-0.1488064,1.3906754,0.3849592,0.03999849,0.04,-9.141292,-2.1930129528045654,-2.8042324,0.010024711,-0.01373269408941269,-0.003930757
2515.6500000044207,-0.33380935,-0.53781384,0.34488073,-2.0886323,-0.14881232,1.3906672,0.3849432,0.03999849,0.04,-9.141309,-2.1930301189422607,-2.8042953,0.010100128,-0.013793759979307652,-0.0039031918
2515.6666666710876,-0.33382165,-0.53780466,0.3448936,-2.088622,-0.14881778,1.3906604,0.38492852,0.03999849,0.04,-9.141178,-2.193047523498535,-2.8043358,0.010168922,-0.013848288916051388,-0.003877426
2515.6833333377544,-0.333833,-0.5377964,0.34490553,-2.0886128,-0.14882284,1.3906548,0.384915,0.03999849,0.04,-9.141131,-2.1930599212646484,-2.8044252,0.010232261,-0.013894958421587944,-0.0038522463
2515.7000000044213,-0.33384344,-0.53778857,0.3449165,-2.0886037,-0.14882745,1.3906502,0.38490254,0.03999849,0.04,-9.141098,-2.1930885314941406,-2.8044991,0.010290659,-0.01393525954335928,-0.0038274433
2515.716666671088,-0.333853,-0.53778136,0.3449265,-2.0885959,-0.1488317,1.3906455,0.38489106,0.03999849,0.04,-9.141024,-2.193098545074463,-2.8045623,0.010344489,-0.013968500308692455,-0.0038034339
2515.733333337755,-0.3338618,-0.537775,0.34493575,-2.0885885,-0.14883563,1.3906409,0.38488048,0.03999849,0.04,-9.141094,-2.193124771118164,-2.8045928,0.0103942305,-0.014002859592437744,-0.0037831157
2515.750000004422,-0.33386979,-0.53776896,0.34494427,-2.0885818,-0.14883928,1.3906363,0.38487074,0.03999849,0.04,-9.14104,-2.193160057067871,-2.8046114,0.010439782,-0.014034331776201725,-0.00376391
2515.766666671089,-0.33387727,-0.5377633,0.3449521,-2.088576,-0.1488426,1.3906318,0.38486183,0.03999849,0.04,-9.141067,-2.1931872367858887,-2.804666,0.010482522,-0.014065594412386417,-0.0037469768
2515.7833333377557,-0.33388412,-0.53775835,0.34495935,-2.0885708,-0.1488457,1.3906274,0.38485363,0.03999849,0.04,-9.141122,-2.193193197250366,-2.8047223,0.010521531,-0.014098120853304863,-0.0037334543
2515.8000000044226,-0.3338905,-0.53775376,0.34496602,-2.0885663,-0.1488485,1.3906231,0.384846,0.03999849,0.04,-8.826886,-2.0525014400482178,-2.5148044,0.0,-0.0,0.0
2515.8166666710895,-0.3338905,-0.53775376,0.34496602,-2.0885663,-0.1488485,1.3906231,0.384846,0.03999849,0.04,-9.141176,-2.193274974822998,-2.8043811,0.0,-0.0,0.0
2515.8333333377564,-0.3338905,-0.53775376,0.34496602,-2.0885663,-0.1488485,1.3906231,0.384846,0.03999849,0.04,-9.141176,-2.193274974822998,-2.8043811,0.0,-0.0,0.0
2515.8500000044232,-0.3338905,-0.53775376,0.34496602,-2.0885663,-0.1488485,1.3906231,0.384846,0.03999849,0.04,-9.141176,-2.193274974822998,-2.8043811,0.0,-0.0,0.0
2515.86666667109,-0.3338905,-0.53775376,0.34496602,-2.0885663,-0.1488485,1.3906231,0.384846,0.03999849,0.04,-9.141176,-2.193274974822998,-2.8043811,0.0,-0.0,0.0
2515.883333337757,-0.3338905,-0.53775376,0.34496602,-2.0885663,-0.1488485,1.3906231,0.384846,0.03999849,0.04,-9.141176,-2.193274974822998,-2.8043811,0.0,-0.0,0.0
2515.900000004424,-0.3338905,-0.53775376,0.34496602,-2.0885663,-0.1488485,1.3906231,0.384846,0.03999849,0.04,-9.141176,-2.193274974822998,-2.8043811,0.0,-0.0,0.0
2515.9166666710908,-0.3338905,-0.53775376,0.34496602,-2.0885663,-0.1488485,1.3906231,0.384846,0.03999849,0.04,-9.141176,-2.193274974822998,-2.8043811,0.0,-0.0,0.0
2515.9333333377576,-0.3338905,-0.53775376,0.34496602,-2.0885663,-0.1488485,1.3906231,0.384846,0.03999849,0.04,-9.141176,-2.193274974822998,-2.8043811,0.0,-0.0,0.0
2515.9500000044245,-0.3338905,-0.53775376,0.34496602,-2.0885663,-0.1488485,1.3906231,0.384846,0.03999849,0.04,-9.141176,-2.193274974822998,-2.8043811,0.0,-0.0,0.0
2515.9666666710914,-0.3338905,-0.53775376,0.34496602,-2.0885663,-0.1488485,1.3906231,0.384846,0.03999849,0.04,-9.141176,-2.193274974822998,-2.8043811,0.0,-0.0,0.0
2515.9833333377583,-0.3338905,-0.53775376,0.34496602,-2.0885663,-0.1488485,1.3906231,0.384846,0.03999849,0.04,-9.141176,-2.193274974822998,-2.8043811,0.0,-0.0,0.0
2516.000000004425,-0.3338905,-0.53775376,0.34496602,-2.0885663,-0.1488485,1.3906231,0.384846,0.03999849,0.04,-9.141176,-2.193274974822998,-2.8043811,0.0,-0.0,0.0
2516.016666671092,-0.3338905,-0.53775376,0.34496602,-2.0885663,-0.1488485,1.3906231,0.384846,0.03999849,0.04,-9.141176,-2.193274974822998,-2.8043811,0.0,-0.0,0.0
2516.033333337759,-0.3338905,-0.53775376,0.34496602,-2.0885663,-0.1488485,1.3906231,0.384846,0.03999849,0.04,-9.141176,-2.193274974822998,-2.8043811,0.0,-0.0,0.0
2516.050000004426,-0.3338905,-0.53775376,0.34496602,-2.0885663,-0.1488485,1.3906231,0.384846,0.03999849,0.04,-9.141176,-2.193274974822998,-2.8043811,0.0,-0.0,0.0
2516.0666666710927,-0.3338905,-0.53775376,0.34496602,-2.0885663,-0.1488485,1.3906231,0.384846,0.03999849,0.04,-9.141176,-2.193274974822998,-2.8043811,0.0,-0.0,0.0
2516.0833333377595,-0.3338905,-0.53775376,0.34496602,-2.0885663,-0.1488485,1.3906231,0.384846,0.03999849,0.04,-9.141176,-2.193274974822998,-2.8043811,0.0,-0.0,0.0
2516.1000000044264,-0.3338905,-0.53775376,0.34496602,-2.0885663,-0.1488485,1.3906231,0.384846,0.03999849,0.04,-9.141176,-2.193274974822998,-2.8043811,0.0,-0.0,0.0
2516.1166666710933,-0.3338905,-0.53775376,0.34496602,-2.0885663,-0.1488485,1.3906231,0.384846,0.03999849,0.04,-9.141176,-2.193274974822998,-2.8043811,0.0,-0.0,0.0
2516.13333333776,-0.3338905,-0.53775376,0.34496602,-2.0885663,-0.1488485,1.3906231,0.384846,0.03999849,0.04,-9.141176,-2.193274974822998,-2.8043811,0.0,-0.0,0.0
2516.150000004427,-0.3338905,-0.53775376,0.34496602,-2.0885663,-0.1488485,1.3906231,0.384846,0.03999849,0.04,-9.141176,-2.193274974822998,-2.8043811,0.0,-0.0,0.0
2516.166666671094,-0.3338905,-0.53775376,0.34496602,-2.0885663,-0.1488485,1.3906231,0.384846,0.03999849,0.04,-9.141176,-2.193274974822998,-2.8043811,0.0,-0.0,0.0
2516.183333337761,-0.3338905,-0.53775376,0.34496602,-2.0885663,-0.1488485,1.3906231,0.384846,0.03999849,0.04,-9.141176,-2.193274974822998,-2.8043811,0.0,-0.0,0.0
2516.2000000044277,-0.3338905,-0.53775376,0.34496602,-2.0885663,-0.1488485,1.3906231,0.384846,0.03999849,0.04,-9.141176,-2.193274974822998,-2.8043811,0.0,-0.0,0.0
2516.2166666710946,-0.3338905,-0.53775376,0.34496602,-2.0885663,-0.1488485,1.3906231,0.384846,0.03999849,0.04,-9.141176,-2.193274974822998,-2.8043811,0.0,-0.0,0.0
2516.2333333377615,-0.3338905,-0.53775376,0.34496602,-2.0885663,-0.1488485,1.3906231,0.384846,0.03999849,0.04,-9.141176,-2.193274974822998,-2.8043811,0.0,-0.0,0.0
2516.2500000044283,-0.3338905,-0.53775376,0.34496602,-2.0885663,-0.1488485,1.3906231,0.384846,0.03999849,0.04,-9.141176,-2.193274974822998,-2.8043811,0.0,-0.0,0.0
2516.266666671095,-0.3338905,-0.53775376,0.34496602,-2.0885663,-0.1488485,1.3906231,0.384846,0.03999849,0.04,-9.141176,-2.193274974822998,-2.8043811,0.0,-0.0,0.0
2516.283333337762,-0.3338905,-0.53775376,0.34496602,-2.0885663,-0.1488485,1.3906231,0.384846,0.03999849,0.04,-9.141176,-2.193274974822998,-2.8043811,0.0,-0.0,0.0
2516.300000004429,-0.3338905,-0.53775376,0.34496602,-2.0885663,-0.1488485,1.3906231,0.384846,0.03999849,0.04,-9.141176,-2.193274974822998,-2.8043811,0.0,-0.0,0.0
2516.316666671096,-0.3338905,-0.53775376,0.34496602,-2.0885663,-0.1488485,1.3906231,0.384846,0.03999849,0.04,-9.141176,-2.193274974822998,-2.8043811,0.0,-0.0,0.0
2516.3333333377627,-0.3338905,-0.53775376,0.34496602,-2.0885663,-0.1488485,1.3906231,0.384846,0.03999849,0.04,-9.141176,-2.193274974822998,-2.8043811,0.0,-0.0,0.0
2516.3500000044296,-0.3338905,-0.53775376,0.34496602,-2.0885663,-0.1488485,1.3906231,0.384846,0.03999849,0.04,-9.141176,-2.193274974822998,-2.8043811,0.0,-0.0,0.0
2516.3666666710965,-0.3338905,-0.53775376,0.34496602,-2.0885663,-0.1488485,1.3906231,0.384846,0.03999849,0.04,-9.141176,-2.193274974822998,-2.8043811,0.0,-0.0,0.0
2516.3833333377634,-0.3338905,-0.53775376,0.34496602,-2.0885663,-0.1488485,1.3906231,0.384846,0.03999849,0.04,-9.141176,-2.193274974822998,-2.8043811,0.0,-0.0,0.0
2516.4000000044302,-0.3338905,-0.53775376,0.34496602,-2.0885663,-0.1488485,1.3906231,0.384846,0.03999849,0.04,-9.141176,-2.193274974822998,-2.8043811,0.0,-0.0,0.0
2516.416666671097,-0.3338905,-0.53775376,0.34496602,-2.0885663,-0.1488485,1.3906231,0.384846,0.03999849,0.04,-9.141176,-2.193274974822998,-2.8043811,0.0,-0.0,0.0
2516.433333337764,-0.3338905,-0.53775376,0.34496602,-2.0885663,-0.1488485,1.3906231,0.384846,0.03999849,0.04,-9.141176,-2.193274974822998,-2.8043811,0.0,-0.0,0.0
2516.450000004431,-0.3338905,-0.53775376,0.34496602,-2.0885663,-0.1488485,1.3906231,0.384846,0.03999849,0.04,-9.141176,-2.193274974822998,-2.8043811,0.0,-0.0,0.0
2516.4666666710978,-0.3338905,-0.53775376,0.34496602,-2.0885663,-0.1488485,1.3906231,0.384846,0.03999849,0.04,-9.141176,-2.193274974822998,-2.8043811,0.0,-0.0,0.0
2516.4833333377646,-0.3338905,-0.53775376,0.34496602,-2.0885663,-0.1488485,1.3906231,0.384846,0.03999849,0.04,-9.141176,-2.193274974822998,-2.8043811,0.0,-0.0,0.0
2516.5000000044315,-0.3338905,-0.53775376,0.34496602,-2.0885663,-0.1488485,1.3906231,0.384846,0.03999849,0.04,-9.141176,-2.193274974822998,-2.8043811,0.0,-0.0,0.0
2516.5166666710984,-0.3338905,-0.53775376,0.34496602,-2.0885663,-0.1488485,1.3906231,0.384846,0.03999849,0.04,-9.141176,-2.193274974822998,-2.8043811,0.0,-0.0,0.0
2516.5333333377653,-0.3338905,-0.53775376,0.34496602,-2.0885663,-0.1488485,1.3906231,0.384846,0.03999849,0.04,-9.141176,-2.193274974822998,-2.8043811,0.0,-0.0,0.0
2516.550000004432,-0.3338905,-0.53775376,0.34496602,-2.0885663,-0.1488485,1.3906231,0.384846,0.03999849,0.04,-9.141176,-2.193274974822998,-2.8043811,0.0,-0.0,0.0
2516.566666671099,-0.3338905,-0.53775376,0.34496602,-2.0885663,-0.1488485,1.3906231,0.384846,0.03999849,0.04,-9.141176,-2.193274974822998,-2.8043811,0.0,-0.0,0.0
2516.583333337766,-0.3338905,-0.53775376,0.34496602,-2.0885663,-0.1488485,1.3906231,0.384846,0.03999849,0.04,-9.141176,-2.193274974822998,-2.8043811,0.0,-0.0,0.0
2516.600000004433,-0.3338905,-0.53775376,0.34496602,-2.0885663,-0.1488485,1.3906231,0.384846,0.03999849,0.04,-9.141176,-2.193274974822998,-2.8043811,0.0,-0.0,0.0
2516.6166666710997,-0.3338905,-0.53775376,0.34496602,-2.0885663,-0.1488485,1.3906231,0.384846,0.03999849,0.04,-9.141176,-2.193274974822998,-2.8043811,0.0,-0.0,0.0
2516.6333333377665,-0.3338905,-0.53775376,0.34496602,-2.0885663,-0.1488485,1.3906231,0.384846,0.03999849,0.04,-9.141176,-2.193274974822998,-2.8043811,0.0,-0.0,0.0
2516.6500000044334,-0.3338905,-0.53775376,0.34496602,-2.0885663,-0.1488485,1.3906231,0.384846,0.03999849,0.04,-9.141176,-2.193274974822998,-2.8043811,0.0,-0.0,0.0
2516.6666666711003,-0.3338905,-0.53775376,0.34496602,-2.0885663,-0.1488485,1.3906231,0.384846,0.03999849,0.04,-9.141176,-2.193274974822998,-2.8043811,0.0,-0.0,0.0
2516.683333337767,-0.3338905,-0.53775376,0.34496602,-2.0885663,-0.1488485,1.3906231,0.384846,0.03999849,0.04,-9.141176,-2.193274974822998,-2.8043811,0.0,-0.0,0.0
2516.700000004434,-0.3338905,-0.53775376,0.34496602,-2.0885663,-0.1488485,1.3906231,0.384846,0.03999849,0.04,-9.141176,-2.193274974822998,-2.8043811,0.0,-0.0,0.0
2516.716666671101,-0.3338905,-0.53775376,0.34496602,-2.0885663,-0.1488485,1.3906231,0.384846,0.03999849,0.04,-9.141176,-2.193274974822998,-2.8043811,0.0,-0.0,0.0
2516.733333337768,-0.3338905,-0.53775376,0.34496602,-2.0885663,-0.1488485,1.3906231,0.384846,0.03999849,0.04,-9.141176,-2.193274974822998,-2.8043811,0.0,-0.0,0.0
2516.7500000044347,-0.3338905,-0.53775376,0.34496602,-2.0885663,-0.1488485,1.3906231,0.384846,0.03999849,0.04,-9.141176,-2.193274974822998,-2.8043811,0.0,-0.0,0.0
2516.7666666711016,-0.3338905,-0.53775376,0.34496602,-2.0885663,-0.1488485,1.3906231,0.384846,0.03999849,0.04,-9.141176,-2.193274974822998,-2.8043811,0.0,-0.0,0.0
2516.7833333377685,-0.3338905,-0.53775376,0.34496602,-2.0885663,-0.1488485,1.3906231,0.384846,0.03999849,0.04,-9.141176,-2.193274974822998,-2.8043811,0.0,-0.0,0.0
2516.8000000044353,-0.3338905,-0.53775376,0.34496602,-2.0885663,-0.1488485,1.3906231,0.384846,0.03999849,0.04,-9.141176,-2.193274974822998,-2.8043811,0.0,-0.0,0.0
2516.816666671102,-0.3338905,-0.53775376,0.34496602,-2.0885663,-0.1488485,1.3906231,0.384846,0.03999849,0.04,-9.141176,-2.193274974822998,-2.8043811,0.0,-0.0,0.0
2516.833333337769,-0.3338905,-0.53775376,0.34496602,-2.0885663,-0.1488485,1.3906231,0.384846,0.03999849,0.04,-9.141176,-2.193274974822998,-2.8043811,0.0,-0.0,0.0
2516.850000004436,-0.3338905,-0.53775376,0.34496602,-2.0885663,-0.1488485,1.3906231,0.384846,0.03999849,0.04,-9.141176,-2.193274974822998,-2.8043811,0.0,-0.0,0.0
2516.866666671103,-0.3338905,-0.53775376,0.34496602,-2.0885663,-0.1488485,1.3906231,0.384846,0.03999849,0.04,-9.141176,-2.193274974822998,-2.8043811,0.0,-0.0,0.0
2516.8833333377697,-0.3338905,-0.53775376,0.34496602,-2.0885663,-0.1488485,1.3906231,0.384846,0.03999849,0.04,-9.141176,-2.193274974822998,-2.8043811,0.0,-0.0,0.0
2516.9000000044366,-0.3338905,-0.53775376,0.34496602,-2.0885663,-0.1488485,1.3906231,0.384846,0.03999849,0.04,-9.141176,-2.193274974822998,-2.8043811,0.0,-0.0,0.0
2516.9166666711035,-0.3338905,-0.53775376,0.34496602,-2.0885663,-0.1488485,1.3906231,0.384846,0.03999849,0.04,-9.141176,-2.193274974822998,-2.8043811,0.0,-0.0,0.0
2516.9333333377704,-0.3338905,-0.53775376,0.34496602,-2.0885663,-0.1488485,1.3906231,0.384846,0.03999849,0.04,-9.141176,-2.193274974822998,-2.8043811,0.0,-0.0,0.0
2516.9500000044372,-0.3338905,-0.53775376,0.34496602,-2.0885663,-0.1488485,1.3906231,0.384846,0.03999849,0.04,-9.141176,-2.193274974822998,-2.8043811,0.0,-0.0,0.0
2516.966666671104,-0.3338905,-0.53775376,0.34496602,-2.0885663,-0.1488485,1.3906231,0.384846,0.03999849,0.04,-9.141176,-2.193274974822998,-2.8043811,0.0,-0.0,0.0
2516.983333337771,-0.3338905,-0.53775376,0.34496602,-2.0885663,-0.1488485,1.3906231,0.384846,0.03999849,0.04,-9.141176,-2.193274974822998,-2.8043811,0.0,-0.0,0.0
2517.000000004438,-0.3338905,-0.53775376,0.34496602,-2.0885663,-0.1488485,1.3906231,0.384846,0.03999849,0.04,-9.141176,-2.193274974822998,-2.8043811,0.0,-0.0,0.0
2517.0166666711048,-0.3338905,-0.53775376,0.34496602,-2.0885663,-0.1488485,1.3906231,0.384846,0.03999849,0.04,-9.141176,-2.193274974822998,-2.8043811,0.0,-0.0,0.0
2517.0333333377716,-0.3338905,-0.53775376,0.34496602,-2.0885663,-0.1488485,1.3906231,0.384846,0.03999849,0.04,-9.141176,-2.193274974822998,-2.8043811,0.0,-0.0,0.0
2517.0500000044385,-0.3338905,-0.53775376,0.34496602,-2.0885663,-0.1488485,1.3906231,0.384846,0.03999849,0.04,-9.141176,-2.193274974822998,-2.8043811,0.0,-0.0,0.0
2517.0666666711054,-0.3338905,-0.53775376,0.34496602,-2.0885663,-0.1488485,1.3906231,0.384846,0.03999849,0.04,-9.141176,-2.193274974822998,-2.8043811,0.0,-0.0,0.0
2517.0833333377723,-0.3338905,-0.53775376,0.34496602,-2.0885663,-0.1488485,1.3906231,0.384846,0.03999849,0.04,-9.141176,-2.193274974822998,-2.8043811,0.0,-0.0,0.0
2517.100000004439,-0.3338905,-0.53775376,0.34496602,-2.0885663,-0.1488485,1.3906231,0.384846,0.03999849,0.04,-9.141176,-2.193274974822998,-2.8043811,0.0,-0.0,0.0
2517.116666671106,-0.3338905,-0.53775376,0.34496602,-2.0885663,-0.1488485,1.3906231,0.384846,0.03999849,0.04,-9.141176,-2.193274974822998,-2.8043811,0.0,-0.0,0.0
2517.133333337773,-0.3338905,-0.53775376,0.34496602,-2.0885663,-0.1488485,1.3906231,0.384846,0.03999849,0.04,-9.141176,-2.193274974822998,-2.8043811,0.0,-0.0,0.0
2517.15000000444,-0.3338905,-0.53775376,0.34496602,-2.0885663,-0.1488485,1.3906231,0.384846,0.03999849,0.04,-9.141176,-2.193274974822998,-2.8043811,0.0,-0.0,0.0
2517.1666666711067,-0.3338905,-0.53775376,0.34496602,-2.0885663,-0.1488485,1.3906231,0.384846,0.03999849,0.04,-9.141176,-2.193274974822998,-2.8043811,0.0,-0.0,0.0
2517.1833333377735,-0.3338905,-0.53775376,0.34496602,-2.0885663,-0.1488485,1.3906231,0.384846,0.03999849,0.04,-9.141176,-2.193274974822998,-2.8043811,0.0,-0.0,0.0
2517.2000000044404,-0.3338905,-0.53775376,0.34496602,-2.0885663,-0.1488485,1.3906231,0.384846,0.03999849,0.04,-9.141176,-2.193274974822998,-2.8043811,0.0,-0.0,0.0
2517.2166666711073,-0.3338905,-0.53775376,0.34496602,-2.0885663,-0.1488485,1.3906231,0.384846,0.03999849,0.04,-9.141176,-2.193274974822998,-2.8043811,0.0,-0.0,0.0
2517.233333337774,-0.3338905,-0.53775376,0.34496602,-2.0885663,-0.1488485,1.3906231,0.384846,0.03999849,0.04,-9.141176,-2.193274974822998,-2.8043811,0.0,-0.0,0.0
2517.250000004441,-0.3338905,-0.53775376,0.34496602,-2.0885663,-0.1488485,1.3906231,0.384846,0.03999849,0.04,-9.141176,-2.193274974822998,-2.8043811,0.0,-0.0,0.0
2517.266666671108,-0.3338905,-0.53775376,0.34496602,-2.0885663,-0.1488485,1.3906231,0.384846,0.03999849,0.04,-9.141176,-2.193274974822998,-2.8043811,0.0,-0.0,0.0
2517.283333337775,-0.3338905,-0.53775376,0.34496602,-2.0885663,-0.1488485,1.3906231,0.384846,0.03999849,0.04,-9.141176,-2.193274974822998,-2.8043811,0.0,-0.0,0.0
2517.3000000044417,-0.3338905,-0.53775376,0.34496602,-2.0885663,-0.1488485,1.3906231,0.384846,0.03999849,0.04,-9.141176,-2.193274974822998,-2.8043811,0.0,-0.0,0.0
2517.3166666711086,-0.3338905,-0.53775376,0.34496602,-2.0885663,-0.1488485,1.3906231,0.384846,0.03999849,0.04,-9.141176,-2.193274974822998,-2.8043811,0.0,-0.0,0.0
2517.3333333377755,-0.3338905,-0.53775376,0.34496602,-2.0885663,-0.1488485,1.3906231,0.384846,0.03999849,0.04,-9.141176,-2.193274974822998,-2.8043811,0.0,-0.0,0.0
2517.3500000044423,-0.3338905,-0.53775376,0.34496602,-2.0885663,-0.1488485,1.3906231,0.384846,0.03999849,0.04,-9.141176,-2.193274974822998,-2.8043811,0.0,-0.0,0.0
2517.366666671109,-0.3338905,-0.53775376,0.34496602,-2.0885663,-0.1488485,1.3906231,0.384846,0.03999849,0.04,-9.141176,-2.193274974822998,-2.8043811,0.0,-0.0,0.0
2517.383333337776,-0.3338905,-0.53775376,0.34496602,-2.0885663,-0.1488485,1.3906231,0.384846,0.03999849,0.04,-9.141176,-2.193274974822998,-2.8043811,0.0,-0.0,0.0
2517.400000004443,-0.3338905,-0.53775376,0.34496602,-2.0885663,-0.1488485,1.3906231,0.384846,0.03999849,0.04,-9.141176,-2.193274974822998,-2.8043811,0.0,-0.0,0.0
