rsonawane2002/My_IMU/logs_2/traj_416/imu_416.csv
time,j1,j2,j3,j4,j5,j6,j7,gripper1,gripper2,imu_ax,imu_ay,imu_az,imu_gx,imu_gy,imu_gz
1824.283333332003,0.00016700293,-0.785875,4.0107683e-05,-2.3551247,9.29385e-05,1.570997,0.786,0.04,0.04,-9.51791,-0.024361396208405495,0.07772606,2.6190696e-07,-0.0011641272576525807,9.3168757e-07
1824.2999999986696,0.00016700984,-0.78576016,4.010746e-05,-2.3552213,9.296952e-05,1.5709941,0.786,0.04,0.04,-9.83433,0.000639515754301101,0.0091039175,2.6581276e-07,-0.0022393004037439823,1.0249613e-06
1824.3166666653362,0.00016704401,-0.7856543,4.0057424e-05,-2.35531,9.296671e-05,1.5709913,0.786,0.04,0.04,-9.832685,0.0005803079111501575,0.00752633,2.4376566e-06,-0.003237887052819133,1.6867206e-06
1824.333333332003,0.00016714915,-0.78555703,3.9876395e-05,-2.355391,9.2878996e-05,1.5709884,0.786,0.04,0.04,-9.8308935,0.000494178559165448,0.006185375,8.555202e-06,-0.00417129322886467,2.6797222e-06
1824.3499999986695,0.00016738698,-0.7854678,3.9448205e-05,-2.3554652,9.263211e-05,1.5709856,0.786,0.04,0.04,-9.829538,0.00036897233803756535,0.0049022622,2.0114603e-05,-0.005053233355283737,4.170407e-06
1824.3666666653362,0.00016783534,-0.7853862,3.8624774e-05,-2.355532,9.2134076e-05,1.570986,0.786,0.04,0.04,-9.828456,0.00020712113473564386,0.003664827,3.9117826e-05,-0.00589330680668354,6.2965596e-06
1824.3833333320028,0.00016858651,-0.7853119,3.7229605e-05,-2.3555937,9.1272734e-05,1.5709869,0.786,0.04,0.04,-9.827148,2.2450287360697985e-05,0.0025477782,6.725619e-05,-0.006683871615678072,9.183224e-06
1824.3999999986695,0.00016974585,-0.7852445,3.506071e-05,-2.3556514,8.9917994e-05,1.5709878,0.7860019,0.04,0.04,-9.826607,-0.00020213692914694548,0.0015298063,0.00010591165,-0.007458217907696962,1.2377666e-05
1824.4166666653362,0.0001714302,-0.7851838,3.1893163e-05,-2.3557022,8.7935194e-05,1.57099,0.7860038,0.04,0.04,-9.826073,-0.000426369602791965,0.00067617,0.00014820567,-0.008230267092585564,1.7764898e-05
1824.4333333320028,0.0001737669,-0.7851297,2.7482114e-05,-2.3557487,8.516742e-05,1.5709946,0.78600574,0.04,0.04,-9.82549,-0.0007037390023469925,-0.00021280581,0.00020424345,-0.00898923259228468,2.362645e-05
1824.4499999986695,0.00017689221,-0.78508204,2.1564527e-05,-2.355791,8.144816e-05,1.571,0.78600955,0.04,0.04,-9.825058,-0.0009694572072476149,-0.00092337653,0.0002755861,-0.00974685326218605,3.0654133e-05
1824.466666665336,0.00018095062,-0.78504086,1.386163e-05,-2.3558273,7.6602206e-05,1.5710086,0.78601366,0.04,0.04,-9.825058,-0.0012773756170645356,-0.0015908154,0.00035446382,-0.010520151816308498,3.8948736e-05
1824.4833333320028,0.00018609363,-0.7850061,4.0808472e-06,-2.3558617,7.0445385e-05,1.5710208,0.7860194,0.04,0.04,-9.824586,-0.0015725988196209073,-0.002124996,0.00045035145,-0.011294412426650524,4.854495e-05
1824.4999999986694,0.00019247875,-0.78497756,-8.0827685e-06,-2.3558893,6.278569e-05,1.5710363,0.786027,0.04,0.04,-9.82494,-0.001903459895402193,-0.0026151289,0.0005578866,-0.012092040851712227,5.9530492e-05
1824.516666665336,0.00020026923,-0.78495556,-2.2944205e-05,-2.3559148,5.3412063e-05,1.5710543,0.78603625,0.03999999,0.03999999,-9.824598,-0.00221426784992218,-0.0029379372,0.00067748065,-0.012900825589895248,7.228902e-05
1824.5333333320027,0.0002096324,-0.7849402,-4.082784e-05,-2.3559349,4.213247e-05,1.5710764,0.7860469,0.03999999,0.03999999,-9.825146,-0.0025773937813937664,-0.0031538107,0.00081140676,-0.01374993845820427,8.599869e-05
1824.5499999986694,0.00022073968,-0.7849314,-6.20652e-05,-2.355951,2.8738705e-05,1.5711032,0.78605956,0.039999988,0.039999984,-9.82504,-0.002885163063183427,-0.00322695,0.0009619468,-0.014620278030633926,0.0001023691
1824.566666665336,0.00023376575,-0.7849296,-8.6994485e-05,-2.355963,1.3016673e-05,1.5711347,0.78607446,0.03999998,0.039999977,-9.825451,-0.0032694784458726645,-0.003236419,0.0011278052,-0.015523319132626057,0.00011945482
1824.5833333320027,0.0002488876,-0.78493476,-0.00011595881,-2.355971,-5.2486484e-06,1.5711702,0.7860916,0.039999973,0.039999966,-9.825658,-0.003580996999517083,-0.003032383,0.001308477,-0.01646115817129612,0.0001390215
1824.5999999986693,0.0002662846,-0.7849472,-0.0001493054,-2.3559754,-2.6276883e-05,1.5712123,0.7861112,0.039999966,0.039999958,-9.826101,-0.003931808285415173,-0.0026919213,0.0015053843,-0.01744377613067627,0.00015938864
1824.616666665336,0.00028613745,-0.78496706,-0.00018738453,-2.3559754,-5.028815e-05,1.5712599,0.7861336,0.03999996,0.039999954,-9.826663,-0.004317732527852058,-0.0022847545,0.0017188379,-0.018463293090462685,0.00018143405
1824.6333333320026,0.0003086281,-0.7849947,-0.00023054887,-2.3559716,-7.7504184e-05,1.5713143,0.786159,0.03999996,0.039999954,-9.826984,-0.004629064816981554,-0.0016284203,0.0019477668,-0.019526619464159012,0.00020521057
1824.6499999986693,0.00033393927,-0.78503036,-0.00027915213,-2.3559632,-0.00010814729,1.5713755,0.78618747,0.03999996,0.03999995,-9.827655,-0.005011627450585365,-0.00086744945,0.0021927322,-0.020633183419704437,0.00023159437
1824.666666665336,0.00036225378,-0.78507406,-0.00033354884,-2.3559515,-0.00014244157,1.571444,0.7862193,0.039999966,0.039999954,-9.8280115,-0.005313721485435963,0.00013854494,0.0024537419,-0.02178391069173813,0.00025890002
1824.6833333320026,0.00039375445,-0.78512627,-0.00039409354,-2.355934,-0.00018060966,1.5715204,0.78625476,0.03999997,0.039999958,-9.828842,-0.005701500456780195,0.0012449054,0.002731356,-0.02298586256802082,0.0002880224
1824.6999999986692,0.0004286238,-0.7851872,-0.00046114004,-2.3559124,-0.00022287431,1.571605,0.78629404,0.039999973,0.03999996,-9.829093,-0.005988245829939842,0.002624109,0.0030247439,-0.024228332564234734,0.00031899597
1824.7166666653359,0.00046704366,-0.7852572,-0.0005350406,-2.3558857,-0.00026945662,1.5716987,0.78633744,0.039999973,0.039999958,-9.829938,-0.0063628703355789185,0.004150106,0.0033338882,-0.02552279643714428,0.00035270612
1824.7333333320025,0.0005091949,-0.78533673,-0.0006161461,-2.3558552,-0.00032057829,1.5718015,0.78638506,0.039999973,0.039999958,-9.830272,-0.0066348896361887455,0.00594117,0.0036582362,-0.02685929648578167,0.00038745799
1824.7499999986692,0.00055525725,-0.7854259,-0.000704805,-2.3558204,-0.00037645793,1.571914,0.78643703,0.039999977,0.03999996,-9.831194,-0.007007757667452097,0.0079118945,0.0039985883,-0.02824937179684639,0.00042418248
1824.7666666653358,0.0006054089,-0.785525,-0.00080136315,-2.3557801,-0.0004373127,1.5720364,0.78649384,0.03999998,0.03999996,-9.831723,-0.007248483132570982,0.010162636,0.004354644,-0.029690437018871307,0.00046373377
1824.7833333320025,0.0006598268,-0.7856345,-0.0009061631,-2.355735,-0.0005033593,1.5721693,0.7865553,0.03999998,0.03999996,-9.832482,-0.007608755491673946,0.012596836,0.004725552,-0.031179793179035187,0.0005044701
1824.7999999986691,0.0007186857,-0.78575486,-0.0010195444,-2.3556848,-0.00057481026,1.5723131,0.78662187,0.039999984,0.039999966,-9.832967,-0.007831910625100136,0.015343826,0.005112403,-0.03271786496043205,0.000547259
1824.8166666653358,0.0007821588,-0.78588593,-0.0011418416,-2.3556294,-0.0006518764,1.5724682,0.78669363,0.039999984,0.03999996,-9.8337755,-0.008168337866663933,0.018309679,0.005514035,-0.03430439159274101,0.00059302896
1824.8333333320024,0.0008504169,-0.7860282,-0.0012733868,-2.3555684,-0.00073476677,1.5726348,0.7867708,0.03999998,0.039999958,-9.834304,-0.008368639275431633,0.021571651,0.005930722,-0.035942621529102325,0.0006400918
1824.849999998669,0.0009236285,-0.78618217,-0.0014145066,-2.3555017,-0.0008236858,1.572814,0.7868536,0.039999984,0.039999958,-9.834931,-0.008610241115093231,0.025085662,0.0063623926,-0.03762918710708618,0.0006902275
1824.8666666653357,0.0010019599,-0.7863481,-0.0015655238,-2.3554301,-0.0009188374,1.5730057,0.78694224,0.039999984,0.039999958,-9.835717,-0.008937545120716095,0.028857261,0.006808509,-0.039361290633678436,0.0007417519
1824.8833333320024,0.0010855747,-0.78652626,-0.0017267554,-2.3553526,-0.0010204207,1.5732102,0.7870369,0.039999984,0.039999954,-9.836279,-0.009074343368411064,0.033015758,0.0072689806,-0.041145045310258865,0.00079644274
1824.899999998669,0.0011746341,-0.7867169,-0.0018985143,-2.355269,-0.0011286328,1.5734283,0.7871377,0.039999988,0.039999958,-9.837083,-0.009377233684062958,0.03737858,0.007743536,-0.04297582805156708,0.00085267454
1824.9166666653357,0.0012692969,-0.7869203,-0.002081108,-2.3551793,-0.0012436664,1.57366,0.78724486,0.039999988,0.039999954,-9.8374815,-0.009484059177339077,0.04212756,0.0082324,-0.04485185816884041,0.000912193
1824.9333333320023,0.0013697183,-0.787137,-0.002274838,-2.3550842,-0.0013657117,1.5739062,0.7873585,0.03999999,0.039999958,-9.838343,-0.009758567437529564,0.047128588,0.008734672,-0.04677615314722061,0.00097336277
1824.949999998669,0.0014760516,-0.787367,-0.002480001,-2.3549829,-0.001494956,1.5741669,0.787479,0.03999999,0.039999958,-9.838816,-0.009837991558015347,0.05254195,0.009250672,-0.04874706268310547,0.0010371146
1824.9666666653357,0.0015884469,-0.7876109,-0.0026968885,-2.354875,-0.0016315802,1.5744423,0.7876062,0.03999999,0.039999954,-9.839645,-0.010074375197291374,0.058189686,0.009779455,-0.05076375603675842,0.0011043178
1824.9833333320023,0.001707051,-0.7878688,-0.0029257839,-2.3547606,-0.0017757644,1.5747328,0.78774047,0.039999995,0.039999958,-9.840002,-0.010115878656506538,0.06430721,0.010322072,-0.05282469838857651,0.0011735115
1824.999999998669,0.0018320078,-0.78814095,-0.0031669692,-2.3546395,-0.0019276849,1.5750391,0.7878819,0.039999995,0.039999954,-9.840804,-0.01033023465424776,0.07065916,0.010877202,-0.054930154234170914,0.0012453933
1825.0166666653356,0.0019634583,-0.7884279,-0.003420714,-2.3545122,-0.0020875111,1.5753611,0.78803086,0.04,0.039999954,-9.841112,-0.01031707227230072,0.07745296,0.011445268,-0.05707680061459541,0.0013219424
1825.0333333320023,0.0021015396,-0.78872967,-0.0036872884,-2.354378,-0.0022554134,1.5756996,0.7881872,0.04,0.039999954,-9.84198,-0.010509811341762543,0.08456321,0.012024884,-0.05926935747265816,0.001399869
1825.049999998669,0.0022463882,-0.7890467,-0.003966952,-2.3542368,-0.002431556,1.5760546,0.78835124,0.04,0.039999958,-9.842244,-0.010464147664606571,0.09210217,0.012617383,-0.061501771211624146,0.0014811633
1825.0666666653356,0.002398135,-0.7893792,-0.0042599607,-2.3540893,-0.0026160982,1.5764264,0.78852314,0.04,0.039999954,-9.842993,-0.010601526126265526,0.0999547,0.0132215815,-0.06377480924129486,0.0015655993
1825.0833333320022,0.0025569075,-0.78972757,-0.004566563,-2.3539343,-0.0028091962,1.5768157,0.78870296,0.04,0.03999995,-9.843341,-0.010510278865695,0.108277045,0.013837025,-0.06609146296977997,0.0016537019
1825.0999999986689,0.0027228312,-0.79009163,-0.004887002,-2.353772,-0.0030110038,1.5772223,0.7888909,0.04,0.03999995,-9.843732,-0.010508546605706215,0.11695801,0.014464125,-0.06844298541545868,0.0017446873
1825.1166666653355,0.0028960288,-0.79047215,-0.005221514,-2.353602,-0.003221668,1.5776472,0.78908706,0.04,0.039999947,-9.844472,-0.010582909919321537,0.12596841,0.015102299,-0.07083513587713242,0.0018396484
1825.1333333320022,0.003076618,-0.79086924,-0.0055703293,-2.3534243,-0.0034413333,1.5780902,0.7892916,0.03999999,0.039999932,-9.844565,-0.010419998317956924,0.13550618,0.015751561,-0.07326022535562515,0.0019380925
1825.1499999986688,0.003264714,-0.7912832,-0.005933672,-2.3532393,-0.0036701416,1.5785515,0.7895047,0.039999988,0.039999925,-9.845197,-0.010451866313815117,0.14537425,0.01641155,-0.07571969926357269,0.0020410698
1825.1666666653355,0.0034604303,-0.7917141,-0.0063117584,-2.3530467,-0.0039082277,1.5790315,0.78972644,0.03999998,0.039999917,-9.845307,-0.010239778086543083,0.15577088,0.017081443,-0.07821506261825562,0.0021465302
1825.1833333320021,0.003663874,-0.7921621,-0.006704799,-2.3528464,-0.004155726,1.5795302,0.7899569,0.039999973,0.03999991,-9.8459425,-0.010230043902993202,0.16648167,0.017761756,-0.0807456225156784,0.0022558025
1825.1999999986688,0.0038751515,-0.79262763,-0.0071129985,-2.3526385,-0.004412764,1.5800486,0.79019636,0.039999958,0.03999989,-9.845972,-0.009945381432771683,0.1777242,0.018451944,-0.08331000804901123,0.0023700804
1825.2166666653354,0.004094367,-0.7931107,-0.0075365556,-2.352422,-0.0046794657,1.580586,0.7904447,0.03999994,0.03999987,-9.846579,-0.009883842431008816,0.18929584,0.019151665,-0.0859067440032959,0.002488549
1825.233333332002,0.004321616,-0.7936116,-0.007975663,-2.3521974,-0.0049559535,1.5811433,0.7907021,0.039999936,0.039999865,-9.846419,-0.009548798203468323,0.20143028,0.01986119,-0.08853168785572052,0.0026104776
1825.2499999986687,0.0045569963,-0.7941307,-0.00843051,-2.3519645,-0.0052423445,1.5817207,0.79096884,0.03999993,0.039999854,-9.84692,-0.009422233328223228,0.21389852,0.020579899,-0.09118739515542984,0.0027377822
1825.2666666653354,0.0048006005,-0.794668,-0.008901265,-2.3517234,-0.0055387504,1.5823181,0.7912449,0.03999992,0.039999843,-9.846746,-0.009006813168525696,0.22695257,0.021306932,-0.09386894851922989,0.0028696058
1825.283333332002,0.0050525176,-0.79522395,-0.0093881115,-2.3514745,-0.0058452794,1.582936,0.79153043,0.03999991,0.039999828,-9.847147,-0.008831185288727283,0.24034914,0.022042913,-0.09657888114452362,0.003006184
1825.2999999986687,0.005312832,-0.7957984,-0.009891213,-2.3512175,-0.006162036,1.5835748,0.7918254,0.0399999,0.039999817,-9.847003,-0.00835203006863594,0.25432742,0.022787204,-0.09931768476963043,0.003146788
1825.3166666653353,0.005581629,-0.79639184,-0.010410726,-2.3509521,-0.0064891204,1.5842341,0.79213005,0.039999887,0.0399998,-9.847349,-0.008096522651612759,0.26864448,0.023540055,-0.10208230465650558,0.0032932055
1825.333333332002,0.005858987,-0.79700446,-0.010946811,-2.350678,-0.006826632,1.5849146,0.79244435,0.039999872,0.039999783,-9.847048,-0.007541673257946968,0.28356814,0.024300683,-0.1048726961016655,0.003444836
1825.3499999986686,0.0061449837,-0.79763585,-0.01149961,-2.3503957,-0.0071746614,1.5856162,0.7927685,0.039999858,0.039999764,-9.846908,-0.007080135866999626,0.29891607,0.025069306,-0.10768413543701172,0.0036016905
1825.3666666653353,0.0064396905,-0.7982867,-0.012069268,-2.350104,-0.007533299,1.5863394,0.79310244,0.03999984,0.039999746,-9.847194,-0.006723674014210701,0.31464764,0.02584532,-0.11052170395851135,0.0037631833
1825.383333332002,0.0067431773,-0.79895693,-0.012655921,-2.3498037,-0.007902628,1.5870839,0.7934464,0.03999982,0.039999723,-9.8466015,-0.0060353027656674385,0.3310022,0.02662905,-0.11337645351886749,0.00393098
1825.3999999986686,0.0070555117,-0.79964674,-0.013259697,-2.3494945,-0.008282731,1.5878502,0.7938004,0.039999805,0.039999705,-9.846681,-0.005593187175691128,0.34774542,0.027419377,-0.11625251919031143,0.004104556
1825.4166666653352,0.0073767575,-0.8003562,-0.013880724,-2.3491764,-0.008673686,1.5886382,0.7941647,0.039999787,0.039999682,-9.84606,-0.004815613850951195,0.36508232,0.028216792,-0.11914795637130737,0.0042839483
1825.433333332002,0.0077069746,-0.8010858,-0.0145191075,-2.3488498,-0.009075564,1.5894483,0.79453886,0.039999764,0.03999966,-9.846027,-0.004287688061594963,0.3828016,0.029019944,-0.12206226587295532,0.0044693495
1825.4499999986685,0.008046217,-0.8018354,-0.015174967,-2.348514,-0.009488436,1.5902807,0.7949235,0.039999746,0.039999638,-9.845321,-0.0034184549003839493,0.40114173,0.029831314,-0.12499452382326126,0.0046600564
1825.4666666653352,0.008394545,-0.8026052,-0.015848408,-2.3481688,-0.00991237,1.5911354,0.79531825,0.039999723,0.03999961,-9.845125,-0.0027854442596435547,0.4198791,0.03064757,-0.12794192135334015,0.0048578796
1825.4833333320018,0.00875201,-0.80339515,-0.01653952,-2.3478148,-0.010347424,1.5920124,0.7957235,0.039999712,0.039999597,-9.844167,-0.0018035247921943665,0.43922162,0.031470653,-0.13090209662914276,0.005062086
1825.4999999986685,0.009118653,-0.8042053,-0.01724841,-2.3474517,-0.010793661,1.592912,0.7961391,0.0399997,0.039999582,-9.843883,-0.0010787025094032288,0.45895723,0.032299206,-0.1338777095079422,0.0052729105
1825.5166666653352,0.009494526,-0.80503607,-0.017975155,-2.3470795,-0.011251132,1.5938344,0.79656523,0.039999686,0.039999563,-9.842869,1.9162893295288086e-05,0.4793013,0.033133395,-0.136867955327034,0.0054904465
1825.5333333320018,0.009879669,-0.80588746,-0.018719843,-2.346697,-0.011719892,1.5947796,0.7970019,0.039999668,0.039999545,-9.842399,0.0008469298481941223,0.500063,0.033972856,-0.1398686170578003,0.0057139625
1825.5499999986685,0.010274118,-0.80675936,-0.019482546,-2.3463058,-0.012199985,1.5957477,0.797449,0.039999653,0.039999526,-9.841017,0.002066371962428093,0.5214418,0.034817412,-0.14287468791007996,0.005945176
1825.566666665335,0.010677914,-0.8076519,-0.020263333,-2.3459058,-0.012691455,1.5967388,0.79790676,0.03999963,0.0399995,-9.840449,0.0030214525759220123,0.54323816,0.035667688,-0.14589302241802216,0.006183596
1825.5833333320018,0.011091085,-0.8085652,-0.02106227,-2.345497,-0.013194343,1.5977527,0.7983752,0.039999608,0.039999474,-9.839097,0.004364117980003357,0.5656323,0.036522593,-0.14892245829105377,0.0064293463
1825.5999999986684,0.011513663,-0.8094994,-0.021879414,-2.3450775,-0.013708685,1.5987898,0.7988542,0.039999582,0.039999444,-9.838014,0.005610795691609383,0.5885108,0.037381858,-0.15196320414543152,0.006682398
1825.616666665335,0.011945678,-0.8104546,-0.022714816,-2.3446493,-0.014234515,1.5998499,0.7993439,0.03999955,0.039999407,-9.836946,0.006765354424715042,0.6118507,0.038246293,-0.15500476956367493,0.0069429977
1825.6333333320017,0.012387156,-0.8114309,-0.023568528,-2.3442118,-0.014771859,1.6009332,0.79984444,0.03999952,0.039999373,-9.835284,0.008320167660713196,0.63582,0.039114784,-0.15805403888225555,0.007211212
1825.6499999986684,0.012838112,-0.8124279,-0.024440587,-2.3437657,-0.015320747,1.6020402,0.8003557,0.039999485,0.03999934,-9.834192,0.009611109271645546,0.66020334,0.03998716,-0.1611098200082779,0.0074872803
1825.666666665335,0.0132985655,-0.8134459,-0.025331032,-2.343309,-0.015881198,1.6031704,0.8008777,0.03999945,0.039999302,-9.832396,0.011305198073387146,0.685171,0.040863663,-0.16417258977890015,0.0077704545
1825.6833333320017,0.013768536,-0.81448513,-0.026239889,-2.342843,-0.016453234,1.6043236,0.80141056,0.039999414,0.039999265,-9.830845,0.012753551825881004,0.71057296,0.04174364,-0.1672317087650299,0.008061298
1825.6999999986683,0.014248036,-0.8155456,-0.027167186,-2.342368,-0.01703687,1.6055005,0.80195427,0.039999373,0.03999922,-9.828754,0.014619817957282066,0.7366141,0.04262723,-0.17029574513435364,0.008361363
1825.716666665335,0.014737074,-0.81662714,-0.028112948,-2.3418837,-0.017632117,1.6067008,0.8025087,0.039999325,0.03999917,-9.827195,0.016229404136538506,0.7630754,0.043513864,-0.1733609437942505,0.00866967
1825.7333333320016,0.01523566,-0.81772965,-0.029077185,-2.3413897,-0.018238988,1.6079242,0.803074,0.039999276,0.039999116,-9.82482,0.018262026831507683,0.79013175,0.04440437,-0.17642737925052643,0.008986324
1825.7499999986683,0.015743794,-0.8188535,-0.0300599,-2.3408859,-0.01885748,1.6091714,0.80365014,0.039999228,0.039999064,-9.822948,0.020034920424222946,0.8176137,0.045297723,-0.17949281632900238,0.009311395
1825.766666665335,0.016261486,-0.8199985,-0.031061098,-2.340373,-0.019487603,1.6104419,0.80423707,0.03999919,0.039999023,-9.820258,0.022256840020418167,0.84571004,0.046194058,-0.18255466222763062,0.009645002
1825.7833333320016,0.016788734,-0.82116467,-0.032080773,-2.3398502,-0.02012935,1.611736,0.80483484,0.039999153,0.039998982,-9.818172,0.02420968748629093,0.8742361,0.04709333,-0.18561531603336334,0.009987287
1825.7999999986682,0.017325524,-0.8223519,-0.033118937,-2.339318,-0.020782722,1.6130533,0.8054434,0.0399991,0.03999893,-9.815117,0.026614908128976822,0.90334636,0.047995422,-0.18866784870624542,0.01033732
1825.8166666653349,0.017871857,-0.82356006,-0.034175575,-2.3387764,-0.021447707,1.6143941,0.80606276,0.03999906,0.03999888,-9.812765,0.028777291998267174,0.9329082,0.048899733,-0.19171923398971558,0.0106980335
1825.8333333320015,0.01842772,-0.82478935,-0.03525064,-2.3382256,-0.022124296,1.6157585,0.8066929,0.039999012,0.039998833,-9.809533,0.03137359768152237,0.96302587,0.049806707,-0.19476574659347534,0.011065827
1825.8499999986682,0.018993113,-0.8260399,-0.03634415,-2.3376648,-0.022812473,1.6171463,0.807334,0.039998967,0.039998785,-9.806477,0.03392142802476883,0.9936329,0.05071595,-0.1978052705526352,0.011443489
1825.8666666653348,0.019568017,-0.8273117,-0.037456043,-2.3370943,-0.023512231,1.6185572,0.80798584,0.03999892,0.039998733,-9.803541,0.03638039529323578,1.0247409,0.05162625,-0.20083604753017426,0.011830213
1825.8833333320015,0.020152412,-0.8286044,-0.03858632,-2.3365152,-0.024223536,1.6199915,0.8086484,0.039998867,0.039998677,-9.799712,0.03931964188814163,1.0564015,0.052538894,-0.20385532081127167,0.012225982
1825.8999999986681,0.020746285,-0.8299181,-0.039734922,-2.3359263,-0.024946371,1.6214486,0.8093219,0.039998814,0.03999862,-9.796623,0.04200182855129242,1.0884999,0.05345319,-0.20687054097652435,0.012630974
1825.9166666653348,0.021349609,-0.8312526,-0.040901814,-2.335328,-0.02568071,1.6229292,0.81000584,0.039998766,0.039998572,-9.7924795,0.04516392946243286,1.1211452,0.05436847,-0.2098754495382309,0.013044268
1825.9333333320014,0.021962365,-0.8326081,-0.04208696,-2.3347204,-0.026426524,1.6244332,0.8107005,0.039998718,0.03999852,-9.788917,0.048086751252412796,1.1542284,0.05528645,-0.2128693163394928,0.01346772
1825.949999998668,0.022584522,-0.8339841,-0.04329029,-2.3341036,-0.027183779,1.6259601,0.81140584,0.039998673,0.039998468,-9.784405,0.05151073634624481,1.1878732,0.056205448,-0.21584859490394592,0.013901273
1825.9666666653347,0.023216063,-0.835381,-0.04451177,-2.3334773,-0.027952448,1.62751,0.81212205,0.039998617,0.039998412,-9.780528,0.05465910583734512,1.2219317,0.05712533,-0.21881932020187378,0.01434254
1825.9833333320014,0.023856949,-0.8367986,-0.045751315,-2.3328414,-0.028732486,1.6290827,0.81284845,0.039998565,0.039998356,-9.775626,0.058338768780231476,1.256548,0.058045477,-0.22177442908287048,0.0147940805
1825.999999998668,0.02450715,-0.838237,-0.04700888,-2.332197,-0.029523853,1.6306785,0.81358564,0.039998516,0.039998304,-9.771252,0.06175757199525833,1.2916127,0.058968224,-0.22471557557582855,0.015254816
1826.0166666653347,0.025166625,-0.8396958,-0.0482844,-2.3315434,-0.030326508,1.6322972,0.81433314,0.039998457,0.039998244,-9.766038,0.06569081544876099,1.3271791,0.059890736,-0.22764158248901367,0.015724085
1826.0333333320013,0.025835343,-0.8411751,-0.049577776,-2.3308802,-0.031140404,1.6339384,0.81509155,0.039998397,0.039998185,-9.761289,0.06938585638999939,1.3631866,0.06081474,-0.23055312037467957,0.016203625
1826.049999998668,0.026513252,-0.8426748,-0.05088895,-2.3302078,-0.03196548,1.6356025,0.81586015,0.039998338,0.03999812,-9.755522,0.07360205054283142,1.3996878,0.06173716,-0.23344473540782928,0.01669266
1826.0666666653347,0.027200317,-0.8441947,-0.05221784,-2.3295264,-0.032801706,1.6372888,0.81663907,0.039998274,0.03999805,-9.750325,0.07757706195116043,1.4366473,0.06266108,-0.23631910979747772,0.017190108
1826.0833333320013,0.027896496,-0.84573483,-0.05356435,-2.328836,-0.03364901,1.6389976,0.8174284,0.03999822,0.03999799,-9.7441845,0.08209331333637238,1.4740835,0.06358561,-0.23917557299137115,0.017697811
1826.099999998668,0.028601738,-0.8472951,-0.054928396,-2.3281372,-0.034507334,1.6407286,0.8182281,0.03999816,0.039997928,-9.738171,0.08656472712755203,1.511973,0.06450974,-0.24201327562332153,0.018214952
1826.1166666653346,0.029315997,-0.8488753,-0.056309875,-2.3274288,-0.03537663,1.6424816,0.819038,0.0399981,0.039997865,-9.732319,0.09098827838897705,1.5503055,0.06543333,-0.244833305478096,0.01874134
1826.1333333320013,0.030039227,-0.8504754,-0.05770869,-2.3267117,-0.03625683,1.6442568,0.8198579,0.039998043,0.039997805,-9.725413,0.09596589207649231,1.5890788,0.0663573,-0.24763056635856628,0.019277094
1826.149999998668,0.030771365,-0.852095,-0.05912475,-2.3259857,-0.037147883,1.6460536,0.820688,0.039997973,0.039997734,-9.718984,0.10070417821407318,1.6282916,0.0672816,-0.2504051625728607,0.019821832
1826.1666666653346,0.03151237,-0.8537343,-0.060557917,-2.325251,-0.038049698,1.6478721,0.8215281,0.039997913,0.039997667,-9.711672,0.10600779205560684,1.6679391,0.06820478,-0.25316017866134644,0.020375988
1826.1833333320012,0.032262165,-0.8553932,-0.06200811,-2.3245077,-0.038962208,1.6497124,0.8223783,0.039997846,0.039997596,-9.704803,0.11107352375984192,1.7080336,0.069128014,-0.25589433312416077,0.020939391
1826.1999999986679,0.0330207,-0.85707134,-0.0634752,-2.3237555,-0.03988535,1.6515744,0.8232383,0.03999779,0.03999754,-9.696908,0.11671305447816849,1.7485254,0.07004983,-0.2586021423339844,0.021511618
1826.2166666653345,0.033787914,-0.85876894,-0.064959064,-2.322995,-0.04081905,1.6534573,0.8241081,0.039997727,0.039997473,-9.689423,0.12212593853473663,1.7894562,0.070971206,-0.2612846791744232,0.02209353
1826.2333333320012,0.034563743,-0.86048555,-0.066459596,-2.3222256,-0.041763216,1.6553612,0.8249877,0.039997667,0.03999741,-9.681055,0.1281036138534546,1.8308028,0.07189206,-0.26394322514533997,0.022683641
1826.2499999986678,0.035348136,-0.862221,-0.06797665,-2.321448,-0.04271778,1.6572863,0.82587713,0.039997604,0.039997343,-9.673005,0.13386836647987366,1.8725483,0.07281194,-0.2665761113166809,0.023281775
1826.2666666653345,0.036141004,-0.86397517,-0.06951011,-2.320662,-0.043682653,1.6592323,0.8267761,0.039997544,0.03999728,-9.664141,0.14021286368370056,1.9146736,0.07372987,-0.269184947013855,0.023890091
1826.2833333320011,0.036942285,-0.8657479,-0.07105982,-2.3198678,-0.044657756,1.6611987,0.8276846,0.039997485,0.039997216,-9.655521,0.14634409546852112,1.9571987,0.07464698,-0.27176496386528015,0.024505509
1826.2999999986678,0.037751906,-0.86753917,-0.07262568,-2.319065,-0.045642994,1.663186,0.82860255,0.039997425,0.039997157,-9.646025,0.15306398272514343,2.0000966,0.07556265,-0.2743191421031952,0.025130272
1826.3166666653344,0.038569797,-0.8693489,-0.07420751,-2.3182545,-0.046638284,1.6651932,0.8295299,0.039997365,0.039997093,-9.636798,0.15957871079444885,2.0433922,0.07647681,-0.27684226632118225,0.025763005
1826.333333332001,0.039395887,-0.8711766,-0.075805195,-2.3174355,-0.04764353,1.6672207,0.83046645,0.039997302,0.039997026,-9.626726,0.16667699813842773,2.08705,0.07738946,-0.2793383002281189,0.026404113
1826.3499999986677,0.04023009,-0.8730225,-0.077418566,-2.3166084,-0.048658643,1.669268,0.8314122,0.039997242,0.03999696,-9.616615,0.17377734184265137,2.131046,0.07830037,-0.28180450201034546,0.027052408
1826.3666666653344,0.041072343,-0.8748861,-0.07904745,-2.315773,-0.04968353,1.671335,0.8323671,0.039997175,0.039996892,-9.6064825,0.18088026344776154,2.1754725,0.07920995,-0.2842395305633545,0.027709214
1826.383333332001,0.04192255,-0.8767672,-0.080691725,-2.31493,-0.05071809,1.6734216,0.8333311,0.039997105,0.039996818,-9.5954,0.18858996033668518,2.2201467,0.080116704,-0.2866426408290863,0.028374014
1826.3999999986677,0.04278062,-0.8786658,-0.08235123,-2.314079,-0.05176221,1.6755276,0.8343039,0.039997034,0.039996743,-9.584669,0.19609525799751282,2.2652252,0.081021585,-0.28901416063308716,0.029046336
1826.4166666653343,0.043646496,-0.8805816,-0.084025815,-2.3132205,-0.052815795,1.6776526,0.8352855,0.039996956,0.03999666,-9.572995,0.20421963930130005,2.3105886,0.0819244,-0.2913545072078705,0.029726908
1826.433333332001,0.04452007,-0.88251466,-0.085715264,-2.3123543,-0.05387876,1.6797965,0.8362758,0.039996892,0.039996594,-9.561642,0.2121364325284958,2.3563333,0.08282538,-0.2936635911464691,0.030413583
1826.4499999986676,0.045401268,-0.8844645,-0.08741945,-2.3114808,-0.054950986,1.681959,0.83727497,0.039996825,0.039996523,-9.5492525,0.22068192064762115,2.4023263,0.08372342,-0.29593783617019653,0.031107543
1826.4666666653343,0.04629,-0.88643104,-0.08913818,-2.3105996,-0.056032352,1.68414,0.8382825,0.03999675,0.039996445,-9.537228,0.22903814911842346,2.4486902,0.08461844,-0.29818081855773926,0.031808402
1826.483333332001,0.047186177,-0.888414,-0.09087128,-2.3097107,-0.057122763,1.6863395,0.8392985,0.039996687,0.039996378,-9.524197,0.23800502717494965,2.495257,0.08551126,-0.30038800835609436,0.032515638
1826.4999999986676,0.048089698,-0.8904133,-0.09261857,-2.3088145,-0.058222096,1.6885566,0.8403227,0.039996624,0.03999631,-9.5114,0.2468043565750122,2.5422153,0.08640114,-0.30255910754203796,0.03322935
1826.5166666653342,0.04900048,-0.8924287,-0.0943799,-2.307911,-0.059330262,1.6907916,0.8413552,0.039996546,0.03999623,-9.497694,0.2562189996242523,2.5893533,0.08728864,-0.3046956956386566,0.033949155
1826.533333332001,0.049918428,-0.89445996,-0.09615506,-2.3070002,-0.060447115,1.6930442,0.8423958,0.03999648,0.03999616,-9.484163,0.26547691226005554,2.636854,0.08817216,-0.3067936599254608,0.034674905
1826.5499999986675,0.05084345,-0.8965068,-0.09794386,-2.3060827,-0.06157255,1.695314,0.8434444,0.03999641,0.039996088,-9.469785,0.27534812688827515,2.6845183,0.08905306,-0.3088556230068207,0.035406243
1826.5666666653342,0.05177544,-0.8985691,-0.09974611,-2.3051586,-0.062706426,1.6976013,0.8445009,0.039996352,0.039996024,-9.455661,0.2850448489189148,2.732543,0.0899304,-0.31088390946388245,0.036143277
1826.5833333320008,0.052714292,-0.9006467,-0.101561636,-2.3042274,-0.06384866,1.699905,0.84556526,0.039996285,0.039995953,-9.440554,0.29537323117256165,2.780684,0.09080437,-0.3128741383552551,0.036885306
1826.5999999986675,0.05365992,-0.902739,-0.103390254,-2.303289,-0.064999096,1.7022257,0.84663725,0.039996225,0.03999589,-9.425339,0.3057471513748169,2.829117,0.09167403,-0.3148263990879059,0.037632376
1826.6166666653342,0.054612197,-0.9048464,-0.105231725,-2.3023446,-0.06615764,1.7045623,0.8477168,0.03999617,0.03999583,-9.409969,0.3161599636077881,2.877805,0.09254004,-0.31673723459243774,0.038383987
1826.6333333320008,0.05557103,-0.9069682,-0.10708586,-2.3013937,-0.067324154,1.7069153,0.84880376,0.039996102,0.03999576,-9.393858,0.3272021412849426,2.9266381,0.09340186,-0.3186134696006775,0.039140113
1826.6499999986675,0.05653632,-0.909104,-0.10895247,-2.3004363,-0.068498485,1.7092841,0.8498979,0.03999605,0.0399957,-9.377795,0.3380924463272095,2.9757626,0.09425996,-0.3204500377178192,0.039901476
1826.666666665334,0.057507973,-0.9112539,-0.11083131,-2.2994726,-0.06968055,1.7116684,0.8509995,0.039995987,0.039995637,-9.360876,0.34959879517555237,3.0249157,0.095114104,-0.32224714756011963,0.040664773
1826.6833333320008,0.058485866,-0.91341794,-0.11272224,-2.2985024,-0.07087018,1.714068,0.85210794,0.039995924,0.03999557,-9.34404,0.36097878217697144,3.0744333,0.09596336,-0.32400423288345337,0.041432824
1826.6999999986674,0.059469894,-0.91559553,-0.114624985,-2.2975261,-0.072067246,1.7164828,0.85322326,0.03999587,0.03999551,-9.326321,0.37299391627311707,3.1239676,0.096808486,-0.3257193863391876,0.042204507
1826.716666665334,0.06045995,-0.9177865,-0.11653937,-2.2965443,-0.07327162,1.7189121,0.85434544,0.039995823,0.03999546,-9.30872,0.38484135270118713,3.1738207,0.09764945,-0.3273938000202179,0.042977404
1826.7333333320007,0.061455924,-0.91999066,-0.11846515,-2.2955565,-0.07448317,1.7213559,0.8554744,0.039995763,0.0399954,-9.290326,0.3973439931869507,3.22366,0.09848538,-0.3290289044380188,0.0437539
1826.7499999986674,0.062457696,-0.9222076,-0.12040214,-2.294563,-0.07570174,1.7238139,0.85661,0.039995715,0.039995346,-9.271914,0.40970849990844727,3.2737942,0.09931595,-0.33062177896499634,0.04453275
1826.766666665334,0.063465156,-0.92443717,-0.12235009,-2.2935636,-0.076927215,1.7262859,0.8577519,0.039995655,0.039995283,-9.252744,0.42270317673683167,3.3238935,0.10014115,-0.33217430114746094,0.045313764
1826.7833333320007,0.064478196,-0.9266789,-0.12430878,-2.2925584,-0.078159474,1.728772,0.8589003,0.039995603,0.039995227,-9.233539,0.4355683922767639,3.3742673,0.10096147,-0.3336825668811798,0.046096247
1826.7999999986673,0.0654967,-0.9289327,-0.126278,-2.2915478,-0.07939834,1.7312711,0.8600548,0.03999554,0.03999516,-9.213516,0.44906389713287354,3.424554,0.10177551,-0.33514589071273804,0.04688016
1826.816666665334,0.0665205,-0.9311985,-0.12825751,-2.2905319,-0.08064367,1.7337835,0.8612152,0.039995484,0.0399951,-9.1935625,0.462436318397522,3.4751647,0.10258428,-0.336568146944046,0.04766518
1826.8333333320006,0.06754954,-0.93347585,-0.13024712,-2.2895112,-0.08189532,1.7363085,0.8623816,0.039995436,0.03999505,-9.172801,0.47643426060676575,3.5256588,0.10338786,-0.3379466235637665,0.04845078
1826.8499999986673,0.06858369,-0.93576455,-0.13224658,-2.2884853,-0.083153196,1.7388461,0.8635539,0.039995372,0.03999498,-9.151921,0.49050173163414,3.5763373,0.10418488,-0.3392844498157501,0.0492368
1826.866666665334,0.06962283,-0.9380644,-0.13425563,-2.2874544,-0.08441708,1.7413958,0.86473185,0.039995313,0.039994918,-9.130741,0.5046337842941284,3.6271498,0.10497511,-0.3405778706073761,0.050022908
1826.8833333320006,0.07066683,-0.94037485,-0.13627405,-2.2864184,-0.08568688,1.7439574,0.8659152,0.039995253,0.039994854,-9.108754,0.5193961262702942,3.677819,0.105759196,-0.34182456135749817,0.05080844
1826.8999999986672,0.071715556,-0.942696,-0.13830161,-2.285378,-0.08696243,1.7465308,0.8671039,0.039995197,0.039994795,-9.086831,0.5340266227722168,3.7287369,0.10653718,-0.34302935004234314,0.051592648
1826.9166666653339,0.07276891,-0.9450274,-0.14033808,-2.284333,-0.08824356,1.7491153,0.8682977,0.03999514,0.039994735,-9.06412,0.5493009686470032,3.7794876,0.10730846,-0.3441890478134155,0.0523775
1826.9333333320005,0.07382678,-0.9473688,-0.1423832,-2.2832837,-0.08953013,1.7517109,0.86949676,0.039995085,0.039994676,-9.041373,0.564455509185791,3.8304722,0.108073264,-0.3453047573566437,0.053159237
1826.9499999986672,0.074889,-0.94971967,-0.1444368,-2.2822294,-0.090822,1.754317,0.8707007,0.039995044,0.03999463,-9.0178995,0.5802294015884399,3.8812423,0.108830534,-0.34637612104415894,0.05394004
1826.9666666653338,0.075955465,-0.9520802,-0.14649849,-2.2811716,-0.09211899,1.7569337,0.87190944,0.039995,0.039994583,-8.994303,0.5959063172340393,3.9321964,0.109580375,-0.3474021553993225,0.054718535
1826.9833333320005,0.07702605,-0.9544497,-0.14856811,-2.2801094,-0.093421,1.7595603,0.87312275,0.039994944,0.039994527,-8.97005,0.6121736764907837,3.9829667,0.110323206,-0.34838250279426575,0.0554947
1826.9999999986671,0.07810062,-0.956828,-0.1506454,-2.279043,-0.094727814,1.7621967,0.8743409,0.0399949,0.03999448,-8.945708,0.6283518075942993,4.0338984,0.111058846,-0.3493180572986603,0.056268368
1827.0166666653338,0.07917903,-0.9592149,-0.15273018,-2.2779732,-0.09603928,1.7648426,0.8755632,0.03999486,0.039994434,-8.920646,0.6451231241226196,4.0845704,0.11178477,-0.3502083420753479,0.0570386
1827.0333333320004,0.08026121,-0.9616101,-0.1548221,-2.2768993,-0.09735528,1.7674978,0.87678957,0.039994817,0.03999439,-8.895549,0.6618191599845886,4.13545,0.11250364,-0.351053923368454,0.05780421
1827.049999998667,0.08134697,-0.96401334,-0.15692091,-2.2758222,-0.098675646,1.7701616,0.8780199,0.039994773,0.03999434,-8.869691,0.6790862083435059,4.1860123,0.11321533,-0.35185185074806213,0.058566906
1827.0666666653337,0.08243621,-0.9664243,-0.15902641,-2.274741,-0.10000017,1.7728338,0.8792543,0.039994735,0.039994303,-8.84379,0.6962761878967285,4.23677,0.1139191,-0.3526053726673126,0.059325304
1827.0833333320004,0.083528794,-0.96884257,-0.16113837,-2.273657,-0.101328775,1.7755144,0.88049245,0.03999469,0.039994255,-8.817148,0.7140507698059082,4.2871876,0.114613846,-0.35331109166145325,0.06007886
1827.099999998667,0.08462458,-0.971268,-0.16325654,-2.2725697,-0.10266127,1.7782027,0.8817342,0.039994657,0.039994217,-8.790431,0.7318990230560303,4.3376536,0.11529945,-0.3539741337299347,0.060827803
1827.1166666653337,0.08572347,-0.97370034,-0.16538063,-2.2714796,-0.10399747,1.7808985,0.88297945,0.039994624,0.03999418,-8.763259,0.7498499751091003,4.3881173,0.11597607,-0.35458922386169434,0.061571132
1827.1333333320003,0.0868253,-0.97613907,-0.16751033,-2.2703862,-0.10533722,1.7836016,0.8842283,0.03999459,0.039994147,-8.7356205,0.768345057964325,4.4382567,0.11664326,-0.35516035556793213,0.062307652
1827.149999998667,0.08792994,-0.97858405,-0.16964543,-2.2692897,-0.10668037,1.7863116,0.88548017,0.03999456,0.039994113,-8.707702,0.7867770791053772,4.488464,0.117300004,-0.3556819558143616,0.06303885
1827.1666666653337,0.089037254,-0.98103505,-0.1717857,-2.2681906,-0.10802675,1.7890283,0.886735,0.039994527,0.039994076,-8.679252,0.8057529330253601,4.5383306,0.11794774,-0.3561578094959259,0.06376373
1827.1833333320003,0.090147115,-0.9834917,-0.17393085,-2.2670894,-0.1093762,1.791751,0.8879928,0.039994497,0.039994046,-8.650606,0.8246750831604004,4.5883093,0.118585594,-0.35658618807792664,0.064480565
1827.199999998667,0.09125939,-0.9859537,-0.17608061,-2.265985,-0.11072856,1.7944796,0.88925326,0.039994475,0.03999402,-8.621537,0.8441267609596252,4.6378756,0.119212985,-0.35697150230407715,0.06519139
1827.2166666653336,0.09237394,-0.98842067,-0.17823473,-2.2648792,-0.11208367,1.7972138,0.89051646,0.03999444,0.039993986,-8.592042,0.863525390625,4.687515,0.119830325,-0.3573061525821686,0.06589332
1827.2333333320003,0.09349062,-0.99089247,-0.18039294,-2.2637708,-0.11344138,1.7999532,0.8917818,0.039994407,0.03999395,-8.562314,0.8834334015846252,4.736764,0.1204366,-0.35760000348091125,0.066588946
1827.249999998667,0.0946093,-0.9933688,-0.18255503,-2.2626607,-0.11480149,1.8026974,0.8930496,0.03999437,0.03999391,-8.532151,0.903296709060669,4.7860556,0.121033184,-0.35784444212913513,0.067275904
1827.2666666653336,0.095729865,-0.99584925,-0.18472067,-2.2615488,-0.116163835,1.8054461,0.89431936,0.03999433,0.039993867,-8.501621,0.9236716032028198,4.83491,0.1216175,-0.35804495215415955,0.067953356
1827.2833333320002,0.096852124,-0.9983337,-0.18688959,-2.2604346,-0.11752826,1.808199,0.895591,0.0399943,0.039993834,-8.4707985,0.9439862966537476,4.883801,0.122191586,-0.358197957277298,0.068622455
1827.2999999986669,0.09797598,-1.0008216,-0.18906157,-2.2593188,-0.11889457,1.810956,0.89686465,0.039994273,0.039993808,-8.439491,0.964801013469696,4.9322248,0.12275401,-0.35830360651016235,0.0692814
1827.3166666653335,0.0991013,-1.0033125,-0.19123636,-2.258202,-0.12026266,1.8137163,0.89813983,0.039994247,0.039993778,-8.407995,0.9855688214302063,4.980683,0.12330384,-0.35836198925971985,0.06993133
1827.3333333320002,0.10022794,-1.0058064,-0.19341365,-2.2570837,-0.12163232,1.8164799,0.89941657,0.039994217,0.039993744,-8.376211,1.0068080425262451,5.028656,0.123842366,-0.35837969183921814,0.07057201
1827.3499999986668,0.101355754,-1.0083032,-0.19559313,-2.2559638,-0.12300339,1.8192465,0.9006946,0.03999419,0.03999372,-8.343935,1.0281360149383545,5.076498,0.12436826,-0.3583485782146454,0.07120097
1827.3666666653335,0.1024846,-1.0108024,-0.1977746,-2.254843,-0.12437571,1.8220158,0.9019736,0.03999417,0.039993692,-8.311356,1.049554705619812,5.1242247,0.12488168,-0.35826829075813293,0.07181988
1827.3833333320001,0.10361436,-1.0133034,-0.19995779,-2.2537215,-0.1257491,1.8247869,0.90325385,0.039994143,0.039993662,-8.278509,1.0714155435562134,5.171477,0.1253838,-0.35814327001571655,0.07242757
1827.3999999986668,0.104744904,-1.015806,-0.20214243,-2.2525988,-0.1271234,1.8275601,0.9045348,0.039994128,0.039993647,-8.245414,1.0932352542877197,5.218669,0.12587202,-0.3579753339290619,0.07302357
1827.4166666653334,0.105876066,-1.0183104,-0.20432824,-2.2514753,-0.12849844,1.8303345,0.9058165,0.039994113,0.03999363,-8.211899,1.1155067682266235,5.2653155,0.1263475,-0.35776007175445557,0.07360879
1827.433333332,0.10700773,-1.0208158,-0.20651492,-2.2503517,-0.129874,1.8331106,0.9070988,0.039994102,0.039993618,-8.178051,1.137743353843689,5.311977,0.1268091,-0.3574977219104767,0.074180394
1827.4499999986667,0.1081397,-1.0233222,-0.20870228,-2.2492278,-0.13125002,1.8358874,0.90838134,0.03999409,0.039993607,-8.144044,1.16037118434906,5.3580623,0.1272574,-0.3571901321411133,0.07473963
1827.4666666653334,0.10927188,-1.025829,-0.21088998,-2.2481039,-0.13262627,1.8386647,0.9096642,0.03999408,0.03999359,-8.109671,1.18300199508667,5.404118,0.1276924,-0.3568379580974579,0.07528739
1827.483333332,0.11040414,-1.0283359,-0.21307778,-2.2469797,-0.13400261,1.841442,0.91094714,0.039994072,0.039993584,-8.075112,1.2059940099716187,5.4495907,0.12811291,-0.35644420981407166,0.07582199
1827.4999999986667,0.11153634,-1.0308424,-0.21526541,-2.2458553,-0.13537876,1.8442192,0.91223,0.03999406,0.03999357,-8.040131,1.2289890050888062,5.494999,0.1285195,-0.35600414872169495,0.0763443
1827.5166666653333,0.11266832,-1.0333486,-0.21745262,-2.244731,-0.13675466,1.8469958,0.91351247,0.03999405,0.039993558,-8.004964,1.2523363828659058,5.539792,0.12891087,-0.35551968216896057,0.07685197
1827.533333332,0.113799974,-1.0358542,-0.21963911,-2.2436068,-0.13813013,1.8497715,0.9147946,0.039994035,0.039993543,-7.969449,1.2756770849227905,5.584535,0.12928848,-0.3549909293651581,0.07734616
1827.5499999986666,0.11493113,-1.0383584,-0.22182459,-2.2424834,-0.13950495,1.8525457,0.9160764,0.039994027,0.039993536,-7.93373,1.2993762493133545,5.628681,0.12965015,-0.3544158935546875,0.0778259
1827.5666666653333,0.116061665,-1.0408617,-0.22400886,-2.2413607,-0.140879,1.8553188,0.9173575,0.039994024,0.03999353,-7.897817,1.3230348825454712,5.6727357,0.1299964,-0.3538020849227905,0.07829328
1827.583333332,0.11719143,-1.0433632,-0.2261916,-2.240239,-0.1422521,1.8580893,0.91863745,0.03999402,0.039993525,-7.861622,1.3470408916473389,5.7161875,0.13032699,-0.3531419634819031,0.0787445
1827.5999999986666,0.11832027,-1.0458627,-0.22837256,-2.239118,-0.14362408,1.8608582,0.9199165,0.039994024,0.039993525,-7.825222,1.371108055114746,5.7593923,0.13064326,-0.35244202613830566,0.07918263
1827.6166666653332,0.11944808,-1.0483598,-0.23055148,-2.2379982,-0.14499478,1.8636243,0.9211944,0.039994024,0.039993525,-7.7885222,1.3952491283416748,5.802351,0.13094324,-0.35169848799705505,0.079604656
1827.633333332,0.12057473,-1.0508547,-0.23272808,-2.2368798,-0.14636406,1.8663872,0.9224707,0.03999402,0.03999352,-7.751698,1.419678807258606,5.844652,0.13122672,-0.3509126603603363,0.08001161
1827.6499999986665,0.12170005,-1.0533465,-0.23490207,-2.2357621,-0.1477317,1.8691471,0.92374563,0.039994027,0.03999353,-7.71452,1.4441167116165161,5.886896,0.13149561,-0.35008594393730164,0.08040334
1827.6666666653332,0.12282393,-1.0558354,-0.2370732,-2.2346458,-0.14909756,1.8719031,0.9250188,0.039994024,0.03999352,-7.6772337,1.4688208103179932,5.9284005,0.13174674,-0.3492140769958496,0.080780305
1827.6833333319998,0.12394619,-1.0583204,-0.23924121,-2.233531,-0.15046147,1.8746552,0.9262903,0.039994027,0.03999353,-7.6396255,1.4935089349746704,5.9698296,0.13198186,-0.3483012914657593,0.08113919
1827.6999999986665,0.12506671,-1.0608016,-0.24140587,-2.232418,-0.15182321,1.8774033,0.9275597,0.03999403,0.039993532,-7.602029,1.5184555053710938,6.010566,0.13219926,-0.34734708070755005,0.08148365
1827.7166666653332,0.1261854,-1.0632786,-0.24356687,-2.2313068,-0.15318266,1.8801467,0.928827,0.03999404,0.039993536,-7.564059,1.5434077978134155,6.051158,0.13240018,-0.3463512659072876,0.08181276
1827.7333333319998,0.12730208,-1.0657513,-0.24572396,-2.2301974,-0.15453969,1.8828856,0.9300921,0.039994054,0.03999355,-7.5261307,1.5685551166534424,6.0910964,0.13258362,-0.34531545639038086,0.08212448
1827.7499999986665,0.12841663,-1.0682195,-0.24787688,-2.2290902,-0.15589415,1.8856188,0.9313547,0.03999407,0.039993566,-7.487754,1.5937327146530151,6.1308613,0.13274933,-0.3442367613315582,0.08241947
1827.766666665333,0.1295289,-1.0706824,-0.25002533,-2.2279856,-0.15724573,1.8883466,0.9326149,0.03999408,0.039993573,-7.4494815,1.619115948677063,6.169984,0.13289721,-0.34311869740486145,0.0826991
1827.7833333319998,0.13063875,-1.0731401,-0.25216916,-2.2268834,-0.15859438,1.8910683,0.93387216,0.039994087,0.039993584,-7.4109354,1.6444584131240845,6.208918,0.1330269,-0.3419643044471741,0.08296004
1827.7999999986664,0.13174601,-1.075592,-0.25430787,-2.225783,-0.1599399,1.8937837,0.9351265,0.0399941,0.039993595,-7.3723526,1.6700159311294556,6.247153,0.13313934,-0.3407689929008484,0.08320477
1827.816666665333,0.13285063,-1.0780385,-0.25644147,-2.2246857,-0.16128218,1.8964927,0.93637764,0.039994113,0.03999361,-7.3333774,1.6955649852752686,6.2851973,0.13323389,-0.33953389525413513,0.0834327
1827.8333333319997,0.1339524,-1.0804785,-0.25856954,-2.223591,-0.162621,1.8991947,0.9376258,0.03999412,0.039993618,-7.294547,1.7212845087051392,6.322592,0.13330963,-0.338257759809494,0.083642796
1827.8499999986664,0.13505122,-1.082912,-0.2606919,-2.2224994,-0.16395624,1.9018894,0.93887067,0.039994135,0.03999363,-7.255562,1.7470128536224365,6.359659,0.13336664,-0.33694571256637573,0.083837286
1827.866666665333,0.13614696,-1.0853387,-0.2628083,-2.2214105,-0.16528769,1.9045765,0.940112,0.039994154,0.039993647,-7.216284,1.772807240486145,6.396379,0.13340448,-0.3355962038040161,0.08401337
1827.8833333319997,0.13723949,-1.0877582,-0.26491845,-2.2203243,-0.16661526,1.9072558,0.9413496,0.039994184,0.039993677,-7.1771545,1.7987010478973389,6.43244,0.13342327,-0.3342083990573883,0.084171735
1827.8999999986663,0.13832869,-1.0901705,-0.26702213,-2.2192423,-0.16793877,1.9099265,0.9425834,0.039994206,0.0399937,-7.137587,1.824639081954956,6.468221,0.13342246,-0.33278071880340576,0.08431244
1827.916666665333,0.13941437,-1.0925754,-0.26911905,-2.2181635,-0.16925795,1.9125886,0.94381315,0.03999423,0.039993722,-7.098461,1.8506054878234863,6.5034475,0.13340378,-0.33132198452949524,0.08443579
1827.9333333319996,0.14049648,-1.094972,-0.27120897,-2.2170877,-0.17057279,1.9152423,0.9450389,0.039994247,0.03999374,-7.058755,1.8766518831253052,6.5383663,0.13336518,-0.32982558012008667,0.08454092
1827.9499999986663,0.14157483,-1.0973607,-0.27329153,-2.216016,-0.17188309,1.9178865,0.94626045,0.039994277,0.039993774,-7.01931,1.902700662612915,6.5725455,0.13330632,-0.32828840613365173,0.08462802
1827.966666665333,0.1426493,-1.0997407,-0.2753666,-2.2149484,-0.17318863,1.9205215,0.9474776,0.0399943,0.039993796,-6.9795713,1.9287962913513184,6.6066017,0.13322884,-0.3267194628715515,0.08469786
1827.9833333319996,0.1437198,-1.1021118,-0.27743396,-2.2138844,-0.17448929,1.9231464,0.9486902,0.03999432,0.03999382,-6.9401307,1.9549031257629395,6.639915,0.13313116,-0.32511547207832336,0.08474971
1827.9999999986662,0.1447862,-1.1044737,-0.2794933,-2.2128248,-0.1757849,1.9257611,0.9498981,0.039994366,0.039993867,-6.900238,1.9810724258422852,6.6729646,0.13301334,-0.3234770596027374,0.08478251
1828.0166666653329,0.14584833,-1.1068264,-0.28154436,-2.211769,-0.17707539,1.9283656,0.9511011,0.039994393,0.03999389,-6.860816,2.007197856903076,6.7053933,0.13287564,-0.3218075633049011,0.0847987
1828.0333333319995,0.14690608,-1.1091697,-0.28358707,-2.2107182,-0.17836057,1.9309596,0.9522992,0.039994422,0.039993923,-6.820794,2.033397912979126,6.7375007,0.1327185,-0.32010093331336975,0.084796764
1828.0499999986662,0.14795935,-1.111503,-0.28562096,-2.2096713,-0.17964025,1.9335421,0.9534922,0.039994456,0.039993957,-6.781276,2.059555768966675,6.7689905,0.13254043,-0.3183598518371582,0.08477629
1828.0666666653328,0.14900798,-1.113826,-0.28764597,-2.2086291,-0.18091431,1.9361136,0.95467997,0.039994486,0.039993986,-6.741303,2.085752487182617,6.800187,0.1323419,-0.3165874183177948,0.08473795
1828.0833333319995,0.1500519,-1.1161383,-0.2896617,-2.2075922,-0.18218261,1.9386731,0.9558623,0.039994523,0.039994027,-6.701833,2.111881971359253,6.830729,0.13212293,-0.3147827982902527,0.08468105
1828.0999999986661,0.15109093,-1.1184399,-0.291668,-2.2065592,-0.18344493,1.9412206,0.95703906,0.039994545,0.039994046,-6.662236,2.137995958328247,6.860905,0.13188456,-0.3129507601261139,0.08460899
1828.1166666653328,0.15212497,-1.1207309,-0.29366466,-2.2055316,-0.18470116,1.9437559,0.9582102,0.039994594,0.0399941,-6.622205,2.1641876697540283,6.890649,0.13162464,-0.3110836148262024,0.084516376
1828.1333333319994,0.1531539,-1.1230104,-0.29565144,-2.2045093,-0.1859512,1.9462788,0.95937544,0.039994635,0.03999414,-6.5828295,2.190237045288086,6.91983,0.13134444,-0.30918675661087036,0.08440674
1828.149999998666,0.15417756,-1.1252785,-0.29762805,-2.2034912,-0.1871949,1.9487885,0.9605348,0.03999468,0.039994184,-6.5430107,2.216364860534668,6.948669,0.13104366,-0.3072592318058014,0.0842792
1828.1666666653327,0.1551959,-1.1275343,-0.29959422,-2.2024791,-0.18843205,1.9512852,0.96168816,0.03999472,0.03999423,-6.503582,2.242335796356201,6.9768543,0.13072124,-0.3052992522716522,0.08413321
1828.1833333319994,0.1562088,-1.1297783,-0.30154994,-2.201472,-0.18966256,1.9537686,0.96283543,0.03999477,0.039994277,-6.463978,2.268369197845459,7.004765,0.13037859,-0.3033132553100586,0.08397108
1828.199999998666,0.15721607,-1.1320097,-0.30349487,-2.200471,-0.19088623,1.956238,0.96397614,0.03999483,0.039994337,-6.424754,2.2942440509796143,7.0320477,0.13001414,-0.301296591758728,0.08378971
1828.2166666653327,0.15821767,-1.1342291,-0.30542862,-2.1994748,-0.19210303,1.9586937,0.96511054,0.039994873,0.03999438,-6.385272,2.32021427154541,7.0590367,0.12962967,-0.29925537109375,0.083592705
1828.2333333319993,0.15921345,-1.1364353,-0.3073513,-2.198485,-0.1933127,1.9611353,0.9662382,0.03999492,0.03999443,-6.346102,2.345935583114624,7.0853953,0.12922418,-0.2971799075603485,0.08337714
1828.249999998666,0.1602033,-1.1386287,-0.30926242,-2.197501,-0.19451521,1.9635621,0.96735924,0.039994974,0.039994486,-6.306821,2.371788501739502,7.111429,0.12879764,-0.29508012533187866,0.08314344
1828.2666666653327,0.1611871,-1.1408085,-0.31116185,-2.1965227,-0.19571035,1.9659743,0.9684734,0.039995026,0.039994538,-6.267996,2.3973870277404785,7.1369023,0.12834983,-0.29295286536216736,0.082893774
1828.2833333319993,0.16216476,-1.1429746,-0.31304923,-2.195551,-0.19689801,1.9683712,0.96958053,0.03999508,0.039994597,-6.228815,2.4230618476867676,7.1619854,0.12788184,-0.2907986044883728,0.08262608
1828.299999998666,0.1631362,-1.1451272,-0.31492442,-2.1945853,-0.1980781,1.9707527,0.97068065,0.03999513,0.039994646,-6.1903243,2.44846510887146,7.1865597,0.12739342,-0.2886214852333069,0.082343005
1828.3166666653326,0.16410129,-1.1472653,-0.31678742,-2.1936257,-0.1992504,1.9731184,0.97177345,0.039995186,0.039994705,-6.151382,2.4739809036254883,7.210787,0.12688468,-0.2864193320274353,0.082041785
1828.3333333319993,0.16505988,-1.1493891,-0.31863797,-2.1926725,-0.20041484,1.9754683,0.9728591,0.039995242,0.03999476,-6.1130953,2.4992237091064453,7.234384,0.12635462,-0.2841908633708954,0.08172514
1828.349999998666,0.16601186,-1.1514986,-0.3204758,-2.1917262,-0.20157129,1.9778023,0.9739371,0.039995298,0.03999482,-6.074737,2.524454116821289,7.25764,0.12580271,-0.28193897008895874,0.08139093
1828.3666666653326,0.16695714,-1.1535932,-0.32230064,-2.1907861,-0.20271963,1.9801198,0.9750076,0.039995357,0.03999488,-6.0362864,2.5496978759765625,7.280504,0.12523153,-0.2796650826931,0.081042066
1828.3833333319992,0.16789566,-1.1556729,-0.3241123,-2.189853,-0.20385972,1.9824207,0.9760703,0.039995406,0.039994933,-5.998428,2.5745890140533447,7.302801,0.124638624,-0.27736470103263855,0.080675125
1828.3999999986659,0.16882733,-1.1577375,-0.3259107,-2.1889265,-0.20499142,1.9847044,0.9771253,0.039995465,0.039994992,-5.9602814,2.5996148586273193,7.3247857,0.12402652,-0.27504247426986694,0.08029351
1828.4166666653325,0.16975193,-1.1597865,-0.32769555,-2.1880062,-0.20611459,1.9869716,0.9781723,0.039995525,0.039995056,-5.922821,2.624264717102051,7.346223,0.12339294,-0.27269870042800903,0.07989478
1828.4333333319992,0.17066957,-1.1618198,-0.32946676,-2.1870935,-0.20722914,1.9892212,0.9792114,0.039995585,0.03999512,-5.884934,2.6490590572357178,7.3672633,0.12273842,-0.2703280746936798,0.07947977
1828.4499999986658,0.17157999,-1.1638376,-0.3312241,-2.186188,-0.208335,1.9914532,0.9802424,0.03999565,0.03999519,-5.8479414,2.673430919647217,7.3878736,0.12206376,-0.2679385840892792,0.0790491
1828.4666666653325,0.17248309,-1.1658392,-0.33296737,-2.1852899,-0.209432,1.9936669,0.98126495,0.03999571,0.03999525,-5.810507,2.69797682762146,7.4081416,0.12136884,-0.26552915573120117,0.078604296
1828.4833333319991,0.17337881,-1.1678245,-0.3346963,-2.1843994,-0.21052009,1.9958626,0.9822794,0.039995775,0.039995316,-5.773934,2.7220687866210938,7.4279,0.12065429,-0.2631017863750458,0.078143775
1828.4999999986658,0.17426713,-1.1697934,-0.33641088,-2.1835158,-0.21159911,1.9980398,0.98328525,0.039995838,0.039995383,-5.736966,2.746299982070923,7.4472857,0.119919166,-0.2606563866138458,0.077668905
1828.5166666653324,0.17514788,-1.1717458,-0.33811086,-2.1826398,-0.21266896,2.0001988,0.98428255,0.0399959,0.039995447,-5.7007575,2.770103693008423,7.4662037,0.11916512,-0.2581908404827118,0.07718021
1828.533333331999,0.17602094,-1.173681,-0.33979613,-2.1817713,-0.21372953,2.0023391,0.9852712,0.039995965,0.039995514,-5.664156,2.794065475463867,7.4847503,0.11839058,-0.2557043135166168,0.07667504
1828.5499999986657,0.17688628,-1.1755991,-0.3414663,-2.1809108,-0.21478066,2.00446,0.986251,0.039996024,0.039995577,-5.628479,2.8175313472747803,7.502852,0.11759615,-0.2532004117965698,0.07615624
1828.5666666653324,0.17774379,-1.1774995,-0.34312144,-2.1800575,-0.21582226,2.0065622,0.9872219,0.039996088,0.03999564,-5.5925083,2.8411359786987305,7.5206327,0.116784334,-0.25068429112434387,0.07562547
1828.583333331999,0.17859343,-1.1793829,-0.34476125,-2.1792119,-0.21685432,2.0086448,0.98818403,0.039996147,0.039995704,-5.557251,2.8642587661743164,7.537881,0.1159524,-0.2481471449136734,0.075079344
1828.5999999986657,0.1794351,-1.1812487,-0.34638566,-2.1783743,-0.21787666,2.0107079,0.98913705,0.039996207,0.039995767,-5.521932,2.8873848915100098,7.554831,0.11510075,-0.24559170007705688,0.074519105
1828.6166666653323,0.18026873,-1.1830963,-0.3479945,-2.1775448,-0.21888922,2.0127513,0.9900809,0.03999627,0.039995834,-5.486671,2.9105029106140137,7.571407,0.11423076,-0.24302247166633606,0.07394567
1828.633333331999,0.18109418,-1.1849262,-0.34958762,-2.1767235,-0.21989188,2.0147746,0.99101555,0.039996337,0.039995905,-5.4523153,2.933072328567505,7.5875616,0.11334236,-0.2404385656118393,0.07335957
1828.6499999986656,0.18191141,-1.1867379,-0.35116488,-2.175911,-0.22088459,2.0167782,0.99194086,0.0399964,0.039995972,-5.41754,2.9558379650115967,7.603368,0.11243562,-0.23784025013446808,0.07276052
1828.6666666653323,0.18272038,-1.1885312,-0.352726,-2.1751065,-0.22186714,2.0187612,0.9928568,0.039996456,0.03999603,-5.383828,2.9780073165893555,7.618816,0.11151121,-0.23522865772247314,0.072149
1828.683333331999,0.18352094,-1.1903061,-0.35427108,-2.1743102,-0.22283956,2.0207233,0.9937632,0.03999651,0.039996088,-5.349616,3.000382661819458,7.6338444,0.110568926,-0.2326045036315918,0.07152514
1828.6999999986656,0.18431309,-1.1920624,-0.35579973,-2.173522,-0.22380172,2.0226645,0.99466,0.039996568,0.03999615,-5.3164105,3.0221853256225586,7.6485534,0.10960897,-0.22996915876865387,0.07088972
1828.7166666653322,0.1850967,-1.1937995,-0.35731214,-2.1727421,-0.22475354,2.0245852,0.9955472,0.039996628,0.039996214,-5.282739,3.0441734790802,7.662835,0.10863134,-0.22731803357601166,0.07024312
1828.733333331999,0.18587174,-1.1955175,-0.35880774,-2.171971,-0.22569492,2.0264852,0.9964248,0.039996684,0.039996274,-5.2501645,3.0655527114868164,7.6768126,0.10763605,-0.22465641796588898,0.069584504
1828.7499999986655,0.18663818,-1.1972165,-0.36028662,-2.1712089,-0.22662583,2.0283637,0.99729246,0.03999674,0.039996333,-5.2172866,3.087078332901001,7.6904397,0.106624685,-0.22198531031608582,0.0689138
1828.7666666653322,0.18739589,-1.1988964,-0.36174875,-2.1704552,-0.22754614,2.0302203,0.9981502,0.039996803,0.0399964,-5.1853266,3.1080050468444824,7.703745,0.105598316,-0.21930377185344696,0.06823341
1828.7833333319988,0.18814479,-1.2005568,-0.3631939,-2.1697102,-0.22845584,2.0320556,0.99899817,0.03999686,0.03999646,-5.153013,3.129178285598755,7.7166905,0.104554884,-0.21661484241485596,0.06754265
1828.7999999986655,0.1888849,-1.2021974,-0.364622,-2.1689742,-0.22935477,2.0338695,0.99983597,0.039996922,0.039996527,-5.121675,3.1496636867523193,7.7293096,0.10349471,-0.2139144092798233,0.06684154
1828.8166666653321,0.18961608,-1.2038188,-0.36603293,-2.1682467,-0.2302429,2.0356615,1.0006641,0.039996985,0.039996598,-5.090086,3.1703641414642334,7.7415714,0.10242009,-0.21120668947696686,0.06613065
1828.8333333319988,0.19033836,-1.2054205,-0.3674266,-2.1675284,-0.23112017,2.0374315,1.0014818,0.03999705,0.039996665,-5.0593863,3.190415382385254,7.7535586,0.10132795,-0.208488330245018,0.06540958
1828.8499999986655,0.19105162,-1.2070022,-0.36880282,-2.1668184,-0.23198652,2.0391796,1.0022888,0.039997112,0.039996732,-5.0287843,3.2104403972625732,7.7652445,0.10022236,-0.2057645618915558,0.06467759
1828.866666665332,0.19175582,-1.2085639,-0.3701617,-2.166117,-0.23284188,2.0409057,1.0030861,0.03999717,0.039996795,-4.998067,3.230468988418579,7.7764864,0.09910409,-0.20302891731262207,0.06393726
1828.8833333319988,0.19245093,-1.2101048,-0.3715029,-2.1654248,-0.23368618,2.0426097,1.0038735,0.03999724,0.039996866,-4.9684143,3.249835252761841,7.7875404,0.0979681,-0.20028343796730042,0.06318753
1828.8999999986654,0.19313689,-1.2116265,-0.37282643,-2.1647425,-0.2345193,2.0442913,1.0046498,0.039997306,0.03999694,-4.938589,3.2693495750427246,7.7982216,0.09681752,-0.19753475487232208,0.062430654
1828.916666665332,0.19381367,-1.2131267,-0.37413234,-2.1640697,-0.23534128,2.0459502,1.0054157,0.039997365,0.039997004,-4.909734,3.288205146789551,7.808805,0.0956563,-0.1947828233242035,0.061662752
1828.9333333319987,0.19448121,-1.2146071,-0.37542042,-2.1634054,-0.23615208,2.0475862,1.0061717,0.039997436,0.03999708,-4.8807344,3.307255983352661,7.8188925,0.094482616,-0.1920313537120819,0.060890473
1828.9499999986654,0.19513951,-1.2160666,-0.37669057,-2.1627505,-0.23695162,2.0491993,1.006917,0.039997496,0.03999714,-4.852427,3.325653314590454,7.828798,0.0932925,-0.18927069008350372,0.060110416
1828.966666665332,0.19578849,-1.2175057,-0.37794262,-2.1621048,-0.23773988,2.05079,1.0076516,0.039997566,0.039997216,-4.8240824,3.344209909439087,7.838333,0.092091575,-0.18650978803634644,0.059321944
1828.9833333319987,0.19642812,-1.2189246,-0.37917668,-2.1614685,-0.23851675,2.0523574,1.0083753,0.039997634,0.039997287,-4.796662,3.3620386123657227,7.8477116,0.09087983,-0.18374411761760712,0.058527056
1828.9999999986653,0.19705838,-1.2203223,-0.3803926,-2.160841,-0.23928222,2.0539017,1.0090889,0.039997693,0.039997354,-4.7688837,3.380162000656128,7.8567286,0.08965666,-0.1809738576412201,0.05772295
1829.016666665332,0.19767919,-1.2216992,-0.3815903,-2.1602225,-0.2400362,2.0554225,1.0097915,0.039997756,0.03999742,-4.742313,3.397484540939331,7.865556,0.08842052,-0.178204745054245,0.056915395
1829.0333333319986,0.19829057,-1.2230554,-0.3827699,-2.1596143,-0.24077874,2.0569205,1.0104837,0.03999782,0.03999749,-4.715335,3.4150664806365967,7.8740215,0.087174065,-0.17543308436870575,0.05610135
1829.0499999986653,0.19889249,-1.2243905,-0.38393113,-2.1590154,-0.24150978,2.0583959,1.0111649,0.039997894,0.03999757,-4.6896033,3.431884288787842,7.882421,0.085916534,-0.17266331613063812,0.055280402
1829.066666665332,0.19948488,-1.2257044,-0.3850741,-2.1584253,-0.24222927,2.0598478,1.0118351,0.039997965,0.039997645,-4.663435,3.44893479347229,7.890377,0.08465103,-0.169890895485878,0.054454856
1829.0833333319986,0.20006782,-1.2269974,-0.3861986,-2.1578453,-0.24293725,2.0612762,1.0124949,0.039998032,0.03999772,-4.638307,3.465233087539673,7.8981996,0.08337573,-0.16711658239364624,0.05362402
1829.0999999986652,0.2006412,-1.2282693,-0.38730475,-2.1572747,-0.24363366,2.0626812,1.013144,0.039998095,0.039997786,-4.613383,3.4814810752868652,7.905825,0.082091376,-0.16434742510318756,0.05278807
1829.1166666653319,0.20120503,-1.2295202,-0.38839248,-2.156713,-0.24431847,2.0640626,1.0137821,0.039998163,0.039997857,-4.588417,3.4977798461914062,7.913096,0.08079747,-0.16157983243465424,0.05194851
1829.1333333319985,0.20175928,-1.2307495,-0.3894617,-2.156161,-0.24499166,2.0654206,1.0144097,0.039998215,0.039997913,-4.564491,3.5132791996002197,7.920263,0.07949587,-0.15881358087062836,0.051106397
1829.1499999986652,0.20230396,-1.2319577,-0.3905125,-2.155619,-0.2456532,2.0667555,1.0150262,0.039998274,0.03999798,-4.540415,3.528996467590332,7.927076,0.078185655,-0.15605178475379944,0.050258864
1829.1666666653318,0.20283905,-1.2331451,-0.3915448,-2.1550865,-0.2463031,2.0680666,1.015632,0.039998326,0.039998036,-4.51741,3.543943405151367,7.9338694,0.07686949,-0.15329481661319733,0.04940767
1829.1833333319985,0.2033646,-1.2343111,-0.39255854,-2.1545632,-0.24694134,2.0693543,1.0162269,0.039998375,0.039998088,-4.4940195,3.5591773986816406,7.940286,0.0755452,-0.15054073929786682,0.04855351
1829.1999999986651,0.20388052,-1.2354554,-0.39355376,-2.1540492,-0.24756794,2.0706186,1.016811,0.039998434,0.039998155,-4.471739,3.5735652446746826,7.9465837,0.0742159,-0.147789865732193,0.0476968
1829.2166666653318,0.20438685,-1.2365787,-0.39453042,-2.1535454,-0.24818292,2.0718591,1.0173842,0.03999849,0.039998215,-4.4492583,3.5882270336151123,7.9525747,0.07288022,-0.14504584670066833,0.046838667
1829.2333333319984,0.20488355,-1.2376808,-0.39548865,-2.153051,-0.24878623,2.0730758,1.0179461,0.039998543,0.03999827,-4.427927,3.6020569801330566,7.9586096,0.07154075,-0.1423119604587555,0.04597884
1829.249999998665,0.2053707,-1.2387619,-0.39642835,-2.1525652,-0.2493779,2.0742695,1.0184977,0.039998595,0.039998326,-4.406183,3.616208076477051,7.9641876,0.070196986,-0.13958404958248138,0.045117278
1829.2666666653317,0.20584829,-1.2398213,-0.39734954,-2.1520896,-0.24995792,2.07544,1.019038,0.039998654,0.03999839,-4.385452,3.629518508911133,7.9697433,0.068847016,-0.13685815036296844,0.044252716
1829.2833333319984,0.20631626,-1.2408595,-0.3982523,-2.151624,-0.2505263,2.0765865,1.0195677,0.03999871,0.03999845,-4.364714,3.643076181411743,7.97501,0.0674959,-0.13414324820041656,0.043389168
1829.299999998665,0.20677471,-1.241877,-0.39913654,-2.1511672,-0.25108314,2.0777094,1.0200868,0.03999876,0.039998505,-4.344996,3.6558175086975098,7.980281,0.06614101,-0.13144159317016602,0.04252368
1829.3166666653317,0.20722361,-1.242873,-0.40000245,-2.1507196,-0.2516283,2.0788093,1.0205948,0.039998807,0.039998554,-4.324859,3.668872117996216,7.9851637,0.06478245,-0.12874534726142883,0.041660365
1829.3333333319983,0.20766298,-1.243848,-0.40084997,-2.150283,-0.25216198,2.079886,1.0210919,0.039998855,0.039998606,-4.305911,3.6810617446899414,7.990048,0.0634224,-0.1260593980550766,0.040794823
1829.349999998665,0.2080929,-1.2448014,-0.40167916,-2.1498551,-0.25268406,2.0809393,1.0215783,0.039998908,0.03999866,-4.287219,3.693234443664551,7.9948153,0.062063266,-0.12339023500680923,0.03992999
1829.3666666653316,0.20851329,-1.2457345,-0.40248993,-2.1494362,-0.25319454,2.0819695,1.0220542,0.039998956,0.03999871,-4.268381,3.7054431438446045,7.9991446,0.060702752,-0.12072965502738953,0.03906738
1829.3833333319983,0.20892422,-1.2466466,-0.40328246,-2.149027,-0.25369364,2.0829754,1.0225192,0.03999901,0.039998766,-4.250543,3.716820478439331,8.003583,0.059340272,-0.1180776059627533,0.038203176
1829.399999998665,0.20932578,-1.2475376,-0.40405682,-2.1486275,-0.25418124,2.083959,1.0229738,0.039999057,0.03999882,-4.232669,3.728482246398926,8.007767,0.057979494,-0.11544529348611832,0.037341733
1829.4166666653316,0.20971791,-1.2484078,-0.4048131,-2.1482372,-0.25465745,2.08492,1.0234176,0.039999098,0.03999886,-4.2158237,3.739283323287964,8.011894,0.05661876,-0.11282506585121155,0.03648273
1829.4333333319983,0.21010071,-1.2492573,-0.40555134,-2.1478558,-0.25512227,2.0858574,1.0238508,0.039999157,0.03999892,-4.198671,3.750398874282837,8.015717,0.05526027,-0.11021684855222702,0.03562549
1829.449999998665,0.21047424,-1.2500861,-0.40627167,-2.1474836,-0.25557584,2.0867727,1.0242734,0.039999213,0.039998975,-4.182569,3.7606825828552246,8.019586,0.053902775,-0.10762516409158707,0.034770045
1829.4666666653316,0.2108385,-1.2508944,-0.4069741,-2.1471217,-0.25601822,2.0876653,1.0246854,0.03999926,0.039999023,-4.1662893,3.7712414264678955,8.023132,0.052548815,-0.10504695028066635,0.033917844
1829.4833333319982,0.21119349,-1.2516822,-0.4076588,-2.1467679,-0.25644937,2.088535,1.0250871,0.039999306,0.039999075,-4.151102,3.780956506729126,8.026825,0.051199846,-0.10248833149671555,0.03306663
1829.4999999986649,0.21153933,-1.2524499,-0.40832573,-2.146423,-0.2568693,2.0893824,1.0254785,0.039999355,0.03999912,-4.135553,3.791003942489624,8.030083,0.049852632,-0.09994523227214813,0.032222815
1829.5166666653315,0.21187599,-1.2531973,-0.4089751,-2.1460872,-0.25727814,2.090207,1.0258596,0.0399994,0.039999172,-4.121029,3.8001906871795654,8.033464,0.04850857,-0.09741833060979843,0.031375468
1829.5333333319982,0.21220364,-1.2539247,-0.40960693,-2.1457608,-0.25767606,2.0910099,1.0262305,0.03999944,0.039999213,-4.1063867,3.8096816539764404,8.036542,0.04717006,-0.09491109848022461,0.030536672
1829.5499999986648,0.21252227,-1.2546321,-0.41022143,-2.145444,-0.25806293,2.0917904,1.0265911,0.039999492,0.039999273,-4.0927396,3.818330764770508,8.039716,0.045837607,-0.09242339432239532,0.029699454
1829.5666666653315,0.21283196,-1.2553194,-0.4108186,-2.1451354,-0.258439,2.0925488,1.0269413,0.039999537,0.039999325,-4.0789804,3.8272669315338135,8.042608,0.044511393,-0.08995965868234634,0.028866215
1829.5833333319981,0.21313275,-1.2559873,-0.41139868,-2.1448352,-0.25880426,2.0932858,1.027282,0.039999582,0.03999939,-4.066122,3.835361957550049,8.045528,0.043193854,-0.0875181332230568,0.028032787
1829.5999999986648,0.21342473,-1.2566354,-0.41196182,-2.144544,-0.2591589,2.094001,1.0276122,0.03999962,0.039999455,-4.0532327,3.8435287475585938,8.048235,0.04188031,-0.08509372919797897,0.02720132
1829.6166666653314,0.21370801,-1.2572645,-0.412508,-2.1442618,-0.2595029,2.0946946,1.0279328,0.03999968,0.039999552,-4.0406003,3.851663827896118,8.050778,0.040577494,-0.08269324153661728,0.026371704
1829.633333331998,0.21398261,-1.257874,-0.41303748,-2.1439888,-0.25983632,2.0953672,1.0282435,0.039999727,0.03999967,-4.028972,3.8589725494384766,8.053491,0.039283082,-0.0803215429186821,0.025536025
1829.6499999986647,0.2142486,-1.2584645,-0.41355044,-2.1437242,-0.26015934,2.096019,1.0285443,0.03999977,0.0399998,-4.017206,3.8665685653686523,8.05586,0.037997887,-0.07797667384147644,0.02470599
1829.6666666653314,0.21450607,-1.2590362,-0.41404694,-2.143468,-0.26047194,2.0966494,1.0288357,0.039999805,0.039999947,-4.0062375,3.8734288215637207,8.058305,0.036723774,-0.07565482705831528,0.023880912
1829.683333331998,0.21475516,-1.259589,-0.41452712,-2.14322,-0.26077443,2.0972595,1.0291172,0.039999817,0.04,-3.9951386,3.8806467056274414,8.060486,0.03545897,-0.0733560249209404,0.02308933
1829.6999999986647,0.21499594,-1.2601237,-0.41499126,-2.1429799,-0.26106653,2.0978496,1.0293895,0.03999982,0.04,-3.9850066,3.8869967460632324,8.062759,0.034207452,-0.07108058035373688,0.022316055
1829.7166666653313,0.21522845,-1.2606398,-0.41543952,-2.1427479,-0.2613487,2.0984187,1.0296524,0.039999813,0.04,-3.974527,3.893631935119629,8.064754,0.032965556,-0.06882830709218979,0.021544551
1829.733333331998,0.2154528,-1.261138,-0.41587204,-2.1425242,-0.26162088,2.098968,1.0299062,0.039999813,0.04,-3.965189,3.8994827270507812,8.0668955,0.031737596,-0.06660875678062439,0.020786088
1829.7499999986646,0.21566911,-1.2616184,-0.41628894,-2.1423087,-0.26188332,2.099498,1.0301508,0.039999817,0.04,-3.955588,3.905602216720581,8.06877,0.030521793,-0.0644175186753273,0.02003469
1829.7666666653313,0.21587744,-1.262081,-0.41669065,-2.1421013,-0.26213598,2.1000082,1.0303864,0.039999805,0.04,-3.9468832,3.9109606742858887,8.070757,0.029320369,-0.06225508823990822,0.01929189
1829.783333331998,0.21607798,-1.2625263,-0.41707712,-2.141902,-0.26237923,2.1004992,1.0306133,0.039999794,0.04,-3.938054,3.9166085720062256,8.072493,0.028132746,-0.060125842690467834,0.018557863
1829.7999999986646,0.21627079,-1.2629547,-0.41744873,-2.1417103,-0.26261306,2.100971,1.030831,0.039999783,0.04,-3.9301398,3.9214913845062256,8.074366,0.026961265,-0.05803035944700241,0.017835584
1829.8166666653312,0.21645592,-1.2633657,-0.41780567,-2.1415267,-0.26283765,2.1014245,1.0310404,0.03999978,0.04,-3.9219244,3.926661252975464,8.075953,0.025806561,-0.05596597492694855,0.017119164
1829.833333331998,0.21663359,-1.2637603,-0.41814816,-2.14135,-0.26305312,2.101859,1.0312412,0.039999772,0.04,-3.9147744,3.9310946464538574,8.077687,0.024667768,-0.05393774062395096,0.016419366
1829.8499999986645,0.2168039,-1.2641386,-0.41847637,-2.1411808,-0.2632597,2.1022763,1.0314337,0.03999977,0.04,-3.9074557,3.9355742931365967,8.079209,0.023545245,-0.05194288119673729,0.015725713
1829.8666666653312,0.21696693,-1.2645009,-0.41879067,-2.1410184,-0.26345748,2.1026752,1.031618,0.039999764,0.04,-3.900356,3.9400277137756348,8.080621,0.02244141,-0.04997968673706055,0.015043785
1829.8833333319978,0.21712284,-1.2648473,-0.41909114,-2.1408632,-0.26364663,2.1030571,1.0317943,0.03999976,0.04,-3.894018,3.943856954574585,8.082146,0.021354934,-0.04805395007133484,0.014376372
1829.8999999986645,0.21727175,-1.2651784,-0.41937813,-2.1407144,-0.26382723,2.1034214,1.0319628,0.039999757,0.04,-3.8875508,3.9478650093078613,8.083429,0.020287775,-0.046161502599716187,0.013721628
1829.9166666653311,0.21741381,-1.2654942,-0.41965193,-2.1405723,-0.2639995,2.1037688,1.0321233,0.039999757,0.04,-3.88178,3.951258659362793,8.084833,0.019238641,-0.044305626302957535,0.013075327
1829.9333333319978,0.21754912,-1.2657951,-0.41991273,-2.1404364,-0.26416352,2.1041,1.0322763,0.039999746,0.04,-3.8760097,3.954862117767334,8.086035,0.01821062,-0.042490046471357346,0.012444843
1829.9499999986645,0.21767788,-1.2660812,-0.42016074,-2.1403077,-0.2643196,2.1044152,1.0324217,0.039999746,0.04,-3.8708537,3.957839250564575,8.087315,0.017202927,-0.040710512548685074,0.011825797
1829.966666665331,0.21780017,-1.2663529,-0.4203964,-2.140186,-0.26446787,2.1047144,1.0325599,0.039999742,0.04,-3.865772,3.9609687328338623,8.0884695,0.016218817,-0.038973916321992874,0.011219394
1829.9833333319978,0.21791622,-1.2666106,-0.42062,-2.1400707,-0.26460847,2.1049984,1.0326909,0.03999973,0.04,-3.8614416,3.9635372161865234,8.089745,0.015257938,-0.03728426992893219,0.0106307715
1829.9999999986644,0.21802615,-1.2668546,-0.42083174,-2.1399617,-0.26474172,2.1052673,1.0328151,0.03999973,0.04,-3.8568459,3.9663145542144775,8.090766,0.014319332,-0.035636499524116516,0.010052578
1830.016666665331,0.21813007,-1.2670854,-0.42103198,-2.1398578,-0.26486766,2.1055217,1.0329325,0.03999973,0.04,-3.8529892,3.9685218334198,8.091908,0.013405143,-0.03403271734714508,0.009495333
1830.0333333319977,0.21822822,-1.2673035,-0.421221,-2.1397595,-0.26498657,2.1057618,1.0330433,0.039999723,0.04,-3.848864,3.9709150791168213,8.092802,0.012514332,-0.03246943652629852,0.0089493245
1830.0499999986644,0.2183207,-1.2675087,-0.42139906,-2.1396675,-0.26509857,2.1059875,1.0331479,0.039999716,0.04,-3.8454902,3.9727742671966553,8.093866,0.011648669,-0.0309517253190279,0.008418683
1830.066666665331,0.21840768,-1.2677021,-0.42156664,-2.1395812,-0.265204,2.1062007,1.0332462,0.03999972,0.04,-3.842131,3.974766731262207,8.094795,0.010808973,-0.029485752806067467,0.007905058
1830.0833333319977,0.21848947,-1.267884,-0.42172402,-2.1394997,-0.265303,2.106401,1.0333387,0.039999712,0.04,-3.8392758,3.976290702819824,8.09579,0.009996448,-0.028065158054232597,0.007408197
1830.0999999986643,0.2185661,-1.2680546,-0.4218715,-2.1394231,-0.2653958,2.1065881,1.0334249,0.03999971,0.04,-3.8363605,3.9778330326080322,8.096619,0.009208739,-0.026687903329730034,0.0069253147
1830.116666665331,0.21863787,-1.268214,-0.4220095,-2.1393523,-0.26548263,2.106764,1.0335059,0.03999971,0.04,-3.8336701,3.9793362617492676,8.0974245,0.008451944,-0.025362255051732063,0.006458931
1830.1333333319976,0.21870483,-1.2683623,-0.42213833,-2.1392856,-0.2655636,2.1069274,1.0335814,0.039999705,0.04,-3.8316507,3.980358362197876,8.098366,0.007722117,-0.024089429527521133,0.0060136253
1830.1499999986643,0.21876727,-1.2685013,-0.42225832,-2.1392233,-0.2656391,2.1070795,1.0336518,0.039999697,0.04,-3.8294094,3.981537103652954,8.0990505,0.007022591,-0.022870603948831558,0.005585844
1830.166666665331,0.2188253,-1.26863,-0.4223699,-2.1391654,-0.26570928,2.1072211,1.0337172,0.0399997,0.04,-3.827591,3.982326030731201,8.099904,0.0063513243,-0.021701527759432793,0.005174286
1830.1833333319976,0.2188792,-1.2687497,-0.42247346,-2.1391113,-0.26577446,2.1073532,1.0337781,0.039999697,0.04,-3.825841,3.9832100868225098,8.100577,0.0057119606,-0.020586520433425903,0.0047835843
1830.1999999986642,0.21892914,-1.2688605,-0.42256945,-2.1390617,-0.2658348,2.1074748,1.0338342,0.039999697,0.04,-3.8244333,3.9837026596069336,8.101315,0.005101733,-0.019522331655025482,0.0044086836
1830.2166666653309,0.21897537,-1.268963,-0.42265815,-2.139015,-0.2658906,2.1075878,1.0338863,0.03999969,0.04,-3.8231833,3.9843215942382812,8.102041,0.0045258095,-0.018521267920732498,0.0040570647
1830.2333333319975,0.219018,-1.2690578,-0.42274004,-2.1389728,-0.26594207,2.1076922,1.0339345,0.039999694,0.04,-3.82204,3.9845941066741943,8.102687,0.0039802073,-0.017568232491612434,0.003723303
1830.2499999986642,0.21905732,-1.2691451,-0.42281553,-2.1389332,-0.2659896,2.1077888,1.0339789,0.03999969,0.04,-3.8211312,3.984933376312256,8.103375,0.0034681517,-0.016677740961313248,0.0034093286
1830.2666666653308,0.21909358,-1.269225,-0.42288503,-2.1388972,-0.26603332,2.107878,1.03402,0.039999686,0.04,-3.820414,3.9849929809570312,8.104042,0.0029902551,-0.015843624249100685,0.0031169183
1830.2833333319975,0.21912697,-1.2692994,-0.422949,-2.1388648,-0.26607347,2.1079597,1.0340571,0.03999969,0.04,-3.8198357,3.985088586807251,8.104643,0.0025468774,-0.015071879141032696,0.002846547
1830.2999999986641,0.21915768,-1.2693676,-0.42300776,-2.1388335,-0.26611045,2.108034,1.0340917,0.03999969,0.04,-3.8194394,3.984968423843384,8.105378,0.0021407616,-0.014362539164721966,0.0025943473
1830.3166666653308,0.21918595,-1.2694306,-0.42306188,-2.1388054,-0.26614448,2.1081014,1.0341235,0.039999686,0.04,-3.8188314,3.9850142002105713,8.105851,0.001764692,-0.013709322549402714,0.0023648248
1830.3333333319974,0.219212,-1.2694875,-0.4231117,-2.1387806,-0.26617578,2.1081655,1.0341529,0.039999686,0.04,-3.8185961,3.9848954677581787,8.106476,0.0014186772,-0.01311309915035963,0.0021539314
1830.349999998664,0.21923596,-1.2695403,-0.42315763,-2.1387563,-0.2662046,2.1082244,1.0341796,0.03999968,0.04,-3.8184967,3.9847593307495117,8.106959,0.0011021298,-0.012565252371132374,0.0019594
1830.3666666653307,0.21925801,-1.269589,-0.42319977,-2.1387339,-0.26623103,2.1082766,1.0342046,0.039999682,0.04,-3.8178449,3.9848451614379883,8.107288,0.00080982636,-0.012052854523062706,0.0017799706
1830.3833333319974,0.21927829,-1.2696338,-0.4232387,-2.138714,-0.26625544,2.1083272,1.0342271,0.039999682,0.04,-3.8176608,3.9847500324249268,8.107779,0.0005390041,-0.011589907109737396,0.0016165302
1830.399999998664,0.219297,-1.2696748,-0.4232744,-2.1386967,-0.26627788,2.108371,1.0342484,0.03999968,0.04,-3.8173642,3.984750986099243,8.1081295,0.00029241646,-0.011156367138028145,0.0014639057
1830.4166666653307,0.21931426,-1.2697123,-0.42330727,-2.13868,-0.2662985,2.108414,1.0342674,0.039999675,0.04,-3.8173811,3.9846296310424805,8.108618,6.485054e-05,-0.010773871093988419,0.001325985
1830.4333333319973,0.21933012,-1.2697475,-0.42333755,-2.1386633,-0.26631752,2.1084502,1.0342852,0.03999968,0.04,-3.8169677,3.984630584716797,8.10879,-0.0001430732,-0.010408319532871246,0.0011960807
1830.449999998664,0.21934472,-1.2697803,-0.42336538,-2.138648,-0.266335,2.1084857,1.0343016,0.03999968,0.04,-3.816634,3.98466157913208,8.109111,-0.00033752687,-0.010077734477818012,0.0010804178
1830.4666666653306,0.21935818,-1.2698098,-0.423391,-2.1386342,-0.26635104,2.10852,1.0343163,0.039999675,0.04,-3.8163028,3.984659433364868,8.109323,-0.00051703857,-0.009762820787727833,0.0009694903
1830.4833333319973,0.21937054,-1.2698373,-0.42341447,-2.1386223,-0.26636586,2.1085484,1.03433,0.03999968,0.04,-3.8162177,3.9845526218414307,8.109562,-0.00067947025,-0.009469143114984035,0.0008668051
1830.499999998664,0.21938191,-1.2698628,-0.4234361,-2.1386125,-0.26637945,2.1085763,1.0343432,0.03999967,0.04,-3.81619,3.9845526218414307,8.109935,-0.00082861027,-0.009215819649398327,0.00077600963
1830.5166666653306,0.21939242,-1.2698848,-0.4234561,-2.138603,-0.26639193,2.1086032,1.0343548,0.03999967,0.04,-3.8161342,3.984484910964966,8.110185,-0.00096806424,-0.008979286067187786,0.00068927405
1830.5333333319973,0.21940209,-1.2699064,-0.4234745,-2.138594,-0.26640344,2.1086242,1.034365,0.039999668,0.04,-3.8160534,3.9844448566436768,8.110266,-0.0010931484,-0.008759100921452045,0.0006117787
1830.549999998664,0.219411,-1.2699263,-0.42349136,-2.1385849,-0.26641402,2.108645,1.034375,0.03999967,0.04,-3.8158429,3.98447847366333,8.1105585,-0.0012079044,-0.00856741238385439,0.0005394926
1830.5666666653306,0.21941923,-1.2699443,-0.42350692,-2.1385758,-0.26642376,2.1086652,1.0343847,0.03999967,0.04,-3.8155668,3.984499931335449,8.110618,-0.0013161936,-0.008380587212741375,0.00047509564
1830.5833333319972,0.21942677,-1.2699614,-0.42352125,-2.1385674,-0.26643267,2.108685,1.0343932,0.039999675,0.04,-3.8154001,3.98445987701416,8.110688,-0.0014194385,-0.008201831951737404,0.0004127891
1830.5999999986639,0.2194337,-1.2699757,-0.4235344,-2.1385598,-0.2664409,2.1087034,1.0344006,0.03999967,0.04,-3.8151894,3.984464406967163,8.110819,-0.0015127752,-0.008030295372009277,0.00035285746
1830.6166666653305,0.21944007,-1.2699898,-0.4235464,-2.138553,-0.26644853,2.1087167,1.034407,0.039999675,0.04,-3.8152597,3.9844000339508057,8.110938,-0.0015952004,-0.007877351716160774,0.00030100966
1830.6333333319972,0.21944594,-1.2700031,-0.42355746,-2.1385467,-0.26645544,2.1087298,1.0344133,0.039999675,0.04,-3.815171,3.984424114227295,8.111193,-0.0016696834,-0.007748836651444435,0.00025521085
1830.6499999986638,0.21945135,-1.2700151,-0.42356762,-2.1385417,-0.26646188,2.1087425,1.0344194,0.039999675,0.04,-3.8150585,3.984421968460083,8.111284,-0.0017403641,-0.007626933511346579,0.00021124027
1830.6666666653305,0.21945633,-1.2700256,-0.42357704,-2.138537,-0.26646778,2.1087549,1.0344254,0.039999675,0.04,-3.8151042,3.984367609024048,8.111419,-0.0018054891,-0.007515832781791687,0.00017114081
1830.6833333319971,0.21946095,-1.2700357,-0.42358577,-2.138533,-0.26647323,2.1087673,1.0344309,0.03999967,0.04,-3.8150632,3.9843528270721436,8.11146,-0.0018670668,-0.007411992643028498,0.00013342492
1830.6999999986638,0.21946518,-1.2700456,-0.42359376,-2.13853,-0.2664782,2.108779,1.0344359,0.039999668,0.04,-3.6363738,3.9378721714019775,8.030959,0.0,-0.0,0.0
1830.7166666653304,0.21946518,-1.2700456,-0.42359376,-2.13853,-0.2664782,2.108779,1.0344359,0.039999668,0.04,-3.8165236,3.982823133468628,8.112175,0.0,-0.0,0.0
1830.733333331997,0.21946518,-1.2700456,-0.42359376,-2.13853,-0.2664782,2.108779,1.0344359,0.039999668,0.04,-3.8165236,3.982823133468628,8.112175,0.0,-0.0,0.0
1830.7499999986637,0.21946518,-1.2700456,-0.42359376,-2.13853,-0.2664782,2.108779,1.0344359,0.039999668,0.04,-3.8165236,3.982823133468628,8.112175,0.0,-0.0,0.0
1830.7666666653304,0.21946518,-1.2700456,-0.42359376,-2.13853,-0.2664782,2.108779,1.0344359,0.039999668,0.04,-3.8165236,3.982823133468628,8.112175,0.0,-0.0,0.0
1830.783333331997,0.21946518,-1.2700456,-0.42359376,-2.13853,-0.2664782,2.108779,1.0344359,0.039999668,0.04,-3.8165236,3.982823133468628,8.112175,0.0,-0.0,0.0
1830.7999999986637,0.21946518,-1.2700456,-0.42359376,-2.13853,-0.2664782,2.108779,1.0344359,0.039999668,0.04,-3.8165236,3.982823133468628,8.112175,0.0,-0.0,0.0
1830.8166666653303,0.21946518,-1.2700456,-0.42359376,-2.13853,-0.2664782,2.108779,1.0344359,0.039999668,0.04,-3.8165236,3.982823133468628,8.112175,0.0,-0.0,0.0
1830.833333331997,0.21946518,-1.2700456,-0.42359376,-2.13853,-0.2664782,2.108779,1.0344359,0.039999668,0.04,-3.8165236,3.982823133468628,8.112175,0.0,-0.0,0.0
1830.8499999986636,0.21946518,-1.2700456,-0.42359376,-2.13853,-0.2664782,2.108779,1.0344359,0.039999668,0.04,-3.8165236,3.982823133468628,8.112175,0.0,-0.0,0.0
1830.8666666653303,0.21946518,-1.2700456,-0.42359376,-2.13853,-0.2664782,2.108779,1.0344359,0.039999668,0.04,-3.8165236,3.982823133468628,8.112175,0.0,-0.0,0.0
1830.883333331997,0.21946518,-1.2700456,-0.42359376,-2.13853,-0.2664782,2.108779,1.0344359,0.039999668,0.04,-3.8165236,3.982823133468628,8.112175,0.0,-0.0,0.0
1830.8999999986636,0.21946518,-1.2700456,-0.42359376,-2.13853,-0.2664782,2.108779,1.0344359,0.039999668,0.04,-3.8165236,3.982823133468628,8.112175,0.0,-0.0,0.0
1830.9166666653302,0.21946518,-1.2700456,-0.42359376,-2.13853,-0.2664782,2.108779,1.0344359,0.039999668,0.04,-3.8165236,3.982823133468628,8.112175,0.0,-0.0,0.0
1830.933333331997,0.21946518,-1.2700456,-0.42359376,-2.13853,-0.2664782,2.108779,1.0344359,0.039999668,0.04,-3.8165236,3.982823133468628,8.112175,0.0,-0.0,0.0
1830.9499999986635,0.21946518,-1.2700456,-0.42359376,-2.13853,-0.2664782,2.108779,1.0344359,0.039999668,0.04,-3.8165236,3.982823133468628,8.112175,0.0,-0.0,0.0
1830.9666666653302,0.21946518,-1.2700456,-0.42359376,-2.13853,-0.2664782,2.108779,1.0344359,0.039999668,0.04,-3.8165236,3.982823133468628,8.112175,0.0,-0.0,0.0
1830.9833333319968,0.21946518,-1.2700456,-0.42359376,-2.13853,-0.2664782,2.108779,1.0344359,0.039999668,0.04,-3.8165236,3.982823133468628,8.112175,0.0,-0.0,0.0
1830.9999999986635,0.21946518,-1.2700456,-0.42359376,-2.13853,-0.2664782,2.108779,1.0344359,0.039999668,0.04,-3.8165236,3.982823133468628,8.112175,0.0,-0.0,0.0
1831.0166666653301,0.21946518,-1.2700456,-0.42359376,-2.13853,-0.2664782,2.108779,1.0344359,0.039999668,0.04,-3.8165236,3.982823133468628,8.112175,0.0,-0.0,0.0
1831.0333333319968,0.21946518,-1.2700456,-0.42359376,-2.13853,-0.2664782,2.108779,1.0344359,0.039999668,0.04,-3.8165236,3.982823133468628,8.112175,0.0,-0.0,0.0
1831.0499999986635,0.21946518,-1.2700456,-0.42359376,-2.13853,-0.2664782,2.108779,1.0344359,0.039999668,0.04,-3.8165236,3.982823133468628,8.112175,0.0,-0.0,0.0
1831.06666666533,0.21946518,-1.2700456,-0.42359376,-2.13853,-0.2664782,2.108779,1.0344359,0.039999668,0.04,-3.8165236,3.982823133468628,8.112175,0.0,-0.0,0.0
1831.0833333319968,0.21946518,-1.2700456,-0.42359376,-2.13853,-0.2664782,2.108779,1.0344359,0.039999668,0.04,-3.8165236,3.982823133468628,8.112175,0.0,-0.0,0.0
1831.0999999986634,0.21946518,-1.2700456,-0.42359376,-2.13853,-0.2664782,2.108779,1.0344359,0.039999668,0.04,-3.8165236,3.982823133468628,8.112175,0.0,-0.0,0.0
1831.11666666533,0.21946518,-1.2700456,-0.42359376,-2.13853,-0.2664782,2.108779,1.0344359,0.039999668,0.04,-3.8165236,3.982823133468628,8.112175,0.0,-0.0,0.0
1831.1333333319967,0.21946518,-1.2700456,-0.42359376,-2.13853,-0.2664782,2.108779,1.0344359,0.039999668,0.04,-3.8165236,3.982823133468628,8.112175,0.0,-0.0,0.0
1831.1499999986634,0.21946518,-1.2700456,-0.42359376,-2.13853,-0.2664782,2.108779,1.0344359,0.039999668,0.04,-3.8165236,3.982823133468628,8.112175,0.0,-0.0,0.0
1831.16666666533,0.21946518,-1.2700456,-0.42359376,-2.13853,-0.2664782,2.108779,1.0344359,0.039999668,0.04,-3.8165236,3.982823133468628,8.112175,0.0,-0.0,0.0
1831.1833333319967,0.21946518,-1.2700456,-0.42359376,-2.13853,-0.2664782,2.108779,1.0344359,0.039999668,0.04,-3.8165236,3.982823133468628,8.112175,0.0,-0.0,0.0
1831.1999999986633,0.21946518,-1.2700456,-0.42359376,-2.13853,-0.2664782,2.108779,1.0344359,0.039999668,0.04,-3.8165236,3.982823133468628,8.112175,0.0,-0.0,0.0
1831.21666666533,0.21946518,-1.2700456,-0.42359376,-2.13853,-0.2664782,2.108779,1.0344359,0.039999668,0.04,-3.8165236,3.982823133468628,8.112175,0.0,-0.0,0.0
1831.2333333319966,0.21946518,-1.2700456,-0.42359376,-2.13853,-0.2664782,2.108779,1.0344359,0.039999668,0.04,-3.8165236,3.982823133468628,8.112175,0.0,-0.0,0.0
1831.2499999986633,0.21946518,-1.2700456,-0.42359376,-2.13853,-0.2664782,2.108779,1.0344359,0.039999668,0.04,-3.8165236,3.982823133468628,8.112175,0.0,-0.0,0.0
1831.26666666533,0.21946518,-1.2700456,-0.42359376,-2.13853,-0.2664782,2.108779,1.0344359,0.039999668,0.04,-3.8165236,3.982823133468628,8.112175,0.0,-0.0,0.0
1831.2833333319966,0.21946518,-1.2700456,-0.42359376,-2.13853,-0.2664782,2.108779,1.0344359,0.039999668,0.04,-3.8165236,3.982823133468628,8.112175,0.0,-0.0,0.0
1831.2999999986632,0.21946518,-1.2700456,-0.42359376,-2.13853,-0.2664782,2.108779,1.0344359,0.039999668,0.04,-3.8165236,3.982823133468628,8.112175,0.0,-0.0,0.0
1831.3166666653299,0.21946518,-1.2700456,-0.42359376,-2.13853,-0.2664782,2.108779,1.0344359,0.039999668,0.04,-3.8165236,3.982823133468628,8.112175,0.0,-0.0,0.0
1831.3333333319965,0.21946518,-1.2700456,-0.42359376,-2.13853,-0.2664782,2.108779,1.0344359,0.039999668,0.04,-3.8165236,3.982823133468628,8.112175,0.0,-0.0,0.0
1831.3499999986632,0.21946518,-1.2700456,-0.42359376,-2.13853,-0.2664782,2.108779,1.0344359,0.039999668,0.04,-3.8165236,3.982823133468628,8.112175,0.0,-0.0,0.0
1831.3666666653298,0.21946518,-1.2700456,-0.42359376,-2.13853,-0.2664782,2.108779,1.0344359,0.039999668,0.04,-3.8165236,3.982823133468628,8.112175,0.0,-0.0,0.0
1831.3833333319965,0.21946518,-1.2700456,-0.42359376,-2.13853,-0.2664782,2.108779,1.0344359,0.039999668,0.04,-3.8165236,3.982823133468628,8.112175,0.0,-0.0,0.0
1831.3999999986631,0.21946518,-1.2700456,-0.42359376,-2.13853,-0.2664782,2.108779,1.0344359,0.039999668,0.04,-3.8165236,3.982823133468628,8.112175,0.0,-0.0,0.0
1831.4166666653298,0.21946518,-1.2700456,-0.42359376,-2.13853,-0.2664782,2.108779,1.0344359,0.039999668,0.04,-3.8165236,3.982823133468628,8.112175,0.0,-0.0,0.0
1831.4333333319964,0.21946518,-1.2700456,-0.42359376,-2.13853,-0.2664782,2.108779,1.0344359,0.039999668,0.04,-3.8165236,3.982823133468628,8.112175,0.0,-0.0,0.0
1831.449999998663,0.21946518,-1.2700456,-0.42359376,-2.13853,-0.2664782,2.108779,1.0344359,0.039999668,0.04,-3.8165236,3.982823133468628,8.112175,0.0,-0.0,0.0
1831.4666666653297,0.21946518,-1.2700456,-0.42359376,-2.13853,-0.2664782,2.108779,1.0344359,0.039999668,0.04,-3.8165236,3.982823133468628,8.112175,0.0,-0.0,0.0
1831.4833333319964,0.21946518,-1.2700456,-0.42359376,-2.13853,-0.2664782,2.108779,1.0344359,0.039999668,0.04,-3.8165236,3.982823133468628,8.112175,0.0,-0.0,0.0
1831.499999998663,0.21946518,-1.2700456,-0.42359376,-2.13853,-0.2664782,2.108779,1.0344359,0.039999668,0.04,-3.8165236,3.982823133468628,8.112175,0.0,-0.0,0.0
1831.5166666653297,0.21946518,-1.2700456,-0.42359376,-2.13853,-0.2664782,2.108779,1.0344359,0.039999668,0.04,-3.8165236,3.982823133468628,8.112175,0.0,-0.0,0.0
1831.5333333319963,0.21946518,-1.2700456,-0.42359376,-2.13853,-0.2664782,2.108779,1.0344359,0.039999668,0.04,-3.8165236,3.982823133468628,8.112175,0.0,-0.0,0.0
1831.549999998663,0.21946518,-1.2700456,-0.42359376,-2.13853,-0.2664782,2.108779,1.0344359,0.039999668,0.04,-3.8165236,3.982823133468628,8.112175,0.0,-0.0,0.0
1831.5666666653296,0.21946518,-1.2700456,-0.42359376,-2.13853,-0.2664782,2.108779,1.0344359,0.039999668,0.04,-3.8165236,3.982823133468628,8.112175,0.0,-0.0,0.0
1831.5833333319963,0.21946518,-1.2700456,-0.42359376,-2.13853,-0.2664782,2.108779,1.0344359,0.039999668,0.04,-3.8165236,3.982823133468628,8.112175,0.0,-0.0,0.0
1831.599999998663,0.21946518,-1.2700456,-0.42359376,-2.13853,-0.2664782,2.108779,1.0344359,0.039999668,0.04,-3.8165236,3.982823133468628,8.112175,0.0,-0.0,0.0
1831.6166666653296,0.21946518,-1.2700456,-0.42359376,-2.13853,-0.2664782,2.108779,1.0344359,0.039999668,0.04,-3.8165236,3.982823133468628,8.112175,0.0,-0.0,0.0
1831.6333333319963,0.21946518,-1.2700456,-0.42359376,-2.13853,-0.2664782,2.108779,1.0344359,0.039999668,0.04,-3.8165236,3.982823133468628,8.112175,0.0,-0.0,0.0
1831.649999998663,0.21946518,-1.2700456,-0.42359376,-2.13853,-0.2664782,2.108779,1.0344359,0.039999668,0.04,-3.8165236,3.982823133468628,8.112175,0.0,-0.0,0.0
1831.6666666653296,0.21946518,-1.2700456,-0.42359376,-2.13853,-0.2664782,2.108779,1.0344359,0.039999668,0.04,-3.8165236,3.982823133468628,8.112175,0.0,-0.0,0.0
1831.6833333319962,0.21946518,-1.2700456,-0.42359376,-2.13853,-0.2664782,2.108779,1.0344359,0.039999668,0.04,-3.8165236,3.982823133468628,8.112175,0.0,-0.0,0.0
1831.6999999986629,0.21946518,-1.2700456,-0.42359376,-2.13853,-0.2664782,2.108779,1.0344359,0.039999668,0.04,-3.8165236,3.982823133468628,8.112175,0.0,-0.0,0.0
1831.7166666653295,0.21946518,-1.2700456,-0.42359376,-2.13853,-0.2664782,2.108779,1.0344359,0.039999668,0.04,-3.8165236,3.982823133468628,8.112175,0.0,-0.0,0.0
1831.7333333319962,0.21946518,-1.2700456,-0.42359376,-2.13853,-0.2664782,2.108779,1.0344359,0.039999668,0.04,-3.8165236,3.982823133468628,8.112175,0.0,-0.0,0.0
1831.7499999986628,0.21946518,-1.2700456,-0.42359376,-2.13853,-0.2664782,2.108779,1.0344359,0.039999668,0.04,-3.8165236,3.982823133468628,8.112175,0.0,-0.0,0.0
1831.7666666653295,0.21946518,-1.2700456,-0.42359376,-2.13853,-0.2664782,2.108779,1.0344359,0.039999668,0.04,-3.8165236,3.982823133468628,8.112175,0.0,-0.0,0.0
1831.7833333319961,0.21946518,-1.2700456,-0.42359376,-2.13853,-0.2664782,2.108779,1.0344359,0.039999668,0.04,-3.8165236,3.982823133468628,8.112175,0.0,-0.0,0.0
1831.7999999986628,0.21946518,-1.2700456,-0.42359376,-2.13853,-0.2664782,2.108779,1.0344359,0.039999668,0.04,-3.8165236,3.982823133468628,8.112175,0.0,-0.0,0.0
1831.8166666653294,0.21946518,-1.2700456,-0.42359376,-2.13853,-0.2664782,2.108779,1.0344359,0.039999668,0.04,-3.8165236,3.982823133468628,8.112175,0.0,-0.0,0.0
1831.833333331996,0.21946518,-1.2700456,-0.42359376,-2.13853,-0.2664782,2.108779,1.0344359,0.039999668,0.04,-3.8165236,3.982823133468628,8.112175,0.0,-0.0,0.0
1831.8499999986627,0.21946518,-1.2700456,-0.42359376,-2.13853,-0.2664782,2.108779,1.0344359,0.039999668,0.04,-3.8165236,3.982823133468628,8.112175,0.0,-0.0,0.0
1831.8666666653294,0.21946518,-1.2700456,-0.42359376,-2.13853,-0.2664782,2.108779,1.0344359,0.039999668,0.04,-3.8165236,3.982823133468628,8.112175,0.0,-0.0,0.0
1831.883333331996,0.21946518,-1.2700456,-0.42359376,-2.13853,-0.2664782,2.108779,1.0344359,0.039999668,0.04,-3.8165236,3.982823133468628,8.112175,0.0,-0.0,0.0
1831.8999999986627,0.21946518,-1.2700456,-0.42359376,-2.13853,-0.2664782,2.108779,1.0344359,0.039999668,0.04,-3.8165236,3.982823133468628,8.112175,0.0,-0.0,0.0
1831.9166666653293,0.21946518,-1.2700456,-0.42359376,-2.13853,-0.2664782,2.108779,1.0344359,0.039999668,0.04,-3.8165236,3.982823133468628,8.112175,0.0,-0.0,0.0
1831.933333331996,0.21946518,-1.2700456,-0.42359376,-2.13853,-0.2664782,2.108779,1.0344359,0.039999668,0.04,-3.8165236,3.982823133468628,8.112175,0.0,-0.0,0.0
1831.9499999986626,0.21946518,-1.2700456,-0.42359376,-2.13853,-0.2664782,2.108779,1.0344359,0.039999668,0.04,-3.8165236,3.982823133468628,8.112175,0.0,-0.0,0.0
1831.9666666653293,0.21946518,-1.2700456,-0.42359376,-2.13853,-0.2664782,2.108779,1.0344359,0.039999668,0.04,-3.8165236,3.982823133468628,8.112175,0.0,-0.0,0.0
1831.983333331996,0.21946518,-1.2700456,-0.42359376,-2.13853,-0.2664782,2.108779,1.0344359,0.039999668,0.04,-3.8165236,3.982823133468628,8.112175,0.0,-0.0,0.0
1831.9999999986626,0.21946518,-1.2700456,-0.42359376,-2.13853,-0.2664782,2.108779,1.0344359,0.039999668,0.04,-3.8165236,3.982823133468628,8.112175,0.0,-0.0,0.0
1832.0166666653292,0.21946518,-1.2700456,-0.42359376,-2.13853,-0.2664782,2.108779,1.0344359,0.039999668,0.04,-3.8165236,3.982823133468628,8.112175,0.0,-0.0,0.0
1832.033333331996,0.21946518,-1.2700456,-0.42359376,-2.13853,-0.2664782,2.108779,1.0344359,0.039999668,0.04,-3.8165236,3.982823133468628,8.112175,0.0,-0.0,0.0
1832.0499999986625,0.21946518,-1.2700456,-0.42359376,-2.13853,-0.2664782,2.108779,1.0344359,0.039999668,0.04,-3.8165236,3.982823133468628,8.112175,0.0,-0.0,0.0
1832.0666666653292,0.21946518,-1.2700456,-0.42359376,-2.13853,-0.2664782,2.108779,1.0344359,0.039999668,0.04,-3.8165236,3.982823133468628,8.112175,0.0,-0.0,0.0
1832.0833333319958,0.21946518,-1.2700456,-0.42359376,-2.13853,-0.2664782,2.108779,1.0344359,0.039999668,0.04,-3.8165236,3.982823133468628,8.112175,0.0,-0.0,0.0
1832.0999999986625,0.21946518,-1.2700456,-0.42359376,-2.13853,-0.2664782,2.108779,1.0344359,0.039999668,0.04,-3.8165236,3.982823133468628,8.112175,0.0,-0.0,0.0
1832.1166666653291,0.21946518,-1.2700456,-0.42359376,-2.13853,-0.2664782,2.108779,1.0344359,0.039999668,0.04,-3.8165236,3.982823133468628,8.112175,0.0,-0.0,0.0
1832.1333333319958,0.21946518,-1.2700456,-0.42359376,-2.13853,-0.2664782,2.108779,1.0344359,0.039999668,0.04,-3.8165236,3.982823133468628,8.112175,0.0,-0.0,0.0
1832.1499999986625,0.21946518,-1.2700456,-0.42359376,-2.13853,-0.2664782,2.108779,1.0344359,0.039999668,0.04,-3.8165236,3.982823133468628,8.112175,0.0,-0.0,0.0
1832.166666665329,0.21946518,-1.2700456,-0.42359376,-2.13853,-0.2664782,2.108779,1.0344359,0.039999668,0.04,-3.8165236,3.982823133468628,8.112175,0.0,-0.0,0.0
1832.1833333319958,0.21946518,-1.2700456,-0.42359376,-2.13853,-0.2664782,2.108779,1.0344359,0.039999668,0.04,-3.8165236,3.982823133468628,8.112175,0.0,-0.0,0.0
1832.1999999986624,0.21946518,-1.2700456,-0.42359376,-2.13853,-0.2664782,2.108779,1.0344359,0.039999668,0.04,-3.8165236,3.982823133468628,8.112175,0.0,-0.0,0.0
1832.216666665329,0.21946518,-1.2700456,-0.42359376,-2.13853,-0.2664782,2.108779,1.0344359,0.039999668,0.04,-3.8165236,3.982823133468628,8.112175,0.0,-0.0,0.0
1832.2333333319957,0.21946518,-1.2700456,-0.42359376,-2.13853,-0.2664782,2.108779,1.0344359,0.039999668,0.04,-3.8165236,3.982823133468628,8.112175,0.0,-0.0,0.0
1832.2499999986624,0.21946518,-1.2700456,-0.42359376,-2.13853,-0.2664782,2.108779,1.0344359,0.039999668,0.04,-3.8165236,3.982823133468628,8.112175,0.0,-0.0,0.0
1832.266666665329,0.21946518,-1.2700456,-0.42359376,-2.13853,-0.2664782,2.108779,1.0344359,0.039999668,0.04,-3.8165236,3.982823133468628,8.112175,0.0,-0.0,0.0
1832.2833333319957,0.21946518,-1.2700456,-0.42359376,-2.13853,-0.2664782,2.108779,1.0344359,0.039999668,0.04,-3.8165236,3.982823133468628,8.112175,0.0,-0.0,0.0
1832.2999999986623,0.21946518,-1.2700456,-0.42359376,-2.13853,-0.2664782,2.108779,1.0344359,0.039999668,0.04,-3.8165236,3.982823133468628,8.112175,0.0,-0.0,0.0
