rsonawane2002/My_IMU/logs_2/traj_496/clean_496.csv
time,j1,j2,j3,j4,j5,j6,j7,gripper1,gripper2,imu_ax,imu_ay,imu_az,imu_gx,imu_gy,imu_gz,quat_x,quat_y,quat_z,quat_w
2708.283333340207,0.00016700293,-0.785875,4.0107683e-05,-2.3551247,9.29385e-05,1.570997,0.786,0.04,0.04,0.0,-0.0,0.0,2.875329272945135e-08,-0.0011641195053377316,4.421952117202833e-08,0.9999995971961153,0.00020320632366974898,0.0008736418299892524,3.263050917662294e-05
2708.3000000068737,0.00016700783,-0.78576016,4.011138e-05,-2.3552213,9.2980845e-05,1.5709941,0.786,0.04,0.04,-0.29199845942944336,-3.8829091967169114e-05,0.02012840765044377,3.458340641346503e-07,-0.002237584978074658,6.081884667634385e-07,0.9999996850586079,0.0002032073077309235,0.0007665025170090262,3.260930313992645e-05
2708.3166666735406,0.00016702701,-0.78565425,4.00923e-05,-2.35531,9.306709e-05,1.5709913,0.786,0.04,0.04,0.02326285417857399,-2.174708399644578e-05,-0.00163658014040724,2.409679943474152e-06,-0.0032244714521364316,4.254050373839354e-06,0.9999997558643092,0.0002032088161491592,0.000667767435963659,3.26213202639352e-05
2708.3333333402074,0.00016708355,-0.7855569,4.0013896e-05,-2.355391,9.3273935e-05,1.5709884,0.786,0.04,0.04,0.022460755274877897,-6.11862337323698e-05,-0.0015249350314494592,7.68671479390849e-06,-0.0041287193580818995,1.381394245476091e-05,0.999999812272699,0.00020321224283960536,0.0005771385464283117,3.27177252928964e-05
2708.3500000068743,0.00016721028,-0.78546727,3.9823717e-05,-2.3554652,9.371024e-05,1.5709856,0.786,0.04,0.04,0.020255464384577593,-0.00011657120784615369,-0.00132373755157289,1.818455875479242e-05,-0.004952124381569972,3.122163327028023e-05,0.9999998568825766,0.00020321975011444377,0.0004938111594872376,3.297117195715538e-05
2708.366666673541,0.00016744873,-0.78538465,3.945502e-05,-2.355532,9.4529634e-05,1.5709827,0.786,0.04,0.039999995,0.020340073080826748,-0.00019816163764993944,-0.0007275739241086043,3.535201583684837e-05,-0.005697518330879065,6.13833840295233e-05,0.9999998915524989,0.0002032341906428269,0.0004176958304666285,3.348204213125055e-05
2708.383333340208,0.00016784846,-0.7853086,3.8828493e-05,-2.3555956,9.588499e-05,1.5709797,0.7860018,0.04,0.039999995,0.012480278626947339,-0.0002725636594126451,-0.002455430806280745,6.063605868186985e-05,-0.0063666068235173215,0.00010293721165339392,0.9999999185919457,0.00020415306485010808,0.0003463486989747144,3.4354136469475636e-05
2708.400000006875,0.00016846588,-0.7852385,3.785321e-05,-2.3556538,9.795708e-05,1.5709767,0.7860037,0.04,0.04,0.015910940534902274,-0.0003625527070901999,-0.0009557514971447745,8.752010432353533e-05,-0.006977888165831504,0.00015839885095574334,0.999999938917172,0.0002051458367865831,0.0002807234182326346,3.570994672114167e-05
2708.416666673542,0.00016936348,-0.785174,3.642775e-05,-2.3557053,0.00010097882,1.5709734,0.7860056,0.04,0.039999995,0.01742740380366037,-0.0004854750625392563,-0.0004790408571819782,0.00012510987592151678,-0.007521475834068451,0.0002317368080118216,0.9999999536054222,0.00020615753910140766,0.00022105834788774235,3.770184938025432e-05
2708.4333333402087,0.00017060965,-0.78511477,3.4441822e-05,-2.3557549,0.00010517004,1.5709667,0.7860084,0.04,0.039999995,0.007983106784026361,-0.0005935999404061343,-0.004625969068006164,0.00017565302906771623,-0.00799284080744435,0.0003220403745774585,0.9999999642900811,0.00020764018692417496,0.00016330029406099147,4.0477194253492624e-05
2708.4500000068756,0.00017227749,-0.7850599,3.1777137e-05,-2.3557985,0.00011076792,1.5709599,0.78601223,0.04,0.04,0.014969313095480885,-0.0007123977120120214,6.420820515273817e-05,0.00023617959827823903,-0.00842607431184358,0.00043066283274110714,0.9999999709212197,0.00020965868047642216,0.00011066783376913424,4.419760153521615e-05
2708.4666666735425,0.00017444452,-0.78500956,2.8308092e-05,-2.3558404,0.00011804255,1.5709528,0.78601795,0.04,0.04,0.007666318998023058,-0.0008503800550215619,-0.002065897257863547,0.0003075516103449733,-0.008791794903564843,0.0005596900234493337,0.9999999743280935,0.00021266593355229613,6.092568778584934e-05,4.9041549917744906e-05
2708.4833333402094,0.00017719196,-0.784963,2.3902943e-05,-2.3558772,0.00012727354,1.5709423,0.7860237,0.04,0.04,0.012074418968266443,-0.0009930683626329924,-0.0023095135993633775,0.0003873351849881025,-0.009107563432262803,0.0007104010844531237,0.9999999751118286,0.00021571414850908322,1.404400656881708e-05,5.519523704096129e-05
2708.5000000068762,0.00018060437,-0.7849201,1.8424242e-05,-2.355912,0.00013876206,1.5709313,0.7860313,0.04,0.039999995,0.007111396621173327,-0.0011485564082800586,-0.0015698657487961398,0.0004854332315426355,-0.009371421113346217,0.0008848651481766199,0.999999973417233,0.00021976360690304013,-3.0305189170503825e-05,6.285766364761349e-05
2708.516666673543,0.00018476948,-0.7848805,1.1730347e-05,-2.3559446,0.00015277823,1.5709169,0.78604084,0.04,0.04,0.006243269843109189,-0.0012793157221401951,-0.0035132806114335224,0.000594465450491836,-0.00958537149361109,0.0010798185010539834,0.9999999694089281,0.00022482051471877013,-7.364193557807886e-05,7.221318656149135e-05
2708.53333334021,0.0001897771,-0.78484386,3.6752936e-06,-2.3559725,0.00016963275,1.5708994,0.7860523,0.039999995,0.04,0.010352005288782884,-0.001438129995370472,-0.0018321829483580743,0.0007158232312558007,-0.00976101809485366,0.0012984466313760408,0.999999963284688,0.00023089154171857809,-0.00011468487383752067,8.346914580594559e-05
2708.550000006877,0.00019571911,-0.7848099,-5.8904293e-06,-2.3559997,0.00018964364,1.5708802,0.7860658,0.03999999,0.039999995,0.003654884914916501,-0.0015999372688413652,-0.0024480808568316803,0.0008506217536279054,-0.009884807011805743,0.001541529231925453,0.9999999549803484,0.00023807329570645937,-0.0001548646834282289,9.68366502299122e-05
2708.5666666735438,0.00020268947,-0.78477836,-1.7118971e-05,-2.356025,0.0002131287,1.5708574,0.7860821,0.039999988,0.03999999,0.004813509596313104,-0.001761020472747601,-0.0031987555044743488,0.0009991444032548258,-0.009967826293277242,0.0018092901829367567,0.9999999442922517,0.0002467003264333708,-0.00019465842125224238,0.00011252795851785102
2708.5833333402106,0.00021078315,-0.784749,-3.0164872e-05,-2.3560464,0.00024041042,1.5708308,0.78610116,0.039999988,0.03999999,0.007649907841189574,-0.0019241262881337007,-0.002350425030406278,0.001160026530027941,-0.01001370998618432,0.002101890845086951,0.9999999312421733,0.00025680945229333114,-0.00023338086267675768,0.00013075904073798846
2708.6000000068775,0.00022009648,-0.7847217,-4.5184497e-05,-2.3560665,0.00027181543,1.5708004,0.78612286,0.039999984,0.039999988,0.00353390880578619,-0.0020893954286643596,-0.0033862026368902676,0.0013335466443561218,-0.01001400241133452,0.002419617348107704,0.9999999154277465,0.0002683184481269175,-0.00027225414779989124,0.0001517477821204855
2708.6166666735444,0.0002307265,-0.78469616,-6.233561e-05,-2.3560855,0.00030767292,1.570766,0.78614765,0.039999977,0.03999998,0.0023198882926678266,-0.002255979088935733,-0.0036089708201902937,0.0015224516720213823,-0.009978596941484496,0.0027626874743461056,0.9999998963437657,0.000281472911715663,-0.00031178524553534794,0.00017571402428813738
2708.6333333402113,0.00024277094,-0.7846723,-8.177685e-05,-2.3561034,0.00034831447,1.5707269,0.78617567,0.039999973,0.039999977,0.002405768349933446,-0.002424175615530074,-0.003878380854871466,0.0017250884513220696,-0.009908378461835708,0.003131253293788383,0.9999998734844913,0.000296339440183019,-0.00035221293076655744,0.00020287924744594993
2708.650000006878,0.00025632782,-0.78464985,-0.000103667764,-2.3561184,0.00039407288,1.5706825,0.78620726,0.039999966,0.03999997,0.004724425272395472,-0.002592573808895296,-0.003403864393547451,0.0019419998306781307,-0.009808146169684643,0.003525409574144628,0.9999998464462314,0.00031310383486765256,-0.00039315021005064917,0.00023346608862065353
2708.666666673545,0.00027149543,-0.78462875,-0.00012816768,-2.3561316,0.00044528116,1.5706329,0.7862426,0.03999996,0.039999966,0.0031056774400184395,-0.0027617353685131492,-0.003831912256702097,0.0021728996255467553,-0.009669133218954915,0.003945193075079634,0.9999998144579966,0.0003318623998480898,-0.00043507440776354025,0.0002676968057532738
2708.683333340212,0.0002883718,-0.7846088,-0.00015543653,-2.3561435,0.0005022727,1.5705783,0.7862818,0.039999958,0.03999996,0.0017041662245365075,-0.002930411993545595,-0.0038405690627740796,0.002418052363492244,-0.009496483717057202,0.004390591146285058,0.9999997766463414,0.0003526819511313164,-0.00047834370185634187,0.0003057940672813413
2708.700000006879,0.00030705496,-0.7845899,-0.00018563341,-2.356155,0.0005653796,1.5705174,0.7863254,0.03999995,0.039999954,1.0829480512342116e-05,-0.0030993632037258243,-0.005105923806358881,0.0026774419243063953,-0.009290627392746588,0.004861540249253643,0.9999997315506053,0.0003758075263671808,-0.0005240018601598826,0.0003479791246583568
2708.7166666735457,0.0003276427,-0.7845718,-0.00021891708,-2.3561664,0.00063493336,1.5704509,0.7863734,0.039999943,0.03999995,-0.0008340724371169728,-0.003268085182977869,-0.004652447094777301,0.002950507960658591,-0.009059933639301963,0.005357082950041596,0.9999996780638895,0.0004012757343500738,-0.0005720496022613356,0.00039447326265308846
2708.7333333402125,0.00035023197,-0.7845546,-0.00025544534,-2.3561752,0.0007112649,1.5703777,0.7864262,0.039999936,0.03999994,0.003284335088693524,-0.0034363752413714595,-0.0042731250252225905,0.0032374886060198864,-0.008803180466723206,0.005879663202823914,0.9999996153525997,0.0004293012322417313,-0.0006217129553270274,0.00044549759343711525
2708.7500000068794,0.00037491936,-0.784538,-0.0002953753,-2.3561826,0.0007947002,1.5702978,0.7864837,0.039999932,0.039999936,0.0009989459579529125,-0.0036019126109706643,-0.0046743766317636215,0.0035375423121197062,-0.008512707099561603,0.0064265268658085265,0.9999995417007418,0.0004598309367164784,-0.0006737080608650213,0.0005012696527667066
2708.7666666735463,0.00040180061,-0.7845219,-0.00033886242,-2.356189,0.0008855645,1.5702108,0.7865465,0.039999932,0.039999936,-2.396139286986454e-05,-0.0037683375349787437,-0.005210844853409391,0.00385201345417882,-0.00819263032099386,0.006998313722816991,0.9999994550795301,0.0004931688393162294,-0.0007285427297506074,0.0005620058980957763
2708.783333340213,0.00043097054,-0.7845064,-0.00038606118,-2.3561943,0.0009841797,1.5701165,0.7866146,0.03999994,0.039999947,0.0004130911362976164,-0.003932158153574972,-0.005226382181433564,0.004179224328831141,-0.007846365115246848,0.007593951071316652,0.999999353783599,0.0005292910328494413,-0.0007861287013935764,0.0006279212146149236
2708.80000000688,0.00046252305,-0.78449124,-0.00043712425,-2.3561985,0.0010908656,1.5700145,0.7866882,0.03999994,0.039999947,-0.00040137340651114073,-0.004096220875185789,-0.005554766299131764,0.004520246131958227,-0.007472174823524787,0.008214869052289735,0.9999992353703594,0.0005683520938222065,-0.0008469441927940062,0.0006992282377397993
2708.816666673547,0.0004965512,-0.7844764,-0.00049220264,-2.3562026,0.0012059365,1.5699046,0.7867676,0.039999936,0.039999943,-0.0017144820928960414,-0.0042576512454419405,-0.00593225466130054,0.004874494887159552,-0.007072804757426765,0.00885993285563073,0.9999990971056865,0.0006104766026390626,-0.0009114377622236499,0.0007761361575285754
2708.833333340214,0.0005331466,-0.7844616,-0.00055144564,-2.3562064,0.0013297042,1.5697863,0.78685296,0.039999943,0.03999995,-0.0021225580329353733,-0.004417640919661013,-0.00615374288766013,0.005241662798819588,-0.0066518460335074445,0.009528825748853375,0.9999989360065932,0.0006557591184626752,-0.0009799687071303997,0.0008588521369559856
2708.8500000068807,0.00057239964,-0.784447,-0.0006150005,-2.3562098,0.0014624757,1.5696592,0.78694457,0.03999995,0.039999958,-0.001730020412127331,-0.004575621306582506,-0.006470031332894699,0.005621706176920696,-0.006211040694854911,0.010221211397507902,0.9999987490062818,0.0007043531830143838,-0.0010525985321387613,0.0009475804953809183
2708.8666666735476,0.0006143997,-0.78443253,-0.00068301253,-2.356212,0.0016045537,1.5695235,0.7870427,0.039999954,0.03999996,-0.0005369285957845804,-0.00473074972120349,-0.00602604422661468,0.006014311096236337,-0.005749693968666548,0.010936755174108324,0.9999985332600482,0.0007563823423135688,-0.0011289418841265119,0.001042522770477719
2708.8833333402144,0.0006592346,-0.7844181,-0.0007556244,-2.3562129,0.0017562374,1.5693783,0.78714746,0.03999996,0.03999997,-0.0008207422973249834,-0.004886371904670012,-0.006526449405508394,0.006418876108756348,-0.005262802129167127,0.011675076227945409,0.9999982848377506,0.000811939585241283,-0.0012093884467700676,0.001143877288798528
2708.9000000068813,0.00070699106,-0.78440356,-0.00083297695,-2.3562129,0.0019178195,1.569224,0.787259,0.039999966,0.039999973,-0.0013021228401521867,-0.00503759616642379,-0.0062667225326995535,0.006835078896808451,-0.0047530771158096445,0.012435809526733616,0.9999979998966426,0.00087105876346409,-0.0012939704127061876,0.0012518386141459612
2708.916666673548,0.00075775397,-0.78438896,-0.00091520854,-2.3562124,0.0020895898,1.5690597,0.7873776,0.03999997,0.039999977,-0.002337026443166579,-0.005189214141204006,-0.0072273742900419435,0.0072637006183780125,-0.004219653539581543,0.013218541013757475,0.9999976732328217,0.0009339216377481126,-0.001383376024913753,0.0013665979990341395
2708.933333340215,0.00081160705,-0.78437436,-0.0010024551,-2.3562114,0.0022718306,1.5688856,0.7875033,0.039999973,0.03999998,-0.002223629162600993,-0.005336046964600494,-0.007173030660445612,0.007703592917924833,-0.0036685276977507977,0.014022860446446371,0.9999973003521304,0.0010005310607437642,-0.0014775186767798138,0.0014883429065424897
2708.950000006882,0.00086863234,-0.78435946,-0.0010948502,-2.3562095,0.002464822,1.568701,0.78763646,0.039999977,0.039999984,-0.0018824818272200616,-0.005482881660727858,-0.007146708310545868,0.008155253988296552,-0.003097318374717467,0.014848365009575194,0.999996875883617,0.0010710680539974694,-0.0015765506730058307,0.0016172582369774569
2708.966666673549,0.0009289103,-0.7843443,-0.0011925249,-2.3562071,0.0026688366,1.5685062,0.78777725,0.03999997,0.039999977,-0.0025767455817060636,-0.005625885999168334,-0.00730732099529785,0.00861807587539931,-0.002506334375688266,0.015694607550856787,0.999996394093204,0.0011456243844777821,-0.0016806244665619483,0.0017535240978161987
2708.9833333402157,0.0009925195,-0.7843289,-0.0012956078,-2.3562036,0.0028841416,1.5683007,0.78792584,0.039999966,0.039999973,-0.001565984503071327,-0.005765439893950868,-0.007308237419234587,0.0090914411428311,-0.0018955370583572644,0.016561157542859056,0.999995849209873,0.0012242905964937032,-0.001789654365459181,0.0018973172671877326
2709.0000000068826,0.0010595379,-0.78431326,-0.001404224,-2.3561997,0.0031110004,1.5680841,0.78808236,0.03999997,0.039999977,-0.003151399860468196,-0.0059077735498070695,-0.008073515087669847,0.009575305316052057,-0.0012635974441535473,0.017447563959290313,0.99999523382053,0.0013071269799743556,-0.0019042403556091944,0.002048810374255477
2709.0166666735495,0.0011300409,-0.78429717,-0.0015184969,-2.356196,0.0033496683,1.5678563,0.78824705,0.03999997,0.03999998,-0.003907155139426521,-0.00604365713862381,-0.008103324238217802,0.010069612596800875,-0.0006151246440255134,0.01835252499164123,0.9999945402685203,0.0013942538516844808,-0.002024714610690831,0.0022081712100521884
2709.0333333402164,0.0012041018,-0.7842806,-0.0016385473,-2.3561919,0.003600398,1.5676167,0.78842,0.039999973,0.039999984,-0.003673400799542037,-0.006178353584514792,-0.00844237120212199,0.010573757179707847,4.6873171892173465e-05,0.019277265332369835,0.9999937606664057,0.001485730664498513,-0.002151260481554085,0.0023755654047833367
2709.0500000068832,0.0012817938,-0.7842638,-0.0017644919,-2.3561876,0.0038634348,1.5673654,0.7886017,0.039999973,0.039999984,-0.003355631420531857,-0.006311560260294398,-0.008489555941237903,0.011087679402677223,0.0007226682713785994,0.02022047621251319,0.9999928871394845,0.0015817648391731113,-0.0022837043761418964,0.002551153612415016
2709.06666667355,0.0013631872,-0.7842464,-0.0018964465,-2.3561833,0.004139017,1.5671021,0.78879195,0.039999977,0.039999988,-0.00424802610667907,-0.006440317560637947,-0.00866426683698851,0.011609931032370175,0.0014148406844608826,0.021181668361392552,0.999991910222287,0.0016822964133558049,-0.0024225280348431724,0.0027350917131888173
2709.083333340217,0.0014483507,-0.7842286,-0.002034523,-2.356178,0.004427378,1.5668267,0.7889909,0.03999997,0.039999984,-0.002348033025012519,-0.0065647741563972396,-0.008370196029283683,0.01214154854866635,0.0021194781834600676,0.022159550787110502,0.9999908222565621,0.0017873826691479928,-0.002567140908769991,0.0029275336707336014
2709.100000006884,0.0015373514,-0.78421015,-0.0021788296,-2.3561716,0.0047287494,1.5665387,0.78919894,0.03999997,0.039999984,-0.0025040758682592923,-0.00669362307825468,-0.008507872175567144,0.012682668676301098,0.0028431182662045362,0.02315530959760818,0.9999896125978908,0.0018971993365330282,-0.0027179068244273627,0.0031286280526039915
2709.1166666735508,0.0016302553,-0.78419125,-0.0023294738,-2.3561647,0.0050433488,1.5662383,0.789416,0.039999966,0.03999998,-0.003291764105295414,-0.006812860197498135,-0.008822668984787008,0.01323165668682641,0.003582072875540729,0.024167645469470072,0.9999882709365401,0.002011744338499206,-0.002874921232365553,0.0033385179306066985
2709.1333333402176,0.0017271255,-0.78417176,-0.0024865586,-2.3561573,0.005371394,1.565925,0.78964245,0.039999966,0.03999998,-0.0036144677393101787,-0.006935411566246115,-0.00908023361800847,0.013789219997078602,0.004338232828901736,0.02519603665325993,0.9999867853413476,0.0021311629557872864,-0.003038518836004295,0.0035573431682670666
2709.1500000068845,0.0018280242,-0.78415155,-0.002650185,-2.3561494,0.0057130973,1.5655988,0.78987825,0.039999966,0.03999998,-0.0037208824341661284,-0.00705398424206429,-0.009015399423994985,0.014354220930315319,0.005107431285617969,0.02624002653838354,0.9999851442457618,0.0022554516233300845,-0.0032087660028738275,0.003785240612778479
2709.1666666735514,0.001933011,-0.7841309,-0.0028204517,-2.3561413,0.0060686595,1.5652592,0.7901235,0.03999996,0.039999977,-0.00402187915231611,-0.007167246967929291,-0.00970528649386626,0.01492685281081877,0.005890284117152415,0.02729907838126045,0.9999833345477668,0.0023846646709149333,-0.003385968071695902,0.004022340283222806
2709.1833333402183,0.0020421445,-0.7841095,-0.0029974526,-2.3561318,0.0064382805,1.5649062,0.7903785,0.03999996,0.039999977,-0.002199549352055463,-0.007278431920988921,-0.008945661711190489,0.015507256634628201,0.006685561425518995,0.028372747014668603,0.9999813451475429,0.0025189151079655363,-0.0035695965673048363,0.004268770775798884
2709.200000006885,0.0021554823,-0.78408736,-0.00318128,-2.356122,0.00682215,1.5645398,0.7906434,0.03999997,0.039999988,-0.004227576377369147,-0.0073918476754671406,-0.0095762300962976,0.016094307638129347,0.007496549054681018,0.029459656417261552,0.9999791603111101,0.0026582872330025496,-0.0037603154108491847,0.00452465252643468
2709.216666673552,0.0022730776,-0.7840647,-0.003372024,-2.356112,0.007220458,1.5641595,0.7909183,0.039999966,0.039999984,-0.004111044233834349,-0.007500318504028575,-0.009947153829426014,0.01668767663572525,0.008320942081867467,0.030561027153520742,0.9999767654706371,0.0028028340648676956,-0.003958222578311885,0.004790105855572324
2709.233333340219,0.0023949847,-0.78404135,-0.0035697708,-2.356101,0.007633384,1.563765,0.79120326,0.03999996,0.03999998,-0.0031752216156366586,-0.007605836008297857,-0.009793336800911767,0.017287202591395233,0.009155338556965582,0.03167552565305845,0.9999741461826738,0.0029525763605136256,-0.004163237496706548,0.005065245563047271
2709.250000006886,0.0025212541,-0.7840171,-0.0037746034,-2.3560898,0.0080611,1.5633566,0.79149854,0.039999966,0.03999999,-0.0044752473638887125,-0.007709083191564849,-0.009841208781891098,0.017892563969104047,0.010003618569393753,0.032799989134861304,0.9999712853418776,0.003107627648870665,-0.004375697677249131,0.005350178683626767
2709.2666666735527,0.0026519366,-0.78399223,-0.003986603,-2.3560784,0.008503779,1.5629338,0.791804,0.039999966,0.04,-0.004259485262103624,-0.007815231055928722,-0.010368908998414916,0.018502830716318586,0.01086182458390364,0.03393759999604897,0.9999681665200422,0.0032679175860730824,-0.004595701721382737,0.005645014338670171
2709.2833333402195,0.0027870792,-0.78396666,-0.004205848,-2.3560662,0.008961576,1.5624968,0.7921199,0.039999966,0.039999995,-0.0034723488808285907,-0.007904165516232648,-0.009911015650976296,0.019119440461505197,0.011730070002071342,0.03508922587609911,0.9999647738775308,0.0034335569947114303,-0.004822962140855707,0.005949850973821216
2709.3000000068864,0.002926728,-0.78394026,-0.004432413,-2.356054,0.009434651,1.562045,0.7924464,0.03999997,0.039999995,-0.004959613628585657,-0.008009036491482546,-0.010617501790965989,0.01974080086974861,0.012612368874594555,0.036252088503121456,0.999961086209204,0.003604595113038241,-0.005058204856212728,0.0062647845144481
2709.3166666735533,0.0030709282,-0.783913,-0.004666368,-2.356042,0.009923161,1.5615784,0.7927835,0.039999966,0.04,-0.004918189953295737,-0.008111697805414462,-0.010621578469760529,0.020366820368694333,0.013500895214908194,0.03742303222973199,0.9999570846933994,0.003781080120309654,-0.005301441009983826,0.006589911063068799
2709.33333334022,0.003219721,-0.783885,-0.0049077854,-2.3560293,0.0104272505,1.5610971,0.7931313,0.03999996,0.04,-0.003966495189700048,-0.008194908499562815,-0.010353730872858513,0.020996887338572356,0.014396271872358025,0.038605020051590146,0.9999527518400365,0.003963001771305324,-0.005552353951758374,0.006925320937941654
2709.350000006887,0.0033731486,-0.7838562,-0.0051567317,-2.3560164,0.010947051,1.5606011,0.79349,0.039999966,0.04,-0.004362627446097278,-0.008282699606062139,-0.010555094669895126,0.02163150293046056,0.01530296806270113,0.039797451820428,0.9999480664147006,0.004150466640717123,-0.005811134900132187,0.007271094232526076
2709.366666673554,0.0035312502,-0.7838267,-0.00541327,-2.3560028,0.011482705,1.5600897,0.7938597,0.039999966,0.04,-0.003628576160141783,-0.008375972673897118,-0.0108227705843289,0.02226972373878371,0.01621963222460659,0.04099903252544496,0.9999430073469684,0.004343518303582696,-0.006077826177663136,0.007627315097797012
2709.383333340221,0.0036940628,-0.78379637,-0.005677461,-2.3559885,0.012034333,1.559563,0.7942405,0.039999966,0.04,-0.003675302944783354,-0.008455896517992403,-0.010670828599534943,0.02291063996988921,0.01714477952266731,0.042209316968812124,0.9999375532978746,0.00454214393880327,-0.006352440276498809,0.00799405626905446
2709.4000000068877,0.003861622,-0.78376526,-0.0059493636,-2.3559732,0.012602055,1.5590208,0.7946322,0.03999997,0.04,-0.0032676767186101685,-0.00853625245996548,-0.010868318450407699,0.02355438410499456,0.018081571526368398,0.04342783082238199,0.9999316821727121,0.004746297538271326,-0.006635019634515488,0.008371389453249922
2709.4166666735546,0.004033962,-0.7837332,-0.0062290328,-2.3559577,0.013185996,1.5584633,0.7950351,0.039999973,0.04,-0.004474964048117869,-0.008625578501309655,-0.010740096825290202,0.02420178712227658,0.019026146686258204,0.04465403319565431,0.9999253691423586,0.00495608732332375,-0.0069257871684876285,0.008759384456586437
2709.4333333402215,0.0042111147,-0.78370035,-0.0065165237,-2.355942,0.013786255,1.5578903,0.7954494,0.039999973,0.04,-0.00437192113331708,-0.008696964004291114,-0.011202648753450006,0.024851315439769876,0.019980573398394777,0.04588748114405987,0.9999185891563629,0.005171555266728603,-0.007224906177533377,0.009158100588973405
2709.4500000068883,0.004393113,-0.7836665,-0.0068118838,-2.3559258,0.014402949,1.5573013,0.79587483,0.03999998,0.04,-0.004284618496597226,-0.008785918319067013,-0.011233794945675335,0.025502668588885433,0.020940737586647974,0.04712852757917995,0.9999113165917723,0.005392622490562276,-0.007532569141277461,0.00956760035299483
2709.466666673555,0.004579983,-0.78363186,-0.0071151606,-2.3559086,0.015036179,1.5566968,0.79631186,0.039999977,0.04,-0.003015686341845125,-0.008851510967365812,-0.010798131805711542,0.026156502497395567,0.021907237960161655,0.04837493138695023,0.9999035296365806,0.00561945152718876,-0.007848196388357027,0.00998794264557551
2709.483333340222,0.0047717523,-0.7835962,-0.007426398,-2.3558912,0.015686033,1.5560764,0.79676026,0.039999977,0.04,-0.004535302821695453,-0.008928837942339014,-0.011263195823207894,0.02681087346515037,0.02288420583365617,0.049627980477859567,0.9998951978117514,0.0058519362594481724,-0.008172457733184762,0.01041917317320795
2709.500000006889,0.004968449,-0.7835598,-0.0077456394,-2.3558724,0.016352588,1.5554402,0.79722023,0.039999973,0.04,-0.002202499308734396,-0.008978500363338027,-0.010859424253228944,0.027466951417572168,0.023867418452962308,0.05088477819729551,0.9998862997243576,0.006090142058122953,-0.00850465435705361,0.010861337280066063
2709.516666673556,0.005170095,-0.7835226,-0.008072925,-2.3558533,0.017035926,1.5547876,0.7976917,0.039999977,0.04,-0.00429713011973476,-0.00905604031082273,-0.01176533010416314,0.028123621432723622,0.024862964396883395,0.052148108330856514,0.999876801200496,0.0063340212964537995,-0.00884563624052591,0.011314473685502537
2709.5333333402227,0.0053767147,-0.78348446,-0.008408291,-2.355834,0.017736122,1.5541192,0.7981749,0.039999984,0.04,-0.004283344263678046,-0.009120212362791896,-0.011313186177464019,0.02878111091419916,0.02586192175506352,0.05341507391947323,0.9998666742559528,0.00658367538251087,-0.009195272069740348,0.011778620562770981
2709.5500000068896,0.0055883285,-0.7834454,-0.008751768,-2.3558145,0.01845327,1.5534346,0.7986697,0.03999998,0.04,-0.00425988881769257,-0.009206587383775965,-0.011621028836827918,0.029438435089078997,0.026867705863204958,0.05468593335777202,0.9998558888009871,0.006838990281623265,-0.0095537266167678,0.012253821838436596
2709.5666666735565,0.005804954,-0.7834056,-0.009103394,-2.3557942,0.019187408,1.5527335,0.7991762,0.039999984,0.04,-0.003330324582506705,-0.009230901362823271,-0.01165529070257243,0.030096168994878016,0.027877042356055853,0.05596063488708433,0.9998444160894517,0.007100033437972406,-0.009920839190946992,0.012740097710393283
2709.5833333402234,0.006026611,-0.7833648,-0.009463192,-2.355774,0.019938601,1.5520166,0.79969454,0.03999999,0.04,-0.004546149921114129,-0.00930863859430961,-0.011406740663222337,0.030753345530590982,0.028893800880005753,0.05723890750258599,0.9998322234719995,0.007366815996592058,-0.01029680658350134,0.01323747344820512
2709.6000000068902,0.006253315,-0.7833231,-0.009831186,-2.3557534,0.020706918,1.551283,0.8002247,0.039999988,0.04,-0.004128441124562343,-0.009378350430739625,-0.012031413529256518,0.031409776344084435,0.02991562721458821,0.05851892441385281,0.9998192769839145,0.007639336998167768,-0.010681855794092171,0.013745976079757829
2709.616666673557,0.006485079,-0.7832804,-0.010207407,-2.3557327,0.021492396,1.5505335,0.80076665,0.039999988,0.04,-0.004063861929171075,-0.009407875870342218,-0.011277409569387942,0.03206529025913449,0.03093862591793953,0.05980116117557979,0.9998055478847758,0.007917523088232186,-0.011075706324366934,0.01426562218715679
2709.633333340224,0.0067219175,-0.78323674,-0.010591872,-2.3557117,0.022295086,1.5497671,0.80132043,0.03999999,0.04,-0.00411511014903887,-0.00948088582191104,-0.012190766554431853,0.03271960648625402,0.031968334501135606,0.061085062540887386,0.9997909978784703,0.008201397985651254,-0.011478824701155804,0.01479642577563806
2709.650000006891,0.006963842,-0.7831922,-0.010984601,-2.35569,0.023115035,1.5489845,0.80188626,0.039999995,0.04,-0.0030204894851282305,-0.009520800588334356,-0.011441501910303131,0.03337252903527784,0.032999332786365326,0.06237103860196268,0.9997755990839702,0.008491029524234936,-0.011890635469229065,0.015338405459664028
2709.6666666735578,0.0072108614,-0.78314674,-0.011385611,-2.3556676,0.023952255,1.5481852,0.80246395,0.039999995,0.04,-0.0031501693775526363,-0.009554601280634123,-0.01177353246775148,0.03402301724140127,0.03403597750792188,0.06365705931419516,0.9997593151499762,0.008786299123436954,-0.012311424867162985,0.015891555502986317
2709.6833333402246,0.007462985,-0.7831003,-0.011794917,-2.3556447,0.024806783,1.5473692,0.8030535,0.04,0.04,-0.003469927170196563,-0.009607720382232704,-0.011889600842662773,0.03467157520641549,0.03507815263494275,0.0649435551645055,0.999742109508308,0.009087180564037371,-0.01274133190242265,0.01645588304002581
2709.7000000068915,0.0077202185,-0.7830529,-0.012212527,-2.3556213,0.025678644,1.5465369,0.8036551,0.04,0.04,-0.0032806658747608353,-0.009652048414817913,-0.011627410450665288,0.03531818249023838,0.03612249707767687,0.06623080911941345,0.9997239478375164,0.00939373733092607,-0.013180199439560147,0.017031387549521108
2709.7166666735584,0.007982567,-0.78300464,-0.012638449,-2.3555975,0.026567852,1.5456879,0.8042687,0.04,0.04,-0.003238007988137781,-0.0096916147662756,-0.011937041205700716,0.03596153863571187,0.03717220477698532,0.06751688813351005,0.9997047919107551,0.009705937487423379,-0.013628197013404323,0.01761806045874109
2709.7333333402253,0.008250039,-0.7829554,-0.013072695,-2.3555732,0.027474444,1.5448223,0.80489427,0.04,0.04,-0.00318058679493749,-0.009745427940006761,-0.011821250647159331,0.03660171705381304,0.03822255286475635,0.0688028630235315,0.9996846053534891,0.010023692930774215,-0.014085314795695239,0.01821590805791001
2709.750000006892,0.008522633,-0.78290534,-0.013515263,-2.355548,0.0283984,1.5439403,0.8055318,0.04,0.04,-0.002128633975884142,-0.009752367222388286,-0.011586104002803133,0.03723871383737545,0.03927786975871047,0.07008682304173866,0.9996633556360993,0.010347001195830558,-0.014551216761844109,0.018824905189061575
2709.766666673559,0.008800351,-0.7828541,-0.013966156,-2.3555222,0.029339718,1.5430417,0.8061814,0.04,0.04,-0.0032640360444480265,-0.009790946111062557,-0.01170294018233431,0.03787228044674956,0.04033892584079979,0.07136914388712776,0.9996409975852959,0.010675866143870137,-0.015026401619794199,0.019445027207825902
2709.783333340226,0.009083194,-0.7828022,-0.0144253755,-2.3554957,0.030298425,1.5421263,0.8068428,0.04,0.04,-0.002194931444199355,-0.009840968352833185,-0.012112415313336733,0.03850150617582143,0.04140114046677162,0.07265022975564013,0.9996174973983151,0.011010156719232216,-0.015510591646475442,0.0200762768192639
2709.800000006893,0.00937116,-0.78274924,-0.014892919,-2.3554685,0.03127449,1.5411947,0.80751634,0.04,0.04,-0.002510793388399435,-0.009844220617528238,-0.011371544686089585,0.03912739735588427,0.04246782027627544,0.07392802017324657,0.999592815168078,0.011349971643982477,-0.016003781290952646,0.020718614635848117
2709.8166666735597,0.009664241,-0.7826955,-0.015368779,-2.355441,0.032267917,1.5402462,0.8082018,0.04,0.04,-0.0030021842296168444,-0.00989447190902805,-0.012247178724966723,0.039748555059213465,0.04353777829951202,0.07520385057723966,0.9995669061775652,0.01169518250165284,-0.016506348648307582,0.021372019913065875
2709.8333333402265,0.009962438,-0.7826406,-0.015852947,-2.3554132,0.033278678,1.5392815,0.80889934,0.04,0.04,-0.0027550662359487887,-0.00990722751858103,-0.011586592711476662,0.04036512100169964,0.04460826169209264,0.07647558237997211,0.9995397316335245,0.012045850430373917,-0.017018139376811497,0.02203645401470622
2709.8500000068934,0.010265739,-0.78258497,-0.01634542,-2.3553846,0.034306742,1.5383,0.8096086,0.04,0.04,-0.0019110998857430062,-0.009905410782475726,-0.011986127594454388,0.040975930907385154,0.04568128984653266,0.0777445561935342,0.999511255526742,0.01240172813513278,-0.017539022644316296,0.022711888941701047
2709.8666666735603,0.0105741415,-0.78252816,-0.016846176,-2.3553557,0.03535212,1.5373024,0.8103303,0.04,0.04,-0.0029870680355204016,-0.00997525802995218,-0.011588903916903703,0.04158313470287143,0.04675603104010442,0.07900868950617734,0.9994814270816401,0.012763174392097086,-0.0180692688073523,0.02339828675464836
2709.883333340227,0.010887631,-0.7824706,-0.017355207,-2.355327,0.03641478,1.5362877,0.81106365,0.04,0.04,-0.0030746150287752627,-0.009994340210472269,-0.012569340419887887,0.042182575661783545,0.047831209418928274,0.08026917681695422,0.9994502026738363,0.013129759288403462,-0.018609219975389214,0.024095616368199086
2709.900000006894,0.011206205,-0.7824119,-0.017872503,-2.355298,0.03749467,1.5352567,0.81180865,0.04,0.04,-0.0031171132587104466,-0.009985843375452316,-0.011748596606375727,0.04277730311666253,0.04890334093765955,0.08152395799819973,0.9994175440552563,0.013501429737347932,-0.019158660211329143,0.024803825683028354
2709.916666673561,0.011529849,-0.78235257,-0.018398037,-2.355269,0.038591716,1.5342091,0.81256545,0.04,0.04,-0.002173609954825295,-0.00997732192731457,-0.012305114954380691,0.04336746700462722,0.049974673116126384,0.0827697265936125,0.9993834102074923,0.013878223454191171,-0.019717465961881186,0.025522849602675785
2709.933333340228,0.011858549,-0.78229207,-0.018931786,-2.3552396,0.03970591,1.5331454,0.81333405,0.04,0.04,-0.0025393528549910727,-0.010012364369521923,-0.011531936113429175,0.043951847395723664,0.05104409974355239,0.08401393236805227,0.9993477569771236,0.014260117538874118,-0.020285661045942142,0.026252649932880526
2709.9500000068947,0.01219229,-0.7822308,-0.01947373,-2.3552096,0.040837213,1.5320652,0.81411463,0.04,0.04,-0.0013228270231202544,-0.010016854798410024,-0.011911529828889655,0.04452982444839321,0.05211328343623078,0.08525313766954927,0.9993105431689646,0.014647150547725063,-0.020863063304626984,0.026993182134167487
2709.9666666735616,0.012531059,-0.7821686,-0.02002385,-2.3551786,0.041985556,1.5309689,0.8149069,0.04,0.04,-0.0007775504528240162,-0.009987165948846868,-0.011291294836923704,0.045100719125755466,0.05318301232027572,0.08648455101048107,0.9992717343341739,0.015039144686205493,-0.02144933532276082,0.027744388659535543
2709.9833333402285,0.012874837,-0.78210545,-0.020582112,-2.355147,0.043150928,1.5298566,0.815711,0.04,0.04,-0.0012288617039946104,-0.010042955126140368,-0.011433772938640452,0.04566476871258269,0.05425722868817828,0.08771167165703928,0.9992312795286248,0.015436148524228912,-0.02204474229440991,0.02850622155772676
2710.0000000068953,0.013223614,-0.7820415,-0.02114849,-2.355115,0.044333193,1.5287278,0.81652683,0.04,0.04,-0.0017622255838567469,-0.010004229716583171,-0.01206608115662533,0.04622093365502084,0.05533055805022525,0.08892812382399166,0.9991891297541697,0.015838027527651306,-0.022649603518487497,0.029278581345306892
2710.016666673562,0.0135773625,-0.7819765,-0.021722952,-2.3550825,0.04553233,1.527583,0.8173543,0.04,0.04,-0.0013733021973605375,-0.010017621766892498,-0.011470195623508594,0.04677014868321911,0.056402899030614004,0.09013967736875123,0.9991452441462684,0.016244752663309336,-0.02326370519787009,0.030061422642121204
2710.033333340229,0.013936063,-0.78191066,-0.022305463,-2.355049,0.04674825,1.5264224,0.8181934,0.04,0.04,8.96238373515601e-05,-0.009978135818166159,-0.011121296900196143,0.04731151354653737,0.05747236978914745,0.09134299584460137,0.999099589730077,0.016656218197523668,-0.02388659325454574,0.030854673215578984
2710.050000006896,0.014299696,-0.78184384,-0.022895988,-2.3550148,0.047980897,1.5252457,0.81904393,0.04,0.04,-0.0011198235067233497,-0.010008420825280764,-0.011609338507723166,0.04784510732337684,0.0585463485593684,0.09253762400578948,0.9990521096286453,0.017072355082585984,-0.024518797635767097,0.031658261180669695
2710.066666673563,0.0146682365,-0.78177625,-0.023494495,-2.3549805,0.04923019,1.524053,0.81990594,0.04,0.04,-0.0011768494480923763,-0.009995367000931177,-0.011736518363369974,0.04837134841689699,0.05961790926212285,0.09372700965890154,0.9990027588514339,0.0174930952839272,-0.025160312037760528,0.03247211300137237
2710.0833333402297,0.015041663,-0.78170764,-0.02410094,-2.3549457,0.050496023,1.5228446,0.8207793,0.04,0.04,-0.0008561383937788491,-0.009959764094111603,-0.011321329213109799,0.04888921570399031,0.060686262965514846,0.09490344454327573,0.9989514951826269,0.017918370382158395,-0.02581104050408874,0.03329613285860859
2710.1000000068966,0.015419952,-0.7816382,-0.024715291,-2.3549104,0.051778365,1.5216204,0.82166415,0.04,0.04,-0.000545946257402008,-0.009980707873616032,-0.011427679233100285,0.04939924052660188,0.06175322776393156,0.0960747521608086,0.9988982729552356,0.018348166798759502,-0.026470919626304375,0.0341302721394105
2710.1166666735635,0.015803073,-0.78156775,-0.025337495,-2.3548748,0.053077094,1.5203805,0.8225603,0.04,0.04,-0.0010185406983831413,-0.009955592959873596,-0.011448634003619063,0.04990047057817764,0.06281783473793379,0.09723598523020718,0.9988430419661631,0.018782385762004212,-0.027140179927267395,0.03497442114437875
2710.1333333402304,0.016191002,-0.7814965,-0.02596751,-2.3548388,0.05439213,1.5191247,0.8234678,0.04,0.04,-0.00028193214502980624,-0.009938067806204709,-0.011567752506080886,0.05039292150720642,0.06387791413530858,0.09838844647099429,0.9987857599417265,0.01922097520422387,-0.027818667300768863,0.03582850261224612
2710.1500000068972,0.016583705,-0.7814242,-0.026605286,-2.354802,0.05572334,1.5178537,0.8243864,0.04,0.04,0.0004699991507983725,-0.009865840213379301,-0.010735242814496893,0.05087588863694098,0.06493536560197548,0.09952898586759427,0.9987263930955771,0.019663815680789874,-0.02850601532362637,0.036692413078724666
2710.166666673564,0.016981157,-0.78135127,-0.027250776,-2.354765,0.05707068,1.5165675,0.82531613,0.04,0.04,-0.0005446947660914248,-0.009910243445726552,-0.011417845538042037,0.05134999656447516,0.06599175500518871,0.1006624854152999,0.9986648870068505,0.020110833326121104,-0.029202515847985302,0.037566087241975736
2710.183333340231,0.017383322,-0.78127736,-0.027903935,-2.3547277,0.05843398,1.515266,0.82625693,0.04,0.04,-0.0003522085311402634,-0.009821482155265154,-0.011150464290898832,0.0518149497940055,0.067044538734158,0.10178116369762363,0.9986011951810234,0.020561991141910405,-0.029908221932223616,0.038449392247009086
2710.200000006898,0.017790169,-0.7812027,-0.028564714,-2.3546903,0.059813164,1.5139493,0.82720864,0.04,0.04,-7.184890482569983e-06,-0.009808126691374097,-0.011165624941633645,0.052270390352138964,0.06809265650443383,0.10289293105250398,0.9985352761913932,0.021017156068810217,-0.03062300558586663,0.03934225312619495
2710.2166666735648,0.018201672,-0.7811272,-0.029233051,-2.3546526,0.061208133,1.5126176,0.8281712,0.04,0.04,0.0001457463897569511,-0.009800688914560901,-0.01108297809926384,0.05271645666312408,0.06913630633571236,0.10399299568157448,0.9984670857919415,0.021476248916261726,-0.03134683013309298,0.04024457184815758
2710.2333333402316,0.018617796,-0.78105074,-0.029908894,-2.3546147,0.06261876,1.5112711,0.8291446,0.04,0.04,7.623186881744459e-05,-0.009754532066610921,-0.010777820366980606,0.05315283931714373,0.07017573179567715,0.10508257872003643,0.9983965773549326,0.02193923606020808,-0.03207971903398973,0.04115623736143749
2710.2500000068985,0.019038493,-0.78097355,-0.030592185,-2.3545768,0.064044915,1.5099095,0.8301287,0.04,0.04,2.3305783702909366e-05,-0.00970266548968382,-0.011333660122203604,0.05357941378820078,0.07121015702525647,0.10616060985424099,0.9983237011345992,0.0224060090361738,-0.03282184178292925,0.042077134098731345
2710.2666666735654,0.01946374,-0.78089535,-0.031282872,-2.3545384,0.06548651,1.5085331,0.8311234,0.04,0.04,0.000714780862498543,-0.009681263447345462,-0.010681286960112502,0.05399592220925016,0.07223854891088602,0.10722626323061552,0.9982484199931421,0.022876437032572847,-0.03357295046481653,0.043007180876887964
2710.2833333402323,0.019893494,-0.7808165,-0.031980887,-2.354499,0.06694339,1.5071423,0.83212864,0.04,0.04,0.0020942800048162624,-0.009580325214635782,-0.010387186728344489,0.05440252519697155,0.07326009979850791,0.10828050277245047,0.9981707084164175,0.02335047107097838,-0.034332472422006904,0.04394625919942313
2710.300000006899,0.02032772,-0.7807366,-0.03268617,-2.3544595,0.0684154,1.5057368,0.8331443,0.04,0.04,0.0005900077926224156,-0.009561271875829086,-0.010716851190872845,0.05479866351373823,0.07428097972069937,0.10932180529670615,0.9980905009171511,0.02382801390042898,-0.03510108237845143,0.044894228452800854
2710.316666673566,0.020766383,-0.7806561,-0.033398654,-2.354419,0.069902465,1.5043168,0.8341704,0.04,0.04,0.002304162204835869,-0.00952105157794314,-0.010492222039593102,0.0551844031280785,0.0752952777341846,0.11035143305773565,0.9980077711327879,0.024309004316168257,-0.03587820826607086,0.045851011322954896
2710.333333340233,0.021209436,-0.7805748,-0.03411827,-2.354378,0.07140441,1.5028826,0.8352068,0.04,0.04,0.0016039660104105735,-0.009460866187602918,-0.010384525021489566,0.055559374305141955,0.07630542126632264,0.11136830412570389,0.9979224717860493,0.024793353709293656,-0.03666398844546787,0.04681647004568084
2710.3500000069,0.02165683,-0.78049254,-0.034844954,-2.3543365,0.07292113,1.501435,0.83625346,0.04,0.04,0.00175407339313427,-0.009385735668465678,-0.009653622273164686,0.05592347165090066,0.07731183771698874,0.11237165726627323,0.9978345692655187,0.025281017058865336,-0.03745811639732999,0.04779050189242935
2710.3666666735667,0.022108536,-0.78040963,-0.03557865,-2.354294,0.07445243,1.499973,0.83731014,0.04,0.04,0.0026894481274020166,-0.009310990322203283,-0.010419996895527639,0.05627600623464797,0.07831501898268878,0.11336239178195241,0.9977440187018852,0.02577178790245615,-0.03826075660259438,0.04877296994360683
2710.3833333402335,0.02256451,-0.7803259,-0.036319274,-2.3542511,0.07599822,1.4984958,0.8383768,0.04,0.04,0.001624574824066194,-0.009342379055315986,-0.011194360060318154,0.05661781938116867,0.07931273869581466,0.11433895354175437,0.9976507476106689,0.02626560343480363,-0.03907267420511236,0.049763741806061704
2710.4000000069004,0.023024697,-0.78024143,-0.037066754,-2.354208,0.077558294,1.4970069,0.83945334,0.04,0.04,0.0023989553597614233,-0.009145563623082914,-0.008635961018499394,0.05694931746793849,0.08029776924140547,0.11530265579253188,0.9975547778871113,0.02676242508781478,-0.03989216061667623,0.050762715050993584
2710.4166666735673,0.02348907,-0.78015625,-0.03782103,-2.3541646,0.07913254,1.495503,0.8405396,0.04,0.04,0.001660356525468032,-0.009207008073685435,-0.011202815287236767,0.057268384870811276,0.0812855584020694,0.11625169984209754,0.9974560055962799,0.02726205601164096,-0.040720899054943735,0.05176973616012981
2710.433333340234,0.023957565,-0.78007025,-0.03858202,-2.3541212,0.080720775,1.4939867,0.84163564,0.04,0.04,0.001963740123511748,-0.009036142702983224,-0.0091523361819279,0.05757784044547231,0.08225939787868564,0.1171874131442563,0.9973544305355627,0.02776459592368399,-0.041557722970540126,0.052784683060353
2710.450000006901,0.024430139,-0.77998346,-0.039349638,-2.3540776,0.08232285,1.4924576,0.8427412,0.04,0.04,0.00238239517453831,-0.009000901810635176,-0.00953565120624944,0.0578741550162327,0.08322870319989008,0.1181083123928156,0.9972500101475282,0.028269796226464278,-0.04240279162352354,0.05380742648186359
2710.466666673568,0.02490675,-0.7798958,-0.04012381,-2.3540337,0.0839386,1.4909145,0.8438563,0.04,0.04,0.00207260685034516,-0.008965755446915802,-0.010393339213465858,0.05815959268233232,0.08419202494938333,0.11901537755213562,0.9971426757550466,0.02877760760696714,-0.04325677976402052,0.054837801678517976
2710.483333340235,0.025387345,-0.77980757,-0.040904462,-2.3539894,0.08556786,1.4893591,0.84498054,0.04,0.04,0.003437197835154393,-0.00880463170627871,-0.009014039988630707,0.05843319973910755,0.08514174151211495,0.11990717978496504,0.9970324406733703,0.0292878531945911,-0.04411844824960788,0.05587572303067888
2710.5000000069017,0.02587188,-0.77971864,-0.041691523,-2.3539445,0.0872105,1.487791,0.8461142,0.04,0.04,0.0031854796086916437,-0.00877317291172186,-0.009471740176381083,0.05869566996804276,0.08608882246131173,0.12078481674766775,0.9969192422614525,0.029800588233835915,-0.044988268419671996,0.05692104228111162
2710.5166666735686,0.026360303,-0.77962893,-0.042484898,-2.3538992,0.088866286,1.4862103,0.8472569,0.04,0.04,0.0033509243014373524,-0.008646183578254335,-0.009077999678175352,0.058945485633580624,0.08702782559978293,0.12164728208813594,0.9968030569615702,0.030315574297491245,-0.04586603775854663,0.057973598882710635
2710.5333333402355,0.026852557,-0.77953863,-0.043284517,-2.3538535,0.090535045,1.4846171,0.84840846,0.04,0.04,0.003590906734562971,-0.008544686769502985,-0.009363134347251112,0.059183425533999454,0.08795996877737185,0.12249202786290886,0.9966838460175087,0.030832701034957992,-0.04675179972425609,0.05903325213114107
2710.5500000069023,0.027348591,-0.77944756,-0.044090293,-2.3538077,0.09221668,1.4830115,0.84956884,0.04,0.04,0.0028050279013536183,-0.008540000516966961,-0.009314091220091747,0.059410508919211756,0.08888448577363728,0.12332486890732143,0.9965615591675273,0.031351911011188026,-0.04764577859548551,0.0600998855869432
2710.566666673569,0.02784836,-0.77935594,-0.04490213,-2.3537614,0.09391097,1.4813938,0.850738,0.04,0.04,0.0040272268633900765,-0.008403751190464576,-0.008947023580407887,0.059625667051277864,0.08979711356541814,0.12414131806571985,0.9964361849067594,0.03187311993729394,-0.04854745393872981,0.06117334672871807
2710.583333340236,0.02835181,-0.7792635,-0.045719948,-2.353715,0.09561772,1.4797642,0.85191584,0.04,0.04,0.0034643969123449025,-0.008305962768273556,-0.00881122871065898,0.05982853889601705,0.09070410052779909,0.12493913966552865,0.9963076773489227,0.032396271811940644,-0.0494570476002783,0.06225346633678795
2710.600000006903,0.028858889,-0.7791702,-0.046543654,-2.3536685,0.09733677,1.4781232,0.8531021,0.04,0.04,0.003303746464800028,-0.008231482388310063,-0.008561575648835529,0.060019493074581834,0.09159894047631784,0.12572331155439415,0.9961760084969932,0.032921192734910065,-0.050374447532631386,0.06334011524848815
2710.61666667357,0.029369535,-0.7790766,-0.04737317,-2.3536215,0.0990679,1.4764704,0.8542967,0.04,0.04,0.004592488097610037,-0.008070553048905582,-0.008872698981932103,0.06019841382301975,0.09248483138303916,0.12649141517687953,0.9960411593786208,0.03344778166968798,-0.051299368876722054,0.0644331395938441
2710.6333333402367,0.02988369,-0.77898216,-0.048208382,-2.3535743,0.10081093,1.4748062,0.85549945,0.04,0.04,0.003992109426631529,-0.008005146383546768,-0.008396564649770788,0.0603653002269899,0.09336149714981404,0.12724348200221985,0.9959030929760069,0.033975934026984025,-0.052231909264020306,0.0655323810223026
2710.6500000069036,0.030401304,-0.778887,-0.049049225,-2.3535268,0.10256572,1.473131,0.85671043,0.04,0.04,0.0041577861797481575,-0.007910271183188267,-0.008215361824026601,0.060520523613794945,0.09422847988324021,0.12797988545637218,0.995761777521844,0.03450564820523922,-0.05317196637951784,0.06663771199410506
2710.6666666735705,0.030922316,-0.77879137,-0.049895607,-2.353479,0.10433201,1.4714446,0.8579293,0.04,0.04,0.005010272923944292,-0.007726428328835855,-0.00829859940985056,0.06066283795317305,0.09508456239574556,0.1286977997239699,0.9956172032239515,0.03503669270523735,-0.054119243619294946,0.06774896514981589
2710.6833333402374,0.031446673,-0.77869517,-0.05074741,-2.353431,0.106109634,1.4697472,0.8591559,0.04,0.04,0.00415616223956583,-0.007714983400699399,-0.008435049654953453,0.06079346517885354,0.09593247473642111,0.12940036893032736,0.9954693222606887,0.03556896737174701,-0.05507407677401574,0.06886597901317092
2710.7000000069042,0.03197432,-0.77859825,-0.051604558,-2.3533828,0.10789838,1.4680395,0.86039025,0.04,0.04,0.004711277091451471,-0.007523135643625056,-0.007612933456235815,0.06091249112395533,0.096766469376034,0.1300869062601644,0.995318127030208,0.036102467665171695,-0.05603600229179409,0.06998860107701745
2710.716666673571,0.032505184,-0.7785007,-0.052466944,-2.3533342,0.10969804,1.4663212,0.86163205,0.04,0.04,0.005171649290014457,-0.007415333068183649,-0.007810743815528376,0.06101871530465176,0.09759164872734136,0.13075565854106763,0.9951635916451449,0.03663698703468035,-0.05700505013034469,0.07111667388589464
2710.733333340238,0.03303921,-0.7784028,-0.053334475,-2.353285,0.111508444,1.4645926,0.8628814,0.04,0.04,0.005691999426393757,-0.0072933146190765075,-0.007822057022299767,0.06111351810738601,0.0984059221736617,0.13140789178032383,0.995005699708852,0.037172540551862414,-0.057980939051252005,0.07225005524256027
2710.750000006905,0.03357634,-0.77830416,-0.054207057,-2.3532357,0.113329366,1.4628541,0.864138,0.04,0.04,0.005042239166996865,-0.007170628033098536,-0.007219087799548163,0.06119521358560545,0.09921119734594155,0.13204322352279274,0.9948444254641903,0.03770895255555351,-0.05896372552772237,0.07338857603114779
2710.7666666735718,0.034116525,-0.77820486,-0.05508459,-2.3531852,0.11516063,1.4611057,0.86540174,0.04,0.04,0.006741721387748534,-0.007028875628396769,-0.007012900296876623,0.06126449166551318,0.10000442890144871,0.1326601613515556,0.9946797666763577,0.03824611820358633,-0.059953001317558846,0.07453209939375653
2710.7833333402386,0.034659684,-0.77810514,-0.055966966,-2.3531346,0.11700198,1.4593477,0.8666724,0.04,0.04,0.005253970663132712,-0.006913501198624328,-0.007346135125008146,0.06132211947104567,0.10079111468083331,0.13326248318608852,0.9945116882576353,0.0387839194221191,-0.06094900346729198,0.07568043663689233
2710.8000000069055,0.03520576,-0.77800494,-0.056854095,-2.3530836,0.11885323,1.4575801,0.8679501,0.04,0.04,0.006021748713669339,-0.006770764401517471,-0.007178807558605449,0.061367160640779655,0.10156477403082405,0.13384544483329602,0.9943401707541657,0.03932236649225015,-0.061951596097945115,0.07683343060766405
2710.8166666735724,0.0357547,-0.7779041,-0.057745874,-2.3530326,0.12071417,1.4558032,0.8692343,0.04,0.04,0.0052368384906520404,-0.0066931835674854945,-0.007036683539451971,0.06139973329116295,0.10232782684275732,0.134411688572191,0.9941651887383222,0.03986120841334804,-0.0629609175515193,0.07799092527848818
2710.8333333402393,0.036306415,-0.77780265,-0.058642197,-2.352981,0.122584574,1.4540173,0.87052506,0.04,0.04,0.006221812558759865,-0.006467682217055348,-0.006561337998722827,0.06142076320117209,0.10307524949991534,0.1349605385851359,0.9939867472720066,0.04040039610616806,-0.06397652528701056,0.07915275392733441
2710.850000006906,0.036860872,-0.777701,-0.059542954,-2.3529294,0.12446423,1.4522226,0.8718222,0.04,0.04,0.006371199821919582,-0.0063910098855465836,-0.006812510319864629,0.061429846474258004,0.10381276768640679,0.13549225955880045,0.9938048361185644,0.04093980864580957,-0.06499827450404039,0.08031876547168275
2710.866666673573,0.037417997,-0.7775988,-0.060448058,-2.3528774,0.12635288,1.4504194,0.8731255,0.04,0.04,0.006092402316237866,-0.006187053017064903,-0.006308466620685849,0.06142704069472491,0.10453991663591397,0.13600510130736737,0.993619436461631,0.04147936691161383,-0.06602619118604995,0.08148877029226681
2710.88333334024,0.037977718,-0.7774959,-0.061357394,-2.3528254,0.12825039,1.4486077,0.87443507,0.04,0.04,0.005708801221948612,-0.006151695295276982,-0.0064852411672866594,0.06141225603240884,0.10525401971554092,0.13650144779729345,0.9934305104951237,0.042019065141225324,-0.06706049112439953,0.08266262463901004
2710.900000006907,0.03853998,-0.77739257,-0.062270846,-2.352773,0.13015649,1.4467877,0.87575054,0.04,0.04,0.006795820185589996,-0.005934319964966128,-0.006075362839408349,0.06138490285946863,0.10595272925900925,0.13697933907296214,0.9932380817431302,0.04255868487069269,-0.06810065886286151,0.08384015493633229
2710.9166666735737,0.0391047,-0.7772889,-0.06318831,-2.3527203,0.13207093,1.4449599,0.8770718,0.04,0.04,0.006737480079044289,-0.005765541083745107,-0.006007807692332001,0.06134564857592368,0.10664072582240668,0.13743942685197477,0.993042144741855,0.04309815509801782,-0.06914654400905758,0.0850211929182789
2710.9333333402406,0.039671827,-0.77718484,-0.064109676,-2.3526676,0.13399355,1.443124,0.87839866,0.04,0.04,0.006282462611340023,-0.005702414425244606,-0.0061526989703075685,0.061294670542853376,0.1073145906262489,0.13788177573409627,0.9928426690516544,0.043637352900575126,-0.07019837987964214,0.08620558801198104
2710.9500000069074,0.040241294,-0.7770803,-0.065034844,-2.3526149,0.13592407,1.4412806,0.87973094,0.04,0.04,0.006353195382580168,-0.0055009433912137085,-0.005842507295961141,0.061232264171229525,0.1079747306785864,0.13830576214267973,0.9926396546161534,0.04417617946116071,-0.07125601109080097,0.08739314695768123
2710.9666666735743,0.040813033,-0.7769752,-0.0659637,-2.3525617,0.13786228,1.4394301,0.88106865,0.04,0.04,0.007240249843865065,-0.005312161802902005,-0.005114260502492307,0.06115863999212334,0.10862023809239357,0.13871188192601908,0.9924331202509962,0.04471462393821891,-0.07231893510022973,0.08858372232472668
2710.983333340241,0.041386962,-0.7768699,-0.06689611,-2.3525085,0.13980795,1.4375721,0.8824114,0.04,0.04,0.006738106631654084,-0.005231960526257129,-0.00587895172583508,0.06107235237182328,0.10925326009295214,0.13909927571519848,0.9922230405635408,0.04525245227440641,-0.07338746220013295,0.0897771336689841
2711.000000006908,0.041963037,-0.7767643,-0.06783201,-2.3524554,0.14176083,1.4357073,0.88375914,0.04,0.04,0.006875170419173848,-0.004999690208777607,-0.005286990115904722,0.06097547406384469,0.10987080621481655,0.13946924970158098,0.9920094278687082,0.04578961763717186,-0.07446126113876271,0.09097321872872695
2711.016666673575,0.04254116,-0.7766582,-0.06877125,-2.3524022,0.14372073,1.4338357,0.88511175,0.04,0.04,0.0067535912926075525,-0.004909984723799887,-0.0051900898317081,0.060867396318505074,0.11047413492927613,0.139821101261224,0.9917922649319612,0.046326073296552694,-0.07554041627323331,0.09217181599230646
2711.033333340242,0.04312128,-0.7765517,-0.06971375,-2.3523488,0.14568736,1.4319581,0.8864689,0.04,0.04,0.0074340577759679505,-0.004630654831171144,-0.004578236217533949,0.06074783852187236,0.11106217612292016,0.14015521239652454,0.9915715907943667,0.04686164399645568,-0.07662437568937036,0.09337275674249224
2711.0500000069087,0.04370332,-0.7764447,-0.070659384,-2.3522954,0.14766052,1.4300739,0.88783073,0.04,0.04,0.006769454579291789,-0.0045750375290073975,-0.00493864635047192,0.060617286971885995,0.11163686737019957,0.14047053412936797,0.9913473584103373,0.04739638089088239,-0.07771361882617984,0.09457585051286549
2711.0666666735756,0.04428723,-0.77633744,-0.071608044,-2.3522415,0.14963996,1.4281838,0.889197,0.04,0.04,0.008125647670120806,-0.004321100276594159,-0.004371483581522284,0.06047509459979171,0.11219361404204174,0.14076778072596113,0.9911196277388102,0.047930113569801605,-0.07880733009685302,0.09578096077547794
2711.0833333402425,0.044872914,-0.77623,-0.072559595,-2.3521874,0.15162542,1.426288,0.89056724,0.04,0.04,0.007742270644595095,-0.004164568175700489,-0.004360454308227624,0.06032112186796265,0.11273936741196887,0.14104616136513745,0.9908883989620655,0.04846263156450499,-0.07990557285316348,0.09698790425225921
2711.1000000069093,0.045460314,-0.7761223,-0.07351395,-2.352133,0.15361673,1.4243866,0.89194155,0.04,0.04,0.007807759105049605,-0.004032222777447525,-0.00426478725834567,0.06015711400670798,0.11327042631044071,0.14130770509520632,0.9906536681058127,0.04899394687397242,-0.08100828754593156,0.09819653958813533
2711.116666673576,0.046049364,-0.7760141,-0.07447095,-2.3520784,0.1556136,1.4224799,0.89331967,0.04,0.04,0.007638808691989851,-0.0038845745630428086,-0.003951496370913077,0.059982135528081335,0.11378653525923091,0.14154948209959922,0.9904154417245628,0.04952393278436475,-0.08211545596901422,0.09940666359007223
2711.133333340243,0.046639986,-0.77590567,-0.07543056,-2.3520238,0.15761581,1.4205679,0.8947015,0.04,0.04,0.007552868784999056,-0.003656777672492173,-0.0040955646220419695,0.059796685300363014,0.11428762542503927,0.1417743753873771,0.9901737222815843,0.050052533896648085,-0.08322700694803384,0.10061813389259874
2711.15000000691,0.0472321,-0.77579665,-0.07639258,-2.3519692,0.1596231,1.4186512,0.8960869,0.04,0.04,0.007328941302842118,-0.0035232412196717355,-0.0034380451305882076,0.059600945481898794,0.11477196023221196,0.14198011611395078,0.9899285242877454,0.050579708591559434,-0.08434280798508963,0.10183074497159496
2711.166666673577,0.04782564,-0.7756876,-0.07735695,-2.3519146,0.1616352,1.4167302,0.89747554,0.04,0.04,0.007926197743945984,-0.003284721011624636,-0.003535706418045237,0.059393681650678924,0.11523998603542981,0.14216715611213288,0.9896798869449884,0.05110528515243222,-0.08546245312972034,0.10304436088934706
2711.1833333402437,0.048420545,-0.7755783,-0.07832351,-2.35186,0.16365196,1.4148045,0.89886737,0.04,0.04,0.00778955016449423,-0.0032333884454269213,-0.003659980089398829,0.05917681706298052,0.11569230816011243,0.14233647252037404,0.9894278011085551,0.05162916341373714,-0.08658610659010178,0.10425882228499753
2711.2000000069106,0.04901673,-0.775469,-0.07929217,-2.3518054,0.16567303,1.4128748,0.9002623,0.04,0.04,0.008040518431262633,-0.0029334157878257994,-0.003158023727922732,0.05894965751641745,0.11612911338372373,0.142486903137387,0.9891723076720553,0.052151348024207275,-0.08771334067174898,0.10547394229002886
2711.2166666735775,0.049614128,-0.7753596,-0.08026279,-2.3517504,0.16769816,1.410941,0.90165997,0.04,0.04,0.008688437299420038,-0.002743593138689049,-0.0030810642837053592,0.05871217145624994,0.11654981574034526,0.14261983847209977,0.9889134341261147,0.05267161626415451,-0.0888440367682541,0.10668953920482324
2711.2333333402444,0.050212666,-0.7752499,-0.081235245,-2.3516948,0.16972715,1.4090036,0.9030604,0.04,0.04,0.008690681185496985,-0.0025864913821477264,-0.0025454278069325653,0.05846528720480045,0.11695551345406724,0.1427348076772004,0.9886512037468593,0.05318999385035687,-0.0899779492284666,0.10790547037441812
2711.2500000069113,0.05081227,-0.77513987,-0.08220946,-2.3516395,0.1717598,1.4070628,0.9044632,0.04,0.04,0.00748176699973957,-0.002479089624835007,-0.002731371498976287,0.05820801086562276,0.11734858288341936,0.14283107573942358,0.9883855985087854,0.05370633432567062,-0.09111540340978963,0.10912159078386222
2711.266666673578,0.051412866,-0.7750296,-0.083185285,-2.3515842,0.17379583,1.4051186,0.9058685,0.04,0.04,0.007986455726749497,-0.0022810997461555904,-0.002585798774701331,0.057941967309833566,0.11772147679792798,0.1429093622027317,0.9881166489533222,0.05422067262253575,-0.09225615665098111,0.11033770108900488
2711.283333340245,0.05201439,-0.7749191,-0.084162615,-2.3515286,0.1758349,1.4031715,0.9072758,0.04,0.04,0.008418470068649597,-0.0019726198305689002,-0.002091664770387247,0.057665550311203594,0.11807730573329586,0.1429690450419226,0.9878444145184312,0.0547327906282229,-0.09339981397664547,0.11155361528840299
2711.300000006912,0.05261675,-0.7748083,-0.08514134,-2.351473,0.17787682,1.4012219,0.9086851,0.04,0.04,0.008032257499523965,-0.0018532215636080096,-0.001983107682868024,0.057380189286804155,0.11841709277694551,0.14301163861874375,0.9875689007714311,0.05524268190498506,-0.09454638938352763,0.11276920049193538
2711.3166666735788,0.053219892,-0.77469724,-0.086121306,-2.3514173,0.17992139,1.3992695,0.9100962,0.04,0.04,0.008434719844574445,-0.001741141976609184,-0.001994321280718303,0.05708578362463712,0.1187391986379439,0.14303558735123012,0.9872901342608825,0.05575024344631856,-0.09569577503452104,0.11398429623130997
2711.3333333402456,0.053823728,-0.77458614,-0.0871024,-2.3513615,0.18196833,1.3973148,0.91150904,0.04,0.04,0.008297220915931547,-0.0015194015999364652,-0.0018274585007249655,0.05678254090699566,0.119044257624714,0.14304242482522805,0.9870081534042578,0.05625541566611368,-0.09684773945432727,0.11519873560216123
2711.3500000069125,0.054428194,-0.774475,-0.08808453,-2.3513055,0.18401745,1.3953582,0.9129232,0.04,0.04,0.00871884891764374,-0.0013233530707132402,-0.001423641818631971,0.05647033492113171,0.11933187103332724,0.14303105418496093,0.9867230050667247,0.056758065019749046,-0.09800195718387261,0.11641241220521395
2711.3666666735794,0.05503321,-0.77436376,-0.089067556,-2.3512495,0.18606839,1.3933998,0.9143387,0.04,0.04,0.008319067206707942,-0.0010944483009742156,-0.001445600099825306,0.05614951672404211,0.11960503425296028,0.143001268190367,0.9864347104924295,0.057258175357845,-0.09915846540383111,0.11762509098472303
2711.3833333402463,0.055638697,-0.77425253,-0.09005132,-2.3511934,0.18812092,1.3914398,0.9157553,0.04,0.04,0.008370803649637715,-0.0009712216406360108,-0.0013843583617445532,0.05581995338955146,0.11985972295436986,0.14295260908215301,0.9861433052678824,0.05775561966040148,-0.10031714563806111,0.1188366112105658
2711.400000006913,0.056244593,-0.77414125,-0.09103578,-2.3511372,0.19017477,1.3894786,0.9171729,0.04,0.04,0.00872671255918167,-0.0006679716340676767,-0.0008503818657246143,0.05548286051354801,0.12009734256395181,0.14288759213728247,0.9858488364121176,0.05825044308212551,-0.10147765684254406,0.1200468358073504
2711.41666667358,0.056850806,-0.77402997,-0.092020765,-2.351081,0.19222982,1.3875163,0.91859114,0.04,0.04,0.008416566133040426,-0.0006339373137681514,-0.000904653473532413,0.05513666396239109,0.12031943130791903,0.14280506781337418,0.9855513326637553,0.058742409505809,-0.10263998479223738,0.12125565360838685
2711.433333340247,0.05745727,-0.7739187,-0.09300618,-2.3510246,0.19428566,1.3855528,0.9200102,0.04,0.04,0.008326397463509494,-0.00032210327341603007,-0.0009957568211982348,0.05478328724479207,0.12052317010796146,0.1427040600587634,0.9852508131154091,0.05923164350039814,-0.10380418061831799,0.12246280966002102
2711.450000006914,0.05806392,-0.7738074,-0.09399187,-2.3509686,0.19634216,1.3835889,0.92142963,0.04,0.04,0.00806916730653473,-0.0002707831575965436,-0.00045426819186289435,0.05442128354277262,0.12070792298782633,0.14258606567051246,0.9849473365565183,0.0597179519085478,-0.10496990765449238,0.12366822112845526
2711.4666666735807,0.05867068,-0.7736961,-0.094977744,-2.3509126,0.19839892,1.3816249,0.92284924,0.04,0.04,0.008399060360009258,8.749501834298679e-05,-0.00014306669928743077,0.05405185558538594,0.12087584727322777,0.14244968230932453,0.9846409636883452,0.060201281536013056,-0.10613689572274704,0.12487168491954981
2711.4833333402476,0.059277464,-0.77358484,-0.09596369,-2.3508565,0.20045578,1.379661,0.9242689,0.04,0.04,0.008380807819330371,0.0002154316950331303,-4.399756619033468e-05,0.0536754605632018,0.12102613648295932,0.14229681780319758,0.9843317257382812,0.06068158997141476,-0.1073050600459954,0.12607308369419473
2711.5000000069144,0.059884205,-0.77347356,-0.09694956,-2.3508003,0.20251249,1.377697,0.9256885,0.04,0.04,0.00868654724510698,0.00040514840779770633,7.272616369125018e-05,0.053291183545495634,0.1211592778440136,0.14212580457390186,0.9840196703998331,0.06115880980845206,-0.10847425460326078,0.12727224496049602
2711.5166666735813,0.060490817,-0.7733622,-0.0979352,-2.3507442,0.2045688,1.3757331,0.92710775,0.04,0.04,0.00785429584091446,0.0004723379105842085,-3.642154897676164e-05,0.0528996484176934,0.12127554530648682,0.14193749194689015,0.9837048156673387,0.06163281902672442,-0.10964464588607026,0.12846899579363358
2711.533333340248,0.061097242,-0.77325094,-0.09892053,-2.3506882,0.20662452,1.3737701,0.92852676,0.04,0.04,0.008394122956123518,0.0007215296639162538,0.0005898785440106025,0.05250244095430282,0.12137035095985987,0.14173265857331174,0.9833872343691813,0.06210372758389213,-0.11081569403877276,0.12966324172495314
2711.550000006915,0.061703403,-0.7731397,-0.09990548,-2.3506322,0.20867929,1.3718079,0.9299449,0.04,0.04,0.00830288132167567,0.0010308238937939418,0.0005964758077459109,0.052097561015190676,0.12144858858669914,0.14151044467371449,0.9830669834918975,0.06257124638898691,-0.11198733135333148,0.1308548153864788
2711.566666673582,0.062309213,-0.77302843,-0.10088986,-2.3505762,0.21073283,1.3698468,0.9313624,0.04,0.04,0.008142992244697389,0.0011599423949348875,0.0008454038167515776,0.05168701735663799,0.12150838025171988,0.14127027105907888,0.9827440986998897,0.0630355434707614,-0.11315949467819443,0.13204349849221236
2711.583333340249,0.0629146,-0.77291715,-0.10187357,-2.3505204,0.21278499,1.367887,0.9327787,0.04,0.04,0.007813354874097733,0.0012768232378890243,0.0008901099301628079,0.05126943312939114,0.1215504737426995,0.14101441287994537,0.9824186277707908,0.06349636188154618,-0.11433209585074562,0.1332292148709887
2711.6000000069157,0.06351952,-0.772806,-0.102856465,-2.3504646,0.2148355,1.3659288,0.93419415,0.04,0.04,0.008244503704735173,0.0014599320680874772,0.0011287539537052638,0.0508467642343705,0.12157296162829176,0.14074147145851248,0.9820906317584426,0.06395384686099434,-0.1155048391261835,0.13441178751291907
2711.6166666735826,0.06412385,-0.7726949,-0.103838444,-2.3504083,0.21688409,1.3639725,0.93560815,0.04,0.04,0.008900771911513061,0.0017810003425544618,0.0017845388596837708,0.0504172827985569,0.12157632323435531,0.14045197601656972,0.9817602093151827,0.0644078074191471,-0.11667722037490347,0.13559112063277923
2711.6333333402495,0.06472753,-0.77258384,-0.10481939,-2.3503523,0.21893045,1.3620182,0.9370205,0.04,0.04,0.0076811006173516105,0.0018966979263929096,0.0013351142941209204,0.049982042879225974,0.1215648997454746,0.14014503022951552,0.981427367723681,0.06485814808332913,-0.11784961106793053,0.136766997778357
2711.6500000069163,0.06533051,-0.7724732,-0.10579919,-2.3502963,0.22097443,1.3600663,0.9384312,0.04,0.04,0.008389056058821787,0.0020596540492884285,0.0016410484559248317,0.04954214855481543,0.12153426189482457,0.13982216484308382,0.9810921934890514,0.06530491262699802,-0.11902146790068299,0.1379393578366545
2711.666666673583,0.06593272,-0.7723629,-0.10677772,-2.3502402,0.22301577,1.3581167,0.9398401,0.04,0.04,0.008176179385332993,0.0022150546807264693,0.0017050146996266946,0.04909690345786387,0.12148686662251477,0.13948266396737297,0.9807547308016791,0.06574800868527217,-0.1201928075059759,0.13910803854514958
2711.68333334025,0.06653407,-0.77225286,-0.10775484,-2.350184,0.22505417,1.3561699,0.941247,0.04,0.04,0.0084770714529947,0.002462433966157751,0.002107013879371067,0.04864646739574039,0.12142173203553339,0.13912600099285446,0.9804150617709712,0.06618742133038637,-0.12136330128982199,0.14027288052325987
2711.700000006917,0.067134485,-0.77214295,-0.10873046,-2.3501282,0.2270894,1.3542264,0.94265175,0.04,0.04,0.007179941827684111,0.0025885070316200576,0.0022358752339579624,0.048190968920728515,0.12134017836380274,0.138753389813132,0.9800732047452302,0.0666231704485975,-0.12253311788202148,0.1414337354449141
2711.716666673584,0.06773386,-0.77203315,-0.10970441,-2.3500724,0.22912122,1.352286,0.94405425,0.04,0.04,0.007800629227960876,0.002788688339150358,0.0024705099945787623,0.04773061165487361,0.1212384824333599,0.1383648190473985,0.979729237519432,0.06705520620562967,-0.12370198570213363,0.14259045972175693
2711.7333333402507,0.068332165,-0.77192354,-0.11067664,-2.3500168,0.23114933,1.3503493,0.94545424,0.04,0.04,0.00743826773814682,0.0030125080249854275,0.002702594925052537,0.04726549624289439,0.12111833509168518,0.137960783667013,0.9793832273288389,0.06748348064828046,-0.12486971784014618,0.14374292133202052
2711.7500000069176,0.06892933,-0.77181405,-0.11164696,-2.3499615,0.23317352,1.3484161,0.9468514,0.04,0.04,0.007243502726628215,0.003064465966184926,0.0025377236841928053,0.04679534813122164,0.12098045817890192,0.13754022725570725,0.9790352193960602,0.06790780728784428,-0.12603640891529397,0.14489096769364912
2711.7666666735845,0.069525264,-0.7717047,-0.1126153,-2.3499067,0.23519355,1.3464869,0.9482458,0.04,0.04,0.006848271722903476,0.003293747028221272,0.002904275761883568,0.0463231471551341,0.12082133122122231,0.1371052859479567,0.9786852651396786,0.06832838210110707,-0.12720186976417266,0.14603447649928683
2711.7833333402514,0.07011988,-0.77159536,-0.11358153,-2.3498523,0.2372092,1.3445619,0.9496372,0.04,0.04,0.006692848196854229,0.003433762269422491,0.003031625736449328,0.045845851477448255,0.12064289699996207,0.1366532540902956,0.978333428820258,0.06874504490578505,-0.12836601273848017,0.1471733251215146
2711.8000000069183,0.07071314,-0.77148616,-0.11454553,-2.349798,0.23922019,1.3426416,0.9510253,0.04,0.04,0.007400033690418972,0.00368389139026315,0.0036106589548223766,0.04536523213108408,0.12044283433885968,0.13618571360081075,0.9779798247083309,0.069157774335558,-0.12952830543607347,0.1483073929488133
2711.816666673585,0.07130495,-0.7713776,-0.115507185,-2.3497436,0.24122623,1.3407258,0.95241004,0.04,0.04,0.0077561048202001714,0.003909569533960822,0.0032270767580167004,0.04488107247747069,0.12022554018954443,0.13570344065886317,0.9776245377766208,0.06956647665207157,-0.13068850168687873,0.14943655506636905
2711.833333340252,0.071895234,-0.77126944,-0.11646637,-2.3496892,0.24322714,1.3388149,0.9537913,0.04,0.04,0.007402001237144518,0.004020268804136307,0.003673432098505458,0.04439359951408809,0.11999191798910414,0.13520554812051805,0.977267618395771,0.06997120184506714,-0.1318465414437206,0.15056069359811008
2711.850000006919,0.07248394,-0.7711617,-0.11742302,-2.3496351,0.24522266,1.3369092,0.95516884,0.04,0.04,0.0070033270223035515,0.004220433559082304,0.003811998590985688,0.04390276512257947,0.11974085392355376,0.13469312936745395,0.9769091355824149,0.07037188104985162,-0.1330022884613419,0.15167969685218452
2711.8666666735858,0.07307101,-0.7710541,-0.118376955,-2.349581,0.24721254,1.3350087,0.9565425,0.04,0.04,0.006998662443780113,0.0043258956322317355,0.004049530149807801,0.043408949406197675,0.11947257919995116,0.13416493782457434,0.9765491522601989,0.07076847946275666,-0.13415570439320848,0.15279339813348694
2711.8833333402526,0.073656335,-0.77094656,-0.119328104,-2.3495271,0.2491966,1.333114,0.95791197,0.04,0.04,0.006458451367508111,0.004507843398759981,0.004387475157985321,0.04291316130946802,0.11918584573964301,0.13362246262977018,0.9761877272431096,0.07116097378752052,-0.1353066792998066,0.15390172034906924
2711.9000000069195,0.074239865,-0.77083933,-0.120276324,-2.349473,0.2511746,1.331225,0.9592773,0.04,0.04,0.00725733486706126,0.004686109683643691,0.004485814214882922,0.04241467810918414,0.11887991752341073,0.1330653121126958,0.9758249638519646,0.07154934859505312,-0.13645483518644783,0.1550045437823511
2711.9166666735864,0.07482153,-0.7707327,-0.12122151,-2.349419,0.25314617,1.3293421,0.9606383,0.04,0.04,0.006685276104301252,0.00490248805171678,0.004372662604801292,0.04191410524430212,0.1185559084598939,0.13249280672833147,0.9754609371244674,0.07193361729446301,-0.13760004759207856,0.1561017032253246
2711.9333333402533,0.07540124,-0.77062637,-0.12216355,-2.3493655,0.25511116,1.3274654,0.9619947,0.04,0.04,0.0062890026056861,0.005009119282611829,0.004632404272375545,0.041411115302133705,0.1182160894301672,0.13190666769944434,0.9750956957499943,0.0723137165363784,-0.1387423505799855,0.15719309999510572
2711.95000000692,0.07597895,-0.77052045,-0.12310233,-2.3493118,0.25706944,1.3255951,0.96334654,0.04,0.04,0.006666324089343867,0.005096236149831901,0.004871730643896122,0.04090665802808208,0.11785745573872869,0.13130633476389905,0.9747293243689075,0.0726896695383063,-0.13988142983208487,0.15827868380131413
2711.966666673587,0.07655457,-0.7704149,-0.124037735,-2.3492584,0.2590206,1.3237317,0.9646933,0.04,0.04,0.00608957751684347,0.0053814978605348784,0.005071855598104413,0.040399225631654295,0.11748156976832304,0.13068874227841018,0.9743619117042572,0.07306135523986935,-0.14101718333587193,0.15935826741828002
2711.983333340254,0.07712805,-0.77030957,-0.12496963,-2.3492055,0.26096442,1.3218752,0.9660351,0.04,0.04,0.0054966702783376675,0.005427550760828126,0.005200742069599862,0.03989176815630319,0.11708866072399594,0.13006000561728964,0.9739935020137376,0.07342889235052667,-0.14214965364911103,0.1604317043811102
2712.000000006921,0.07769931,-0.7702047,-0.12589796,-2.3491528,0.2629008,1.3200259,0.96737194,0.04,0.04,0.0059646928636247765,0.005611888127524112,0.00529361885746038,0.039382898483504056,0.11667592303564406,0.12941775708031084,0.9736241799359071,0.07379230050670323,-0.14327851715961387,0.161498975695214
2712.0166666735877,0.07826828,-0.77010036,-0.12682258,-2.3491004,0.2648294,1.3181838,0.96870327,0.04,0.04,0.005776024948733749,0.0057834474108536815,0.005284061784727179,0.03887220350477044,0.11624394885348394,0.12876178766316393,0.9732540332275609,0.07415138556665507,-0.14440370404483527,0.16255992459078847
2712.0333333402546,0.07883491,-0.7699966,-0.12774338,-2.3490481,0.26675007,1.3163494,0.9700292,0.04,0.04,0.0058084058027318974,0.005887001139545656,0.005692823332936747,0.03836099528593366,0.11579587027695144,0.12809102301499237,0.9728831547302168,0.0745062565644726,-0.14552484661680132,0.1636144981109142
2712.0500000069214,0.07939912,-0.76989305,-0.12866025,-2.3489962,0.26866263,1.3145229,0.9713494,0.04,0.04,0.0053346512001839486,0.005985427159355128,0.005983133670506291,0.03784929540451321,0.11533053543700154,0.12740762868975114,0.972511593161624,0.07485689182985679,-0.14664201051366968,0.1646625873242668
2712.0666666735883,0.07996082,-0.7697897,-0.12957309,-2.3489442,0.27056664,1.3127042,0.9726639,0.04,0.04,0.005406077766045847,0.006334154337114817,0.006129674504573579,0.0373366343760061,0.11484687431323783,0.12671029961268196,0.9721394431664292,0.0752032993080984,-0.14775506093158022,0.16570397937993667
2712.083333340255,0.08052001,-0.7696872,-0.13048176,-2.3488925,0.27246192,1.3108943,0.9739722,0.04,0.04,0.005583143529697132,0.006383980403887324,0.006306987447901591,0.03682372085045509,0.11434510605143605,0.12600127957187804,0.9717668564028712,0.07554534815770028,-0.1488633414333075,0.16673866601938464
2712.100000006922,0.08107656,-0.76958525,-0.13138622,-2.3488412,0.27434838,1.3090925,0.9752745,0.04,0.04,0.004829419880603147,0.006456978624955201,0.00595207223628158,0.03631095451834612,0.11383002885281644,0.12527901648945722,0.9713938117990524,0.07588316669721647,-0.14996729515971396,0.16776655743320476
2712.116666673589,0.08163046,-0.76948357,-0.13228631,-2.3487904,0.27622578,1.3072993,0.9765705,0.039999995,0.04,0.0043421160752954435,0.006499872762022463,0.006320899482825659,0.035798195739874625,0.11329638468248776,0.1245448109626334,0.9710203791205162,0.07621667967530044,-0.1510669283754567,0.16878751204732623
2712.133333340256,0.08218159,-0.76938224,-0.13318194,-2.3487399,0.27809384,1.305515,0.97786,0.03999999,0.04,0.004675140758325647,0.006794618671476793,0.006856988049763757,0.035286451505208996,0.11274223398575778,0.12379664302762394,0.9706466882376923,0.07654592515552361,-0.15216172740617975,0.16980146250269082
2712.1500000069227,0.08272991,-0.7692817,-0.13407303,-2.3486893,0.2799524,1.30374,0.979143,0.039999995,0.04,0.005258930621776514,0.006929382682552276,0.006833500402736448,0.034774551928803674,0.11217250800888809,0.12303630795020581,0.970272850240857,0.07687093461925015,-0.15325129709360516,0.17080835879831577
2712.1666666735896,0.083275355,-0.7691817,-0.13495944,-2.348639,0.28180113,1.3019743,0.9804193,0.039999988,0.04,0.0045369531997296875,0.007079858264422145,0.0069018119041919235,0.03426274859083131,0.11158787500576807,0.12226427092968994,0.9698989316176386,0.07719163275295689,-0.15433571894729015,0.1718080328067317
2712.1833333402565,0.0838179,-0.7690822,-0.13584112,-2.348589,0.28364015,1.3002176,0.9816888,0.039999988,0.04,0.004271529704746868,0.006927546649601601,0.006806174672657761,0.033751565788860224,0.11098745610382148,0.12147987739767517,0.9695249367243322,0.07750806075838733,-0.15541518459198672,0.17280051500326177
2712.2000000069233,0.084357426,-0.7689832,-0.13671786,-2.3485394,0.2854689,1.2984712,0.9829511,0.039999984,0.04,0.0038530176641238256,0.0072685513719861206,0.0075667670605295,0.033242078621622956,0.11036805485691398,0.12068322318143937,0.9691510431221612,0.07782018303254665,-0.15648909387906548,0.17378560994776537
2712.21666667359,0.084893875,-0.7688849,-0.13758966,-2.3484902,0.28728735,1.2967345,0.98420626,0.039999984,0.04,0.003833048756596291,0.0073476048646881065,0.007000255688915935,0.03273317860424845,0.10973401872410415,0.11987483497278448,0.9687772678268675,0.07812802636029934,-0.1575576297197589,0.17476329750850383
2712.233333340257,0.08542721,-0.76878715,-0.1384564,-2.3484416,0.28909504,1.295008,0.9854541,0.03999998,0.04,0.00346228961001227,0.007596679661775463,0.007559389405442651,0.03222596602934917,0.10908339522979775,0.1190542525803508,0.9684037300250429,0.0784316329311261,-0.15862054099992287,0.17573337361535105
2712.250000006924,0.08595735,-0.7686897,-0.139318,-2.3483934,0.29089215,1.2932917,0.9866946,0.03999998,0.04,0.00317606930815284,0.007448245887478611,0.00769718069342229,0.03172059765977615,0.10841566970175924,0.11822363492882285,0.9680304403568067,0.07873107188312954,-0.15967792392691338,0.17669591244036006
2712.266666673591,0.08648427,-0.768593,-0.14017433,-2.3483453,0.29267812,1.2915858,0.9879275,0.039999977,0.04,0.004026423492020648,0.007848703585805472,0.007740965012392742,0.03121562465955733,0.10773031941434401,0.1173806879106801,0.9676575875804939,0.07902623109549431,-0.16072920178496775,0.1776507013504522
2712.2833333402577,0.0870079,-0.76849705,-0.14102527,-2.348297,0.29445297,1.2898905,0.9891527,0.039999966,0.04,0.0038719348375515494,0.0077856236221529596,0.007961656896959823,0.030712942324202314,0.10702985999799579,0.11652787701855544,0.9672852322431186,0.0793171249920548,-0.16177425688433622,0.17859776867836744
2712.3000000069246,0.08752818,-0.7684015,-0.14187078,-2.348249,0.29621643,1.288206,0.9903701,0.039999958,0.04,0.0034006898739002978,0.007978194260763183,0.00822207773345518,0.030211786400532403,0.10631702355232393,0.11566396277527806,0.9669134344233669,0.07960378989909551,-0.16281312717465987,0.17953699503143652
2712.3166666735915,0.088045046,-0.7683066,-0.14271075,-2.348201,0.29796827,1.2865324,0.9915795,0.03999996,0.04,0.0030852880948062378,0.00806895752221981,0.008153507285335593,0.029712857642584915,0.10558754678539235,0.11478892857826636,0.9665422825784199,0.07988623263864307,-0.16384566274947876,0.18046829256433555
2712.3333333402584,0.08855844,-0.76821244,-0.14354503,-2.3481536,0.2997084,1.2848701,0.99278075,0.039999958,0.04,0.002658582026127121,0.008033575957266947,0.008280577595609628,0.02921578934746728,0.10484333998144456,0.1139044102040161,0.9661718483181444,0.0801644813452248,-0.16487174508593364,0.18139162913560944
2712.3500000069253,0.08906828,-0.76811886,-0.14437361,-2.3481064,0.30143648,1.2832195,0.9939738,0.039999954,0.04,0.0026874656048558876,0.008359451167658238,0.008660978883978654,0.028721120917817256,0.10408390173610392,0.11300800105988586,0.965802231202117,0.0804386105652111,-0.1658911543275118,0.18230689798040162
2712.366666673592,0.08957455,-0.768026,-0.1451964,-2.3480594,0.30315244,1.2815804,0.9951585,0.039999947,0.04,0.0026448134842205206,0.008334981032540045,0.008675231817611984,0.028228387086704897,0.10331073594838945,0.11210265886987483,0.9654335105021143,0.08070859025357785,-0.16690374740216382,0.18321408068693448
2712.383333340259,0.09007717,-0.76793396,-0.14601326,-2.348013,0.30485603,1.2799537,0.9963347,0.039999947,0.04,0.002238221081674041,0.008461179315238931,0.008965775499925055,0.027738035152635423,0.10252415373126171,0.11118848903777377,0.9650657914783196,0.08097447258514129,-0.1679092503430763,0.18411310805347056
2712.400000006926,0.0905761,-0.76784223,-0.1468241,-2.347967,0.3065471,1.2783387,0.99750215,0.03999994,0.04,0.0015273160016704423,0.008422892967846485,0.008769090022620052,0.027248965120335963,0.10172483763087514,0.11026345314874819,0.9646990675503798,0.0812362030163835,-0.16890816659230073,0.1850038368394994
2712.4166666735928,0.09107128,-0.76775146,-0.14762887,-2.3479211,0.3082255,1.2767357,0.9986608,0.039999943,0.04,0.0023171528869658786,0.008598143577620565,0.008807201851213087,0.026763542676702834,0.10090888462117147,0.10932839933009383,0.9643334933059527,0.08149375741940999,-0.16989985852075387,0.1858863073618718
2712.4333333402597,0.091562666,-0.7676614,-0.1484275,-2.3478756,0.30989107,1.275145,0.9998106,0.039999936,0.04,0.0019351894710695206,0.008698683102600913,0.009221625667377165,0.02628156565454044,0.10008016921028089,0.10838558995242514,0.9639691380342418,0.08174723518692593,-0.17088423802416292,0.18676045526747806
2712.4500000069265,0.09205019,-0.7675719,-0.14921983,-2.3478303,0.3115435,1.2735667,1.0009513,0.039999932,0.04,0.0015833067589010597,0.008788851800684006,0.009172227648601705,0.02580251572372013,0.09923764123620511,0.10743248788437187,0.9636060748542307,0.08199660852607396,-0.1718613720629001,0.18762611088785586
2712.4666666735934,0.09253381,-0.7674833,-0.15000583,-2.3477857,0.31318274,1.2720008,1.0020831,0.039999925,0.04,0.0009754185904986556,0.008746911067922247,0.008902669952837172,0.025326755316560423,0.09838156573668914,0.1064700817847474,0.9632443297545887,0.08224200437928159,-0.17283131604713445,0.18848328866169203
2712.4833333402603,0.09301347,-0.7673954,-0.1507854,-2.3477414,0.3148086,1.2704477,1.0032053,0.039999917,0.04,0.0013858429761759439,0.008910343896867401,0.009573525412620576,0.024854095963536146,0.09750969883499917,0.10549919359614268,0.9628840581062441,0.08248324277151114,-0.17379358191555222,0.18933197350608652
2712.500000006927,0.09348915,-0.7673081,-0.15155853,-2.3476973,0.3164209,1.2689079,1.0043185,0.039999913,0.04,0.0011649909385180734,0.009055258150814094,0.0098938585961994,0.02438602326613917,0.09662666478000134,0.104520785366813,0.9625253162178847,0.08272067350775186,-0.1747480495300201,0.19017209311446995
2712.516666673594,0.09396076,-0.76722157,-0.15232506,-2.3476536,0.31801948,1.267381,1.0054221,0.03999991,0.04,0.0006511585878499204,0.009012619940027,0.009436764259518338,0.02391938465050633,0.09573012615675792,0.10353256289690452,0.9621681570487548,0.08295408294128769,-0.17569490767980708,0.19100355258517263
2712.533333340261,0.09442827,-0.7671357,-0.15308487,-2.3476105,0.31960416,1.2658675,1.0065162,0.039999913,0.04,0.0004465432653644186,0.009040686532951758,0.009933666644157402,0.023457006720748304,0.09482006221848967,0.10253783832217396,0.9618126800836356,0.0831835924940145,-0.17663387726727847,0.19182630625556008
2712.550000006928,0.094891645,-0.76705074,-0.15383801,-2.3475678,0.32117477,1.2643673,1.0076005,0.0399999,0.04,0.0005205145316766746,0.009231550246585618,0.009677862306844975,0.022998534060643564,0.09389759070505083,0.10153543508533308,0.9614589634121368,0.08340913499840479,-0.1775648281713825,0.19264036355277303
2712.5666666735947,0.095350824,-0.7669665,-0.1545843,-2.347526,0.32273114,1.2628797,1.0086752,0.0399999,0.04,-0.0006298021368422724,0.009096531302635325,0.0088825883649446,0.02254374390959814,0.09296224726502349,0.10052427132758965,0.9611069599092488,0.08363076325078792,-0.17848849320570412,0.19344550872338653
2712.5833333402616,0.095805764,-0.766883,-0.15532374,-2.3474846,0.32427317,1.2614073,1.0097399,0.039999895,0.04,0.000390705526731594,0.009391644990347503,0.011347711764853052,0.02209423842324751,0.09200937837269649,0.09950566647469117,0.9607569665785964,0.08384864789412047,-0.17940321434639986,0.1942419679142517
2712.6000000069284,0.096256435,-0.76680046,-0.15605621,-2.347443,0.32580063,1.2599486,1.0107943,0.039999887,0.04,0.0006522025727484504,0.009439120139984047,0.01025038311280868,0.0216461724094348,0.09104957307865941,0.09848019762783045,0.9604090226083429,0.08406253974359057,-0.18030934308363233,0.19502958621987013
2712.6166666735953,0.096702784,-0.7667183,-0.15678164,-2.3474016,0.32731345,1.2585032,1.0118389,0.039999895,0.04,-1.6053585061293063e-05,0.009387060179466555,0.010064432869405504,0.02120326789798713,0.09008122216905923,0.09744751411344335,0.9600630762489875,0.08427271816351592,-0.18120744541160244,0.19580822333105546
2712.633333340262,0.097144775,-0.76663744,-0.1575,-2.3473608,0.3288115,1.2570723,1.0128732,0.039999887,0.04,-0.0004117242359047424,0.0094391749223377,0.010298226691107804,0.02076458420136863,0.08909808876590973,0.09640859709101501,0.9597193024195235,0.08447905855016351,-0.182096770524647,0.19657801350699272
2712.650000006929,0.09758235,-0.7665571,-0.1582112,-2.3473203,0.3302946,1.2556559,1.013897,0.039999887,0.04,-0.0005591475918276245,0.009529808762895331,0.010827358658049846,0.020329515884148937,0.08810714115346564,0.09536190773693654,0.959377742310498,0.08468161541540035,-0.18297744714273845,0.1973388593434558
2712.666666673596,0.09801549,-0.7664778,-0.15891518,-2.3472803,0.33176273,1.2542539,1.0149103,0.039999876,0.04,-0.0005778634235120705,0.009470479892928485,0.010394246245815086,0.019898959049462546,0.08710640412924667,0.09430855707540015,0.9590384667296205,0.08488044020039888,-0.18384933473589765,0.19809076788546431
2712.683333340263,0.098444134,-0.76639915,-0.15961188,-2.3472407,0.33321565,1.2528658,1.0159132,0.039999876,0.04,-0.0012303452400885817,0.009552739454116166,0.010272641691189133,0.0194729746709774,0.08609449446030147,0.09324843485117328,0.9587014721181916,0.08507555435430993,-0.18471285011915592,0.19883359980289367
2712.7000000069297,0.09886826,-0.7663214,-0.16030122,-2.3472016,0.33465323,1.2514925,1.0169058,0.039999876,0.04,-0.0010561316019730427,0.009619365349966547,0.010727662098941604,0.01905219222684803,0.08506884719433626,0.09218293096874258,0.9583669008427936,0.08526712584814443,-0.18556741970913687,0.19956736547108275
2712.7166666735966,0.09928782,-0.76624453,-0.16098318,-2.347163,0.33607528,1.2501341,1.0178877,0.03999988,0.04,-0.0013497564090414471,0.009717787325536076,0.010884709770209167,0.018634624701935977,0.08403488531879977,0.09111215349194658,0.9580348199279796,0.08545514238632557,-0.18641299893136068,0.2002920274866505
2712.7333333402635,0.099702775,-0.7661682,-0.16165762,-2.3471248,0.33748183,1.2487905,1.0188587,0.039999872,0.04,-0.0017458377223888988,0.00956537886803166,0.01094087740505234,0.018221421206811323,0.08299034412241454,0.09003578090832028,0.9577052582851489,0.08563948931654063,-0.187249735405235,0.2010075936706076
2712.7500000069303,0.100113094,-0.76609296,-0.16232455,-2.3470871,0.33887267,1.2474618,1.019819,0.039999872,0.04,-0.0014096349323811097,0.009741653335279543,0.010696202639104424,0.01781359906041385,0.08193482349783027,0.08895342853887395,0.957378316557254,0.0858203657422468,-0.1880773066871503,0.20171403153765186
2712.7666666735972,0.10051875,-0.76601845,-0.16298391,-2.3470497,0.34024766,1.2461485,1.0207683,0.03999987,0.04,-0.0016022060084663892,0.00981707075154159,0.011419535987922114,0.01740975917513054,0.08087015052800581,0.0878657932785312,0.9570540929365638,0.0859976954256103,-0.18889550089234022,0.20241133692925103
2712.783333340264,0.10091971,-0.765945,-0.16363561,-2.3470128,0.3416067,1.2448503,1.0217063,0.03999986,0.04,-0.0017998300573918158,0.00975234257822033,0.010891652286570963,0.017010298234666772,0.0797987308543144,0.08677335923806026,0.9567326402623911,0.0861714103583843,-0.18970435137168754,0.20309948834019356
2712.800000006931,0.101315916,-0.76587224,-0.16427964,-2.346976,0.3429497,1.2435673,1.0226336,0.03999986,0.04,-0.0019928051986584094,0.009861985852580024,0.011340355256450607,0.01661682863379433,0.07871936460945304,0.08567648061289812,0.9564139867949901,0.08634181540852073,-0.19050389838779294,0.20377841267888694
2712.816666673598,0.10170737,-0.7658006,-0.16491595,-2.3469403,0.34427655,1.2423,1.0235498,0.03999986,0.04,-0.002723547415794947,0.009742662803088886,0.010997483151442555,0.016226713914455727,0.07763089945171142,0.08457521676671714,0.9560981851290281,0.08650891816789433,-0.19129407263501033,0.20444814805987085
2712.8333333402647,0.10209405,-0.76572967,-0.16554448,-2.3469052,0.3455871,1.2410481,1.0244547,0.039999858,0.04,-0.0029527785286864727,0.009801400615652711,0.011141339745779355,0.015841245686379624,0.07653375037709781,0.0834701081655588,0.9557852811449312,0.0866726128536529,-0.19207501404701102,0.20510861392605123
2712.8500000069316,0.102475904,-0.7656597,-0.16616517,-2.346871,0.34688136,1.2398118,1.0253482,0.039999854,0.04,-0.002857699830771665,0.00976543351737802,0.011190742895150763,0.015461090622117268,0.07542664660242707,0.08236169824897435,0.9554753575470705,0.08683289818205747,-0.19284647147938896,0.20575987789545255
2712.8666666735985,0.10285288,-0.7655906,-0.16677798,-2.3468368,0.34815913,1.2385913,1.0262302,0.039999846,0.04,-0.0024116153859887746,0.009951642174196862,0.011642279786328036,0.015085920709324937,0.07431063558742594,0.0812475489974342,0.9551685266710503,0.08698986859200206,-0.1936081068035251,0.20640191229578303
2712.8833333402654,0.103225,-0.7655223,-0.16738288,-2.3468027,0.34942043,1.2373866,1.0271009,0.039999846,0.04,-0.0023055125758508765,0.009894438980889708,0.011712777874195446,0.014716028447876709,0.07319009618057877,0.08012982385545107,0.9548648274262899,0.08714359777887815,-0.19435992279703826,0.20703471960191688
2712.9000000069323,0.10359218,-0.765455,-0.16797978,-2.3467686,0.35066515,1.2361975,1.0279601,0.039999843,0.04,-0.0022579138512890395,0.009911414959362652,0.01147241013338407,0.014350511258398198,0.0720638402922873,0.07901110972694435,0.954564333584911,0.0872939993861146,-0.19510182011763536,0.2076583022793882
2712.916666673599,0.10395448,-0.7653885,-0.16856876,-2.346735,0.3518931,1.2350243,1.0288078,0.039999843,0.04,-0.0033194911263745297,0.00997993294180044,0.011660296999449482,0.013990065847455217,0.07093277575822922,0.07788757208266749,0.9542670491415589,0.08744128667488063,-0.19583397577265207,0.20827259598991768
2712.933333340266,0.104311824,-0.76532316,-0.16914967,-2.3467016,0.35310435,1.2338675,1.0296441,0.03999984,0.04,-0.0026983961998849892,0.009854344757423417,0.011806784781953628,0.013634626882886294,0.06979412469831556,0.07676115551325072,0.9539730926670557,0.08758553053193986,-0.1965559099248413,0.20887768569741783
2712.950000006933,0.10466421,-0.7652583,-0.16972244,-2.3466687,0.3542987,1.2327267,1.0304687,0.03999983,0.04,-0.0038737763744745024,0.009814275754757573,0.011789505932802147,0.013281651010594673,0.06865364194912617,0.07563319432356844,0.9536824375684984,0.08772660380956204,-0.19726817937448451,0.20947342710645553
2712.9666666736,0.105011575,-0.76519483,-0.17028713,-2.3466363,0.35547617,1.2316021,1.0312818,0.03999983,0.04,-0.0031890008541868298,0.00994319447635561,0.011487461268622212,0.012935031755329352,0.06750468296722498,0.07450269471420376,0.9533951874695283,0.08786469270070434,-0.1979702750586198,0.21005994972809136
2712.9833333402667,0.105353944,-0.76513183,-0.17084368,-2.3466043,0.35663667,1.2304935,1.0320832,0.039999835,0.04,-0.004118004565145661,0.009800457304948162,0.011876034422875215,0.012592153794484647,0.06635227599189275,0.0733699415270783,0.9531113198923863,0.08799973710476763,-0.19866262874592802,0.2106371717011097
2713.0000000069335,0.105691284,-0.7650702,-0.17139208,-2.346573,0.3577802,1.2294015,1.0328727,0.03999983,0.04,-0.003779629102695914,0.009848157710348748,0.011541337133491592,0.012254946341418698,0.0651926142277304,0.07223544514028152,0.952830948362718,0.08813175692780219,-0.19934475613413663,0.2112052212063984
2713.0166666736004,0.10602359,-0.76500905,-0.17193228,-2.3465426,0.35890654,1.2283256,1.0336503,0.039999824,0.04,-0.004751708219097317,0.009805112012692407,0.011836469273318606,0.011922787944529105,0.06403017399995078,0.07110034117717581,0.9525540414546749,0.08826081229406543,-0.20001716378472764,0.21176392826227658
2713.0333333402673,0.106350824,-0.7649492,-0.17246424,-2.3465126,0.3600157,1.2272661,1.034416,0.03999983,0.04,-0.0038008129639610644,0.009879582627217443,0.011564172585321053,0.011595658688529072,0.06285914402686586,0.06996236480091571,0.952280740769393,0.08838686354008501,-0.20067927738489674,0.21231340217121986
2713.050000006934,0.106673,-0.76488996,-0.17298798,-2.346483,0.3611077,1.2262231,1.0351701,0.039999824,0.04,-0.004502974149755978,0.009786283595267231,0.012163961838185244,0.011274423000484776,0.06168686546762884,0.06882403132574194,0.9520110061917464,0.08851023737496347,-0.20133135377701597,0.21285363035645025
2713.066666673601,0.10699008,-0.76483196,-0.17350347,-2.3464537,0.36218247,1.2251965,1.0359124,0.039999824,0.04,-0.0037521539469453913,0.009899911023808494,0.011702488581077919,0.010956314777126355,0.060507965661091984,0.06768431218866013,0.9517449587859795,0.08863076520914812,-0.20197304266141378,0.2133846548419202
2713.083333340268,0.10730208,-0.7647745,-0.17401068,-2.346425,0.36324,1.2241862,1.0366427,0.039999824,0.04,-0.005143943271734841,0.009654713022305694,0.011863950275292634,0.01064290822921826,0.05932882554649672,0.06654579988785654,0.9514825310051078,0.08874845660185372,-0.2026048839105405,0.21390644136747988
2713.100000006935,0.10760897,-0.76471835,-0.17450957,-2.3463979,0.36428016,1.2231926,1.0373607,0.03999982,0.04,-0.005623448153935229,0.009655432046346002,0.011357127157618496,0.010335192673905081,0.05814312619079502,0.06540563208628558,0.9512238052980468,0.08886325287720909,-0.20322665306001816,0.21441903368966067
2713.1166666736017,0.10791074,-0.7646628,-0.17500015,-2.3463707,0.36530307,1.2222154,1.0380669,0.039999817,0.04,-0.004294827922701749,0.009741639268606717,0.012260094602434268,0.010033772696318818,0.056952272656203326,0.06426510370941807,0.9509688347930529,0.08897540024235656,-0.20383815113845827,0.21492245472381571
2713.1333333402686,0.108207375,-0.76460856,-0.1754824,-2.346344,0.36630857,1.221255,1.0387614,0.039999817,0.04,-0.004490900814424492,0.009789344792837662,0.011806214712861696,0.009736562849246415,0.055760223252828305,0.06312539437204043,0.9507176928099099,0.08908498651807331,-0.20443916349409766,0.21541671751540115
2713.1500000069354,0.10849889,-0.7645549,-0.17595632,-2.3463173,0.36729673,1.2203108,1.0394436,0.039999813,0.04,-0.004529457976287787,0.009695075967591782,0.012142190506647665,0.00944272516493309,0.05456676510568302,0.061986620986650406,0.9504703885645199,0.0891917626123968,-0.20502989647652892,0.21590185616369342
2713.1666666736023,0.10878526,-0.7645026,-0.17642191,-2.3462906,0.36826736,1.2193835,1.0401138,0.039999817,0.04,-0.004058237958481925,0.009892614871850891,0.012116967127862033,0.009155366044260545,0.053372256415504804,0.06084768848036337,0.9502270539612391,0.08929589770184468,-0.20560980115921285,0.21637790608339647
2713.183333340269,0.109066516,-0.7644509,-0.17687915,-2.3462641,0.3692207,1.2184727,1.040772,0.039999813,0.04,-0.004974179023076175,0.009533241040782237,0.012170041102177453,0.008872099602012556,0.0521806481194855,0.0597123590653128,0.9499875948954163,0.08939743691285787,-0.20617942151601287,0.21684490762191377
2713.200000006936,0.10934261,-0.7644005,-0.17732805,-2.3462381,0.37015662,1.2175786,1.0414181,0.03999981,0.04,-0.004935772875613864,0.009651169137020466,0.011811656842708462,0.008593448273496153,0.05098869432023851,0.058575638816188075,0.9497520902396505,0.08949641716335598,-0.20673852234248197,0.2173028802846031
2713.216666673603,0.10961356,-0.7643507,-0.1777686,-2.3462126,0.37107512,1.2167014,1.0420524,0.039999817,0.04,-0.005530488563709746,0.009546163844284528,0.012241692340420052,0.008318846531180042,0.049796250605019826,0.05744016517034553,0.9495205072139487,0.08959306604090624,-0.20728735018864683,0.21775179298762315
2713.23333334027,0.1098794,-0.7643021,-0.1782008,-2.3461878,0.37197626,1.2158407,1.0426747,0.039999817,0.04,-0.005531963666949302,0.009420204377902364,0.011643132889516128,0.008048676525730564,0.048603143133980536,0.05630897537010191,0.9492928842573279,0.08968720572066394,-0.20782588535272745,0.21819171937948922
2713.2500000069367,0.11014009,-0.7642542,-0.17862462,-2.3461635,0.37285993,1.2149965,1.0432845,0.039999813,0.04,-0.005631867325894824,0.009474633393247167,0.0118620404677805,0.0077825798610330135,0.04741059547576271,0.0551774738561433,0.9490692545715257,0.08977873690796206,-0.2083541857672692,0.2186226468129913
2713.2666666736036,0.11039566,-0.7642075,-0.17904013,-2.34614,0.37372622,1.2141689,1.0438825,0.03999981,0.04,-0.0056945309162115265,0.009424521654138873,0.011740884795685691,0.007523411195677792,0.04621723919416138,0.054049237646780574,0.9488496295295781,0.08986792655807699,-0.2088721398556557,0.21904466555899962
2713.2833333402705,0.110646084,-0.7641615,-0.17944732,-2.346117,0.37457508,1.2133579,1.0444688,0.03999981,0.04,-0.006114198589424191,0.009393300121554593,0.011841955462321696,0.0072686241930189875,0.04502479642468492,0.052923770005000745,0.9486339893148605,0.08995495785714545,-0.20937998879411687,0.21945769561823966
2713.3000000069374,0.11089139,-0.7641167,-0.17984623,-2.3460946,0.37540656,1.2125635,1.0450429,0.0399998,0.04,-0.0055241487484369856,0.009402296970270618,0.011747215570490077,0.007016737601109433,0.043830242412255145,0.051802070593020354,0.9484224248031046,0.0900395765883757,-0.209877399000122,0.21986190249183435
2713.3166666736042,0.11113157,-0.7640727,-0.18023682,-2.3460727,0.3762208,1.2117858,1.0456051,0.039999798,0.04,-0.005815566377664894,0.009237511109014274,0.01200579280861147,0.006770371255857807,0.04263926665511637,0.05068267667808689,0.9482149195831302,0.09012196106022546,-0.2103644806547036,0.22025731246316022
2713.333333340271,0.111366674,-0.7640297,-0.18061912,-2.3460512,0.37701774,1.2110245,1.0461551,0.039999805,0.04,-0.005801728164289699,0.009223581557726845,0.01173521019729451,0.006527405336730072,0.04145037135269888,0.049567518595326786,0.9480115013061043,0.09020197820032537,-0.21084126328063751,0.22064396256938293
2713.350000006938,0.11159669,-0.7639876,-0.18099314,-2.346031,0.3777975,1.2102796,1.0466936,0.0399998,0.04,-0.006830109182431876,0.008976328020107727,0.011293885917074142,0.0062909088695619255,0.04026425938888177,0.048456044209544136,0.9478120698231228,0.09027995286752073,-0.21130821545263834,0.22102182808507284
2713.366666673605,0.11182164,-0.7639464,-0.18135892,-2.3460112,0.3785599,1.2095511,1.04722,0.039999798,0.04,-0.006042851216014888,0.009270248517198598,0.011760803582705481,0.006057071332943506,0.03907521426436443,0.04734814069295283,0.9476167647635165,0.09035570393591309,-0.21176490011769789,0.2213909234442853
2713.3833333402717,0.11204154,-0.7639062,-0.1817165,-2.3459914,0.3793052,1.2088392,1.0477346,0.039999805,0.04,-0.005252902831709427,0.009106628794303129,0.012056184540898407,0.005828713864350168,0.03789089456793137,0.046245299193735614,0.947425615087981,0.09042932694932702,-0.21221104027684579,0.22175147144330692
2713.4000000069386,0.11225637,-0.7638669,-0.18206586,-2.3459718,0.38003355,1.2081435,1.0482373,0.0399998,0.04,-0.005638834686583216,0.008973478505983068,0.011648233453986911,0.0056037637882084025,0.03671218668408088,0.04514788324262434,0.9472385910658225,0.09050075830182948,-0.21264690254290924,0.22210348754879078
2713.4166666736055,0.11246617,-0.7638284,-0.18240704,-2.3459525,0.38074487,1.2074641,1.0487283,0.0399998,0.04,-0.005867362959488531,0.008963132792721984,0.011841178250326934,0.005383623037724504,0.03553858749009373,0.0440542556470689,0.9470556933128642,0.09057017171133663,-0.2130725414208633,0.2224469596383003
2713.4333333402724,0.112670995,-0.7637909,-0.1827401,-2.3459334,0.38143915,1.206801,1.0492077,0.039999798,0.04,-0.0057329900043257,0.009000862274635701,0.011700403257164371,0.005167033554739211,0.03436992063757134,0.042966426488939335,0.9468769596832886,0.09063756496035531,-0.21348784732883883,0.22278194289907696
2713.4500000069393,0.11287082,-0.76375425,-0.18306504,-2.3459144,0.38211656,1.2061541,1.0496756,0.0399998,0.04,-0.005554205444369131,0.008859430108107413,0.01172184760965811,0.004953860219327957,0.033208025712867885,0.041884653886386305,0.9467023703987487,0.09070304068717712,-0.21389292815076527,0.22310848387854387
2713.466666673606,0.11306569,-0.7637186,-0.1833819,-2.345896,0.38277704,1.2055231,1.0501314,0.03999981,0.04,-0.0064774617229979015,0.008770333231181149,0.011175367588922569,0.004743325868211751,0.032052040917689435,0.04080836417453936,0.9465319062081321,0.0907663412922762,-0.214288036464266,0.22342663056740394
