rsonawane2002/My_IMU/logs_2/traj_496/imu_496.csv
time,j1,j2,j3,j4,j5,j6,j7,gripper1,gripper2,imu_ax,imu_ay,imu_az,imu_gx,imu_gy,imu_gz
2708.283333340207,0.00016700293,-0.785875,4.0107683e-05,-2.3551247,9.29385e-05,1.570997,0.786,0.04,0.04,-9.497542,0.05285003408789635,0.07190436,-1.8847045e-07,-0.0011641276068985462,2.4250205e-08
2708.3000000068737,0.00016700783,-0.78576016,4.011138e-05,-2.3552213,9.2980845e-05,1.5709941,0.786,0.04,0.04,-9.83414,0.0006303457194007933,0.009169977,2.0167988e-07,-0.0022376503329724073,1.5160313e-06
2708.3166666735406,0.00016702701,-0.78565425,4.00923e-05,-2.35531,9.306709e-05,1.5709913,0.786,0.04,0.04,-9.832524,0.0006347889429889619,0.007540204,2.2065888e-06,-0.0032244171015918255,5.5600212e-06
2708.3333333402074,0.00016708355,-0.7855569,4.0013896e-05,-2.355391,9.3273935e-05,1.5709884,0.786,0.04,0.04,-9.830702,0.0006347368471324444,0.0061584716,7.4359014e-06,-0.004128739703446627,1.5481322e-05
2708.3500000068743,0.00016721028,-0.78546727,3.9823717e-05,-2.3554652,9.371024e-05,1.5709856,0.786,0.04,0.04,-9.828955,0.000639223784673959,0.0049057277,1.7893108e-05,-0.004952071234583855,3.3215583e-05
2708.366666673541,0.00016744873,-0.78538465,3.945502e-05,-2.355532,9.4529634e-05,1.5709827,0.786,0.04,0.039999995,-9.82705,0.0006582915084436536,0.0038156854,3.5027442e-05,-0.005697470623999834,6.366906e-05
2708.383333340208,0.00016784846,-0.7853086,3.8828493e-05,-2.3555956,9.588499e-05,1.5709797,0.7860018,0.04,0.039999995,-9.825699,0.000661766913253814,0.0026314505,6.028075e-05,-0.006366590037941933,0.00010548469
2708.400000006875,0.00016846588,-0.7852385,3.785321e-05,-2.3556538,9.795708e-05,1.5709767,0.7860037,0.04,0.04,-9.824656,0.000681291043292731,0.0016051996,8.7123255e-05,-0.006977787707000971,0.00016120449
2708.416666673542,0.00016936348,-0.785174,3.642775e-05,-2.3557053,0.00010097882,1.5709734,0.7860056,0.04,0.039999995,-9.823164,0.0007185047725215554,0.00070504425,0.00012466514,-0.007521387189626694,0.00023477718
2708.4333333402087,0.00017060965,-0.78511477,3.4441822e-05,-2.3557549,0.00010517004,1.5709667,0.7860084,0.04,0.039999995,-9.821914,0.0007573295733891428,-0.00026622135,0.00017513755,-0.007992704398930073,0.00032529497
2708.4500000068756,0.00017227749,-0.7850599,3.1777137e-05,-2.3557985,0.00011076792,1.5709599,0.78601223,0.04,0.04,-9.821172,0.0008142598671838641,-0.0010417164,0.00023556291,-0.008425990119576454,0.00043413843
2708.4666666735425,0.00017444452,-0.78500956,2.8308092e-05,-2.3558404,0.00011804255,1.5709528,0.78601795,0.04,0.04,-9.8199215,0.0008941447595134377,-0.001912273,0.00030679922,-0.008791681379079819,0.0005633792
2708.4833333402094,0.00017719196,-0.784963,2.3902943e-05,-2.3558772,0.00012727354,1.5709423,0.7860237,0.04,0.04,-9.8190775,0.000996698741801083,-0.0026346922,0.00038640265,-0.009107339195907116,0.0007143164
2708.5000000068762,0.00018060437,-0.7849201,1.8424242e-05,-2.355912,0.00013876206,1.5709313,0.7860313,0.04,0.039999995,-9.81813,0.0011350151617079973,-0.003415053,0.00048426448,-0.009371079504489899,0.0008890091
2708.516666673543,0.00018476948,-0.7848805,1.1730347e-05,-2.3559446,0.00015277823,1.5709169,0.78604084,0.04,0.04,-9.817436,0.001276992610655725,-0.004156167,0.00059299974,-0.009584914892911911,0.0010842091
2708.53333334021,0.0001897771,-0.78484386,3.6752936e-06,-2.3559725,0.00016963275,1.5708994,0.7860523,0.039999995,0.04,-9.816817,0.0014689035015180707,-0.0048454427,0.00071398815,-0.009760583750903606,0.0013031089
2708.550000006877,0.00019571911,-0.7848099,-5.8904293e-06,-2.3559997,0.00018964364,1.5708802,0.7860658,0.03999999,0.039999995,-9.815739,0.0016991130542010069,-0.0054959254,0.0008483384,-0.009884224273264408,0.0015464951
2708.5666666735438,0.00020268947,-0.78477836,-1.7118971e-05,-2.356025,0.0002131287,1.5708574,0.7860821,0.039999988,0.03999999,-9.815371,0.001969551434740424,-0.0062682917,0.0009963214,-0.009967193007469177,0.0018145889
2708.5833333402106,0.00021078315,-0.784749,-3.0164872e-05,-2.3560464,0.00024041042,1.5708308,0.78610116,0.039999988,0.03999999,-9.814824,0.002289256313815713,-0.006970633,0.0011565681,-0.010012983344495296,0.0021075674
2708.6000000068775,0.00022009648,-0.7847217,-4.5184497e-05,-2.3560665,0.00027181543,1.5708004,0.78612286,0.039999984,0.039999988,-9.81404,0.002650244627147913,-0.00767458,0.001329356,-0.010013118386268616,0.0024257174
2708.6166666735444,0.0002307265,-0.78469616,-6.233561e-05,-2.3560855,0.00030767292,1.570766,0.78614765,0.039999977,0.03999998,-9.813519,0.003070924896746874,-0.008343995,0.0015174107,-0.009977603331208229,0.0027692532
2708.6333333402113,0.00024277094,-0.7846723,-8.177685e-05,-2.3561034,0.00034831447,1.5707269,0.78617567,0.039999973,0.039999977,-9.813144,0.0035505678970366716,-0.009127762,0.001719079,-0.00990721769630909,0.0031383466
2708.650000006878,0.00025632782,-0.78464985,-0.000103667764,-2.3561184,0.00039407288,1.5706825,0.78620726,0.039999966,0.03999997,-9.81278,0.0040949429385364056,-0.009882187,0.0019348861,-0.009806863032281399,0.0035330886
2708.666666673545,0.00027149543,-0.78462875,-0.00012816768,-2.3561316,0.00044528116,1.5706329,0.7862426,0.03999996,0.039999966,-9.812144,0.004699432756751776,-0.010642742,0.0021645585,-0.00966770388185978,0.0039535146
2708.683333340212,0.0002883718,-0.7846088,-0.00015543653,-2.3561435,0.0005022727,1.5705783,0.7862818,0.039999958,0.03999996,-9.811703,0.005381428170949221,-0.011496462,0.0024083445,-0.009494833648204803,0.0043996274
2708.700000006879,0.00030705496,-0.7845899,-0.00018563341,-2.356155,0.0005653796,1.5705174,0.7863254,0.03999995,0.039999954,-9.811323,0.006142540834844112,-0.012369393,0.00266621,-0.009288854897022247,0.00487136
2708.7166666735457,0.0003276427,-0.7845718,-0.00021891708,-2.3561664,0.00063493336,1.5704509,0.7863734,0.039999943,0.03999995,-9.811066,0.00696788402274251,-0.013255143,0.0029376002,-0.00905800610780716,0.0053677685
2708.7333333402125,0.00035023197,-0.7845546,-0.00025544534,-2.3561752,0.0007112649,1.5703777,0.7864262,0.039999936,0.03999994,-9.810852,0.007900101132690907,-0.0141891185,0.003222738,-0.008801066316664219,0.00589129
2708.7500000068794,0.00037491936,-0.784538,-0.0002953753,-2.3561826,0.0007947002,1.5702978,0.7864837,0.039999932,0.039999936,-9.810366,0.008908855728805065,-0.015229531,0.00352079,-0.008510429412126541,0.006439177
2708.7666666735463,0.00040180061,-0.7845219,-0.00033886242,-2.356189,0.0008855645,1.5702108,0.7865465,0.039999932,0.039999936,-9.810014,0.010007926262915134,-0.016295949,0.0038330907,-0.008190130814909935,0.0070120767
2708.783333340213,0.00043097054,-0.7845064,-0.00038606118,-2.3561943,0.0009841797,1.5701165,0.7866146,0.03999994,0.039999947,-9.809718,0.011204764246940613,-0.017404763,0.0041579567,-0.007843710482120514,0.0076089073
2708.80000000688,0.00046252305,-0.78449124,-0.00043712425,-2.3561985,0.0010908656,1.5700145,0.7866882,0.03999994,0.039999947,-9.809402,0.012509869411587715,-0.018531043,0.0044964515,-0.007469190750271082,0.008231115
2708.816666673547,0.0004965512,-0.7844764,-0.00049220264,-2.3562026,0.0012059365,1.5699046,0.7867676,0.039999936,0.039999943,-9.80914,0.013922332786023617,-0.01980895,0.0048479824,-0.007069651503115892,0.0088775605
2708.833333340214,0.0005331466,-0.7844616,-0.00055144564,-2.3562064,0.0013297042,1.5697863,0.78685296,0.039999943,0.03999995,-9.808969,0.015441703610122204,-0.021129182,0.005212226,-0.006648373324424028,0.009547942
2708.8500000068807,0.00057239964,-0.784447,-0.0006150005,-2.3562098,0.0014624757,1.5696592,0.78694457,0.03999995,0.039999958,-9.80884,0.01707085594534874,-0.022526946,0.0055891415,-0.006207431200891733,0.010241931
2708.8666666735476,0.0006143997,-0.78443253,-0.00068301253,-2.356212,0.0016045537,1.5695235,0.7870427,0.039999954,0.03999996,-9.808663,0.018820621073246002,-0.023950938,0.005978402,-0.005745754111558199,0.010959184
2708.8833333402144,0.0006592346,-0.7844181,-0.0007556244,-2.3562129,0.0017562374,1.5693783,0.78714746,0.03999996,0.03999997,-9.808354,0.02069205231964588,-0.025557863,0.0063794274,-0.005258635152131319,0.011699317
2708.9000000068813,0.00070699106,-0.78440356,-0.00083297695,-2.3562129,0.0019178195,1.569224,0.787259,0.039999966,0.039999973,-9.8081,0.022690044716000557,-0.027182965,0.0067918804,-0.004748635459691286,0.012461956
2708.916666673548,0.00075775397,-0.78438896,-0.00091520854,-2.3562124,0.0020895898,1.5690597,0.7873776,0.03999997,0.039999977,-9.807886,0.024812139570713043,-0.028874792,0.0072165425,-0.00421501137316227,0.013246715
2708.933333340215,0.00081160705,-0.78437436,-0.0010024551,-2.3562114,0.0022718306,1.5688856,0.7875033,0.039999973,0.03999998,-9.807713,0.02707718312740326,-0.030729426,0.0076522427,-0.0036635638680309057,0.014053183
2708.950000006882,0.00086863234,-0.78435946,-0.0010948502,-2.3562095,0.002464822,1.568701,0.78763646,0.039999977,0.039999984,-9.807547,0.02947445958852768,-0.03262877,0.008099486,-0.0030920656863600016,0.014880946
2708.966666673549,0.0009289103,-0.7843443,-0.0011925249,-2.3562071,0.0026688366,1.5685062,0.78777725,0.03999997,0.039999977,-9.807336,0.03200747072696686,-0.034642376,0.008557676,-0.002500812290236354,0.015729567
2708.9833333402157,0.0009925195,-0.7843289,-0.0012956078,-2.3562036,0.0028841416,1.5683007,0.78792584,0.039999966,0.039999973,-9.807215,0.0346866138279438,-0.036707927,0.009026175,-0.001889759674668312,0.016598612
2709.0000000068826,0.0010595379,-0.78431326,-0.001404224,-2.3561997,0.0031110004,1.5680841,0.78808236,0.03999997,0.039999977,-9.806919,0.03751834109425545,-0.038968794,0.009504958,-0.0012574606807902455,0.017487627
2709.0166666735495,0.0011300409,-0.78429717,-0.0015184969,-2.356196,0.0033496683,1.5678563,0.78824705,0.03999997,0.03999998,-9.806807,0.04048683121800423,-0.04127633,0.009993927,-0.0006086351349949837,0.018395325
2709.0333333402164,0.0012041018,-0.7842806,-0.0016385473,-2.3561919,0.003600398,1.5676167,0.78842,0.039999973,0.039999984,-9.8067465,0.043628185987472534,-0.04370734,0.010492468,5.3709125495515764e-05,0.01932294
2709.0500000068832,0.0012817938,-0.7842638,-0.0017644919,-2.3561876,0.0038634348,1.5673654,0.7886017,0.039999973,0.039999984,-9.806703,0.04691397771239281,-0.046203114,0.011000514,0.000729920226149261,0.020269157
2709.06666667355,0.0013631872,-0.7842464,-0.0018964465,-2.3561833,0.004139017,1.5671021,0.78879195,0.039999977,0.039999988,-9.806513,0.05036662518978119,-0.048918813,0.011516627,0.0014223773032426834,0.021233507
2709.083333340217,0.0014483507,-0.7842286,-0.002034523,-2.356178,0.004427378,1.5668267,0.7889909,0.03999997,0.039999984,-9.806454,0.05396953225135803,-0.051708277,0.012041854,0.0021273528691381216,0.022214668
2709.100000006884,0.0015373514,-0.78421015,-0.0021788296,-2.3561716,0.0047287494,1.5665387,0.78919894,0.03999997,0.039999984,-9.806219,0.057755906134843826,-0.05461482,0.012576345,0.002851452911272645,0.023213832
2709.1166666735508,0.0016302553,-0.78419125,-0.0023294738,-2.3561647,0.0050433488,1.5662383,0.789416,0.039999966,0.03999998,-9.806102,0.06169717758893967,-0.057597186,0.013118439,0.003590760286897421,0.024229689
2709.1333333402176,0.0017271255,-0.78417176,-0.0024865586,-2.3561573,0.005371394,1.565925,0.78964245,0.039999966,0.03999998,-9.805864,0.06582216918468475,-0.060809582,0.01366888,0.00434740399941802,0.025261732
2709.1500000068845,0.0018280242,-0.78415155,-0.002650185,-2.3561494,0.0057130973,1.5655988,0.78987825,0.039999966,0.03999998,-9.805741,0.07011478394269943,-0.06409272,0.014226473,0.005116954445838928,0.026309498
2709.1666666735514,0.001933011,-0.7841309,-0.0028204517,-2.3561413,0.0060686595,1.5652592,0.7901235,0.03999996,0.039999977,-9.805664,0.07457245886325836,-0.06745575,0.014791441,0.005900308024138212,0.027372459
2709.1833333402183,0.0020421445,-0.7841095,-0.0029974526,-2.3561318,0.0064382805,1.5649062,0.7903785,0.03999996,0.039999977,-9.805476,0.07923311740159988,-0.07105621,0.015363928,0.006696016993373632,0.02845016
2709.200000006885,0.0021554823,-0.78408736,-0.00318128,-2.356122,0.00682215,1.5645398,0.7906434,0.03999997,0.039999988,-9.805242,0.08405552059412003,-0.07474133,0.01594282,0.0075076124630868435,0.029541219
2709.216666673552,0.0022730776,-0.7840647,-0.003372024,-2.356112,0.007220458,1.5641595,0.7909183,0.039999966,0.039999984,-9.805101,0.08907477557659149,-0.078572266,0.01652777,0.008332460187375546,0.030646868
2709.233333340219,0.0023949847,-0.78404135,-0.0035697708,-2.356101,0.007633384,1.563765,0.79120326,0.03999996,0.03999998,-9.805071,0.09426689893007278,-0.08244778,0.017118627,0.009167375043034554,0.031765778
2709.250000006886,0.0025212541,-0.7840171,-0.0037746034,-2.3560898,0.0080611,1.5633566,0.79149854,0.039999966,0.03999999,-9.804773,0.09964583069086075,-0.08661741,0.017715065,0.01001618430018425,0.03289475
2709.2666666735527,0.0026519366,-0.78399223,-0.003986603,-2.3560784,0.008503779,1.5629338,0.791804,0.039999966,0.04,-9.804665,0.10522786527872086,-0.09088198,0.018316127,0.010875011794269085,0.03403699
2709.2833333402195,0.0027870792,-0.78396666,-0.004205848,-2.3560662,0.008961576,1.5624968,0.7921199,0.039999966,0.039999995,-9.804525,0.1110108345746994,-0.09526249,0.018923238,0.01174380537122488,0.035193406
2709.3000000068864,0.002926728,-0.78394026,-0.004432413,-2.356054,0.009434651,1.562045,0.7924464,0.03999997,0.039999995,-9.804357,0.11696886271238327,-0.099746175,0.01953485,0.012626715935766697,0.036361128
2709.3166666735533,0.0030709282,-0.783913,-0.004666368,-2.356042,0.009923161,1.5615784,0.7927835,0.039999966,0.04,-9.804218,0.1231226995587349,-0.10450675,0.020150825,0.013515942730009556,0.037537117
2709.33333334022,0.003219721,-0.783885,-0.0049077854,-2.3560293,0.0104272505,1.5610971,0.7931313,0.03999996,0.04,-9.80411,0.12948794662952423,-0.1093628,0.020770535,0.014412027783691883,0.038724266
2709.350000006887,0.0033731486,-0.7838562,-0.0051567317,-2.3560164,0.010947051,1.5606011,0.79349,0.039999966,0.04,-9.803913,0.13604310154914856,-0.11439005,0.021394538,0.01531947124749422,0.039921958
2709.366666673554,0.0035312502,-0.7838267,-0.00541327,-2.3560028,0.011482705,1.5600897,0.7938597,0.039999966,0.04,-9.80378,0.14279112219810486,-0.11949363,0.022021884,0.016236992552876472,0.0411289
2709.383333340221,0.0036940628,-0.78379637,-0.005677461,-2.3559885,0.012034333,1.559563,0.7942405,0.039999966,0.04,-9.803503,0.1497553437948227,-0.1248723,0.022651684,0.017162982374429703,0.04234464
2709.4000000068877,0.003861622,-0.78376526,-0.0059493636,-2.3559732,0.012602055,1.5590208,0.7946322,0.03999997,0.04,-9.80322,0.15691740810871124,-0.13036665,0.023284113,0.01810060255229473,0.04356867
2709.4166666735546,0.004033962,-0.7837332,-0.0062290328,-2.3559577,0.013185996,1.5584633,0.7950351,0.039999973,0.04,-9.803039,0.16426880657672882,-0.13592298,0.023919914,0.019046202301979065,0.044800524
2709.4333333402215,0.0042111147,-0.78370035,-0.0065165237,-2.355942,0.013786255,1.5578903,0.7954494,0.039999973,0.04,-9.802727,0.17184901237487793,-0.14182255,0.024557667,0.020001621916890144,0.046039652
2709.4500000068883,0.004393113,-0.7836665,-0.0068118838,-2.3559258,0.014402949,1.5573013,0.79587483,0.03999998,0.04,-9.802535,0.17963065207004547,-0.1477964,0.025196897,0.02096281200647354,0.047286496
2709.466666673555,0.004579983,-0.78363186,-0.0071151606,-2.3559086,0.015036179,1.5566968,0.79631186,0.039999977,0.04,-9.802257,0.18760700523853302,-0.15394124,0.025838396,0.021930566057562828,0.04853879
2709.483333340222,0.0047717523,-0.7835962,-0.007426398,-2.3558912,0.015686033,1.5560764,0.79676026,0.039999977,0.04,-9.801996,0.19579526782035828,-0.16017973,0.026480228,0.022908804938197136,0.049797747
2709.500000006889,0.004968449,-0.7835598,-0.0077456394,-2.3558724,0.016352588,1.5554402,0.79722023,0.039999973,0.04,-9.801648,0.20419487357139587,-0.16674231,0.027123623,0.023893095552921295,0.051060498
2709.516666673556,0.005170095,-0.7835226,-0.008072925,-2.3558533,0.017035926,1.5547876,0.7976917,0.039999977,0.04,-9.801195,0.21281228959560394,-0.17339051,0.027767472,0.024890031665563583,0.052329782
2709.5333333402227,0.0053767147,-0.78348446,-0.008408291,-2.355834,0.017736122,1.5541192,0.7981749,0.039999984,0.04,-9.800925,0.22162480652332306,-0.18019412,0.02841187,0.025890475139021873,0.053602766
2709.5500000068896,0.0055883285,-0.7834454,-0.008751768,-2.3558145,0.01845327,1.5534346,0.7986697,0.03999998,0.04,-9.800651,0.23064333200454712,-0.18712187,0.029055944,0.026897843927145004,0.054879658
2709.5666666735565,0.005804954,-0.7834056,-0.009103394,-2.3557942,0.019187408,1.5527335,0.7991762,0.039999984,0.04,-9.800274,0.23990067839622498,-0.19436817,0.029700125,0.027908805757761,0.056160476
2709.5833333402234,0.006026611,-0.7833648,-0.009463192,-2.355774,0.019938601,1.5520166,0.79969454,0.03999999,0.04,-9.799817,0.24934911727905273,-0.2016988,0.03034358,0.028927234932780266,0.057444833
2709.6000000068902,0.006253315,-0.7833231,-0.009831186,-2.3557534,0.020706918,1.551283,0.8002247,0.039999988,0.04,-9.799468,0.2590124011039734,-0.20925449,0.030986153,0.029950853437185287,0.05873099
2709.616666673557,0.006485079,-0.7832804,-0.010207407,-2.3557327,0.021492396,1.5505335,0.80076665,0.039999988,0.04,-9.799171,0.2688765227794647,-0.21686898,0.031627472,0.030975889414548874,0.060019363
2709.633333340224,0.0067219175,-0.78323674,-0.010591872,-2.3557117,0.022295086,1.5497671,0.80132043,0.03999999,0.04,-9.798643,0.27896925806999207,-0.22486278,0.032267526,0.032007597386837006,0.061309434
2709.650000006891,0.006963842,-0.7831922,-0.010984601,-2.35569,0.023115035,1.5489845,0.80188626,0.039999995,0.04,-9.7982025,0.2892715036869049,-0.23292923,0.032905903,0.03304092213511467,0.06260161
2709.6666666735578,0.0072108614,-0.78314674,-0.011385611,-2.3556676,0.023952255,1.5481852,0.80246395,0.039999995,0.04,-9.797764,0.29976192116737366,-0.24112476,0.03354173,0.03407991677522659,0.06389372
2709.6833333402246,0.007462985,-0.7831003,-0.011794917,-2.3556447,0.024806783,1.5473692,0.8030535,0.04,0.04,-9.797095,0.3104951083660126,-0.24963987,0.034175567,0.03512456640601158,0.065186255
2709.7000000068915,0.0077202185,-0.7830529,-0.012212527,-2.3556213,0.025678644,1.5465369,0.8036551,0.04,0.04,-9.796545,0.3214295506477356,-0.25826615,0.034807235,0.03617154434323311,0.066479474
2709.7166666735584,0.007982567,-0.78300464,-0.012638449,-2.3555975,0.026567852,1.5456879,0.8042687,0.04,0.04,-9.795941,0.33256304264068604,-0.26710007,0.035435595,0.037224069237709045,0.067771435
2709.7333333402253,0.008250039,-0.7829554,-0.013072695,-2.3555732,0.027474444,1.5448223,0.80489427,0.04,0.04,-9.795433,0.3439033329486847,-0.27601632,0.036060587,0.03827729448676109,0.06906327
2709.750000006892,0.008522633,-0.78290534,-0.013515263,-2.355548,0.0283984,1.5439403,0.8055318,0.04,0.04,-9.7946615,0.3554714620113373,-0.2852872,0.03668245,0.0393359437584877,0.070352934
2709.766666673559,0.008800351,-0.7828541,-0.013966156,-2.3555222,0.029339718,1.5430417,0.8061814,0.04,0.04,-9.793905,0.3672386407852173,-0.29466483,0.037300892,0.04040023684501648,0.07164075
2709.783333340226,0.009083194,-0.7828022,-0.0144253755,-2.3554957,0.030298425,1.5421263,0.8068428,0.04,0.04,-9.793205,0.37922194600105286,-0.30424628,0.03791495,0.04146609455347061,0.0729272
2709.800000006893,0.00937116,-0.78274924,-0.014892919,-2.3554685,0.03127449,1.5411947,0.80751634,0.04,0.04,-9.792455,0.3913841247558594,-0.3138901,0.038525693,0.04253650829195976,0.07421021
2709.8166666735597,0.009664241,-0.7826955,-0.015368779,-2.355441,0.032267917,1.5402462,0.8082018,0.04,0.04,-9.791566,0.4037904739379883,-0.3239304,0.03913175,0.04361040145158768,0.075490996
2709.8333333402265,0.009962438,-0.7826406,-0.015852947,-2.3554132,0.033278678,1.5392815,0.80889934,0.04,0.04,-9.7907505,0.41638246178627014,-0.3340548,0.03973314,0.04468509182333946,0.07676759
2709.8500000068934,0.010265739,-0.78258497,-0.01634542,-2.3553846,0.034306742,1.5383,0.8096086,0.04,0.04,-9.78986,0.429183691740036,-0.3444064,0.04032888,0.04576257988810539,0.07804111
2709.8666666735603,0.0105741415,-0.78252816,-0.016846176,-2.3553557,0.03535212,1.5373024,0.8103303,0.04,0.04,-9.78899,0.44216829538345337,-0.35482302,0.040921003,0.04684199020266533,0.07930963
2709.883333340227,0.010887631,-0.7824706,-0.017355207,-2.355327,0.03641478,1.5362877,0.81106365,0.04,0.04,-9.788002,0.4553926885128021,-0.36564133,0.041505404,0.047922100871801376,0.08057418
2709.900000006894,0.011206205,-0.7824119,-0.017872503,-2.355298,0.03749467,1.5352567,0.81180865,0.04,0.04,-9.787026,0.46879082918167114,-0.37653947,0.042084876,0.048999615013599396,0.08183296
2709.916666673561,0.011529849,-0.78235257,-0.018398037,-2.355269,0.038591716,1.5342091,0.81256545,0.04,0.04,-9.786114,0.4823610484600067,-0.3875973,0.042659942,0.05007624626159668,0.08308257
2709.933333340228,0.011858549,-0.78229207,-0.018931786,-2.3552396,0.03970591,1.5331454,0.81333405,0.04,0.04,-9.7849865,0.4962088167667389,-0.39895046,0.043229014,0.051151342689991,0.08433041
2709.9500000068947,0.01219229,-0.7822308,-0.01947373,-2.3552096,0.040837213,1.5320652,0.81411463,0.04,0.04,-9.783852,0.5102131962776184,-0.41048566,0.043791752,0.052226558327674866,0.0855729
2709.9666666735616,0.012531059,-0.7821686,-0.02002385,-2.3551786,0.041985556,1.5309689,0.8149069,0.04,0.04,-9.782609,0.5243969559669495,-0.42217767,0.044347633,0.053302690386772156,0.08680724
2709.9833333402285,0.012874837,-0.78210545,-0.020582112,-2.355147,0.043150928,1.5298566,0.815711,0.04,0.04,-9.781321,0.5387795567512512,-0.43400306,0.04489704,0.054383642971515656,0.08803679
2710.0000000068953,0.013223614,-0.7820415,-0.02114849,-2.355115,0.044333193,1.5287278,0.81652683,0.04,0.04,-9.779954,0.5533524751663208,-0.44618216,0.04543895,0.0554640032351017,0.089255236
2710.016666673562,0.0135773625,-0.7819765,-0.021722952,-2.3550825,0.04553233,1.527583,0.8173543,0.04,0.04,-9.778582,0.5681409239768982,-0.45845354,0.045973856,0.056543752551078796,0.09046846
2710.033333340229,0.013936063,-0.78191066,-0.022305463,-2.355049,0.04674825,1.5264224,0.8181934,0.04,0.04,-9.777197,0.5830960273742676,-0.47094768,0.046501134,0.0576210580766201,0.09167293
2710.050000006896,0.014299696,-0.78184384,-0.022895988,-2.3550148,0.047980897,1.5252457,0.81904393,0.04,0.04,-9.775655,0.5982120037078857,-0.48355228,0.047021337,0.05870303139090538,0.092868164
2710.066666673563,0.0146682365,-0.78177625,-0.023494495,-2.3549805,0.04923019,1.524053,0.81990594,0.04,0.04,-9.774036,0.6135780215263367,-0.49649757,0.047534235,0.05978325009346008,0.0940577
2710.0833333402297,0.015041663,-0.78170764,-0.02410094,-2.3549457,0.050496023,1.5228446,0.8207793,0.04,0.04,-9.772477,0.6290622353553772,-0.5095607,0.048039097,0.06086048111319542,0.095233895
2710.1000000068966,0.015419952,-0.7816382,-0.024715291,-2.3549104,0.051778365,1.5216204,0.82166415,0.04,0.04,-9.770797,0.644776463508606,-0.52283984,0.04853636,0.06193683296442032,0.09640437
2710.1166666735635,0.015803073,-0.78156775,-0.025337495,-2.3548748,0.053077094,1.5203805,0.8225603,0.04,0.04,-9.769128,0.6606261134147644,-0.5362223,0.049025167,0.06301126629114151,0.09756428
2710.1333333402304,0.016191002,-0.7814965,-0.02596751,-2.3548388,0.05439213,1.5191247,0.8234678,0.04,0.04,-9.767309,0.6766972541809082,-0.54996926,0.049505305,0.0640815794467926,0.09871493
2710.1500000068972,0.016583705,-0.7814242,-0.026605286,-2.354802,0.05572334,1.5178537,0.8243864,0.04,0.04,-9.765415,0.6929017901420593,-0.5638204,0.049976453,0.06514966487884521,0.099853024
2710.166666673564,0.016981157,-0.78135127,-0.027250776,-2.354765,0.05707068,1.5165675,0.82531613,0.04,0.04,-9.7634945,0.7092928886413574,-0.57783127,0.05043913,0.06621745228767395,0.10098338
2710.183333340231,0.017383322,-0.78127736,-0.027903935,-2.3547277,0.05843398,1.515266,0.82625693,0.04,0.04,-9.761464,0.7258486151695251,-0.59213406,0.05089331,0.06728173047304153,0.10209835
2710.200000006898,0.017790169,-0.7812027,-0.028564714,-2.3546903,0.059813164,1.5139493,0.82720864,0.04,0.04,-9.759401,0.7426026463508606,-0.6066021,0.05133803,0.0683421865105629,0.103205755
2710.2166666735648,0.018201672,-0.7811272,-0.029233051,-2.3546526,0.061208133,1.5126176,0.8281712,0.04,0.04,-9.757274,0.7594922780990601,-0.62124175,0.051773876,0.06939859688282013,0.10430089
2710.2333333402316,0.018617796,-0.78105074,-0.029908894,-2.3546147,0.06261876,1.5112711,0.8291446,0.04,0.04,-9.755118,0.7765332460403442,-0.6360078,0.052200325,0.07045120000839233,0.105384834
2710.2500000068985,0.019038493,-0.78097355,-0.030592185,-2.3545768,0.064044915,1.5099095,0.8301287,0.04,0.04,-9.752772,0.7937684059143066,-0.65113914,0.052617468,0.07149957120418549,0.10645661
2710.2666666735654,0.01946374,-0.78089535,-0.031282872,-2.3545384,0.06548651,1.5085331,0.8311234,0.04,0.04,-9.750411,0.8111387491226196,-0.6663602,0.05302481,0.07254239171743393,0.10751524
2710.2833333402323,0.019893494,-0.7808165,-0.031980887,-2.354499,0.06694339,1.5071423,0.83212864,0.04,0.04,-9.747993,0.8286658525466919,-0.6818188,0.053422693,0.07357889413833618,0.10856183
2710.300000006899,0.02032772,-0.7807366,-0.03268617,-2.3544595,0.0684154,1.5057368,0.8331443,0.04,0.04,-9.74539,0.8463131189346313,-0.69735146,0.053811006,0.07461521029472351,0.10959454
2710.316666673566,0.020766383,-0.7806561,-0.033398654,-2.354419,0.069902465,1.5043168,0.8341704,0.04,0.04,-9.742719,0.8641639351844788,-0.7132589,0.054189384,0.07564574480056763,0.11061481
2710.333333340233,0.021209436,-0.7805748,-0.03411827,-2.354378,0.07140441,1.5028826,0.8352068,0.04,0.04,-9.739935,0.8821227550506592,-0.7292474,0.05455768,0.07667278498411179,0.11162135
2710.3500000069,0.02165683,-0.78049254,-0.034844954,-2.3543365,0.07292113,1.501435,0.83625346,0.04,0.04,-9.737094,0.9002350568771362,-0.74544615,0.054915976,0.07769645750522614,0.11261344
2710.3666666735667,0.022108536,-0.78040963,-0.03557865,-2.354294,0.07445243,1.499973,0.83731014,0.04,0.04,-9.734241,0.9184690713882446,-0.7617803,0.05526377,0.07871781289577484,0.113591775
2710.3833333402335,0.02256451,-0.7803259,-0.036319274,-2.3542511,0.07599822,1.4984958,0.8383768,0.04,0.04,-9.731128,0.9368718862533569,-0.7783945,0.055601504,0.07973410934209824,0.1145551
2710.4000000069004,0.023024697,-0.78024143,-0.037066754,-2.354208,0.077558294,1.4970069,0.83945334,0.04,0.04,-9.7280855,0.9553987979888916,-0.79512507,0.05592883,0.0807386264204979,0.11550487
2710.4166666735673,0.02348907,-0.78015625,-0.03782103,-2.3541646,0.07913254,1.495503,0.8405396,0.04,0.04,-9.724911,0.9740252494812012,-0.81204563,0.05624573,0.08174646645784378,0.116438635
2710.433333340234,0.023957565,-0.78007025,-0.03858202,-2.3541212,0.080720775,1.4939867,0.84163564,0.04,0.04,-9.72164,0.992836058139801,-0.8292049,0.05655261,0.08274103701114655,0.117358506
2710.450000006901,0.024430139,-0.77998346,-0.039349638,-2.3540776,0.08232285,1.4924576,0.8427412,0.04,0.04,-9.718308,1.011743187904358,-0.84656054,0.05684758,0.083732008934021,0.11826218
2710.466666673568,0.02490675,-0.7798958,-0.04012381,-2.3540337,0.0839386,1.4909145,0.8438563,0.04,0.04,-9.714855,1.0307797193527222,-0.86407816,0.057132564,0.08471746742725372,0.11915114
2710.483333340235,0.025387345,-0.77980757,-0.040904462,-2.3539894,0.08556786,1.4893591,0.84498054,0.04,0.04,-9.711379,1.0498987436294556,-0.8816867,0.057405733,0.08569031208753586,0.120023996
2710.5000000069017,0.02587188,-0.77971864,-0.041691523,-2.3539445,0.0872105,1.487791,0.8461142,0.04,0.04,-9.707644,1.069192886352539,-0.89962846,0.05766931,0.08666121959686279,0.12088134
2710.5166666735686,0.026360303,-0.77962893,-0.042484898,-2.3538992,0.088866286,1.4862103,0.8472569,0.04,0.04,-9.703857,1.0885618925094604,-0.9176716,0.057920992,0.08762484043836594,0.12172241
2710.5333333402355,0.026852557,-0.77953863,-0.043284517,-2.3538535,0.090535045,1.4846171,0.84840846,0.04,0.04,-9.699972,1.1080279350280762,-0.9359022,0.05816207,0.08858213573694229,0.12254449
2710.5500000069023,0.027348591,-0.77944756,-0.044090293,-2.3538077,0.09221668,1.4830115,0.84956884,0.04,0.04,-9.69601,1.1276190280914307,-0.95422226,0.058392953,0.089532770216465,0.123353675
2710.566666673569,0.02784836,-0.77935594,-0.04490213,-2.3537614,0.09391097,1.4813938,0.850738,0.04,0.04,-9.691967,1.1473350524902344,-0.97287536,0.058612395,0.09047228842973709,0.12414542
2710.583333340236,0.02835181,-0.7792635,-0.045719948,-2.353715,0.09561772,1.4797642,0.85191584,0.04,0.04,-9.687716,1.1671006679534912,-0.9916178,0.05882126,0.0914069190621376,0.12491724
2710.600000006903,0.028858889,-0.7791702,-0.046543654,-2.3536685,0.09733677,1.4781232,0.8531021,0.04,0.04,-9.683485,1.1870135068893433,-1.0105507,0.05901844,0.09233026951551437,0.12567437
2710.61666667357,0.029369535,-0.7790766,-0.04737317,-2.3536215,0.0990679,1.4764704,0.8542967,0.04,0.04,-9.679146,1.2069724798202515,-1.0296162,0.059204604,0.0932454913854599,0.12641415
2710.6333333402367,0.02988369,-0.77898216,-0.048208382,-2.3535743,0.10081093,1.4748062,0.85549945,0.04,0.04,-9.674567,1.2270586490631104,-1.0489191,0.059379652,0.09415241330862045,0.12713674
2710.6500000069036,0.030401304,-0.778887,-0.049049225,-2.3535268,0.10256572,1.473131,0.85671043,0.04,0.04,-9.669956,1.247220516204834,-1.0683683,0.05954394,0.09505030512809753,0.12784243
2710.6666666735705,0.030922316,-0.77879137,-0.049895607,-2.353479,0.10433201,1.4714446,0.8579293,0.04,0.04,-9.665267,1.2674219608306885,-1.0879316,0.059696455,0.09593844413757324,0.12852825
2710.6833333402374,0.031446673,-0.77869517,-0.05074741,-2.353431,0.106109634,1.4697472,0.8591559,0.04,0.04,-9.660347,1.2877658605575562,-1.1077259,0.059838448,0.09681899845600128,0.1291976
2710.7000000069042,0.03197432,-0.77859825,-0.051604558,-2.3533828,0.10789838,1.4680395,0.86039025,0.04,0.04,-9.655454,1.3081680536270142,-1.1276569,0.05996912,0.09768658876419067,0.12984985
2710.716666673571,0.032505184,-0.7785007,-0.052466944,-2.3533342,0.10969804,1.4663212,0.86163205,0.04,0.04,-9.650352,1.3286184072494507,-1.1477743,0.060088493,0.09854646027088165,0.13048273
2710.733333340238,0.03303921,-0.7784028,-0.053334475,-2.353285,0.111508444,1.4645926,0.8628814,0.04,0.04,-9.645165,1.3491318225860596,-1.1679555,0.0601974,0.09939590096473694,0.13109802
2710.750000006905,0.03357634,-0.77830416,-0.054207057,-2.3532357,0.113329366,1.4628541,0.864138,0.04,0.04,-9.639778,1.3697447776794434,-1.1883826,0.06029455,0.10023750364780426,0.1316948
2710.7666666735718,0.034116525,-0.77820486,-0.05508459,-2.3531852,0.11516063,1.4611057,0.86540174,0.04,0.04,-9.634365,1.390395998954773,-1.20896,0.060380448,0.10106799006462097,0.13227178
2710.7833333402386,0.034659684,-0.77810514,-0.055966966,-2.3531346,0.11700198,1.4593477,0.8666724,0.04,0.04,-9.6286745,1.4111078977584839,-1.2296547,0.060456216,0.10189282149076462,0.13283254
2710.8000000069055,0.03520576,-0.77800494,-0.056854095,-2.3530836,0.11885323,1.4575801,0.8679501,0.04,0.04,-9.623081,1.4318504333496094,-1.2504387,0.060520608,0.10270550847053528,0.13337271
2710.8166666735724,0.0357547,-0.7779041,-0.057745874,-2.3530326,0.12071417,1.4558032,0.8692343,0.04,0.04,-9.617214,1.4526907205581665,-1.2714784,0.060573585,0.10350856930017471,0.13389447
2710.8333333402393,0.036306415,-0.77780265,-0.058642197,-2.352981,0.122584574,1.4540173,0.87052506,0.04,0.04,-9.611381,1.4735661745071411,-1.2926283,0.060615458,0.10429692268371582,0.13439798
2710.850000006906,0.036860872,-0.777701,-0.059542954,-2.3529294,0.12446423,1.4522226,0.8718222,0.04,0.04,-9.6052885,1.4944775104522705,-1.3139096,0.06064704,0.10507630556821823,0.13488275
2710.866666673573,0.037417997,-0.7775988,-0.060448058,-2.3528774,0.12635288,1.4504194,0.8731255,0.04,0.04,-9.599111,1.5153957605361938,-1.3352556,0.06066819,0.10584602504968643,0.13534719
2710.88333334024,0.037977718,-0.7774959,-0.061357394,-2.3528254,0.12825039,1.4486077,0.87443507,0.04,0.04,-9.592839,1.5364183187484741,-1.356865,0.06067832,0.10660373419523239,0.13579373
2710.900000006907,0.03853998,-0.77739257,-0.062270846,-2.352773,0.13015649,1.4467877,0.87575054,0.04,0.04,-9.586465,1.5574393272399902,-1.3785712,0.060676552,0.10734712332487106,0.1362205
2710.9166666735737,0.0391047,-0.7772889,-0.06318831,-2.3527203,0.13207093,1.4449599,0.8770718,0.04,0.04,-9.579893,1.5784575939178467,-1.40034,0.060664494,0.10808076709508896,0.13662794
2710.9333333402406,0.039671827,-0.77718484,-0.064109676,-2.3526676,0.13399355,1.443124,0.87839866,0.04,0.04,-9.573255,1.5995595455169678,-1.4223214,0.060641613,0.10880100727081299,0.13701625
2710.9500000069074,0.040241294,-0.7770803,-0.065034844,-2.3526149,0.13592407,1.4412806,0.87973094,0.04,0.04,-9.566476,1.6206659078598022,-1.4444017,0.060608286,0.10950861871242523,0.13738503
2710.9666666735743,0.040813033,-0.7769752,-0.0659637,-2.3525617,0.13786228,1.4394301,0.88106865,0.04,0.04,-9.559582,1.6417862176895142,-1.4666048,0.06056459,0.11020232737064362,0.13773471
2710.983333340241,0.041386962,-0.7768699,-0.06689611,-2.3525085,0.13980795,1.4375721,0.8824114,0.04,0.04,-9.552548,1.6628904342651367,-1.4888932,0.060509827,0.1108846589922905,0.13806401
2711.000000006908,0.041963037,-0.7767643,-0.06783201,-2.3524554,0.14176083,1.4357073,0.88375914,0.04,0.04,-9.545402,1.6840693950653076,-1.5113591,0.060445037,0.11155232042074203,0.13837467
2711.016666673575,0.04254116,-0.7766582,-0.06877125,-2.3524022,0.14372073,1.4338357,0.88511175,0.04,0.04,-9.538122,1.7052332162857056,-1.5339098,0.060370088,0.11220654845237732,0.13866603
2711.033333340242,0.04312128,-0.7765517,-0.06971375,-2.3523488,0.14568736,1.4319581,0.8864689,0.04,0.04,-9.530729,1.7264002561569214,-1.5565928,0.06028441,0.11284657567739487,0.13893835
2711.0500000069087,0.04370332,-0.7764447,-0.070659384,-2.3522954,0.14766052,1.4300739,0.88783073,0.04,0.04,-9.5232,1.7475440502166748,-1.5793304,0.06018912,0.11347398906946182,0.13919051
2711.0666666735756,0.04428723,-0.77633744,-0.071608044,-2.3522415,0.14963996,1.4281838,0.889197,0.04,0.04,-9.515583,1.7687337398529053,-1.6022791,0.060082547,0.11408452689647675,0.13942339
2711.0833333402425,0.044872914,-0.77623,-0.072559595,-2.3521874,0.15162542,1.426288,0.89056724,0.04,0.04,-9.507698,1.789880394935608,-1.6252464,0.05996623,0.11468510329723358,0.1396356
2711.1000000069093,0.045460314,-0.7761223,-0.07351395,-2.352133,0.15361673,1.4243866,0.89194155,0.04,0.04,-9.49979,1.8110415935516357,-1.6483262,0.059840716,0.11527150124311447,0.13982989
2711.116666673576,0.046049364,-0.7760141,-0.07447095,-2.3520784,0.1556136,1.4224799,0.89331967,0.04,0.04,-9.491755,1.8321548700332642,-1.6714562,0.059705455,0.11584395170211792,0.14000292
2711.133333340243,0.046639986,-0.77590567,-0.07543056,-2.3520238,0.15761581,1.4205679,0.8947015,0.04,0.04,-9.48355,1.8533016443252563,-1.6947842,0.059560586,0.11640222370624542,0.14015797
2711.15000000691,0.0472321,-0.77579665,-0.07639258,-2.3519692,0.1596231,1.4186512,0.8960869,0.04,0.04,-9.47529,1.8744175434112549,-1.7181417,0.059406135,0.11694440990686417,0.1402928
2711.166666673577,0.04782564,-0.7756876,-0.07735695,-2.3519146,0.1616352,1.4167302,0.89747554,0.04,0.04,-9.466899,1.8954797983169556,-1.7415918,0.059241183,0.11747139692306519,0.14040753
2711.1833333402437,0.048420545,-0.7755783,-0.07832351,-2.35186,0.16365196,1.4148045,0.89886737,0.04,0.04,-9.458376,1.9165759086608887,-1.765155,0.05906733,0.11798334866762161,0.14050336
2711.2000000069106,0.04901673,-0.775469,-0.07929217,-2.3518054,0.16567303,1.4128748,0.9002623,0.04,0.04,-9.449687,1.9376018047332764,-1.7887639,0.0588844,0.11848039925098419,0.14057921
2711.2166666735775,0.049614128,-0.7753596,-0.08026279,-2.3517504,0.16769816,1.410941,0.90165997,0.04,0.04,-9.440923,1.9586169719696045,-1.8124495,0.058691915,0.11896232515573502,0.14063622
2711.2333333402444,0.050212666,-0.7752499,-0.081235245,-2.3516948,0.16972715,1.4090036,0.9030604,0.04,0.04,-9.431955,1.9795610904693604,-1.83616,0.05849118,0.11942993849515915,0.14067411
2711.2500000069113,0.05081227,-0.77513987,-0.08220946,-2.3516395,0.1717598,1.4070628,0.9044632,0.04,0.04,-9.422844,2.0004944801330566,-1.8600228,0.05828175,0.11988559365272522,0.14069188
2711.266666673578,0.051412866,-0.7750296,-0.083185285,-2.3515842,0.17379583,1.4051186,0.9058685,0.04,0.04,-9.413772,2.021411180496216,-1.8839394,0.05806349,0.12032172083854675,0.14069103
2711.283333340245,0.05201439,-0.7749191,-0.084162615,-2.3515286,0.1758349,1.4031715,0.9072758,0.04,0.04,-9.404496,2.0422587394714355,-1.9079045,0.057835624,0.12074166536331177,0.14067037
2711.300000006912,0.05261675,-0.7748083,-0.08514134,-2.351473,0.17787682,1.4012219,0.9086851,0.04,0.04,-9.395082,2.0630505084991455,-1.9319123,0.057599604,0.1211462989449501,0.14063153
2711.3166666735788,0.053219892,-0.77469724,-0.086121306,-2.3514173,0.17992139,1.3992695,0.9100962,0.04,0.04,-9.385591,2.083824396133423,-1.9560281,0.05735514,0.1215338408946991,0.1405732
2711.3333333402456,0.053823728,-0.77458614,-0.0871024,-2.3513615,0.18196833,1.3973148,0.91150904,0.04,0.04,-9.37594,2.1045267581939697,-1.9801675,0.057102297,0.12190496176481247,0.14049682
2711.3500000069125,0.054428194,-0.774475,-0.08808453,-2.3513055,0.18401745,1.3953582,0.9129232,0.04,0.04,-9.366197,2.1251747608184814,-2.0043416,0.05684116,0.12225925177335739,0.14040135
2711.3666666735794,0.05503321,-0.77436376,-0.089067556,-2.3512495,0.18606839,1.3933998,0.9143387,0.04,0.04,-9.35626,2.145742654800415,-2.0285373,0.056572832,0.12259967625141144,0.14028634
2711.3833333402463,0.055638697,-0.77425253,-0.09005132,-2.3511934,0.18812092,1.3914398,0.9157553,0.04,0.04,-9.34632,2.1662890911102295,-2.0528243,0.05629624,0.12292201817035675,0.14015172
2711.400000006913,0.056244593,-0.77414125,-0.09103578,-2.3511372,0.19017477,1.3894786,0.9171729,0.04,0.04,-9.336205,2.186764717102051,-2.0771205,0.056012526,0.12322783470153809,0.13999985
2711.41666667358,0.056850806,-0.77402997,-0.092020765,-2.351081,0.19222982,1.3875163,0.91859114,0.04,0.04,-9.325951,2.207148313522339,-2.101438,0.05572069,0.12351886183023453,0.13982944
2711.433333340247,0.05745727,-0.7739187,-0.09300618,-2.3510246,0.19428566,1.3855528,0.9200102,0.04,0.04,-9.315651,2.227494955062866,-2.1258185,0.055422068,0.12379176914691925,0.13964023
2711.450000006914,0.05806392,-0.7738074,-0.09399187,-2.3509686,0.19634216,1.3835889,0.92142963,0.04,0.04,-9.305227,2.2477684020996094,-2.15021,0.055114787,0.1240464597940445,0.13943303
2711.4666666735807,0.05867068,-0.7736961,-0.094977744,-2.3509126,0.19839892,1.3816249,0.92284924,0.04,0.04,-9.294692,2.2679479122161865,-2.1746287,0.054800943,0.12428440153598785,0.13920684
2711.4833333402476,0.059277464,-0.77358484,-0.09596369,-2.3508565,0.20045578,1.379661,0.9242689,0.04,0.04,-9.284029,2.288050889968872,-2.1990612,0.05448037,0.1245054230093956,0.13896358
2711.5000000069144,0.059884205,-0.77347356,-0.09694956,-2.3508003,0.20251249,1.377697,0.9256885,0.04,0.04,-9.273293,2.3080973625183105,-2.2235413,0.054152686,0.12470944225788116,0.1387015
2711.5166666735813,0.060490817,-0.7733622,-0.0979352,-2.3507442,0.2045688,1.3757331,0.92710775,0.04,0.04,-9.26239,2.3280436992645264,-2.2479963,0.053818237,0.1248970478773117,0.13842148
2711.533333340248,0.061097242,-0.77325094,-0.09892053,-2.3506882,0.20662452,1.3737701,0.92852676,0.04,0.04,-9.251482,2.3479130268096924,-2.2724762,0.053477228,0.12506337463855743,0.13812497
2711.550000006915,0.061703403,-0.7731397,-0.09990548,-2.3506322,0.20867929,1.3718079,0.9299449,0.04,0.04,-9.240395,2.3676769733428955,-2.2969515,0.05312937,0.1252136379480362,0.13781035
2711.566666673582,0.062309213,-0.77302843,-0.10088986,-2.3505762,0.21073283,1.3698468,0.9313624,0.04,0.04,-9.229238,2.387380599975586,-2.3214486,0.052775905,0.125345379114151,0.13747767
2711.583333340249,0.0629146,-0.77291715,-0.10187357,-2.3505204,0.21278499,1.367887,0.9327787,0.04,0.04,-9.21796,2.4069769382476807,-2.3459303,0.05241542,0.1254599541425705,0.1371287
2711.6000000069157,0.06351952,-0.772806,-0.102856465,-2.3504646,0.2148355,1.3659288,0.93419415,0.04,0.04,-9.206644,2.4264941215515137,-2.3704207,0.05204957,0.12555474042892456,0.1367628
2711.6166666735826,0.06412385,-0.7726949,-0.103838444,-2.3504083,0.21688409,1.3639725,0.93560815,0.04,0.04,-9.195181,2.445882558822632,-2.3948789,0.051676612,0.12563103437423706,0.13638
2711.6333333402495,0.06472753,-0.77258384,-0.10481939,-2.3503523,0.21893045,1.3620182,0.9370205,0.04,0.04,-9.183582,2.4651877880096436,-2.419342,0.05129909,0.12569214403629303,0.13597919
2711.6500000069163,0.06533051,-0.7724732,-0.10579919,-2.3502963,0.22097443,1.3600663,0.9384312,0.04,0.04,-9.17196,2.484410285949707,-2.4437757,0.050916445,0.12573416531085968,0.1355627
2711.666666673583,0.06593272,-0.7723629,-0.10677772,-2.3502402,0.22301577,1.3581167,0.9398401,0.04,0.04,-9.160205,2.503500461578369,-2.4681606,0.050528917,0.12575936317443848,0.13512933
2711.68333334025,0.06653407,-0.77225286,-0.10775484,-2.350184,0.22505417,1.3561699,0.941247,0.04,0.04,-9.148397,2.522508382797241,-2.4925265,0.050136328,0.1257665753364563,0.13467877
2711.700000006917,0.067134485,-0.77214295,-0.10873046,-2.3501282,0.2270894,1.3542264,0.94265175,0.04,0.04,-9.136451,2.5413970947265625,-2.516862,0.04973907,0.12575741112232208,0.13421215
2711.716666673584,0.06773386,-0.77203315,-0.10970441,-2.3500724,0.22912122,1.352286,0.94405425,0.04,0.04,-9.12454,2.560199022293091,-2.541196,0.049336087,0.1257280707359314,0.13372983
2711.7333333402507,0.068332165,-0.77192354,-0.11067664,-2.3500168,0.23114933,1.3503493,0.94545424,0.04,0.04,-9.112453,2.578869342803955,-2.565497,0.048927885,0.12568043172359467,0.13323203
2711.7500000069176,0.06892933,-0.77181405,-0.11164696,-2.3499615,0.23317352,1.3484161,0.9468514,0.04,0.04,-9.100346,2.5974459648132324,-2.5897462,0.048514735,0.12561501562595367,0.13271776
2711.7666666735845,0.069525264,-0.7717047,-0.1126153,-2.3499067,0.23519355,1.3464869,0.9482458,0.04,0.04,-9.088189,2.6159112453460693,-2.6139665,0.048097678,0.12552779912948608,0.13219014
2711.7833333402514,0.07011988,-0.77159536,-0.11358153,-2.3498523,0.2372092,1.3445619,0.9496372,0.04,0.04,-9.07593,2.6342411041259766,-2.638148,0.047675107,0.12542125582695007,0.13164577
2711.8000000069183,0.07071314,-0.77148616,-0.11454553,-2.349798,0.23922019,1.3426416,0.9510253,0.04,0.04,-9.06362,2.6524598598480225,-2.6622941,0.04724758,0.12529295682907104,0.13108648
2711.816666673585,0.07130495,-0.7713776,-0.115507185,-2.3497436,0.24122623,1.3407258,0.95241004,0.04,0.04,-9.05121,2.670567512512207,-2.686369,0.046816282,0.1251470446586609,0.13051295
2711.833333340252,0.071895234,-0.77126944,-0.11646637,-2.3496892,0.24322714,1.3388149,0.9537913,0.04,0.04,-9.038684,2.6885366439819336,-2.7103407,0.046381637,0.12498431652784348,0.12992407
2711.850000006919,0.07248394,-0.7711617,-0.11742302,-2.3496351,0.24522266,1.3369092,0.95516884,0.04,0.04,-9.026114,2.7063891887664795,-2.7342708,0.045943197,0.12480394542217255,0.12932114
2711.8666666735858,0.07307101,-0.7710541,-0.118376955,-2.349581,0.24721254,1.3350087,0.9565425,0.04,0.04,-9.013467,2.7241127490997314,-2.7581506,0.04550152,0.12460560351610184,0.128703
2711.8833333402526,0.073656335,-0.77094656,-0.119328104,-2.3495271,0.2491966,1.333114,0.95791197,0.04,0.04,-9.000824,2.7417209148406982,-2.7819538,0.04505678,0.12438832223415375,0.12807152
2711.9000000069195,0.074239865,-0.77083933,-0.120276324,-2.349473,0.2511746,1.331225,0.9592773,0.04,0.04,-8.988123,2.7592034339904785,-2.8057237,0.04460825,0.12415136396884918,0.1274261
2711.9166666735864,0.07482153,-0.7707327,-0.12122151,-2.349419,0.25314617,1.3293421,0.9606383,0.04,0.04,-8.975304,2.7765398025512695,-2.8293905,0.044156905,0.12389560788869858,0.1267663
2711.9333333402533,0.07540124,-0.77062637,-0.12216355,-2.3493655,0.25511116,1.3274654,0.9619947,0.04,0.04,-8.962464,2.793762683868408,-2.852944,0.043702755,0.12362366914749146,0.12609343
2711.95000000692,0.07597895,-0.77052045,-0.12310233,-2.3493118,0.25706944,1.3255951,0.96334654,0.04,0.04,-8.949601,2.810854196548462,-2.8764443,0.043245785,0.12333191186189651,0.12540756
2711.966666673587,0.07655457,-0.7704149,-0.124037735,-2.3492584,0.2590206,1.3237317,0.9646933,0.04,0.04,-8.936666,2.82778000831604,-2.8998568,0.04278592,0.12302220612764359,0.12470514
2711.983333340254,0.07712805,-0.77030957,-0.12496963,-2.3492055,0.26096442,1.3218752,0.9660351,0.04,0.04,-8.9236555,2.844618320465088,-2.9232028,0.04232433,0.12269465625286102,0.1239929
2712.000000006921,0.07769931,-0.7702047,-0.12589796,-2.3491528,0.2629008,1.3200259,0.96737194,0.04,0.04,-8.9107485,2.8613224029541016,-2.9464512,0.041859396,0.12234671413898468,0.123268455
2712.0166666735877,0.07826828,-0.77010036,-0.12682258,-2.3491004,0.2648294,1.3181838,0.96870327,0.04,0.04,-8.89772,2.877872943878174,-2.969598,0.041391045,0.12197905778884888,0.12253141
2712.0333333402546,0.07883491,-0.7699966,-0.12774338,-2.3490481,0.26675007,1.3163494,0.9700292,0.04,0.04,-8.884624,2.894277334213257,-2.9926305,0.040921718,0.12159395962953568,0.12178086
2712.0500000069214,0.07939912,-0.76989305,-0.12866025,-2.3489962,0.26866263,1.3145229,0.9713494,0.04,0.04,-8.87149,2.910552501678467,-3.015581,0.040450465,0.1211908757686615,0.12101912
2712.0666666735883,0.07996082,-0.7697897,-0.12957309,-2.3489442,0.27056664,1.3127042,0.9726639,0.04,0.04,-8.858406,2.926685094833374,-3.0384266,0.039976843,0.12076845020055771,0.120244786
2712.083333340255,0.08052001,-0.7696872,-0.13048176,-2.3488925,0.27246192,1.3108943,0.9739722,0.04,0.04,-8.845243,2.942688465118408,-3.061183,0.039500874,0.12032713741064072,0.11946021
2712.100000006922,0.08107656,-0.76958525,-0.13138622,-2.3488412,0.27434838,1.3090925,0.9752745,0.04,0.04,-8.832017,2.95853328704834,-3.083772,0.039025128,0.11987122148275375,0.118663706
2712.116666673589,0.08163046,-0.76948357,-0.13228631,-2.3487904,0.27622578,1.3072993,0.9765705,0.039999995,0.04,-8.818818,2.974259376525879,-3.1063023,0.038547024,0.11939579248428345,0.11785694
2712.133333340256,0.08218159,-0.76938224,-0.13318194,-2.3487399,0.27809384,1.305515,0.97786,0.03999999,0.04,-8.805692,2.98982834815979,-3.1286938,0.03806742,0.11889851093292236,0.11703852
2712.1500000069227,0.08272991,-0.7692817,-0.13407303,-2.3486893,0.2799524,1.30374,0.979143,0.039999995,0.04,-8.792438,3.005250930786133,-3.150984,0.037586626,0.11838468164205551,0.116209365
2712.1666666735896,0.083275355,-0.7691817,-0.13495944,-2.348639,0.28180113,1.3019743,0.9804193,0.039999988,0.04,-8.779134,3.0205318927764893,-3.1731355,0.037104923,0.11785483360290527,0.115369804
2712.1833333402565,0.0838179,-0.7690822,-0.13584112,-2.348589,0.28364015,1.3002176,0.9816888,0.039999988,0.04,-8.765915,3.0356645584106445,-3.195128,0.036622386,0.11730767041444778,0.11451969
2712.2000000069233,0.084357426,-0.7689832,-0.13671786,-2.3485394,0.2854689,1.2984712,0.9829511,0.039999984,0.04,-8.752662,3.0506575107574463,-3.2170184,0.036139026,0.11674041301012039,0.11365957
2712.21666667359,0.084893875,-0.7688849,-0.13758966,-2.3484902,0.28728735,1.2967345,0.98420626,0.039999984,0.04,-8.739425,3.065502643585205,-3.2388086,0.03565523,0.11615709215402603,0.11278943
2712.233333340257,0.08542721,-0.76878715,-0.1384564,-2.3484416,0.28909504,1.295008,0.9854541,0.03999998,0.04,-8.726139,3.080209255218506,-3.2604578,0.035171192,0.11555556207895279,0.11190933
2712.250000006924,0.08595735,-0.7686897,-0.139318,-2.3483934,0.29089215,1.2932917,0.9866946,0.03999998,0.04,-8.7129545,3.094775915145874,-3.2819326,0.03468636,0.11493586003780365,0.11102134
2712.266666673591,0.08648427,-0.768593,-0.14017433,-2.3483453,0.29267812,1.2915858,0.9879275,0.039999977,0.04,-8.699731,3.1091787815093994,-3.303324,0.03419982,0.11429724097251892,0.11012296
2712.2833333402577,0.0870079,-0.76849705,-0.14102527,-2.348297,0.29445297,1.2898905,0.9891527,0.039999966,0.04,-8.686472,3.123436450958252,-3.3245177,0.03371357,0.11364224553108215,0.10921686
2712.3000000069246,0.08752818,-0.7684015,-0.14187078,-2.348249,0.29621643,1.288206,0.9903701,0.039999958,0.04,-8.673156,3.137521982192993,-3.345601,0.033228155,0.11297298967838287,0.108301476
2712.3166666735915,0.088045046,-0.7683066,-0.14271075,-2.348201,0.29796827,1.2865324,0.9915795,0.03999996,0.04,-8.659982,3.151472330093384,-3.3664978,0.032742642,0.1122855618596077,0.10737739
2712.3333333402584,0.08855844,-0.76821244,-0.14354503,-2.3481536,0.2997084,1.2848701,0.99278075,0.039999958,0.04,-8.646779,3.1652772426605225,-3.3872578,0.03225696,0.1115821972489357,0.106445916
2712.3500000069253,0.08906828,-0.76811886,-0.14437361,-2.3481064,0.30143648,1.2832195,0.9939738,0.039999954,0.04,-8.63364,3.178929567337036,-3.4078915,0.03177195,0.11086161434650421,0.10550498
2712.366666673592,0.08957455,-0.768026,-0.1451964,-2.3480594,0.30315244,1.2815804,0.9951585,0.039999947,0.04,-8.620441,3.192450523376465,-3.4283926,0.03128701,0.11012592166662216,0.10455708
2712.383333340259,0.09007717,-0.76793396,-0.14601326,-2.348013,0.30485603,1.2799537,0.9963347,0.039999947,0.04,-8.607341,3.205810070037842,-3.448656,0.030802563,0.10937545448541641,0.10360245
2712.400000006926,0.0905761,-0.76784223,-0.1468241,-2.347967,0.3065471,1.2783387,0.99750215,0.03999994,0.04,-8.594282,3.2190163135528564,-3.468807,0.030318407,0.1086106151342392,0.10263894
2712.4166666735928,0.09107128,-0.76775146,-0.14762887,-2.3479211,0.3082255,1.2767357,0.9986608,0.039999943,0.04,-8.581222,3.232072353363037,-3.4888663,0.029834967,0.10782724618911743,0.10166829
2712.4333333402597,0.091562666,-0.7676614,-0.1484275,-2.3478756,0.30989107,1.275145,0.9998106,0.039999936,0.04,-8.568225,3.244982957839966,-3.5086198,0.029352786,0.10702940076589584,0.100692354
2712.4500000069265,0.09205019,-0.7675719,-0.14921983,-2.3478303,0.3115435,1.2735667,1.0009513,0.039999932,0.04,-8.55526,3.257734537124634,-3.5282733,0.028871754,0.1062159538269043,0.09970881
2712.4666666735934,0.09253381,-0.7674833,-0.15000583,-2.3477857,0.31318274,1.2720008,1.0020831,0.039999925,0.04,-8.54232,3.2703304290771484,-3.5477583,0.028391862,0.10538692772388458,0.098718464
2712.4833333402603,0.09301347,-0.7673954,-0.1507854,-2.3477414,0.3148086,1.2704477,1.0032053,0.039999917,0.04,-8.529438,3.282804489135742,-3.5671308,0.027911885,0.10454069077968597,0.09772239
2712.500000006927,0.09348915,-0.7673081,-0.15155853,-2.3476973,0.3164209,1.2689079,1.0043185,0.039999913,0.04,-8.516616,3.2950971126556396,-3.5862305,0.027434494,0.10368100553750992,0.09672156
2712.516666673594,0.09396076,-0.76722157,-0.15232506,-2.3476536,0.31801948,1.267381,1.0054221,0.03999991,0.04,-8.50384,3.3072447776794434,-3.605218,0.026957002,0.10280650109052658,0.095713
2712.533333340261,0.09442827,-0.7671357,-0.15308487,-2.3476105,0.31960416,1.2658675,1.0065162,0.039999913,0.04,-8.491127,3.3192598819732666,-3.6240265,0.026480401,0.10191676020622253,0.09470079
2712.550000006928,0.094891645,-0.76705074,-0.15383801,-2.3475678,0.32117477,1.2643673,1.0076005,0.0399999,0.04,-8.478425,3.3311078548431396,-3.6427174,0.02600548,0.10101291537284851,0.09368361
2712.5666666735947,0.095350824,-0.7669665,-0.1545843,-2.347526,0.32273114,1.2628797,1.0086752,0.0399999,0.04,-8.4658785,3.3428096771240234,-3.6611018,0.025531972,0.1000940278172493,0.092660636
2712.5833333402616,0.095805764,-0.766883,-0.15532374,-2.3474846,0.32427317,1.2614073,1.0097399,0.039999895,0.04,-8.453383,3.3543663024902344,-3.6793683,0.025058942,0.0991557314991951,0.09163376
2712.6000000069284,0.096256435,-0.76680046,-0.15605621,-2.347443,0.32580063,1.2599486,1.0107943,0.039999887,0.04,-8.440878,3.3657608032226562,-3.6974986,0.024587391,0.09820912033319473,0.090601444
2712.6166666735953,0.096702784,-0.7667183,-0.15678164,-2.3474016,0.32731345,1.2585032,1.0118389,0.039999895,0.04,-8.428378,3.377000570297241,-3.7154312,0.024119753,0.09725134074687958,0.08956486
2712.633333340262,0.097144775,-0.76663744,-0.1575,-2.3473608,0.3288115,1.2570723,1.0128732,0.039999887,0.04,-8.416059,3.388075351715088,-3.7330852,0.023652358,0.09627731889486313,0.08852507
2712.650000006929,0.09758235,-0.7665571,-0.1582112,-2.3473203,0.3302946,1.2556559,1.013897,0.039999887,0.04,-8.403791,3.399019479751587,-3.7505944,0.023188096,0.09529317915439606,0.0874798
2712.666666673596,0.09801549,-0.7664778,-0.15891518,-2.3472803,0.33176273,1.2542539,1.0149103,0.039999876,0.04,-8.391546,3.409827709197998,-3.7680137,0.022726526,0.09429700672626495,0.08643078
2712.683333340263,0.098444134,-0.76639915,-0.15961188,-2.3472407,0.33321565,1.2528658,1.0159132,0.039999876,0.04,-8.379496,3.4204766750335693,-3.785083,0.022267025,0.09328754991292953,0.0853781
2712.7000000069297,0.09886826,-0.7663214,-0.16030122,-2.3472016,0.33465323,1.2514925,1.0169058,0.039999876,0.04,-8.367492,3.430983543395996,-3.8020518,0.021808656,0.09226265549659729,0.084323324
2712.7166666735966,0.09928782,-0.76624453,-0.16098318,-2.347163,0.33607528,1.2501341,1.0178877,0.03999988,0.04,-8.355513,3.441328763961792,-3.8188114,0.021351902,0.09122791886329651,0.083265305
2712.7333333402635,0.099702775,-0.7661682,-0.16165762,-2.3471248,0.33748183,1.2487905,1.0188587,0.039999872,0.04,-8.34364,3.4515483379364014,-3.835454,0.020896943,0.09018081426620483,0.082204595
2712.7500000069303,0.100113094,-0.76609296,-0.16232455,-2.3470871,0.33887267,1.2474618,1.019819,0.039999872,0.04,-8.331929,3.4615893363952637,-3.8518052,0.020444438,0.08912023156881332,0.08114128
2712.7666666735972,0.10051875,-0.76601845,-0.16298391,-2.3470497,0.34024766,1.2461485,1.0207683,0.03999987,0.04,-8.320245,3.471492290496826,-3.8679667,0.019993793,0.08804881572723389,0.0800751
2712.783333340264,0.10091971,-0.765945,-0.16363561,-2.3470128,0.3416067,1.2448503,1.0217063,0.03999986,0.04,-8.308627,3.4812469482421875,-3.8839684,0.019546287,0.0869688019156456,0.07900672
2712.800000006931,0.101315916,-0.76587224,-0.16427964,-2.346976,0.3429497,1.2435673,1.0226336,0.03999986,0.04,-8.297104,3.490882396697998,-3.899805,0.019102518,0.08587821573019028,0.077937156
2712.816666673598,0.10170737,-0.7658006,-0.16491595,-2.3469403,0.34427655,1.2423,1.0235498,0.03999986,0.04,-8.285739,3.500323534011841,-3.9153376,0.018659709,0.08477722853422165,0.07686546
2712.8333333402647,0.10209405,-0.76572967,-0.16554448,-2.3469052,0.3455871,1.2410481,1.0244547,0.039999858,0.04,-8.274489,3.5096609592437744,-3.9307292,0.018218923,0.08366573601961136,0.07579255
2712.8500000069316,0.102475904,-0.7656597,-0.16616517,-2.346871,0.34688136,1.2398118,1.0253482,0.039999854,0.04,-8.263339,3.5188469886779785,-3.9459512,0.017780004,0.082542784512043,0.07471948
2712.8666666735985,0.10285288,-0.7655906,-0.16677798,-2.3468368,0.34815913,1.2385913,1.0262302,0.039999846,0.04,-8.252273,3.5278961658477783,-3.9610357,0.017343938,0.08140832930803299,0.07364386
2712.8833333402654,0.103225,-0.7655223,-0.16738288,-2.3468027,0.34942043,1.2373866,1.0271009,0.039999846,0.04,-8.241282,3.536752939224243,-3.9757357,0.016912043,0.08026713132858276,0.072567284
2712.9000000069323,0.10359218,-0.765455,-0.16797978,-2.3467686,0.35066515,1.2361975,1.0279601,0.039999843,0.04,-8.230375,3.5454981327056885,-3.9903219,0.016482323,0.07911892235279083,0.07149201
2712.916666673599,0.10395448,-0.7653885,-0.16856876,-2.346735,0.3518931,1.2350243,1.0288078,0.039999843,0.04,-8.219542,3.55407977104187,-4.0047345,0.016056884,0.07796339690685272,0.07041448
2712.933333340266,0.104311824,-0.76532316,-0.16914967,-2.3467016,0.35310435,1.2338675,1.0296441,0.03999984,0.04,-8.208969,3.5625410079956055,-4.018864,0.015633825,0.07679842412471771,0.069337
2712.950000006933,0.10466421,-0.7652583,-0.16972244,-2.3466687,0.3542987,1.2327267,1.0304687,0.03999983,0.04,-8.198387,3.5708444118499756,-4.032797,0.015212975,0.07563039660453796,0.06825916
2712.9666666736,0.105011575,-0.76519483,-0.17028713,-2.3466363,0.35547617,1.2316021,1.0312818,0.03999983,0.04,-8.188012,3.579007148742676,-4.046604,0.014795189,0.07445191591978073,0.067182176
2712.9833333402667,0.105353944,-0.76513183,-0.17084368,-2.3466043,0.35663667,1.2304935,1.0320832,0.039999835,0.04,-8.177693,3.5870718955993652,-4.0601993,0.014380201,0.07326830923557281,0.06610489
2713.0000000069335,0.105691284,-0.7650702,-0.17139208,-2.346573,0.3577802,1.2294015,1.0328727,0.03999983,0.04,-8.167577,3.5949389934539795,-4.0735135,0.013967743,0.07207563519477844,0.06502888
2713.0166666736004,0.10602359,-0.76500905,-0.17193228,-2.3465426,0.35890654,1.2283256,1.0336503,0.039999824,0.04,-8.157539,3.6027169227600098,-4.0866356,0.01355897,0.07087847590446472,0.06395458
2713.0333333402673,0.106350824,-0.7649492,-0.17246424,-2.3465126,0.3600157,1.2272661,1.034416,0.03999983,0.04,-8.147698,3.610332489013672,-4.099633,0.013151998,0.0696709007024765,0.06288033
2713.050000006934,0.106673,-0.76488996,-0.17298798,-2.346483,0.3611077,1.2262231,1.0351701,0.039999824,0.04,-8.137838,3.6178228855133057,-4.11241,0.012749906,0.06846007704734802,0.0618083
2713.066666673601,0.10699008,-0.76483196,-0.17350347,-2.3464537,0.36218247,1.2251965,1.0359124,0.039999824,0.04,-8.128251,3.6251494884490967,-4.124908,0.012348408,0.06724164634943008,0.060736768
2713.083333340268,0.10730208,-0.7647745,-0.17401068,-2.346425,0.36324,1.2241862,1.0366427,0.039999824,0.04,-8.118659,3.6323533058166504,-4.137194,0.01195059,0.06602147221565247,0.059668254
2713.100000006935,0.10760897,-0.76471835,-0.17450957,-2.3463979,0.36428016,1.2231926,1.0373607,0.03999982,0.04,-8.109311,3.639425277709961,-4.149359,0.011555527,0.06479288637638092,0.058601163
2713.1166666736017,0.10791074,-0.7646628,-0.17500015,-2.3463707,0.36530307,1.2222154,1.0380669,0.039999817,0.04,-8.100112,3.646409749984741,-4.1613655,0.011163907,0.06355725228786469,0.05753678
2713.1333333402686,0.108207375,-0.76460856,-0.1754824,-2.346344,0.36630857,1.221255,1.0387614,0.039999817,0.04,-8.090954,3.653167724609375,-4.173007,0.0107753035,0.062319088727235794,0.05647497
2713.1500000069354,0.10849889,-0.7645549,-0.17595632,-2.3463173,0.36729673,1.2203108,1.0394436,0.039999813,0.04,-8.081958,3.6598458290100098,-4.184496,0.010388871,0.06107860058546066,0.0554155
2713.1666666736023,0.10878526,-0.7645026,-0.17642191,-2.3462906,0.36826736,1.2193835,1.0401138,0.039999817,0.04,-8.073012,3.6663641929626465,-4.1958747,0.0100077735,0.05983460322022438,0.054358706
2713.183333340269,0.109066516,-0.7644509,-0.17687915,-2.3462641,0.3692207,1.2184727,1.040772,0.039999813,0.04,-8.064277,3.672760009765625,-4.20684,0.009630355,0.05859244614839554,0.05330671
2713.200000006936,0.10934261,-0.7644005,-0.17732805,-2.3462381,0.37015662,1.2175786,1.0414181,0.03999981,0.04,-8.055655,3.678997039794922,-4.2177267,0.009257453,0.05734788253903389,0.052255414
2713.216666673603,0.10961356,-0.7643507,-0.1777686,-2.3462126,0.37107512,1.2167014,1.0420524,0.039999817,0.04,-8.047227,3.685147523880005,-4.2283816,0.008887571,0.05610153079032898,0.05120704
2713.23333334027,0.1098794,-0.7643021,-0.1782008,-2.3461878,0.37197626,1.2158407,1.0426747,0.039999817,0.04,-8.038888,3.6911957263946533,-4.238963,0.008519806,0.05485404282808304,0.05016447
2713.2500000069367,0.11014009,-0.7642542,-0.17862462,-2.3461635,0.37285993,1.2149965,1.0432845,0.039999813,0.04,-8.03076,3.697046995162964,-4.249136,0.008156063,0.0536053404211998,0.049123336
2713.2666666736036,0.11039566,-0.7642075,-0.17904013,-2.34614,0.37372622,1.2141689,1.0438825,0.03999981,0.04,-8.022776,3.7028186321258545,-4.2592154,0.007796744,0.05235400050878525,0.048088226
2713.2833333402705,0.110646084,-0.7641615,-0.17944732,-2.346117,0.37457508,1.2133579,1.0444688,0.03999981,0.04,-8.014909,3.7084693908691406,-4.2690616,0.0074407067,0.051102470606565475,0.047057454
2713.3000000069374,0.11089139,-0.7641167,-0.17984623,-2.3460946,0.37540656,1.2125635,1.0450429,0.0399998,0.04,-8.007179,3.713998794555664,-4.2788386,0.007085086,0.04984891787171364,0.04603149
2713.3166666736042,0.11113157,-0.7640727,-0.18023682,-2.3460727,0.3762208,1.2117858,1.0456051,0.039999798,0.04,-7.9996095,3.719362258911133,-4.2881927,0.0067349845,0.04859691113233566,0.045009706
2713.333333340271,0.111366674,-0.7640297,-0.18061912,-2.3460512,0.37701774,1.2110245,1.0461551,0.039999805,0.04,-7.99216,3.7246246337890625,-4.297467,0.006387426,0.0473465770483017,0.043993104
2713.350000006938,0.11159669,-0.7639876,-0.18099314,-2.346031,0.3777975,1.2102796,1.0466936,0.0399998,0.04,-7.984867,3.7297580242156982,-4.3065166,0.006045317,0.0460970439016819,0.04298245
2713.366666673605,0.11182164,-0.7639464,-0.18135892,-2.3460112,0.3785599,1.2095511,1.04722,0.039999798,0.04,-7.977775,3.734814167022705,-4.315499,0.0057029487,0.04484478011727333,0.041976396
2713.3833333402717,0.11204154,-0.7639062,-0.1817165,-2.3459914,0.3793052,1.2088392,1.0477346,0.039999805,0.04,-7.9707747,3.7396867275238037,-4.3240695,0.0053656925,0.043595753610134125,0.04097701
2713.4000000069386,0.11225637,-0.7638669,-0.18206586,-2.3459718,0.38003355,1.2081435,1.0482373,0.0399998,0.04,-7.96388,3.7444584369659424,-4.332526,0.005032073,0.0423518568277359,0.03998357
2713.4166666736055,0.11246617,-0.7638284,-0.18240704,-2.3459525,0.38074487,1.2074641,1.0487283,0.0399998,0.04,-7.9571047,3.749112606048584,-4.340854,0.00470355,0.0411115363240242,0.03899527
2713.4333333402724,0.112670995,-0.7637909,-0.1827401,-2.3459334,0.38143915,1.206801,1.0492077,0.039999798,0.04,-7.9505496,3.7536284923553467,-4.3488474,0.0043782676,0.03987552225589752,0.038013432
2713.4500000069393,0.11287082,-0.76375425,-0.18306504,-2.3459144,0.38211656,1.2061541,1.0496756,0.0399998,0.04,-7.9440947,3.758047580718994,-4.356701,0.004057081,0.038645897060632706,0.03703804
2713.466666673606,0.11306569,-0.7637186,-0.1833819,-2.345896,0.38277704,1.2055231,1.0501314,0.03999981,0.04,-7.9377794,3.762324333190918,-4.3643556,0.003738924,0.037421759217977524,0.0360683
2713.483333340273,0.1132556,-0.7636838,-0.18369079,-2.345878,0.38342083,1.2049085,1.0505759,0.0399998,0.04,-7.931666,3.766573429107666,-4.3719263,0.0034261488,0.036201685667037964,0.03510844
2713.50000000694,0.1134406,-0.7636499,-0.18399169,-2.3458605,0.38404796,1.2043093,1.0510089,0.039999794,0.04,-7.925688,3.7706215381622314,-4.379141,0.00311683,0.03498871996998787,0.034153473
2713.516666673607,0.11362073,-0.76361686,-0.18428463,-2.3458436,0.38465866,1.2037259,1.0514306,0.03999979,0.04,-7.9198856,3.774596929550171,-4.3862324,0.0028101157,0.03377913311123848,0.03320686
2713.5333333402737,0.11379601,-0.76358455,-0.18456967,-2.345827,0.38525286,1.2031584,1.0518408,0.039999794,0.04,-7.9142256,3.7784664630889893,-4.393154,0.0025075302,0.03257466480135918,0.032268096
2713.5500000069405,0.11396645,-0.76355344,-0.18484694,-2.3458114,0.3858308,1.2026064,1.0522397,0.039999798,0.04,-7.908636,3.782226800918579,-4.3999777,0.002208721,0.03137770667672157,0.031338528
2713.5666666736074,0.11413212,-0.76352286,-0.18511637,-2.345796,0.3863924,1.2020701,1.0526276,0.03999979,0.04,-7.903296,3.7858736515045166,-4.406425,0.001913901,0.030188072472810745,0.03041665
2713.5833333402743,0.11429305,-0.7634935,-0.18537807,-2.3457816,0.38693792,1.2015489,1.053004,0.03999979,0.04,-7.898082,3.7893996238708496,-4.4128284,0.0016209702,0.02900375984609127,0.029502807
2713.600000006941,0.11444923,-0.7634646,-0.18563215,-2.3457677,0.38746738,1.2010429,1.0533695,0.03999979,0.04,-7.8929634,3.792825937271118,-4.4189744,0.0013342714,0.027828238904476166,0.028597826
2713.616666673608,0.11460073,-0.7634369,-0.1858786,-2.3457541,0.38798106,1.2005523,1.0537242,0.03999979,0.04,-7.8880544,3.7961983680725098,-4.4251094,0.0010488188,0.02665652707219124,0.027703216
2713.633333340275,0.11474758,-0.7634098,-0.18611751,-2.3457417,0.38847888,1.2000768,1.0540681,0.039999794,0.04,-7.8831873,3.7993669509887695,-4.430821,0.00076838327,0.025498881936073303,0.02681627
2713.650000006942,0.11488985,-0.76338387,-0.18634892,-2.3457294,0.38896114,1.1996162,1.0544012,0.03999979,0.04,-7.878615,3.8025429248809814,-4.436531,0.0004895267,0.024346327409148216,0.025942149
2713.6666666736087,0.11502757,-0.76335853,-0.186573,-2.3457172,0.38942802,1.1991701,1.0547233,0.039999794,0.04,-7.874,3.8055264949798584,-4.4420233,0.0002163805,0.023206431418657303,0.02507493
2713.6833333402756,0.11516076,-0.76333404,-0.18678969,-2.3457053,0.3898796,1.1987388,1.0550349,0.03999979,0.04,-7.869612,3.8084375858306885,-4.4472613,-5.190113e-05,0.022076675668358803,0.024218347
2713.7000000069424,0.11528952,-0.7633104,-0.18699914,-2.3456936,0.39031607,1.1983218,1.0553362,0.03999979,0.04,-7.865321,3.8112423419952393,-4.452376,-0.00031543383,0.020959703251719475,0.023372386
2713.7166666736093,0.11541382,-0.7632875,-0.18720143,-2.3456821,0.3907376,1.197919,1.0556276,0.03999979,0.04,-7.861193,3.8139631748199463,-4.4573154,-0.0005755866,0.01985480822622776,0.022537654
2713.733333340276,0.11553381,-0.76326555,-0.1873966,-2.3456707,0.3911443,1.1975303,1.0559084,0.03999979,0.04,-7.8571773,3.8165969848632812,-4.46218,-0.00083254353,0.018761809915304184,0.021713017
2713.750000006943,0.115649484,-0.7632443,-0.18758476,-2.3456593,0.3915366,1.1971556,1.056179,0.03999979,0.04,-7.853295,3.8190934658050537,-4.4666905,-0.001083571,0.01768368110060692,0.02089937
2713.76666667361,0.115760885,-0.763224,-0.18776602,-2.345648,0.39191428,1.196795,1.0564401,0.039999794,0.04,-7.8495345,3.821505308151245,-4.471129,-0.0013279292,0.016620974987745285,0.020096054
2713.783333340277,0.115868084,-0.76320434,-0.18794048,-2.3456373,0.39227775,1.1964476,1.056691,0.03999979,0.04,-7.845957,3.823880195617676,-4.475405,-0.0015701217,0.015573707409203053,0.01930641
2713.8000000069437,0.11597113,-0.7631855,-0.18810818,-2.345627,0.39262718,1.1961136,1.0569323,0.039999787,0.04,-7.842494,3.8261446952819824,-4.4796195,-0.0018071368,0.014538235031068325,0.018527512
2713.8166666736106,0.11607013,-0.76316744,-0.18826926,-2.3456175,0.39296272,1.1957929,1.0571641,0.039999787,0.04,-7.8392134,3.8283095359802246,-4.483523,-0.0020402921,0.013517436571419239,0.017761853
2713.8333333402775,0.1161651,-0.76314986,-0.18842381,-2.3456085,0.39328468,1.1954854,1.0573862,0.03999979,0.04,-7.8360357,3.830392360687256,-4.487349,-0.002268713,0.012512041255831718,0.017009014
2713.8500000069444,0.11625613,-0.7631332,-0.18857196,-2.3456001,0.39359325,1.1951904,1.0575993,0.039999787,0.04,-7.8330245,3.8324098587036133,-4.4910717,-0.0024929086,0.01151987910270691,0.016269343
2713.8666666736112,0.116343275,-0.76311725,-0.1887138,-2.345592,0.39388865,1.1949081,1.0578033,0.03999979,0.04,-7.8300667,3.834341049194336,-4.49465,-0.0027135701,0.010543392971158028,0.015543101
2713.883333340278,0.116426595,-0.76310194,-0.18884942,-2.3455846,0.39417118,1.194638,1.0579982,0.03999979,0.04,-7.8272552,3.836160182952881,-4.4979677,-0.002929431,0.009584441781044006,0.014830087
2713.900000006945,0.11650615,-0.76308745,-0.188979,-2.3455775,0.39444092,1.1943803,1.0581846,0.039999787,0.04,-7.8246055,3.8379223346710205,-4.501228,-0.0031404658,0.008639754727482796,0.014131415
2713.916666673612,0.11658208,-0.7630735,-0.18910255,-2.3455708,0.3946983,1.1941345,1.0583624,0.03999979,0.04,-7.821953,3.8395936489105225,-4.5043745,-0.0033477573,0.007716177497059107,0.013446047
2713.9333333402788,0.11665437,-0.7630603,-0.18922026,-2.3455646,0.39494345,1.1939003,1.0585316,0.03999979,0.04,-7.819553,3.8411948680877686,-4.507296,-0.0035503095,0.006809540558606386,0.012776418
2713.9500000069456,0.11672319,-0.7630477,-0.18933226,-2.3455591,0.39517665,1.1936777,1.0586927,0.03999979,0.04,-7.8172107,3.8427069187164307,-4.510144,-0.003747842,0.005920917261391878,0.0121204825
2713.9666666736125,0.116788544,-0.76303566,-0.18943867,-2.3455544,0.3953982,1.1934661,1.0588458,0.039999794,0.04,-7.8150015,3.8441836833953857,-4.5128536,-0.0039416305,0.005051376763731241,0.01148167
2713.9833333402794,0.11685055,-0.76302433,-0.1895396,-2.3455496,0.39560837,1.1932652,1.0589912,0.03999979,0.04,-7.8128915,3.8455708026885986,-4.5155168,-0.004131332,0.004198696929961443,0.010857459
2714.0000000069463,0.11690926,-0.76301354,-0.18963519,-2.3455448,0.3958074,1.1930748,1.0591289,0.039999794,0.04,-7.8108454,3.846845865249634,-4.517881,-0.0043157134,0.003368101781234145,0.010249099
2714.016666673613,0.11696478,-0.76300335,-0.18972558,-2.34554,0.39599562,1.1928949,1.0592589,0.03999979,0.04,-7.808892,3.848069429397583,-4.520207,-0.0044952817,0.002559281187132001,0.009657216
2714.03333334028,0.11701718,-0.76299363,-0.18981093,-2.3455358,0.39617336,1.1927254,1.0593816,0.03999979,0.04,-7.8070245,3.8492252826690674,-4.522391,-0.0046673333,0.0017742043128237128,0.009081905
2714.050000006947,0.11706658,-0.7629847,-0.18989138,-2.3455315,0.39634085,1.1925652,1.0594972,0.039999794,0.04,-7.8053184,3.8503458499908447,-4.52458,-0.0048351116,0.0010110641596838832,0.008522463
2714.066666673614,0.11711303,-0.7629762,-0.18996708,-2.3455272,0.39649844,1.1924148,1.059606,0.039999794,0.04,-7.803674,3.8513731956481934,-4.5264544,-0.004996098,0.00027045956812798977,0.007980262
2714.0833333402807,0.11715666,-0.76296824,-0.19003817,-2.345523,0.39664635,1.1922734,1.0597082,0.039999794,0.04,-7.8020954,3.8523471355438232,-4.5283175,-0.005151208,-0.00044355649151839316,0.007455849
2714.1000000069475,0.11719754,-0.7629607,-0.1901048,-2.3455193,0.3967851,1.192141,1.0598038,0.039999798,0.04,-7.800647,3.8532626628875732,-4.530079,-0.0053016483,-0.0011338162003085017,0.0069493093
2714.1166666736144,0.1172358,-0.76295376,-0.19016714,-2.3455155,0.39691484,1.1920171,1.0598935,0.03999979,0.04,-7.7992826,3.8541455268859863,-4.5318036,-0.005445647,-0.001799892750568688,0.0064607337
2714.1333333402813,0.11727153,-0.7629472,-0.19022532,-2.3455117,0.39703593,1.1919014,1.059977,0.039999794,0.04,-7.7980103,3.8549482822418213,-4.533293,-0.0055843075,-0.002440009731799364,0.0059911227
2714.150000006948,0.11730481,-0.7629412,-0.19027959,-2.3455079,0.39714873,1.1917936,1.060055,0.039999794,0.04,-7.7967863,3.855698585510254,-4.5347586,-0.005716381,-0.0030534013640135527,0.0055408063
2714.166666673615,0.11733577,-0.7629355,-0.19033007,-2.345504,0.39725366,1.1916933,1.0601274,0.039999794,0.04,-7.79562,3.856414556503296,-4.536152,-0.0058424077,-0.003638973692432046,0.005109589
2714.183333340282,0.11736452,-0.7629303,-0.1903769,-2.3455002,0.3973511,1.1916003,1.0601946,0.039999794,0.04,-7.794576,3.8570621013641357,-4.5373974,-0.00596114,-0.004196763504296541,0.00469779
2714.200000006949,0.117391154,-0.7629254,-0.1904203,-2.3454967,0.39744127,1.1915143,1.0602568,0.039999798,0.04,-7.7936044,3.8576736450195312,-4.538598,-0.006074471,-0.004726788494735956,0.004306457
2714.2166666736157,0.117415756,-0.7629209,-0.1904604,-2.3454936,0.3975247,1.1914345,1.0603147,0.039999794,0.04,-7.7927065,3.858266592025757,-4.53974,-0.006181274,-0.005228647496551275,0.003936369
2714.2333333402826,0.11743848,-0.7629168,-0.19049749,-2.3454907,0.39760178,1.1913608,1.0603681,0.039999798,0.04,-7.7918735,3.8588006496429443,-4.5408196,-0.0062832404,-0.005702998023480177,0.0035861728
2714.2500000069494,0.11745942,-0.7629129,-0.19053164,-2.345488,0.3976727,1.1912932,1.0604173,0.039999794,0.04,-7.791113,3.859302520751953,-4.5417776,-0.006379183,-0.006148734595626593,0.0032576595
2714.2666666736163,0.11747872,-0.76290935,-0.19056302,-2.3454857,0.39773798,1.1912307,1.0604625,0.039999798,0.04,-7.790404,3.8597683906555176,-4.5427256,-0.0064694155,-0.006564507260918617,0.002951659
2714.283333340283,0.117496476,-0.7629062,-0.19059195,-2.3454833,0.39779818,1.1911733,1.0605043,0.039999794,0.04,-7.7897534,3.8601889610290527,-4.543589,-0.0065517146,-0.006951311603188515,0.0026686287
2714.30000000695,0.11751281,-0.7629032,-0.19061854,-2.3454814,0.3978535,1.1911207,1.0605432,0.039999794,0.04,-7.7891,3.8605873584747314,-4.5444045,-0.0066283247,-0.0073055303655564785,0.0024067461
2714.316666673617,0.11752786,-0.76290053,-0.19064304,-2.3454802,0.39790446,1.1910725,1.0605782,0.039999794,0.04,-7.7885695,3.8609559535980225,-4.5451603,-0.0067011197,-0.007632026914507151,0.0021661473
2714.333333340284,0.11754171,-0.76289797,-0.19066557,-2.345479,0.3979513,1.191028,1.0606099,0.039999794,0.04,-7.7881026,3.861309289932251,-4.545864,-0.006765448,-0.00793435424566269,0.0019444902
2714.3500000069507,0.11755445,-0.76289564,-0.19068632,-2.345478,0.3979945,1.1909873,1.06064,0.039999794,0.04,-7.787606,3.8616116046905518,-4.546502,-0.00682233,-0.008212724700570107,0.0017404386
2714.3666666736176,0.11756615,-0.76289344,-0.19070542,-2.345477,0.39803413,1.1909496,1.0606674,0.039999798,0.04,-7.787162,3.8619019985198975,-4.547113,-0.006878624,-0.00846825260668993,0.0015524711
2714.3833333402845,0.117576934,-0.7628915,-0.19072299,-2.3454762,0.39807063,1.1909144,1.0606918,0.039999794,0.04,-7.7867546,3.8621702194213867,-4.5476317,-0.006929667,-0.008704700507223606,0.0013809147
2714.4000000069514,0.11758686,-0.7628897,-0.19073913,-2.3454752,0.3981042,1.1908818,1.0607154,0.03999979,0.04,-7.786376,3.862406015396118,-4.5480986,-0.0069726366,-0.008923659101128578,0.0012234006
2714.4166666736182,0.117595986,-0.7628879,-0.19075403,-2.3454745,0.39813516,1.1908526,1.060736,0.039999794,0.04,-7.7860174,3.8626136779785156,-4.548562,-0.0070170728,-0.009125580079853535,0.0010773253
2714.433333340285,0.11760438,-0.76288635,-0.1907677,-2.3454738,0.39816362,1.190825,1.0607557,0.039999794,0.04,-7.7857013,3.8628318309783936,-4.5490108,-0.0070529575,-0.00930926576256752,0.0009431665
2714.450000006952,0.11761211,-0.76288503,-0.19078033,-2.345473,0.39818993,1.1908001,1.0607746,0.039999794,0.04,-7.7854147,3.8630099296569824,-4.5493655,-0.00708989,-0.009481296874582767,0.0008197877
2714.466666673619,0.117619246,-0.7628838,-0.19079195,-2.3454723,0.39821374,1.1907768,1.0607908,0.039999794,0.04,-7.785115,3.8631744384765625,-4.5497246,-0.0071262345,-0.009636580012738705,0.000705407
2714.4833333402858,0.1176258,-0.7628826,-0.19080263,-2.3454719,0.3982357,1.1907557,1.0608063,0.039999794,0.04,-7.7848682,3.863354444503784,-4.5500565,-0.00715513,-0.009780364111065865,0.0006027298
2714.5000000069526,0.117631845,-0.7628815,-0.19081248,-2.3454714,0.39825624,1.1907355,1.0608209,0.039999794,0.04,-7.784654,3.8634836673736572,-4.5503674,-0.007184676,-0.009912405163049698,0.00050678797
2714.5166666736195,0.11763741,-0.76288056,-0.19082151,-2.345471,0.39827505,1.190718,1.0608333,0.039999794,0.04,-7.7844543,3.8636176586151123,-4.550624,-0.0072130477,-0.010037790052592754,0.00041915974
2714.5333333402864,0.11764252,-0.7628797,-0.19082983,-2.3454704,0.39829203,1.1907015,1.0608451,0.039999794,0.04,-7.784228,3.8637263774871826,-4.5509043,-0.0072340653,-0.010147318243980408,0.00033697384
2714.5500000069533,0.11764723,-0.7628789,-0.19083746,-2.34547,0.39830792,1.1906861,1.0608566,0.039999794,0.04,-7.784053,3.8638534545898438,-4.551126,-0.0072556133,-0.010249849408864975,0.00026267517
2714.56666667362,0.11765155,-0.76287806,-0.19084454,-2.3454695,0.39832264,1.1906725,1.0608666,0.03999979,0.04,-7.783892,3.8639442920684814,-4.5513363,-0.007277771,-0.010345122776925564,0.0001941386
2714.583333340287,0.11765553,-0.7628773,-0.19085102,-2.3454692,0.39833614,1.1906598,1.0608752,0.039999794,0.04,-7.7837253,3.864042043685913,-4.5515537,-0.0072958083,-0.010430493392050266,0.00013023075
2714.600000006954,0.11765921,-0.7628766,-0.19085696,-2.345469,0.39834836,1.1906472,1.0608835,0.039999794,0.04,-7.7836175,3.864133834838867,-4.55173,-0.0073098363,-0.010511070489883423,7.104999e-05
2714.616666673621,0.11766258,-0.76287585,-0.19086245,-2.345469,0.39835966,1.1906371,1.0608914,0.039999794,0.04,-7.7835007,3.864229679107666,-4.5518894,-0.0073251086,-0.010588382370769978,1.9129053e-05
2714.6333333402877,0.11766568,-0.7628754,-0.19086747,-2.345469,0.39837015,1.1906275,1.060899,0.039999794,0.04,-7.7833734,3.864295482635498,-4.5520897,-0.0073404685,-0.010654590092599392,-3.0627005e-05
2714.6500000069545,0.11766854,-0.7628749,-0.19087216,-2.345469,0.39837986,1.1906185,1.0609065,0.039999794,0.04,-7.783266,3.864361524581909,-4.5522,-0.007355756,-0.010716332122683525,-7.6359145e-05
2714.6666666736214,0.11767116,-0.7628744,-0.19087647,-2.345469,0.39838883,1.1906096,1.0609115,0.039999794,0.04,-7.783163,3.8644332885742188,-4.5523424,-0.007372167,-0.010773587971925735,-0.00011828744
2714.6833333402883,0.11767359,-0.76287395,-0.1908804,-2.345469,0.39839694,1.1906009,1.0609163,0.039999794,0.04,-7.783083,3.864487409591675,-4.552441,-0.0073785335,-0.010829607024788857,-0.00015670102
2714.700000006955,0.11767582,-0.76287353,-0.19088401,-2.345469,0.39840442,1.1905946,1.0609211,0.039999794,0.04,-7.62165,3.7638330459594727,-4.332527,0.0,-0.0,0.0
2714.716666673622,0.11767582,-0.76287353,-0.19088401,-2.345469,0.39840442,1.1905946,1.0609211,0.039999794,0.04,-7.7828813,3.864579200744629,-4.55279,0.0,-0.0,0.0
2714.733333340289,0.11767582,-0.76287353,-0.19088401,-2.345469,0.39840442,1.1905946,1.0609211,0.039999794,0.04,-7.7828813,3.864579200744629,-4.55279,0.0,-0.0,0.0
2714.750000006956,0.11767582,-0.76287353,-0.19088401,-2.345469,0.39840442,1.1905946,1.0609211,0.039999794,0.04,-7.7828813,3.864579200744629,-4.55279,0.0,-0.0,0.0
2714.7666666736227,0.11767582,-0.76287353,-0.19088401,-2.345469,0.39840442,1.1905946,1.0609211,0.039999794,0.04,-7.7828813,3.864579200744629,-4.55279,0.0,-0.0,0.0
2714.7833333402896,0.11767582,-0.76287353,-0.19088401,-2.345469,0.39840442,1.1905946,1.0609211,0.039999794,0.04,-7.7828813,3.864579200744629,-4.55279,0.0,-0.0,0.0
2714.8000000069565,0.11767582,-0.76287353,-0.19088401,-2.345469,0.39840442,1.1905946,1.0609211,0.039999794,0.04,-7.7828813,3.864579200744629,-4.55279,0.0,-0.0,0.0
2714.8166666736233,0.11767582,-0.76287353,-0.19088401,-2.345469,0.39840442,1.1905946,1.0609211,0.039999794,0.04,-7.7828813,3.864579200744629,-4.55279,0.0,-0.0,0.0
2714.83333334029,0.11767582,-0.76287353,-0.19088401,-2.345469,0.39840442,1.1905946,1.0609211,0.039999794,0.04,-7.7828813,3.864579200744629,-4.55279,0.0,-0.0,0.0
2714.850000006957,0.11767582,-0.76287353,-0.19088401,-2.345469,0.39840442,1.1905946,1.0609211,0.039999794,0.04,-7.7828813,3.864579200744629,-4.55279,0.0,-0.0,0.0
2714.866666673624,0.11767582,-0.76287353,-0.19088401,-2.345469,0.39840442,1.1905946,1.0609211,0.039999794,0.04,-7.7828813,3.864579200744629,-4.55279,0.0,-0.0,0.0
2714.883333340291,0.11767582,-0.76287353,-0.19088401,-2.345469,0.39840442,1.1905946,1.0609211,0.039999794,0.04,-7.7828813,3.864579200744629,-4.55279,0.0,-0.0,0.0
2714.9000000069577,0.11767582,-0.76287353,-0.19088401,-2.345469,0.39840442,1.1905946,1.0609211,0.039999794,0.04,-7.7828813,3.864579200744629,-4.55279,0.0,-0.0,0.0
2714.9166666736246,0.11767582,-0.76287353,-0.19088401,-2.345469,0.39840442,1.1905946,1.0609211,0.039999794,0.04,-7.7828813,3.864579200744629,-4.55279,0.0,-0.0,0.0
2714.9333333402915,0.11767582,-0.76287353,-0.19088401,-2.345469,0.39840442,1.1905946,1.0609211,0.039999794,0.04,-7.7828813,3.864579200744629,-4.55279,0.0,-0.0,0.0
2714.9500000069584,0.11767582,-0.76287353,-0.19088401,-2.345469,0.39840442,1.1905946,1.0609211,0.039999794,0.04,-7.7828813,3.864579200744629,-4.55279,0.0,-0.0,0.0
2714.9666666736252,0.11767582,-0.76287353,-0.19088401,-2.345469,0.39840442,1.1905946,1.0609211,0.039999794,0.04,-7.7828813,3.864579200744629,-4.55279,0.0,-0.0,0.0
2714.983333340292,0.11767582,-0.76287353,-0.19088401,-2.345469,0.39840442,1.1905946,1.0609211,0.039999794,0.04,-7.7828813,3.864579200744629,-4.55279,0.0,-0.0,0.0
2715.000000006959,0.11767582,-0.76287353,-0.19088401,-2.345469,0.39840442,1.1905946,1.0609211,0.039999794,0.04,-7.7828813,3.864579200744629,-4.55279,0.0,-0.0,0.0
2715.016666673626,0.11767582,-0.76287353,-0.19088401,-2.345469,0.39840442,1.1905946,1.0609211,0.039999794,0.04,-7.7828813,3.864579200744629,-4.55279,0.0,-0.0,0.0
2715.0333333402928,0.11767582,-0.76287353,-0.19088401,-2.345469,0.39840442,1.1905946,1.0609211,0.039999794,0.04,-7.7828813,3.864579200744629,-4.55279,0.0,-0.0,0.0
2715.0500000069596,0.11767582,-0.76287353,-0.19088401,-2.345469,0.39840442,1.1905946,1.0609211,0.039999794,0.04,-7.7828813,3.864579200744629,-4.55279,0.0,-0.0,0.0
2715.0666666736265,0.11767582,-0.76287353,-0.19088401,-2.345469,0.39840442,1.1905946,1.0609211,0.039999794,0.04,-7.7828813,3.864579200744629,-4.55279,0.0,-0.0,0.0
2715.0833333402934,0.11767582,-0.76287353,-0.19088401,-2.345469,0.39840442,1.1905946,1.0609211,0.039999794,0.04,-7.7828813,3.864579200744629,-4.55279,0.0,-0.0,0.0
2715.1000000069603,0.11767582,-0.76287353,-0.19088401,-2.345469,0.39840442,1.1905946,1.0609211,0.039999794,0.04,-7.7828813,3.864579200744629,-4.55279,0.0,-0.0,0.0
2715.116666673627,0.11767582,-0.76287353,-0.19088401,-2.345469,0.39840442,1.1905946,1.0609211,0.039999794,0.04,-7.7828813,3.864579200744629,-4.55279,0.0,-0.0,0.0
2715.133333340294,0.11767582,-0.76287353,-0.19088401,-2.345469,0.39840442,1.1905946,1.0609211,0.039999794,0.04,-7.7828813,3.864579200744629,-4.55279,0.0,-0.0,0.0
2715.150000006961,0.11767582,-0.76287353,-0.19088401,-2.345469,0.39840442,1.1905946,1.0609211,0.039999794,0.04,-7.7828813,3.864579200744629,-4.55279,0.0,-0.0,0.0
2715.166666673628,0.11767582,-0.76287353,-0.19088401,-2.345469,0.39840442,1.1905946,1.0609211,0.039999794,0.04,-7.7828813,3.864579200744629,-4.55279,0.0,-0.0,0.0
2715.1833333402947,0.11767582,-0.76287353,-0.19088401,-2.345469,0.39840442,1.1905946,1.0609211,0.039999794,0.04,-7.7828813,3.864579200744629,-4.55279,0.0,-0.0,0.0
2715.2000000069615,0.11767582,-0.76287353,-0.19088401,-2.345469,0.39840442,1.1905946,1.0609211,0.039999794,0.04,-7.7828813,3.864579200744629,-4.55279,0.0,-0.0,0.0
2715.2166666736284,0.11767582,-0.76287353,-0.19088401,-2.345469,0.39840442,1.1905946,1.0609211,0.039999794,0.04,-7.7828813,3.864579200744629,-4.55279,0.0,-0.0,0.0
2715.2333333402953,0.11767582,-0.76287353,-0.19088401,-2.345469,0.39840442,1.1905946,1.0609211,0.039999794,0.04,-7.7828813,3.864579200744629,-4.55279,0.0,-0.0,0.0
2715.250000006962,0.11767582,-0.76287353,-0.19088401,-2.345469,0.39840442,1.1905946,1.0609211,0.039999794,0.04,-7.7828813,3.864579200744629,-4.55279,0.0,-0.0,0.0
2715.266666673629,0.11767582,-0.76287353,-0.19088401,-2.345469,0.39840442,1.1905946,1.0609211,0.039999794,0.04,-7.7828813,3.864579200744629,-4.55279,0.0,-0.0,0.0
2715.283333340296,0.11767582,-0.76287353,-0.19088401,-2.345469,0.39840442,1.1905946,1.0609211,0.039999794,0.04,-7.7828813,3.864579200744629,-4.55279,0.0,-0.0,0.0
2715.300000006963,0.11767582,-0.76287353,-0.19088401,-2.345469,0.39840442,1.1905946,1.0609211,0.039999794,0.04,-7.7828813,3.864579200744629,-4.55279,0.0,-0.0,0.0
2715.3166666736297,0.11767582,-0.76287353,-0.19088401,-2.345469,0.39840442,1.1905946,1.0609211,0.039999794,0.04,-7.7828813,3.864579200744629,-4.55279,0.0,-0.0,0.0
2715.3333333402966,0.11767582,-0.76287353,-0.19088401,-2.345469,0.39840442,1.1905946,1.0609211,0.039999794,0.04,-7.7828813,3.864579200744629,-4.55279,0.0,-0.0,0.0
2715.3500000069635,0.11767582,-0.76287353,-0.19088401,-2.345469,0.39840442,1.1905946,1.0609211,0.039999794,0.04,-7.7828813,3.864579200744629,-4.55279,0.0,-0.0,0.0
2715.3666666736303,0.11767582,-0.76287353,-0.19088401,-2.345469,0.39840442,1.1905946,1.0609211,0.039999794,0.04,-7.7828813,3.864579200744629,-4.55279,0.0,-0.0,0.0
2715.383333340297,0.11767582,-0.76287353,-0.19088401,-2.345469,0.39840442,1.1905946,1.0609211,0.039999794,0.04,-7.7828813,3.864579200744629,-4.55279,0.0,-0.0,0.0
2715.400000006964,0.11767582,-0.76287353,-0.19088401,-2.345469,0.39840442,1.1905946,1.0609211,0.039999794,0.04,-7.7828813,3.864579200744629,-4.55279,0.0,-0.0,0.0
2715.416666673631,0.11767582,-0.76287353,-0.19088401,-2.345469,0.39840442,1.1905946,1.0609211,0.039999794,0.04,-7.7828813,3.864579200744629,-4.55279,0.0,-0.0,0.0
2715.433333340298,0.11767582,-0.76287353,-0.19088401,-2.345469,0.39840442,1.1905946,1.0609211,0.039999794,0.04,-7.7828813,3.864579200744629,-4.55279,0.0,-0.0,0.0
2715.4500000069647,0.11767582,-0.76287353,-0.19088401,-2.345469,0.39840442,1.1905946,1.0609211,0.039999794,0.04,-7.7828813,3.864579200744629,-4.55279,0.0,-0.0,0.0
2715.4666666736316,0.11767582,-0.76287353,-0.19088401,-2.345469,0.39840442,1.1905946,1.0609211,0.039999794,0.04,-7.7828813,3.864579200744629,-4.55279,0.0,-0.0,0.0
2715.4833333402985,0.11767582,-0.76287353,-0.19088401,-2.345469,0.39840442,1.1905946,1.0609211,0.039999794,0.04,-7.7828813,3.864579200744629,-4.55279,0.0,-0.0,0.0
2715.5000000069654,0.11767582,-0.76287353,-0.19088401,-2.345469,0.39840442,1.1905946,1.0609211,0.039999794,0.04,-7.7828813,3.864579200744629,-4.55279,0.0,-0.0,0.0
2715.5166666736322,0.11767582,-0.76287353,-0.19088401,-2.345469,0.39840442,1.1905946,1.0609211,0.039999794,0.04,-7.7828813,3.864579200744629,-4.55279,0.0,-0.0,0.0
2715.533333340299,0.11767582,-0.76287353,-0.19088401,-2.345469,0.39840442,1.1905946,1.0609211,0.039999794,0.04,-7.7828813,3.864579200744629,-4.55279,0.0,-0.0,0.0
2715.550000006966,0.11767582,-0.76287353,-0.19088401,-2.345469,0.39840442,1.1905946,1.0609211,0.039999794,0.04,-7.7828813,3.864579200744629,-4.55279,0.0,-0.0,0.0
2715.566666673633,0.11767582,-0.76287353,-0.19088401,-2.345469,0.39840442,1.1905946,1.0609211,0.039999794,0.04,-7.7828813,3.864579200744629,-4.55279,0.0,-0.0,0.0
2715.5833333402998,0.11767582,-0.76287353,-0.19088401,-2.345469,0.39840442,1.1905946,1.0609211,0.039999794,0.04,-7.7828813,3.864579200744629,-4.55279,0.0,-0.0,0.0
2715.6000000069666,0.11767582,-0.76287353,-0.19088401,-2.345469,0.39840442,1.1905946,1.0609211,0.039999794,0.04,-7.7828813,3.864579200744629,-4.55279,0.0,-0.0,0.0
2715.6166666736335,0.11767582,-0.76287353,-0.19088401,-2.345469,0.39840442,1.1905946,1.0609211,0.039999794,0.04,-7.7828813,3.864579200744629,-4.55279,0.0,-0.0,0.0
2715.6333333403004,0.11767582,-0.76287353,-0.19088401,-2.345469,0.39840442,1.1905946,1.0609211,0.039999794,0.04,-7.7828813,3.864579200744629,-4.55279,0.0,-0.0,0.0
2715.6500000069673,0.11767582,-0.76287353,-0.19088401,-2.345469,0.39840442,1.1905946,1.0609211,0.039999794,0.04,-7.7828813,3.864579200744629,-4.55279,0.0,-0.0,0.0
2715.666666673634,0.11767582,-0.76287353,-0.19088401,-2.345469,0.39840442,1.1905946,1.0609211,0.039999794,0.04,-7.7828813,3.864579200744629,-4.55279,0.0,-0.0,0.0
2715.683333340301,0.11767582,-0.76287353,-0.19088401,-2.345469,0.39840442,1.1905946,1.0609211,0.039999794,0.04,-7.7828813,3.864579200744629,-4.55279,0.0,-0.0,0.0
2715.700000006968,0.11767582,-0.76287353,-0.19088401,-2.345469,0.39840442,1.1905946,1.0609211,0.039999794,0.04,-7.7828813,3.864579200744629,-4.55279,0.0,-0.0,0.0
2715.716666673635,0.11767582,-0.76287353,-0.19088401,-2.345469,0.39840442,1.1905946,1.0609211,0.039999794,0.04,-7.7828813,3.864579200744629,-4.55279,0.0,-0.0,0.0
2715.7333333403017,0.11767582,-0.76287353,-0.19088401,-2.345469,0.39840442,1.1905946,1.0609211,0.039999794,0.04,-7.7828813,3.864579200744629,-4.55279,0.0,-0.0,0.0
2715.7500000069685,0.11767582,-0.76287353,-0.19088401,-2.345469,0.39840442,1.1905946,1.0609211,0.039999794,0.04,-7.7828813,3.864579200744629,-4.55279,0.0,-0.0,0.0
2715.7666666736354,0.11767582,-0.76287353,-0.19088401,-2.345469,0.39840442,1.1905946,1.0609211,0.039999794,0.04,-7.7828813,3.864579200744629,-4.55279,0.0,-0.0,0.0
2715.7833333403023,0.11767582,-0.76287353,-0.19088401,-2.345469,0.39840442,1.1905946,1.0609211,0.039999794,0.04,-7.7828813,3.864579200744629,-4.55279,0.0,-0.0,0.0
2715.800000006969,0.11767582,-0.76287353,-0.19088401,-2.345469,0.39840442,1.1905946,1.0609211,0.039999794,0.04,-7.7828813,3.864579200744629,-4.55279,0.0,-0.0,0.0
2715.816666673636,0.11767582,-0.76287353,-0.19088401,-2.345469,0.39840442,1.1905946,1.0609211,0.039999794,0.04,-7.7828813,3.864579200744629,-4.55279,0.0,-0.0,0.0
2715.833333340303,0.11767582,-0.76287353,-0.19088401,-2.345469,0.39840442,1.1905946,1.0609211,0.039999794,0.04,-7.7828813,3.864579200744629,-4.55279,0.0,-0.0,0.0
2715.85000000697,0.11767582,-0.76287353,-0.19088401,-2.345469,0.39840442,1.1905946,1.0609211,0.039999794,0.04,-7.7828813,3.864579200744629,-4.55279,0.0,-0.0,0.0
2715.8666666736367,0.11767582,-0.76287353,-0.19088401,-2.345469,0.39840442,1.1905946,1.0609211,0.039999794,0.04,-7.7828813,3.864579200744629,-4.55279,0.0,-0.0,0.0
2715.8833333403036,0.11767582,-0.76287353,-0.19088401,-2.345469,0.39840442,1.1905946,1.0609211,0.039999794,0.04,-7.7828813,3.864579200744629,-4.55279,0.0,-0.0,0.0
2715.9000000069705,0.11767582,-0.76287353,-0.19088401,-2.345469,0.39840442,1.1905946,1.0609211,0.039999794,0.04,-7.7828813,3.864579200744629,-4.55279,0.0,-0.0,0.0
2715.9166666736373,0.11767582,-0.76287353,-0.19088401,-2.345469,0.39840442,1.1905946,1.0609211,0.039999794,0.04,-7.7828813,3.864579200744629,-4.55279,0.0,-0.0,0.0
2715.933333340304,0.11767582,-0.76287353,-0.19088401,-2.345469,0.39840442,1.1905946,1.0609211,0.039999794,0.04,-7.7828813,3.864579200744629,-4.55279,0.0,-0.0,0.0
2715.950000006971,0.11767582,-0.76287353,-0.19088401,-2.345469,0.39840442,1.1905946,1.0609211,0.039999794,0.04,-7.7828813,3.864579200744629,-4.55279,0.0,-0.0,0.0
2715.966666673638,0.11767582,-0.76287353,-0.19088401,-2.345469,0.39840442,1.1905946,1.0609211,0.039999794,0.04,-7.7828813,3.864579200744629,-4.55279,0.0,-0.0,0.0
2715.983333340305,0.11767582,-0.76287353,-0.19088401,-2.345469,0.39840442,1.1905946,1.0609211,0.039999794,0.04,-7.7828813,3.864579200744629,-4.55279,0.0,-0.0,0.0
2716.0000000069717,0.11767582,-0.76287353,-0.19088401,-2.345469,0.39840442,1.1905946,1.0609211,0.039999794,0.04,-7.7828813,3.864579200744629,-4.55279,0.0,-0.0,0.0
2716.0166666736386,0.11767582,-0.76287353,-0.19088401,-2.345469,0.39840442,1.1905946,1.0609211,0.039999794,0.04,-7.7828813,3.864579200744629,-4.55279,0.0,-0.0,0.0
2716.0333333403055,0.11767582,-0.76287353,-0.19088401,-2.345469,0.39840442,1.1905946,1.0609211,0.039999794,0.04,-7.7828813,3.864579200744629,-4.55279,0.0,-0.0,0.0
2716.0500000069724,0.11767582,-0.76287353,-0.19088401,-2.345469,0.39840442,1.1905946,1.0609211,0.039999794,0.04,-7.7828813,3.864579200744629,-4.55279,0.0,-0.0,0.0
2716.0666666736392,0.11767582,-0.76287353,-0.19088401,-2.345469,0.39840442,1.1905946,1.0609211,0.039999794,0.04,-7.7828813,3.864579200744629,-4.55279,0.0,-0.0,0.0
2716.083333340306,0.11767582,-0.76287353,-0.19088401,-2.345469,0.39840442,1.1905946,1.0609211,0.039999794,0.04,-7.7828813,3.864579200744629,-4.55279,0.0,-0.0,0.0
2716.100000006973,0.11767582,-0.76287353,-0.19088401,-2.345469,0.39840442,1.1905946,1.0609211,0.039999794,0.04,-7.7828813,3.864579200744629,-4.55279,0.0,-0.0,0.0
2716.11666667364,0.11767582,-0.76287353,-0.19088401,-2.345469,0.39840442,1.1905946,1.0609211,0.039999794,0.04,-7.7828813,3.864579200744629,-4.55279,0.0,-0.0,0.0
2716.1333333403068,0.11767582,-0.76287353,-0.19088401,-2.345469,0.39840442,1.1905946,1.0609211,0.039999794,0.04,-7.7828813,3.864579200744629,-4.55279,0.0,-0.0,0.0
2716.1500000069736,0.11767582,-0.76287353,-0.19088401,-2.345469,0.39840442,1.1905946,1.0609211,0.039999794,0.04,-7.7828813,3.864579200744629,-4.55279,0.0,-0.0,0.0
2716.1666666736405,0.11767582,-0.76287353,-0.19088401,-2.345469,0.39840442,1.1905946,1.0609211,0.039999794,0.04,-7.7828813,3.864579200744629,-4.55279,0.0,-0.0,0.0
2716.1833333403074,0.11767582,-0.76287353,-0.19088401,-2.345469,0.39840442,1.1905946,1.0609211,0.039999794,0.04,-7.7828813,3.864579200744629,-4.55279,0.0,-0.0,0.0
2716.2000000069743,0.11767582,-0.76287353,-0.19088401,-2.345469,0.39840442,1.1905946,1.0609211,0.039999794,0.04,-7.7828813,3.864579200744629,-4.55279,0.0,-0.0,0.0
2716.216666673641,0.11767582,-0.76287353,-0.19088401,-2.345469,0.39840442,1.1905946,1.0609211,0.039999794,0.04,-7.7828813,3.864579200744629,-4.55279,0.0,-0.0,0.0
2716.233333340308,0.11767582,-0.76287353,-0.19088401,-2.345469,0.39840442,1.1905946,1.0609211,0.039999794,0.04,-7.7828813,3.864579200744629,-4.55279,0.0,-0.0,0.0
2716.250000006975,0.11767582,-0.76287353,-0.19088401,-2.345469,0.39840442,1.1905946,1.0609211,0.039999794,0.04,-7.7828813,3.864579200744629,-4.55279,0.0,-0.0,0.0
2716.266666673642,0.11767582,-0.76287353,-0.19088401,-2.345469,0.39840442,1.1905946,1.0609211,0.039999794,0.04,-7.7828813,3.864579200744629,-4.55279,0.0,-0.0,0.0
2716.2833333403087,0.11767582,-0.76287353,-0.19088401,-2.345469,0.39840442,1.1905946,1.0609211,0.039999794,0.04,-7.7828813,3.864579200744629,-4.55279,0.0,-0.0,0.0
2716.3000000069756,0.11767582,-0.76287353,-0.19088401,-2.345469,0.39840442,1.1905946,1.0609211,0.039999794,0.04,-7.7828813,3.864579200744629,-4.55279,0.0,-0.0,0.0
