rsonawane2002/My_IMU/logs_2/traj_280/clean_280.csv
time,j1,j2,j3,j4,j5,j6,j7,gripper1,gripper2,imu_ax,imu_ay,imu_az,imu_gx,imu_gy,imu_gz,quat_x,quat_y,quat_z,quat_w
321.4833333333696,0.00016700293,-0.785875,4.0107683e-05,-2.3551247,9.29385e-05,1.570997,0.786,0.04,0.04,0.0,-0.0,0.0,2.875329272945135e-08,-0.0011641195053377316,4.421952117202833e-08,0.9999995971961153,0.00020320632366974898,0.0008736418299892524,3.263050917662294e-05
321.50000000003627,0.00016700104,-0.78576016,4.010635e-05,-2.3552213,9.2978364e-05,1.5709941,0.786,0.04,0.04,-0.29199845913367994,-2.3520947003611127e-05,0.020128411467590368,1.2608359935984087e-06,-0.0022378274800967397,6.700938426779875e-07,0.9999996850575384,0.00020321248458212319,0.0007665025170139801,3.260983682136658e-05
321.5166666667029,0.00016696581,-0.7856543,4.00475e-05,-2.35531,9.304494e-05,1.5709913,0.786,0.04,0.04,0.023328731365879207,8.479386147312949e-05,-0.0016704127830946547,9.931101256155231e-06,-0.0032229759589827477,4.740546241288922e-06,0.9999997558348118,0.00020325526940212865,0.0006677972383408449,3.262607012924134e-05
321.53333333336957,0.00016683975,-0.78555703,3.9836872e-05,-2.355391,9.319616e-05,1.5709884,0.786,0.04,0.039999995,0.022460763173159926,0.00021663699108598702,-0.0015248359648944998,3.3433834309643686e-05,-0.004122918331986057,1.618168249813724e-05,0.9999998122000092,0.00020339677087080084,0.0005771981494174593,3.2741351914155244e-05
321.5500000000362,0.000166539,-0.7854676,3.933978e-05,-2.3554652,9.3479124e-05,1.5709856,0.786,0.04,0.04,0.020453106952289524,0.0004335158461543317,-0.0014250684966077287,7.827209709399482e-05,-0.0049382002277183696,3.552063501465553e-05,0.9999998566893051,0.00020372659004258372,0.0004939899727744368,3.302654107989468e-05
321.5666666667029,0.00016595524,-0.7853856,3.838399e-05,-2.3555326,9.3992254e-05,1.5709826,0.7860019,0.04,0.04,0.019481853218450418,0.000683538310291209,-0.001338722260246783,0.00015089406893337097,-0.005671881044802863,6.769248754135103e-05,0.9999998910991764,0.00020531350564186097,0.00041775540747542044,3.3591951511877594e-05
321.5833333333695,0.00016495862,-0.78531045,3.6764166e-05,-2.3555977,9.4850664e-05,1.5709796,0.7860038,0.04,0.039999995,0.011632028953445506,0.000984490863499126,-0.0028553917118756544,0.00024813104769484104,-0.006323136599098355,0.00011493569622052857,0.9999999180008561,0.00020734154477043554,0.00034614005749739225,3.4566247431934676e-05
321.6000000000362,0.00016340041,-0.78524166,3.4245786e-05,-2.3556564,9.6143776e-05,1.5709763,0.78600764,0.04,0.04,0.01787963364083822,0.001358888589574319,-0.0010318969906553122,0.0003849192262293232,-0.006912140379049628,0.0001761536811229847,0.9999999376940549,0.00021092160432333186,0.0002807531719699322,3.6077963038619615e-05
321.6166666667028,0.00016111393,-0.78517896,3.05671e-05,-2.3557131,9.802906e-05,1.5709696,0.78601176,0.04,0.04,0.008905883376963963,0.0017359847637423678,-0.005103827785601922,0.0005575658056308293,-0.007419739023176519,0.00025807076872248215,0.999999952368108,0.00021542506366469574,0.00021769061526963183,3.829647246484713e-05
321.6333333333695,0.00015791775,-0.785122,2.5443254e-05,-2.355764,0.00010064244,1.5709628,0.78601784,0.04,0.04,0.016419596640537826,0.0021708428647229804,-0.0006836839210766499,0.0007786060257479941,-0.007879366598434667,0.00035896483460452923,0.9999999616628852,0.00022187782286328819,0.00016040936686497595,4.139196689911296e-05
321.65000000003613,0.00015361657,-0.7850706,1.8568293e-05,-2.355814,0.00010413856,1.570955,0.78602684,0.04,0.04,0.007109119241488493,0.0026335806718539843,-0.003582101752019895,0.0010450048413199842,-0.008256296109794182,0.000481123864160544,0.9999999666928943,0.00023096276408688583,0.00010580989653807031,4.554863081533655e-05
321.6666666667028,0.00014800332,-0.7850246,9.618158e-06,-2.3558602,0.0001086653,1.5709444,0.7860383,0.03999999,0.03999999,0.011508225535128425,0.0031347551912388172,-0.0034763573869556197,0.0013571089417740607,-0.008575836083890833,0.0006262051813644399,0.9999999677819821,0.00024265950917363825,5.4368978347926956e-05,5.0954997573749484e-05
321.68333333336943,0.00014086017,-0.7849835,-1.7479415e-06,-2.3559036,0.00011440829,1.5709301,0.7860527,0.039999988,0.039999988,0.009162262515882702,0.0036396780813858676,-0.004285814588222969,0.0017213506757501914,-0.008830987209815741,0.000794327787318424,0.9999999651714712,0.0002574657625111154,4.983829342635119e-06,5.7823860205853866e-05
321.7000000000361,0.00013196033,-0.7849475,-1.5884358e-05,-2.3559465,0.000121545956,1.5709146,0.78607047,0.039999984,0.03999998,0.0060360617512245085,0.004175535767462101,-0.0035543103304558343,0.0021394052980519404,-0.00902746735707994,0.0009882390731882395,0.9999999588734054,0.0002757991696683876,-4.2226439759232324e-05,6.636967274198983e-05
321.71666666670274,0.00012106922,-0.78491616,-3.315791e-05,-2.355989,0.00013026207,1.5708956,0.7860923,0.03999998,0.039999977,0.004819969487135367,0.004730659394155891,-0.005093186077487211,0.0026132872188253174,-0.009163268049762655,0.0012067453347581918,0.9999999486385229,0.00029826429514581037,-8.86626587055655e-05,7.681337548463797e-05
321.7333333333694,0.000107945314,-0.78488946,-5.394586e-05,-2.3560314,0.00014074698,1.5708727,0.78611845,0.039999977,0.03999997,0.003934768324165283,0.005300443977960077,-0.0054836155990001245,0.0031435338520523666,-0.009248143811971138,0.0014522799670527505,0.9999999340371943,0.00032526424931976993,-0.00013468257565248663,8.938332575152822e-05
321.75000000003604,9.234149e-05,-0.7848672,-7.8634024e-05,-2.3560736,0.00015319388,1.5708457,0.7861497,0.039999973,0.039999966,0.004067266053553453,0.005884106667934507,-0.0054522379814958555,0.003732183110602324,-0.00928234415371777,0.001723726978133127,0.9999999144184674,0.00035741651805573573,-0.0001803757495070475,0.00010431241273882824
321.7666666667027,7.400596e-05,-0.7848498,-0.00010761574,-2.356116,0.00016780094,1.5708139,0.7861863,0.03999997,0.03999996,0.003388720118713273,0.006477652351269618,-0.0064899430497700195,0.004379517692843133,-0.009263368577411665,0.0020224441308951905,0.9999998889243391,0.00039513484962652793,-0.00022621916913243386,0.00012183861308485545
321.78333333336934,5.268294e-05,-0.78483665,-0.00014129026,-2.356159,0.00018476955,1.5707765,0.7862288,0.039999973,0.03999996,0.0020992038575418093,0.007079631207370092,-0.006792661263066435,0.005086804209290823,-0.009194746837543724,0.002349693735996177,0.9999998562865998,0.00043895623533087794,-0.00027298787726919395,0.00014220345280548195
321.800000000036,2.8113642e-05,-0.78482795,-0.00018006172,-2.356202,0.00020430158,1.5707344,0.7862777,0.03999997,0.039999958,0.0034751619532036315,0.007690173241380782,-0.00600265783319287,0.0058552189346396145,-0.009078084572849934,0.002704088220736995,0.9999998153622061,0.0004894208406857835,-0.000319847616231822,0.00016565113040118231
321.81666666670264,3.6937607e-08,-0.7848238,-0.00022433749,-2.3562455,0.00022660317,1.570686,0.7863334,0.039999973,0.039999958,0.0017984447459262753,0.008302814124578766,-0.007602005685347635,0.006684461851532894,-0.008905970245463874,0.003087585390181122,0.9999997642099502,0.0005469516688100731,-0.00036796089030278003,0.0001924284261451023
321.8333333333693,-3.1809886e-05,-0.7848241,-0.0002745279,-2.356293,0.00025187933,1.5706316,0.7863965,0.039999977,0.03999996,-0.003418895785678444,0.008919864287774915,-0.008695440216266448,0.007576357412949505,-0.00868707584599962,0.0034986343272777392,0.9999997001335444,0.0006121822129765593,-0.00041872868733502667,0.00022278250757688364
321.85000000003595,-6.7690606e-05,-0.78482884,-0.0003310446,-2.356343,0.0002803373,1.5705703,0.7864677,0.039999973,0.039999958,-0.0016941765796252284,0.009538005327083193,-0.008872632710343886,0.008529908514629817,-0.00842900892486945,0.003938199975533448,0.9999996204945225,0.0006856869816729246,-0.00047203210957173504,0.00025696276308334744
321.8666666667026,-0.00010786944,-0.7848382,-0.00039430003,-2.356394,0.00031218582,1.5705018,0.78654724,0.039999977,0.039999958,0.0011605413706039513,0.010156291660725196,-0.008458484608131478,0.009545129244611102,-0.008129522248328771,0.004407200000814784,0.9999995226238019,0.0007679216266296796,-0.0005271562251719785,0.00029522001610332273
321.88333333336925,-0.00015261058,-0.7848521,-0.00046470665,-2.3564491,0.0003476305,1.5704256,0.78663594,0.03999998,0.03999996,-0.004282118410658953,0.010773003399860648,-0.010087328047059252,0.01062252753167,-0.0077810241336770765,0.004903893096040604,0.9999994019409986,0.0008595204504926137,-0.0005858597880308529,0.0003378025296497583
321.9000000000359,-0.00020217778,-0.7848708,-0.000542676,-2.3565073,0.00038687908,1.5703413,0.7867341,0.039999977,0.039999954,-0.0024821663518581616,0.011387366315007823,-0.010185836161724637,0.01176119318564262,-0.007397033781201319,0.005429960996701269,0.9999992544077386,0.0009609380346221547,-0.0006477557862456001,0.00038496039001348386
321.91666666670255,-0.00025683374,-0.7848941,-0.0006286183,-2.356568,0.00043013768,1.5702485,0.7868423,0.039999984,0.03999996,-0.002084835646520844,0.011998768938766141,-0.010195967427151231,0.012961211591708533,-0.006969208475638163,0.005983571700934673,0.9999990750205153,0.0010727171624394336,-0.0007129639289154066,0.00043694214643489416
321.9333333333692,-0.00031683978,-0.7849223,-0.00072294165,-2.356634,0.00047761135,1.5701468,0.786961,0.039999988,0.03999996,-0.005878582100304897,0.012602503725623812,-0.011619192381040477,0.014222418867915698,-0.006499679652243017,0.006566302465123448,0.9999988572264091,0.0011953988566260766,-0.0007826470717378086,0.0004939949497733455
321.95000000003586,-0.0003824556,-0.78495526,-0.0008260515,-2.3567035,0.00052950316,1.5700358,0.78709084,0.039999988,0.03999996,-0.004134154409807245,0.013204299482692302,-0.011376579594180036,0.015544257389879673,-0.005996592797647585,0.007176260211920726,0.9999985946109925,0.001329522046133241,-0.0008565078295830244,0.0005563645447847526
321.9666666667025,-0.00045393896,-0.7849934,-0.0009383503,-2.3567772,0.0005860174,1.5699149,0.7872322,0.03999999,0.03999996,-0.004264329895797836,0.013795943895655426,-0.012170039359871154,0.016925857605908305,-0.005452527610418445,0.00781495640284678,0.9999982795538506,0.0014755932858613785,-0.0009347555191315839,0.0006242963342382548
321.98333333336916,-0.0005315451,-0.78503656,-0.0010602365,-2.3568578,0.00064735214,1.5697837,0.7873855,0.039999995,0.039999966,-0.009467896562953548,0.014377901612978123,-0.013719825224711713,0.01836721649815847,-0.004871356851253456,0.008480405642182588,0.9999979019713486,0.0016340565534959403,-0.0010191492143368011,0.000698030772993693
322.0000000000358,-0.00061552675,-0.78508484,-0.0011921049,-2.3569405,0.00071370765,1.5696416,0.7875515,0.04,0.039999966,-0.0013870360953793792,0.014962126155935443,-0.012003999360721274,0.01986789047843749,-0.004264590520859701,0.009174080748435651,0.9999974542157208,0.00180556155637453,-0.001107484513255114,0.0007778094857960311
322.01666666670246,-0.0007061337,-0.78513855,-0.0013343452,-2.3570297,0.0007852786,1.5694885,0.78773046,0.04,0.03999996,-0.00837957415236179,0.015522701767300452,-0.014202433197696429,0.02142620183810713,-0.0036093982609614918,0.009894971723466206,0.9999969236598722,0.0019904858256067806,-0.001201818654714154,0.0008638685610786442
322.0333333333691,-0.0008036127,-0.78519773,-0.0014873442,-2.357126,0.00086226023,1.5693239,0.78792286,0.04,0.03999997,-0.009712055021604549,0.01607777408082381,-0.015013428790577876,0.02304180365160453,-0.0029250159105207296,0.010641451087022613,0.9999962973521107,0.0021893527398481496,-0.001302778570978865,0.0009564437487392294
322.05000000003577,-0.00090820773,-0.7852624,-0.0016514811,-2.3572288,0.0009448428,1.5691475,0.7881294,0.04,0.039999966,-0.008568606421599512,0.016626019346381176,-0.01488079700642242,0.024714722547558843,-0.0022152548066571524,0.011415402785747618,0.9999955618575159,0.002402741069264409,-0.001410127110302567,0.0010557661473472328
322.0666666667024,-0.0010201583,-0.7853326,-0.0018271313,-2.3573344,0.0010332154,1.5689584,0.78835034,0.04,0.039999966,-0.002690968545393524,0.01717077098488326,-0.013937560257515358,0.026442342329750845,-0.0014752742721865306,0.012215081202736027,0.9999947046361983,0.0026310462372146418,-0.0015224647818157305,0.001162065509373626
322.08333333336907,-0.0011397015,-0.7854086,-0.002014664,-2.3574474,0.001127564,1.5687568,0.7885862,0.04,0.03999996,-0.010075241689344594,0.017683350848631766,-0.01603853659422061,0.02822478446011213,-0.0006897085211052603,0.013040046488374615,0.9999937064693655,0.0028747492003195242,-0.0016418791676513752,0.0012755671265912507
322.1000000000357,-0.00126707,-0.7854905,-0.0022144432,-2.3575675,0.00122807,1.568542,0.7888377,0.04,0.03999997,-0.009758536093396053,0.018195087174559012,-0.016547561676305556,0.030061300903515168,0.0001223910109332694,0.013891130347341294,0.9999925486174253,0.003134445072501225,-0.0017685508069117681,0.0013964926627421834
322.1166666667024,-0.0014024924,-0.7855783,-0.0024268264,-2.3576949,0.001334915,1.568314,0.7891048,0.04,0.03999996,-0.009752650971805998,0.01869271049984864,-0.016564551079389922,0.031949583716718716,0.0009618960950069748,0.014766656234824416,0.9999912119334783,0.003410396747993303,-0.001902481134979039,0.0015250624136540747
322.133333333369,-0.0015461934,-0.78567207,-0.0026521648,-2.3578298,0.0014482746,1.5680718,0.78938824,0.04,0.039999954,-0.010751591579238884,0.019174138564371796,-0.017454658567106485,0.03389016094538802,0.0018302916876258325,0.015666839892392738,0.9999896735092892,0.0037031295725793133,-0.002044297929928933,0.0016614909351457337
322.1500000000357,-0.001698394,-0.7857721,-0.0028908036,-2.3579724,0.0015683222,1.5678154,0.78968835,0.04,0.039999947,-0.010490774583638007,0.019645460234998975,-0.017820656829004022,0.035881403526020345,0.002722208308093766,0.01659107907637246,0.9999879099802659,0.0040130751312766185,-0.0021939733588124343,0.0018059906398888094
322.1666666667023,-0.0018593105,-0.7858784,-0.0031430817,-2.3581226,0.0016952278,1.5675442,0.7900057,0.04,0.039999943,-0.010567002209849186,0.020101771379167632,-0.018231981850647117,0.0379223603521978,0.0036415459627911,0.017538986153247883,0.9999858953004784,0.0043407191173266725,-0.0023517182851509055,0.0019587697037681774
322.183333333369,-0.0020291558,-0.7859913,-0.0034093298,-2.3582804,0.0018291583,1.5672581,0.7903405,0.04,0.039999947,-0.010333670005491236,0.020543916077903936,-0.01847852758827262,0.0400113219144637,0.00458618314402705,0.018509512002233663,0.999983602616235,0.004686392838999594,-0.002517475246464677,0.002120032829493322
322.20000000003563,-0.0022081374,-0.7861105,-0.003689873,-2.3584464,0.0019702767,1.5669569,0.79069346,0.04,0.039999943,-0.011470777509647867,0.020968931921395116,-0.018763172126812222,0.042147951135707455,0.005558146103560171,0.019503607417990183,0.9999810005395567,0.005050660835767273,-0.002691723890093123,0.002289979809663119
322.2166666667023,-0.0023964583,-0.78623664,-0.0039850287,-2.3586202,0.0021187428,1.5666395,0.7910645,0.04,0.039999943,-0.010699258445212578,0.021377115998733563,-0.019729816112068477,0.044329899060913,0.006554661542808522,0.02051984025549531,0.999978058456017,0.005433662816513779,-0.0028745259011694947,0.002468808573948051
322.23333333336893,-0.0025943173,-0.78636944,-0.0042951093,-2.358802,0.0022747132,1.5663064,0.7914544,0.04,0.03999994,-0.011281204686008905,0.021776078019077397,-0.019554487599160453,0.0465581662810003,0.00757724552486992,0.02155783157217876,0.9999747410842517,0.00583598289589162,-0.0030660037647903915,0.002656711884426408
322.2500000000356,-0.0028019096,-0.7865091,-0.0046204175,-2.3589919,0.002438341,1.5659571,0.7918634,0.04,0.039999936,-0.010744231040460406,0.02215800113637258,-0.019755967609236258,0.04882959449366903,0.008625754997967602,0.02261747073375547,0.9999710126291298,0.0062579595602994765,-0.0032660710181204498,0.002853878714836525
322.26666666670224,-0.0030194246,-0.7866558,-0.004961251,-2.3591907,0.0026097747,1.5655907,0.79229194,0.04,0.039999932,-0.012854009508589392,0.022508937145201934,-0.021141284814385486,0.05114379760365735,0.009701131177845625,0.023697842647556103,0.9999668309513416,0.0066999837881025785,-0.0034757144388330567,0.003060493997650636
322.2833333333689,-0.0032470475,-0.7868097,-0.0053179,-2.3593984,0.0027891595,1.5652077,0.79274046,0.04,0.039999936,-0.012129170695218683,0.022862729088140646,-0.020901652766780465,0.05349918923314491,0.010796586807828383,0.024798764035122614,0.9999621556295546,0.0071624428774572585,-0.003694550146346661,0.003276739223366888
322.30000000003554,-0.0034849585,-0.7869706,-0.005690644,-2.3596158,0.0029766376,1.5648073,0.79320914,0.04,0.039999932,-0.014150363643028463,0.023176803133426703,-0.02180535094646885,0.05589404309309655,0.011916553717509062,0.025919306805982874,0.9999569397868481,0.007645596026772753,-0.003923505383039126,0.003502790177365702
322.3166666667022,-0.0037333344,-0.7871389,-0.0060797585,-2.359843,0.003172347,1.5643893,0.7936983,0.04,0.039999936,-0.013844857938893895,0.02349007074182747,-0.02210149435946107,0.05832848200110535,0.013053577296274094,0.027059712256097195,0.9999511367160525,0.00814978776156552,-0.004162494608761134,0.0037388204487175955
322.33333333336884,-0.0039923447,-0.7873147,-0.006485515,-2.3600795,0.0033764234,1.5639536,0.7942085,0.04,0.03999993,-0.012834093709579442,0.023792301446109478,-0.022238940768914972,0.060800666947087724,0.014208599740998957,0.02821922687101977,0.9999446969613842,0.008675445946078185,-0.004411283878793843,0.003985000750678022
322.3500000000355,-0.004262158,-0.78749806,-0.006908168,-2.3603249,0.003588997,1.5634997,0.7947399,0.04,0.039999988,-0.012224072309385825,0.0240712907551191,-0.02238953464968052,0.0633085035242528,0.015387450609192188,0.029399915212052527,0.9999375690422438,0.009222782323005505,-0.004669906917480948,0.004241494252324644
322.36666666670214,-0.0045429347,-0.787689,-0.007347974,-2.3605804,0.0038101936,1.5630274,0.7952928,0.04,0.03999999,-0.014600042051937656,0.0243180682429886,-0.023207364697763744,0.06585213627752193,0.01658830827631965,0.03059637300288333,0.999929694165681,0.00979212218942861,-0.004939113391291634,0.004508461784581743
322.3833333333688,-0.004834832,-0.7878877,-0.0078051784,-2.3608463,0.0040401383,1.5625366,0.79586756,0.04,0.03999999,-0.014356689400507605,0.02456016884598341,-0.023478660571130128,0.06842960050541946,0.017807130442127544,0.031809580840899625,0.9999210140018014,0.010383785047092583,-0.005218848586548741,0.004786061547419737
322.40000000003545,-0.0051380005,-0.78809446,-0.008280018,-2.361122,0.004278951,1.5620266,0.7964645,0.04,0.03999999,-0.013490221740086739,0.024781282957208814,-0.023981239802961518,0.07103943719464893,0.019042072028334522,0.03304096164666849,0.9999114673295009,0.010998050759379813,-0.0055091175386994175,0.005074446413499467
322.4166666667021,-0.0054525896,-0.7883089,-0.008772727,-2.3614078,0.004526745,1.5614973,0.7970839,0.04,0.03999999,-0.014704324570558036,0.0249897762476926,-0.02414086400142068,0.07368070124407726,0.020297771506836065,0.0342899411739125,0.9999009871160361,0.011635198856191947,-0.00581040236562815,0.005373763699947101
322.43333333336875,-0.0057787434,-0.78853136,-0.009283522,-2.361704,0.0047836346,1.5609488,0.79772615,0.04,0.039999984,-0.014722339784478677,0.025170194869805068,-0.024382049901872094,0.07635197834664183,0.0215683729793638,0.03555361889246919,0.9998895058388656,0.012295527780460962,-0.006122619409393099,0.005684157059476815
322.4500000000354,-0.006116597,-0.788762,-0.009812622,-2.3620112,0.005049729,1.5603806,0.7983912,0.04,0.039999984,-0.015090030729569825,0.025329319382594827,-0.02509461110811184,0.07905120979956423,0.022856714297979072,0.036833983900589756,0.9998769525157045,0.012979149921179335,-0.006446101500626259,0.006005769782040023
322.46666666670205,-0.006466285,-0.7890008,-0.010360238,-2.3623283,0.0053251307,1.5597925,0.79907966,0.04,0.039999988,-0.013791594936485296,0.02550041488566801,-0.024862316649842953,0.08177902705854995,0.02415957114661912,0.0381296889605871,0.99986325411272,0.013686443556633704,-0.006780468026183476,0.006338737353704795
322.4833333333687,-0.0068279356,-0.7892475,-0.010926573,-2.362656,0.0056099403,1.5591842,0.79979163,0.04,0.039999984,-0.01551151368770487,0.025620734804059075,-0.02540909265291713,0.0845324624195711,0.025481434195560985,0.03944044057557869,0.9998483288799453,0.014417600060293165,-0.007126499902289884,0.006683191125847808
322.50000000003536,-0.0072016716,-0.7895029,-0.011511817,-2.3629951,0.0059042578,1.558556,0.8005269,0.04,0.039999984,-0.015269556865926681,0.025722859116140973,-0.025887534617963226,0.08731078803683787,0.026815637230911918,0.04076574169124444,0.9998321025410594,0.015172592242023279,-0.007483844396794423,0.0070392645941503304
322.516666666702,-0.007587616,-0.7897668,-0.012116157,-2.3633451,0.006208177,1.557907,0.8012866,0.04,0.03999998,-0.015353963694053618,0.025817597933029332,-0.026339012626941383,0.09011485681850281,0.028166956994721094,0.04210502264043667,0.9998144822665013,0.015952045392701064,-0.007852928361155696,0.00740707864894696
322.53333333336866,-0.007985881,-0.7900392,-0.012739771,-2.3637064,0.006521786,1.5572373,0.80207056,0.04,0.039999988,-0.015661475040040784,0.0258863217185136,-0.02655057092102453,0.09293934189220686,0.029531877334632133,0.043458212322039495,0.9997953822654189,0.016756009207205002,-0.00823384737326731,0.007786752444175039
322.5500000000353,-0.008396579,-0.7903199,-0.013382832,-2.3640788,0.006845172,1.556547,0.8028789,0.04,0.039999988,-0.015752214731801217,0.025956912649792094,-0.026344631629604542,0.09578446448591031,0.03090933055179927,0.04482341508487665,0.9997747135948066,0.017584593218953448,-0.008626578361156378,0.008178403482660454
322.56666666670196,-0.008819811,-0.7906094,-0.014045504,-2.3644621,0.007178419,1.5558355,0.80371195,0.04,0.039999988,-0.015117156737809445,0.02598165084737626,-0.02716671866225262,0.09864988148514092,0.03230046567713568,0.04620218882073519,0.9997523812002241,0.01843800802761644,-0.0090312186989495,0.008582146192350473
322.5833333333686,-0.009255678,-0.7909076,-0.014727947,-2.3648574,0.007521606,1.5551026,0.8045698,0.04,0.04,-0.016756042463539345,0.02598264145348278,-0.02764647120074848,0.10153346423647922,0.03370436677649129,0.04759476107894239,0.9997282840627469,0.019316375876440656,-0.00944828252175607,0.00899809009427855
322.60000000003527,-0.009704281,-0.7912145,-0.015430314,-2.3652637,0.007874806,1.5543481,0.8054527,0.04,0.04,-0.015184087635633503,0.02601401271510248,-0.027467508353207215,0.10443470355824461,0.035118554297076464,0.04899772779253733,0.9997023238037344,0.020219903251789666,-0.009877420800387266,0.009426338219791924
322.6166666667019,-0.010165706,-0.79153013,-0.016152743,-2.3656821,0.008238096,1.5535725,0.80636084,0.04,0.04,-0.017011870423955244,0.025967565695721867,-0.02773609414181699,0.10735145027696172,0.03654495057697182,0.05041209102998172,0.999674393641934,0.0211486975678773,-0.01031899929144079,0.009866992522415862
322.63333333336857,-0.010640044,-0.7918547,-0.016895372,-2.366112,0.008611541,1.5527753,0.80729425,0.04,0.04,-0.015688972746152885,0.025942642054714582,-0.02807003235709704,0.1102832320074793,0.037980816348643066,0.051838034483804044,0.999644389386762,0.022102828231816255,-0.010772847255850052,0.010320150857653022
322.6500000000352,-0.011127375,-0.7921883,-0.017658334,-2.366554,0.008995203,1.5519563,0.8082533,0.04,0.04,-0.01672427581782543,0.025875426435481574,-0.028548518391491307,0.11322877682251395,0.03942960028827751,0.053273913188768146,0.9996121951841543,0.023082509373593976,-0.011239272599266225,0.01078590522735464
322.6666666667019,-0.011627777,-0.79253066,-0.018441739,-2.3670073,0.0093891425,1.5511153,0.80923796,0.04,0.04,-0.01550646648065257,0.025813043819327558,-0.028301205828862308,0.11618620136069026,0.04088648275550221,0.05471952852584383,0.9995777006062292,0.024087765393963158,-0.011718134658113544,0.011264338827615572
322.6833333333685,-0.012141325,-0.79288226,-0.019245716,-2.3674726,0.009793424,1.5502521,0.8102484,0.04,0.04,-0.016587676654045147,0.025702054150550033,-0.029179813598601,0.11915489823938533,0.042355017614960334,0.056175500908775516,0.999540785156297,0.025118680336564437,-0.012209740678701321,0.01175554932114444
322.7000000000352,-0.012668092,-0.7932429,-0.020070368,-2.3679495,0.0102081,1.5493666,0.81128496,0.04,0.04,-0.01563234429622362,0.025616057560666483,-0.028899103289004024,0.12213395045139049,0.043831636992468954,0.05764074875813827,0.9995013268464948,0.026175479218954353,-0.012713923147136113,0.012259611656295813
322.7166666667018,-0.013208135,-0.79361266,-0.020915793,-2.3684387,0.01063322,1.5484589,0.8123475,0.04,0.04,-0.01696020981336588,0.02544562348792724,-0.029437800747245113,0.12512060584821752,0.04531843037385783,0.05911499822668786,0.9994592025427952,0.02725804466416034,-0.013231017663867608,0.012776604603147371
322.7333333333685,-0.013761518,-0.7939915,-0.021782093,-2.3689396,0.011068839,1.547529,0.8134362,0.04,0.04,-0.015873107171260337,0.025332284882866735,-0.02922562715994559,0.1281155008965898,0.04681251349848332,0.06060403964054323,0.9994142857234631,0.028366532733558512,-0.013760797033738375,0.013306606537058056
322.75000000003513,-0.014328297,-0.7943796,-0.022669347,-2.3694532,0.011514991,1.5465765,0.8145513,0.04,0.04,-0.017302390325091288,0.02512451504106672,-0.030037586225728496,0.13111597870514477,0.04831586171528222,0.06209379407091417,0.9993664391432411,0.029500992607467358,-0.014303778325748175,0.013849681402136419
322.7666666667018,-0.014908523,-0.794777,-0.023577651,-2.3699787,0.011971718,1.5456016,0.8156929,0.04,0.04,-0.01594943611302746,0.024987796726347322,-0.02974617977875571,0.13412189091016324,0.049823896152256644,0.0635929277943748,0.9993155339960241,0.030661507240803493,-0.014859525811496245,0.01440590089583926
322.78333333336843,-0.015502248,-0.79518366,-0.02450706,-2.3705168,0.012439061,1.5446041,0.816861,0.04,0.04,-0.017165552308773258,0.024732579180200553,-0.030352892591345437,0.1371304914571901,0.051342413968477135,0.06509607344602833,0.9992614291293487,0.03184802199011849,-0.01542852604677918,0.014975324160510017
322.8000000000351,-0.01610951,-0.7955997,-0.025457649,-2.3710668,0.012917055,1.5435836,0.8180558,0.04,0.04,-0.015915233216712288,0.02453829358325249,-0.030332260376408904,0.14014216379548006,0.05286468939080442,0.06660784532883686,0.9992039853150597,0.03306065886752637,-0.01601052360245386,0.015558010789373309
322.81666666670174,-0.01673035,-0.796025,-0.02642949,-2.371629,0.0134057235,1.5425403,0.8192771,0.04,0.04,-0.016385089311343748,0.0243182755250676,-0.03047740038542024,0.1431541007783247,0.054394287625580635,0.06812619537968596,0.9991430628509463,0.034299244081310354,-0.016605705699149275,0.016154019639513267
322.8333333333684,-0.017364804,-0.79645956,-0.02742263,-2.3722036,0.013905094,1.541474,0.8205253,0.04,0.04,-0.01669477505699124,0.024042090481632417,-0.03081021721851318,0.1461675695683398,0.05592878939140516,0.069652067083569,0.9990785076928091,0.035563943603324356,-0.017214235600288216,0.016763396863016027
322.85000000003504,-0.018012905,-0.7969034,-0.028437119,-2.37279,0.014415227,1.5403849,0.8218003,0.04,0.04,-0.015827414907887416,0.023784852149909275,-0.030476557639147472,0.14917975718096177,0.05746608486138906,0.07119590644841622,0.9990101781485767,0.03685468824986709,-0.017835796341606314,0.01738620943204574
322.8666666667017,-0.018674672,-0.79735655,-0.029472984,-2.3733895,0.014936116,1.539273,0.8231021,0.04,0.04,-0.01723280585770315,0.02344224939098416,-0.031085202789626898,0.15218936717951578,0.05901218892379823,0.0727325838061606,0.9989379170662556,0.038171414085767436,-0.018470816711777673,0.018022483847221764
322.88333333336834,-0.01935013,-0.7978192,-0.030530285,-2.3740013,0.015467763,1.5381383,0.8244309,0.04,0.04,-0.016276657181268916,0.02320213713244562,-0.03112148871668996,0.1551954879522946,0.06055987569100568,0.07427282040999023,0.9988615725200796,0.039514132612087145,-0.0191190711595118,0.018672262439932995
322.900000000035,-0.020039307,-0.79829127,-0.031609032,-2.3746252,0.016010193,1.5369803,0.8257865,0.04,0.04,-0.015976217127033898,0.022862448729508295,-0.03134981870580589,0.1581971335385498,0.06211320220315987,0.07582009454600469,0.9987809892108559,0.04088271487028277,-0.019780659842451573,0.019335581501896414
322.91666666670164,-0.020742198,-0.7987728,-0.032709252,-2.3752618,0.016563416,1.535799,0.82716924,0.04,0.04,-0.016639041557775514,0.022483802612353887,-0.03170578848685768,0.16119368800450756,0.06366952468757023,0.07737018864377991,0.998695996949205,0.04227725861682908,-0.020455807237347308,0.020012471904980702
322.9333333333683,-0.021458834,-0.7992637,-0.033830963,-2.37591,0.017127449,1.5345951,0.82857877,0.04,0.04,-0.014930765327103579,0.02223166344457808,-0.030848623172530232,0.16418263555217869,0.06522753718293327,0.0789265054659612,0.9986064565695064,0.04369749754394514,-0.021143806485810445,0.020702972090547955
322.95000000003495,-0.02218921,-0.799764,-0.03497417,-2.3765712,0.017702308,1.5333681,0.8300155,0.04,0.04,-0.016982480325999916,0.021743548581849154,-0.031866524211188185,0.1671644889979917,0.06679263484103058,0.08048810128538421,0.9985121783508093,0.04514354000198902,-0.02184550890602055,0.02140710680702315
322.9666666667016,-0.022933323,-0.8002738,-0.036138896,-2.3772452,0.018287964,1.532118,0.8314791,0.04,0.04,-0.0167163027084527,0.021398494474456076,-0.03206679337264262,0.17013688817602052,0.06835671970596816,0.08205109814656744,0.9984130034109101,0.04661515077417472,-0.02256083508449941,0.022124896804206783
322.98333333336825,-0.023691183,-0.800793,-0.037325125,-2.3779314,0.018884448,1.5308447,0.8329694,0.04,0.04,-0.01556988692255068,0.02101258888574653,-0.031768473545201736,0.17309958446573526,0.06992234364957028,0.08361459803465035,0.9983087720099675,0.04811217437761841,-0.0232894986274512,0.022856370190614317
323.0000000000349,-0.02446279,-0.8013217,-0.038532853,-2.3786302,0.019491715,1.5295482,0.8344871,0.04,0.04,-0.016255406473075773,0.02059910655973704,-0.03221674200135638,0.17605227834827206,0.07149038569781291,0.08518165875806293,0.9981992940151758,0.04963477582590591,-0.02403178714619629,0.023601518232447966
323.01666666670155,-0.025248129,-0.8018596,-0.03976206,-2.3793414,0.020109817,1.5282289,0.836032,0.04,0.04,-0.015890554900122034,0.02015811592904343,-0.03171410714881695,0.1789913616346392,0.07305743897117425,0.08675358789090806,0.9980844012329386,0.051182820225388434,-0.024787475543003354,0.02436037736708568
323.0333333333682,-0.026047183,-0.802407,-0.041012734,-2.3800647,0.020738699,1.5268865,0.8376036,0.04,0.04,-0.01525978281535778,0.019743185893875137,-0.032101051794342084,0.18191608370279783,0.0746256075763596,0.08832537043214514,0.997963932227555,0.052755945774177505,-0.025556512551659367,0.025132943014796155
323.05000000003486,-0.026859937,-0.80296385,-0.04228485,-2.3808007,0.021378377,1.5255212,0.8392022,0.04,0.04,-0.01596072714133978,0.0192437619550144,-0.0322094234631809,0.18482701809535845,0.07619598100467577,0.08990070218970678,0.9978377004290965,0.054354122865297956,-0.026339063294390213,0.025919233682555814
323.0666666667015,-0.027686374,-0.80353004,-0.04357837,-2.3815482,0.02202882,1.5241328,0.8408278,0.04,0.04,-0.013988150039279112,0.018867724866790392,-0.031804607934882156,0.18772273332291173,0.07776467795767952,0.09147583505460741,0.997705538146412,0.05597725473484411,-0.027134636354560565,0.026719236782407466
323.08333333336816,-0.02852647,-0.80410564,-0.04489325,-2.3823087,0.022690015,1.5227214,0.8424801,0.04,0.04,-0.016637178120371132,0.0182245291360017,-0.03280671680416791,0.19060114321518049,0.0793374524073234,0.09305193307542826,0.9975672496185508,0.057625045589910294,-0.02794410619119753,0.027532953681286644
323.1000000000348,-0.029380197,-0.80469036,-0.04622947,-2.3830814,0.023361921,1.5212865,0.8441593,0.04,0.04,-0.015369666260101056,0.017822966415675934,-0.03256859254066047,0.19346303496591077,0.0809052153659838,0.09462833542721669,0.9974226493359886,0.05929745355023564,-0.02876734072180408,0.028360372032662128
323.11666666670146,-0.030247519,-0.80528456,-0.047586966,-2.383866,0.024044536,1.5198284,0.84586525,0.04,0.04,-0.014404444850701914,0.017303941191613992,-0.032463093188805914,0.19630622948425885,0.08246935480180768,0.09620592076040144,0.9972715694376695,0.06099426337759297,-0.029603876759612496,0.029201491522766673
323.1333333333681,-0.031128416,-0.80588824,-0.048965685,-2.3846636,0.024737826,1.5183475,0.8475979,0.04,0.04,-0.015820903107788276,0.016729552812454196,-0.032823536404280595,0.19912946145968963,0.08403203963735507,0.09778226579052751,0.9971138144290735,0.06271529890595887,-0.03045408580981427,0.030056297432113604
323.15000000003477,-0.03202284,-0.8065006,-0.050365582,-2.385473,0.025441755,1.5168456,0.8493571,0.04,0.04,-0.014434182398126438,0.016425571290362706,-0.03060438737974014,0.20193264707904873,0.08559094749038125,0.09935777389367116,0.9969492298228747,0.06446038718338308,-0.03131693892248719,0.030924763156255666
323.1666666667014,-0.03293075,-0.8071225,-0.051786568,-2.3862948,0.026156304,1.5153209,0.8511427,0.04,0.04,-0.014735925210862533,0.015661338655624524,-0.0327105743935352,0.20471342092302158,0.08715332361135476,0.10093385508804506,0.9967776164313551,0.06622919174154861,-0.03219316263509287,0.03180688325249727
323.18333333336807,-0.033852093,-0.8077538,-0.053228594,-2.387129,0.026881425,1.5137732,0.85295475,0.04,0.04,-0.014880888781210189,0.015110617307112495,-0.032883444479181456,0.20747281267322645,0.08871379704155707,0.10250875579230592,0.9965987737610987,0.06802160275540713,-0.03308298269208301,0.03270262913979823
323.2000000000347,-0.03478684,-0.808394,-0.05469157,-2.387975,0.027617073,1.5122027,0.8547932,0.04,0.04,-0.013959632583482318,0.014634886659224688,-0.03222703661331927,0.21020893668210153,0.09026755904499106,0.10408025446654465,0.9964125207517296,0.06983743027000022,-0.0339861452441573,0.03361195849560171
323.21666666670137,-0.03573493,-0.8090436,-0.05617544,-2.3888328,0.028363219,1.5106102,0.8566578,0.04,0.04,-0.013623614520708038,0.01407896835362299,-0.03209071769016969,0.21292007572550015,0.09181796512764064,0.1056483047733561,0.996218688382555,0.07167637986065399,-0.03490221589250235,0.034534863735163616
323.233333333368,-0.03669631,-0.8097022,-0.057680096,-2.3897026,0.0291198,1.5089954,0.8585486,0.04,0.04,-0.013884732006141931,0.013468819450271341,-0.032192231448768815,0.21560597540874918,0.09336790154862082,0.10721574320284247,0.9960170768716984,0.07353825837390435,-0.0358314782928549,0.03547128837015632
323.2500000000347,-0.037670925,-0.8103698,-0.059205454,-2.3905845,0.029886795,1.5073581,0.8604654,0.04,0.04,-0.014346604135884178,0.012808135855213454,-0.032497307802548114,0.2182657349612407,0.09491502788200908,0.1087824616481599,0.9958074867677623,0.07542280834527393,-0.03677424405343025,0.036421206087710205
323.2666666667013,-0.038658705,-0.8110464,-0.060751427,-2.3914785,0.03066415,1.5056988,0.8624082,0.04,0.04,-0.013951353496266528,0.012242022496272709,-0.03217448739334383,0.22089859283902977,0.09645320971382919,0.11034612822173867,0.9955897388144986,0.0773298091621812,-0.03773017126590111,0.037384579153240415
323.283333333368,-0.039659586,-0.8117323,-0.06231788,-2.3923843,0.031451825,1.5040175,0.86437666,0.04,0.04,-0.01289593834059577,0.011611834731900528,-0.03219243726433341,0.22350277514784195,0.09798595345284355,0.1119077268879918,0.9953636650321241,0.07925886258696113,-0.03869900150417159,0.03836136491079197
323.30000000003463,-0.040673498,-0.8124267,-0.063904755,-2.393302,0.032249723,1.5023143,0.86637074,0.04,0.04,-0.013841620454213555,0.011061666327466524,-0.03182408619408772,0.2260789419062341,0.09951665840239103,0.11346463738770973,0.9951290570583036,0.08120978677433557,-0.0396811080364853,0.039351492923589575
323.3166666667013,-0.041700386,-0.8131303,-0.06551189,-2.3942313,0.03305783,1.5005896,0.8683903,0.04,0.04,-0.01253208458187327,0.010383760335225256,-0.0319489960983077,0.22862568463473082,0.10103793287612423,0.1150193673391533,0.9948857504678693,0.08318229004850236,-0.04067590957218937,0.04035493177724824
323.33333333336793,-0.042740162,-0.8138427,-0.067139216,-2.395172,0.033876073,1.4988431,0.8704353,0.04,0.04,-0.01256773045532622,0.009801999555000829,-0.03183037010827672,0.2311415293938472,0.10255655284084499,0.11656885312580376,0.9946335468673232,0.08517610471918155,-0.04168365830371392,0.04137162386726685
323.3500000000346,-0.043792754,-0.81456375,-0.068786584,-2.3961246,0.03470441,1.4970748,0.8725053,0.04,0.04,-0.01291900871680518,0.009080310722081597,-0.03184001493441446,0.2336260642247194,0.10406899725497794,0.11811728392790175,0.9943722641198706,0.08719082006817584,-0.04270448221075446,0.04240151464361767
323.36666666670124,-0.044858087,-0.81529367,-0.07045393,-2.3970885,0.035542756,1.4952853,0.87460065,0.04,0.04,-0.012071097794730257,0.008554020204565305,-0.03162721084406517,0.2360792705632407,0.10557206439524924,0.11965864947463387,0.9941017116446885,0.0892263776601028,-0.04373798767696645,0.043444549355780175
323.3833333333679,-0.045936078,-0.8160322,-0.07214103,-2.398064,0.036391065,1.4934745,0.87672055,0.04,0.04,-0.012208857484186098,0.007794674015762504,-0.031418728971099874,0.23849805257180418,0.1070699853818831,0.12119694818005358,0.99382173149136,0.09128213519713725,-0.04478426356537733,0.044500646582646394
323.40000000003454,-0.04702663,-0.8167791,-0.073847786,-2.3990507,0.037249245,1.4916428,0.87886524,0.04,0.04,-0.012169848045506804,0.007190391628658643,-0.031095865561692193,0.24088485479594984,0.10856024120685556,0.12272834903606154,0.9935321251633634,0.0933579854611529,-0.04584324252346887,0.04556972606830526
323.4166666667012,-0.048129648,-0.8175348,-0.075574055,-2.4000485,0.038117234,1.4897901,0.8810343,0.04,0.04,-0.010895655508624813,0.006520272094395763,-0.031291818836498564,0.24323675767156616,0.11004217321157399,0.12425494655915606,0.9932327387032395,0.09545345637295526,-0.04691460476755806,0.046651734094485385
323.43333333336784,-0.049245056,-0.81829906,-0.07731971,-2.4010577,0.038994964,1.4879164,0.8832277,0.04,0.04,-0.011807428125432118,0.005811731707558443,-0.03131046522233394,0.24555399319952756,0.11151881979055321,0.12577665589596027,0.9929233695287225,0.09756828519294997,-0.0479986922492543,0.047746596848324795
323.4500000000345,-0.050372757,-0.81907177,-0.0790846,-2.402078,0.03988236,1.4860221,0.8854454,0.04,0.04,-0.010836075940146017,0.005221516091277745,-0.030709355877434064,0.24783554314318865,0.11298443927274977,0.12729221938371263,0.9926038505647528,0.09970222696541081,-0.04909507543380893,0.048854225511333615
323.46666666670114,-0.051512662,-0.8198527,-0.08086858,-2.403109,0.040779352,1.4841073,0.887687,0.04,0.04,-0.010963057947255272,0.0045305441924298195,-0.030701790949749785,0.2500799830094088,0.11444288799607721,0.1288016128462535,0.9922740062125518,0.10185482408027591,-0.05020393898964647,0.04997455268826775
323.4833333333678,-0.052664638,-0.820642,-0.08267149,-2.4041517,0.04168585,1.4821724,0.88995266,0.04,0.04,-0.011333416873782198,0.003784263295650292,-0.03054653838834298,0.2522872393108909,0.11589115411867326,0.13030395858188612,0.9919336528497243,0.10402585987250007,-0.05132518492636899,0.05110747708763712
323.50000000003445,-0.053828634,-0.82143945,-0.08449316,-2.4052043,0.042601775,1.4802173,0.8922418,0.04,0.04,-0.009074744628145837,0.0033128264097959104,-0.02987140063503979,0.25445547294474985,0.11732918966749423,0.13179940356230274,0.9915826618198926,0.10621482973562699,-0.052458249243849196,0.052252911963625456
323.5166666667011,-0.055004496,-0.82224494,-0.08633342,-2.4062688,0.043527022,1.4782422,0.89455414,0.04,0.04,-0.012139600526217542,0.0022770827046686426,-0.030734303400281604,0.25658511900678194,0.11876151243750523,0.13328587809041553,0.9912208164284213,0.10842130386302547,-0.053604155169598974,0.05341075262687187
323.53333333336775,-0.05619214,-0.8230589,-0.0881921,-2.4073436,0.044461533,1.4762472,0.8968898,0.04,0.04,-0.008788241839852162,0.0018546759208426522,-0.029860503737055843,0.25867613895897507,0.1201763258796811,0.13476473292191768,0.9908479953040582,0.11064505819137031,-0.05476170076904472,0.05458092550185526
323.5500000000344,-0.057391454,-0.8238808,-0.09006905,-2.4084284,0.045405194,1.4742328,0.89924836,0.04,0.04,-0.008708383715139156,0.0012682210602188437,-0.029201766533470952,0.2607269176119134,0.12158510358463441,0.13623838952583506,0.9904640454527988,0.11288563203974483,-0.055930861363415706,0.05576331671815976
323.56666666670105,-0.05860232,-0.82471055,-0.091964066,-2.4095247,0.046357952,1.4721991,0.9016297,0.04,0.04,-0.010895028842106136,0.0002718306674753812,-0.029755770930428582,0.26273702322443937,0.12298550318628038,0.1377049941544602,0.9900687622201931,0.11514266254413646,-0.05711233433131003,0.056957831816619606
323.5833333333677,-0.05982463,-0.825548,-0.09387701,-2.4106305,0.047319703,1.470146,0.9040335,0.04,0.04,-0.007869386132930423,-8.145748155996557e-05,-0.028826114982005713,0.2647062152890928,0.12436997634100407,0.1391625081101933,0.989662032057482,0.1174157459359141,-0.058305323637602026,0.05816437178963272
323.60000000003436,-0.061058257,-0.82639325,-0.09580764,-2.4117465,0.04829032,1.4680738,0.9064596,0.04,0.04,-0.008645574062859929,-0.0009141891772840305,-0.028838381617113384,0.2666331618298108,0.12574567798369857,0.14061036911368058,0.9892436937745429,0.11970450994156431,-0.0595099026938687,0.05938279303228093
323.616666666701,-0.06230308,-0.8272461,-0.097755775,-2.412873,0.04926976,1.4659827,0.9089076,0.04,0.04,-0.009070146930922895,-0.0017233387751336426,-0.028926282499086575,0.26851771173056216,0.12710907243160077,0.14205169162449952,0.9888135954985507,0.12200839086506413,-0.060726338782306495,0.06061301587813252
323.63333333336766,-0.06355898,-0.82810676,-0.09972127,-2.4140096,0.050257888,1.463873,0.9113774,0.04,0.04,-0.007902168938600518,-0.0022174062368762737,-0.028270323485579674,0.2703606051186692,0.12845783889058213,0.14348369520519566,0.988371604994713,0.12432712366236552,-0.061954053734067725,0.06185492694955149
323.6500000000343,-0.06482583,-0.82897484,-0.101703875,-2.4151556,0.05125463,1.4617449,0.91386867,0.04,0.04,-0.00726656339580245,-0.0029083894087567064,-0.02784770350956478,0.272160029424363,0.12979404151556675,0.1449055371311441,0.9879175876669285,0.1266602536885131,-0.0631929644115443,0.06310839375866968
323.66666666670096,-0.066103496,-0.8298502,-0.10370342,-2.4163115,0.052259874,1.4595989,0.9163814,0.04,0.04,-0.007536382639550254,-0.0035737701242322117,-0.027375940981322344,0.27391537740508404,0.13112069962648143,0.14631838658601445,0.9874513929922304,0.12900746672023417,-0.06444299641818875,0.06437328809977738
323.6833333333676,-0.06739186,-0.830733,-0.105719686,-2.417477,0.05327351,1.4574348,0.91891515,0.04,0.04,-0.006874374330578803,-0.004271489517293503,-0.027481762368175566,0.27562563900718284,0.13243323114847205,0.14772159865846862,0.9869729039177552,0.13136821159020443,-0.06570406070673908,0.06564949597970976
323.70000000003427,-0.06869081,-0.83162326,-0.1077525,-2.418652,0.054295454,1.455253,0.92146957,0.04,0.04,-0.006992891415524838,-0.004941890108983715,-0.027178326144228215,0.2772909817776907,0.13373377759422328,0.1491154538296007,0.9864819920165238,0.13374205901677305,-0.06697604387373798,0.06693691525674177
323.7166666667009,-0.070000164,-0.83252037,-0.10980162,-2.4198368,0.055325598,1.453054,0.9240444,0.04,0.04,-0.0069462305833267735,-0.005623109863614473,-0.02643047605657145,0.278911931789672,0.13501975649781156,0.15049929831077075,0.9859785326672855,0.13612854613076045,-0.06825895175041767,0.06823538344236119
323.73333333336757,-0.07131981,-0.8334246,-0.11186683,-2.4210305,0.056363817,1.4508374,0.92663956,0.04,0.04,-0.005788333616418839,-0.006254149744813753,-0.02646216292709891,0.28048675518080257,0.1362919478419305,0.1518706717192615,0.9854624012495767,0.1385273502218491,-0.06955253186869241,0.06954476453756794
323.7500000000342,-0.07264958,-0.8343359,-0.11394792,-2.4222336,0.057409987,1.4486039,0.9292546,0.04,0.04,-0.005997413419289721,-0.006937422771896573,-0.025988282667466223,0.28201522760549896,0.13755022557475258,0.15323124119723278,0.9849335030966435,0.1409378965795804,-0.0708566633259083,0.07086492113744661
323.76666666670087,-0.07398935,-0.8352539,-0.116044685,-2.423446,0.05846404,1.4463536,0.93188936,0.04,0.04,-0.006145194521445241,-0.007628613234361703,-0.02564656402008758,0.28349773252223187,0.13879438285730708,0.15458120475542678,0.9843916982066077,0.14335982558192834,-0.07217147462086819,0.0721957281428719
323.7833333333675,-0.07533901,-0.8361788,-0.11815688,-2.4246671,0.059525825,1.4440867,0.9345436,0.04,0.04,-0.004949433031420369,-0.00815324220730107,-0.02526906917430516,0.284933264650123,0.14002082227982315,0.15592017931019742,0.9838369038550592,0.14579272059108064,-0.07349649552724197,0.07353702727712254
323.8000000000342,-0.07669838,-0.83711016,-0.12028427,-2.4258971,0.060595255,1.4418031,0.9372169,0.04,0.04,-0.0052000356244974455,-0.008943995712576425,-0.025062105105222443,0.28632080804898846,0.14123248788961462,0.15724664888884865,0.9832690118337624,0.1482359943394491,-0.0748319913225252,0.07488867353850415
323.8166666667008,-0.0780673,-0.83804816,-0.12242665,-2.4271352,0.061672185,1.4395037,0.9399091,0.04,0.04,-0.0036274277465775384,-0.009297866825039303,-0.024041385689432815,0.2876615725687912,0.14242746654228342,0.15856081797022875,0.9826879585786349,0.15068934107181772,-0.07617714351414696,0.07625051709937265
323.8333333333675,-0.07944566,-0.8389928,-0.12458375,-2.4283817,0.06275652,1.4371884,0.9426198,0.04,0.04,-0.0038370850530933254,-0.010089528893239552,-0.02405005892356371,0.2889529671217874,0.14360909473421807,0.15986368675339413,0.9820936553609754,0.1531521857837557,-0.0775320662485361,0.0776224116644686
323.85000000003413,-0.080833316,-0.8399435,-0.12675539,-2.4296372,0.06384813,1.4348576,0.94534856,0.04,0.04,-0.005183877898540246,-0.010781218842306761,-0.023807273048759292,0.2901968541470887,0.1447759138122669,0.16115403263664785,0.9814859808474963,0.1556240378752431,-0.07889717174659015,0.07900420574641837
323.8666666667008,-0.082230054,-0.8409008,-0.12894128,-2.4309008,0.06494691,1.4325114,0.94809544,0.04,0.04,-0.003147700718475477,-0.011357051978905242,-0.023288653035224982,0.29139282828429125,0.1459234460897756,0.16243117187705836,0.9808648829889224,0.15810455291517156,-0.08027176659559106,0.08039574089617017
323.88333333336743,-0.08363575,-0.84186405,-0.13114117,-2.4321733,0.06605273,1.43015,0.95085996,0.04,0.04,-0.004530038058470076,-0.012153293596470216,-0.023210473393464603,0.2925392810269334,0.1470541542682126,0.16369575823338073,0.9802302513486005,0.16059317826609756,-0.08165637780643763,0.08179683000572245
323.9000000000341,-0.085050255,-0.8428334,-0.13335487,-2.4334533,0.06716545,1.4277738,0.9536418,0.04,0.04,-0.00234475173697124,-0.01238681216752524,-0.02217976038032532,0.2936370147013189,0.1481644059989201,0.16494545963714208,0.9795820734266476,0.16308946382076261,-0.08305014322030914,0.08320734296257866
323.91666666670073,-0.08647341,-0.8438087,-0.13558203,-2.4347413,0.068284966,1.425383,0.95644057,0.04,0.04,-0.00263503009392263,-0.013203106285850086,-0.02200518043962152,0.29468544104744854,0.1492579809335225,0.1661820384595366,0.978920278265236,0.16559289534285215,-0.08445318210424539,0.08462707513291046
323.9333333333674,-0.08790505,-0.8447897,-0.13782251,-2.436037,0.0694111,1.4229784,0.95925605,0.04,0.04,-0.002583342166184721,-0.013545930426275832,-0.02102332582620825,0.29568453727044175,0.15033337793452378,0.16740348349382533,0.9782448139197326,0.1681030752558579,-0.0858651697088859,0.08605586998883603
323.95000000003404,-0.08934502,-0.8457765,-0.14007606,-2.4373403,0.070543796,1.4205599,0.9620878,0.04,0.04,-0.001541873615784617,-0.014161856560346298,-0.020912868673383933,0.2966339378892618,0.15139148028945257,0.16861260115434656,0.9775556469826979,0.17061945507315593,-0.08728589195593384,0.08749360929939569
323.9666666667007,-0.09079315,-0.8467691,-0.14234231,-2.4386508,0.07168291,1.4181275,0.96493584,0.04,0.04,-0.0014091942740712682,-0.014881824151391498,-0.020636949974894847,0.2975334734280777,0.1524329784754786,0.16980715640437746,0.9768527122064237,0.1731416616500977,-0.08871533258273488,0.08894005520985418
323.98333333336734,-0.09224927,-0.8477668,-0.1446211,-2.439968,0.072828256,1.4156814,0.9677995,0.04,0.04,-0.0007406024599587724,-0.015181950803971889,-0.019864011714298968,0.29838212674851694,0.15345623905664016,0.17098612882931508,0.9761359857757657,0.17566909986766044,-0.09015344275465827,0.0903950296462285
324.000000000034,-0.09371322,-0.8487703,-0.14691214,-2.4412923,0.073979735,1.4132223,0.9706785,0.04,0.04,-0.00018117946063433976,-0.015761102212077938,-0.01938607349559751,0.29918109582597563,0.1544597082595865,0.17215080167651153,0.9754054785811113,0.17820132508926612,-0.09159954496177519,0.0918583880393005
324.01666666670064,-0.09518484,-0.8497792,-0.14921515,-2.4426234,0.07513723,1.4107504,0.9735726,0.04,0.04,-0.00040008581088102346,-0.01637630228413789,-0.019038721047393015,0.2999294723040851,0.15544764304361675,0.1733013778130088,0.9746611356014382,0.18073786722710738,-0.0930538428713817,0.09332993316819363
324.0333333333673,-0.09666396,-0.85079306,-0.15152992,-2.4439611,0.07630058,1.4082658,0.97648156,0.04,0.04,-0.00016049550368713028,-0.01678357515606521,-0.018431318526113127,0.3006277783778418,0.15641632998464602,0.17443598918317862,0.9739029179413436,0.18327831768997202,-0.0945162773032129,0.09480948272621387
324.05000000003395,-0.098150365,-0.8518118,-0.1538561,-2.4453056,0.07746971,1.4057693,0.9794048,0.04,0.04,2.6742842340610196e-05,-0.01741682852897941,-0.017634069804173258,0.30127502755344515,0.15736530617167974,0.17555566687103746,0.973130854601012,0.1858220691975872,-0.09598653977355594,0.09629684628756494
324.0666666667006,-0.099643946,-0.85283554,-0.15619348,-2.4466567,0.07864444,1.4032606,0.98234236,0.04,0.04,0.00016990917073300693,-0.017919410106259637,-0.01779658411298346,0.30187187179422476,0.15829464128418216,0.1766587740957995,0.9723448784733427,0.18836881197622168,-0.09746478646727,0.09779183698150248
324.08333333336725,-0.101144455,-0.8538639,-0.15854177,-2.4480138,0.079824634,1.4007399,0.9852936,0.04,0.04,0.0012261548152814328,-0.018297549435683513,-0.01685475445392104,0.3024166760895688,0.15920209678930014,0.17774394118904174,0.9715450450411134,0.19091792101073848,-0.0989506166493861,0.09929425138297
324.1000000000339,-0.1026518,-0.85489696,-0.16090068,-2.4493773,0.081010155,1.3982079,0.9882582,0.04,0.04,0.0007964407115812477,-0.01883149966698805,-0.01649124168813243,0.3029120560289358,0.1600885714817384,0.17881389378550733,0.9707313574187408,0.19346891345874556,-0.10044392870968041,0.10080391080918452
324.11666666670055,-0.10416578,-0.8559348,-0.16326992,-2.450748,0.082200855,1.3956648,0.9912355,0.04,0.04,-5.723305909199894e-05,-0.01959008871021961,-0.016497374315338487,0.3033564256215031,0.16095399408427818,0.17986682273043553,0.9699038218951546,0.19602117425909812,-0.10194491455246257,0.10232062310281187
324.1333333333672,-0.105686165,-0.856977,-0.16564925,-2.452123,0.08339661,1.3931108,0.99422544,0.04,0.04,0.00414322229405073,-0.0192692764239083,-0.01464490615167291,0.3037528518194673,0.16179420353938387,0.1809015174828495,0.9690625477262517,0.1985743783750627,-0.10345230403840056,0.10384418922794965
324.15000000003386,-0.10721281,-0.85802335,-0.16803838,-2.4535036,0.08459723,1.3905463,0.99722755,0.04,0.04,0.002014887244250474,-0.020028251486506332,-0.014633069672376209,0.304097308275458,0.16261917388049607,0.18191884728426655,0.9682075115559324,0.20112799319107205,-0.10496658529857103,0.10537438442220684
324.1666666667005,-0.108745545,-0.85907394,-0.17043707,-2.45489,0.08580265,1.3879715,1.0002419,0.04,0.04,0.002230099751066028,-0.020591532537159174,-0.014462484832322708,0.3043923092464532,0.16342281182048105,0.18292083380349516,0.9673386922873993,0.20368171990230827,-0.10648774043946471,0.10691104955728002
324.18333333336716,-0.11028418,-0.8601286,-0.17284496,-2.4562824,0.08701268,1.385387,1.0032681,0.04,0.04,0.0019398608431586695,-0.02106532461702837,-0.013850513539981346,0.30463616190614096,0.16420311721058245,0.18390310416311006,0.9664561246927852,0.2062351076745308,-0.10801567547242899,0.10845392228275268
324.2000000000338,-0.11182852,-0.86118716,-0.1752618,-2.4576795,0.08822719,1.382793,1.0063058,0.04,0.04,0.0038552041631056966,-0.02112502391740656,-0.012750299422070732,0.30482871082854845,0.16495808745107907,0.1848667832360257,0.9655599241815279,0.2087876505106241,-0.10954966403282826,0.11000282232338446
324.21666666670046,-0.11337839,-0.8622495,-0.17768723,-2.4590816,0.08944602,1.3801897,1.0093536,0.04,0.04,0.0034925000863328393,-0.02168331686667746,-0.012496892921287639,0.3049696478038477,0.16569369270449796,0.18581384247478522,0.9646502241710797,0.21133838899250454,-0.11108978961963623,0.1115575590760369
324.2333333333671,-0.11493359,-0.8633155,-0.18012105,-2.4604893,0.09066902,1.3775773,1.0124121,0.04,0.04,0.0028830753902253647,-0.022199691632524,-0.012331612025018313,0.3050635119480762,0.16640808469502863,0.1867403434228066,0.9637269642121257,0.2138872507985814,-0.11263623554297095,0.11311790680088314
324.25000000003376,-0.116493955,-0.86438525,-0.18256298,-2.4619007,0.091896065,1.3749561,1.0154814,0.04,0.04,0.005591627059575721,-0.022057391401925086,-0.011145057854899942,0.305108065239132,0.16709556140770895,0.18764780993814545,0.9627902294333764,0.21643409853612877,-0.11418807563886597,0.11468364521749544
324.2666666667004,-0.11805931,-0.86545837,-0.18501264,-2.463317,0.093127,1.3723266,1.0185597,0.04,0.04,0.004087553201714833,-0.02276689468325155,-0.010898336482567661,0.3050990934508472,0.16776358692866358,0.18853805840099208,0.9618401984250615,0.21897775596860955,-0.11574560021716104,0.11625459610251705
324.28333333336707,-0.11962942,-0.86653477,-0.18746981,-2.4647377,0.09436168,1.3696891,1.0216476,0.04,0.04,0.004522555499697489,-0.023019232626242392,-0.010257836131610798,0.30504419154694284,0.16840823649693842,0.18940680481344419,0.9608768679369779,0.22151817432675644,-0.11730860933877542,0.11783052779974611
324.3000000000337,-0.121204145,-0.86761427,-0.18993415,-2.4661622,0.09559997,1.3670439,1.0247449,0.04,0.04,0.00561484160686021,-0.02316015900835633,-0.009447538788087684,0.3049399383859921,0.16902765422286237,0.19025659976401843,0.9599003253877559,0.22405503285243866,-0.11887671635754679,0.11941119663591067
324.31666666670037,-0.12278326,-0.86869675,-0.19240539,-2.467591,0.096841685,1.3643912,1.0278504,0.04,0.04,0.004954431882553401,-0.02362343525726951,-0.009152381484689442,0.3047840990437073,0.16962591542609973,0.1910863728385996,0.9589107312798404,0.22658746228515397,-0.12044997859206226,0.12099642155331483
324.333333333367,-0.124366604,-0.8697822,-0.19488321,-2.4690232,0.09808669,1.3617313,1.0309644,0.04,0.04,0.0065316967344797305,-0.023668879762178685,-0.00839612762245645,0.30458219998937974,0.17019762079089532,0.19189587236732292,0.9579081637469339,0.22911531531054563,-0.12202788256863392,0.12258596164709232
324.3500000000337,-0.12595397,-0.87087053,-0.19736733,-2.4704595,0.09933484,1.3590648,1.0340862,0.04,0.04,0.005560638443502519,-0.024154741483434217,-0.00792844171195739,0.30433006505397775,0.17074739731644017,0.1926843611539637,0.9568927310794956,0.231638034732811,-0.12361046065495108,0.12417961221157013
324.3666666667003,-0.12754515,-0.87196136,-0.1998574,-2.471899,0.100586,1.3563921,1.0372156,0.04,0.04,0.006492928264845155,-0.024225253035306538,-0.00694263090427194,0.30403060414460614,0.17127264270398998,0.19345234142948653,0.9558645732363954,0.23415519700906606,-0.1251973425928197,0.12577713127967843
324.383333333367,-0.12913994,-0.8730548,-0.2023532,-2.4733422,0.101840004,1.353713,1.0403523,0.04,0.04,0.006316772204906229,-0.024682190754168887,-0.0070907803910502665,0.30368243594606587,0.17177502410060203,0.19419950233425892,0.954823746183546,0.23666643684033875,-0.12678870417830487,0.12737831797485616
324.40000000003363,-0.13073817,-0.87415063,-0.20485435,-2.4747882,0.10309669,1.3510283,1.0434957,0.04,0.04,0.00738727354328006,-0.024589270877875546,-0.00579771315546429,0.3032866071914897,0.17225008703542616,0.19492499049740536,0.9537704912630154,0.23917114882325766,-0.12838385006496647,0.1289829392166485
324.4166666667003,-0.13233967,-0.87524873,-0.2073606,-2.4762373,0.10435587,1.348338,1.0466454,0.04,0.04,0.007030109797301343,-0.02494077506428327,-0.005669048285705802,0.3028436891307225,0.17270342967271454,0.19562999295192157,0.9527048722807904,0.24166901629768173,-0.129982951801171,0.130590754401712
324.43333333336693,-0.13394426,-0.8763488,-0.20987163,-2.4776888,0.10561747,1.3456427,1.0498012,0.04,0.04,0.00802316847339224,-0.02486589682762219,-0.004532298279580349,0.3023539297856981,0.1731304511777557,0.1963117250572996,0.9516270583150613,0.24415967277897713,-0.1315854892359955,0.13220156993625065
324.4500000000336,-0.13555166,-0.87745094,-0.21238711,-2.4791424,0.1068813,1.3429424,1.0529627,0.04,0.04,0.008565441098595805,-0.025167012964646962,-0.004243102021139755,0.3018167866474003,0.17353284021824109,0.1969720339261049,0.950537237677192,0.24664256775383414,-0.13319126514568283,0.13381513535359613
324.46666666670023,-0.13716172,-0.8785549,-0.21490677,-2.4805994,0.10814717,1.3402375,1.0561292,0.04,0.04,0.006687748029765572,-0.025711229880379105,-0.004132235005671614,0.3012330241156752,0.1739139444901458,0.19761023495121188,0.9494354847554398,0.24911724515324593,-0.13480075255910978,0.13543122078737316
324.4833333333669,-0.13877426,-0.87966067,-0.21743031,-2.482058,0.109414965,1.3375286,1.0593009,0.04,0.04,0.009348973007550221,-0.02522477020698577,-0.0027964625888943218,0.3006051125791639,0.17426339306760494,0.1982249264166212,0.9483220198534719,0.25158354192865323,-0.13641286446231307,0.13704962057901401
324.50000000003354,-0.14038903,-0.8807679,-0.21995735,-2.483519,0.11068451,1.3348159,1.062477,0.04,0.04,0.008056954073309974,-0.025791103641584212,-0.0025545843824303915,0.29992962822436287,0.17459174604332542,0.19881729576319668,0.9471969941915602,0.25404082424388885,-0.1380280026583541,0.13867005550624226
324.5166666667002,-0.1420059,-0.88187665,-0.22248766,-2.4849818,0.11195562,1.3320997,1.065657,0.04,0.04,0.009312087871204966,-0.025542342607987045,-0.001822478274093875,0.29920992916960193,0.1748919401103602,0.19938706928338934,0.9460606312937953,0.2564887153674886,-0.13964554504476678,0.14029234674162003
324.53333333336684,-0.14362465,-0.88298666,-0.22502084,-2.4864464,0.1132282,1.3293804,1.0688407,0.04,0.04,0.008844381867678663,-0.025921282587232364,-0.00130102524443787,0.2984458926303774,0.17516887207859277,0.19993378104945464,0.9449130717419831,0.25892684001097266,-0.14126557028321304,0.14191623242469745
324.5500000000335,-0.14524508,-0.8840978,-0.22755665,-2.4879122,0.11450206,1.3266582,1.0720278,0.04,0.04,0.009876086836535514,-0.025708231484047883,-0.0005558660004290061,0.2976376351341401,0.17541881209676655,0.20045557201654887,0.943754523793152,0.2613548570935432,-0.14288764391634412,0.14354148776437703
324.56666666670014,-0.14686696,-0.88521004,-0.23009475,-2.48938,0.115777075,1.3239337,1.075218,0.04,0.04,0.008900024238789328,-0.02616205646406855,-0.00028422468688615865,0.29678586545207153,0.17564322906134483,0.2009561254936103,0.9425851202733658,0.26377241162273307,-0.1445119039903536,0.14516788732724253
324.5833333333668,-0.14849007,-0.8863231,-0.23263486,-2.4908485,0.11705307,1.3212069,1.0784104,0.04,0.04,0.010166282712464891,-0.025920119628228266,0.0005435519530472277,0.2958902158599982,0.1758412331108268,0.20143107129625643,0.9414051546824117,0.2661789195478432,-0.1461378833772092,0.14679521983959948
324.60000000003345,-0.15011428,-0.88743705,-0.23517664,-2.4923182,0.1183299,1.3184785,1.0816048,0.04,0.04,0.010322273133045456,-0.02593513310199247,0.0011624559891676434,0.2949530821303512,0.17601215089802413,0.20188137717513796,0.9402148236078178,0.2685741154951732,-0.14776524183994907,0.14842325713339846
324.6166666667001,-0.15173936,-0.8885516,-0.23771977,-2.493789,0.1196074,1.3157486,1.0848012,0.04,0.04,0.009807688105856194,-0.02616508125428685,0.0015529348457166137,0.29397498157883034,0.17615832118580677,0.20231162074606132,0.9390142616581475,0.27095772918299516,-0.1493941234034089,0.1500517287175521
324.63333333336675,-0.15336515,-0.8896665,-0.24026394,-2.49526,0.1208854,1.3130172,1.087999,0.04,0.04,0.011051224930369585,-0.025884517154833864,0.0022719760153222524,0.2929542285876173,0.1762772651877993,0.2027138246690856,0.937803718792754,0.2733293850803041,-0.15102413711728985,0.15168039516721316
324.6500000000334,-0.1549914,-0.89078164,-0.24280888,-2.4967308,0.12216373,1.3102851,1.0911975,0.04,0.04,0.011718864304155474,-0.02563766642320331,0.0031739266251218368,0.2918918181619198,0.17636847485978274,0.20309162497580435,0.9365834971737967,0.2756886045433173,-0.1526547681119927,0.1533090601345294
324.66666666670005,-0.15661791,-0.89189714,-0.24535424,-2.4982018,0.12344227,1.3075527,1.0943967,0.04,0.04,0.011212538693916585,-0.025911314554583065,0.0035677008523471443,0.29078917133047566,0.17643785162986833,0.20344440498129557,0.9353537655764644,0.27803519148286626,-0.15428590715037954,0.15493748537329102
324.6833333333667,-0.1582445,-0.89301264,-0.24789973,-2.4996731,0.12472085,1.3048203,1.097596,0.04,0.04,0.01097208955511686,-0.02589184985425652,0.0040535585882905956,0.28964496988597954,0.1764820453336342,0.20377206015135724,0.934114739721249,0.28036873442272975,-0.15591756648509955,0.15656544400047023
324.70000000003336,-0.15987098,-0.8941281,-0.25044498,-2.5011444,0.12599933,1.3020879,1.1007951,0.04,0.04,0.011306549002254584,-0.025975264575361923,0.00438567218541408,0.28846168264343147,0.1764994585035747,0.20407385535938455,0.9328666535668476,0.2826888623037539,-0.15754963321822857,0.1581926890384067
324.7166666667,-0.16149712,-0.89524335,-0.2529898,-2.5026157,0.12727752,1.2993559,1.1039935,0.04,0.04,0.011242025794677701,-0.02588168822379444,0.004855500290235071,0.28723977191017763,0.17648915648488858,0.20434983408155089,0.9316097392138926,0.2849952213302487,-0.1591819588533997,0.15981902764170586
324.73333333336666,-0.16312273,-0.8963584,-0.25553373,-2.5040863,0.12855525,1.2966247,1.1071912,0.04,0.04,0.012272508079780309,-0.025609850151367408,0.005760888242545281,0.28598060383898033,0.17645056977853799,0.20459900150157534,0.9303442576047392,0.28728768458343684,-0.16081398924681894,0.16144413736986019
324.7500000000333,-0.16474761,-0.8974729,-0.25807658,-2.5055563,0.12983245,1.293895,1.1103871,0.04,0.04,0.011808469002416722,-0.02555154780099489,0.006453083339985621,0.2846837764343718,0.17638643131639364,0.20482412803782335,0.9290705146456084,0.2895656717222408,-0.162445526289183,0.16306793542821987
324.76666666669996,-0.16637157,-0.89858687,-0.26061797,-2.5070262,0.13110885,1.2911667,1.1135814,0.04,0.04,0.011352381485663088,-0.02578324600124582,0.006366374528554708,0.2833498692285001,0.17629729441875042,0.2050227045057112,0.9277886316511196,0.2918290879476004,-0.1640768842693657,0.16469005572611908
324.7833333333666,-0.16799442,-0.89970005,-0.26315758,-2.5084949,0.13238437,1.2884401,1.1167735,0.04,0.04,0.012619785729217625,-0.025306475773323456,0.0074070305192353025,0.2819797462747728,0.17617773178518448,0.20519302449103263,0.9264989683770755,0.2940775378518754,-0.16570739000862014,0.16631032506649995
324.80000000003326,-0.16961592,-0.90081227,-0.2656951,-2.5099623,0.13365886,1.2857157,1.1199629,0.04,0.04,0.012492907400973863,-0.025267702896714095,0.007911468862731308,0.28057374952614433,0.17603245091897154,0.2053369053672469,0.9252017733433258,0.29631072474879216,-0.1673369342958398,0.16792850687623154
324.8166666666999,-0.1712359,-0.90192354,-0.26823023,-2.5114276,0.1349321,1.2829942,1.1231496,0.04,0.04,0.01384965275204042,-0.024586268784976273,0.009015202310169723,0.2791329343343977,0.17586100997879683,0.20545408567524928,0.9238973584194681,0.29852858242207864,-0.16896469190140004,0.16954435842356508
324.83333333336657,-0.17285419,-0.90303373,-0.2707627,-2.512892,0.13620396,1.2802752,1.1263328,0.04,0.04,0.012043238074399554,-0.025203019221672895,0.008483481105003854,0.2776562474704726,0.17566720137473724,0.20554638064126102,0.922585920920653,0.30073052584622606,-0.1705913547195005,0.1711577022462288
324.8500000000332,-0.1744705,-0.9041426,-0.2732921,-2.5143545,0.13747436,1.2775595,1.1295123,0.04,0.04,0.013247838313756866,-0.02478871545397998,0.009660870126282362,0.27614748106665216,0.17544359151182656,0.20561114688024623,0.9212677631175843,0.30291647259630555,-0.1722162872306613,0.1727682542674452
324.86666666669987,-0.17608476,-0.90525,-0.2758182,-2.5158155,0.13874306,1.2748476,1.1326877,0.04,0.04,0.012406058690350719,-0.024610766854474275,0.010035468414570925,0.2746050799904834,0.17519493216208237,0.20564859121079296,0.9199431220525163,0.30508615565366415,-0.17383946568705416,0.17437582970806706
324.8833333333665,-0.17769668,-0.9063558,-0.27834067,-2.517274,0.14000987,1.2721394,1.1358584,0.04,0.04,0.013946521471286388,-0.02412549387377505,0.010676426207612,0.2730295454624926,0.17491883878663678,0.2056577255702608,0.9186123692850614,0.30723923586217616,-0.17546038904111735,0.17598016598711302
324.9000000000332,-0.17930609,-0.90746,-0.2808592,-2.5187304,0.14127468,1.2694355,1.1390241,0.04,0.04,0.012936516653905272,-0.024294233272403876,0.010943731368218135,0.2714229404461881,0.17461780707239868,0.20564063650618009,0.9172757334286473,0.30937547630759166,-0.1770790895396753,0.1775810788631146
324.9166666666998,-0.18091278,-0.90856224,-0.28337356,-2.520184,0.1425374,1.2667364,1.1421847,0.04,0.04,0.014032657262186277,-0.023653751354002495,0.011973495824424418,0.2697879173270677,0.1742887395268768,0.20559812244383446,0.9159334995430247,0.3114948286666234,-0.17869500601589666,0.17917837747283402
324.9333333333665,-0.18251655,-0.90966254,-0.2858834,-2.521635,0.1437978,1.2640419,1.1453394,0.04,0.04,0.013580839853699622,-0.023748460339606536,0.011909437178936333,0.26811879341858197,0.17393807358967397,0.20552670371199397,0.9145859909724848,0.31359678323310997,-0.18030827276292646,0.18077181593371822
324.9500000000331,-0.18411726,-0.9107607,-0.28838834,-2.523084,0.14505574,1.2613525,1.1484882,0.04,0.04,0.012757080917635832,-0.02380706591664783,0.012245218947026792,0.26642177067629463,0.17356010270732422,0.20542602474468902,0.9132333686983398,0.3156813560446596,-0.18191898825284017,0.1823611182646949
324.9666666666998,-0.18571466,-0.9118566,-0.29088816,-2.5245295,0.14631107,1.2586689,1.1516302,0.04,0.04,0.014275149412945609,-0.022964069402203746,0.01337471919116151,0.2646960855833538,0.17315305828311572,0.20529716339220483,0.9118761100658934,0.31774814545527763,-0.1835262593993548,0.1839461553327686
324.98333333336643,-0.18730856,-0.91295016,-0.29338247,-2.5259717,0.14756368,1.2559907,1.1547652,0.04,0.04,0.014174810112477232,-0.023055443779518292,0.013350537312961652,0.26294165335379716,0.17272400483716477,0.20514051090351454,0.9105144451274142,0.3197969710539408,-0.18513022287039113,0.1855266641186689
325.0000000000331,-0.18889879,-0.9140412,-0.295871,-2.5274105,0.14881335,1.253319,1.1578933,0.04,0.04,0.013970295258225462,-0.02261188400261016,0.01420857251285268,0.261161659411588,0.1722687150914996,0.20495565906804208,0.9091486401237151,0.3218278471314943,-0.1867304977062046,0.18710240030074451
325.01666666669973,-0.19048513,-0.91512954,-0.29835352,-2.528846,0.15005995,1.2506539,1.1610137,0.04,0.04,0.013722232426749414,-0.022433369613339416,0.01447004976460331,0.259352928553402,0.1717891827552869,0.20474280726967353,0.907778976753514,0.32384048063254245,-0.18832709008919848,0.18867320850232575
325.0333333333664,-0.1920674,-0.9162151,-0.3008296,-2.530278,0.1513033,1.2479954,1.1641265,0.04,0.04,0.01397527121906883,-0.02230815647113471,0.0147865726243257,0.25751851768589873,0.1712837852274347,0.20450114440812805,0.9064057355519892,0.3258347967043669,-0.1899198333589193,0.1902387571237827
325.05000000003304,-0.19364539,-0.91729784,-0.30329907,-2.5317063,0.15254329,1.2453438,1.1672307,0.04,0.04,0.013803233456233244,-0.022037399804097912,0.015071956250856111,0.2556580843733447,0.17075068181021152,0.20423150378024643,0.9050292652397107,0.32781037369273547,-0.19150858471695975,0.19179898315373187
325.0666666666997,-0.19521892,-0.9183775,-0.30576158,-2.5331302,0.15377977,1.2427,1.1703261,0.04,0.04,0.014905252134345126,-0.021227554702768492,0.01627154281693688,0.25377469853476753,0.1701920658221405,0.2039317403020686,0.9036499453353068,0.32976721153751676,-0.1930925419383212,0.1933536468186342
325.08333333336634,-0.19678782,-0.9194541,-0.30821678,-2.53455,0.1550126,1.2400637,1.1734122,0.04,0.04,0.014107924530404325,-0.0214504575964114,0.015987709892373303,0.25186649811190537,0.1696125670865304,0.20360602762164698,0.9022680279045574,0.3317050015225961,-0.19467204093745197,0.19490252503075114
325.100000000033,-0.19835192,-0.92052734,-0.3106644,-2.5359654,0.15624158,1.2374357,1.1764896,0.04,0.04,0.014160104298310827,-0.020908867695235145,0.01686154861095801,0.24993722081825354,0.16900621689622947,0.20325120995509688,0.9008836761802034,0.33362412581162804,-0.19624674000283995,0.19644531479963367
325.11666666669964,-0.19991098,-0.9215972,-0.31310418,-2.537376,0.15746666,1.2348162,1.1795564,0.04,0.04,0.014995743792112215,-0.02038534945612569,0.01735803912565892,0.24798162469759577,0.16837547479720902,0.20286829922871902,0.8994974858210047,0.3355237430271513,-0.1978160842001859,0.1979820388278854
325.1333333333663,-0.20146485,-0.9226636,-0.31553578,-2.538782,0.15868762,1.2322054,1.182613,0.04,0.04,0.014214372548204679,-0.0204414323541513,0.017387494848819518,0.24600681219817455,0.1677241017548658,0.20245629768328766,0.8981095979402696,0.3374040503382623,-0.1993802448942343,0.19951234259769007
325.15000000003295,-0.20301327,-0.9237263,-0.31795895,-2.5401833,0.15990433,1.2296036,1.185659,0.04,0.04,0.013854003602520315,-0.020191635987709677,0.017849558928617615,0.2440120164297368,0.167048724495021,0.20201675868922891,0.8967202987696271,0.33926487482187484,-0.20093918481753853,0.2010360527156047
325.1666666666996,-0.20455612,-0.92478496,-0.32037348,-2.5415795,0.16111663,1.2270113,1.188694,0.04,0.04,0.014478566274500615,-0.01942603707589252,0.018540385597487496,0.24199734107342208,0.1663466798107246,0.20154783917852628,0.8953299236197406,0.3411061455059276,-0.20249247864409822,0.2025530090167205
325.18333333336625,-0.20609324,-0.92583996,-0.32277897,-2.5429704,0.1623244,1.2244285,1.1917175,0.04,0.04,0.01464676525804176,-0.019347423377941153,0.018550910471959448,0.23996228938349934,0.16562344038860438,0.20104976791372098,0.8939388326637352,0.3429276721719298,-0.20403984098441047,0.2040630255719936
325.2000000000329,-0.2076244,-0.9268908,-0.3251751,-2.544356,0.1635275,1.2218554,1.1947293,0.04,0.04,0.014155763861500859,-0.019174865687954235,0.018888760462343335,0.23791053043443078,0.16487703093696207,0.20052368997784,0.8925472512709051,0.3447293901597128,-0.205581454519251,0.20556584679030143
325.21666666669955,-0.20914944,-0.92793757,-0.32756168,-2.5457358,0.1647258,1.2192928,1.1977292,0.04,0.04,0.015034385307099996,-0.018311802565335045,0.019785420589790714,0.23584291697137885,0.16410428736242963,0.1999707760965767,0.8911555628565655,0.3465113591310848,-0.20711650004504092,0.20706133437225518
325.2333333333662,-0.2106682,-0.9289799,-0.32993838,-2.5471103,0.16591908,1.2167407,1.2007172,0.04,0.04,0.013635826893820813,-0.01842614051314473,0.019730114360694273,0.23375557985935586,0.16331273743098038,0.19938800044098004,0.8897638868644067,0.3482736306440861,-0.20864547092072788,0.2085492059303935
325.25000000003286,-0.21218048,-0.9300177,-0.33230492,-2.5484788,0.16710727,1.2141998,1.203693,0.04,0.04,0.01445302389888603,-0.017787556206161348,0.02043777951786785,0.23165008751992716,0.162495108125438,0.19877610110746152,0.888372591610793,0.3500161969883071,-0.21016778096177985,0.21002929359060124
325.2666666666995,-0.21368599,-0.931051,-0.33466098,-2.5498416,0.16829024,1.21167,1.2066545,0.04,0.04,0.013952485743362608,-0.01781701615364284,0.020508788548123658,0.2295264381210408,0.16165555070710785,0.19813735141672167,0.8869822841840153,0.3517380906279995,-0.21168331120446238,0.21150158132409028
325.28333333336616,-0.2151848,-0.9320795,-0.33700633,-2.551198,0.16946779,1.2091519,1.2096033,0.04,0.04,0.014511609988465679,-0.016856026967515536,0.021096344899695918,0.22739322812126933,0.16079600789143728,0.19746841555728467,0.885592920242925,0.3534402797377507,-0.2131918312789289,0.21296570463444467
325.3000000000328,-0.21667655,-0.93310344,-0.33934075,-2.552548,0.17063984,1.2066453,1.212538,0.04,0.04,0.014565208044259315,-0.016826244484036135,0.021055714275231008,0.22524270959764792,0.1599123145838768,0.19677247782625532,0.8842050171357296,0.3551221255079574,-0.21469308894866862,0.21442164350735135
325.31666666669946,-0.21816108,-0.9341226,-0.34166393,-2.5538912,0.17180617,1.2041507,1.2154584,0.04,0.04,0.014514778771101966,-0.016295321091935877,0.021573848354472513,0.22307915236265077,0.15900944955729054,0.19604666897007714,0.8828188751301929,0.356783676284818,-0.21618683988540477,0.215869155533887
325.3333333333661,-0.21963824,-0.93513674,-0.34397548,-2.5552275,0.17296681,1.2016685,1.2183651,0.04,0.04,0.014518190559353883,-0.015991595117564872,0.022104579332637986,0.22090397923477867,0.15808754426407387,0.19529446811186357,0.8814346200595621,0.3584253210710425,-0.21767300648925333,0.21730798885799113
325.35000000003276,-0.22110792,-0.93614554,-0.34627527,-2.5565574,0.17412151,1.1991988,1.2212569,0.04,0.04,0.013516706960303715,-0.015861804364719623,0.02201757284592265,0.2187140324477162,0.1571435724874282,0.1945153464587196,0.8800526038564959,0.3600466438448098,-0.2191517565094419,0.21873805412025765
325.3666666666994,-0.22256985,-0.93714905,-0.34856313,-2.5578804,0.17527002,1.1967423,1.2241333,0.04,0.04,0.013890578164099665,-0.015074976465434542,0.022591769980961907,0.21651400147911953,0.15617569153450406,0.19370704722854076,0.8786732143754311,0.36164762167048364,-0.22062254343159798,0.22015920014617413
325.38333333336607,-0.22402394,-0.93814725,-0.35083872,-2.5591965,0.17641239,1.1942986,1.2269942,0.04,0.04,0.013797142049054578,-0.015121382698590757,0.02247382953265431,0.2143028195452361,0.15518966465365044,0.19287060949645796,0.8772966794937888,0.363228223501934,-0.22208546990294945,0.22157129294831474
325.4000000000327,-0.22546996,-0.93913996,-0.3531015,-2.5605054,0.17754844,1.1918688,1.2298388,0.04,0.04,0.01377478007797972,-0.014621779458512396,0.023366578259298443,0.21208260371518917,0.1541815568325316,0.1920052709049357,0.8759234606504338,0.3647883289043686,-0.2235399898316348,0.22297407724531246
325.41666666669937,-0.22690776,-0.94012713,-0.35535148,-2.5618072,0.17867805,1.1894528,1.2326676,0.04,0.04,0.013533624554029622,-0.014245331993362198,0.023313842976357968,0.20985490397925255,0.15315638822614985,0.19111289152215033,0.8745536775542817,0.3663281731880272,-0.22498616932653126,0.22436746247345588
325.433333333366,-0.2283372,-0.94110864,-0.35758847,-2.563101,0.17980106,1.1870507,1.2354797,0.04,0.04,0.014176519361019935,-0.013495204626240431,0.023670742380388354,0.20761899185955904,0.15210927415183045,0.19019235943989815,0.8731877046130929,0.3678476850891602,-0.2264236035607115,0.22575133407722242
325.4500000000327,-0.22975816,-0.94208413,-0.3598121,-2.5643868,0.18091734,1.1846627,1.2382755,0.04,0.04,0.014064935102386933,-0.013114781780415585,0.02395132031767222,0.20537409866620104,0.1510474727884925,0.18924477684438704,0.8718257076144791,0.36934713008334036,-0.22785232302537267,0.22712541014526372
325.4666666666993,-0.23117037,-0.94305366,-0.36202213,-2.5656648,0.1820268,1.1822895,1.2410539,0.04,0.04,0.013580607920626875,-0.012927565544901265,0.02437533217359844,0.2031214741773164,0.14996352227179743,0.18827137834499127,0.8704681442959484,0.37082616828074333,-0.22927198084828304,0.22848965289941353
325.483333333366,-0.23257376,-0.9440171,-0.36421832,-2.5669348,0.18312934,1.1799313,1.243815,0.04,0.04,0.01329370956855147,-0.012562615860778337,0.024529035062215154,0.20086377488942742,0.14886244659496506,0.18727073233520708,0.8691152033270105,0.37228499098873774,-0.23068252390250826,0.22984390789475645
325.5000000000326,-0.23396817,-0.94497436,-0.3664004,-2.5681968,0.18422472,1.177588,1.2465585,0.04,0.04,0.013300264486759694,-0.012214189149595267,0.024513167410022962,0.19859857037942164,0.14774473132291607,0.18624299286779347,0.8677671148081899,0.3737237155076698,-0.23208396562885017,0.2311879145253887
325.5166666666993,-0.2353534,-0.94592553,-0.36856815,-2.5694504,0.18531294,1.1752598,1.2492841,0.04,0.04,0.013499328680688372,-0.011840780158667297,0.024726669594354878,0.19632798356013131,0.14660715731651405,0.18518863270307073,0.866424240712529,0.3751422181492702,-0.23347597053993646,0.23252166016996773
325.53333333336593,-0.23672928,-0.94687027,-0.3707213,-2.5706952,0.18639383,1.1729475,1.2519913,0.04,0.04,0.013625897535085585,-0.011076187509773128,0.025503122002823453,0.19405389421525612,0.14545265093391718,0.18410792946117296,0.8650869278482569,0.37654057967936694,-0.23485809841646968,0.23384497584722885
325.5500000000326,-0.23809576,-0.94780856,-0.3728597,-2.5719318,0.18746725,1.170651,1.2546797,0.04,0.04,0.012500300058460034,-0.011257091995364732,0.02505605919275178,0.1917751511499233,0.14428410425577928,0.18300192926560202,0.8637553274279305,0.3779187942588867,-0.23623072882798485,0.2351577386419102
325.56666666669923,-0.23945262,-0.9487401,-0.37498307,-2.5731604,0.18853313,1.1683707,1.2573491,0.04,0.04,0.012087900157031761,-0.010879122187512635,0.025565528170556906,0.18949413010916694,0.14309653719638357,0.18186917115847895,0.8624296832478624,0.3792769689893251,-0.23759371431819698,0.236459825686617
325.5833333333659,-0.24079973,-0.949665,-0.37709117,-2.57438,0.1895913,1.166107,1.2599996,0.04,0.04,0.013098334277406032,-0.009986160430275337,0.02601145443017483,0.18721180201098325,0.14189066793638272,0.18070964464902176,0.8611103187172099,0.38061534917338025,-0.23894646694501234,0.23775104817196382
325.60000000003254,-0.24213688,-0.95058334,-0.37918368,-2.5755906,0.19064178,1.1638601,1.2626306,0.04,0.04,0.012692129468416802,-0.010044552221077918,0.025974771689829534,0.18492561865787596,0.14066943372126353,0.17952555748713842,0.8597975637385297,0.38193375128126517,-0.24028894199517573,0.2390313439203083
325.6166666666992,-0.243464,-0.9514948,-0.3812605,-2.5767913,0.19168432,1.16163,1.2652415,0.04,0.04,0.01373422586998796,-0.008784375368309227,0.02654847013957573,0.18263994048907992,0.13943385806085645,0.17831846054739536,0.8584917640110304,0.38323232241782557,-0.24162054386980586,0.24030062621543077
325.63333333336584,-0.24478093,-0.95239896,-0.38332143,-2.577983,0.19271885,1.1594168,1.2678325,0.04,0.04,0.012040053147877039,-0.00920117152359845,0.026205697260395233,0.180351440001855,0.13818823563384328,0.1770854223817654,0.8571929234420853,0.3845111996790015,-0.24294204019363363,0.24155867698921737
325.6500000000325,-0.24608757,-0.95329624,-0.3853662,-2.5791662,0.19374524,1.1572213,1.2704036,0.04,0.04,0.011135077159729612,-0.009158550546450872,0.026408244146258752,0.17806290056917912,0.13692526020922136,0.17582723975524042,0.8559012826241089,0.3857705891589033,-0.24425312398123394,0.2428053919660883
325.66666666669914,-0.24738368,-0.9541864,-0.38739455,-2.5803392,0.19476339,1.1550431,1.2729539,0.04,0.04,0.013181158652564307,-0.007942810928973643,0.026817191974060073,0.1757741542540759,0.13564445030563965,0.17454368684275895,0.8546173566078635,0.38701028983115826,-0.24555314688839974,0.2440406962016679
325.6833333333658,-0.24866924,-0.9550692,-0.38940638,-2.581503,0.19577323,1.1528826,1.2754833,0.04,0.04,0.011630199417322906,-0.008105629616406151,0.02667736069520421,0.17348652272939416,0.1343526933781405,0.173236960168194,0.8533411884128446,0.38823049985206504,-0.24684248999972636,0.24526451083168313
325.70000000003245,-0.24994406,-0.95594466,-0.39140138,-2.5826566,0.19677463,1.15074,1.2779914,0.04,0.04,0.012279010508176036,-0.007386305392420578,0.02714447008896892,0.1712010875739837,0.13304575301234647,0.171905536484927,0.8520731474808354,0.38943131334507314,-0.2481206186157648,0.24647669696375774
325.7166666666991,-0.25120807,-0.9568127,-0.39337936,-2.5838006,0.19776754,1.1486157,1.2804781,0.04,0.04,0.01168196363103835,-0.0072268782985940305,0.027189335864363784,0.16891767488925832,0.13172819577624872,0.17055158957812433,0.8508134152178168,0.390612832739847,-0.24938757373734702,0.24767717991318136
325.73333333336575,-0.25246108,-0.95767325,-0.39534017,-2.5849347,0.19875178,1.14651,1.2829437,0.04,0.04,0.011393554200500589,-0.006843657382943347,0.02734068298410053,0.16663681869364816,0.1303976079797195,0.16917366732822525,0.8495621222729925,0.39177542541857857,-0.2506432588954454,0.24886577347512331
325.7500000000324,-0.25370294,-0.95852613,-0.39728355,-2.5860589,0.19972728,1.1444229,1.2853873,0.04,0.04,0.011348113189346698,-0.0065373665634110845,0.02745141166642373,0.16435762381132663,0.12905264120176177,0.1677733561198988,0.8483196303967344,0.39291886744966875,-0.2518875713148235,0.25004243580387914
325.76666666669905,-0.25493354,-0.95937127,-0.3992094,-2.5871727,0.20069395,1.1423546,1.2878089,0.04,0.04,0.011354742321589839,-0.0060172183495854625,0.02761654775492728,0.1620832745543636,0.1276958791276354,0.16635063935519268,0.8470860933275842,0.3940434571399968,-0.25312034481355034,0.2512070767666397
325.7833333333657,-0.2561528,-0.9602087,-0.40111738,-2.5882761,0.20165174,1.1403055,1.290208,0.04,0.04,0.011457870460218622,-0.0056264613879725145,0.027887129282111456,0.1598116534151299,0.12632689015539467,0.16490589178374548,0.8458618619176176,0.3951491872600608,-0.25434120612377603,0.25235962677987384
325.80000000003236,-0.25736058,-0.96103835,-0.40300745,-2.5893693,0.20260043,1.1382755,1.2925845,0.04,0.04,0.01082226045538981,-0.005482165463488453,0.027606176767658308,0.15754515471100503,0.124949648593741,0.16344052611981602,0.8446470434243543,0.3962362065950061,-0.2555504090757652,0.25349995865661545
325.816666666699,-0.25855672,-0.96186006,-0.4048794,-2.5904515,0.20354,1.1362649,1.294938,0.04,0.04,0.01139808419767796,-0.00471088343544368,0.028082462397294172,0.15528455473937275,0.12355974710283213,0.16195297950568122,0.8434419896362837,0.3973045616777049,-0.2567474401235275,0.2546280569349922
325.83333333336566,-0.25974125,-0.96267366,-0.406733,-2.5915232,0.20447041,1.1342742,1.2972686,0.04,0.04,0.010468006834152277,-0.00464405569780002,0.028229127166423673,0.15302963349175028,0.12216243445441147,0.1604447917808845,0.842246712592174,0.39835467113485473,-0.2579324376337102,0.2557437950939377
325.8500000000323,-0.26091397,-0.9634792,-0.40856814,-2.5925844,0.20539159,1.1323031,1.2995758,0.04,0.04,0.010312075861818037,-0.004593559531351765,0.02786449860078255,0.1507797832172577,0.12075495659522037,0.1589169946128104,0.8410615083919435,0.39938631751775894,-0.2591054769183699,0.2568471535991328
325.86666666669896,-0.26207477,-0.9642766,-0.41038474,-2.5936348,0.20630336,1.1303521,1.30186,0.04,0.04,0.010215224254483957,-0.003910078273611228,0.028271898289866648,0.14853775063533442,0.1193363293897036,0.157367057507043,0.8398864538636596,0.4004000347103835,-0.26026630427606684,0.2579379919258276
325.8833333333656,-0.26322335,-0.9650657,-0.4121824,-2.5946748,0.20720567,1.1284215,1.3041201,0.04,0.04,0.00963524304982144,-0.004035167915605875,0.02840235945513747,0.1463000806514807,0.11790806688187529,0.15579789192648963,0.8387219630115843,0.4013954730863069,-0.261414884975308,0.25901621737096153
325.90000000003226,-0.26436013,-0.96584654,-0.41396105,-2.5957036,0.20809843,1.126511,1.3063564,0.04,0.04,0.010313122219618442,-0.0031275971857369633,0.0281437319390343,0.14407206981127532,0.1164723709707822,0.1542089911604631,0.83756803348347,0.4023732010144587,-0.2625510385846605,0.260081811225097
325.9166666666989,-0.26548448,-0.96661896,-0.4157206,-2.5967212,0.20898163,1.1246213,1.3085694,0.04,0.04,0.009966135562211598,-0.0029260445070899976,0.02881818528300828,0.14185141597014145,0.11502629188436528,0.15260034914449466,0.836424846920328,0.4033334842669493,-0.26367456534516104,0.2611346386702247
325.93333333336557,-0.26659662,-0.967383,-0.41746086,-2.597728,0.2098551,1.1227521,1.3107576,0.04,0.04,0.009191563926380653,-0.002988941542969581,0.028178527625166705,0.139636100746802,0.11357154900302707,0.15097553575474054,0.8352927286146534,0.4042759344427077,-0.264785629419031,0.26217474479272435
325.9500000000322,-0.26769623,-0.9681384,-0.41918176,-2.5987234,0.21071886,1.1209037,1.3129214,0.04,0.04,0.009647423244873998,-0.002260317017854785,0.02875251735571238,0.13743165616829844,0.11210998172188137,0.1493303569947685,0.8341717809905896,0.4052009618814032,-0.26588397349506077,0.2632020762225315
325.96666666669887,-0.2687833,-0.96888536,-0.420883,-2.5997074,0.21157277,1.1190768,1.3150605,0.04,0.04,0.009506184187424438,-0.0019071319101948703,0.028975611737880325,0.13523560610395235,0.11064123200794196,0.14766806868724694,0.833062286788009,0.40610875341517094,-0.26696916905935225,0.2642165201172479
325.9833333333655,-0.2698578,-0.9696237,-0.4225646,-2.60068,0.21241678,1.1172708,1.3171749,0.04,0.04,0.008935155612399548,-0.0019599149177595976,0.028399696585112988,0.13304927594852603,0.10916802388189177,0.14599037023798037,0.8319642327945822,0.4069994276657821,-0.2680417249959999,0.2652180515941873
326.0000000000322,-0.27091962,-0.9703532,-0.42422634,-2.6016417,0.21325083,1.1154861,1.3192645,0.04,0.04,0.008571935860324231,-0.0016267107342149423,0.028707644352998773,0.1308722128535518,0.10768641040012938,0.14429294543748286,0.830877773162614,0.40787321858258385,-0.2691015067802065,0.26620657894958527
326.0166666666988,-0.27196872,-0.9710739,-0.42586806,-2.6025913,0.21407478,1.1137229,1.3213288,0.04,0.04,0.0092131744923174,-0.0008832325317120748,0.028883529659018414,0.12870495518773953,0.10619751579644177,0.14258051565341578,0.8298032456587396,0.40873016763681175,-0.2701480279490977,0.2671820850151049
326.0333333333655,-0.27300498,-0.97178596,-0.42748967,-2.6035297,0.2148887,1.1119812,1.3233678,0.04,0.039999995,0.008236728352772893,-0.0012865599149036733,0.028577246797745204,0.1265485980076761,0.10470440474007232,0.14085285632114916,0.8287406418162707,0.4095704563316322,-0.2711816560584331,0.2681445493006709
326.0500000000321,-0.27402827,-0.9724892,-0.4290911,-2.6044564,0.21569248,1.1102612,1.3253814,0.04,0.04,0.008451868963899045,-0.0005716594711602241,0.028887341486272256,0.12440263698946265,0.10320453316109049,0.13910893124206697,0.8276901951041916,0.4103942504384167,-0.27220203057519404,0.2690939514114286
326.0666666666988,-0.27503857,-0.9731837,-0.43067214,-2.605371,0.21648602,1.1085631,1.3273693,0.04,0.04,0.008883220476207931,-9.469636764736222e-05,0.028903886850450977,0.12226862014272344,0.10170098007623966,0.13734990189880672,0.8266521150975038,0.4112017371647142,-0.2732088663501255,0.2700302340576404
326.08333333336543,-0.27603585,-0.9738689,-0.43223268,-2.6062741,0.21726929,1.106887,1.3293318,0.04,0.04,0.007469482308075648,-0.00025597990492287614,0.028914852054195972,0.12014521709925277,0.1001948487327242,0.13557734599288626,0.8256263106722951,0.41199320396963396,-0.2742026959966185,0.27095327367772554
326.1000000000321,-0.27702,-0.9745449,-0.43377277,-2.6071649,0.21804225,1.1052332,1.3312681,0.04,0.04,0.008415166919295558,0.0007260898211680633,0.029251960185705528,0.11803235634622161,0.09868306096018743,0.13379054161295373,0.8246130929340891,0.41276872996454045,-0.27518286471331965,0.2718632257097424
326.11666666669873,-0.2779909,-0.9752118,-0.43529212,-2.608044,0.21880485,1.1036015,1.3331785,0.04,0.04,0.007488293706514604,0.00016807172009136728,0.028732934046937775,0.11593189070970561,0.09716867443494615,0.13199106291138085,0.823612509938825,0.41352842391643463,-0.2761498069310554,0.2727598948111677
326.1333333333654,-0.27894852,-0.97587025,-0.43679082,-2.608911,0.21955699,1.1019921,1.335063,0.04,0.039999995,0.007817675344679031,0.00072284908139153,0.028710908815199332,0.11384360120310935,0.09564997057196603,0.13017922647595975,0.8226247821360358,0.414272498394355,-0.27710297215001367,0.27364339516123415
326.15000000003204,-0.27989286,-0.97651947,-0.43826866,-2.6097655,0.22029868,1.100405,1.3369215,0.04,0.04,0.00811905790958356,0.0013319435533509782,0.028930090684153864,0.11176659268974283,0.09413107422446648,0.128355167226703,0.8216499293255962,0.41500125963939144,-0.27804248337501264,0.2745136163756122
326.1666666666987,-0.28082377,-0.97715926,-0.43972558,-2.6106088,0.22102986,1.09884,1.3387535,0.04,0.039999995,0.006128608578226391,0.0004738720768782123,0.028440522700601267,0.10970163210853329,0.09260994439708323,0.1265208054418688,0.8206879761276614,0.41571452830142297,-0.27896907429739914,0.27537053652172144
326.18333333336534,-0.2817413,-0.97778976,-0.44116145,-2.6114397,0.22175053,1.0972978,1.340559,0.04,0.04,0.00735198113008817,0.0017060197484208839,0.02909247502013157,0.107653153823756,0.09108173860851956,0.12467226011698078,0.8197391581720349,0.4164127547639267,-0.27988184855042575,0.27621419420681054
326.200000000032,-0.28264534,-0.9784111,-0.44257635,-2.6122575,0.22246061,1.0957786,1.3423378,0.04,0.04,0.008019146638527097,0.00252276823601294,0.029314547902714594,0.10561620872777375,0.0895536468546593,0.12281320920551939,0.8188036927333974,0.41709613672108214,-0.280780290711269,0.2770446784303854
326.21666666669864,-0.2835358,-0.97902316,-0.44397005,-2.6130638,0.22316009,1.0942805,1.3440903,0.04,0.04,0.006097965690199381,0.0007208513486622881,0.027383513746537247,0.10359077437096918,0.08802979823088578,0.1209467356563346,0.8178813475333946,0.4177644352845992,-0.28166617452204773,0.2778617355779923
326.2333333333653,-0.28441277,-0.97962594,-0.44534248,-2.613858,0.2238489,1.0928055,1.3458164,0.04,0.039999995,0.006452008496671269,0.002184749482725401,0.028937421129704433,0.10158432859608275,0.08649666341668599,0.11906631291661263,0.8169723542530488,0.41841831088510933,-0.28253823943580697,0.27866544952468986
326.25000000003195,-0.28527614,-0.98021936,-0.4466936,-2.6146393,0.22452703,1.0913537,1.3475155,0.04,0.03999999,0.007092332086222619,0.0028397585988715335,0.029086699685221262,0.09958918383851957,0.08496333716532717,0.11717831053928542,0.8160769460128096,0.41905781272504034,-0.2833961262940645,0.27945590597092346
326.2666666666986,-0.28612587,-0.9808035,-0.44802335,-2.615409,0.22519447,1.089925,1.3491874,0.04,0.039999995,0.005530763067929101,0.0021748085227202285,0.028684168937687105,0.0976082359370396,0.08343330828582246,0.11528313165523732,0.8151951316861837,0.41968291416670905,-0.2842403078313501,0.2802331105269751
326.28333333336525,-0.28696197,-0.9813783,-0.4493318,-2.616166,0.22585115,1.0885198,1.3508327,0.04,0.039999995,0.006158590372074002,0.002995133783689763,0.02883824889587938,0.09564258996055963,0.08190338503420712,0.11337931642761892,0.8143268943964009,0.4202941794094624,-0.2850704781231296,0.2809970361407569
326.3000000000319,-0.2877843,-0.9819436,-0.45061883,-2.6169107,0.2264971,1.0871375,1.3524513,0.04,0.039999995,0.00623588367802963,0.0030679337749250912,0.028594157975603274,0.09368941316672164,0.08037450447012025,0.11146929717926793,0.8134723061530484,0.4208916370913445,-0.28588686192712925,0.2817476515005361
326.31666666669855,-0.28859302,-0.98249954,-0.45188445,-2.6176426,0.22713229,1.0857781,1.3540431,0.04,0.039999995,0.00614025855600886,0.003345632034712498,0.028476203712046733,0.09175065915012978,0.07884679420891336,0.10955375919882393,0.8126314431248086,0.42147549979766363,-0.28668929713852304,0.28248502194173086
326.3333333333652,-0.289388,-0.98304594,-0.45312855,-2.6183624,0.22775668,1.0844419,1.3556075,0.04,0.03999999,0.005304113155091272,0.003157453948249289,0.02839128274808589,0.08982515475572062,0.07732037040151814,0.10763196928580049,0.8118044358208499,0.42204565585217146,-0.28747798078266973,0.28320916814789215
326.35000000003186,-0.29016915,-0.9835829,-0.4543512,-2.6190698,0.22837026,1.083129,1.3571444,0.04,0.039999995,0.005452762954161194,0.0035616748296163347,0.028497917406689055,0.08791623437179112,0.07579656824708883,0.10570412380957009,0.8109914083976428,0.42260227286844765,-0.28825264132347767,0.2839201811102342
326.3666666666985,-0.29093653,-0.98411053,-0.45555216,-2.6197643,0.22897303,1.0818392,1.3586541,0.04,0.039999995,0.005941276177434673,0.0038673161605107254,0.028285457364729538,0.08602418177806498,0.07427689518162922,0.10377220862501157,0.810192368384913,0.4231457134103645,-0.2890132580367916,0.284617933574534
326.38333333336516,-0.2916903,-0.9846286,-0.4567316,-2.6204472,0.22956498,1.080572,1.360137,0.04,0.039999995,0.004363916894445374,0.0031870086983465384,0.027572330466496542,0.08414744061226384,0.07276121097945527,0.10183692264879825,0.8094070924320229,0.42367609375373655,-0.28976064582728833,0.2853024613144205
326.4000000000318,-0.29243016,-0.98513734,-0.45788965,-2.621117,0.2301461,1.0793281,1.3615928,0.04,0.039999995,0.005590273060263051,0.004377564521024224,0.02821408697563088,0.08228713311526387,0.07124339260197327,0.09989527467238962,0.8086358441755963,0.42419367759140225,-0.2904939154093507,0.2859739157966111
326.41666666669846,-0.29315627,-0.98563665,-0.45902613,-2.6217747,0.23071636,1.0781076,1.363022,0.04,0.04,0.004833641451096327,0.004230740053590143,0.028171080140537708,0.08044099862187784,0.0697321971535067,0.09795051192043833,0.8078785168650489,0.4246988686999403,-0.29121327503454153,0.2866321708332407
326.4333333333651,-0.29386863,-0.9861263,-0.46014097,-2.6224196,0.23127596,1.07691,1.3644242,0.04,0.04,0.005021789674297672,0.0042478240842303006,0.02786599396321643,0.07861063185100886,0.06822194146409509,0.09600708430602906,0.807135161744537,0.4251916030801465,-0.29191893823985476,0.28727733088893526
326.45000000003176,-0.2945673,-0.9866067,-0.4612344,-2.6230516,0.23182468,1.0757357,1.3657993,0.04,0.03999999,0.00520923849356425,0.004890387859818324,0.02784101424442298,0.07679489144113893,0.0667157088569176,0.09405968476540329,0.8064059408082948,0.4256720684114481,-0.2926104180017729,0.28790952064882513
326.4666666666984,-0.2952522,-0.9870776,-0.46230623,-2.6236715,0.23236258,1.0745845,1.3671474,0.04,0.04,0.004153148705143828,0.004371168135053338,0.02760259004723764,0.07499460569275232,0.06521660779387087,0.09211342548183155,0.8056907236171988,0.4261404199012982,-0.2932882893005098,0.28852864634680575
326.48333333336507,-0.29592332,-0.9875391,-0.46335658,-2.6242793,0.2328897,1.0734562,1.3684685,0.04,0.04,0.00415786323670897,0.004406596536615792,0.027293077748047345,0.07321022752866249,0.06372146839085598,0.09016634265109302,0.8049895743231446,0.42659668244043764,-0.2939525793330428,0.2891348074260624
326.5000000000317,-0.2965807,-0.9879912,-0.4643854,-2.624874,0.23340604,1.0723511,1.3697622,0.04,0.04,0.004778375168545956,0.005183440534245465,0.0276904041863979,0.0714441886741457,0.062230036042036016,0.08821883821802108,0.8043026713146572,0.42704104330017667,-0.29460276138230684,0.2897281022598997
326.51666666669837,-0.29722455,-0.9884339,-0.46539286,-2.6254568,0.23391159,1.0712688,1.3710291,0.04,0.04,0.003885059153785342,0.004828383114530155,0.026966068438516455,0.0696953005170942,0.06074686979144257,0.08627375374431798,0.803629701594473,0.4274738697475953,-0.29523947281357854,0.2903085377507083
326.533333333365,-0.29785466,-0.9888672,-0.4663789,-2.626027,0.23440646,1.0702096,1.3722694,0.04,0.04,0.004065744798631421,0.0050502078338732215,0.02728586094369323,0.0679628267159875,0.05926748890632708,0.08432914978753953,0.8029707916313976,0.42789529838744994,-0.2958624485116033,0.2908761471236181
326.5500000000317,-0.29847103,-0.9892911,-0.46734363,-2.626585,0.23489061,1.0691733,1.3734826,0.04,0.03999999,0.0039033331592941423,0.005174080441744389,0.02703599818041358,0.06624650954817557,0.057795177902883264,0.08238796472960427,0.8023259838718232,0.4283053082122395,-0.2964718068389877,0.2914310318256368
326.5666666666983,-0.2990738,-0.98970574,-0.46828714,-2.6271307,0.23536408,1.0681599,1.3746691,0.04,0.04,0.0036713801243148936,0.00516991395418942,0.026762738686780807,0.06454708289061135,0.056330855397996156,0.0804485679636236,0.8016952040281808,0.42870418007360633,-0.2970675699152152,0.29197326030015025
326.583333333365,-0.29966316,-0.990111,-0.46920937,-2.6276643,0.23582686,1.0671694,1.3758291,0.04,0.04,0.0034437891702321366,0.005382032965994821,0.026720586435990956,0.06286609773239961,0.0548718145732795,0.07851287302584464,0.8010783348985495,0.42909226344470436,-0.2976498534399734,0.2925028129013976
326.6000000000316,-0.30023888,-0.990507,-0.4701105,-2.628186,0.23627906,1.0662016,1.3769622,0.04,0.04,0.0032200058645459606,0.005133364085557757,0.02640527801411885,0.061200620737414585,0.05342071671409825,0.07658281609722939,0.800475507828069,0.4294693009137982,-0.2982187725043231,0.29301987076992464
326.6166666666983,-0.3008012,-0.9908938,-0.4709905,-2.628695,0.23672064,1.0652565,1.3780689,0.04,0.04,0.0039041413859797203,0.0059090107793313695,0.026569964308870153,0.059555247982397294,0.0519767135180478,0.07465515702311998,0.7998866486928783,0.42983586427466597,-0.29877399536551524,0.2935244090692527
326.63333333336493,-0.30134997,-0.9912713,-0.47184953,-2.6291919,0.23715171,1.064334,1.3791491,0.04,0.04,0.0033156625862895694,0.00558199560439232,0.026310997059375563,0.057925357785097054,0.050542226947787934,0.07273526749983114,0.7993117551249161,0.4301918548217128,-0.29931578875230663,0.29401657226721917
326.6500000000316,-0.30188546,-0.9916398,-0.47268766,-2.6296766,0.23757231,1.063434,1.3802029,0.04,0.04,0.00334891980187102,0.00571400834538105,0.025960239749928116,0.0563142138782682,0.04911844604635295,0.07082304579845794,0.7987507419817151,0.4305375234171127,-0.29984418725698153,0.2944964456181415
326.66666666669823,-0.30240762,-0.991999,-0.47350493,-2.6301491,0.23798248,1.0625561,1.3812307,0.04,0.04,0.003191530979096413,0.0057241898984317086,0.02581337463860578,0.05472081874333881,0.04770402339983042,0.06891665788856595,0.7982034880519338,0.4308730912336871,-0.30035946814921805,0.2949639991686646
326.6833333333649,-0.30291656,-0.9923492,-0.4743017,-2.6306098,0.23838224,1.0617006,1.3822324,0.04,0.04,0.002969798343643859,0.005858385686113854,0.025571456442829987,0.053144805891138826,0.04629742132944998,0.06701897717035384,0.7976699860770471,0.43119864715492573,-0.3008615053289425,0.29541948922643513
326.70000000003154,-0.3034124,-0.9926903,-0.47507766,-2.631059,0.2387716,1.0608672,1.3832082,0.04,0.04,0.0022991779202508056,0.005466486352678768,0.02538285744820845,0.051587230191099585,0.04490215649812281,0.06512903181187935,0.7971501564997961,0.43151432789074484,-0.30135066294681434,0.29586279042634694
326.7166666666982,-0.30389518,-0.9930223,-0.47583318,-2.631496,0.23915067,1.0600557,1.3841583,0.04,0.04,0.0030830105886225923,0.0061287288668054885,0.025316248675710806,0.05004881579788388,0.043514584797004534,0.06324786402303104,0.7966439230288195,0.4318204267101305,-0.30182676415294474,0.2962940826579159
326.73333333336484,-0.3043649,-0.9933454,-0.47656837,-2.6319215,0.23951957,1.0592659,1.385083,0.04,0.04,0.0023824830990060164,0.005543013764885973,0.024762763410490773,0.048528333918850974,0.042137533776121165,0.06137723176155302,0.7961511465236357,0.43211697258547027,-0.3022902631052144,0.2967134488432381
326.7500000000315,-0.30482167,-0.99365973,-0.47728336,-2.632335,0.23987834,1.058498,1.385982,0.04,0.04,0.00316853953554741,0.006380347523815555,0.02514286250089315,0.047027405240097075,0.040769272345846416,0.05951627509337257,0.7956719765391166,0.43240417742165227,-0.3027404514385391,0.29712110689318155
326.76666666669814,-0.3052656,-0.9939651,-0.47797823,-2.6327374,0.240227,1.0577512,1.386856,0.04,0.04,0.0017669715620671766,0.00529863497413241,0.024051929516794024,0.04554356286240853,0.03941695273286268,0.05766802443650801,0.7952060521410004,0.43268204053930903,-0.30317857337784854,0.29751695594980293
