rsonawane2002/My_IMU/logs_2/traj_343/imu_400hz_343.csv
time,j1,j2,j3,j4,j5,j6,j7,gripper1,gripper2,imu_ax,imu_ay,imu_az,imu_gx,imu_gy,imu_gz
0.0,0.00016700293,-0.785875,4.0107683e-05,-2.3551247,9.29385e-05,1.570997,0.786,0.04,0.04,-9.482889,-0.0082541713491082,0.09372962,4.2141798e-07,-0.0011641274904832,3.1985687e-07
0.0025,0.000167003008,-0.7858577740000002,4.0109706499999974e-05,-2.35513919,9.294467159999992e-05,1.570996565,0.786,0.04,0.04,-9.535603949999329,-0.006917739674116727,0.08103857495016159,4.0281157350023694e-07,-0.0013252449745757237,4.290381094986098e-07
0.005,0.000167003086,-0.7858405480000005,4.011172999999995e-05,-2.35515368,9.295084319999985e-05,1.57099613,0.786,0.04,0.04,-9.588318899998658,-0.005581307999125254,0.06834752990032318,3.842051670004738e-07,-0.0014863624586682472,5.382193489972196e-07
0.0075,0.000167003164,-0.7858233220000007,4.0113753499999924e-05,-2.35516817,9.295701479999977e-05,1.5709956950000001,0.786,0.04,0.04,-9.641033849997987,-0.00424487632413378,0.05565648485048478,3.655987605007107e-07,-0.0016474799427607706,6.474005884958295e-07
0.01,0.000167003242,-0.785806096000001,4.0115776999999895e-05,-2.3551826599999997,9.296318639999968e-05,1.5709952600000001,0.786,0.04,0.04,-9.693748799997316,-0.0029084446491423064,0.04296543980064637,3.4699235400094765e-07,-0.0018085974268532941,7.565818279944393e-07
0.0125,0.00016700332,-0.7857888700000011,4.0117800499999867e-05,-2.355197149999999,9.296935799999961e-05,1.570994825,0.786,0.04,0.04,-9.746463749996645,-0.0015720129741508323,0.030274394750807954,3.2838594750118453e-07,-0.0019697149109458175,8.657630674930492e-07
0.015,0.000167003398,-0.7857716440000013,4.0119823999999845e-05,-2.355211639999999,9.297552959999953e-05,1.57099439,0.786,0.04,0.04,-9.799178699995974,-0.00023558129915935908,0.01758334970096956,3.0977954100142147e-07,-0.002130832395038341,9.74944306991659e-07
0.0175,0.0001670026890000002,-0.7857548645000013,4.0124085349999275e-05,-2.355225734999999,9.298349009999905e-05,1.57099396,0.786,0.04,0.04,-9.834224400000025,0.0006574780272780002,0.009045530350019043,4.184501564701034e-07,-0.002287594520009019,1.0885690149899163e-06
0.02,0.00016700040600000016,-0.7857389780000013,4.0132822399999346e-05,-2.355239039999999,9.299502839999914e-05,1.5709935400000001,0.786,0.04,0.04,-9.833931600000021,0.0006637926562684092,0.008814162400017254,7.816748159729112e-07,-0.0024356459267326786,1.2110806599908633e-06
0.0225,0.00016699812300000015,-0.7857230915000011,4.0141559449999416e-05,-2.3552523449999994,9.300656669999922e-05,1.57099312,0.786,0.04,0.04,-9.833638800000019,0.000670107285258818,0.008582794450015465,1.144899475475719e-06,-0.002583697333456338,1.3335923049918104e-06
0.025,0.00016699584000000014,-0.7857072050000009,4.015029649999948e-05,-2.3552656499999993,9.301810499999932e-05,1.5709927000000001,0.786,0.04,0.04,-9.833346000000017,0.0006764219142492267,0.008351426500013677,1.5081241349785273e-06,-0.0027317487401799976,1.4561039499927575e-06
0.0275,0.00016699355700000012,-0.7856913185000008,4.015903354999955e-05,-2.3552789549999993,9.30296432999994e-05,1.57099228,0.786,0.04,0.04,-9.833053200000014,0.0006827365432396355,0.00812005855001189,1.871348794481335e-06,-0.002879800146903657,1.5786155949937046e-06
0.03,0.00016699127400000009,-0.7856754320000007,4.016777059999962e-05,-2.3552922599999992,9.304118159999949e-05,1.57099186,0.786,0.04,0.04,-9.832760400000012,0.0006890511722300443,0.007888690600010101,2.234573453984143e-06,-0.0030278515536273165,1.7011272399946517e-06
0.0325,0.00016698899100000007,-0.7856595455000006,4.0176507649999683e-05,-2.355305564999999,9.305271989999959e-05,1.57099144,0.786,0.04,0.04,-9.83246760000001,0.0006953658012204531,0.007657322650008311,2.597798113486951e-06,-0.0031759029603509762,1.823638884995599e-06
0.035,0.00016698272400000026,-0.7856445150000004,4.019718179999913e-05,-2.3553180999999994,9.307419739999913e-05,1.57099101,0.786,0.04,0.04,-9.83217690000001,0.0007077360409306159,0.00744396914000669,3.4112089999659985e-06,-0.0033158103935375725,2.004787769993109e-06
0.0375,0.00016697446500000025,-0.7856299125000005,4.022382449999915e-05,-2.3553302499999993,9.310064449999916e-05,1.570990575,0.786,0.04,0.04,-9.831887250000008,0.0007231340860011098,0.007239622850006505,4.449712999966941e-06,-0.003451645839955026,2.2152552749933002e-06
0.04,0.00016696620600000026,-0.7856153100000004,4.0250467199999177e-05,-2.3553423999999996,9.312709159999918e-05,1.57099014,0.786,0.04,0.04,-9.83159760000001,0.0007385321310716038,0.007035276560006318,5.4882169999678865e-06,-0.0035874812863724796,2.4257227799934918e-06
0.0425,0.00016695794700000025,-0.7856007075000004,4.02771098999992e-05,-2.3553545499999995,9.315353869999921e-05,1.5709897050000001,0.786,0.04,0.04,-9.831307950000008,0.0007539301761420979,0.006830930270006133,6.526720999968831e-06,-0.003723316732789933,2.6361902849936833e-06
0.045,0.00016694968800000024,-0.7855861050000005,4.0303752599999224e-05,-2.3553667,9.317998579999923e-05,1.57098927,0.786,0.04,0.04,-9.831018300000009,0.0007693282212125919,0.006626583980005947,7.565224999969774e-06,-0.003859152179207386,2.8466577899938744e-06
0.0475,0.00016694142900000022,-0.7855715025000004,4.0330395299999245e-05,-2.3553788499999997,9.320643289999926e-05,1.570988835,0.786,0.04,0.04,-9.830728650000008,0.0007847262662830859,0.006422237690005762,8.60372899997072e-06,-0.00399498762562484,3.057125294994066e-06
0.05,0.0001669331700000002,-0.7855569000000004,4.035703799999927e-05,-2.3553909999999996,9.323287999999928e-05,1.5709884,0.786,0.04,0.04,-9.830439000000007,0.0008001243113535799,0.006217891400005575,9.642232999971666e-06,-0.004130823072042294,3.2675927999942575e-06
0.0525,0.00016691393700000063,-0.7855434555000005,4.0417638599997985e-05,-2.3554021599999997,9.328822549999816e-05,1.5709879800000002,0.786,0.04,0.04,-9.83014935000001,0.0008227251004419947,0.006035000090006072,1.1650318849933336e-05,-0.004254604922603396,3.6049851299887995e-06
0.055,0.00016689470400000074,-0.7855300110000005,4.0478239199997626e-05,-2.3554133199999994,9.334357099999783e-05,1.57098756,0.786,0.04,0.04,-9.82985970000001,0.0008453258895306061,0.005852108780007153,1.3658404699921467e-05,-0.004378386773164169,3.9423774599868055e-06
0.0575,0.00016687547100000086,-0.7855165665000007,4.053883979999727e-05,-2.3554244799999995,9.33989164999975e-05,1.57098714,0.786,0.04,0.04,-9.829570050000013,0.0008679266786192176,0.0056692174700082336,1.5666490549909598e-05,-0.004502168623724942,4.279769789984811e-06
0.06,0.00016685623800000098,-0.7855031220000007,4.0599440399996916e-05,-2.3554356399999996,9.345426199999718e-05,1.57098672,0.786,0.04,0.04,-9.829280400000014,0.000890527467707829,0.005486326160009315,1.7674576399897722e-05,-0.004625950474285716,4.617162119982816e-06
0.0625,0.0001668370050000011,-0.7854896775000008,4.066004099999656e-05,-2.3554467999999993,9.350960749999686e-05,1.5709863,0.786,0.04,0.04,-9.828990750000017,0.0009131282567964403,0.005303434850010396,1.9682662249885856e-05,-0.004749732324846489,4.954554449980821e-06
0.065,0.0001668177720000012,-0.7854762330000009,4.07206415999962e-05,-2.3554579599999994,9.356495299999653e-05,1.57098588,0.786,0.04,0.04,-9.828701100000018,0.0009357290458850518,0.005120543540011477,2.1690748099873984e-05,-0.004873514175407262,5.291946779978827e-06
0.0675,0.00016679279850000226,-0.7854631480000008,4.0799379599992885e-05,-2.3554687849999993,9.363563179999373e-05,1.570985455,0.786000095,0.04,0.04,-9.828418800000016,0.0009601750323763499,0.004942079410010489,2.413790119979435e-05,-0.004993644636117387,5.684351899968927e-06
0.07,0.00016675634400000172,-0.7854507820000006,4.091439239999456e-05,-2.3554789399999994,9.373697719999521e-05,1.57098502,0.78600038,0.04,0.04,-9.828151200000013,0.0009883114136741294,0.004772469640008021,2.7463188799842745e-05,-0.005106472317124024,6.186782599976239e-06
0.0725,0.0001667198895000012,-0.7854384160000004,4.102940519999623e-05,-2.355489095,9.383832259999669e-05,1.570984585,0.786000665,0.04,0.04,-9.827883600000009,0.0010164477949719088,0.004602859870005554,3.078847639989112e-05,-0.005219299998130661,6.689213299983548e-06
0.075,0.00016668343500000066,-0.7854260500000003,4.114441799999791e-05,-2.35549925,9.393966799999815e-05,1.5709841500000001,0.78600095,0.04,0.04,-9.827616000000004,0.0010445841762696882,0.004433250100003085,3.4113763999939515e-05,-0.0053321276791372975,7.19164399999086e-06
0.0775,0.00016664698050000012,-0.7854136840000001,4.125943079999958e-05,-2.355509405,9.404101339999963e-05,1.5709837150000001,0.7860012350000001,0.04,0.04,-9.827348400000002,0.0010727205575674676,0.004263640330000617,3.7439051599987905e-05,-0.005444955360143934,7.694074699998172e-06
0.08,0.0001666105259999996,-0.7854013179999999,4.1374443600001256e-05,-2.3555195600000003,9.414235880000111e-05,1.57098328,0.78600152,0.04,0.04,-9.827080799999997,0.0011008569388652471,0.004094030559998149,4.0764339200036296e-05,-0.005557783041150572,8.196505400005484e-06
0.0825,0.00016657407149999907,-0.7853889519999997,4.148945640000293e-05,-2.3555297150000003,9.424370420000258e-05,1.570982845,0.786001805,0.04,0.04,-9.826813199999993,0.0011289933201630265,0.0039244207899956805,4.4089626800084686e-05,-0.005670610722157209,8.698936100012796e-06
0.085,0.0001665211959999984,-0.7853772429999997,4.1656982200005114e-05,-2.3555396300000004,9.438981300000444e-05,1.5709826900000001,0.78600209,0.04,0.04,-9.826538399999993,0.0011610496207148373,0.0037637713699958807,4.765431200009719e-05,-0.005776079837235465,9.333187800018468e-06
0.08750000000000001,0.00016646010999999875,-0.7853658624999997,4.1850764500003966e-05,-2.3555494250000004,9.455830350000345e-05,1.570982675,0.786002375,0.04,0.04,-9.826259999999994,0.0011950658808933961,0.003607602124996804,5.133869600007541e-05,-0.005877869669350033,1.003335000001433e-05
0.09,0.0001663990239999991,-0.7853544819999998,4.2044546800002825e-05,-2.3555592200000004,9.472679400000245e-05,1.57098266,0.7860026600000001,0.04,0.04,-9.825981599999997,0.001229082141071955,0.0034514328799977274,5.502308000005361e-05,-0.005979659501464601,1.0733512200010187e-05
0.0925,0.00016633793799999947,-0.7853431014999999,4.2238329100001677e-05,-2.355569015,9.489528450000146e-05,1.570982645,0.786002945,0.04,0.04,-9.825703199999998,0.001263098401250514,0.0032952636349986505,5.8707464000031836e-05,-0.0060814493335791696,1.1433674400006048e-05
0.095,0.00016627685199999983,-0.7853317209999999,4.243211140000053e-05,-2.35557881,9.506377500000046e-05,1.57098263,0.78600323,0.04,0.04,-9.8254248,0.0012971146614290728,0.0031390943899995737,6.239184800001005e-05,-0.0061832391656937375,1.2133836600001911e-05
0.0975,0.00016621576600000019,-0.7853203405,4.262589369999939e-05,-2.355588605,9.523226549999947e-05,1.570982615,0.786003515,0.04,0.04,-9.825146400000001,0.0013311309216076318,0.002982925145000497,6.607623199998828e-05,-0.006285028997808306,1.2833998799997772e-05
0.1,0.00016615468000000054,-0.7853089600000001,4.281967599999824e-05,-2.3555984,9.540075599999847e-05,1.5709826,0.7860038,0.04,0.04,-9.824868000000002,0.0013651471817861908,0.00282675590000142,6.97606159999665e-05,-0.006386818829922874,1.3534160999993634e-05
0.10250000000000001,0.00016606053100000077,-0.785298496,4.3120113849997545e-05,-2.3556072799999996,9.566006999999788e-05,1.570982645,0.786004091,0.04,0.04,-9.824666400000002,0.0014045795833222123,0.0026734806350012545,7.544717059995347e-05,-0.0064788088202468366,1.4460072749992424e-05
0.105,0.0001659663820000007,-0.7852880320000001,4.3420551699997814e-05,-2.35561616,9.591938399999811e-05,1.57098269,0.786004382,0.04,0.04,-9.824464800000001,0.001444011984858283,0.0025202053700011154,8.113372519995862e-05,-0.0065707988105707105,1.538598449999326e-05
0.1075,0.0001658722330000006,-0.785277568,4.372098954999809e-05,-2.3556250399999996,9.617869799999835e-05,1.570982735,0.786004673,0.04,0.04,-9.824263200000003,0.001483444386394354,0.002366930105000976,8.68202797999638e-05,-0.006662788800894584,1.6311896249994105e-05
0.11,0.00016577808400000053,-0.7852671040000001,4.402142739999836e-05,-2.35563392,9.643801199999858e-05,1.57098278,0.786004964,0.04,0.04,-9.824061600000002,0.001522876787930425,0.0022136548400008365,9.250683439996897e-05,-0.006754778791218458,1.7237807999994946e-05
0.1125,0.00016568393500000043,-0.7852566400000001,4.4321865249998634e-05,-2.3556427999999996,9.669732599999882e-05,1.570982825,0.786005255,0.04,0.04,-9.823860000000002,0.0015623091894664959,0.002060379575000697,9.819338899997415e-05,-0.006846768781542331,1.816371974999579e-05
0.115,0.00016558978600000036,-0.785246176,4.462230309999891e-05,-2.35565168,9.695663999999905e-05,1.57098287,0.786005546,0.04,0.04,-9.823658400000001,0.0016017415910025666,0.0019071043100005575,0.00010387994359997932,-0.006938758771866205,1.9089631499996633e-05
0.11750000000000001,0.00016548150950000006,-0.7852359885,4.49686285499998e-05,-2.3556604849999996,9.725547669999983e-05,1.57098293,0.7860059305,0.04,0.03999999975,-9.82343385,0.00164281053002914,0.0017603879370000604,0.00011035974999999636,-0.007027180190198068,2.0137442399999417e-05
0.12,0.00016534497799999901,-0.785226354,4.540672920000319e-05,-2.35566914,9.763335880000275e-05,1.57098302,0.786006502,0.04,0.039999999,-9.823163399999999,0.0016871525440367626,0.0016267893479990283,0.00011842606000005868,-0.007108464464545812,2.1429051600009395e-05
0.1225,0.00016520844649999797,-0.7852167194999998,4.584482985000657e-05,-2.355677795,9.801124090000567e-05,1.57098311,0.7860070735,0.04,0.03999999825,-9.822892949999996,0.0017314945580443855,0.0014931907589979952,0.00012649237000012106,-0.007189748738893555,2.272066080001938e-05
0.125,0.0001650719149999969,-0.7852070849999998,4.6282930500009965e-05,-2.35568645,9.838912300000858e-05,1.5709832000000001,0.786007645,0.04,0.0399999975,-9.822622499999994,0.0017758365720520082,0.0013595921699969624,0.00013455868000018342,-0.007271033013241298,2.4012270000029367e-05
0.1275,0.00016493538349999584,-0.7851974504999998,4.672103115001335e-05,-2.355695105,9.876700510001152e-05,1.57098329,0.7860082165,0.04,0.03999999675,-9.822352049999992,0.0018201785860596312,0.0012259935809959294,0.00014262499000024579,-0.007352317287589042,2.5303879200039356e-05
0.13,0.0001647988519999948,-0.7851878159999996,4.7159131800016735e-05,-2.3557037600000004,9.914488720001443e-05,1.5709833800000002,0.786008788,0.04,0.039999996,-9.82208159999999,0.0018645206000672539,0.0010923949919948964,0.00015069130000030815,-0.007433601561936785,2.659548840004934e-05
0.1325,0.00016466232049999375,-0.7851781814999996,4.759723245002013e-05,-2.355712415,9.952276930001735e-05,1.57098347,0.7860093595,0.04,0.03999999525,-9.821811149999988,0.0019088626140748768,0.0009587964029938635,0.0001587576100003705,-0.007514885836284528,2.7887097600059327e-05
0.135,0.00016449080199999245,-0.7851690729999997,4.8149690100024396e-05,-2.3557205700000003,9.99970045000209e-05,1.5709835600000002,0.786010125,0.04,0.0399999955,-9.821603299999992,0.0019543197006005415,0.000832239678995076,0.00016773560600037756,-0.007591554801914006,2.9207880600053445e-05
0.1375,0.00016430178999999486,-0.7851602274999998,4.875932625001664e-05,-2.3557284750000003,0.00010051941625001425,1.57098365,0.7860109875,0.04,0.03999999625,-9.821426749999995,0.002000334323385106,0.0007092038874966424,0.00017716944500025745,-0.007665916113184854,3.054325050003644e-05
0.14,0.00016411277799999725,-0.7851513819999999,4.9368962400008874e-05,-2.35573638,0.00010104182800000761,1.57098374,0.78601185,0.04,0.039999997,-9.821250199999998,0.00204634894616967,0.0005861680959982089,0.00018660328400013735,-0.007740277424455703,3.187862040001944e-05
0.14250000000000002,0.00016392376599999966,-0.7851425365,4.9978598550001116e-05,-2.355744285,0.00010156423975000096,1.57098383,0.7860127124999999,0.04,0.03999999775,-9.821073649999999,0.0020923635689542343,0.00046313230449977543,0.00019603712300001722,-0.00781463873572655,3.321399030000244e-05
0.145,0.00016373475400000207,-0.7851336910000001,5.0588234699993345e-05,-2.35575219,0.00010208665149999429,1.57098392,0.7860135749999999,0.04,0.0399999985,-9.820897100000002,0.002138378191738798,0.00034009651300134335,0.000205470961999897,-0.007889000046997397,3.454936019998542e-05
0.1475,0.00016354574200000448,-0.7851248455000003,5.119787084998558e-05,-2.3557600949999995,0.00010260906324998764,1.57098401,0.7860144375,0.04,0.03999999925,-9.820720550000004,0.002184392814523362,0.00021706072150290987,0.0002149048009997769,-0.007963361358268245,3.588473009996842e-05
0.15,0.0001633567300000069,-0.7851160000000004,5.180750699997782e-05,-2.3557679999999994,0.000103131474999981,1.5709841,0.7860153,0.04,0.04,-9.820544000000007,0.002230407437307926,9.402493000447627e-05,0.00022433863999965677,-0.008037722669539093,3.722009999995142e-05
0.1525,0.00016310435650000724,-0.7851079000000003,5.262496739997658e-05,-2.355775605,0.00010383010674997998,1.570984235,0.7860164399999999,0.04,0.04,-9.820283600000007,0.002281611924989513,-1.9593444496744777e-05,0.00023549261299968044,-0.008102340158073209,3.887727299995252e-05
0.155,0.00016285198300000528,-0.7850998000000002,5.34424277999829e-05,-2.35578321,0.00010452873849998538,1.57098437,0.78601758,0.04,0.04,-9.820023200000005,0.0023328164126712888,-0.00013321181899762321,0.00024664658599976667,-0.008166957646606968,4.0534445999965335e-05
0.1575,0.00016259960950000332,-0.7850917000000002,5.425988819998922e-05,-2.3557908149999998,0.00010522737024999078,1.570984505,0.78601872,0.04,0.04,-9.819762800000003,0.002384020900353065,-0.0002468301934985017,0.0002578005589998529,-0.008231575135140726,4.219161899997815e-05
0.16,0.00016234723600000138,-0.7850836000000001,5.5077348599995544e-05,-2.3557984199999997,0.00010592600199999619,1.57098464,0.78601986,0.04,0.04,-9.819502400000001,0.0024352253880348404,-0.00036044856799938014,0.0002689545319999392,-0.008296192623674486,4.384879199999096e-05
0.1625,0.00016209486249999942,-0.7850755,5.589480900000186e-05,-2.355806025,0.00010662463375000159,1.570984775,0.786021,0.04,0.04,-9.819242,0.0024864298757166165,-0.0004740669425002586,0.0002801085050000254,-0.008360810112208246,4.550596500000377e-05
0.165,0.00016184248899999746,-0.7850674,5.671226940000818e-05,-2.35581363,0.00010732326550000699,1.5709849100000002,0.78602214,0.04,0.04,-9.818981599999997,0.0025376343633983925,-0.0005876853170011369,0.00029126247800011164,-0.008425427600742006,4.716313800001659e-05
0.1675,0.00016156516799999493,-0.7850595249999999,5.761182935001645e-05,-2.355821215,0.00010809203120001406,1.57098504,0.786023377,0.04,0.04,-9.818742499999997,0.002590347488877212,-0.0006979571100016019,0.0003031094555002047,-0.00848758881911721,4.8991982000033595e-05
0.17,0.00016123795199999463,-0.7850520999999999,5.867558840001742e-05,-2.35582876,0.00010900106480001488,1.57098516,0.786024808,0.04,0.04,-9.818545999999998,0.0026460778899499125,-0.0008015357400016961,0.0003163424420002167,-0.008544837497175637,5.1164168000035575e-05
0.17250000000000001,0.00016091073599999435,-0.7850446749999999,5.973934745001839e-05,-2.355836305,0.00010991009840001571,1.5709852800000002,0.786026239,0.04,0.04,-9.818349499999997,0.002701808291022613,-0.0009051143700017905,0.00032957542850022876,-0.008602086175234065,5.333635400003755e-05
0.17500000000000002,0.00016058351999999405,-0.7850372499999999,6.080310650001936e-05,-2.3558438500000003,0.00011081913200001655,1.5709854,0.7860276700000001,0.04,0.04,-9.818152999999997,0.002757538692095314,-0.0010086930000018847,0.0003428084150002408,-0.008659334853292492,5.550854000003953e-05
0.1775,0.00016025630399999375,-0.7850298249999998,6.186686555002032e-05,-2.355851395,0.00011172816560001735,1.57098552,0.786029101,0.04,0.04,-9.817956499999998,0.0028132690931680143,-0.0011122716300019778,0.0003560414015002527,-0.008716583531350918,5.768072600004148e-05
0.18,0.00015992908799999345,-0.7850223999999999,6.293062460002129e-05,-2.3558589400000005,0.00011263719920001819,1.5709856400000002,0.7860305320000001,0.04,0.04,-9.817759999999996,0.002868999494240715,-0.0012158502600020723,0.0003692743880002648,-0.008773832209409346,5.985291200004346e-05
0.1825,0.00015960187199999317,-0.7850149749999998,6.399438365002226e-05,-2.3558664850000004,0.00011354623280001901,1.5709857600000001,0.7860319630000001,0.04,0.04,-9.817563499999997,0.002924729895313416,-0.0013194288900021667,0.00038250737450027685,-0.008831080887467773,6.202509800004543e-05
0.185,0.00015921672899999286,-0.7850079499999999,6.524926200002333e-05,-2.3558739600000003,0.00011461983710001998,1.57098589,0.786033662,0.04,0.039999999,-9.817381499999998,0.002981854765676879,-0.0014204463400017235,0.00039734313300027023,-0.008884126693011122,6.45045920000455e-05
0.1875,0.0001588026224999953,-0.785001125,6.659970000001535e-05,-2.3558814000000003,0.00011577572675001314,1.570986025,0.786035495,0.04,0.0399999975,-9.817206749999999,0.0030396768706856575,-0.0015201832000011337,0.0004129802775001778,-0.00893507106229713,6.713774000002994e-05
0.19,0.00015838851599999775,-0.7849942999999999,6.795013800000738e-05,-2.35588884,0.00011693161640000631,1.5709861600000001,0.786037328,0.04,0.039999996,-9.817032,0.0030974989756944356,-0.0016199200600005444,0.0004286174220000854,-0.008986015431583139,6.977088800001437e-05
0.1925,0.0001579744095000002,-0.784987475,6.93005759999994e-05,-2.35589628,0.00011808750604999948,1.570986295,0.786039161,0.04,0.0399999945,-9.81685725,0.0031553210807032136,-0.0017196569199999547,0.00044425456649999296,-0.009036959800869148,7.24040359999988e-05
0.195,0.00015756030300000264,-0.7849806500000001,7.06510139999914e-05,-2.3559037199999997,0.00011924339569999265,1.57098643,0.7860409939999999,0.04,0.039999993,-9.8166825,0.003213143185711992,-0.0018193937799993653,0.0004598917109999005,-0.009087904170155156,7.503718399998324e-05
0.1975,0.00015714619650000509,-0.784973825,7.200145199998343e-05,-2.35591116,0.00012039928534998581,1.570986565,0.7860428269999999,0.04,0.0399999915,-9.816507750000003,0.00327096529072077,-0.0019191306399987756,0.00047552885549980806,-0.009138848539441165,7.767033199996767e-05
0.2,0.00015673209000000753,-0.7849670000000001,7.335188999997545e-05,-2.3559186,0.00012155517499997898,1.5709867,0.78604466,0.04,0.03999999,-9.816333000000004,0.0033287873957295482,-0.0020188674999981862,0.0004911659999997156,-0.009189792908727174,8.030347999995212e-05
0.2025,0.00015621865650000186,-0.78496076,7.50311669999939e-05,-2.35592604,0.0001229868387499948,1.57098685,0.7860469459999999,0.04,0.0399999915,-9.81615105,0.0033859645831396425,-0.0021174507699996416,0.0005090856449999349,-0.00923432526178639,8.270782849999126e-05
0.20500000000000002,0.00015570522299999438,-0.7849545199999999,7.671044400001834e-05,-2.35593348,0.00012441850250001564,1.570987,0.786049232,0.04,0.039999993,-9.815969099999998,0.0034431417705497245,-0.0022160340400010766,0.0005270052900001957,-0.009278857614845487,8.511217700002626e-05
0.20750000000000002,0.00015519178949998692,-0.7849482799999998,7.838972100004278e-05,-2.35594092,0.00012585016625003647,1.57098715,0.7860515180000001,0.04,0.0399999945,-9.815787149999995,0.0035003189579598066,-0.0023146173100025112,0.0005449249350004565,-0.009323389967904584,8.751652550006125e-05
0.21,0.00015467835599997947,-0.7849420399999998,8.00689980000672e-05,-2.35594836,0.0001272818300000573,1.5709873,0.7860538040000001,0.04,0.039999996,-9.815605199999993,0.003557496145369888,-0.002413200580003945,0.0005628445800007171,-0.009367922320963682,8.99208740000962e-05
0.2125,0.00015416492249997198,-0.7849357999999996,8.174827500009163e-05,-2.3559558000000003,0.00012871349375007812,1.57098745,0.7860560900000001,0.04,0.0399999975,-9.81542324999999,0.00361467333277997,-0.0025117838500053795,0.0005807642250009778,-0.009412454674022781,9.23252225001312e-05
0.215,0.00015365148899996453,-0.7849295599999996,8.342755200011607e-05,-2.3559632400000003,0.00013014515750009895,1.5709876,0.7860583760000002,0.04,0.039999999,-9.815241299999988,0.0036718505201900524,-0.002610367120006814,0.0005986838700012386,-0.009456987027081878,9.47295710001662e-05
0.2175,0.00015310061149995192,-0.7849234924999996,8.523092750015766e-05,-2.3559706800000004,0.00013168244200013437,1.57098792,0.7860608400000002,0.03999999975,0.04,-9.815061749999987,0.0037315366324086776,-0.002707518470007246,0.0006173672050015532,-0.009499486675488854,9.736877150023893e-05
0.22,0.0001524748459999556,-0.7849177699999996,8.728250000014553e-05,-2.3559781200000005,0.00013343096800012404,1.57098858,0.7860636600000003,0.039999999,0.04,-9.814886999999988,0.00379624059424261,-0.0028018059800066887,0.0006375779200014338,-0.009537920914593026,0.00010047767600022056
0.2225,0.0001518490804999593,-0.7849120474999997,8.933407250013341e-05,-2.3559855600000006,0.00013517949400011368,1.57098924,0.7860664800000002,0.03999999825,0.04,-9.814712249999989,0.0038609445560765427,-0.0028960934900061318,0.0006577886350013143,-0.009576355153697199,0.00010358658050020218
0.225,0.00015122331499996302,-0.7849063249999997,9.138564500012129e-05,-2.3559930000000002,0.00013692802000010335,1.5709899,0.7860693000000002,0.0399999975,0.04,-9.81453749999999,0.003925648517910475,-0.0029903810000055744,0.0006779993500011948,-0.009614789392801372,0.0001066954850001838
0.2275,0.0001505975494999667,-0.7849006024999997,9.343721750010916e-05,-2.3560004400000003,0.00013867654600009302,1.57099056,0.7860721200000002,0.03999999675,0.04,-9.81436274999999,0.003990352479744407,-0.003084668510005017,0.0006982100650010754,-0.009653223631905544,0.00010980438950016542
0.23,0.0001499717839999704,-0.7848948799999997,9.548879000009704e-05,-2.3560078800000004,0.0001404250720000827,1.57099122,0.7860749400000001,0.039999996,0.04,-9.814187999999993,0.00405505644157834,-0.0031789560200044596,0.0007184207800009559,-0.009691657871009717,0.00011291329400014704
0.2325,0.00014934601849997408,-0.7848891574999998,9.754036250008491e-05,-2.3560153200000005,0.00014217359800007236,1.57099188,0.7860777600000002,0.03999999525,0.04,-9.814013249999993,0.004119760403412272,-0.003273243530003902,0.0007386314950008364,-0.00973009211011389,0.00011602219850012867
0.23500000000000001,0.0001486365169999699,-0.7848837649999998,9.98699790000988e-05,-2.3560227900000004,0.00014415864700008418,1.57099257,0.7860809460000001,0.039999994500000004,0.04,-9.813827299999993,0.004184061847629715,-0.003372895260004096,0.0007604049000009027,-0.009762977715582854,0.00011930018600013458
0.23750000000000002,0.00014788514749996924,-0.7848785374999998,0.00010233861750010106,-2.356030275,0.0001462619575000861,1.570993275,0.7860843150000001,0.039999993750000004,0.04,-9.813635749999992,0.004248162033038949,-0.0034752291000041888,0.0007829596500009233,-0.009793089004234708,0.00012266271500013763
0.24,0.00014713377799996857,-0.7848733099999998,0.00010480725600010327,-2.3560377600000004,0.000148365268000088,1.5709939800000001,0.7860876840000002,0.039999993000000005,0.04,-9.813444199999992,0.004312262218448181,-0.003577562940004281,0.0008055144000009435,-0.00982320029288656,0.00012602524400014066
0.2425,0.0001463824084999679,-0.7848680824999998,0.00010727589450010552,-2.3560452450000002,0.00015046857850008988,1.570994685,0.7860910530000002,0.03999999225,0.04,-9.813252649999992,0.0043763624038574145,-0.003679896780004374,0.0008280691500009641,-0.009853311581538411,0.00012938777300014373
0.245,0.0001456310389999672,-0.7848628549999997,0.00010974453300010777,-2.3560527300000005,0.0001525718890000918,1.57099539,0.7860944220000001,0.0399999915,0.04,-9.813061099999992,0.004440462589266648,-0.003782230620004467,0.0008506239000009847,-0.009883422870190265,0.0001327503020001468
0.2475,0.00014487966949996653,-0.7848576274999998,0.00011221317150011002,-2.3560602150000003,0.00015467519950009372,1.5709960950000001,0.7860977910000001,0.03999999075,0.04,-9.812869549999991,0.004504562774675881,-0.00388456446000456,0.0008731786500010051,-0.009913534158842116,0.00013611283100014985
0.25,0.0001441282999999595,-0.7848523999999998,0.0001146818100001333,-2.3560677000000005,0.00015677851000011356,1.5709968,0.7861011600000002,0.03999999,0.04,-9.812677999999991,0.0045686629600851375,-0.003986898300003786,0.0008957334000011406,-0.009943645447493703,0.00013947536000017603
0.2525,0.00014323772149995264,-0.7848475999999998,0.00011761328850015598,-2.3560752750000007,0.00015927571600013286,1.570997505,0.7861051485000002,0.0399999897,0.03999999925,-9.812501524999991,0.004633255512456971,-0.00407016085500443,0.0009208147950013346,-0.00996790379285941,0.00014334641300020595
0.255,0.00014234714299994573,-0.7848427999999997,0.00012054476700017864,-2.3560828500000004,0.00016177292200015217,1.5709982100000002,0.7861091370000002,0.0399999894,0.0399999985,-9.81232504999999,0.004697848064828806,-0.004153423410005074,0.0009458961900015284,-0.009992162138225118,0.00014721746600023587
0.2575,0.00014145656449993885,-0.7848379999999997,0.0001234762455002013,-2.3560904250000005,0.00016427012800017147,1.570998915,0.7861131255000002,0.0399999891,0.03999999775,-9.812148574999988,0.00476244061720064,-0.004236685965005717,0.0009709775850017223,-0.010016420483590825,0.00015108851900026582
0.26,0.00014056598599993198,-0.7848331999999996,0.00012640772400022396,-2.3560980000000007,0.00016676733400019077,1.57099962,0.7861171140000003,0.0399999888,0.039999997,-9.811972099999986,0.004827033169572475,-0.004319948520006361,0.0009960589800019162,-0.010040678828956533,0.00015495957200029574
0.2625,0.00013967540749992507,-0.7848283999999995,0.00012933920250024662,-2.356105575000001,0.00016926454000021007,1.571000325,0.7861211025000003,0.0399999885,0.03999999625,-9.811795624999986,0.004891625721944309,-0.004403211075007005,0.0010211403750021101,-0.010064937174322242,0.00015883062500032569
0.265,0.0001387848289999182,-0.7848235999999995,0.00013227068100026928,-2.3561131500000005,0.0001717617460002294,1.57100103,0.7861250910000004,0.0399999882,0.0399999955,-9.811619149999984,0.004956218274316144,-0.004486473630007649,0.001046221770002304,-0.01008919551968795,0.0001627016780003556
0.2675,0.00013784322949990082,-0.7848189449999996,0.00013537199300032705,-2.356120750000001,0.00017440344850027853,1.57100184,0.7861293145000005,0.0399999878,0.039999994750000004,-9.811444224999985,0.0050230787135728365,-0.004571457985008405,0.0010721658650026298,-0.010111598484219867,0.0001667020665004048
0.27,0.000136799587999907,-0.7848145799999996,0.00013881297200030672,-2.3561284000000007,0.00017733414400026123,1.5710028600000001,0.7861340080000004,0.0399999872,0.039999994000000004,-9.811272399999986,0.005094474926597264,-0.004659885940007882,0.0010998353600024664,-0.010130290687085826,0.00017096112600037964
0.2725,0.00013575594649991316,-0.7848102149999996,0.0001422539510002864,-2.356136050000001,0.0001802648395002439,1.57100388,0.7861387015000004,0.0399999866,0.039999993250000004,-9.811100574999987,0.0051658711396216925,-0.0047483138950073596,0.0011275048550023028,-0.010148982889951785,0.00017522018550035446
0.275,0.00013471230499991933,-0.7848058499999996,0.00014569493000026604,-2.3561437000000005,0.00018319553500022659,1.5710049,0.7861433950000004,0.039999986,0.0399999925,-9.810928749999988,0.00523726735264612,-0.004836741850006837,0.0011551743500021392,-0.010167675092817746,0.0001794792450003293
0.2775,0.00013366866349992547,-0.7848014849999997,0.0001491359090002457,-2.3561513500000006,0.00018612623050020925,1.57100592,0.7861480885000004,0.0399999854,0.03999999175,-9.810756924999987,0.0053086635656705485,-0.004925169805006314,0.0011828438450019758,-0.010186367295683705,0.00018373830450030412
0.28,0.00013262502199993165,-0.7847971199999997,0.00015257688800022538,-2.356159000000001,0.00018905692600019194,1.57100694,0.7861527820000004,0.0399999848,0.039999991,-9.810585099999988,0.005380059778694976,-0.005013597760005792,0.0012105133400018122,-0.010205059498549664,0.00018799736400027894
0.28250000000000003,0.00013158138049993782,-0.7847927549999997,0.00015601786700020502,-2.3561666500000005,0.0001919876215001746,1.57100796,0.7861574755000003,0.039999984200000005,0.03999999025,-9.81041327499999,0.0054514559917194045,-0.005102025715005269,0.0012381828350016486,-0.010223751701415623,0.00019225642350025377
0.28500000000000003,0.00013042635299992953,-0.7847886499999998,0.00015983009700023276,-2.3561746100000005,0.0001952341580001982,1.57100915,0.7861626700000004,0.039999983600000004,0.039999989799999996,-9.81022799999999,0.005521914921704985,-0.0051900709000051145,0.0012675680600017607,-0.010237599164248105,0.0001967770490002708
0.28750000000000003,0.00012921563249992842,-0.7847846749999997,0.0001638279525002364,-2.3561827250000005,0.0001986386150002013,1.571010425,0.7861681150000004,0.039999983,0.0399999895,-9.81003599999999,0.0055919052101712635,-0.005277924700005195,0.0012978111500017882,-0.010249024257064475,0.00020142845750027502
0.29,0.00012800491199992732,-0.7847806999999998,0.00016782580800023996,-2.3561908400000005,0.0002020430720002043,1.5710117000000001,0.7861735600000004,0.0399999824,0.0399999892,-9.80984399999999,0.005661895498637541,-0.005365778500005273,0.001328054240001815,-0.010260449349880846,0.00020607986600027915
0.2925,0.00012679419149992622,-0.7847767249999997,0.00017182366350024358,-2.3561989550000004,0.00020544752900020742,1.571012975,0.7861790050000004,0.0399999818,0.0399999889,-9.809651999999987,0.0057318857871038196,-0.005453632300005353,0.0013582973300018425,-0.010271874442697216,0.0002107312745002834
0.295,0.00012558347099992512,-0.7847727499999998,0.00017582151900024723,-2.3562070700000004,0.0002088519860002105,1.57101425,0.7861844500000004,0.0399999812,0.0399999886,-9.809459999999987,0.005801876075570098,-0.005541486100005433,0.0013885404200018703,-0.010283299535513586,0.00021538268300028764
0.2975,0.00012437275049992402,-0.7847687749999998,0.00017981937450025086,-2.3562151850000004,0.00021225644300021363,1.571015525,0.7861898950000004,0.0399999806,0.0399999883,-9.809267999999987,0.005871866364036377,-0.005629339900005513,0.0014187835100018978,-0.010294724628329957,0.00022003409150029188
0.3,0.0001231620299999114,-0.7847647999999998,0.000183817230000293,-2.3562233000000004,0.00021566090000024946,1.5710168,0.7861953400000005,0.03999998,0.039999988,-9.80907599999999,0.005941856652502704,-0.0057171937000053295,0.001449026600002091,-0.010306149721145992,0.00022468550000031326
0.3025,0.00012176999999991011,-0.7847611999999998,0.0001884198975002972,-2.3562320300000006,0.00021957982100025304,1.5710180900000001,0.7862015980000004,0.039999979549999995,0.039999988,-9.80892869999999,0.006012606900189868,-0.005800905895005406,0.001481873120002121,-0.010312312655151253,0.00022960613000031773
0.305,0.00012037796999990885,-0.7847575999999998,0.00019302256500030137,-2.3562407600000004,0.0002234987420002566,1.57101938,0.7862078560000004,0.0399999791,0.039999988,-9.80878139999999,0.006083357147877033,-0.005884618090005482,0.0015147196400021508,-0.010318475589156514,0.0002345267600003222
0.3075,0.00011898593999990758,-0.7847539999999998,0.00019762523250030557,-2.3562494900000006,0.00022741766300026018,1.57102067,0.7862141140000004,0.03999997865,0.039999988,-9.80863409999999,0.0061541073955641975,-0.005968330285005558,0.0015475661600021808,-0.010324638523161775,0.00023944739000032668
0.31,0.00011759390999990632,-0.7847503999999997,0.00020222790000030977,-2.356258220000001,0.00023133658400026374,1.57102196,0.7862203720000005,0.0399999782,0.039999988,-9.80848679999999,0.006224857643251361,-0.006052042480005635,0.0015804126800022106,-0.010330801457167036,0.00024436802000033116
0.3125,0.00011620187999990505,-0.7847467999999997,0.00020683056750031396,-2.3562669500000006,0.00023525550500026732,1.57102325,0.7862266300000005,0.03999997775,0.039999988,-9.80833949999999,0.006295607890938526,-0.00613575467500571,0.0016132592000022406,-0.010336964391172297,0.00024928865000033564
0.315,0.00011480984999990379,-0.7847431999999998,0.00021143323500031813,-2.356275680000001,0.0002391744260002709,1.57102454,0.7862328880000005,0.039999977299999996,0.039999988,-9.80819219999999,0.00636635813862569,-0.006219466870005787,0.0016461057200022704,-0.010343127325177556,0.0002542092800003401
0.3175,0.00011335260599989243,-0.7847397124999997,0.00021625362500035612,-2.356284445000001,0.0002432785830003032,1.571025945,0.7862394440000006,0.039999976799999996,0.0399999878,-9.808052549999992,0.00643817088567216,-0.006302605650005556,0.001679844510002407,-0.010348104080185407,0.00025930687500036936
0.32,0.00011176493399990182,-0.7847364499999998,0.00022150946000032505,-2.3562932800000005,0.0002477532120002768,1.57102758,0.7862465960000005,0.0399999762,0.0399999872,-9.807928199999992,0.006512108631436572,-0.006384597600005071,0.0017153678400021971,-0.010350708477199181,0.00026475840000033714
0.3225,0.00011017726199991119,-0.7847331874999999,0.000226765295000294,-2.3563021150000005,0.00025222784100025034,1.571029215,0.7862537480000005,0.0399999756,0.0399999866,-9.807803849999994,0.006586046377200986,-0.006466589550004586,0.0017508911700019872,-0.010353312874212955,0.0002702099250003049
0.325,0.00010858958999992057,-0.7847299249999998,0.00023202113000026292,-2.3563109500000006,0.0002567024700002239,1.57103085,0.7862609000000004,0.039999975,0.039999986,-9.807679499999994,0.006659984122965399,-0.006548581500004102,0.001786414500001777,-0.010355917271226731,0.0002756614500002727
0.3275,0.00010700191799992995,-0.7847266624999999,0.00023727696500023185,-2.3563197850000006,0.00026117709900019744,1.5710324850000001,0.7862680520000004,0.0399999744,0.0399999854,-9.807555149999994,0.0067339218687298115,-0.0066305734500036176,0.001821937830001567,-0.010358521668240505,0.00028111297500024046
0.33,0.00010541424599993934,-0.7847233999999998,0.0002425328000002008,-2.3563286200000007,0.000265651728000171,1.57103412,0.7862752040000003,0.0399999738,0.0399999848,-9.807430799999995,0.006807859614494225,-0.006712565400003132,0.0018574611600013571,-0.01036112606525428,0.00028656450000020823
0.3325,0.00010382657399994872,-0.7847201374999999,0.0002477886350001697,-2.3563374550000002,0.00027012635700014454,1.571035755,0.7862823560000003,0.039999973200000004,0.039999984200000005,-9.807306449999995,0.006881797360258637,-0.006794557350002648,0.0018929844900011472,-0.010363730462268054,0.00029201602500017606
0.335,0.00010209886599993621,-0.7847170949999999,0.00025351235900021135,-2.3563469800000005,0.00027499898200017994,1.5710375300000001,0.7862901360000003,0.039999972700000004,0.039999983600000004,-9.807131099999992,0.006956071686002211,-0.006882621130003232,0.0019302338600013522,-0.0103614229708908,0.00029773624500020767
0.3375,0.00010030113999992231,-0.7847141624999998,0.0002594700275002574,-2.3563568500000005,0.0002800706050002192,1.571039375,0.7862982300000003,0.03999997225,0.039999983,-9.80693024999999,0.0070305143017353414,-0.006973720825003936,0.0019683462500016467,-0.01035665953531837,0.00030359081250025296
0.34,9.850341399990841e-05,-0.7847112299999999,0.0002654276960003035,-2.3563667200000005,0.0002851422280002584,1.5710412200000001,0.7863063240000004,0.0399999718,0.0399999824,-9.80672939999999,0.007104956917468472,-0.00706482052000464,0.0020064586400019412,-0.010351896099745938,0.0003094453800002982
0.3425,9.670568799989453e-05,-0.7847082974999998,0.00027138536450034957,-2.3563765900000004,0.00029021385100029757,1.571043065,0.7863144180000005,0.03999997135,0.0399999818,-9.806528549999987,0.007179399533201603,-0.007155920215005345,0.002044571030002236,-0.010347132664173506,0.0003152999475003435
0.34500000000000003,9.490796199988063e-05,-0.7847053649999998,0.00027734303300039565,-2.3563864600000004,0.00029528547400033676,1.5710449100000001,0.7863225120000005,0.0399999709,0.0399999812,-9.806327699999986,0.007253842148934733,-0.007247019910006049,0.0020826834200025307,-0.010342369228601074,0.0003211545150003887
0.34750000000000003,9.311023599986672e-05,-0.7847024324999998,0.0002833007015004417,-2.356396330000001,0.000300357097000376,1.571046755,0.7863306060000006,0.039999970450000005,0.0399999806,-9.806126849999984,0.007328284764667864,-0.007338119605006754,0.002120795810002825,-0.010337605793028642,0.000327009082500434
0.35000000000000003,9.131250999983445e-05,-0.7846994999999998,0.0002892583700005492,-2.356406200000001,0.00030542872000046745,1.5710486000000001,0.7863387000000007,0.03999997,0.03999998,-9.805925999999992,0.007402727380401074,-0.007429219300006999,0.0021589082000033487,-0.010332842357455983,0.0003328636500005124
0.3525,8.929025949983265e-05,-0.7846968749999997,0.0002959667255005552,-2.356416430000001,0.00031113887950047253,1.5710504600000001,0.7863478350000007,0.039999968500000004,0.03999997895,-9.805837799999992,0.0074781396426322555,-0.007514723155007076,0.002199814745003385,-0.010325300740077387,0.000339123343500518
0.355,8.726800899983081e-05,-0.7846942499999998,0.00030267508100056126,-2.356426660000001,0.0003168490390004777,1.5710523200000002,0.7863569700000007,0.039999967000000004,0.0399999779,-9.805749599999993,0.00755355190486344,-0.007600227010007153,0.0022407212900034225,-0.01031775912269879,0.00034538303700052374
0.3575,8.524575849982896e-05,-0.7846916249999998,0.0003093834365005674,-2.356436890000001,0.00032255919850048296,1.5710541800000002,0.7863661050000007,0.039999965500000005,0.03999997685,-9.805661399999993,0.007628964167094623,-0.007685730865007232,0.0022816278350034597,-0.010310217505320192,0.0003516427305005294
0.36,8.322350799982713e-05,-0.7846889999999997,0.0003160917920005735,-2.356447120000001,0.00032826935800048815,1.5710560400000002,0.7863752400000007,0.039999964,0.0399999758,-9.805573199999992,0.007704376429325807,-0.007771234720007309,0.0023225343800034968,-0.010302675887941596,0.0003579024240005351
0.3625,8.120125749982528e-05,-0.7846863749999997,0.0003228001475005796,-2.356457350000001,0.00033397951750049334,1.5710579000000002,0.7863843750000008,0.0399999625,0.03999997475,-9.805484999999992,0.007779788691556991,-0.007856738575007387,0.0023634409250035343,-0.010295134270562998,0.00036416211750054083
0.365,7.917900699982343e-05,-0.7846837499999998,0.0003295085030005857,-2.3564675800000012,0.00033968967700049853,1.5710597600000002,0.7863935100000008,0.039999961,0.039999973700000004,-9.805396799999993,0.007855200953788175,-0.007942242430007466,0.0024043474700035715,-0.010287592653184402,0.0003704218110005465
0.3675,7.707708149980565e-05,-0.7846812119999997,0.0003364834005006453,-2.3564780950000013,0.0003456265215005492,1.5710618050000003,0.7864030050000008,0.039999959700000004,0.03999997285,-9.805280299999986,0.007930789468816478,-0.008028746750007606,0.002446089215003731,-0.010278414189814384,0.00037677327300056167
0.37,7.481580599981902e-05,-0.7846788479999998,0.0003439913820006009,-2.356489180000001,0.00035201673600051143,1.5710642200000002,0.7864132200000008,0.0399999588,0.0399999724,-9.805107199999986,0.008006730489438878,-0.008117252000007083,0.0024895013600034744,-0.010265962034462823,0.000383308272000523
0.3725,7.255453049983239e-05,-0.7846764839999998,0.00035149936350055655,-2.356500265000001,0.00035840695050047365,1.5710666350000002,0.7864234350000008,0.0399999579,0.039999971950000004,-9.804934099999988,0.00808267151006128,-0.00820575725000656,0.002532913505003218,-0.010253509879111262,0.0003898432710004844
0.375,7.029325499984576e-05,-0.7846741199999998,0.00035900734500051215,-2.356511350000001,0.0003647971650004359,1.5710690500000002,0.7864336500000007,0.039999956999999996,0.0399999715,-9.804760999999989,0.00815861253068368,-0.008294262500006037,0.002576325650002961,-0.010241057723759701,0.00039637827000044574
0.3775,6.803197949985912e-05,-0.7846717559999998,0.00036651532650046776,-2.356522435000001,0.0003711873795003981,1.5710714650000002,0.7864438650000006,0.0399999561,0.03999997105,-9.804587899999989,0.008234553551306081,-0.008382767750005514,0.0026197377950027047,-0.01022860556840814,0.00040291326900040715
0.38,6.577070399987248e-05,-0.7846693919999999,0.00037402330800042336,-2.3565335200000006,0.0003775775940003604,1.5710738800000001,0.7864540800000006,0.0399999552,0.039999970600000004,-9.80441479999999,0.008310494571928482,-0.00847127300000499,0.002663149940002448,-0.010216153413056579,0.0004094482680003685
0.3825,6.350942849988585e-05,-0.7846670279999999,0.00038153128950037897,-2.3565446050000007,0.0003839678085003226,1.5710762950000001,0.7864642950000005,0.039999954299999994,0.03999997015,-9.804241699999992,0.008386435592550884,-0.008559778250004467,0.002706562085002191,-0.010203701257705016,0.00041598326700032986
0.385,6.107914099985361e-05,-0.7846648509999998,0.0003896049750004864,-2.356556410000001,0.00039083923200041403,1.57107872,0.7864752670000007,0.039999953299999995,0.039999969,-9.804102199999992,0.008463599532847147,-0.008656835800005898,0.0027518119900026873,-0.010187911242245565,0.0004228732240004114
0.3875,5.856434749981701e-05,-0.7846627674999999,0.00039796151250060804,-2.3565685750000007,0.0003979512600005175,1.5710811500000001,0.7864866175000008,0.03999995225,0.039999967500000004,-9.80397949999999,0.00854137493298021,-0.008758169500007372,0.0027979807750033595,-0.01017045229673253,0.0004299406600005143
0.39,5.6049553999780416e-05,-0.7846606839999998,0.00040631805000072965,-2.356580740000001,0.000405063288000621,1.5710835800000003,0.7864979680000009,0.0399999512,0.039999966000000005,-9.80385679999999,0.00861915033311327,-0.008859503200008848,0.0028441495600040312,-0.010152993351219495,0.0004370080960006171
0.3925,5.353476049974382e-05,-0.7846586004999998,0.00041467458750085127,-2.356592905000001,0.00041217531600072453,1.5710860100000001,0.7865093185000012,0.03999995015,0.0399999645,-9.803734099999987,0.008696925733246333,-0.008960836900010323,0.002890318345004703,-0.010135534405706461,0.00044407553200071995
0.395,5.101996699970722e-05,-0.7846565169999997,0.0004230311250009729,-2.3566050700000014,0.000419287344000828,1.5710884400000003,0.7865206690000013,0.0399999491,0.039999963,-9.803611399999985,0.008774701133379395,-0.009062170600011797,0.002936487130005375,-0.010118075460193427,0.0004511429680008228
0.3975,4.850517349967062e-05,-0.7846544334999997,0.0004313876625010945,-2.3566172350000016,0.0004263993720009315,1.5710908700000004,0.7865320195000014,0.03999994805,0.0399999615,-9.803488699999985,0.008852476533512456,-0.00916350430001327,0.002982655915006047,-0.010100616514680394,0.00045821040400092567
0.4,4.599037999959503e-05,-0.7846523499999998,0.0004397442000013467,-2.356629400000002,0.00043351140000114606,1.5710933000000005,0.7865433700000017,0.039999947,0.03999996,-9.803365999999986,0.00893025193364572,-0.009264838000013697,0.0030288247000071146,-0.010083157569167044,0.000465277840001087
0.4025,4.320760804961148e-05,-0.7846504899999998,0.00044899813500129203,-2.356642525000002,0.00044138666400109954,1.5710962850000005,0.7865559490000017,0.0399999464,0.039999959700000004,-9.803270599999987,0.009009417193021433,-0.009358965550013141,0.0030777133450068258,-0.010063541121778036,0.0004727474035010429
0.405,4.0424836099627925e-05,-0.7846486299999997,0.0004582520700012373,-2.3566556500000018,0.00044926192800105296,1.5710992700000004,0.7865685280000017,0.0399999458,0.0399999594,-9.803175199999988,0.009088582452397144,-0.009453093100012584,0.003126601990006537,-0.010043924674389026,0.00048021696700099875
0.40750000000000003,3.7642064149644374e-05,-0.7846467699999997,0.00046750600500118265,-2.3566687750000015,0.00045713719200100644,1.5711022550000004,0.7865811070000016,0.039999945200000005,0.0399999591,-9.803079799999988,0.009167747711772856,-0.009547220650012029,0.0031754906350062477,-0.010024308227000019,0.00048768653050095456
0.41000000000000003,3.485929219966082e-05,-0.7846449099999998,0.00047675994000112793,-2.3566819000000017,0.00046501245600095986,1.5711052400000005,0.7865936860000016,0.039999944600000004,0.0399999588,-9.802984399999989,0.009246912971148569,-0.009641348200011472,0.003224379280005959,-0.010004691779611009,0.0004951560940009104
0.41250000000000003,3.207652024967727e-05,-0.7846430499999998,0.0004860138750010732,-2.3566950250000014,0.00047288772000091334,1.5711082250000004,0.7866062650000014,0.039999944,0.0399999585,-9.80288899999999,0.00932607823052428,-0.009735475750010917,0.00327326792500567,-0.009985075332222001,0.0005026256575008663
0.41500000000000004,2.929374829969372e-05,-0.7846411899999998,0.0004952678100010185,-2.3567081500000016,0.00048076298400086677,1.5711112100000004,0.7866188440000014,0.0399999434,0.039999958200000005,-9.80279359999999,0.009405243489899993,-0.00982960330001036,0.003322156570005381,-0.009965458884832992,0.0005100952210008221
0.4175,2.6416849679673858e-05,-0.7846394109999998,0.0005048370915010853,-2.3567214150000013,0.0004889064285009235,1.5711142100000004,0.7866318555000015,0.03999994265,0.0399999578,-9.802688699999987,0.009484264114879992,-0.009930529800012185,0.003371927290005484,-0.009944225009528088,0.0005176546355008235
0.42,2.3351697719671068e-05,-0.7846377939999998,0.0005150370660010947,-2.356734960000001,0.0004975862340009314,1.5711172400000004,0.7866457320000015,0.039999941600000005,0.0399999572,-9.802564799999987,0.009562995471068708,-0.010045054200012291,0.0034234621600055305,-0.009919756278392936,0.0005253937520008305
0.4225,2.0286545759668278e-05,-0.7846361769999998,0.0005252370405011039,-2.3567485050000014,0.0005062660395009393,1.5711202700000004,0.7866596085000015,0.03999994055,0.0399999566,-9.802440899999986,0.009641726827257426,-0.010159578600012395,0.0034749970300055775,-0.009895287547257782,0.0005331328685008375
0.425,1.7221393799665488e-05,-0.7846345599999998,0.0005354370150011131,-2.3567620500000013,0.0005149458450009473,1.5711233000000002,0.7866734850000016,0.0399999395,0.039999955999999996,-9.802316999999986,0.009720458183446141,-0.010274103000012498,0.0035265319000056246,-0.00987081881612263,0.0005408719850008446
0.4275,1.4156241839662696e-05,-0.7846329429999997,0.0005456369895011225,-2.3567755950000016,0.0005236256505009552,1.5711263300000002,0.7866873615000015,0.03999993845,0.0399999554,-9.802193099999986,0.00979918953963486,-0.010388627400012602,0.003578066770005671,-0.009846350084987477,0.0005486111015008516
0.43,1.1091089879659907e-05,-0.7846313259999999,0.0005558369640011317,-2.3567891400000014,0.0005323054560009631,1.5711293600000003,0.7867012380000016,0.0399999374,0.0399999548,-9.802069199999986,0.009877920895823575,-0.010503151800012706,0.0036296016400057182,-0.009821881353852325,0.0005563502180008586
0.4325,8.025937919657117e-06,-0.7846297089999998,0.000566036938501141,-2.3568026850000017,0.000540985261500971,1.5711323900000003,0.7867151145000015,0.03999993635,0.0399999542,-9.801945299999986,0.009956652252012291,-0.010617676200012811,0.0036811365100057653,-0.009797412622717173,0.0005640893345008657
0.435,4.7629668396055714e-06,-0.7846282429999998,0.0005768998670013134,-2.3568170000000017,0.0005502289670011176,1.5711357800000003,0.7867298860000018,0.0399999354,0.039999953299999995,-9.801780499999978,0.010036838706592213,-0.010724834400012139,0.003734414120006353,-0.009769546147432341,0.0005721766060009692
0.4375,1.4010861995795785e-06,-0.7846268524999999,0.0005880942725013999,-2.3568317000000016,0.0005597546225011912,1.5711393500000004,0.7867451050000019,0.0399999345,0.03999995225,-9.801595249999977,0.010117752710367368,-0.010828309500012939,0.003788563100006772,-0.009739980800073527,0.0005804379550010331
0.44,-1.9607944404464153e-06,-0.7846254619999998,0.0005992886780014865,-2.356846400000002,0.0005692802780012649,1.5711429200000004,0.7867603240000021,0.0399999336,0.0399999512,-9.801409999999976,0.010198666714142523,-0.01093178460001374,0.0038427120800071904,-0.009710415452714713,0.000588699304001097
0.4425,-5.322675080472407e-06,-0.7846240714999998,0.000610483083501573,-2.356861100000002,0.0005788059335013386,1.5711464900000005,0.7867755430000022,0.039999932700000004,0.03999995015,-9.801224749999975,0.01027958071791768,-0.01103525970001454,0.0038968610600076093,-0.0096808501053559,0.0005969606530011609
0.445,-8.6845557204984e-06,-0.7846226809999998,0.0006216774890016595,-2.3568758000000023,0.0005883315890014122,1.5711500600000006,0.7867907620000023,0.0399999318,0.0399999491,-9.801039499999971,0.010360494721692835,-0.01113873480001534,0.003951010040008028,-0.009651284757997087,0.0006052220020012248
0.4475,-1.204643636052439e-05,-0.7846212904999998,0.0006328718945017461,-2.356890500000002,0.0005978572445014858,1.5711536300000006,0.7868059810000023,0.0399999309,0.03999994805,-9.80085424999997,0.01044140872546799,-0.01124220990001614,0.004005159020008447,-0.009621719410638272,0.0006134833510012886
0.45,-1.540831700060129e-05,-0.7846198999999998,0.0006440663000020034,-2.3569052000000026,0.0006073829000017046,1.5711572000000007,0.7868212000000028,0.03999993,0.039999947,-9.800668999999981,0.010522322729243134,-0.011345685000019593,0.004059308000009302,-0.009592154063278768,0.0006217447000014162
0.4525,-1.908115445055453e-05,-0.7846187239999999,0.0006563033150018475,-2.3569210400000022,0.0006177952100015721,1.5711609800000006,0.7868378350000025,0.03999993,0.039999947,-9.800560999999982,0.010603161714983244,-0.01146536940001807,0.0041161252550085785,-0.009558365354309258,0.0006303951325013061
0.455,-2.275399190050777e-05,-0.7846175479999998,0.0006685403300016918,-2.356936880000002,0.0006282075200014396,1.5711647600000005,0.7868544700000023,0.03999993,0.039999947,-9.800452999999985,0.010684000700723355,-0.011585053800016546,0.004172942510007855,-0.009524576645339749,0.000639045565001196
0.4575,-2.6426829350461005e-05,-0.7846163719999999,0.0006807773450015359,-2.356952720000002,0.0006386198300013069,1.5711685400000006,0.7868711050000021,0.03999993,0.039999947,-9.800344999999986,0.010764839686463466,-0.011704738200015023,0.004229759765007132,-0.009490787936370239,0.0006476959975010859
0.46,-3.0099666800414246e-05,-0.7846151959999998,0.0006930143600013801,-2.3569685600000017,0.0006490321400011744,1.5711723200000005,0.7868877400000018,0.03999993,0.039999947,-9.800236999999987,0.010845678672203577,-0.011824422600013498,0.004286577020006408,-0.009456999227400729,0.0006563464300009757
0.4625,-3.377250425036748e-05,-0.7846140199999998,0.0007052513750012244,-2.3569844000000013,0.0006594444500010418,1.5711761000000004,0.7869043750000017,0.03999993,0.039999947,-9.80012899999999,0.010926517657943688,-0.011944107000011975,0.0043433942750056844,-0.00942321051843122,0.0006649968625008655
0.465,-3.744534170032072e-05,-0.7846128439999999,0.0007174883900010685,-2.3570002400000014,0.0006698567600009092,1.5711798800000003,0.7869210100000015,0.03999993,0.039999947,-9.80002099999999,0.011007356643683798,-0.012063791400010451,0.004400211530004961,-0.00938942180946171,0.0006736472950007554
0.4675,-4.122654480032547e-05,-0.7846117289999999,0.000730088825001085,-2.3570164600000014,0.0006805780865009232,1.5711837800000004,0.7869381400000015,0.0399999295,0.0399999468,-9.79991199999999,0.011088407831273137,-0.012182839500009588,0.00445790845500484,-0.009354644827541668,0.0006823829625007251
0.47000000000000003,-4.5224479200356384e-05,-0.7846107359999999,0.000743416100001188,-2.3570334400000013,0.0006919174460010109,1.5711879200000005,0.7869562600000016,0.039999928000000004,0.039999946200000004,-9.79980099999999,0.011169883422560782,-0.0123006150000105,0.0045173647200053004,-0.009317891299721263,0.000691289100000794
0.47250000000000003,-4.9222413600387294e-05,-0.7846097429999999,0.000756743375001291,-2.3570504200000015,0.0007032568055010985,1.5711920600000004,0.7869743800000017,0.039999926500000005,0.0399999456,-9.79968999999999,0.011251359013848427,-0.01241839050001141,0.00457682098500576,-0.00928113777190086,0.0007001952375008628
0.47500000000000003,-5.3220348000418205e-05,-0.7846087499999999,0.000770070650001394,-2.357067400000002,0.0007145961650011862,1.5711962000000004,0.786992500000002,0.039999925,0.039999945,-9.799578999999987,0.011332834605136073,-0.01253616600001232,0.00463627725000622,-0.009244384244080455,0.0007091013750009316
0.47750000000000004,-5.7218282400449115e-05,-0.7846077569999999,0.0007833979250014972,-2.357084380000002,0.0007259355245012738,1.5712003400000005,0.7870106200000021,0.0399999235,0.0399999444,-9.799467999999987,0.011414310196423718,-0.01265394150001323,0.004695733515006679,-0.009207630716260051,0.0007180075125010005
0.48,-6.121621680047994e-05,-0.7846067639999998,0.0007967252000015999,-2.3571013600000024,0.0007372748840013613,1.5712044800000005,0.7870287400000022,0.039999922,0.0399999438,-9.799356999999986,0.011495785787711361,-0.01277171700001414,0.004755189780007138,-0.009170877188439648,0.0007269136500010692
0.4825,-6.521415120051084e-05,-0.7846057709999998,0.0008100524750017029,-2.357118340000002,0.0007486142435014489,1.5712086200000006,0.7870468600000023,0.0399999205,0.039999943200000006,-9.799245999999986,0.011577261378999006,-0.012889492500015049,0.004814646045007597,-0.009134123660619244,0.000735819787501138
0.485,-6.943815640056799e-05,-0.7846049259999999,0.0008241381760018943,-2.3571361200000025,0.0007605986170016117,1.5712130700000007,0.7870660160000026,0.0399999205,0.0399999434,-9.799133699999985,0.011660273931931472,-0.013015125200016967,0.004875817620008124,-0.009095006063575153,0.0007450646900012329
0.4875,-7.377519700057193e-05,-0.7846041549999999,0.0008386030900019076,-2.3571543000000026,0.0007729054975016229,1.5712176750000006,0.7870856900000026,0.03999992125,0.039999944,-9.799020749999984,0.011744054965685898,-0.013144686500017086,0.00493784685000818,-0.00905470643191991,0.0007544789750012415
0.49,-7.811223760057588e-05,-0.7846033839999998,0.0008530680040019207,-2.3571724800000027,0.0007852123780016341,1.5712222800000006,0.7871053640000026,0.039999922,0.039999944600000004,-9.798907799999984,0.011827835999440324,-0.013274247800017203,0.0049998760800082365,-0.00901440680026467,0.0007638932600012501
0.4925,-8.244927820057982e-05,-0.7846026129999999,0.0008675329180019339,-2.3571906600000023,0.0007975192585016453,1.5712268850000006,0.7871250380000027,0.03999992275,0.039999945200000005,-9.798794849999984,0.01191161703319475,-0.013403809100017322,0.0050619053100082936,-0.008974107168609427,0.0007733075450012586
0.495,-8.678631880058378e-05,-0.7846018419999999,0.0008819978320019471,-2.3572088400000024,0.0008098261390016565,1.5712314900000006,0.7871447120000027,0.0399999235,0.0399999458,-9.798681899999984,0.011995398066949178,-0.013533370400017439,0.00512393454000835,-0.008933807536954186,0.0007827218300012672
0.4975,-9.112335940058773e-05,-0.7846010709999999,0.0008964627460019602,-2.3572270200000025,0.0008221330195016677,1.5712360950000006,0.7871643860000026,0.03999992425,0.0399999464,-9.798568949999984,0.012079179100703604,-0.013662931700017557,0.005185963770008406,-0.008893507905298944,0.0007921361150012758
0.5,-9.546040000063983e-05,-0.7846002999999999,0.0009109276600021349,-2.3572452000000026,0.0008344399000018163,1.5712407000000006,0.7871840600000028,0.039999925,0.039999947,-9.798455999999984,0.012162960134456996,-0.013792493000018351,0.00524799300000881,-0.008853208273643125,0.0008015504000013171
0.5025000000000001,-0.00010015039000061222,-0.784599694,0.0009265769410020428,-2.3572646850000023,0.0008477539150017379,1.5712454700000005,0.7872053300000027,0.03999992575,0.03999994805,-9.798339599999984,0.012239161971966417,-0.013927013750017559,0.00531257145000843,-0.008808674104505896,0.0008112047750012603
0.505,-0.00010484038000058439,-0.784599088,0.00094222622200195,-2.3572841700000025,0.0008610679300016589,1.5712502400000006,0.7872266000000027,0.0399999265,0.0399999491,-9.798223199999985,0.012315363809475835,-0.014061534500016761,0.005377149900008047,-0.00876413993536867,0.0008208591500012029
0.5075000000000001,-0.00010953037000055677,-0.7845984819999999,0.0009578755030018578,-2.357303655000002,0.0008743819450015805,1.5712550100000007,0.7872478700000025,0.03999992725,0.03999995015,-9.798106799999985,0.012391565646985257,-0.014196055250015969,0.005441728350007667,-0.008719605766231443,0.0008305135250011461
0.51,-0.00011422036000052895,-0.784597876,0.000973524784001765,-2.3573231400000023,0.0008876959600015016,1.5712597800000005,0.7872691400000024,0.039999928000000004,0.0399999512,-9.797990399999987,0.012467767484494675,-0.014330576000015171,0.005506306800007283,-0.008675071597094217,0.0008401679000010888
0.5125,-0.00011891035000050113,-0.78459727,0.0009891740650016722,-2.357342625000002,0.0009010099750014225,1.5712645500000006,0.7872904100000023,0.039999928750000004,0.03999995225,-9.797873999999988,0.012543969322004092,-0.014465096750014374,0.0055708852500069,-0.008630537427956992,0.0008498222750010316
0.515,-0.00012360034000047352,-0.7845966639999999,0.00100482334600158,-2.357362110000002,0.0009143239900013441,1.5712693200000005,0.7873116800000022,0.0399999295,0.039999953299999995,-9.797757599999988,0.012620171159513513,-0.014599617500013581,0.00563546370000652,-0.008586003258819763,0.0008594766500009747
0.5175,-0.00012841255250051501,-0.78459612,0.0010208828800017191,-2.357382205000002,0.0009279868650014626,1.5712742650000007,0.7873335040000023,0.03999993,0.039999954,-9.797644349999988,0.012701317528271982,-0.01473603790001428,0.005700924615006846,-0.008540748152877009,0.0008692957070010336
0.52,-0.00013346921000058872,-0.7845957,0.0010377629200019653,-2.3574035200000028,0.0009423474600016719,1.5712795600000007,0.7873564360000027,0.03999993,0.039999954,-9.797537399999987,0.01279235295952424,-0.014876257600016325,0.005768150460007827,-0.008494051173323823,0.0008794441280011815
0.5225,-0.0001385258675006622,-0.78459528,0.0010546429600022105,-2.357424835000003,0.0009567080550018806,1.5712848550000007,0.787379368000003,0.03999993,0.039999954,-9.797430449999986,0.012883388390776492,-0.015016477300018363,0.005835376305008803,-0.008447354193770639,0.000889592549001329
0.525,-0.00014358252500073587,-0.7845948599999999,0.0010715230000024566,-2.357446150000003,0.0009710686500020899,1.5712901500000007,0.7874023000000033,0.03999993,0.039999954,-9.797323499999985,0.01297442382202875,-0.015156697000020406,0.005902602150009783,-0.008400657214217455,0.0008997409700014769
0.5275,-0.00014863918250080936,-0.7845944399999999,0.0010884030400027018,-2.3574674650000036,0.0009854292450022985,1.571295445000001,0.7874252320000037,0.03999993,0.039999954,-9.797216549999984,0.013065459253281002,-0.015296916700022443,0.00596982799501076,-0.008353960234664271,0.0009098893910016244
0.53,-0.00015369584000088306,-0.7845940199999999,0.0011052830800029477,-2.3574887800000037,0.000999789840002508,1.571300740000001,0.787448164000004,0.03999993,0.039999954,-9.797109599999981,0.013156494684533258,-0.015437136400024488,0.0060370538400117395,-0.008307263255111086,0.0009200378120017723
0.5325,-0.00015875249750095652,-0.7845935999999999,0.0011221631200031932,-2.3575100950000043,0.0010141504350027165,1.571306035000001,0.7874710960000043,0.03999993,0.039999954,-9.79700264999998,0.013247530115785512,-0.015577356100026526,0.0061042796850127165,-0.008260566275557902,0.0009301862330019198
0.535,-0.0001640626270010335,-0.784593299,0.0011398941500034515,-2.3575322500000047,0.0010292346500029362,1.571311620000001,0.7874951910000046,0.039999930200000006,0.0399999546,-9.796936599999992,0.013333278242514408,-0.015728334500029723,0.006173230370013271,-0.008212793618431366,0.0009404868360019727
0.5375,-0.00016949949250100126,-0.7845930575,0.0011580506750033437,-2.3575548250000042,0.0010446806750028447,1.571317350000001,0.7875198675000045,0.0399999305,0.039999955499999996,-9.796890999999992,0.01341638271698393,-0.015884692250028795,0.0062430434750128565,-0.008164483122518629,0.000950863530001911
0.54,-0.00017493635800096925,-0.784592816,0.001176207200003237,-2.3575774000000043,0.0010601267000027537,1.571323080000001,0.7875445440000044,0.0399999308,0.0399999564,-9.796845399999992,0.013499487191453457,-0.016041050000027875,0.0063128565800124456,-0.008116172626605888,0.00096124022400185
0.5425,-0.000180373223500937,-0.7845925745,0.001194363725003129,-2.357599975000004,0.001075572725002662,1.571328810000001,0.7875692205000042,0.039999931100000004,0.0399999573,-9.796799799999993,0.013582591665922978,-0.016197407750026947,0.006382669685012031,-0.00806786213069315,0.0009716169180017883
0.545,-0.00018581008900090496,-0.784592333,0.0012125202500030223,-2.357622550000004,0.0010910187500025711,1.571334540000001,0.7875938970000042,0.0399999314,0.0399999582,-9.796754199999993,0.013665696140392503,-0.016353765500026027,0.00645248279001162,-0.008019551634780409,0.0009819936120017273
0.5475,-0.00019124695450087271,-0.7845920915,0.0012306767750029145,-2.3576451250000034,0.0011064647750024794,1.5713402700000008,0.787618573500004,0.039999931700000005,0.0399999591,-9.796708599999993,0.013748800614862026,-0.0165101232500251,0.006522295895011206,-0.007971241138867671,0.0009923703060016656
0.55,-0.00019668382000090156,-0.78459185,0.001248833300003012,-2.3576677000000035,0.0011219108000025623,1.5713460000000008,0.7876432500000041,0.039999932,0.03999996,-9.796662999999981,0.013831905089332098,-0.016666481000025556,0.006592109000011172,-0.007922930642954292,0.001002747000001678
0.5525,-0.00020251425850090674,-0.7845917375,0.0012683113850030293,-2.3576915500000037,0.001138480685002577,1.571352120000001,0.7876697235000041,0.039999932,0.03999996,-9.796536099999981,0.013918546726940585,-0.016831753100025704,0.006664363640011237,-0.00787049387580826,0.0010135976100016876
0.555,-0.00020834469700091218,-0.784591625,0.0012877894700030475,-2.3577154000000036,0.0011550505700025923,1.5713582400000008,0.7876961970000042,0.039999932,0.03999996,-9.79640919999998,0.014005188364549075,-0.016997025200025856,0.006736618280011304,-0.007818057108662227,0.0010244482200016977
0.5575,-0.00021417513550091736,-0.7845915124999999,0.0013072675550030648,-2.357739250000004,0.0011716204550026072,1.571364360000001,0.7877226705000042,0.039999932,0.03999996,-9.79628229999998,0.014091830002157562,-0.017162297300026004,0.006808872920011369,-0.007765620341516195,0.0010352988300017072
0.56,-0.0002200055740009228,-0.7845913999999999,0.001326745640003083,-2.3577631000000037,0.0011881903400026226,1.571370480000001,0.7877491440000042,0.039999932,0.03999996,-9.79615539999998,0.014178471639766052,-0.01732756940002616,0.006881127560011436,-0.007713183574370161,0.0010461494400017173
0.5625,-0.00022583601250092796,-0.7845912875,0.0013462237250031002,-2.357786950000004,0.0012047602250026372,1.571376600000001,0.7877756175000042,0.039999932,0.03999996,-9.796028499999979,0.01426511327737454,-0.017492841500026304,0.0069533822000115006,-0.007660746807224129,0.001057000050001727
0.5650000000000001,-0.0002316664510009334,-0.784591175,0.0013657018100031184,-2.3578108000000038,0.0012213301100026527,1.571382720000001,0.7878020910000042,0.039999932,0.03999996,-9.79590159999998,0.014351754914983032,-0.01765811360002646,0.007025636840011568,-0.0076083100400780946,0.001067850660001737
0.5675,-0.00023763247350101825,-0.784591123,0.001385635255003403,-2.357835165000004,0.0012382871800028946,1.571388965000001,0.7878291845000046,0.039999932200000005,0.0399999605,-9.79577684999998,0.014437997248037654,-0.017826070850028297,0.007098726395012205,-0.0075547374552024475,0.0010787706500018054
0.5700000000000001,-0.0002438696640010666,-0.784591192,0.0014064794200035647,-2.357860560000004,0.0012560186200030322,1.571395460000001,0.7878575180000048,0.0399999328,0.039999962,-9.795656399999979,0.014523440971985132,-0.01799939840002964,0.007173485780012785,-0.0074988932348692095,0.001089829400001891
0.5725,-0.0002501068545011147,-0.784591261,0.0014273235850037252,-2.3578859550000044,0.0012737500600031688,1.5714019550000011,0.787885851500005,0.0399999334,0.0399999635,-9.795535949999978,0.014608884695932606,-0.018172725950030978,0.007248245165013361,-0.007443049014535974,0.0011008881500019763
0.5750000000000001,-0.00025634404500116304,-0.78459133,0.0014481677500038869,-2.3579113500000046,0.0012914815000033065,1.5714084500000012,0.7879141850000053,0.039999934,0.039999965000000005,-9.795415499999978,0.014694328419880083,-0.018346053500032322,0.007323004550013941,-0.007387204794202736,0.0011119469000020622
0.5775,-0.00026258123550121116,-0.784591399,0.0014690119150040477,-2.357936745000005,0.001309212940003443,1.5714149450000012,0.7879425185000055,0.0399999346,0.039999966500000005,-9.795295049999977,0.014779772143827556,-0.01851938105003366,0.007397763935014517,-0.007331360573869501,0.0011230056500021474
0.58,-0.0002688184260012592,-0.784591468,0.0014898560800042082,-2.357962140000005,0.0013269443800035799,1.5714214400000013,0.7879708520000057,0.0399999352,0.039999968000000004,-9.795174599999976,0.01486521586777503,-0.018692708600034996,0.007472523320015093,-0.0072755163535362655,0.0011340644000022327
0.5825,-0.0002750556165013076,-0.784591537,0.00151070024500437,-2.3579875350000052,0.0013446758200037173,1.5714279350000013,0.7879991855000059,0.0399999358,0.0399999695,-9.795054149999975,0.014950659591722508,-0.01886603615003634,0.007547282705015673,-0.0072196721332030275,0.0011451231500023184
0.585,-0.0002815726150013561,-0.784591684,0.0015324843800045335,-2.3580141700000055,0.0013632065200038564,1.5714347800000015,0.7880287970000062,0.039999936,0.03999997,-9.79494899999998,0.01503745913507335,-0.019042288300036205,0.007623673050015728,-0.007161953905585341,0.0011564850200023453
0.5875,-0.00028822951750127147,-0.78459187,0.0015547385000042506,-2.358041425000005,0.0013821368500036158,1.5714418000000012,0.7880590475000058,0.039999936,0.03999997,-9.794851499999982,0.015124936588125233,-0.019220002750033945,0.007700878875014747,-0.007103298674326321,0.001167998450002199
0.59,-0.00029488642000118656,-0.784592056,0.0015769926200039667,-2.358068680000005,0.0014010671800033744,1.5714488200000012,0.7880892980000054,0.039999936,0.03999997,-9.794753999999983,0.015212414041177113,-0.019397717200031677,0.007778084700013762,-0.007044643443067305,0.0011795118800020522
0.5925,-0.000301543322501102,-0.784592242,0.001599246740003684,-2.3580959350000046,0.0014199975100031338,1.5714558400000012,0.788119548500005,0.039999936,0.03999997,-9.794656499999984,0.015299891494228996,-0.01957543165002942,0.00785529052501278,-0.006985988211808286,0.001191025310001906
0.595,-0.00030820022500101707,-0.784592428,0.0016215008600034002,-2.358123190000004,0.0014389278400028923,1.5714628600000011,0.7881497990000046,0.039999936,0.03999997,-9.794558999999985,0.015387368947280875,-0.019753146100027152,0.007932496350011796,-0.006927332980549268,0.001202538740001759
0.5975,-0.0003148571275009325,-0.784592614,0.0016437549800031172,-2.358150445000004,0.0014578581700026517,1.5714698800000009,0.7881800495000043,0.039999936,0.03999997,-9.794461499999986,0.015474846400332759,-0.019930860550024895,0.008009702175010815,-0.006868677749290249,0.0012140521700016128
0.6,-0.0003215140300009026,-0.7845928,0.0016660091000030184,-2.3581777000000037,0.0014767885000025677,1.5714769000000008,0.7882103000000041,0.039999936,0.03999997,-9.794363999999993,0.015562323853384656,-0.020108575000025275,0.00808690800001014,-0.006810022518030993,0.0012255656000015065
0.6025,-0.0003286034260009576,-0.7845931675000001,0.0016897163150032023,-2.358206335000004,0.001496954425002724,1.571484355000001,0.7882425200000044,0.0399999366,0.039999970450000005,-9.794302349999992,0.015649946033966425,-0.02030707750002681,0.008166541650010756,-0.006749485130413588,0.0012373973150015983
0.605,-0.00033569282200101224,-0.7845935350000001,0.001713423530003385,-2.3582349700000043,0.0015171203500028794,1.571491810000001,0.7882747400000046,0.0399999372,0.0399999709,-9.79424069999999,0.015737568214548192,-0.020505580000028344,0.008246175300011371,-0.006688947742796186,0.0012492290300016894
0.6075,-0.0003427822180010672,-0.7845939025,0.001737130745003569,-2.3582636050000043,0.0015372862750030357,1.5714992650000013,0.7883069600000049,0.039999937799999996,0.03999997135,-9.794179049999991,0.01582519039512996,-0.020704082500029884,0.008325808950011988,-0.006628410355178782,0.0012610607450017812
0.61,-0.0003498716140011219,-0.78459427,0.0017608379600037517,-2.3582922400000044,0.0015574522000031913,1.5715067200000012,0.7883391800000051,0.0399999384,0.0399999718,-9.79411739999999,0.015912812575711727,-0.020902585000031414,0.008405442600012603,-0.006567872967561381,0.0012728924600018724
0.6125,-0.00035696101000117685,-0.7845946375,0.0017845451750039354,-2.358320875000005,0.0015776181250033475,1.5715141750000012,0.7883714000000054,0.039999939,0.03999997225,-9.79405574999999,0.016000434756293497,-0.021101087500032954,0.00848507625001322,-0.006507335579943976,0.001284724175001964
0.615,-0.0003640504060012315,-0.784595005,0.0018082523900041182,-2.358349510000005,0.001597784050003503,1.5715216300000014,0.7884036200000056,0.0399999396,0.039999972700000004,-9.79399409999999,0.01608805693687526,-0.021299590000034483,0.008564709900013835,-0.006446798192326574,0.0012965558900020554
0.6175,-0.0003712881575013501,-0.7845954175000001,0.001832458100004516,-2.3583787950000055,0.0016183738000038414,1.5715292450000016,0.7884365165000061,0.03999994035,0.03999997355,-9.793911299999978,0.016175605542973398,-0.021499307100036225,0.008645134500014695,-0.006385001633304686,0.0013084455700021513
0.62,-0.0003788226200013568,-0.7845959200000001,0.0018576608000045384,-2.3584093800000057,0.0016398112000038604,1.5715371800000015,0.7884707660000062,0.039999941399999996,0.0399999752,-9.793786199999978,0.01626300700010438,-0.021701453400036402,0.008727141000014768,-0.006320686731475859,0.0013204511800021619
0.6225,-0.0003863570825013638,-0.7845964225000001,0.0018828635000045619,-2.3584399650000054,0.0016612486000038803,1.5715451150000015,0.7885050155000062,0.03999994245,0.03999997685,-9.793661099999978,0.016350408457235368,-0.02190359970003659,0.008809147500014844,-0.006256371829647028,0.0013324567900021731
0.625,-0.0003938915450013705,-0.7845969250000001,0.0019080662000045844,-2.3584705500000056,0.0016826860000038993,1.5715530500000015,0.7885392650000063,0.0399999435,0.039999978500000005,-9.793535999999978,0.016437809914366348,-0.02210574600003677,0.008891154000014917,-0.006192056927818201,0.0013444624000021838
0.6275000000000001,-0.00040142600750137753,-0.7845974275,0.0019332689000046079,-2.358501135000006,0.0017041234000039194,1.5715609850000014,0.7885735145000062,0.03999994455,0.03999998015,-9.793410899999978,0.016525211371497334,-0.02230789230003696,0.008973160500014994,-0.0061277420259893715,0.001356468010002195
0.63,-0.0004089604700013842,-0.7845979300000001,0.00195847160000463,-2.3585317200000055,0.0017255608000039384,1.5715689200000014,0.7886077640000063,0.0399999456,0.0399999818,-9.793285799999978,0.016612612828628318,-0.022510038600037138,0.009055167000015065,-0.006063427124160544,0.0013684736200022057
0.6325000000000001,-0.0004164949325013912,-0.7845984325000002,0.0019836743000046534,-2.3585623050000057,0.0017469982000039585,1.5715768550000013,0.7886420135000063,0.03999994665,0.039999983450000005,-9.793160699999978,0.016700014285759304,-0.022712184900037326,0.009137173500015142,-0.005999112222331714,0.001380479230002217
0.635,-0.00042433431800144647,-0.7845990300000002,0.0020099018400048397,-2.358593910000006,0.0017693069900041167,1.5715851100000013,0.7886776470000065,0.0399999466,0.039999984,-9.79308129999999,0.01678801756353777,-0.022922417000038782,0.009220777600015276,-0.005933893937605564,0.0013926820800022265
0.6375000000000001,-0.0004323261650013994,-0.7845996750000002,0.0020366418000046824,-2.3586260250000057,0.0017920514750039826,1.5715935250000015,0.7887139725000064,0.039999946,0.039999984,-9.79302474999999,0.016876321751639736,-0.023136692000037522,0.00930518050001478,-0.005868223961431126,0.0014049835500021541
0.64,-0.000440318012001352,-0.7846003200000001,0.0020633817600045237,-2.3586581400000055,0.0018147959600038478,1.5716019400000014,0.7887502980000062,0.0399999454,0.039999984,-9.792968199999992,0.016964625939741698,-0.02335096700003625,0.009389583400014279,-0.005802553985256691,0.001417285020002081
0.6425,-0.0004483098590013046,-0.7846009650000001,0.002090121720004365,-2.3586902550000053,0.0018375404450037128,1.5716103550000013,0.788786623500006,0.0399999448,0.039999984,-9.792911649999992,0.01705293012784366,-0.02356524200003498,0.009473986300013778,-0.005736884009082255,0.001429586490002008
0.645,-0.0004563017060012575,-0.7846016100000001,0.0021168616800042073,-2.358722370000005,0.001860284930003579,1.5716187700000013,0.7888229490000057,0.039999944200000005,0.039999984,-9.792855099999992,0.017141234315945622,-0.023779517000033716,0.00955838920001328,-0.005671214032907817,0.0014418879600019356
0.6475,-0.0004642935530012101,-0.7846022550000001,0.0021436016400040486,-2.358754485000005,0.001883029415003444,1.5716271850000012,0.7888592745000055,0.039999943600000004,0.039999984,-9.792798549999992,0.017229538504047584,-0.023993792000032446,0.00964279210001278,-0.0056055440567333815,0.0014541894300018627
0.65,-0.0004722854000012314,-0.7846029000000001,0.002170341600004121,-2.358786600000005,0.0019057739000035052,1.5716356000000014,0.7888956000000056,0.039999943,0.039999984,-9.792741999999983,0.017317842692149883,-0.024208067000033036,0.00972719500001263,-0.005539874080558377,0.0014664909000018495
0.6525,-0.0004807467650013543,-0.7846036755000001,0.0021986596500045323,-2.3588206500000055,0.0019298602250038552,1.5716445100000014,0.7889340900000061,0.039999943600000004,0.0399999846,-9.79261824999998,0.017408436257406602,-0.024435078950036337,0.00981398200001389,-0.005470316158596411,0.001479199305002034
0.655,-0.0004892081300014777,-0.7846044510000001,0.0022269777000049453,-2.358854700000006,0.0019539465500042065,1.5716534200000016,0.7889725800000067,0.039999944200000005,0.039999985200000004,-9.792494499999979,0.01749902982266333,-0.024662090900039645,0.009900769000015155,-0.005400758236634443,0.0014919077100022193
0.6575,-0.0004976694950016005,-0.7846052265000001,0.002255295750005357,-2.3588887500000064,0.0019780328750045565,1.5716623300000017,0.7890110700000073,0.0399999448,0.0399999858,-9.792370749999977,0.017589623387920052,-0.024889102850042942,0.009987556000016416,-0.005331200314672477,0.0015046161150024042
0.66,-0.000506130860001724,-0.7846060020000002,0.0022836138000057694,-2.358922800000007,0.0020021192000049073,1.571671240000002,0.7890495600000078,0.0399999454,0.0399999864,-9.792246999999975,0.017680216953176776,-0.025116114800046253,0.010074343000017682,-0.005261642392710509,0.0015173245200025892
0.6625,-0.0005145922250018468,-0.7846067775000002,0.002311931850006181,-2.3589568500000073,0.0020262055250052573,1.571680150000002,0.7890880500000084,0.039999946,0.039999987,-9.792123249999973,0.0177708105184335,-0.02534312675004955,0.010161130000018942,-0.005192084470748543,0.001530032925002774
0.665,-0.0005230535900019701,-0.7846075530000002,0.0023402499000065935,-2.3589909000000078,0.0020502918500056085,1.5716890600000022,0.7891265400000089,0.0399999466,0.0399999876,-9.79199949999997,0.017861404083690222,-0.02557013870005286,0.010247917000020208,-0.005122526548786574,0.0015427413300029592
0.6675,-0.0005316754180021512,-0.7846083795000002,0.0023691073450072013,-2.3590255450000086,0.002074836800006125,1.5716981300000024,0.7891657600000097,0.03999994735,0.0399999886,-9.791894749999983,0.017951664421728887,-0.025800650500057136,0.010335425550021397,-0.0050523907877332505,0.0015554971250030913
0.67,-0.0005406181720020985,-0.7846093080000002,0.002399043580007025,-2.3590613800000084,0.002100299000005975,1.5717075200000024,0.7892064400000095,0.0399999484,0.0399999904,-9.791827999999985,0.018041258305332163,-0.026038162000055737,0.010424377200020873,-0.004981099348498471,0.0015683477000030157
0.6725,-0.0005495609260020455,-0.7846102365000002,0.0024289798150068475,-2.3590972150000082,0.002125761200005824,1.5717169100000021,0.7892471200000093,0.03999994945,0.0399999922,-9.791761249999984,0.018130852188935436,-0.026275673500054327,0.010513328850020346,-0.004909807909263693,0.0015811982750029393
0.675,-0.0005585036800019929,-0.7846111650000002,0.002458916050006671,-2.359133050000008,0.0021512234000056743,1.5717263000000021,0.7892878000000091,0.0399999505,0.039999994000000004,-9.791694499999986,0.018220446072538716,-0.026513185000052928,0.010602280500019823,-0.0048385164700289135,0.0015940488500028637
0.6775,-0.0005674464340019398,-0.7846120935000002,0.0024888522850064934,-2.359168885000008,0.002176685600005523,1.5717356900000021,0.7893284800000088,0.039999951549999996,0.0399999958,-9.791627749999986,0.01831003995614199,-0.02675069650005152,0.010691232150019294,-0.004767225030794136,0.0016068994250027875
0.68,-0.0005763891880018871,-0.7846130220000002,0.002518788520006317,-2.3592047200000077,0.002202147800005373,1.571745080000002,0.7893691600000086,0.0399999526,0.039999997600000003,-9.791560999999986,0.018399633839745265,-0.02698820800005012,0.01078018380001877,-0.004695933591559356,0.0016197500000027117
0.6825,-0.0005853319420018341,-0.7846139505000002,0.0025487247550061397,-2.3592405550000075,0.002227610000005222,1.571754470000002,0.7894098400000084,0.039999953649999996,0.0399999994,-9.791494249999987,0.018489227723348538,-0.02722571950004871,0.010869135450018243,-0.004624642152324579,0.0016326005750026355
0.685,-0.0005946033940019225,-0.7846149700000002,0.002579765990006437,-2.359277700000008,0.002254011660005475,1.571764190000002,0.7894520170000088,0.039999954399999996,0.04,-9.791408599999981,0.018579583987612048,-0.027471527600050928,0.010959658400018604,-0.0045515310950426284,0.00164562012000267
0.6875,-0.000604039195001931,-0.7846160350000002,0.002611359725006465,-2.3593155000000077,0.002280883050005499,1.571774075000002,0.7894949425000087,0.039999955,0.04,-9.791313499999982,0.018670321442205318,-0.027721484000051148,0.011050967000018685,-0.0044775102287379276,0.0016587241500026816
0.6900000000000001,-0.0006134749960019397,-0.7846171000000003,0.0026429534600064947,-2.359353300000008,0.0023077544400055237,1.571783960000002,0.7895378680000088,0.0399999556,0.04,-9.79121839999998,0.01876105889679859,-0.02797144040005138,0.011142275600018771,-0.004403489362433224,0.0016718281800026937
0.6925,-0.0006229107970019481,-0.7846181650000003,0.002674547195006523,-2.359391100000008,0.0023346258300055477,1.571793845000002,0.7895807935000089,0.0399999562,0.04,-9.791123299999981,0.018851796351391864,-0.028221396800051604,0.011233584200018852,-0.004329468496128523,0.0016849322100027054
0.6950000000000001,-0.000632346598001957,-0.7846192300000002,0.002706140930006552,-2.3594289000000077,0.002361497220005573,1.571803730000002,0.7896237190000088,0.0399999568,0.04,-9.791028199999982,0.018942533805985137,-0.028471353200051838,0.011324892800018936,-0.004255447629823819,0.0016980362400027178
0.6975,-0.0006417823990019653,-0.7846202950000003,0.00273773466500658,-2.359466700000008,0.0023883686100055965,1.5718136150000022,0.7896666445000089,0.0399999574,0.04,-9.79093309999998,0.019033271260578407,-0.02872130960005206,0.011416201400019019,-0.004181426763519118,0.0017111402700027293
0.7000000000000001,-0.0006512182000020796,-0.7846213600000003,0.0027693284000069643,-2.3595045000000083,0.0024152400000059236,1.5718235000000023,0.7897095700000094,0.039999958,0.04,-9.790837999999987,0.01912400871517205,-0.028971266000054976,0.011507510000019568,-0.0041074058972140285,0.0017242443000028192
0.7025,-0.0006611584525021563,-0.7846225510000003,0.002802618530007221,-2.3595442200000085,0.0024435536250061417,1.5718339250000022,0.7897547995000098,0.039999958,0.04,-9.790767499999985,0.019216507766415824,-0.029234050100057002,0.01160103830002029,-0.004031539091358248,0.0017377198050029232
0.705,-0.0006710987050022329,-0.7846237420000003,0.0028359086600074778,-2.3595839400000087,0.0024718672500063602,1.5718443500000023,0.7898000290000101,0.039999958,0.04,-9.790696999999986,0.019309006817659596,-0.029496834200059028,0.011694566600021009,-0.003955672285502468,0.001751195310003027
0.7075,-0.00068103895750231,-0.7846249330000002,0.0028691987900077358,-2.3596236600000093,0.0025001808750065796,1.5718547750000025,0.7898452585000105,0.039999958,0.04,-9.790626499999984,0.019401505868903376,-0.029759618300061064,0.011788094900021735,-0.003879805479646685,0.0017646708150031315
0.71,-0.0006909792100023866,-0.7846261240000003,0.0029024889200079925,-2.3596633800000095,0.0025284945000067977,1.5718652000000024,0.7898904880000108,0.039999958,0.04,-9.790555999999984,0.019494004920147148,-0.03002240240006309,0.011881623200022456,-0.003803938673790905,0.0017781463200032353
0.7125,-0.0007009194625024637,-0.7846273150000003,0.002935779050008251,-2.3597031000000097,0.0025568081250070176,1.5718756250000026,0.7899357175000111,0.039999958,0.04,-9.790485499999983,0.019586503971390924,-0.03028518650006513,0.01197515150002318,-0.0037280718679351217,0.00179162182500334
0.715,-0.0007108597150025403,-0.7846285060000003,0.0029690691800085076,-2.35974282000001,0.0025851217500072357,1.5718860500000027,0.7899809470000115,0.039999958,0.04,-9.790414999999983,0.019679003022634697,-0.030547970600067156,0.012068679800023902,-0.0036522050620793416,0.0018050973300034437
0.7175,-0.0007209718555026819,-0.7846297435000004,0.0030029372650089833,-2.359783215000011,0.002613927925007641,1.5718966600000028,0.7900269600000122,0.039999958,0.04,-9.79033954999998,0.019771816302114765,-0.03081570710007121,0.012162945200024556,-0.0035755277145452374,0.0018187260300035742
0.72,-0.0007314277720025485,-0.7846310740000003,0.0030379612600085364,-2.3598249600000103,0.0026437192000072613,1.5719076400000027,0.7900745400000115,0.039999958,0.04,-9.79025419999998,0.019865258038066675,-0.03109334840006767,0.012258684800023335,-0.003497229283656396,0.0018326611200033965
0.7225,-0.0007418836885024156,-0.7846324045000003,0.0030729852550080913,-2.3598667050000097,0.0026735104750068824,1.5719186200000026,0.7901221200000109,0.039999958,0.04,-9.790168849999981,0.01995869977401859,-0.03137098970006414,0.012354424400022117,-0.003418930852767551,0.0018465962100032193
0.725,-0.0007523396050022822,-0.7846337350000003,0.0031080092500076445,-2.359908450000009,0.0027033017500065026,1.5719296000000025,0.7901697000000104,0.039999958,0.04,-9.790083499999982,0.020052141509970495,-0.0316486310000606,0.012450164000020896,-0.00334063242187871,0.0018605313000030416
0.7275,-0.0007627955215021493,-0.7846350655000003,0.0031430332450071994,-2.3599501950000086,0.0027330930250061237,1.5719405800000024,0.7902172800000098,0.039999958,0.04,-9.789998149999983,0.02014558324592241,-0.031926272300057075,0.01254590360001968,-0.003262333990989865,0.0018744663900028646
0.73,-0.0007732514380020159,-0.7846363960000002,0.003178057240006753,-2.359991940000008,0.002762884300005744,1.5719515600000022,0.7902648600000092,0.039999958,0.04,-9.789912799999984,0.020239024981874316,-0.03220391360005353,0.01264164320001846,-0.0031840355601010237,0.0018884014800026867
0.7325,-0.0007837073545018831,-0.7846377265000003,0.003213081235006308,-2.3600336850000074,0.0027926755750053655,1.5719625400000021,0.7903124400000086,0.039999958,0.04,-9.789827449999985,0.02033246671782623,-0.03248155490005,0.012737382800017242,-0.003105737129212179,0.0019023365700025097
0.735,-0.0007945142880019877,-0.7846391230000003,0.003249285710006659,-2.3600768800000083,0.002823470110005664,1.5719738900000022,0.7903616330000091,0.039999957600000004,0.04,-9.789744499999985,0.02042399123312678,-0.032768136000052676,0.012834561950017719,-0.003025868441894913,0.001916164500002493
0.7375,-0.0008054967300020728,-0.7846405525000003,0.003286080425006945,-2.3601208000000082,0.002854766275005907,1.5719854250000023,0.7904116325000095,0.039999957,0.04,-9.789662749999986,0.02051455713810242,-0.03305918700005493,0.012932460875018478,-0.002945214626364053,0.0019299388500025997
0.74,-0.0008164791720021575,-0.7846419820000002,0.0033228751400072283,-2.3601647200000087,0.002886062440006148,1.5719969600000023,0.7904616320000099,0.0399999564,0.04,-9.789580999999984,0.02060512304307805,-0.033350238000057174,0.013030359800019231,-0.002864560810833196,0.001943713200002706
0.7425,-0.0008274616140022426,-0.7846434115000003,0.0033596698550075136,-2.360208640000009,0.0029173586050063906,1.5720084950000024,0.7905116315000102,0.0399999558,0.04,-9.789499249999983,0.020695688948053688,-0.03364128900005943,0.01312825872501999,-0.0027839069953023354,0.0019574875500028128
0.745,-0.0008384440560023274,-0.7846448410000003,0.003396464570007797,-2.3602525600000095,0.002948654770006632,1.5720200300000025,0.7905616310000106,0.0399999552,0.04,-9.789417499999983,0.02078625485302932,-0.03393234000006168,0.013226157650020746,-0.002703253179771479,0.0019712619000029187
0.7475,-0.0008494264980024124,-0.7846462705000002,0.003433259285008083,-2.36029648000001,0.0029799509350068747,1.5720315650000025,0.7906116305000109,0.0399999546,0.04,-9.789335749999982,0.020876820758004958,-0.034223391000063934,0.013324056575021505,-0.0026225993642406183,0.0019850362500030256
0.75,-0.0008604089400026194,-0.7846477000000003,0.003470054000008777,-2.3603404000000108,0.003011247100007465,1.5720431000000026,0.7906616300000119,0.039999954,0.04,-9.789253999999989,0.02096738666297905,-0.03451444200006955,0.01342195550002274,-0.002541945548709459,0.0019988106000031524
0.7525000000000001,-0.00087192862650263,-0.7846492750000003,0.003508655450008813,-2.3603864500000107,0.003044077585007495,1.5720551750000027,0.7907140580000119,0.039999953399999996,0.04,-9.78921079999999,0.02105117104949475,-0.03482031120006983,0.013521959675022833,-0.0024599609663522627,0.0020126753100031653
0.755,-0.0008834483130026403,-0.7846508500000003,0.0035472569000088473,-2.3604325000000106,0.0030769080700075242,1.5720672500000028,0.790766486000012,0.039999952799999995,0.04,-9.78916759999999,0.021134955436010443,-0.0351261804000701,0.013621963850022921,-0.0023779763839950696,0.002026540020003178
0.7575000000000001,-0.000894967999502651,-0.7846524250000003,0.0035858583500088833,-2.3604785500000105,0.003109738555007555,1.5720793250000027,0.790818914000012,0.0399999522,0.04,-9.78912439999999,0.02121873982252614,-0.03543204960007039,0.013721968025023014,-0.002295991801637873,0.0020404047300031907
0.76,-0.0009064876860026612,-0.7846540000000003,0.0036244598000089176,-2.360524600000011,0.003142569040007584,1.5720914000000028,0.7908713420000121,0.0399999516,0.04,-9.78908119999999,0.021302524209041836,-0.03573791880007066,0.013821972200023102,-0.0022140072192806805,0.002054269440003203
0.7625000000000001,-0.0009180073725026719,-0.7846555750000004,0.0036630612500089537,-2.3605706500000108,0.003175399525007615,1.572103475000003,0.7909237700000121,0.039999951,0.04,-9.78903799999999,0.021386308595557534,-0.03604378800007094,0.013921976375023196,-0.002132022636923484,0.002068134150003216
0.765,-0.0009295270590026822,-0.7846571500000004,0.003701662700008988,-2.3606167000000107,0.003208230010007644,1.5721155500000028,0.7909761980000122,0.0399999504,0.04,-9.78899479999999,0.021470092982073228,-0.03634965720007122,0.014021980550023284,-0.002050038054566291,0.002081998860003228
0.7675000000000001,-0.0009412292825027935,-0.7846587570000003,0.0037408782200093623,-2.360663425000011,0.003241581950007962,1.572127830000003,0.7910294610000127,0.03999994985,0.04,-9.788939149999981,0.02156043387951858,-0.03665979830007377,0.014122710800023653,-0.0019674240087429636,0.0020959234100032514
0.77,-0.0009532965800027219,-0.7846604280000004,0.0037813218800091227,-2.360711500000011,0.003275976800007758,1.572140520000003,0.7910843940000124,0.0399999494,0.04,-9.788858599999982,0.021663887798809456,-0.03697848320007188,0.014224893200023047,-0.0018835510359887014,0.002109967640003168
0.7725,-0.0009653638775026503,-0.7846620990000004,0.0038217655400088826,-2.3607595750000105,0.0033103716500075537,1.5721532100000029,0.7911393270000121,0.03999994895,0.04,-9.788778049999983,0.021767341718100332,-0.03729716810006999,0.014327075600022441,-0.001799678063234439,0.0021240118700030846
0.775,-0.0009774311750025792,-0.7846637700000003,0.0038622092000086443,-2.36080765000001,0.0033447665000073514,1.5721659000000028,0.7911942600000117,0.0399999485,0.04,-9.788697499999984,0.02187079563739121,-0.03761585300006812,0.01442925800002184,-0.001715805090480173,0.0021380561000030017
0.7775,-0.0009894984725025077,-0.7846654410000004,0.0039026528600084043,-2.3608557250000097,0.0033791613500071473,1.5721785900000027,0.7912491930000114,0.03999994805,0.04,-9.788616949999984,0.02197424955668209,-0.03793453790006623,0.014531440400021235,-0.0016319321177259106,0.0021521003300029183
0.78,-0.0010015657700024366,-0.7846671120000003,0.003943096520008166,-2.3609038000000098,0.003413556200006945,1.5721912800000026,0.7913041260000111,0.0399999476,0.04,-9.788536399999984,0.02207770347597297,-0.03825322280006435,0.014633622800020632,-0.0015480591449716446,0.002166144560002836
0.7825,-0.0010136330675023651,-0.7846687830000003,0.003983540180007927,-2.3609518750000094,0.003447951050006741,1.5722039700000023,0.7913590590000107,0.03999994715,0.04,-9.788455849999984,0.022181157395263846,-0.03857190770006246,0.014735805200020026,-0.001464186172217382,0.0021801887900027525
0.785,-0.0010260722700025722,-0.7846705620000004,0.004025234760008622,-2.3610014000000104,0.003483410000007333,1.5722170300000027,0.7914157030000117,0.0399999466,0.04,-9.788367599999981,0.02228006646039063,-0.038904386600069146,0.014839353700021235,-0.001378537382679989,0.0021945131400029467
0.7875,-0.0010386974250027557,-0.7846723950000004,0.004067554800009237,-2.361051650000011,0.003519401000007856,1.5722302750000028,0.7914732025000125,0.039999946,0.04,-9.78827549999998,0.022376703098437343,-0.039243762500074074,0.01494358525002275,-0.0012920006847518116,0.002208977550003157
0.79,-0.0010513225800029397,-0.7846742280000004,0.004109874840009854,-2.3611019000000115,0.00355539200000838,1.5722435200000031,0.7915307020000134,0.0399999454,0.04,-9.78818339999998,0.022473339736484063,-0.03958313840007902,0.01504781680002427,-0.0012054639868236303,0.0022234419600033676
0.7925,-0.0010639477350031232,-0.7846760610000004,0.004152194880010469,-2.3611521500000126,0.003591383000008903,1.5722567650000032,0.7915882015000142,0.0399999448,0.04,-9.788091299999978,0.022569976374530776,-0.03992251430008396,0.015152048350025784,-0.001118927288895453,0.002237906370003578
0.795,-0.0010765728900033072,-0.7846778940000004,0.004194514920011085,-2.361202400000013,0.003627374000009428,1.5722700100000035,0.7916457010000151,0.039999944200000005,0.04,-9.787999199999977,0.022666613012577493,-0.0402618902000889,0.015256279900027304,-0.0010323905909672716,0.0022523707800037886
0.7975,-0.0010891980450034907,-0.7846797270000005,0.0042368349600117,-2.361252650000014,0.003663365000009951,1.5722832550000037,0.7917032005000159,0.039999943600000004,0.04,-9.787907099999975,0.022763249650624207,-0.04060126610009383,0.015360511450028818,-0.0009458538930390943,0.002266835190003999
0.8,-0.00110182320000384,-0.7846815600000006,0.004279155000012873,-2.361302900000015,0.003699356000010948,1.572296500000004,0.7917607000000175,0.039999943,0.04,-9.78781499999998,0.022859886288670195,-0.04094064200010053,0.015464743000030907,-0.0008593171951103724,0.0022812996000042183
0.8025,-0.0011150160450037617,-0.7846835085000006,0.004323384750012611,-2.361355400000015,0.0037369699700107247,1.5723104050000039,0.7918207900000171,0.03999994255,0.04,-9.78774577499998,0.022954013943698934,-0.04128604415009848,0.015570932350030276,-0.0007709229277427568,0.0022957937850041324
0.805,-0.001128208890003684,-0.7846854570000006,0.004367614500012351,-2.3614079000000148,0.0037745839400105032,1.572324310000004,0.7918808800000168,0.0399999421,0.04,-9.787676549999981,0.023048141598727673,-0.04163144630009645,0.01567712170002965,-0.0006825286603751373,0.002310287970004047
0.8075,-0.0011414017350036057,-0.7846874055000005,0.004411844250012088,-2.3614604000000146,0.00381219791001028,1.5723382150000038,0.7919409700000164,0.03999994165,0.04,-9.787607324999982,0.02314226925375641,-0.041976848450094396,0.01578331105002902,-0.0005941343930075218,0.002324782155003961
0.81,-0.001154594580003528,-0.7846893540000005,0.004456074000011827,-2.3615129000000143,0.0038498118800100586,1.5723521200000037,0.792001060000016,0.0399999412,0.04,-9.787538099999981,0.02323639690878515,-0.04232225060009236,0.015889500400028397,-0.0005057401256399023,0.0023392763400038757
0.8125,-0.0011677874250034497,-0.7846913025000005,0.004500303750011565,-2.3615654000000137,0.0038874258500098354,1.5723660250000036,0.7920611500000156,0.03999994075,0.04,-9.787468874999982,0.023330524563813886,-0.04266765275009032,0.015995689750027766,-0.0004173458582722867,0.00235377052500379
0.8150000000000001,-0.001180980270003372,-0.7846932510000005,0.004544533500011305,-2.3616179000000135,0.003925039820009614,1.5723799300000034,0.7921212400000153,0.039999940299999995,0.04,-9.787399649999982,0.02342465221884263,-0.043013054900088284,0.01610187910002714,-0.00032895159090466717,0.0023682647100037044
0.8175,-0.0011943655850034692,-0.7846952425000006,0.004589410825011632,-2.361671155000014,0.0039632043100098924,1.5723940400000036,0.7921822100000158,0.039999939799999995,0.04,-9.787331724999984,0.023519641906047294,-0.04336508585009203,0.016208716200027243,-0.00023987569727513053,0.002382803425003685
0.8200000000000001,-0.001208135840003482,-0.7846973200000005,0.004635583300011676,-2.361725920000014,0.004002469840009929,1.5724085600000037,0.7922449400000158,0.0399999392,0.04,-9.787266399999984,0.023616355657601874,-0.04373037440009237,0.01631684880002734,-0.00014943655112329118,0.0023974312000036987
0.8225,-0.0012219060950034943,-0.7846993975000005,0.004681755775011716,-2.361780685000014,0.004041735370009964,1.5724230800000036,0.7923076700000159,0.0399999386,0.04,-9.787201074999983,0.02371306940915645,-0.04409566295009269,0.01642498140002744,-5.899740497145584e-05,0.002412058975003712
0.8250000000000001,-0.001235676350003507,-0.7847014750000005,0.00472792825001176,-2.361835450000014,0.00408100090001,1.5724376000000038,0.7923704000000159,0.039999938,0.04,-9.787135749999983,0.023809783160711032,-0.044460951500093035,0.01653311400002754,3.1441741180383506e-05,0.0024266867500037253
0.8275,-0.0012494466050035193,-0.7847035525000005,0.0047741007250118005,-2.361890215000014,0.004120266430010035,1.5724521200000037,0.792433130000016,0.0399999374,0.04,-9.787070424999984,0.023906496912265606,-0.04482624005009336,0.016641246600027637,0.00012188088733221882,0.0024413145250037384
0.8300000000000001,-0.001263216860003532,-0.7847056300000005,0.004820273200011844,-2.361944980000014,0.004159531960010072,1.5724666400000038,0.792495860000016,0.0399999368,0.04,-9.787005099999984,0.024003210663820187,-0.0451915286000937,0.016749379200027736,0.00021232003348405814,0.0024559423000037523
0.8325,-0.0012769871150035443,-0.7847077075000005,0.0048664456750118846,-2.361999745000014,0.004198797490010106,1.5724811600000037,0.7925585900000162,0.0399999362,0.04,-9.786939774999983,0.024099924415374764,-0.04555681715009403,0.016857511800027834,0.00030275917963589345,0.002470570075003765
0.835,-0.0012911485300037735,-0.7847098700000006,0.004913934250012655,-2.362056100000015,0.004239182720010761,1.572496100000004,0.7926231000000172,0.0399999354,0.0399999995,-9.786873599999982,0.024197010137166235,-0.04593194650009989,0.016966966600028943,0.00039433089553004663,0.002485360380003909
0.8375,-0.0013055055250038848,-0.7847120750000006,0.004962080875013028,-2.3621132500000153,0.004280127800011079,1.572511250000004,0.7926885000000177,0.0399999345,0.03999999875,-9.786806999999982,0.024294281844075945,-0.046311996250102835,0.017077082500029796,0.00048646889629470603,0.002500231950004024
0.84,-0.0013198625200039954,-0.7847142800000007,0.005010227500013399,-2.3621704000000157,0.004321072880011394,1.5725264000000043,0.7927539000000182,0.0399999336,0.039999998,-9.786740399999982,0.02439155355098565,-0.04669204600010577,0.017187198400030645,0.0005786068970593614,0.0025151035200041386
0.8425,-0.0013342195150041066,-0.7847164850000006,0.005058374125013772,-2.3622275500000165,0.004362017960011712,1.5725415500000044,0.7928193000000187,0.039999932700000004,0.03999999725,-9.786673799999981,0.024488825257895357,-0.04707209575010871,0.017297314300031497,0.0006707448978240209,0.002529975090004254
