rsonawane2002/My_IMU/logs_2/traj_406/clean_406.csv
time,j1,j2,j3,j4,j5,j6,j7,gripper1,gripper2,imu_ax,imu_ay,imu_az,imu_gx,imu_gy,imu_gz,quat_x,quat_y,quat_z,quat_w
1713.7833333321034,0.00016700293,-0.785875,4.0107683e-05,-2.3551247,9.29385e-05,1.570997,0.786,0.04,0.04,0.0,-0.0,0.0,2.875329272945135e-08,-0.0011641195053377316,4.421952117202833e-08,0.9999995971961153,0.00020320632366974898,0.0008736418299892524,3.263050917662294e-05
1713.79999999877,0.00016699835,-0.78576016,4.0104263e-05,-2.3552213,9.297442e-05,1.5709941,0.786,0.04,0.04,-0.29199845915106604,-1.5136385958150868e-05,0.020128413438014192,4.2124787742988237e-07,-0.002237264878784834,5.273333519074672e-07,0.9999996850571544,0.00020321457034392203,0.000766502517594609,3.260860199695822e-05
1713.8166666654367,0.00016694178,-0.7856542,4.0028728e-05,-2.35531,9.301987e-05,1.5709913,0.786,0.04,0.039999995,0.023196981444106868,0.00013545226546612097,-0.0016026821370029865,4.280202907509483e-06,-0.0032241610248297573,4.382758480157356e-06,0.9999997558710123,0.00020327392949453135,0.0006677376368595427,3.262014136683867e-05
1713.8333333321034,0.00016674431,-0.7855566,3.976318e-05,-2.355391,9.305692e-05,1.5709884,0.786,0.04,0.04,0.022263129255728487,0.00038652576535605737,-0.0014233218565751216,1.4086925761506149e-05,-0.0041251370262941015,1.1688971821403662e-05,0.9999998123068017,0.00020347058476911575,0.000576989553714397,3.269766991416796e-05
1713.84999999877,0.00016627598,-0.7854666,3.913816e-05,-2.3554652,9.309822e-05,1.5709856,0.786,0.04,0.04,0.020123711891661955,0.0007211412718323299,-0.001255978278580372,3.237980210166203e-05,-0.004942906274101409,2.6390617498781105e-05,0.9999998569020052,0.00020392949018612757,0.0004934833894880621,3.2907088774015525e-05
1713.8666666654367,0.00016536965,-0.7853833,3.7937476e-05,-2.355532,9.315699e-05,1.5709827,0.786,0.04,0.04,0.019944807712191093,0.0011514521952569665,-0.0005244772933954422,6.0975313641517324e-05,-0.005681249152077621,5.141888933081855e-05,0.9999998915219189,0.00020481067371521321,0.0004170105041070415,3.333133233535132e-05
1713.8833333321033,0.00016382537,-0.7853063,3.5903646e-05,-2.3555942,9.323729e-05,1.5709797,0.7859981,0.04,0.04,0.014648009569295795,0.0016741740189549703,-0.0016801711430147748,0.00010183084727098897,-0.00633873843575119,8.670382002549044e-05,0.999999918511141,0.00020535161447063794,0.00034590197402465506,3.406244235177381e-05
1713.89999999877,0.00016141325,-0.78523463,3.274163e-05,-2.3556519,9.334677e-05,1.5709767,0.7859962,0.04,0.04,0.013631195139640617,0.002271195180059057,-0.0010436333949037646,0.00016420003037507592,-0.00692720656846523,0.00013442598921151948,0.9999999388851142,0.0002067253142459425,0.00027974050635706056,3.5208824650872287e-05
1713.9166666654367,0.00015787697,-0.78516775,2.8123464e-05,-2.3557026,9.348067e-05,1.5709734,0.78599364,0.03999999,0.03999999,0.016910185189722426,0.0029453299312128933,0.00010117497759587479,0.00024081367858607672,-0.007449739495037288,0.00019621467640185648,0.9999999534776387,0.0002088480491466026,0.0002192413411126426,3.6884241030990984e-05
1713.9333333321033,0.00015293664,-0.785105,2.169121e-05,-2.3557498,9.365931e-05,1.5709667,0.7859898,0.039999988,0.039999988,0.00956743111235614,0.0036632090716206666,-0.003236271837514515,0.00033531786207279484,-0.007893494510209468,0.00027273131745662025,0.9999999638775082,0.00021168841701659985,0.00016091758892806593,3.9224047394989425e-05
1713.94999999877,0.00014629157,-0.78504574,1.3060675e-05,-2.3557923,9.389277e-05,1.5709599,0.7859841,0.039999984,0.03999998,0.011954970795713393,0.004441492913874679,3.7460472723793714e-05,0.00045080484015634805,-0.008290847878106205,0.00036645893636078785,0.9999999702558773,0.00021520487823429367,0.00010667659193067789,4.2369914444100364e-05
1713.9666666654366,0.00013762269,-0.7849894,1.8248037e-06,-2.3558292,9.41904e-05,1.5709523,0.7859772,0.039999977,0.039999973,0.012284311405696968,0.005268163866231559,0.0001666307481995588,0.0005900882347549101,-0.008619058800162015,0.0004764686784977938,0.9999999731269972,0.00022005857568945363,5.6220304073643666e-05,4.647047875966817e-05
1713.9833333321033,0.00012659482,-0.7849354,-1.2444058e-05,-2.3558636,9.45642e-05,1.5709417,0.7859687,0.03999997,0.03999996,0.006083524976974175,0.006135298556223042,-0.0023741007823652183,0.000750251649618212,-0.008880564903602355,0.000605324994872356,0.9999999730155944,0.00022638960325038814,6.747320554337604e-06,5.168202487573178e-05
1713.99999999877,0.00011285885,-0.78488314,-3.0190935e-05,-2.355892,9.502411e-05,1.5709301,0.78595793,0.039999966,0.039999958,0.011738533973448817,0.007039267339801259,0.0009721994965072867,0.0009322704306577621,-0.009095639285456982,0.0007520478068251497,0.9999999701223591,0.00023414252254363993,-3.935812305416747e-05,5.8167845253896214e-05
1714.0166666654366,9.605331e-05,-0.78483194,-5.1876457e-05,-2.3559186,9.5582276e-05,1.5709155,0.7859446,0.03999997,0.03999996,0.0030415940464267877,0.007974077202991724,-0.0021786867162365553,0.0011399214481046796,-0.009242254376816089,0.0009181331718101781,0.9999999644920338,0.00024354185768533565,-8.564243189746223e-05,6.609590607385292e-05
1714.0333333321032,7.5806616e-05,-0.7847813,-7.7974204e-05,-2.3559394,9.6250995e-05,1.5708972,0.7859293,0.03999997,0.039999958,0.009589691226508101,0.00893511078276241,-0.00030448701260343825,0.001372958431751497,-0.00934946334814809,0.001104985181839472,0.9999999560474598,0.0002552686959452924,-0.0001304663988363027,7.564053246766046e-05
1714.0499999987699,5.1738305e-05,-0.78473085,-0.00010896875,-2.3559585,9.70414e-05,1.5708765,0.7859107,0.039999973,0.03999996,0.0023078912808838226,0.00991954115408261,-0.0012616872442805516,0.0016282081275663567,-0.009398807280861165,0.0013113468317899452,0.9999999446294583,0.0002689695593320474,-0.000175588157713152,8.697847566661644e-05
1714.0666666654365,2.3460705e-05,-0.7846799,-0.0001453539,-2.3559716,9.7966324e-05,1.5708529,0.785889,0.039999973,0.03999996,0.00862949214706088,0.010922352531515626,0.0008361313267757353,0.0019111284616212143,-0.009405337666400435,0.0015384575839844765,0.999999930246305,0.00028513220390797114,-0.00021942797498588541,0.00010029145170542533
1714.0833333321032,-9.41998e-06,-0.78462815,-0.0001876311,-2.355983,9.903901e-05,1.5708256,0.78586376,0.039999977,0.03999996,0.0008099223531843336,0.011939343705810951,-0.0015788027047713982,0.0022196105361871124,-0.009351622705873381,0.0017874928200200698,0.9999999120995943,0.00030389252713353647,-0.0002646677426090775,0.00011576321345227088
1714.0999999987698,-4.730202e-05,-0.7845749,-0.00023630752,-2.355989,0.00010027144,1.570794,0.7858346,0.039999977,0.039999958,0.006311443574369413,0.01297057762648902,9.265686198300926e-05,0.0025549820559879312,-0.009259825930266165,0.002057839521964142,0.9999998900423854,0.0003254801409767425,-0.000310055358246845,0.00013357982504926073
1714.1166666654365,-9.05872e-05,-0.7845198,-0.000291895,-2.3559926,0.00010167581,1.5707577,0.7858014,0.03999998,0.03999996,0.0004707793990643694,0.014009137637676835,-0.0013329921368709918,0.0029170892664583652,-0.009116348572837617,0.0023488328279990898,0.999999862924332,0.0003501876366949257,-0.00035752746609726545,0.00015392870914877766
1714.1333333321031,-0.00013967983,-0.7844625,-0.0003549085,-2.3559906,0.000103264414,1.5707164,0.7857639,0.039999977,0.039999958,0.005321372476063679,0.015056342268327645,-0.00016479898365950874,0.003306235201009604,-0.008936555515998527,0.002660516347003466,0.9999998304138126,0.00037828025023207024,-0.0004058913380194922,0.00017699892737146943
1714.1499999987698,-0.00019498641,-0.78440243,-0.00042586515,-2.3559866,0.00010505534,1.5706706,0.78572154,0.039999984,0.03999996,-0.000848563611977049,0.01610157521886255,-0.0007658143405420148,0.00372129241175546,-0.008706644004252927,0.002996699194918428,0.9999997910854999,0.00040984627121104576,-0.0004567852857421137,0.0002029832345078332
1714.1666666654364,-0.0002569131,-0.7843392,-0.00050528283,-2.3559773,0.00010705383,1.5706195,0.78567415,0.039999984,0.03999996,0.0037187734695631747,0.017160070084859078,0.00011257817877918797,0.004164297941461871,-0.008440714677694621,0.003351811130392543,0.9999997442644691,0.0004452125968196833,-0.0005093142951228201,0.0002320682850715987
1714.183333332103,-0.00032586692,-0.7842722,-0.0005936795,-2.3559654,0.00010928002,1.5705622,0.78562135,0.039999984,0.039999954,-0.0016224719288082667,0.01820421915003261,-0.001270355034566073,0.004634115307882687,-0.008128793871348013,0.0037324140104390323,0.9999996877719334,0.0004845573278046297,-0.000565444154436437,0.00026444874758036255
1714.1999999987697,-0.00040225332,-0.7842013,-0.00069157185,-2.3559484,0.000111742054,1.5704994,0.78556293,0.03999999,0.03999996,0.002444842637938649,0.019259276218896754,0.00021579470390609146,0.005131080361694495,-0.007784607060914512,0.0041321003007192035,0.999999620855796,0.0005281770168799584,-0.0006238026076920833,0.0003003125201122897
1714.2166666654364,-0.00048647664,-0.784126,-0.0007994748,-2.3559277,0.00011445201,1.57043,0.78549856,0.03999999,0.039999977,-0.0005420710822212627,0.02030351353941592,-0.0007050389012608349,0.005654709552774518,-0.007395790021859394,0.004548251553054677,0.9999995410706269,0.0005762772252813938,-0.0006857589528050852,0.00033984960471433213
1714.233333332103,-0.00057893957,-0.78404576,-0.0009179008,-2.3559022,0.00011742694,1.570354,0.7854279,0.039999995,0.03999997,0.0005767934512013184,0.021342677234749453,-0.00014133529286919355,0.006204836123489293,-0.006971472567614007,0.00499381904927373,0.9999994466029579,0.0006290920389855648,-0.0007511027076302423,0.0003832514933974668
1714.2499999987697,-0.00068004156,-0.7839604,-0.0010473593,-2.3558729,0.00012067737,1.5702709,0.78535074,0.04,0.039999973,-0.001421868786111169,0.022376174539980725,-0.0007168156962000793,0.006781620251386102,-0.006509027191800915,0.005458307265112517,0.9999993346651567,0.0006868525132496693,-0.0008206065784058284,0.0004307060627829044
1714.2666666654363,-0.0007901789,-0.7838694,-0.0011883549,-2.3558393,0.0001242157,1.5701804,0.78526664,0.04,0.039999966,-0.0013205943938388032,0.02340133670797398,-0.00048228748574796754,0.007384809461544721,-0.0060130474275397,0.0059458728424918676,0.999999202532545,0.0007497569342504612,-0.0008944766963023472,0.0004824005112734626
1714.283333332103,-0.0009097449,-0.78377235,-0.0013413886,-2.3558013,0.00012805554,1.5700824,0.7851753,0.04,0.03999996,-0.0017566838140137264,0.024417434511028492,-0.0003879880111190559,0.00801395967240939,-0.005484363910043602,0.0064558390531115764,0.99999904709516,0.0008180306079492202,-0.0009729486584717441,0.0005385216843176747
1714.2999999987696,-0.0010391279,-0.78366935,-0.0015069558,-2.355759,0.00013220662,1.5699764,0.7850766,0.04,0.03999996,-0.0014399231683004388,0.02542439256250837,-0.0006911846690993428,0.008669149065544262,-0.004922278572300818,0.006982661743577584,0.9999988649735406,0.0008919539991025342,-0.0010561087136032946,0.0005992529340620893
1714.3166666654363,-0.0011787134,-0.7835597,-0.0016855464,-2.355712,0.00013668575,1.5698621,0.78497016,0.039999995,0.03999994,-0.002347311053130241,0.02641552379433018,-0.0005779206391443026,0.009349740824131248,-0.0043260196784913425,0.007536677361238054,0.9999986519899638,0.0009717147626628973,-0.0011444896918503533,0.000664779678211009
1714.333333332103,-0.0013288803,-0.78344303,-0.0018776447,-2.3556602,0.00014150186,1.569739,0.78485566,0.039999984,0.03999992,-0.002426651980957928,0.02739957781193467,-0.0006847709375534805,0.010055283139300548,-0.003700402212649622,0.008108024062816934,0.9999984037364608,0.0010575253673491024,-0.0012383557868699954,0.0007352819682299895
1714.3499999987696,-0.0014900039,-0.78331894,-0.0020837283,-2.3556035,0.00014666737,1.569607,0.7847329,0.039999984,0.039999913,-0.002553978112596056,0.028369917207994068,-0.0003380053481105705,0.010785668845878154,-0.0030443290227724048,0.008699586072297968,0.9999981154858681,0.0011496240153105895,-0.0013378217369587554,0.0008109391690035848
1714.3666666654362,-0.0016624534,-0.78318715,-0.0023042685,-2.355542,0.00015219285,1.5694655,0.7846014,0.03999999,0.039999917,-0.0034530203768312617,0.029323743493870312,-0.0008778690216759699,0.011540585624457632,-0.002358381960649053,0.009310445093704708,0.9999977814695312,0.0012481538744438332,-0.0014434785493317446,0.0008919291447085895
1714.383333332103,-0.001846593,-0.78304744,-0.0025397285,-2.355476,0.00015809007,1.569315,0.784461,0.03999999,0.039999913,-0.0039772522827163925,0.03026428110742236,-0.0005320627490590368,0.012319944962463634,-0.0016461489454662713,0.009941187412139873,0.9999973960172066,0.0013533724470550404,-0.0015553207516604017,0.000978426893070171
1714.3999999987695,-0.0020427809,-0.78289974,-0.002790565,-2.3554044,0.00016437049,1.5691543,0.7843116,0.04,0.03999992,-0.0027685675292321577,0.031191088098709296,-0.000909029110185422,0.013123122943309182,-0.0009067471936552371,0.010591510488393237,0.9999969528186788,0.0014655316820132746,-0.0016734317352375518,0.0010706056572818551
1714.4166666654362,-0.0022513685,-0.78274375,-0.0030572275,-2.3553278,0.00017104519,1.5689834,0.7841526,0.04,0.039999917,-0.003914623977974152,0.0320995564797083,-0.0010005359968534577,0.013949197715632388,-0.00013820673889127638,0.011261193446627413,0.9999964447066104,0.0015847288473932967,-0.0017981921662728888,0.0011686374768545237
1714.4333333321028,-0.0024727029,-0.7825786,-0.0033401577,-2.355246,0.00017812532,1.5688024,0.783984,0.04,0.039999917,-0.004543692217473527,0.0329969851594095,-0.0005260317617494792,0.014798814774473357,0.0006556109242342022,0.01195025581631665,0.9999958635405138,0.0017112355761747025,-0.0019299822723730922,0.0012726912795542754
1714.4499999987695,-0.002707124,-0.7824046,-0.003639788,-2.3551588,0.00018562417,1.5686107,0.7838055,0.039999995,0.0399999,-0.0038648713229783027,0.033871841067044384,-0.000939871751226562,0.0156707414733877,0.0014735135696913836,0.012659149288739652,0.9999952015411024,0.0018452563906451865,-0.002068674930775718,0.0013829344356862197
1714.4666666654362,-0.0029549648,-0.78222126,-0.003956543,-2.3550658,0.00019354795,1.5684079,0.78361666,0.04,0.039999902,-0.004212409247816851,0.03473569755080671,-0.0009428258783694687,0.016564633447911755,0.002317153056220312,0.01338529707320742,0.9999944494682442,0.001986900745850768,-0.00221464885044091,0.0014995294590313768
1714.4833333321028,-0.0032165514,-0.7820283,-0.004290839,-2.3549676,0.00020190951,1.568194,0.78341746,0.04,0.03999989,-0.005295065154942158,0.035574190609853965,-0.0010863114685788489,0.017480785495021568,0.0031852421354217324,0.014130550321004205,0.9999935969786653,0.002136450518343968,-0.002368252455207979,0.0016226401824941334
1714.4999999987695,-0.003492203,-0.7818255,-0.0046430854,-2.3548644,0.00021071841,1.5679686,0.78320754,0.04,0.039999895,-0.0061889955496496896,0.036395503041467166,-0.0014497319235085016,0.01841793212397494,0.004074281288283193,0.01489324336730861,0.9999926327750681,0.0022940319666728075,-0.0025299822149541366,0.0017524277204862763
1714.516666665436,-0.0037822342,-0.7816126,-0.0050136796,-2.3547544,0.00021998475,1.5677316,0.7829867,0.04,0.03999989,-0.0035676804776452187,0.037217940372252616,-0.0006656139305727393,0.019376211954453396,0.004982034550681318,0.015674249781371396,0.9999915477489904,0.0024598565823787904,-0.0026990822720703417,0.0018890450131071963
1714.5333333321028,-0.004086951,-0.7813893,-0.0054030144,-2.3546383,0.00022971763,1.5674825,0.7827547,0.04,0.039999887,-0.0049052738259280915,0.0380045828694971,-0.0012360869064309554,0.020354527439440613,0.0059166370814537576,0.016472263937269194,0.9999903285459255,0.0026340981643392077,-0.0028762264002740166,0.0020326492975881387
1714.5499999987694,-0.00440665,-0.78115535,-0.005811471,-2.3545165,0.00023992678,1.5672214,0.7825115,0.04,0.039999887,-0.005982253348690847,0.0387713751605831,-0.0011894032708736901,0.0213529534837193,0.00687193874345539,0.017287369643556472,0.999988961728184,0.0028169824188774384,-0.0030616704284399977,0.0021833932371356623
1714.566666665436,-0.0047416254,-0.7809106,-0.0062394203,-2.3543892,0.00025062106,1.5669477,0.78225654,0.04,0.039999884,-0.006755723047380258,0.039515483774676084,-0.001854008798485296,0.0223700014845164,0.007845693296836627,0.018120208280332797,0.9999874324380778,0.003008579446168987,-0.003255937204041985,0.0023414287390700677
1714.5833333321027,-0.005092163,-0.780655,-0.0066872262,-2.354256,0.0002618104,1.5666614,0.78198975,0.04,0.03999987,-0.006028127059720667,0.04025572218255575,-0.0016993241649831958,0.023406676336979505,0.008835332793160384,0.0189685302319554,0.9999857268774014,0.003209074206283211,-0.0034588038514515467,0.00250690249728515
1714.5999999987694,-0.00545854,-0.7803882,-0.0071552442,-2.3541157,0.00027350284,1.5663618,0.781711,0.03999999,0.03999985,-0.005074892235645834,0.04097915896274326,-0.0015776831181479878,0.024462042329677892,0.009843757958047747,0.019833709557192096,0.999983829619429,0.0034186739511856737,-0.0036702850722903886,0.002679958127362766
1714.616666665436,-0.0058410256,-0.7801097,-0.00764382,-2.3539689,0.00028570753,1.5660496,0.7814199,0.04,0.039999858,-0.00570619028148478,0.04167985020936758,-0.0011461057129347196,0.02553527247783505,0.01087227269904822,0.02071586776095731,0.9999817248969618,0.0036374604414548513,-0.0038903644874007776,0.0028607372806546826
1714.6333333321027,-0.0062398845,-0.7798196,-0.00815329,-2.3538156,0.00029843126,1.5657239,0.7811163,0.04,0.039999858,-0.006388232825926821,0.04234913970784203,-0.0019918852347533544,0.02662669561059473,0.0119182854617682,0.02161202037068956,0.9999793934938841,0.003865626166144178,-0.004119561448393914,0.0030493827933062096
1714.6499999987693,-0.0066553727,-0.77951765,-0.008683979,-2.353656,0.0003116834,1.5653844,0.78080004,0.04,0.03999985,-0.007185506196849545,0.0429968522497496,-0.0023541995017417605,0.02773522334400114,0.012981411988082524,0.022524427012605784,0.9999768155569164,0.004103296805935778,-0.004358274901156407,0.003246035097956709
1714.666666665436,-0.007087739,-0.77920353,-0.009236203,-2.3534906,0.00032547148,1.5650313,0.780471,0.04,0.039999846,-0.007864237782384542,0.04363252270810185,-0.0022445584846764177,0.028860695688431286,0.01405652837907379,0.02345266521335124,0.9999739707928829,0.004350681752405848,-0.004606634821700315,0.0034508289762911135
1714.6833333321026,-0.007537225,-0.77887726,-0.009810274,-2.353319,0.00033980314,1.5646641,0.780129,0.04,0.03999985,-0.007628894901401395,0.044251961848345775,-0.0026273539705856663,0.03000227364375679,0.015144354028827786,0.02439499890359402,0.9999708382986624,0.00460789466080314,-0.004864740010549568,0.0036639000662014704
1714.6999999987693,-0.008004065,-0.7785385,-0.0104064895,-2.3531399,0.00035468594,1.5642831,0.7797739,0.04,0.039999843,-0.005888392506192552,0.044877457510011584,-0.0018790938491219933,0.031159489395594306,0.016243145904492846,0.025352700061741694,0.9999673993619627,0.004875104669644452,-0.005132002976173715,0.0038853716920832764
1714.716666665436,-0.008488485,-0.77818716,-0.01102514,-2.3529534,0.00037012633,1.5638875,0.7794055,0.04,0.03999984,-0.006367867326440013,0.045448626859025815,-0.0025508503493476553,0.03233182735848767,0.0173595955897477,0.026324672635112293,0.9999636292218026,0.005152439695243403,-0.005408907818837325,0.004115375433110666
1714.7333333321026,-0.008990705,-0.77782303,-0.0116665065,-2.3527598,0.00038613204,1.5634776,0.77902347,0.04,0.039999828,-0.0067804934628989955,0.04601469292361063,-0.002391329000217546,0.03351871885485632,0.018489447333367732,0.02731080382976099,0.9999595051316886,0.005439964359031431,-0.005695370999773441,0.00435403648764352
1714.7499999987692,-0.009510937,-0.77744603,-0.012330861,-2.352559,0.00040270947,1.5630531,0.77862775,0.04,0.039999828,-0.007085066624790137,0.046550816038238435,-0.002844302221749473,0.034720218177791105,0.019632049107219572,0.02831004296267776,0.9999550008358643,0.005737823596538501,-0.005991665750657265,0.004601480767534951
1714.7666666654359,-0.010049389,-0.7770559,-0.013018466,-2.3523512,0.00041986548,1.5626137,0.77821815,0.04,0.039999813,-0.007448478521165924,0.04707411296651885,-0.003059833033947079,0.03593562104948527,0.020787981231027014,0.029324361159090408,0.9999500892278954,0.006046128197821712,-0.006298004357708214,0.004857831620149196
1714.7833333321025,-0.010606256,-0.77665275,-0.013729571,-2.3521361,0.00043760551,1.5621592,0.7777946,0.04,0.039999805,-0.0074832981843186985,0.047568748667695115,-0.0034502854823204032,0.037164839531149206,0.021954522607101616,0.030350398938760167,0.9999447425204514,0.006365038054597033,-0.0066144491860400615,0.005123207807314148
1714.7999999987692,-0.011181733,-0.7762363,-0.01446442,-2.351914,0.0004559365,1.5616896,0.7773568,0.04,0.039999805,-0.007738651909283689,0.04805526452683513,-0.0034136462546685564,0.03840669169736392,0.02313052392371964,0.031390290067061954,0.9999389326844849,0.006694590738390828,-0.006941030947200958,0.005397726007191414
1714.8166666654358,-0.0117759975,-0.77580607,-0.015223251,-2.3516843,0.00047486348,1.5612047,0.77690476,0.04,0.039999794,-0.008001943399293943,0.04852295508341459,-0.0034992743594752795,0.03966202061349832,0.024316801722390247,0.03244322008842746,0.999932627849622,0.007034965245689098,-0.0072780182471959,0.005681502982026622
1714.8333333321025,-0.0123892315,-0.7753622,-0.016006289,-2.3514473,0.000494392,1.5607039,0.77643824,0.04,0.03999979,-0.008046568800468279,0.04896282915656178,-0.00412599757360077,0.04092892866619201,0.025511129659249794,0.03350812404520829,0.999925796336254,0.007386215119200093,-0.007625558519968176,0.0059746552017446355
1714.8499999987691,-0.013021602,-0.7749046,-0.016813753,-2.351203,0.000514528,1.5601876,0.77595735,0.04,0.03999978,-0.008034714214355532,0.04939506713235453,-0.004034945467745743,0.04220796749865539,0.026710651308079106,0.03458574983231704,0.9999184064412906,0.007748566137450241,-0.007983471195896541,0.006277290051258789
1714.8666666654358,-0.013673267,-0.7744333,-0.01764584,-2.3509512,0.0005352761,1.5596559,0.7754618,0.04,0.039999776,-0.008031329443292101,0.04978624976939988,-0.004163420484970537,0.04349740777831436,0.02791711558896624,0.03567511760737429,0.9999104264064276,0.008122022170860284,-0.00835166262734742,0.006589510674631664
1714.8833333321024,-0.014344389,-0.77394783,-0.018502753,-2.3506916,0.0005566413,1.5591081,0.7749514,0.04,0.03999977,-0.008005082232487304,0.05019117337715026,-0.004440341750489019,0.04479759118303707,0.02913369034347084,0.03677605769505842,0.9999018192650196,0.008506652458658706,-0.008730455193487984,0.006911428692117091
1714.899999998769,-0.015035111,-0.7734483,-0.019384678,-2.350424,0.00057862856,1.5585446,0.7744261,0.04,0.039999776,-0.007800047984507508,0.050558606409262935,-0.004472935114696597,0.046108469650688454,0.030354773679775425,0.03788892833335617,0.9998925514752272,0.008902570607035656,-0.00911957443191527,0.0072431417995104585
1714.9166666654357,-0.015745576,-0.7729344,-0.020291805,-2.3501492,0.00060124305,1.5579648,0.7738857,0.04,0.039999817,-0.00915072773495229,0.05088727472482013,-0.00521715738250883,0.04742938056278724,0.03158358435243828,0.03901424881450542,0.9998825802866966,0.00930982691762287,-0.009519667677491041,0.007584766924021208
1714.9333333321024,-0.01647592,-0.77240616,-0.021224298,-2.3498666,0.0006244868,1.5573689,0.7733304,0.04,0.039999813,-0.008647057230248834,0.0512242677338931,-0.005212998736880969,0.04875984628397607,0.03281504392440394,0.04014914741159869,0.9998718689526958,0.00972861319342322,-0.009930428646120069,0.007936393972090769
1714.949999998769,-0.017226271,-0.77186364,-0.022182323,-2.3495765,0.00064836524,1.5567566,0.7727598,0.04,0.039999805,-0.008757010003734855,0.051534924355745027,-0.005652132334565962,0.05009890303701959,0.0340499620575546,0.04129586266660269,0.9998603778050543,0.010158908964212947,-0.010351935310760478,0.008298126265162605
1714.9666666654357,-0.017996741,-0.77130663,-0.023166036,-2.3492785,0.0006728814,1.556128,0.772174,0.04,0.0399998,-0.008591669748247988,0.051826144267418106,-0.0057095925043881834,0.05144675960884365,0.03528776747416096,0.042451074651325436,0.9998480658141627,0.010600860353832115,-0.010784116794521115,0.008670056078163962
1714.9833333321023,-0.01878745,-0.77073485,-0.024175573,-2.348973,0.0006980396,1.5554829,0.77157277,0.04,0.039999805,-0.009835390199075533,0.052066524223089855,-0.006220221503472345,0.05280228769962386,0.03652958820482843,0.043617613603671175,0.9998348862478865,0.011054459489533226,-0.011227435796187655,0.009052284380903223
1714.999999998769,-0.019598497,-0.7701485,-0.02521107,-2.34866,0.0007238431,1.5548211,0.7709561,0.04,0.03999979,-0.009210505323831164,0.05231918975506164,-0.006527539636613788,0.05416586423565091,0.037769411565889664,0.04479401670171076,0.9998207978655863,0.011519810834734976,-0.011681609745659623,0.00944489849096148
1715.0166666654357,-0.020429993,-0.76954734,-0.026272664,-2.348339,0.0007502945,1.5541426,0.7703239,0.04,0.03999979,-0.009251108189101132,0.052578118059359163,-0.006724117580736433,0.05553689592929953,0.03901112331220543,0.04598034700657803,0.9998057544164403,0.011996964237183341,-0.012146741350098756,0.009847992660352507
1715.0333333321023,-0.021282028,-0.7689313,-0.027360473,-2.34801,0.00077739696,1.5534475,0.769676,0.04,0.039999783,-0.008821338435716086,0.052807163879026175,-0.006735017283876488,0.05691500936814619,0.04025140166929342,0.04717686144300874,0.9997897129583609,0.012485984932741204,-0.012622544965841484,0.010261647113539637
1715.049999998769,-0.022154689,-0.76830053,-0.028474601,-2.3476732,0.0008051534,1.5527354,0.7690125,0.04,0.03999978,-0.009306489746241375,0.052967701580383664,-0.007457307966940441,0.058299425220196516,0.04149330384212216,0.04838107374801635,0.9997726231547887,0.012986925492664596,-0.013109239927026261,0.010685952693911385
1715.0666666654356,-0.02304805,-0.76765496,-0.029615153,-2.3473284,0.00083356636,1.5520067,0.7683332,0.04,0.039999772,-0.0092797769494668,0.05314973791647609,-0.007595550585293154,0.05969022355862944,0.042735104894603505,0.04959519757793494,0.9997544386719714,0.013499808392633593,-0.013606656528930783,0.011120990385624615
1715.0833333321023,-0.023962183,-0.76699436,-0.030782228,-2.3469758,0.00086263823,1.5512614,0.76763827,0.04,0.03999976,-0.009553274376372656,0.05331705139802051,-0.007699247455583702,0.06108686992579141,0.04397562188189591,0.05081808262717842,0.9997351076397676,0.014024801006200956,-0.014114804030466027,0.011566841246439736
1715.099999998769,-0.024897162,-0.7663185,-0.031975903,-2.3466146,0.0008923708,1.5504987,0.7669274,0.04,0.03999976,-0.008907111257361322,0.05346329962664792,-0.008194290530116888,0.062487857792620706,0.04521688790518208,0.05204978381493015,0.9997145784373386,0.014561825512174342,-0.014633806770532054,0.01202358503151354
1715.1166666654356,-0.025853043,-0.7656277,-0.033196263,-2.346245,0.0009227666,1.5497187,0.7662009,0.04,0.03999975,-0.008990070064185396,0.053576986012315864,-0.008723098732144052,0.06389456672581495,0.04645342549377954,0.05328973750869079,0.9996927981773112,0.015111063988000719,-0.01516352249715049,0.012491301095023737
1715.1333333321022,-0.026829885,-0.7649217,-0.034443382,-2.3458676,0.00095382694,1.5489221,0.765458,0.04,0.039999746,-0.009860358985713802,0.05368554702133571,-0.008748550328374627,0.06530453190537353,0.04768804300509631,0.05453779356316352,0.9996697182688826,0.01567222182426017,-0.015703920847580755,0.01297006974988464
1715.1499999987689,-0.027827729,-0.7642007,-0.035717305,-2.3454816,0.0009855533,1.548108,0.7646994,0.04,0.03999974,-0.008851646443419625,0.05375346106371304,-0.009340433478266519,0.06672078747064561,0.04892095737781588,0.05579367785095421,0.9996452793642898,0.016245698626298474,-0.016254919601487536,0.013459952064689825
1715.1666666654355,-0.028846618,-0.76346445,-0.0370181,-2.3450878,0.0010179478,1.547277,0.76392496,0.04,0.039999735,-0.01009255736323933,0.05381817794875149,-0.00961742144882649,0.0681396346971614,0.05015096716685352,0.0570573458162975,0.9996194237232322,0.01683145852343451,-0.016816637700246263,0.013961032041568556
1715.1833333321022,-0.029886588,-0.76271284,-0.038345803,-2.3446856,0.0010510103,1.5464286,0.7631345,0.04,0.039999727,-0.009677828658860577,0.05385770953879043,-0.010025504036748067,0.06956100149106338,0.05137544365719595,0.05832835897139768,0.9995920942191421,0.017429447942374308,-0.017389103523284086,0.014473375476041626
1715.1999999987688,-0.030947668,-0.7619462,-0.03970044,-2.3442752,0.0010847427,1.5455629,0.7623279,0.04,0.03999972,-0.009696835527139847,0.05386062204868619,-0.010625137203468249,0.07098535644307884,0.05259376044169385,0.05960653670693504,0.9995632352505255,0.018039666360885227,-0.01797213603749014,0.01499704968787196
1715.2166666654355,-0.032029886,-0.7611643,-0.041082073,-2.3438568,0.0011191454,1.5446801,0.76150525,0.04,0.03999971,-0.009941684021219643,0.053921335340118004,-0.010703106570431054,0.07241274685506002,0.05380744322924546,0.0608918326848482,0.9995327872315095,0.01866215763101676,-0.018565672187335177,0.015532125997343708
1715.2333333321021,-0.033133272,-0.7603672,-0.04249068,-2.3434303,0.0011542185,1.5437801,0.76066655,0.04,0.03999972,-0.009993495283100451,0.053865682267455195,-0.011308834485257435,0.07384245331243364,0.055014990366825285,0.06218335283368763,0.9995006878692724,0.019296965319841965,-0.019169737778399993,0.016078657649299558
1715.2499999987688,-0.034257796,-0.7595548,-0.043926302,-2.3429956,0.0011899634,1.5428628,0.7598118,0.04,0.03999971,-0.010176058450683811,0.05382196301848413,-0.011642911840636927,0.07527388136040739,0.05621588918736823,0.06348174673289061,0.9994668744396744,0.019944095833823294,-0.019784326819940974,0.016636716967035014
1715.2666666654354,-0.035403475,-0.75872695,-0.045388937,-2.3425531,0.00122638,1.5419284,0.75894094,0.04,0.03999971,-0.010688023214067144,0.053774187052713085,-0.011919187337916526,0.0767068464761784,0.05740752721100142,0.06478601224839171,0.9994312841739497,0.020603505598532405,-0.020409430888696886,0.017206362261110247
1715.283333332102,-0.03657033,-0.7578839,-0.04687859,-2.3421023,0.0012634699,1.5409765,0.7580539,0.04,0.039999753,-0.009815076722974325,0.053744942992577094,-0.012601598671957426,0.07814127051758214,0.058590265309920654,0.06609759369499993,0.9993938555603905,0.021275211289666633,-0.021044862039574154,0.017787653989571033
1715.2999999987687,-0.03775833,-0.75702536,-0.048395246,-2.3416436,0.00130123,1.5400077,0.7571508,0.04,0.039999753,-0.010821390266468889,0.05363194855561998,-0.012633053907573633,0.07957684302480811,0.059764886547285616,0.06741349055722422,0.9993545211027796,0.02195926371075576,-0.021690641306187676,0.018380641132501718
1715.3166666654354,-0.03896748,-0.7561514,-0.04993889,-2.341176,0.0013396615,1.5390217,0.7562318,0.04,0.039999742,-0.009283916225388822,0.05361597341388552,-0.012820428321558275,0.08101259803431383,0.060929043063764975,0.06873568357657696,0.9993132230388578,0.022655699486532545,-0.022346311196840423,0.018985360580192876
1715.333333332102,-0.040197745,-0.75526273,-0.05150951,-2.3407004,0.0013787621,1.5380183,0.75529677,0.04,0.039999746,-0.009741701807230996,0.053403040674082636,-0.014199372497003537,0.08244804690815791,0.062086628594208104,0.0700614253115974,0.9992698933009905,0.02336449241743304,-0.02301188820398892,0.019601883521481515
1715.3499999987687,-0.04144912,-0.75435877,-0.05310707,-2.3402166,0.0014185334,1.5369977,0.75434566,0.04,0.03999975,-0.010481965615483091,0.05329474215529234,-0.014189914825957217,0.08388281342827253,0.06323607213623889,0.0713925410263658,0.9992244595308835,0.024085579373938,-0.02368756537592796,0.020230264160329966
1715.3666666654353,-0.042721562,-0.7534393,-0.05473151,-2.339725,0.0014589735,1.53596,0.75337845,0.04,0.03999974,-0.011059165472193655,0.0530980949707438,-0.014467964466469141,0.0853170811742765,0.06437301734459987,0.07272924244908427,0.9991768515547124,0.024818928346210446,-0.024373357336966495,0.02087054299922207
1715.383333332102,-0.04401503,-0.7525049,-0.056382805,-2.339225,0.0015000814,1.534905,0.75239533,0.04,0.03999974,-0.00979189776781908,0.05295888505717217,-0.015164783250543046,0.0867511360394407,0.06549635454332312,0.07406970092969344,0.9991270074603332,0.025564602395990843,-0.02506880234832492,0.021522760429704867
1715.3999999987686,-0.045329478,-0.75155526,-0.058060892,-2.338717,0.0015418568,1.5338331,0.7513962,0.04,0.03999974,-0.010369958683953406,0.05276296033385197,-0.01524053814150328,0.08818370237177658,0.06661098869284285,0.07541406546804613,0.9990748594617207,0.02632250757919689,-0.025773821976277738,0.0221869530810663
1715.4166666654353,-0.046664868,-0.75059044,-0.059765723,-2.3382008,0.0015842973,1.532744,0.7503812,0.04,0.03999973,-0.0105528012774192,0.05254486881558218,-0.016064297801787752,0.08961512793496963,0.06771346083070995,0.07676310689809757,0.9990203280711417,0.02709270160482853,-0.026488576938815362,0.022863178084780864
1715.433333332102,-0.048021156,-0.7496106,-0.061497226,-2.3376765,0.0016274011,1.5316378,0.74935037,0.04,0.039999723,-0.010372133601399547,0.052324191594485536,-0.016536611984352412,0.09104422033802978,0.06880322194700601,0.07811514629677581,0.9989633449066257,0.027875173234479966,-0.027212839090232845,0.023551467868536013
1715.4499999987686,-0.04939828,-0.74861574,-0.063255325,-2.3371441,0.0016711671,1.5305148,0.7483038,0.04,0.039999723,-0.010291320423250205,0.052105862176640705,-0.01664274921855391,0.09247099336308509,0.06987934360088768,0.07947085209699377,0.9989038448375746,0.02866987561790937,-0.027946289623573487,0.024251843167884
1715.4666666654352,-0.050796177,-0.74760586,-0.065039955,-2.3366039,0.0017155932,1.5293746,0.7472414,0.04,0.03999972,-0.010899027436561681,0.05178360669534088,-0.017684277575114038,0.09389485970853591,0.0709423361357029,0.08082960346583881,0.99884174292783,0.029476752402160106,-0.028689261971012688,0.024964372619299017
1715.483333332102,-0.052214768,-0.7465811,-0.066851005,-2.3360555,0.0017606769,1.528218,0.74616325,0.04,0.039999716,-0.010161125322150077,0.051570963344538256,-0.017383506246071434,0.09531580577797609,0.07199073631492998,0.08219089092803845,0.9987769849643057,0.030295774224010072,-0.029441020050791775,0.025689038676984573
1715.4999999987685,-0.053653993,-0.7455414,-0.06868838,-2.335499,0.0018064169,1.5270443,0.74506927,0.04,0.039999716,-0.010434953282056902,0.05121128009023257,-0.01849718712678694,0.09673361712614453,0.07302677727908019,0.08355526119759335,0.9987094866594737,0.031126814593071164,-0.03020189350488964,0.02642590203528619
1715.5166666654352,-0.05511376,-0.7444868,-0.07055199,-2.3349342,0.0018528102,1.5258539,0.7439599,0.04,0.03999972,-0.009960688494614622,0.050977171888957895,-0.018503174056538896,0.09814921971358266,0.074046168755259,0.08492134545483572,0.9986391773626102,0.031970051919689726,-0.030971446378386554,0.027174965060001808
1715.5333333321018,-0.056594003,-0.74341744,-0.07244174,-2.3343618,0.0018998552,1.5246468,0.74283504,0.04,0.03999976,-0.011059332601903726,0.050573159692285374,-0.019403551690988508,0.09955954439878231,0.07505335813156534,0.08629164849142018,0.9985659742107965,0.032825355156024284,-0.03174988704364113,0.027936282502146276
1715.5499999987685,-0.05809462,-0.7423335,-0.074357525,-2.3337815,0.0019475474,1.5234228,0.74169457,0.04,0.039999764,-0.010545226955449571,0.05023054985048847,-0.019962928315209183,0.10096566912615361,0.07604288540126196,0.08766167461703835,0.9984898086659825,0.0336925813740141,-0.032536977436025225,0.028709877217655128
1715.5666666654352,-0.05961552,-0.74123466,-0.07629919,-2.333193,0.001995886,1.5221825,0.7405388,0.04,0.03999976,-0.010362442996081356,0.04990453051178789,-0.01993371141411071,0.10236784899431228,0.07701564718327303,0.08903182436425483,0.998410606734703,0.034571797836109336,-0.033332455719005845,0.02949573782365668
1715.5833333321018,-0.0611566,-0.7401213,-0.078266636,-2.332597,0.0020448656,1.5209259,0.7393676,0.04,0.039999753,-0.010804185205293138,0.04949911599508028,-0.020641481934302597,0.10376522401497087,0.07797258256225799,0.09040540996476819,0.9983282942089227,0.03546288967244472,-0.0341362010616597,0.030293897323731365
1715.5999999987685,-0.06271776,-0.73899364,-0.08025972,-2.3319933,0.0020944844,1.5196528,0.73818123,0.04,0.03999976,-0.01064585670698115,0.049047566179791224,-0.021442984062769455,0.10515771082679674,0.07891344409405396,0.09177803725126132,0.9982427920831838,0.03636584176225952,-0.03494812546913383,0.031104374822289126
1715.616666665435,-0.06429888,-0.73785144,-0.082278304,-2.331382,0.0021447383,1.5183635,0.73697966,0.04,0.039999746,-0.010918164456330537,0.04865445493298648,-0.021720567403082924,0.10654467037144574,0.07983682132700638,0.09315254481342541,0.9981540213807781,0.0372805640882602,-0.035768197171138064,0.031927186123564676
1715.6333333321018,-0.06589987,-0.7366948,-0.08432225,-2.3307629,0.0021956246,1.517058,0.73576283,0.04,0.03999975,-0.010373349296943779,0.04829165627029952,-0.021985334104046572,0.1079263623427141,0.08074084585221677,0.09452554258389237,0.9980619173757771,0.038206936393508785,-0.0365960258669928,0.03276232571647558
1715.6499999987684,-0.06752062,-0.7355242,-0.08639142,-2.330136,0.0022471407,1.5157362,0.73453116,0.04,0.039999746,-0.010407347303353909,0.04778704524366073,-0.023006920005119724,0.1093027919159866,0.08162728294169898,0.09589870575970935,0.9979663939738135,0.039145057648465285,-0.03743155380079282,0.033609816135466035
1715.666666665435,-0.06916099,-0.7343393,-0.088485606,-2.3295016,0.0022992822,1.5143986,0.7332846,0.04,0.039999742,-0.010582002543424451,0.047318101736734675,-0.023005224981398342,0.1106723732119419,0.08249605300300708,0.09727191966954447,0.997867381253129,0.040094776940101176,-0.03827456938919685,0.03446963346508736
1715.6833333321017,-0.07082081,-0.73314035,-0.090604685,-2.3288605,0.0023520452,1.5130451,0.73202324,0.04,0.03999974,-0.01198799446371357,0.046653895184525784,-0.024061974361200278,0.11203571137607188,0.08334642331489324,0.09864464068187166,0.9977647842193479,0.04105600845475431,-0.039125365291633483,0.035341835440137574
1715.6999999987684,-0.07250001,-0.7319274,-0.09274849,-2.3282118,0.0024054244,1.511676,0.73074734,0.04,0.03999974,-0.010331649750128236,0.04642038935295523,-0.023955071863746014,0.11339274338656717,0.0841724019880078,0.10001547879658207,0.9976585444055968,0.04202880645035228,-0.03998322690494189,0.036226368423190665
1715.716666665435,-0.074198425,-0.73070043,-0.09491684,-2.3275554,0.0024594162,1.5102911,0.72945666,0.04,0.03999974,-0.010394624991150181,0.045831030430240616,-0.02453098459385128,0.11474215987470376,0.08498099751534506,0.10138522228080955,0.9975485887956667,0.04301290081973678,-0.040848114639887516,0.037123239153015304
1715.7333333321017,-0.075915925,-0.72945976,-0.09710956,-2.3268912,0.0025140173,1.5088902,0.72815144,0.04,0.039999742,-0.009798001571081905,0.04531753392002791,-0.025342742259737427,0.11608510972290925,0.0857698933669702,0.10275390833361875,0.9974348389230231,0.0440082886246039,-0.04171984638022632,0.03803244736993694
1715.7499999987683,-0.077652365,-0.7282055,-0.09932646,-2.3262196,0.0025692233,1.5074738,0.7268319,0.04,0.039999787,-0.01029865087769366,0.044758788924181836,-0.025586820062306614,0.11742072019557027,0.08653848912455729,0.10411964783570853,0.9973172212053552,0.045014953884279583,-0.04259815231789647,0.03895396813068224
1715.766666665435,-0.079407595,-0.7269376,-0.101567365,-2.3255413,0.002625029,1.5060425,0.7254982,0.04,0.039999787,-0.011473718178756087,0.04413588934808754,-0.026130203131446983,0.11874827574236076,0.08728661702860338,0.1054843947879795,0.9971956464660643,0.046032821748308216,-0.04348314452092254,0.03988781936367414
1715.7833333321016,-0.081181444,-0.72565645,-0.103832066,-2.3248556,0.0026814272,1.504596,0.7241503,0.04,0.039999776,-0.009902153489971255,0.043624279257395426,-0.026571061134150753,0.12006753780829248,0.08801399170512861,0.10684440808438014,0.9970700625366292,0.04706174035895646,-0.044374222197821354,0.040833949012150615
1715.7999999987683,-0.08297378,-0.72436184,-0.10612035,-2.3241627,0.0027384157,1.5031343,0.72278833,0.04,0.039999783,-0.010604612914000278,0.04298519204719298,-0.027139783558505215,0.12137867106131363,0.08872112167645996,0.10820130020586541,0.9969403769319201,0.0481016284809905,-0.04527158595711654,0.04179236395856682
1715.816666665435,-0.08478443,-0.72305393,-0.10843206,-2.3234627,0.0027959899,1.5016572,0.7214125,0.04,0.039999787,-0.010433872799353594,0.04243127935185664,-0.027726616426204664,0.12268184777984323,0.089405173547167,0.10955625619653492,0.9968065120277677,0.049152442085646716,-0.046175050366774426,0.04276306513427856
1715.8333333321016,-0.08661324,-0.7217329,-0.11076692,-2.3227558,0.0028541423,1.5001667,0.72002286,0.04,0.039999787,-0.010241457780035823,0.04190059544151581,-0.027133002073931323,0.12397604230642217,0.09006619429469502,0.11090531611294173,0.9966684319784781,0.050214082104886586,-0.04708372352153182,0.04374592135586354
1715.8499999987682,-0.08846001,-0.7203991,-0.113124736,-2.322042,0.0029128701,1.4986616,0.7186196,0.04,0.039999783,-0.010137517556407794,0.04116428541391659,-0.028402822556095053,0.12526063123636016,0.09071134744245003,0.11225223059563966,0.996526046312251,0.051286438024141776,-0.047997773773690446,0.04474096566725909
1715.8666666654349,-0.09032462,-0.7190522,-0.115505315,-2.3213217,0.0029721677,1.4971416,0.71720284,0.04,0.03999978,-0.011329945637483796,0.04038821414961424,-0.029448668432796588,0.126536502769925,0.0913345626736276,0.11359472852209666,0.9963792411595093,0.05236944427624208,-0.04891775529719972,0.04574824924826326
1715.8833333321015,-0.09220681,-0.7176927,-0.1179084,-2.3205948,0.003032029,1.4956064,0.7157726,0.04,0.039999783,-0.010519923401597353,0.039628046990619614,-0.030085582647565445,0.12780264827568438,0.09193103112384816,0.11493085607164646,0.9962279580323012,0.05346288864064412,-0.04984330369636743,0.046767726581707414
1715.8999999987682,-0.09410649,-0.7163206,-0.120333746,-2.319861,0.003092448,1.4940578,0.7143291,0.04,0.03999978,-0.009689326543504961,0.03930733028397748,-0.029201856083038713,0.12905986811783196,0.09250132291160605,0.11626178400922606,0.996072170188008,0.054566757462572925,-0.050773349001411616,0.047799244639989406
1715.9166666654348,-0.096023396,-0.714936,-0.12278115,-2.3191197,0.0031534198,1.4924948,0.7128729,0.04,0.039999783,-0.008996003207362158,0.03857025343542153,-0.030109219038410018,0.1303068623743367,0.09305246373608306,0.1175865102132726,0.9959117841913165,0.055681149842896835,-0.05170792475276869,0.048842790448573536
1715.9333333321015,-0.097957395,-0.713539,-0.12525034,-2.3183715,0.0032149383,1.4909183,0.7114038,0.04,0.039999783,-0.009609747800309876,0.03788958222727401,-0.030255174119031558,0.13154260492095393,0.09358206940704189,0.1189088183776511,0.9957467421229318,0.05680578874275202,-0.05264680908539392,0.04989831069292553
1715.9499999987681,-0.09990825,-0.71212983,-0.12774108,-2.3176177,0.0032769977,1.4893277,0.7099216,0.04,0.039999824,-0.011321311986089988,0.03676369701216542,-0.031799185970005084,0.13276704358904978,0.09409204406103178,0.12022397750071276,0.9955769392292824,0.05794037447695341,-0.05359057762389815,0.050965881433180614
1715.9666666654348,-0.10187581,-0.7107089,-0.1302532,-2.316857,0.0033395907,1.4877236,0.70842665,0.04,0.039999828,-0.009197838538410608,0.03645963121552409,-0.031552323873640375,0.13398202458980507,0.09457329791382814,0.12152906342904735,0.9954023494551993,0.059084946202612426,-0.05453816153967756,0.05204537219749463
1715.9833333321014,-0.10385984,-0.70927584,-0.13278632,-2.3160899,0.003402712,1.486106,0.70691895,0.04,0.039999824,-0.009645451013096107,0.03556865604443238,-0.03172844712362455,0.13518675639831176,0.0950334342827315,0.1228301749297005,0.9952228977459945,0.060239266898484065,-0.055489674966046065,0.053136715157804715
1715.999999998768,-0.10586014,-0.7078311,-0.13534024,-2.3153172,0.0034663556,1.4844753,0.70539933,0.04,0.039999824,-0.010989739620925754,0.03459119158371049,-0.032820855012571926,0.1363813961684388,0.09547070488737196,0.1241224299972448,0.9950384749115068,0.06140354788229687,-0.05644527376212519,0.05423991909256286
1716.0166666654347,-0.107876495,-0.7063747,-0.13791469,-2.3145378,0.0035305154,1.4828317,0.7038673,0.04,0.03999982,-0.008895604334346885,0.03417856602943581,-0.032304910968083966,0.13756302601001674,0.09588068836492467,0.1254057374347155,0.9948490812751377,0.0625773908538866,-0.05740399488102228,0.05535482825945545
1716.0333333321014,-0.10990873,-0.70490694,-0.14050937,-2.3137517,0.0035951843,1.481175,0.70232326,0.04,0.039999824,-0.008731540728046383,0.03330790835183173,-0.03319565991908302,0.13873402774288618,0.09627074329696393,0.12668315697430987,0.9946546340081599,0.06376076537991389,-0.05836586786010323,0.05648140679195217
1716.049999998768,-0.11195663,-0.703428,-0.14312407,-2.31296,0.0036603548,1.4795055,0.70076734,0.04,0.039999824,-0.00993273562959196,0.032444869549258515,-0.033724155715009196,0.1398928891894744,0.09663673093551664,0.12795015836389947,0.9944550548668756,0.06495357247555503,-0.05933088631790594,0.05761964249380686
1716.0666666654347,-0.11401995,-0.7019377,-0.14575848,-2.3121622,0.0037260216,1.4778234,0.69919974,0.04,0.039999817,-0.009685746213872193,0.03158011894013879,-0.033997343533975766,0.14104020318846383,0.0969788338963995,0.12920959059055162,0.9942502775157908,0.06615566534126631,-0.06029896274945303,0.058769453752502566
1716.0833333321013,-0.11609849,-0.7004365,-0.14841232,-2.311359,0.0037921772,1.4761289,0.6976205,0.04,0.039999824,-0.009875176171192379,0.030739489757075633,-0.03447530722380243,0.14217470978387647,0.09729496423096498,0.130458787256525,0.9940402498935158,0.06736687321156751,-0.061269794720696366,0.05993077873861484
1716.099999998768,-0.11819201,-0.6989244,-0.1510853,-2.3105495,0.0038588145,1.4744225,0.69602996,0.04,0.03999982,-0.008598875386733873,0.03012371737269315,-0.03432879950424628,0.1432977780571399,0.09758547106481179,0.13169773099352625,0.9938249357849042,0.06858714530988652,-0.062242798169638534,0.06110347442155398
1716.1166666654346,-0.120300286,-0.6974018,-0.15377717,-2.309734,0.003925927,1.4727037,0.69442827,0.04,0.039999824,-0.008685329277779985,0.029186783659429505,-0.035144774561368664,0.14440786684665635,0.09785464560905102,0.13292805797505353,0.9936042631994079,0.06981634834701722,-0.06321797043047893,0.0622875097439362
1716.1333333321013,-0.122423075,-0.6958686,-0.1564876,-2.308913,0.003993506,1.4709731,0.69281554,0.04,0.039999828,-0.009005386896787648,0.028328402937577435,-0.035208327279856455,0.14550476268361778,0.09809920466574633,0.13414732680283903,0.9933781776158325,0.07105431735305517,-0.06419513641068794,0.06348279045026248
1716.149999998768,-0.12456019,-0.6943252,-0.15921627,-2.3080873,0.0040615485,1.469231,0.69119185,0.04,0.039999843,-0.010364780985883115,0.027151275987163936,-0.036174306758263164,0.14658861735738127,0.09831984277919335,0.1353566181961243,0.9931466011748751,0.07230083622052806,-0.0651744664854233,0.06468930804195248
1716.1666666654346,-0.12671137,-0.69277173,-0.16196293,-2.3072555,0.0041300436,1.4674774,0.68955743,0.04,0.039999872,-0.007532614570893159,0.026799088797152537,-0.0356381535388417,0.14766013396209354,0.0985121440120612,0.1365522850464614,0.992909537188814,0.0735558449393923,-0.06615493907697031,0.06590684843375225
1716.1833333321013,-0.12887637,-0.6912082,-0.16472723,-2.3064184,0.0041989833,1.4657124,0.68791264,0.04,0.03999987,-0.009009390776015813,0.025600996561880862,-0.03641696858469601,0.1487181466867635,0.09868310905325027,0.1377372809357283,0.9926668868311004,0.07481925831443806,-0.06713694601823508,0.06713539196037761
1716.199999998768,-0.13105498,-0.689635,-0.16750889,-2.305576,0.0042683613,1.4639364,0.6862575,0.04,0.03999987,-0.00842662673599115,0.02482862862622226,-0.03657936920504756,0.14976262325973438,0.0988290180310058,0.13891147080147406,0.9924186291989641,0.07609086619528252,-0.06811995570792087,0.06837482091275768
1716.2166666654346,-0.13324693,-0.6880522,-0.17030764,-2.304729,0.00433817,1.4621496,0.6845924,0.04,0.039999872,-0.009058073567613789,0.02382302662994884,-0.037049172363623484,0.15079245136471825,0.09895134130525896,0.14007044174852307,0.9921646836541476,0.07737066397614306,-0.06910404158557709,0.06962508385556836
1716.2333333321012,-0.13545194,-0.68645984,-0.17312308,-2.3038764,0.004408402,1.4603523,0.6829172,0.04,0.039999865,-0.007740708717407507,0.023089489714739342,-0.03669339534777549,0.15180812829162277,0.09904655379864355,0.14121837914032206,0.9919050612025385,0.07865825626880805,-0.07008855674324539,0.07088598236032127
1716.2499999987679,-0.13766983,-0.68485796,-0.17595497,-2.303019,0.0044790492,1.4585444,0.6812323,0.04,0.039999876,-0.0088572032880041,0.022067725664071114,-0.037445021049453686,0.1528110229037779,0.09912017745900056,0.14235257960807868,0.9916396561928514,0.07995370285714531,-0.0710738382512995,0.07215751645797465
1716.2666666654345,-0.13990036,-0.68324715,-0.17880295,-2.302157,0.004550103,1.4567262,0.67953795,0.04,0.039999876,-0.008087601570250236,0.021153193783596258,-0.03771541567434422,0.1537980937166867,0.09916677723858704,0.14347179850378522,0.9913684523333789,0.08125686759459909,-0.07205934147310537,0.07343952950078853
1716.2833333321012,-0.1421432,-0.6816274,-0.18166667,-2.3012896,0.004621557,1.4548979,0.67783415,0.04,0.039999872,-0.007259715629248653,0.020303782113595403,-0.0375907712043988,0.15477061684652046,0.09918834544721722,0.14457781333959238,0.9910914369149874,0.08256745486567356,-0.07304469475147633,0.07473186495367426
1716.2999999987678,-0.1443981,-0.6799992,-0.18454587,-2.3004177,0.0046934024,1.4530599,0.67612123,0.04,0.039999865,-0.007735674522346692,0.019265441817450935,-0.038059278689406284,0.155728498333302,0.09918720969330397,0.14567057116414556,0.9908085620023003,0.08388538835569476,-0.07402970863218689,0.07603444826643953
1716.3166666654345,-0.14666475,-0.6783623,-0.18744019,-2.2995417,0.004765633,1.4512124,0.6743994,0.04,0.03999987,-0.008591950579606156,0.01813738498510631,-0.03830597295002569,0.1566712923340345,0.09916412327200536,0.14674697059728103,0.9905197610655228,0.08521048305567056,-0.07501457667685192,0.07734720293657454
1716.3333333321011,-0.14894302,-0.67671674,-0.19034927,-2.298661,0.0048382385,1.4493555,0.6726687,0.04,0.039999872,-0.007451667553204366,0.017551622937939104,-0.03805689772977683,0.157598990648126,0.09911401163296563,0.147807704315921,0.9902250196872358,0.08654262101055196,-0.07599884578427324,0.07866994707952736
1716.3499999987678,-0.1512326,-0.675063,-0.19327281,-2.2977755,0.0049112104,1.4474894,0.67092943,0.04,0.039999876,-0.00677226163288136,0.016624054070324412,-0.038320725032181535,0.15851202830849237,0.09903902619224118,0.1488532423480476,0.9899243251160218,0.08788165507080226,-0.07698206740007975,0.08000254086224388
1716.3666666654344,-0.1535332,-0.6734012,-0.19621049,-2.2968867,0.0049845423,1.4456142,0.6691819,0.04,0.03999988,-0.00885299400308348,0.01515488979963453,-0.03912382910522538,0.159409045837118,0.09894293660021569,0.14988516115562678,0.9896175776874774,0.08922742245012676,-0.07796478935963011,0.08134499760271026
1716.383333332101,-0.15584458,-0.6717321,-0.19916192,-2.2959929,0.005058224,1.4437302,0.66742605,0.04,0.039999895,-0.005166855479465937,0.014750769401639108,-0.038696725647024977,0.16029052504264307,0.09881577621337666,0.1508984328606848,0.9893048699080599,0.0905796945786161,-0.0789455697323186,0.08269697894047241
1716.3999999987677,-0.15816647,-0.6700554,-0.20212674,-2.2950957,0.005132247,1.4418377,0.6656623,0.04,0.039999917,-0.008168221955018318,0.013258442233199386,-0.039237114833623465,0.16115558450047424,0.0986723848656505,0.15189464431585095,0.9889860733658317,0.09193835315995123,-0.07992528618856327,0.0840585185114885
1716.4166666654344,-0.16049857,-0.6683713,-0.20510466,-2.2941935,0.0052066003,1.4399368,0.6638909,0.04,0.039999936,-0.005079130038954105,0.01297128995629282,-0.03853684625809706,0.16200531419292052,0.09850245832391075,0.1528733800791359,0.9886612468030415,0.09330334912321034,-0.08090277839047556,0.08542929568332791
1716.433333332101,-0.1628406,-0.66668016,-0.2080953,-2.2932882,0.0052812803,1.4380281,0.6621119,0.04,0.039999932,-0.007603779603360117,0.011355230209819656,-0.03922443633097572,0.16283708273628586,0.09831312597528631,0.15383606726003135,0.9883303208938854,0.09467434072381023,-0.08187850224244543,0.08680931333005341
1716.4499999987677,-0.16519234,-0.66498184,-0.21109834,-2.2923791,0.005356276,1.4361112,0.6603256,0.04,0.039999947,-0.006561678280725403,0.01061992024010694,-0.039321087983856806,0.16365338303659077,0.09809951819919496,0.1547782486306647,0.9879932582758578,0.09605129268221686,-0.08285231828349135,0.0881984361005357
1716.4666666654343,-0.16755345,-0.66327703,-0.21411337,-2.2914665,0.0054315794,1.4341866,0.6585322,0.04,0.03999994,-0.006050522833556116,0.009492401780758497,-0.03942169917943161,0.16445273959501033,0.09786035977965145,0.15570489964883316,0.9876500783741172,0.0974339652817861,-0.08382373867898398,0.0895964615983533
1716.483333332101,-0.16992368,-0.66156566,-0.21714003,-2.2905507,0.005507182,1.4322547,0.65673184,0.04,0.03999994,-0.006690861860558783,0.008461429918427132,-0.039324008728103266,0.16523566723855831,0.09759802982814131,0.1566112499719915,0.9873007538001908,0.0988221535178888,-0.08479273875336878,0.0910032690312002
1716.4999999987676,-0.1723028,-0.6598478,-0.220178,-2.2896311,0.005583072,1.4303157,0.6549247,0.04,0.03999994,-0.005400349660056314,0.007902928460645775,-0.03889436672073199,0.16600184683393682,0.0973131406443089,0.15749785186936993,0.9869453044956803,0.10021574926771765,-0.08575877554992911,0.09241862338736474
1716.5166666654343,-0.17469043,-0.6581237,-0.22322696,-2.2887077,0.0056592436,1.4283699,0.6531113,0.04,0.03999994,-0.0050496422835166754,0.0069048829616502605,-0.038922043699041176,0.16675092368381544,0.0970077098688415,0.15836643325619398,0.9865837090105283,0.101614716717817,-0.0867216448993661,0.09384237191874033
1716.533333332101,-0.17708637,-0.6563936,-0.2262865,-2.2877812,0.0057356884,1.4264174,0.65129143,0.04,0.03999994,-0.00568789103916334,0.005666224435552092,-0.03924294915884641,0.16748116980906125,0.09668154083740194,0.15921590930139912,0.9862159580047463,0.10301867861235384,-0.08768137059984575,0.09527441043364009
1716.5499999987676,-0.17949025,-0.6546577,-0.22935621,-2.286852,0.0058123963,1.4244583,0.6494657,0.04,0.039999943,-0.0057425370954433674,0.00447540307293437,-0.03928881421240149,0.16819427408525983,0.09633395265819349,0.16004466453066513,0.9858420243705506,0.10442756048187901,-0.0886379034375469,0.096714578378724
1716.5666666654342,-0.18190183,-0.65291625,-0.23243573,-2.2859197,0.005889358,1.422493,0.647634,0.04,0.039999943,-0.005396538692115094,0.0035930661530070296,-0.03908392852218778,0.16888945151275825,0.09596315110750153,0.16085344205592716,0.9854619275184892,0.10584110629158658,-0.08959093507047061,0.09816269140419742
1716.583333332101,-0.1843208,-0.6511698,-0.23552476,-2.2849848,0.0059665632,1.4205216,0.6457967,0.04,0.039999943,-0.005013308429191454,0.002542965754770421,-0.03936310773933194,0.16956750401843984,0.09557035485669299,0.16163976376926373,0.9850756724918737,0.10725914591002154,-0.09054019210651164,0.09961861621530219
1716.5999999987675,-0.18674685,-0.6494181,-0.23862287,-2.2840474,0.006044002,1.4185444,0.643954,0.04,0.039999943,-0.005058310638950125,0.001569817589319733,-0.03900562607426217,0.17022791255615466,0.09515630057820262,0.16240600910901518,0.9846832517158234,0.10868151163700356,-0.0914856220974732,0.10108216345175255
1716.6166666654342,-0.18917978,-0.64766145,-0.24172974,-2.2831068,0.006121669,1.4165617,0.64210624,0.04,0.039999943,-0.0039886704419345165,0.0009688290081188988,-0.03854839487935635,0.17087058919087472,0.09471989188526889,0.16315027652819614,0.9842846915416847,0.11010819785110215,-0.09242671319662898,0.1025530762597647
1716.6333333321008,-0.19161925,-0.64590013,-0.24484499,-2.282164,0.006199552,1.4145737,0.6402536,0.04,0.039999947,-0.004936381146647406,-0.0004508469371833357,-0.03897371031003072,0.17149361444810474,0.09426484204550795,0.1638734232565569,0.9838799651765606,0.11153891921651365,-0.09336366105438342,0.10403129538126474
1716.6499999987675,-0.19406493,-0.64413434,-0.24796815,-2.2812185,0.0062776427,1.4125805,0.63839614,0.04,0.039999943,-0.0034975328571329456,-0.0012187268438434984,-0.03834910560887028,0.17209766229759388,0.09378820213243705,0.1645749072350115,0.9834691459227414,0.11297339917550349,-0.09429589918609345,0.10551650815589118
1716.6666666654341,-0.19651654,-0.64236426,-0.251099,-2.2802703,0.0063559324,1.4105825,0.6365341,0.04,0.039999954,-0.0035343930714137883,-0.0020536683100091935,-0.038207761180908406,0.1726837040660807,0.09329315853335027,0.16525332209028398,0.9830522363506553,0.11441152320681747,-0.09522325573403338,0.10700857690335813
1716.6833333321008,-0.19897383,-0.64059013,-0.25423703,-2.2793205,0.006434411,1.4085802,0.6346679,0.04,0.03999994,-0.004546688211726213,-0.0034399624180170285,-0.03833053232076278,0.1732507074566108,0.09278114159370073,0.1659102948271688,0.9826292094661027,0.11585316003135986,-0.09614589796049759,0.10850736528061061
1716.6999999987675,-0.20143646,-0.6388122,-0.25738192,-2.2783687,0.0065130685,1.4065733,0.6327976,0.04,0.039999958,-0.0038327063351051294,-0.004394071114666165,-0.0382243277578187,0.17379872948909741,0.0922466860109113,0.16654402881323593,0.9822000921990891,0.11729806409534244,-0.09706363357237985,0.11001269963650794
1716.716666665434,-0.20390406,-0.63703066,-0.2605332,-2.2774148,0.006591898,1.4045621,0.63092357,0.04,0.03999995,-0.0030564885940220776,-0.005345665154532497,-0.03778446504096866,0.17432765684329143,0.09169262732487825,0.16715346102744738,0.9817649326897412,0.11874604963365731,-0.09797612070882426,0.11152431307996828
1716.7333333321008,-0.20637642,-0.6352457,-0.26369062,-2.276459,0.0066708853,1.4025474,0.6290459,0.04,0.039999947,-0.003097754866221436,-0.006036854461022312,-0.03729369209908295,0.1748375763658248,0.09111884733979436,0.16774030791881175,0.9813237671624496,0.12019697014622384,-0.09888305378110787,0.11304200124152292
1716.7499999987674,-0.20885321,-0.63345754,-0.26685372,-2.2755015,0.006750024,1.400529,0.6271649,0.04,0.039999947,-0.0030107243082611035,-0.007203761275098586,-0.037284454577934945,0.17532758716247246,0.09053014541754587,0.16830339758411783,0.9808766073301696,0.12165063784785819,-0.09978440470755803,0.11456559728305843
1716.766666665434,-0.21133421,-0.6316664,-0.2700221,-2.2745426,0.006829305,1.3985072,0.625281,0.04,0.03999996,-0.0030324740280862628,-0.008241999198932426,-0.03715368039325373,0.17579864020500457,0.08992131321683583,0.16884386470822407,0.9804234545541499,0.12310697017953666,-0.10068015340099193,0.11609491963248927
1716.7833333321007,-0.21381897,-0.6298725,-0.27319536,-2.2735827,0.006908717,1.3964826,0.6233941,0.04,0.03999998,-0.003360544527852838,-0.009392836027766194,-0.036679175083209614,0.176248194884352,0.08929426987893074,0.16935789094545167,0.9799643659636089,0.12456557137017661,-0.10157015267401914,0.1176297749574476
1716.7999999987674,-0.21630727,-0.62807596,-0.27637315,-2.272621,0.00698825,1.3944553,0.62150455,0.04,0.03999998,-0.001595984063906819,-0.009703161768670476,-0.03591088480521254,0.17667907866424032,0.08864931854963877,0.16984668022776972,0.9794994240262695,0.12602642698283253,-0.10245375879802911,0.11916981724540172
1716.816666665434,-0.21879883,-0.6262772,-0.2795552,-2.2716577,0.0070678964,1.3924251,0.6196124,0.04,0.03999999,-0.00179851086183902,-0.010914609927559216,-0.036341435421172186,0.17708863460133406,0.0879894762081731,0.17031216846461414,0.9790286271117932,0.12748923541793614,-0.10333115029644428,0.12071501781701062
1716.8333333321007,-0.22129332,-0.6244764,-0.28274092,-2.270693,0.007147643,1.3903925,0.617718,0.04,0.03999999,-0.001428603120601224,-0.011869610555836907,-0.03543210224081772,0.177477897302693,0.08731523516796157,0.1707506591390308,0.9785520583058638,0.12895381337512823,-0.10420197229778352,0.12226500795657678
1716.8499999987673,-0.22379045,-0.62267375,-0.2859301,-2.2697277,0.0072274837,1.3883579,0.61582166,0.04,0.039999988,-0.0020660171989206333,-0.012935316670192876,-0.03557681232373433,0.1778473535303255,0.08662440525314084,0.17116609670176655,0.9780696980056445,0.1304200798223153,-0.10506637076109226,0.12381973331170258
1716.866666665434,-0.22628987,-0.62086934,-0.28912225,-2.2687614,0.007307411,1.3863213,0.61392367,0.04,0.039999995,-0.0015360570267741736,-0.013823631867793118,-0.03484913813742718,0.17819697720801858,0.08591697774046063,0.1715581439297592,0.9775816117124898,0.13188781397380794,-0.10592415477488246,0.1253789073251475
1716.8833333321006,-0.22879127,-0.6190635,-0.29231688,-2.2677946,0.0073874085,1.3842833,0.6120243,0.04,0.039999995,-0.0016613236942131238,-0.014962390411155102,-0.0344538002815753,0.1785246684917865,0.08519405314864631,0.171921119761053,0.9770878552797284,0.13335681067510738,-0.10677518973124207,0.1269422820390488
1716.8999999987673,-0.23129442,-0.61725664,-0.2955137,-2.2668273,0.0074674706,1.382244,0.6101237,0.04,0.039999988,-0.001089268994403092,-0.0157123542501858,-0.03424511243796946,0.1788308251992577,0.08445708493059674,0.17225827183921066,0.9765884883874199,0.13482688950651017,-0.10761922519694203,0.1285096750567193
1716.916666665434,-0.23379894,-0.61544865,-0.29871237,-2.26586,0.0075475858,1.3802032,0.60822195,0.04,0.039999995,-0.0018071089083138148,-0.016905803042976952,-0.03407065749767568,0.17911693943848722,0.08370446992824979,0.17257227410867537,0.9760835030611362,0.13629777251285663,-0.10845662460435866,0.13008102413251413
1716.9333333321006,-0.23630455,-0.6136399,-0.30191246,-2.2648923,0.0076277447,1.3781618,0.60631955,0.04,0.04,-0.0005056045919937802,-0.01736539364675105,-0.03305315019725974,0.17938246726353885,0.08293392805716354,0.17285612114530297,0.9755730220773224,0.13776943420230042,-0.1092867100000976,0.1316559023054136
1716.9499999987672,-0.23881099,-0.6118306,-0.30511352,-2.263924,0.0077079376,1.3761199,0.60441643,0.04,0.04,0.0002581624837905139,-0.018065858233984322,-0.03243036521787257,0.17962539668026106,0.08215080362454276,0.1731120213542915,0.9750571520317831,0.13924156349019218,-0.11010916509216999,0.1332340385606474
1716.9666666654339,-0.24131785,-0.61002105,-0.30831522,-2.2629552,0.007788156,1.3740774,0.602513,0.04,0.04,2.5352897781161232e-06,-0.01927428746426596,-0.032280192724432055,0.17984780824866886,0.0813562033744238,0.17334450087964057,0.9745359125436106,0.14071399918417954,-0.11092412722359474,0.13481529437000306
1716.9833333321005,-0.24382487,-0.6082114,-0.31151727,-2.2619867,0.007868391,1.3720349,0.6006095,0.04,0.04,-0.0004248792299987869,-0.02013145120904891,-0.031890722115468506,0.18004866834583982,0.0805496230860519,0.1735501575944086,0.9740093371844109,0.14218657501578316,-0.11173162697714147,0.13639953260882834
1716.9999999987672,-0.24633175,-0.606402,-0.31471908,-2.2610183,0.007948632,1.3699925,0.5987061,0.04,0.04,0.0005009447087145347,-0.0209965327862216,-0.03117074692320365,0.18022777814313345,0.07972880788606752,0.1737297853061286,0.9734775397413954,0.1436590834432003,-0.11253133967414054,0.13798639409174657
1717.0166666654338,-0.2488382,-0.6045928,-0.3179203,-2.2600498,0.008028866,1.3679506,0.59680295,0.04,0.04,0.0006615676086951794,-0.021658323249051925,-0.030426294081831173,0.18038423238241091,0.07889811375380032,0.1738797026655689,0.9729406055284563,0.1451312640383694,-0.1133231370923405,0.13957564584158752
1717.0333333321005,-0.25134385,-0.6027842,-0.32112062,-2.2590814,0.0081090825,1.3659091,0.59490055,0.04,0.04,0.0011575555739939958,-0.022503512452975993,-0.030058677988464844,0.18051998012634402,0.0780563939818596,0.17400480929766057,0.9723985803879607,0.14660309214484413,-0.1141069269055644,0.14116707642087534
1717.0499999987671,-0.25384855,-0.60097635,-0.32431954,-2.2581131,0.008189276,1.3638687,0.592999,0.04,0.04,0.0011421678449030637,-0.023191166501879135,-0.029290901370981892,0.18063348032281096,0.07720271874015988,0.1741047942308505,0.9718515601036222,0.1480743574887714,-0.11488253505779875,0.14276040388404973
1717.0666666654338,-0.25635162,-0.59916955,-0.3275167,-2.2571454,0.008269433,1.3618296,0.5910984,0.04,0.039999995,0.001318843698250305,-0.024406725969761123,-0.028595436040457223,0.18072368120592344,0.07634049845975481,0.17417660855759792,0.9712996560390696,0.14954465271655856,-0.1156498775534021,0.14435539769662917
1717.0833333321004,-0.25885317,-0.5973639,-0.3307118,-2.2561781,0.008349545,1.3597919,0.58919924,0.04,0.04,0.0015034418276327344,-0.02473620164020751,-0.028354272298281025,0.18079227353547866,0.07546927660210359,0.17421880183271637,0.9707428800513832,0.15101409191695978,-0.11640896772522913,0.14595189997115013
1717.099999998767,-0.26135272,-0.59555984,-0.33390436,-2.2552116,0.008429604,1.3577558,0.5873017,0.04,0.039999995,0.001844287536290068,-0.025841374178492416,-0.027644874290944088,0.18083729358546563,0.07458892524033767,0.1742365772542298,0.9701813581157238,0.15248235155956022,-0.11715961663931691,0.1475496155756581
1717.1166666654337,-0.26384994,-0.5937574,-0.3370941,-2.2542465,0.008509598,1.3557214,0.5854059,0.04,0.03999998,0.0009250916422898214,-0.026908167159145346,-0.02741609377880927,0.18086066485137942,0.0736988312591621,0.17422861738580248,0.9696150905509223,0.153949225327543,-0.11790221736764366,0.14914851436326465
1717.1333333321004,-0.26634464,-0.5919569,-0.34028056,-2.2532818,0.008589524,1.3536891,0.58351207,0.04,0.039999977,0.0028610593856059907,-0.026966320587518133,-0.0262052863075235,0.18086099713002757,0.07279737134779649,0.174189714501932,0.9690442764877569,0.1554145830537041,-0.1186360152429284,0.15074811265101348
1717.149999998767,-0.26883638,-0.59015846,-0.3434633,-2.252319,0.00866936,1.3516593,0.58162045,0.04,0.03999996,0.0010390145118277516,-0.02856046243844279,-0.02586015042844725,0.1808379453251099,0.07189069573418785,0.1741242397380798,0.9684689211870109,0.156878107072013,-0.11936157804414901,0.15234835707410813
1717.1666666654337,-0.27132496,-0.58836246,-0.3466419,-2.2513576,0.008749102,1.3496321,0.5797311,0.04,0.039999973,0.0026567267889632262,-0.028829064369839674,-0.02502780738825594,0.18079241126562856,0.07097393079393757,0.17402850828214383,0.967889195067731,0.15833959256963148,-0.12007839042609422,0.1539488864808756
1717.1833333321003,-0.27380994,-0.58656895,-0.3498161,-2.250397,0.008828744,1.3476081,0.5778446,0.04,0.03999996,0.003190403387076657,-0.029193277827832542,-0.023953310142577067,0.18072598266626266,0.07004778685649118,0.1739072896737925,0.9673051947897678,0.15979905991801316,-0.1207862156623958,0.15554938343820535
1717.199999998767,-0.2762911,-0.5847783,-0.35298547,-2.2494378,0.008908273,1.3455869,0.575961,0.04,0.039999958,0.0030260006736337886,-0.030337804427427173,-0.023792287283330715,0.18063443630757392,0.06911925751146131,0.17375712907848512,0.9667169870951838,0.1612561662883998,-0.12148528950061466,0.1571497379270157
1717.2166666654336,-0.2787682,-0.58299065,-0.35614955,-2.2484798,0.008987674,1.3435693,0.57408035,0.04,0.039999958,0.0036659010355322152,-0.030557777117090623,-0.022586400523783023,0.18052053979658111,0.06818338545623846,0.17358187153724833,0.9661247357561082,0.16271075081586672,-0.12217521083756255,0.15874956499444112
1717.2333333321003,-0.2812409,-0.5812061,-0.359308,-2.2475243,0.009066943,1.3415554,0.5722034,0.04,0.03999996,0.0022315294696095833,-0.03195303651201131,-0.022325168754966374,0.1803832364905711,0.06724427757875621,0.17337790609370435,0.9655284060978653,0.16416277993641412,-0.12285655564301613,0.16034882424638766
1717.249999998767,-0.28370887,-0.57942504,-0.3624605,-2.2465706,0.009146077,1.3395452,0.5703301,0.04,0.039999954,0.0034744520816420987,-0.032305858512227115,-0.021507330041614647,0.18022272319733584,0.06629421255908188,0.17314757116573803,0.9649281752802101,0.16561195315049368,-0.1235289310920162,0.16194721580609692
1717.2666666654336,-0.28617173,-0.5776477,-0.36560658,-2.2456188,0.009225051,1.3375392,0.56846064,0.04,0.039999958,0.0038177502453384804,-0.032977425565594576,-0.02061139616612584,0.18003833785803952,0.06534008296021898,0.1728876772909101,0.9643241679556046,0.16705805115880978,-0.12419226925777817,0.16354444929851622
1717.2833333321003,-0.2886293,-0.5758742,-0.36874586,-2.244669,0.009303859,1.3355376,0.56659526,0.04,0.03999996,0.004151762817738991,-0.03340151479762632,-0.019756103033208294,0.17983042696245086,0.06438229919426877,0.1725993816047604,0.9637165065692528,0.16850092706239056,-0.12484642658937152,0.16514025043257993
1717.299999998767,-0.29108122,-0.5741047,-0.37187797,-2.2437212,0.009382502,1.3335407,0.56473404,0.04,0.03999996,0.004086273998571421,-0.034059413975762176,-0.018879378942882052,0.17959912418840246,0.06341985514551257,0.1722853986032596,0.9631053069753298,0.16994033695026844,-0.12549140401219808,0.1667343907903587
1717.3166666654336,-0.29352722,-0.5723397,-0.37500268,-2.242776,0.009460963,1.3315485,0.56287736,0.04,0.039999958,0.00433125047987204,-0.0347676190068813,-0.01859394868815034,0.17934488203796828,0.06245529046098998,0.17194499497946075,0.9624906383777746,0.17137617640932323,-0.1261272497756546,0.16832674789971516
1717.3333333321002,-0.29596713,-0.5705792,-0.3781193,-2.2418334,0.0095392335,1.3295611,0.5610255,0.04,0.039999958,0.0038805753448611924,-0.035747689404319605,-0.017730113485581178,0.17906719233772656,0.061486031914158704,0.17157710254813346,0.961872585491717,0.17280823977092893,-0.12675422534282985,0.16991706184045186
1717.3499999987669,-0.29840043,-0.56882334,-0.3812277,-2.2408934,0.0096173035,1.3275795,0.5591785,0.04,0.039999958,0.004881081976004786,-0.03559442861096329,-0.01631302164440962,0.17876513477778921,0.06051167821576556,0.1711778508188182,0.9612513741804113,0.17423630377645,-0.12737172698677215,0.17150495400133112
1717.3666666654335,-0.30082685,-0.5670724,-0.3843274,-2.2399557,0.009695167,1.3256031,0.5573367,0.04,0.039999954,0.0052141992106014,-0.03650389845979429,-0.015828031389453212,0.17844051249024206,0.059536498698926854,0.17075532064561288,0.9606270686178543,0.1756602090870222,-0.1279800438101839,0.17309024920114663
1717.3833333321002,-0.30324626,-0.5653266,-0.38741806,-2.239021,0.009772809,1.3236328,0.55550045,0.04,0.039999958,0.004597760680580265,-0.03697505365065634,-0.014991075613068894,0.17809279980249323,0.05855920027344584,0.17030489739573249,0.9599997685386179,0.1770799045476386,-0.12857913498791804,0.17467271640687917
1717.3999999987668,-0.30565825,-0.5635862,-0.39049935,-2.238089,0.009850217,1.3216685,0.55366975,0.04,0.039999954,0.005675345198197235,-0.03732451567997064,-0.014142657528781744,0.17771976017967542,0.05757899248058695,0.1698263268783698,0.9593696480020679,0.17849508172732462,-0.12916882114329234,0.1762520920045951
1717.4166666654335,-0.3080626,-0.5618514,-0.39357072,-2.2371597,0.00992739,1.3197105,0.5518451,0.04,0.039999966,0.006033422053963733,-0.037800420542088986,-0.01307845692753995,0.17732351762907314,0.05659922263581438,0.16932155854415076,0.9587368410665348,0.17990567508546584,-0.1297490344102128,0.17782802288565855
1717.4333333321001,-0.31045902,-0.5601224,-0.39663208,-2.2362335,0.010004316,1.3177592,0.5500263,0.04,0.03999996,0.005612480197192404,-0.03822835353213261,-0.012435750417827407,0.17690142294889788,0.05562089202263369,0.1687902930544276,0.9581014555237513,0.1813114160978266,-0.13031983318965845,0.1794004247299584
1717.4499999987668,-0.31284708,-0.5583992,-0.3996829,-2.2353113,0.010080985,1.3158145,0.5482139,0.04,0.03999996,0.004508418198567732,-0.039559274737377415,-0.011817393259749842,0.17645634897746532,0.054642079875466404,0.16823385795430507,0.9574635164449461,0.18271209338485667,-0.13088180955362416,0.1809692170944291
1717.4666666654334,-0.3152266,-0.5566822,-0.4027228,-2.2343917,0.01015739,1.3138767,0.54640806,0.04,0.03999995,0.006989861954243004,-0.03896208268067136,-0.010441172458031112,0.17598822832525335,0.053659871665658415,0.16764858665246188,0.9568232995452761,0.1841076429353016,-0.13143419306745463,0.1825338383774502
1717.4833333321,-0.3175973,-0.5549718,-0.4057515,-2.2334754,0.010233519,1.3119463,0.5446089,0.04,0.039999958,0.0064569968759808916,-0.039696685075085725,-0.009808936146127323,0.17549575577097876,0.05268006868672019,0.16703881675505686,0.956180912531768,0.1854978190168823,-0.1319771119995875,0.18409417035350145
1717.4999999987667,-0.31995896,-0.55326784,-0.4087686,-2.2325633,0.010309361,1.3100233,0.5428166,0.04,0.03999995,0.005474349641199083,-0.040411065262790924,-0.009078985950339291,0.17498021810762396,0.051700933017392925,0.16640479526412535,0.9555364042706829,0.1868824552570241,-0.13251098389149352,0.18565012033033784
1717.5166666654334,-0.3223111,-0.55157083,-0.41177365,-2.2316535,0.0103849135,1.308108,0.54103154,0.04,0.039999932,0.008449010559985481,-0.039944013871429096,-0.007502035425976938,0.1744398388361012,0.05072316101514797,0.16574069556664817,0.9548900962487283,0.1882614475576472,-0.13303496715867444,0.18720103889317544
1717.5333333321,-0.32465363,-0.5498809,-0.4147664,-2.2307487,0.010460163,1.3062006,0.5392539,0.04,0.03999992,0.005053378425712296,-0.04174039804464291,-0.007618826482502783,0.17387601193062752,0.049749965569314034,0.16505723314378962,0.9542418912902924,0.1896345328251495,-0.13355013630676038,0.18874723298464216
1717.5499999987667,-0.3269862,-0.54819787,-0.4177466,-2.229847,0.010535099,1.3043013,0.5374839,0.04,0.039999917,0.007516082125080814,-0.04072691788584715,-0.005978176085064124,0.17328759138786878,0.04877677243971204,0.16434189852303283,0.9535920327658272,0.19100172903920412,-0.13405592683849402,0.19028815787916029
1717.5666666654333,-0.32930857,-0.5465223,-0.42071372,-2.2289495,0.010609713,1.3024101,0.53572154,0.04,0.039999917,0.006694387039707372,-0.04200280656615485,-0.00553786936717815,0.17267490416137757,0.04780549065841384,0.163605219967681,0.9529406389376089,0.19236264528107883,-0.13455261452675754,0.1918237349382537
1717.5833333321,-0.33162042,-0.5448543,-0.42366746,-2.228057,0.010683995,1.3005276,0.5339672,0.04,0.039999906,0.006136743433615699,-0.04249302244854203,-0.004594101660893024,0.17203903285421368,0.046836683565082034,0.16284115288040624,0.9522877997846795,0.19371715054679878,-0.13504043113951084,0.19335380503868607
1717.5999999987666,-0.33392143,-0.543194,-0.4266075,-2.2271671,0.01075794,1.2986541,0.53222114,0.04,0.039999906,0.009067953431940445,-0.04130886956809077,-0.0027711313381972857,0.1713802857681006,0.04586839795909077,0.16204922607652356,0.9516338598922633,0.19506526751730144,-0.1355184045942433,0.19487765426335255
1717.6166666654333,-0.33621147,-0.54154223,-0.42953333,-2.2262826,0.010831543,1.2967896,0.5304835,0.04,0.039999906,0.00673028010822474,-0.04337778019760652,-0.0030564262585852653,0.17069717222720304,0.04490753483694601,0.16123962345474574,0.9509788003840817,0.19640659783600561,-0.135987373595454,0.19639552889296874
1717.6333333321,-0.33849022,-0.5398985,-0.43244487,-2.2254019,0.010904789,1.2949345,0.5287545,0.04,0.03999991,0.008236838046626893,-0.04233307364274186,-0.00143360380466806,0.1699900883509724,0.04395179444126843,0.16040224916580048,0.9503228183981138,0.19774120949470114,-0.13644700389986678,0.19790697316210998
1717.6499999987666,-0.34075743,-0.5382629,-0.4353416,-2.2245266,0.010977669,1.2930887,0.5270342,0.04,0.039999917,0.006175075357650606,-0.04391876503293535,-0.0010488656996932022,0.1692590392724656,0.042999500117139045,0.15954411552166176,0.9496659062502952,0.1990687367587506,-0.13689818278888768,0.19941211623214167
1717.6666666654332,-0.34301284,-0.5366362,-0.4382233,-2.2236552,0.011050177,1.2912526,0.52532285,0.04,0.039999913,0.009259470713773865,-0.042747470561022016,0.0003538554934068294,0.16850571446110219,0.04204727536629485,0.1586572467648124,0.9490084468405398,0.20038913736180072,-0.13733976527936995,0.2009103041800185
1717.6833333321,-0.34525606,-0.535018,-0.4410896,-2.222788,0.011122301,1.2894264,0.52362067,0.04,0.039999906,0.0084155031983002,-0.04336201125715311,0.0014076579872734918,0.16772790849925934,0.04110559287037491,0.15775026189955582,0.9483505054342465,0.20170222554716705,-0.1377722668757445,0.20240141682272744
1717.6999999987665,-0.34748697,-0.53340876,-0.44394022,-2.2219265,0.011194035,1.2876102,0.5219278,0.04,0.03999991,0.0071816370196708945,-0.044321867977659135,0.0016278961316951168,0.1669269095457947,0.04016887380273257,0.15681947669695434,0.9476921031647804,0.20300779412452008,-0.13819621719157227,0.20388555289120314
1717.7166666654332,-0.34970528,-0.53180873,-0.4467747,-2.2210693,0.011265372,1.2858044,0.52024466,0.04,0.039999913,0.008927054139706847,-0.043738252612723905,0.003236584934862563,0.16610302115155784,0.03923546681127238,0.15586442447544466,0.9470335334797736,0.20430584952851263,-0.13861101525501007,0.20536210157481002
1717.7333333320998,-0.3519107,-0.530218,-0.44959277,-2.220217,0.011336301,1.2840089,0.51857144,0.04,0.03999991,0.008735411925808734,-0.04417502252805905,0.003836802581647092,0.1652545223879398,0.03831120673839333,0.1548872661354302,0.9463748754794561,0.20559619406300628,-0.13901701391976334,0.20683101771466242
1717.7499999987665,-0.35410318,-0.5286367,-0.45239407,-2.2193706,0.0114068175,1.2822243,0.5169081,0.04,0.039999906,0.0073304643249505475,-0.044780241578534774,0.004642133002896731,0.16438319112716626,0.03739078748202626,0.1538885338584317,0.9457162252071647,0.20687860514587314,-0.13941452461405465,0.20829223326722082
1717.7666666654331,-0.35628226,-0.527065,-0.45517835,-2.218529,0.01147691,1.2804505,0.51525503,0.04,0.039999872,0.009173106645876672,-0.04429170000983529,0.005813219824013505,0.16348938542527458,0.03647476523728632,0.1528655940291069,0.9450578027360744,0.2081530274070955,-0.1398032715315328,0.20974535021784058
1717.7833333320998,-0.3584477,-0.5255033,-0.45794544,-2.2176921,0.011546567,1.2786878,0.51361233,0.04,0.039999865,0.009603453714457366,-0.0441315090442429,0.006750862075455277,0.1625719325462704,0.03556613050811081,0.15182119623039333,0.9443998097670816,0.20941933570917226,-0.1401830266420709,0.21119010437162464
1717.7999999987665,-0.36059937,-0.52395165,-0.46069497,-2.2168612,0.011615791,1.2769363,0.51198,0.04,0.039999858,0.008166022277178442,-0.0451618164546308,0.00710035257589503,0.16163138544058342,0.034666355001243945,0.15075967950718208,0.9437422584931594,0.21067723951943054,-0.14055448928588563,0.21262663479509578
1717.816666665433,-0.3627369,-0.5224101,-0.46342638,-2.2160358,0.0116845695,1.2751962,0.5103585,0.04,0.039999858,0.00892379160286616,-0.04502862362686377,0.008663342656656248,0.16066751926133888,0.03377411316599671,0.14967193335522982,0.943085365804182,0.21192665997337856,-0.14091757798704294,0.21405447860950275
1717.8333333320998,-0.36486015,-0.5208789,-0.46613953,-2.2152152,0.011752893,1.2734681,0.50874794,0.04,0.039999858,0.010163427142884096,-0.04413237224755173,0.009857342291319515,0.15968221662511928,0.03288669512054379,0.14856378974789414,0.9424293998703818,0.2131675726303861,-0.1412717543849752,0.2154732086636585
1717.8499999987664,-0.3669688,-0.5193582,-0.46883422,-2.2144005,0.011820754,1.2717516,0.5071484,0.04,0.03999986,0.008757139186599261,-0.04530394834179052,0.0099673804940692,0.15867340587814005,0.03201077352608628,0.14743954553088756,0.9417743260603842,0.2143997022834069,-0.14161785339204103,0.21688307918075572
1717.866666665433,-0.36906275,-0.51784813,-0.47151002,-2.2135916,0.011888146,1.2700471,0.5055601,0.04,0.03999986,0.00927553433200945,-0.04507732501508599,0.011148213125744544,0.1576430270323127,0.031140469336233836,0.1462940323721388,0.9411203412056716,0.2156229723857889,-0.14195578195954917,0.21828374450858834
1717.8833333320997,-0.37114158,-0.516349,-0.47416675,-2.2127888,0.011955059,1.268355,0.50398326,0.04,0.03999985,0.00899353282066695,-0.045222975678216315,0.012135648885203132,0.15658956164321258,0.03027823000160654,0.14512497282269973,0.9404676181973852,0.216837208181641,-0.14228552482767443,0.2196750183672289
1717.8999999987664,-0.37320516,-0.5148611,-0.47680396,-2.2119918,0.012021486,1.2666755,0.50241804,0.04,0.03999986,0.009952940291135803,-0.04500820347779211,0.01313993700546856,0.15551555636334252,0.029423769839561145,0.14394020969541885,0.9398163649212223,0.21804228588983326,-0.14260698258252028,0.22105657716726035
1717.916666665433,-0.37525338,-0.5133842,-0.47942147,-2.2112007,0.012087422,1.2650083,0.50086445,0.04,0.03999986,0.009499619455666242,-0.04507390597063843,0.013736929035979006,0.15441922374871292,0.02858029090391052,0.14273622011797876,0.9391666391681635,0.21923808599054845,-0.14292054658547487,0.2224284219439739
1717.9333333320997,-0.37728587,-0.51191854,-0.48201898,-2.2104156,0.012152864,1.2633541,0.49932286,0.04,0.03999986,0.009701415313490003,-0.04497133711213186,0.014968276563620542,0.15330070957716974,0.027745473031308313,0.14151044223651044,0.9385186264493102,0.22042453204366946,-0.14322617955710387,0.22379024771089912
1717.9499999987663,-0.37930256,-0.51046455,-0.48459622,-2.2096364,0.012217801,1.2617126,0.4977933,0.04,0.03999986,0.010219046027182266,-0.04498202962930353,0.015448374847448765,0.15216121147843914,0.02691863360139753,0.14026805535810377,0.9378724886031965,0.22160145580241433,-0.14352387182495246,0.22514192884461184
1717.966666665433,-0.38130307,-0.5090221,-0.487153,-2.2088637,0.0122822225,1.2600844,0.49627584,0.04,0.039999835,0.009467506188620689,-0.045037408363202136,0.016632099137536827,0.15100133877401462,0.026101173657771384,0.13901111542105646,0.9372283621882024,0.2227686825680681,-0.14381384229129812,0.2264833105160748
1717.9833333320996,-0.3832873,-0.50759125,-0.4896889,-2.2080977,0.012346126,1.2584695,0.49477094,0.04,0.039999817,0.009241806032656008,-0.04526814766596665,0.017338478072981278,0.1498195853188446,0.025294386356098413,0.13773231109528652,0.9365863061457286,0.22392620062958538,-0.14409647449038265,0.22781429685456683
1717.9999999987663,-0.38525507,-0.5061725,-0.4922037,-2.2073383,0.012409499,1.256868,0.4932785,0.04,0.039999813,0.009780054532226856,-0.04514135950759446,0.01810324481141823,0.14861726497757632,0.024494431738256002,0.1364361962859428,0.9359465490846276,0.2250737673922338,-0.14437158770813335,0.22913467906686716
1718.016666665433,-0.38720617,-0.50476587,-0.49469724,-2.206585,0.012472337,1.2552805,0.4917988,0.04,0.03999981,0.010749875470983383,-0.04418600478426349,0.01930607853873889,0.14739558159602822,0.023703659787315184,0.1351219479170888,0.9353093155601455,0.22621146132638015,-0.1446388608263537,0.23044404728664725
1718.0333333320996,-0.3891403,-0.5033715,-0.4971692,-2.205838,0.012534639,1.2537068,0.4903319,0.04,0.03999981,0.010240390710802849,-0.04465972264410256,0.02002289001341584,0.1461510458586207,0.02292709266155243,0.13379400315037826,0.934674695878742,0.22733902766646832,-0.1448987273098399,0.23174239622398543
1718.0499999987662,-0.39105734,-0.5019894,-0.4996194,-2.2050972,0.012596393,1.2521467,0.488878,0.04,0.03999981,0.01069542546527913,-0.044456102320500346,0.020629729689825016,0.14488719277643303,0.022160030647326957,0.13245092085935542,0.9340428025946717,0.2284564238984866,-0.1451513274323867,0.23302960637056866
1718.0666666654329,-0.3929571,-0.5006199,-0.5020476,-2.2043633,0.0126575995,1.2506007,0.48743728,0.04,0.039999805,0.009932182669514233,-0.04464959879894037,0.02141864892366563,0.14360480521622,0.021401596035561177,0.13109425911712388,0.9334137496768146,0.22956350940599018,-0.14539687070063073,0.23430560610864404
1718.0833333320995,-0.3948394,-0.4992629,-0.5044534,-2.203636,0.012718241,1.2490698,0.48600984,0.04,0.039999813,0.01055119064439225,-0.04362023508047708,0.02301161846564037,0.1423014777511959,0.020654170077942756,0.12972009466366474,0.9327878375726444,0.23066028660449725,-0.1456349261272155,0.23556984219547633
1718.0999999987662,-0.3967039,-0.49791875,-0.5068367,-2.2029157,0.012778321,1.2475516,0.48459584,0.04,0.039999813,0.010128299249290151,-0.045652079417357605,0.022234754554439906,0.14097614597114277,0.019922281098363994,0.1283337707404868,0.9321648913164362,0.2317462824874291,-0.1458668897579645,0.23682298541866909
1718.1166666654328,-0.39855066,-0.49658749,-0.50919735,-2.2022028,0.012837833,1.2460486,0.4831954,0.04,0.03999981,0.009622093975591994,-0.04389864484002359,0.024043463362366513,0.13963633746597076,0.019192809384492637,0.12692735816562928,0.9315452350497628,0.23282177209641908,-0.14609191711048838,0.23806438047080294
1718.1333333320995,-0.40037942,-0.4952692,-0.51153487,-2.2014968,0.012896769,1.2445606,0.48180857,0.04,0.039999817,0.010454714182372982,-0.04378713718071747,0.025062778887052772,0.13827728330591288,0.01847378438226713,0.12550963629611772,0.930929080231361,0.23388650316251988,-0.14631009152323934,0.2392937699491193
1718.1499999987661,-0.40218988,-0.4939642,-0.5138494,-2.2007983,0.012955122,1.2430879,0.4804357,0.04,0.03999981,0.010000667504317384,-0.043730225568594516,0.025546348041372013,0.136898192635928,0.017769152300995288,0.12407657846986342,0.9303164916464854,0.2349404962691898,-0.1465215747535732,0.2405111571530408
1718.1666666654328,-0.403982,-0.4926723,-0.51614034,-2.2001064,0.013012888,1.24163,0.47907668,0.04,0.039999787,0.010918281497307447,-0.04340960742266198,0.026430341822747394,0.13550189033033055,0.017073386207537164,0.12263339869258905,0.9297076489254016,0.23598354038433159,-0.14672653995656396,0.24171631858369327
1718.1833333320994,-0.40575576,-0.49139374,-0.51840764,-2.199422,0.013070061,1.2401869,0.4777317,0.04,0.039999776,0.010205046117750527,-0.04362466151959232,0.0267833280630847,0.13408694441893707,0.016390251415457142,0.12117716786456403,0.9291025973895509,0.23701558328744607,-0.14692529520685532,0.24290931318350123
1718.199999998766,-0.4075107,-0.49012876,-0.5206511,-2.198745,0.013126635,1.238759,0.476401,0.04,0.03999977,0.0100796898787614,-0.04366437734232287,0.027710237282563277,0.13265389172423392,0.01571686418435897,0.1197041340338264,0.9285014862239336,0.23803646748867888,-0.14711797768974144,0.2440900056658163
1718.2166666654327,-0.40924683,-0.48887733,-0.5228705,-2.198075,0.013182606,1.2373464,0.4750846,0.04,0.03999976,0.010998574747556056,-0.04275421419447367,0.02856873665265658,0.13120648453731162,0.015051647971736856,0.11822242742745467,0.927904515737582,0.23904620129691495,-0.14730441725822876,0.24525809257908618
1718.2333333320994,-0.41096398,-0.48763967,-0.5250658,-2.1974118,0.013237969,1.2359492,0.4737826,0.04,0.03999976,0.011437779542688986,-0.0421907126346599,0.02917607647359155,0.12974105233229571,0.014398840968068715,0.11672876066602306,0.9273118387245051,0.24004476409321254,-0.14748453494211075,0.24641342687792134
1718.249999998766,-0.4126619,-0.4864158,-0.5272364,-2.1967561,0.01329272,1.2345678,0.47249526,0.04,0.039999764,0.010311187313782888,-0.04280254687683005,0.03029067095050575,0.12825778833233678,0.013759221537331383,0.1152254090549675,0.9267235670045885,0.24103192274672788,-0.14765879059740605,0.2475559010296841
1718.2666666654327,-0.41434062,-0.48520598,-0.5293826,-2.196108,0.0133468555,1.2332021,0.47122243,0.04,0.039999764,0.010434941888570748,-0.04229016533163765,0.03032829413157634,0.12675807036644143,0.013131422238888923,0.11371018487292317,0.9261397766051295,0.24200766724905062,-0.14782719703643987,0.24868559065378773
1718.2833333320993,-0.4159999,-0.48401007,-0.53150386,-2.195468,0.013400368,1.2318524,0.46996433,0.04,0.039999776,0.010070836108844183,-0.042343815516332484,0.03141653793244936,0.12524482555457642,0.012512508515114242,0.11218824620042502,0.925560600052031,0.24297184603952932,-0.1479900626762531,0.24980231987022544
1718.299999998766,-0.41763973,-0.4828283,-0.53360033,-2.1948352,0.013453255,1.2305187,0.46872106,0.04,0.039999764,0.010787971300074695,-0.04145763380551948,0.031737547316723624,0.1237162062789066,0.01190456421601744,0.11065412440503115,0.9249861595086919,0.24392458766910352,-0.14814722375422312,0.25090595915947267
1718.3166666654326,-0.4192598,-0.48166072,-0.53567183,-2.19421,0.013505512,1.2292006,0.46749276,0.04,0.039999772,0.010603582881940632,-0.04178518757422811,0.032314277886025256,0.12216938278576371,0.011310262602078434,0.10910842071836038,0.9244165312282107,0.24486566129213277,-0.14829909264380697,0.2519965552006469
1718.3333333320993,-0.42086,-0.4805074,-0.5377181,-2.1935925,0.013557136,1.2278991,0.46627954,0.04,0.03999977,0.010537177535918651,-0.04096263732931149,0.03342761437982178,0.12060973062192362,0.010724447371830498,0.10755480662847684,0.9238519267096953,0.24579510557119771,-0.148445458439083,0.2530737628851281
1718.349999998766,-0.42244038,-0.47936848,-0.53973883,-2.1929827,0.013608116,1.2266136,0.46508142,0.04,0.039999764,0.010769069049909596,-0.04105693104894392,0.033772718066849006,0.11903672075604003,0.010149049610360358,0.10599701789909706,0.9232924326295952,0.24671276958137095,-0.14858662544633316,0.25413757674315895
1718.3666666654326,-0.42400068,-0.478244,-0.54173404,-2.1923802,0.013658452,1.2253441,0.46389854,0.04,0.039999757,0.01108171873964725,-0.04069717628056857,0.03423876915347179,0.11744860645467779,0.009586410170683603,0.10442874412366467,0.9227381402613573,0.24761860518593104,-0.1487227316602099,0.25518796985812475
1718.3833333320993,-0.42554086,-0.47713417,-0.54370326,-2.1917856,0.013708142,1.2240914,0.46273088,0.04,0.03999973,0.010597861162042754,-0.04035130731709913,0.03541261712139976,0.11584670400742017,0.009034641288928245,0.10285156516378235,0.9221892850512813,0.24851248225055622,-0.14885365656660404,0.25622462338546853
1718.399999998766,-0.42706087,-0.47603884,-0.5456466,-2.1911986,0.013757182,1.2228549,0.46157873,0.04,0.03999973,0.010792919134816614,-0.040162222082429366,0.03537495752825581,0.11423299113841545,0.00849534759972024,0.10127043901083443,0.9216458165053553,0.24939449638774988,-0.14897984371559844,0.2572477021396955
1718.4166666654326,-0.4285604,-0.47495818,-0.54756415,-2.1906192,0.013805568,1.2216351,0.46044177,0.04,0.039999727,0.010773152599408142,-0.0394356076725888,0.03624517551272799,0.1126044415074462,0.007967024252885374,0.09967911768154761,0.9211079700841409,0.25026445834388017,-0.1491010550742727,0.25825701096592996
1718.4333333320992,-0.43003953,-0.47389233,-0.54945576,-2.190048,0.0138533,1.220432,0.45932043,0.04,0.039999727,0.010302826287111877,-0.039527865544131124,0.036407972098839725,0.11096597125669282,0.007449804767448839,0.098085912464568,0.9205757261498738,0.2511224839355768,-0.14921764365007478,0.2592526283553894
1718.4499999987659,-0.4314982,-0.47284138,-0.55132097,-2.1894844,0.013900371,1.2192456,0.45821482,0.04,0.039999727,0.011067848454726636,-0.03912814268491882,0.037205274228258034,0.10931445831060246,0.006942965243908979,0.09648533871693057,0.9200492683514089,0.251968476847791,-0.14932964060396567,0.26023429619889094
1718.4666666654325,-0.4329362,-0.47180527,-0.5531599,-2.1889288,0.013946782,1.2180759,0.45712486,0.04,0.039999735,0.010295885136057947,-0.03898649859925829,0.03767263149294653,0.10765167877966095,0.0064471096786523924,0.09488115167036709,0.9195286546444806,0.2528023197143931,-0.14943729039095194,0.2612020992935233
1718.4833333320992,-0.4343535,-0.47078413,-0.5549724,-2.1883812,0.0139925275,1.2169231,0.4560506,0.04,0.039999735,0.010662671604455554,-0.03837928289214254,0.038166088107616236,0.10597976589489598,0.005960138960865033,0.09327456291614378,0.9190140203068894,0.2536240284274496,-0.1495405423885144,0.26215588657466676
1718.4999999987658,-0.43575004,-0.46977797,-0.55675834,-2.187842,0.014037604,1.2157872,0.45499203,0.04,0.039999735,0.010100094507947688,-0.03859271939921083,0.03854293643036355,0.10429591675522966,0.005485831105654045,0.0916611101990388,0.918505411331223,0.25443343296769205,-0.14963977177849494,0.26309575489850767
1718.5166666654325,-0.43712577,-0.4687869,-0.55851775,-2.1873102,0.01408201,1.2146684,0.45394936,0.04,0.039999735,0.01095255275913587,-0.037341184705530495,0.03912380933284165,0.10260162361455989,0.00502315601679308,0.09004062789863694,0.918002993713049,0.2552307520164802,-0.14973465822779122,0.26402139853502077
1718.5333333320991,-0.4384805,-0.4678108,-0.56025046,-2.1867874,0.014125748,1.2135668,0.45292243,0.04,0.039999735,0.009376512277614601,-0.03813183217282745,0.03954881551498923,0.10089967911240637,0.004568733000987859,0.08842373506446669,0.9175067613911707,0.2560156473221167,-0.14982585831659911,0.26493309213349964
1718.5499999987658,-0.43981424,-0.46684986,-0.56195635,-2.1862729,0.014168805,1.2124821,0.4519115,0.04,0.039999742,0.01011161524571147,-0.03754787358434264,0.03985360475263766,0.09918888056651201,0.004124639055575297,0.08679802033646054,0.917016806973149,0.256788228378211,-0.14991337528336066,0.2658307006466714
1718.5666666654324,-0.44112706,-0.46590406,-0.56363547,-2.1857665,0.01421119,1.2114147,0.45091653,0.04,0.03999974,0.010286857849939324,-0.0366383148292293,0.04025867879784428,0.09747004327347181,0.003690129687000535,0.08517004414828216,0.9165332538609111,0.2575485811816924,-0.14999706143227065,0.2667140874796672
1718.583333332099,-0.4424188,-0.46497348,-0.56528777,-2.1852677,0.014252898,1.2103645,0.4499375,0.04,0.03999974,0.010931686491821857,-0.03604376570449652,0.040742338430488356,0.09574062556317045,0.003267804927413619,0.08353604388542268,0.9160562474755303,0.2582966487313265,-0.15007687662987185,0.2675831157159173
1718.5999999987657,-0.44368935,-0.4640582,-0.5669132,-2.184777,0.014293927,1.2093312,0.44897455,0.04,0.039999735,0.010383813519032614,-0.036315103458561815,0.04097121783971369,0.09400680013397612,0.002853208051626142,0.08190787441413462,0.9155857842896921,0.2590323424301462,-0.15015323267442898,0.2684379330482182
1718.6166666654324,-0.44493875,-0.46315804,-0.56851137,-2.1842945,0.014334273,1.2083154,0.44802773,0.04,0.039999712,0.010203870552705219,-0.03569195885344545,0.041815347014872994,0.09226481856065541,0.0024500646565476358,0.0802754205032425,0.9151220162234059,0.25975567148720696,-0.15022612445660954,0.2692782911491119
1718.633333332099,-0.4461669,-0.46227327,-0.57008266,-2.1838202,0.014373935,1.2073164,0.4470969,0.04,0.039999712,0.010070580187360179,-0.035817428894002745,0.04138991726864161,0.09051572196493152,0.002058003506626013,0.07864346783092979,0.914664898495855,0.26046654293371985,-0.1502958625643923,0.27010453007631885
1718.6499999987657,-0.44737387,-0.46140376,-0.5716267,-2.1833541,0.014412916,1.206335,0.4461822,0.04,0.039999712,0.010197050391869134,-0.03495213891693272,0.04234997040702959,0.08876257045573631,0.00167427074737082,0.07700943009642074,0.914214622756038,0.2611650118091343,-0.15036229635755188,0.2709162969993753
1718.6666666654323,-0.44855955,-0.4605496,-0.5731438,-2.1828961,0.014451216,1.2053709,0.4452835,0.04,0.03999971,0.010171218417109884,-0.03454868627283947,0.042376122545484396,0.0870040068343014,0.0013000981433379211,0.07537637530614441,0.9137712274264379,0.26185108098384463,-0.15042550116945422,0.2717136800256687
1718.683333332099,-0.44972396,-0.45971072,-0.5746336,-2.1824467,0.014488837,1.2044235,0.4444009,0.04,0.039999705,0.009639578736231336,-0.03516815779232019,0.042423437962368915,0.08524099778525368,0.0009366930758487318,0.07374580210731291,0.9133346522248338,0.2625245858144746,-0.15048611270683998,0.27249694451619955
1718.6999999987656,-0.45086733,-0.4588872,-0.57609624,-2.1820056,0.014525769,1.203494,0.4435345,0.04,0.03999971,0.009761259912566267,-0.033740696716977325,0.042911603953899036,0.08347568250013479,0.0005804061244487381,0.07211245882920089,0.9129050620196411,0.26318583219443076,-0.15054366857470652,0.2732657485363083
1718.7166666654323,-0.4519892,-0.45807904,-0.5775318,-2.181573,0.014562017,1.2025816,0.44268414,0.04,0.039999705,0.00976769247544862,-0.033853580278675466,0.04322562856171608,0.08170447570752548,0.00023443151711468766,0.07047819592103201,0.9124825157967648,0.2638345581539657,-0.1505984622357785,0.2740202318463502
1718.733333332099,-0.45308983,-0.45728612,-0.5789403,-2.1811485,0.014597581,1.2016863,0.44185004,0.04,0.03999971,0.009644160450439365,-0.033601528333959685,0.04315592647591293,0.07993247849545501,-0.00010289081173156739,0.0688492665393341,0.9120669611848744,0.26447091583441434,-0.1506507987607352,0.27476049538725095
1718.7499999987656,-0.4541693,-0.45650855,-0.5803216,-2.180732,0.0146324625,1.2008086,0.44103202,0.04,0.039999716,0.010161429482247186,-0.03227650472792387,0.043737244326769176,0.07815855402896121,-0.0004335675877179864,0.06722084089753282,0.9116586288350949,0.265095006594707,-0.1507001785631256,0.2754861850077225
1718.7666666654322,-0.45522755,-0.45574626,-0.5816759,-2.1803238,0.014666659,1.1999481,0.44023007,0.04,0.039999727,0.009554436408243383,-0.032769273910981944,0.04353843263256163,0.07638333420632108,-0.0007548037823655847,0.06560104766165568,0.9112574247785082,0.26570670201803853,-0.1507471770273316,0.27619765188543666
1718.783333332099,-0.4562645,-0.4549992,-0.5830028,-2.1799233,0.0147001725,1.1991047,0.4394442,0.04,0.039999723,0.010386495255665373,-0.031971028079946784,0.044321763985344376,0.07460600571607467,-0.001066928974176006,0.06398022620837693,0.9108635473293958,0.26630596370313486,-0.15079165558203436,0.2768945800290852
1718.7999999987655,-0.45728028,-0.4542674,-0.584303,-2.179531,0.0147330025,1.1982788,0.4386744,0.04,0.03999973,0.009250174901653807,-0.03151576904707465,0.04378680721016659,0.07282892907553626,-0.0013694505871919122,0.06236552380968027,0.9104768899828196,0.2668930348963355,-0.15083369386972914,0.2775772640629071
1718.8166666654322,-0.45827487,-0.4535509,-0.58557624,-2.179147,0.014765153,1.19747,0.43792057,0.04,0.039999735,0.009670250635451794,-0.03149889924212168,0.044104226829255744,0.07105066180027438,-0.0016634445148349447,0.06075496363458654,0.9100975328211082,0.26746776001416844,-0.15087350273953337,0.27824569049140546
1718.8333333320988,-0.45924845,-0.45284963,-0.58682233,-2.178771,0.014796624,1.196678,0.43718278,0.04,0.03999974,0.00961544641009393,-0.03121882250272101,0.044196876596813706,0.06927345748091515,-0.0019490781666093191,0.05914823608099247,0.9097254926030881,0.26803019082700336,-0.1509112388333157,0.27889987971869534
1718.8499999987655,-0.46020103,-0.45216355,-0.58804166,-2.1784031,0.014827414,1.1959033,0.436461,0.04,0.03999973,0.009402024060300995,-0.030519136072526543,0.044163385577256076,0.06749858239538709,-0.0022275970688672994,0.05754719434735494,0.9093607865496233,0.26858047359994364,-0.15094684699305225,0.2795398691949625
1718.8666666654321,-0.46113247,-0.45149267,-0.5892341,-2.1780436,0.01485753,1.195146,0.43575513,0.04,0.039999735,0.009058463762090518,-0.03039418519907855,0.044638869903568246,0.06572202505942687,-0.0024951097977486923,0.05594875454144846,0.9090035060869107,0.2691184787212319,-0.15098043030952796,0.28016562957654767
1718.8833333320988,-0.462043,-0.45083684,-0.59039974,-2.177692,0.0148869725,1.194406,0.43506515,0.04,0.039999742,0.00943754328326385,-0.029514207529746095,0.04468622902659147,0.06395347476832522,-0.002759259381027833,0.05436347083407707,0.9086537001160673,0.2696443750876292,-0.1510119124032982,0.2807770762745434
1718.8999999987655,-0.46293268,-0.45019597,-0.5915387,-2.1773486,0.014915743,1.1936824,0.43439096,0.04,0.039999746,0.0088450968367626,-0.030146701753341887,0.04404829078705763,0.06218541364235693,-0.0030121299949659214,0.05278409898797781,0.908311185184199,0.27015807877797626,-0.1510419480802803,0.28137472036482297
1718.916666665432,-0.46380153,-0.44957015,-0.59265125,-2.1770132,0.01494384,1.1929759,0.4337325,0.04,0.039999742,0.009298399176027594,-0.028892201139552043,0.04442588867921149,0.06042061833554394,-0.0032584852577621243,0.05120434816330578,0.9079761367440183,0.27065974599722736,-0.15107007978664508,0.2819582734969497
1718.9333333320988,-0.4646495,-0.44895917,-0.5937371,-2.176686,0.014971276,1.1922863,0.43308976,0.04,0.039999753,0.00855412709745984,-0.029204061983900687,0.044743358207977035,0.05866157460122294,-0.0034980086343172423,0.04963698004379734,0.9076485362078961,0.27114923727284057,-0.1510967341735168,0.2825278796298128
