rsonawane2002/My_IMU/logs_2/traj_406/imu_406.csv
time,j1,j2,j3,j4,j5,j6,j7,gripper1,gripper2,imu_ax,imu_ay,imu_az,imu_gx,imu_gy,imu_gz
1713.7833333321034,0.00016700293,-0.785875,4.0107683e-05,-2.3551247,9.29385e-05,1.570997,0.786,0.04,0.04,-9.531864,-0.005773165263235569,0.09480082,3.8072255e-08,-0.0011641272576525807,8.5042944e-07
1713.79999999877,0.00016699835,-0.78576016,4.0104263e-05,-2.3552213,9.297442e-05,1.5709941,0.786,0.04,0.04,-9.83431,0.0006182131473906338,0.009110553,2.7701313e-07,-0.0022373273968696594,1.4347901e-06
1713.8166666654367,0.00016694178,-0.7856542,4.0028728e-05,-2.35531,9.301987e-05,1.5709913,0.786,0.04,0.039999995,-9.832545,0.00047657464165240526,0.0075784526,4.077452e-06,-0.003224118147045374,5.6852537e-06
1713.8333333321034,0.00016674431,-0.7855566,3.976318e-05,-2.355391,9.305692e-05,1.5709884,0.786,0.04,0.04,-9.83053,0.00020623253658413887,0.006303414,1.3833689e-05,-0.004125145263969898,1.3346207e-05
1713.84999999877,0.00016627598,-0.7854666,3.913816e-05,-2.3554652,9.309822e-05,1.5709856,0.786,0.04,0.04,-9.828914,-0.00017501733964309096,0.0050734505,3.208644e-05,-0.004942906554788351,2.8362623e-05
1713.8666666654367,0.00016536965,-0.7853833,3.7937476e-05,-2.355532,9.315699e-05,1.5709827,0.786,0.04,0.04,-9.82716,-0.0006360431434586644,0.0040506045,6.06487e-05,-0.00568128377199173,5.3673888e-05
1713.8833333321033,0.00016382537,-0.7853063,3.5903646e-05,-2.3555942,9.323729e-05,1.5709797,0.7859981,0.04,0.04,-9.825544,-0.001202301005832851,0.003062089,0.00010147212,-0.006338704377412796,8.9213325e-05
1713.89999999877,0.00016141325,-0.78523463,3.274163e-05,-2.3556519,9.334677e-05,1.5709767,0.7859962,0.04,0.04,-9.824398,-0.001861133030615747,0.0021614186,0.00016380602,-0.006927206180989742,0.000137156
1713.9166666654367,0.00015787697,-0.78516775,2.8123464e-05,-2.3557026,9.348067e-05,1.5709734,0.78599364,0.03999999,0.03999999,-9.823162,-0.0025432338006794453,0.0013760333,0.00024037357,-0.007449655793607235,0.00019915841
1713.9333333321033,0.00015293664,-0.785105,2.169121e-05,-2.3557498,9.365931e-05,1.5709667,0.7859898,0.039999988,0.039999988,-9.821762,-0.0033340088557451963,0.0005948958,0.0003348202,-0.007893339730799198,0.00027587748
1713.94999999877,0.00014629157,-0.78504574,1.3060675e-05,-2.3557923,9.389277e-05,1.5709599,0.7859841,0.039999984,0.03999998,-9.820826,-0.004098392557352781,8.390984e-06,0.00045022328,-0.008290678262710571,0.000369821
1713.9666666654366,0.00013762269,-0.7849894,1.8248037e-06,-2.3558292,9.41904e-05,1.5709523,0.7859772,0.039999977,0.039999973,-9.819774,-0.004989583045244217,-0.00069470215,0.0005893998,-0.008618880994617939,0.0004800502
1713.9833333321033,0.00012659482,-0.7849354,-1.2444058e-05,-2.3558636,9.45642e-05,1.5709417,0.7859687,0.03999997,0.03999996,-9.818596,-0.005800783634185791,-0.0012738407,0.0007494128,-0.00888033676892519,0.0006091454
1713.99999999877,0.00011285885,-0.78488314,-3.0190935e-05,-2.355892,9.502411e-05,1.5709301,0.78595793,0.039999966,0.039999958,-9.817951,-0.00674847699701786,-0.0018317995,0.0009312408,-0.009095408953726292,0.00075614674
1714.0166666654366,9.605331e-05,-0.78483194,-5.1876457e-05,-2.3559186,9.5582276e-05,1.5709155,0.7859446,0.03999997,0.03999996,-9.816807,-0.007582654245197773,-0.0023892357,0.0011386538,-0.009241927415132523,0.00092253427
1714.0333333321032,7.5806616e-05,-0.7847813,-7.7974204e-05,-2.3559394,9.6250995e-05,1.5708972,0.7859293,0.03999997,0.039999958,-9.816368,-0.008536474779248238,-0.002922277,0.0013713838,-0.009349029511213303,0.0011097523
1714.0499999987699,5.1738305e-05,-0.78473085,-0.00010896875,-2.3559585,9.70414e-05,1.5708765,0.7859107,0.039999973,0.03999996,-9.815323,-0.009347870014607906,-0.0034418902,0.0016262641,-0.009398264810442924,0.00131654
1714.0666666654365,2.3460705e-05,-0.7846799,-0.0001453539,-2.3559716,9.7966324e-05,1.5708529,0.785889,0.039999973,0.03999996,-9.814925,-0.010306181386113167,-0.0039994447,0.0019087414,-0.00940485205501318,0.0015441502
1714.0833333321032,-9.41998e-06,-0.78462815,-0.0001876311,-2.355983,9.903901e-05,1.5708256,0.78586376,0.039999977,0.03999996,-9.813942,-0.011055562645196915,-0.004573573,0.0022167047,-0.00935104489326477,0.0017937477
1714.0999999987698,-4.730202e-05,-0.7845749,-0.00023630752,-2.355989,0.00010027144,1.570794,0.7858346,0.039999977,0.039999958,-9.813624,-0.011972966603934765,-0.005142781,0.0025514644,-0.009259078651666641,0.0020647584
1714.1166666654365,-9.05872e-05,-0.7845198,-0.000291895,-2.3559926,0.00010167581,1.5707577,0.7858014,0.03999998,0.03999996,-9.812804,-0.012658080086112022,-0.0057424395,0.0029128771,-0.009115512482821941,0.0023564873
1714.1333333321031,-0.00013967983,-0.7844625,-0.0003549085,-2.3559906,0.000103264414,1.5707164,0.7857639,0.039999977,0.039999958,-9.812447,-0.013398325070738792,-0.006382063,0.0033012144,-0.00893563125282526,0.0026690345
1714.1499999987698,-0.00019498641,-0.78440243,-0.00042586515,-2.3559866,0.00010505534,1.5706706,0.78572154,0.039999984,0.03999996,-9.811698,-0.014193987473845482,-0.007041136,0.00371536,-0.008705690503120422,0.003006176
1714.1666666654364,-0.0002569131,-0.7843392,-0.00050528283,-2.3559773,0.00010705383,1.5706195,0.78567415,0.039999984,0.03999996,-9.811421,-0.01471702940762043,-0.007796427,0.0041573416,-0.008439586497843266,0.0033623774
1714.183333332103,-0.00032586692,-0.7842722,-0.0005936795,-2.3559654,0.00010928002,1.5705622,0.78562135,0.039999984,0.039999954,-9.810792,-0.015405431389808655,-0.0085721435,0.004626019,-0.008127481676638126,0.0037441808
1714.1999999987697,-0.00040225332,-0.7842013,-0.00069157185,-2.3559484,0.000111742054,1.5704994,0.78556293,0.03999999,0.03999996,-9.810514,-0.015779877081513405,-0.009440488,0.005121708,-0.007783195003867149,0.0041452283
1714.2166666654364,-0.00048647664,-0.784126,-0.0007994748,-2.3559277,0.00011445201,1.57043,0.78549856,0.03999999,0.039999977,-9.809968,-0.016406496986746788,-0.0103424825,0.0056439443,-0.007394321262836456,0.0045628566
1714.233333332103,-0.00057893957,-0.78404576,-0.0009179008,-2.3559022,0.00011742694,1.570354,0.7854279,0.039999995,0.03999997,-9.809588,-0.01654922030866146,-0.011361808,0.006192533,-0.006969775538891554,0.00501007
1714.2499999987697,-0.00068004156,-0.7839604,-0.0010473593,-2.3558729,0.00012067737,1.5702709,0.78535074,0.04,0.039999973,-9.809149,-0.017016395926475525,-0.012422321,0.0067676506,-0.006507121492177248,0.005476341
1714.2666666654363,-0.0007901789,-0.7838694,-0.0011883549,-2.3558393,0.0001242157,1.5701804,0.78526664,0.04,0.039999966,-9.808846,-0.017003804445266724,-0.013593513,0.0073690065,-0.006010940298438072,0.005965861
1714.283333332103,-0.0009097449,-0.78377235,-0.0013413886,-2.3558013,0.00012805554,1.5700824,0.7851753,0.04,0.03999996,-9.808525,-0.017284691333770752,-0.014827208,0.00799618,-0.005482264328747988,0.006477949
1714.2999999987696,-0.0010391279,-0.78366935,-0.0015069558,-2.355759,0.00013220662,1.5699764,0.7850766,0.04,0.03999996,-9.808219,-0.017107225954532623,-0.01621653,0.008649243,-0.004919846076518297,0.0070070787
1714.3166666654363,-0.0011787134,-0.7835597,-0.0016855464,-2.355712,0.00013668575,1.5698621,0.78497016,0.039999995,0.03999994,-9.807847,-0.01716630905866623,-0.01762136,0.009327529,-0.004323376342654228,0.0075635677
1714.333333332103,-0.0013288803,-0.78344303,-0.0018776447,-2.3556602,0.00014150186,1.569739,0.78485566,0.039999984,0.03999992,-9.8076105,-0.016758590936660767,-0.019208996,0.0100306105,-0.0036975902039557695,0.0081375865
1714.3499999987696,-0.0014900039,-0.78331894,-0.0020837283,-2.3556035,0.00014666737,1.569607,0.7847329,0.039999984,0.039999913,-9.807283,-0.016659967601299286,-0.020866828,0.010758353,-0.0030413141939789057,0.0087320255
1714.3666666654362,-0.0016624534,-0.78318715,-0.0023042685,-2.355542,0.00015219285,1.5694655,0.7846014,0.03999999,0.039999917,-9.8070345,-0.015995947644114494,-0.022691848,0.011510462,-0.002355139935389161,0.009345938
1714.383333332103,-0.001846593,-0.78304744,-0.0025397285,-2.355476,0.00015809007,1.569315,0.784461,0.03999999,0.039999913,-9.806795,-0.015435010194778442,-0.024622831,0.012286811,-0.0016427254304289818,0.009979975
1714.3999999987695,-0.0020427809,-0.78289974,-0.002790565,-2.3554044,0.00016437049,1.5691543,0.7843116,0.04,0.03999992,-9.806602,-0.014996426180005074,-0.026658019,0.013086804,-0.0009031543741002679,0.0106338
1714.4166666654362,-0.0022513685,-0.78274375,-0.0030572275,-2.3553278,0.00017104519,1.5689834,0.7841526,0.04,0.039999917,-9.806301,-0.01393936201930046,-0.028858982,0.0139095,-0.00013439221947919577,0.011307202
1714.4333333321028,-0.0024727029,-0.7825786,-0.0033401577,-2.355246,0.00017812532,1.5688024,0.783984,0.04,0.039999917,-9.806057,-0.013251947239041328,-0.03111924,0.014755538,0.0006596960010938346,0.012000206
1714.4499999987695,-0.002707124,-0.7824046,-0.003639788,-2.3551588,0.00018562417,1.5686107,0.7838055,0.039999995,0.0399999,-9.805919,-0.011908156797289848,-0.03366679,0.015623672,0.0014778220793232322,0.012713295
1714.4666666654362,-0.0029549648,-0.78222126,-0.003956543,-2.3550658,0.00019354795,1.5684079,0.78361666,0.04,0.039999902,-9.805647,-0.010979989543557167,-0.036231626,0.01651358,0.0023218397982418537,0.013443875
1714.4833333321028,-0.0032165514,-0.7820283,-0.004290839,-2.3549676,0.00020190951,1.568194,0.78341746,0.04,0.03999989,-9.805441,-0.009339328855276108,-0.03902156,0.017425533,0.003190025221556425,0.014193768
1714.4999999987695,-0.003492203,-0.7818255,-0.0046430854,-2.3548644,0.00021071841,1.5679686,0.78320754,0.04,0.039999895,-9.805271,-0.008127659559249878,-0.04191178,0.018358255,0.004079313948750496,0.014961375
1714.516666665436,-0.0037822342,-0.7816126,-0.0050136796,-2.3547544,0.00021998475,1.5677316,0.7829867,0.04,0.03999989,-9.8052025,-0.00618676096200943,-0.045032565,0.019311855,0.004987269174307585,0.015747622
1714.5333333321028,-0.004086951,-0.7813893,-0.0054030144,-2.3546383,0.00022971763,1.5674825,0.7827547,0.04,0.039999887,-9.804848,-0.004693038761615753,-0.04824797,0.020285305,0.005922230891883373,0.016551068
1714.5499999987694,-0.00440665,-0.78115535,-0.005811471,-2.3545165,0.00023992678,1.5672214,0.7825115,0.04,0.039999887,-9.804682,-0.0024335049092769623,-0.05169226,0.02127863,0.006877831649035215,0.017371865
1714.566666665436,-0.0047416254,-0.7809106,-0.0062394203,-2.3543892,0.00025062106,1.5669477,0.78225654,0.04,0.039999884,-9.804532,-0.0006389543414115906,-0.05524734,0.022290338,0.007851841859519482,0.018210694
1714.5833333321027,-0.005092163,-0.780655,-0.0066872262,-2.354256,0.0002618104,1.5666614,0.78198975,0.04,0.03999987,-9.804474,0.001950278878211975,-0.05903625,0.02332139,0.008841747418045998,0.019065298
1714.5999999987694,-0.00545854,-0.7803882,-0.0071552442,-2.3541157,0.00027350284,1.5663618,0.781711,0.03999999,0.03999985,-9.804278,0.004057597368955612,-0.06293162,0.024370873,0.009850400499999523,0.019937105
1714.616666665436,-0.0058410256,-0.7801097,-0.00764382,-2.3539689,0.00028570753,1.5660496,0.7814199,0.04,0.039999858,-9.804043,0.0069867148995399475,-0.06707806,0.025437975,0.010879325680434704,0.020826152
1714.6333333321027,-0.0062398845,-0.7798196,-0.00815329,-2.3538156,0.00029843126,1.5657239,0.7811163,0.04,0.039999858,-9.803903,0.009744986891746521,-0.071396194,0.026523039,0.011925582773983479,0.021729417
1714.6499999987693,-0.0066553727,-0.77951765,-0.008683979,-2.353656,0.0003116834,1.5653844,0.78080004,0.04,0.03999985,-9.803678,0.012339957058429718,-0.075846754,0.027624901,0.01298905722796917,0.022649309
1714.666666665436,-0.007087739,-0.77920353,-0.009236203,-2.3534906,0.00032547148,1.5650313,0.780471,0.04,0.039999846,-9.803613,0.015802830457687378,-0.08055457,0.028743401,0.014064534567296505,0.02358539
1714.6833333321026,-0.007537225,-0.77887726,-0.009810274,-2.353319,0.00033980314,1.5646641,0.780129,0.04,0.03999985,-9.803499,0.01873394101858139,-0.08539799,0.029877719,0.015152632258832455,0.024535865
1714.6999999987693,-0.008004065,-0.7785385,-0.0104064895,-2.3531399,0.00035468594,1.5642831,0.7797739,0.04,0.039999843,-9.803461,0.022552981972694397,-0.09051357,0.031027313,0.016251876950263977,0.025502197
1714.716666665436,-0.008488485,-0.77818716,-0.01102514,-2.3529534,0.00037012633,1.5638875,0.7794055,0.04,0.03999984,-9.803161,0.02583479881286621,-0.095767595,0.032191735,0.01736871525645256,0.026483025
1714.7333333321026,-0.008990705,-0.77782303,-0.0116665065,-2.3527598,0.00038613204,1.5634776,0.77902347,0.04,0.039999828,-9.802984,0.030023325234651566,-0.101270914,0.033370394,0.018498964607715607,0.027478375
1714.7499999987692,-0.009510937,-0.77744603,-0.012330861,-2.352559,0.00040270947,1.5630531,0.77862775,0.04,0.039999828,-9.802774,0.03365590050816536,-0.106913745,0.034563374,0.019642068073153496,0.02848714
1714.7666666654359,-0.010049389,-0.7770559,-0.013018466,-2.3523512,0.00041986548,1.5626137,0.77821815,0.04,0.039999813,-9.802617,0.038234077394008636,-0.112829156,0.03576994,0.020798495039343834,0.029511325
1714.7833333321025,-0.010606256,-0.77665275,-0.013729571,-2.3521361,0.00043760551,1.5621592,0.7777946,0.04,0.039999805,-9.802385,0.04222825542092323,-0.118883565,0.03698998,0.021965421736240387,0.03054764
1714.7999999987692,-0.011181733,-0.7762363,-0.01446442,-2.351914,0.0004559365,1.5616896,0.7773568,0.04,0.039999805,-9.802257,0.04718751087784767,-0.12519726,0.038222287,0.023142067715525627,0.031598177
1714.8166666654358,-0.0117759975,-0.77580607,-0.015223251,-2.3516843,0.00047486348,1.5612047,0.77690476,0.04,0.039999794,-9.802033,0.05156648904085159,-0.13166119,0.039467704,0.0243288092315197,0.032662112
1714.8333333321025,-0.0123892315,-0.7753622,-0.016006289,-2.3514473,0.000494392,1.5607039,0.77643824,0.04,0.03999979,-9.801871,0.05691193789243698,-0.13844386,0.040724248,0.025523895397782326,0.033738453
1714.8499999987691,-0.013021602,-0.7749046,-0.016813753,-2.351203,0.000514528,1.5601876,0.77595735,0.04,0.03999978,-9.801672,0.06167526915669441,-0.14533998,0.04199255,0.026723986491560936,0.03482805
1714.8666666654358,-0.013673267,-0.7744333,-0.01764584,-2.3509512,0.0005352761,1.5596559,0.7754618,0.04,0.039999776,-9.801537,0.06742119044065475,-0.15254569,0.0432708,0.027931148186326027,0.035929777
1714.8833333321024,-0.014344389,-0.77394783,-0.018502753,-2.3506916,0.0005566413,1.5591081,0.7749514,0.04,0.03999977,-9.801268,0.0729752853512764,-0.15992086,0.044559374,0.029148507863283157,0.037043445
1714.899999998769,-0.015035111,-0.7734483,-0.019384678,-2.350424,0.00057862856,1.5585446,0.7744261,0.04,0.039999776,-9.800995,0.07832089066505432,-0.16748255,0.045858223,0.030370447784662247,0.03816949
1714.9166666654357,-0.015745576,-0.7729344,-0.020291805,-2.3501492,0.00060124305,1.5579648,0.7738857,0.04,0.039999817,-9.800777,0.08468690514564514,-0.17534854,0.04716665,0.03160014748573303,0.039308425
1714.9333333321024,-0.01647592,-0.77240616,-0.021224298,-2.3498666,0.0006244868,1.5573689,0.7733304,0.04,0.039999813,-9.800514,0.09041884541511536,-0.18336494,0.048484094,0.0328325591981411,0.04045746
1714.949999998769,-0.017226271,-0.77186364,-0.022182323,-2.3495765,0.00064836524,1.5567566,0.7727598,0.04,0.039999805,-9.800319,0.09719659388065338,-0.19168156,0.04980964,0.03406854346394539,0.04161883
1714.9666666654357,-0.017996741,-0.77130663,-0.023166036,-2.3492785,0.0006728814,1.556128,0.772174,0.04,0.0399998,-9.800013,0.10333029925823212,-0.20013252,0.051143464,0.03530752286314964,0.042789195
1714.9833333321023,-0.01878745,-0.77073485,-0.024175573,-2.348973,0.0006980396,1.5554829,0.77157277,0.04,0.039999805,-9.799759,0.11052916198968887,-0.2088935,0.052484408,0.036550622433423996,0.0439713
1714.999999998769,-0.019598497,-0.7701485,-0.02521107,-2.34866,0.0007238431,1.5548211,0.7709561,0.04,0.03999979,-9.799497,0.11708240956068039,-0.21784039,0.053832766,0.037791814655065536,0.045164023
1715.0166666654357,-0.020429993,-0.76954734,-0.026272664,-2.348339,0.0007502945,1.5541426,0.7703239,0.04,0.03999979,-9.79921,0.12469002604484558,-0.22704974,0.05518792,0.03903497755527496,0.046367206
1715.0333333321023,-0.021282028,-0.7689313,-0.027360473,-2.34801,0.00077739696,1.5534475,0.769676,0.04,0.039999783,-9.798878,0.131665900349617,-0.23645768,0.056549497,0.040276899933815,0.047581226
1715.049999998769,-0.022154689,-0.76830053,-0.028474601,-2.3476732,0.0008051534,1.5527354,0.7690125,0.04,0.03999978,-9.79854,0.1396898776292801,-0.24614057,0.05791684,0.041520483791828156,0.048803452
1715.0666666654356,-0.02304805,-0.76765496,-0.029615153,-2.3473284,0.00083356636,1.5520067,0.7683332,0.04,0.039999772,-9.798093,0.14708212018013,-0.25599372,0.059289817,0.04276416450738907,0.05003624
1715.0833333321023,-0.023962183,-0.76699436,-0.030782228,-2.3469758,0.00086263823,1.5512614,0.76763827,0.04,0.03999976,-9.79777,0.1555405557155609,-0.26613808,0.060667966,0.04400676488876343,0.05127848
1715.099999998769,-0.024897162,-0.7663185,-0.031975903,-2.3466146,0.0008923708,1.5504987,0.7669274,0.04,0.03999976,-9.797282,0.1633538454771042,-0.276477,0.062049773,0.04525013640522957,0.052530054
1715.1166666654356,-0.025853043,-0.7656277,-0.033196263,-2.346245,0.0009227666,1.5497187,0.7662009,0.04,0.03999975,-9.796876,0.17224448919296265,-0.28708914,0.06343645,0.04648900404572487,0.053790543
1715.1333333321022,-0.026829885,-0.7649217,-0.034443382,-2.3458676,0.00095382694,1.5489221,0.765458,0.04,0.039999746,-9.796362,0.18091462552547455,-0.2978861,0.06482561,0.04772630333900452,0.055059865
1715.1499999987689,-0.027827729,-0.7642007,-0.035717305,-2.3454816,0.0009855533,1.548108,0.7646994,0.04,0.03999974,-9.795804,0.18936358392238617,-0.30892122,0.066220336,0.04896190017461777,0.056337707
1715.1666666654355,-0.028846618,-0.76346445,-0.0370181,-2.3450878,0.0010179478,1.547277,0.76392496,0.04,0.039999735,-9.795262,0.19890540838241577,-0.3202167,0.06761682,0.050194934010505676,0.05762402
1715.1833333321022,-0.029886588,-0.76271284,-0.038345803,-2.3446856,0.0010510103,1.5464286,0.7631345,0.04,0.039999727,-9.794702,0.20778143405914307,-0.33170825,0.06901497,0.051422685384750366,0.058918327
1715.1999999987688,-0.030947668,-0.7619462,-0.03970044,-2.3442752,0.0010847427,1.5455629,0.7623279,0.04,0.03999972,-9.794147,0.2177615463733673,-0.3434795,0.07041506,0.052644506096839905,0.060220685
1715.2166666654355,-0.032029886,-0.7611643,-0.041082073,-2.3438568,0.0011191454,1.5446801,0.76150525,0.04,0.03999971,-9.793447,0.22706738114356995,-0.3554205,0.07181728,0.05386202782392502,0.061530944
1715.2333333321021,-0.033133272,-0.7603672,-0.04249068,-2.3434303,0.0011542185,1.5437801,0.76066655,0.04,0.03999972,-9.792846,0.23748114705085754,-0.3676523,0.073220804,0.055073488503694534,0.062848225
1715.2499999987688,-0.034257796,-0.7595548,-0.043926302,-2.3429956,0.0011899634,1.5428628,0.7598118,0.04,0.03999971,-9.792098,0.24722430109977722,-0.38008195,0.074624985,0.05627880245447159,0.064173274
1715.2666666654354,-0.035403475,-0.75872695,-0.045388937,-2.3425531,0.00122638,1.5419284,0.75894094,0.04,0.03999971,-9.79144,0.25806906819343567,-0.39276984,0.076029584,0.05747496709227562,0.06550511
1715.283333332102,-0.03657033,-0.7578839,-0.04687859,-2.3421023,0.0012634699,1.5409765,0.7580539,0.04,0.039999753,-9.790665,0.26825350522994995,-0.405679,0.077434465,0.058662787079811096,0.066845216
1715.2999999987687,-0.03775833,-0.75702536,-0.048395246,-2.3416436,0.00130123,1.5400077,0.7571508,0.04,0.039999753,-9.789855,0.279531329870224,-0.41881654,0.07883929,0.05984257906675339,0.06819069
1715.3166666654354,-0.03896748,-0.7561514,-0.04993889,-2.341176,0.0013396615,1.5390217,0.7562318,0.04,0.039999742,-9.789018,0.29014983773231506,-0.4322117,0.08024295,0.06101258471608162,0.06954351
1715.333333332102,-0.040197745,-0.75526273,-0.05150951,-2.3407004,0.0013787621,1.5380183,0.75529677,0.04,0.039999746,-9.788078,0.301852822303772,-0.4458194,0.08164534,0.062176164239645004,0.07090052
1715.3499999987687,-0.04144912,-0.75435877,-0.05310707,-2.3402166,0.0014185334,1.5369977,0.75434566,0.04,0.03999975,-9.787036,0.31290483474731445,-0.45959157,0.08304577,0.06333201378583908,0.072264
1715.3666666654353,-0.042721562,-0.7534393,-0.05473151,-2.339725,0.0014589735,1.53596,0.75337845,0.04,0.03999974,-9.786108,0.3250676989555359,-0.47363523,0.08444423,0.0644759014248848,0.07363411
1715.383333332102,-0.04401503,-0.7525049,-0.056382805,-2.339225,0.0015000814,1.534905,0.75239533,0.04,0.03999974,-9.78513,0.3369922339916229,-0.48793617,0.08584098,0.06560666859149933,0.07500935
1715.3999999987686,-0.045329478,-0.75155526,-0.058060892,-2.338717,0.0015418568,1.5338331,0.7513962,0.04,0.03999974,-9.78392,0.34868910908699036,-0.5024203,0.08723497,0.06672907620668411,0.07638942
1715.4166666654353,-0.046664868,-0.75059044,-0.059765723,-2.3382008,0.0015842973,1.532744,0.7503812,0.04,0.03999973,-9.782831,0.36150062084198,-0.5171431,0.08862616,0.06783975660800934,0.0777753
1715.433333332102,-0.048021156,-0.7496106,-0.061497226,-2.3376765,0.0016274011,1.5316378,0.74935037,0.04,0.039999723,-9.781574,0.37363243103027344,-0.5320926,0.09001359,0.06893831491470337,0.079165414
1715.4499999987686,-0.04939828,-0.74861574,-0.063255325,-2.3371441,0.0016711671,1.5305148,0.7483038,0.04,0.039999723,-9.780349,0.3868711292743683,-0.547246,0.0913969,0.07002368569374084,0.08056057
1715.4666666654352,-0.050796177,-0.74760586,-0.065039955,-2.3366039,0.0017155932,1.5293746,0.7472414,0.04,0.03999972,-9.779002,0.39944109320640564,-0.56262976,0.092775755,0.07109657675027847,0.08195981
1715.483333332102,-0.052214768,-0.7465811,-0.066851005,-2.3360555,0.0017606769,1.528218,0.74616325,0.04,0.039999716,-9.777647,0.41310766339302063,-0.57822317,0.09414989,0.07215544581413269,0.08336318
1715.4999999987685,-0.053653993,-0.7455414,-0.06868838,-2.335499,0.0018064169,1.5270443,0.74506927,0.04,0.039999716,-9.776168,0.42610853910446167,-0.5940491,0.09551925,0.07320250570774078,0.08477071
1715.5166666654352,-0.05511376,-0.7444868,-0.07055199,-2.3349342,0.0018528102,1.5258539,0.7439599,0.04,0.03999972,-9.774697,0.440199613571167,-0.61005837,0.09688442,0.07423357665538788,0.086181596
1715.5333333321018,-0.056594003,-0.74341744,-0.07244174,-2.3343618,0.0018998552,1.5246468,0.74283504,0.04,0.03999976,-9.773023,0.4536435604095459,-0.62631625,0.09824245,0.0752531886100769,0.087597765
1715.5499999987685,-0.05809462,-0.7423335,-0.074357525,-2.3337815,0.0019475474,1.5234228,0.74169457,0.04,0.039999764,-9.771447,0.4681432545185089,-0.6427465,0.09959453,0.07625573873519897,0.08901525
1715.5666666654352,-0.05961552,-0.74123466,-0.07629919,-2.333193,0.001995886,1.5221825,0.7405388,0.04,0.03999976,-9.769732,0.48200252652168274,-0.6594073,0.10094046,0.07724206149578094,0.09043455
1715.5833333321018,-0.0611566,-0.7401213,-0.078266636,-2.332597,0.0020448656,1.5209259,0.7393676,0.04,0.039999753,-9.7679405,0.49694588780403137,-0.67626727,0.10227947,0.07821343094110489,0.09185868
1715.5999999987685,-0.06271776,-0.73899364,-0.08025972,-2.3319933,0.0020944844,1.5196528,0.73818123,0.04,0.03999976,-9.766087,0.5112210512161255,-0.6933623,0.10361155,0.0791693776845932,0.09328337
1715.616666665435,-0.06429888,-0.73785144,-0.082278304,-2.331382,0.0021447383,1.5183635,0.73697966,0.04,0.039999746,-9.764171,0.5265824794769287,-0.71058077,0.104935996,0.08010858297348022,0.09471169
1715.6333333321018,-0.06589987,-0.7366948,-0.08432225,-2.3307629,0.0021956246,1.517058,0.73576283,0.04,0.03999975,-9.7621975,0.541700005531311,-0.72806615,0.1062527,0.08102928847074509,0.09614038
1715.6499999987684,-0.06752062,-0.7355242,-0.08639142,-2.330136,0.0022471407,1.5157362,0.73453116,0.04,0.039999746,-9.760084,0.5566200613975525,-0.7457602,0.107561916,0.08193302899599075,0.09757068
1715.666666665435,-0.06916099,-0.7343393,-0.088485606,-2.3295016,0.0022992822,1.5143986,0.7332846,0.04,0.039999742,-9.75791,0.5725923180580139,-0.76356345,0.10886193,0.08281993865966797,0.09900297
1715.6833333321017,-0.07082081,-0.73314035,-0.090604685,-2.3288605,0.0023520452,1.5130451,0.73202324,0.04,0.03999974,-9.755638,0.5879269242286682,-0.7816639,0.110153235,0.08368943631649017,0.10043637
1715.6999999987684,-0.07250001,-0.7319274,-0.09274849,-2.3282118,0.0024054244,1.511676,0.73074734,0.04,0.03999974,-9.753473,0.6042880415916443,-0.7998777,0.111435294,0.08453544229269028,0.10187054
1715.716666665435,-0.074198425,-0.73070043,-0.09491684,-2.3275554,0.0024594162,1.5102911,0.72945666,0.04,0.03999974,-9.750999,0.6200410723686218,-0.81835854,0.11270728,0.08536496013402939,0.10330502
1715.7333333321017,-0.075915925,-0.72945976,-0.09710956,-2.3268912,0.0025140173,1.5088902,0.72815144,0.04,0.039999742,-9.748496,0.6368107199668884,-0.8369392,0.11397022,0.08617553859949112,0.10474052
1715.7499999987683,-0.077652365,-0.7282055,-0.09932646,-2.3262196,0.0025692233,1.5074738,0.7268319,0.04,0.039999787,-9.745831,0.6529574394226074,-0.85577226,0.11522312,0.08696691691875458,0.10617519
1715.766666665435,-0.079407595,-0.7269376,-0.101567365,-2.3255413,0.002625029,1.5060425,0.7254982,0.04,0.039999787,-9.74316,0.670127809047699,-0.8746928,0.11646506,0.08773878216743469,0.10761086
1715.7833333321016,-0.081181444,-0.72565645,-0.103832066,-2.3248556,0.0026814272,1.504596,0.7241503,0.04,0.039999776,-9.740409,0.6866725087165833,-0.89392656,0.117695875,0.08849085122346878,0.109043896
1715.7999999987683,-0.08297378,-0.72436184,-0.10612035,-2.3241627,0.0027384157,1.5031343,0.72278833,0.04,0.039999783,-9.737528,0.7042156457901001,-0.91318303,0.11891593,0.08922363072633743,0.11047586
1715.816666665435,-0.08478443,-0.72305393,-0.10843206,-2.3234627,0.0027959899,1.5016572,0.7214125,0.04,0.039999787,-9.734579,0.7211770415306091,-0.9327433,0.12012474,0.0899343490600586,0.1119082
1715.8333333321016,-0.08661324,-0.7217329,-0.11076692,-2.3227558,0.0028541423,1.5001667,0.72002286,0.04,0.039999787,-9.731515,0.7391010522842407,-0.9523613,0.12132145,0.09062307327985764,0.11333739
1715.8499999987682,-0.08846001,-0.7203991,-0.113124736,-2.322042,0.0029128701,1.4986616,0.7186196,0.04,0.039999783,-9.728292,0.7564438581466675,-0.9722771,0.12250608,0.09129708260297775,0.11476577
1715.8666666654349,-0.09032462,-0.7190522,-0.115505315,-2.3213217,0.0029721677,1.4971416,0.71720284,0.04,0.03999978,-9.72506,0.7747406363487244,-0.9922132,0.123678714,0.09195026010274887,0.116192006
1715.8833333321015,-0.09220681,-0.7176927,-0.1179084,-2.3205948,0.003032029,1.4956064,0.7157726,0.04,0.039999783,-9.721736,0.7928432822227478,-1.0123578,0.124838,0.0925777405500412,0.11761482
1715.8999999987682,-0.09410649,-0.7163206,-0.120333746,-2.319861,0.003092448,1.4940578,0.7143291,0.04,0.03999978,-9.718292,0.8107596635818481,-1.0327252,0.1259847,0.09318003058433533,0.11903549
1715.9166666654348,-0.096023396,-0.714936,-0.12278115,-2.3191197,0.0031534198,1.4924948,0.7128729,0.04,0.039999783,-9.714677,0.8295971155166626,-1.0531396,0.12711841,0.09376426786184311,0.120451994
1715.9333333321015,-0.097957395,-0.713539,-0.12525034,-2.3183715,0.0032149383,1.4909183,0.7114038,0.04,0.039999783,-9.710893,0.8478975892066956,-1.0738125,0.12823714,0.09432864189147949,0.12186834
1715.9499999987681,-0.09990825,-0.71212983,-0.12774108,-2.3176177,0.0032769977,1.4893277,0.7099216,0.04,0.039999824,-9.707022,0.8670812845230103,-1.0945026,0.1293418,0.09487471729516983,0.1232792
1715.9666666654348,-0.10187581,-0.7107089,-0.1302532,-2.316857,0.0033395907,1.4877236,0.70842665,0.04,0.039999828,-9.703244,0.8857245445251465,-1.1154774,0.13043313,0.09539245069026947,0.12468372
1715.9833333321014,-0.10385984,-0.70927584,-0.13278632,-2.3160899,0.003402712,1.486106,0.70691895,0.04,0.039999824,-9.699156,0.90529465675354,-1.1364213,0.13151053,0.0958906039595604,0.12608674
1715.999999998768,-0.10586014,-0.7078311,-0.13534024,-2.3153172,0.0034663556,1.4844753,0.70539933,0.04,0.039999824,-9.694974,0.9242786765098572,-1.1577007,0.13257445,0.0963669866323471,0.12748364
1716.0166666654347,-0.107876495,-0.7063747,-0.13791469,-2.3145378,0.0035305154,1.4828317,0.7038673,0.04,0.03999982,-9.690806,0.944159746170044,-1.178917,0.13362141,0.09681728482246399,0.12887453
1716.0333333321014,-0.10990873,-0.70490694,-0.14050937,-2.3137517,0.0035951843,1.481175,0.70232326,0.04,0.039999824,-9.686369,0.963531494140625,-1.200454,0.13465437,0.09724899381399155,0.13026193
1716.049999998768,-0.11195663,-0.703428,-0.14312407,-2.31296,0.0036603548,1.4795055,0.70076734,0.04,0.039999824,-9.681816,0.9837130904197693,-1.2219077,0.13567157,0.09765781462192535,0.13164155
1716.0666666654347,-0.11401995,-0.7019377,-0.14575848,-2.3121622,0.0037260216,1.4778234,0.69919974,0.04,0.039999817,-9.67721,1.0034351348876953,-1.2436687,0.13667326,0.0980440229177475,0.1330166
1716.0833333321013,-0.11609849,-0.7004365,-0.14841232,-2.311359,0.0037921772,1.4761289,0.6976205,0.04,0.039999824,-9.672495,1.0239509344100952,-1.2654018,0.13765833,0.09840542078018188,0.1343846
1716.099999998768,-0.11819201,-0.6989244,-0.1510853,-2.3105495,0.0038588145,1.4744225,0.69602996,0.04,0.03999982,-9.667673,1.043985366821289,-1.2873994,0.1386278,0.09874242544174194,0.13574544
1716.1166666654346,-0.120300286,-0.6974018,-0.15377717,-2.309734,0.003925927,1.4727037,0.69442827,0.04,0.039999824,-9.662601,1.064817190170288,-1.3093455,0.13958062,0.09905961900949478,0.13710035
1716.1333333321013,-0.122423075,-0.6958686,-0.1564876,-2.308913,0.003993506,1.4709731,0.69281554,0.04,0.039999828,-9.65747,1.0854765176773071,-1.3314564,0.14051636,0.09935334324836731,0.13844702
1716.149999998768,-0.12456019,-0.6943252,-0.15921627,-2.3080873,0.0040615485,1.469231,0.69119185,0.04,0.039999843,-9.652215,1.105997085571289,-1.3538034,0.14143504,0.0996243804693222,0.13978659
1716.1666666654346,-0.12671137,-0.69277173,-0.16196293,-2.3072555,0.0041300436,1.4674774,0.68955743,0.04,0.039999872,-9.646961,1.1272647380828857,-1.376043,0.14233692,0.09986813366413116,0.14111677
1716.1833333321013,-0.12887637,-0.6912082,-0.16472723,-2.3064184,0.0041989833,1.4657124,0.68791264,0.04,0.03999987,-9.6413765,1.1480730772018433,-1.3985736,0.14322162,0.10009205341339111,0.14243858
1716.199999998768,-0.13105498,-0.689635,-0.16750889,-2.305576,0.0042683613,1.4639364,0.6862575,0.04,0.03999987,-9.635732,1.1696373224258423,-1.4209882,0.14408849,0.10029212385416031,0.14375263
1716.2166666654346,-0.13324693,-0.6880522,-0.17030764,-2.304729,0.00433817,1.4621496,0.6845924,0.04,0.039999872,-9.629979,1.19074285030365,-1.443705,0.14493726,0.10046964883804321,0.1450546
1716.2333333321012,-0.13545194,-0.68645984,-0.17312308,-2.3038764,0.004408402,1.4603523,0.6829172,0.04,0.039999865,-9.62412,1.2125771045684814,-1.4662963,0.14576693,0.1006217896938324,0.14634937
1716.2499999987679,-0.13766983,-0.68485796,-0.17595497,-2.303019,0.0044790492,1.4585444,0.6812323,0.04,0.039999876,-9.618061,1.233970046043396,-1.4891973,0.14658001,0.10075308382511139,0.14763306
1716.2666666654345,-0.13990036,-0.68324715,-0.17880295,-2.302157,0.004550103,1.4567262,0.67953795,0.04,0.039999876,-9.611903,1.2560412883758545,-1.5119555,0.14737324,0.1008589044213295,0.14890537
1716.2833333321012,-0.1421432,-0.6816274,-0.18166667,-2.3012896,0.004621557,1.4548979,0.67783415,0.04,0.039999872,-9.605658,1.2777303457260132,-1.5349927,0.14814736,0.10094086825847626,0.15016763
1716.2999999987678,-0.1443981,-0.6799992,-0.18454587,-2.3004177,0.0046934024,1.4530599,0.67612123,0.04,0.039999865,-9.59915,1.3000588417053223,-1.5578741,0.14890285,0.10100149363279343,0.15141985
1716.3166666654345,-0.14666475,-0.6783623,-0.18744019,-2.2995417,0.004765633,1.4512124,0.6743994,0.04,0.03999987,-9.592564,1.3219794034957886,-1.581034,0.14963955,0.10104105621576309,0.15265845
1716.3333333321011,-0.14894302,-0.67671674,-0.19034927,-2.298661,0.0048382385,1.4493555,0.6726687,0.04,0.039999872,-9.5859375,1.3445494174957275,-1.6040624,0.15035662,0.10105479508638382,0.1538854
1716.3499999987678,-0.1512326,-0.675063,-0.19327281,-2.2977755,0.0049112104,1.4474894,0.67092943,0.04,0.039999876,-9.579101,1.3667309284210205,-1.6273967,0.15105455,0.10104486346244812,0.15510067
1716.3666666654344,-0.1535332,-0.6734012,-0.19621049,-2.2968867,0.0049845423,1.4456142,0.6691819,0.04,0.03999988,-9.572015,1.3895305395126343,-1.6504993,0.15173239,0.10101541876792908,0.15630472
1716.383333332101,-0.15584458,-0.6717321,-0.19916192,-2.2959929,0.005058224,1.4437302,0.66742605,0.04,0.039999895,-9.565075,1.412202000617981,-1.6738138,0.15238965,0.10095573216676712,0.15749522
1716.3999999987677,-0.15816647,-0.6700554,-0.20212674,-2.2950957,0.005132247,1.4418377,0.6656623,0.04,0.039999917,-9.557674,1.434719204902649,-1.697217,0.15302786,0.10088057070970535,0.15867041
1716.4166666654344,-0.16049857,-0.6683713,-0.20510466,-2.2941935,0.0052066003,1.4399368,0.6638909,0.04,0.039999936,-9.550328,1.4578217267990112,-1.7204787,0.15364586,0.10077998042106628,0.15983222
1716.433333332101,-0.1628406,-0.66668016,-0.2080953,-2.2932882,0.0052812803,1.4380281,0.6621119,0.04,0.039999932,-9.54269,1.48058021068573,-1.7440085,0.15424263,0.10066179186105728,0.16098009
1716.4499999987677,-0.16519234,-0.66498184,-0.21109834,-2.2923791,0.005356276,1.4361112,0.6603256,0.04,0.039999947,-9.535078,1.5038490295410156,-1.7673286,0.15481985,0.10051945596933365,0.16211122
1716.4666666654343,-0.16755345,-0.66327703,-0.21411337,-2.2914665,0.0054315794,1.4341866,0.6585322,0.04,0.03999994,-9.527311,1.5268579721450806,-1.7909428,0.1553752,0.10035320371389389,0.16323051
1716.483333332101,-0.16992368,-0.66156566,-0.21714003,-2.2905507,0.005507182,1.4322547,0.65673184,0.04,0.03999994,-9.519328,1.5502948760986328,-1.8142871,0.15591018,0.10016439110040665,0.1643329
1716.4999999987676,-0.1723028,-0.6598478,-0.220178,-2.2896311,0.005583072,1.4303157,0.6549247,0.04,0.03999994,-9.511286,1.5734598636627197,-1.8379514,0.15642472,0.09995377063751221,0.16541909
1716.5166666654343,-0.17469043,-0.6581237,-0.22322696,-2.2887077,0.0056592436,1.4283699,0.6531113,0.04,0.03999994,-9.50298,1.5970882177352905,-1.861377,0.15691832,0.09972382336854935,0.16649011
1716.533333332101,-0.17708637,-0.6563936,-0.2262865,-2.2877812,0.0057356884,1.4264174,0.65129143,0.04,0.03999994,-9.494589,1.6204440593719482,-1.8850658,0.15738945,0.0994742140173912,0.16754442
1716.5499999987676,-0.17949025,-0.6546577,-0.22935621,-2.286852,0.0058123963,1.4244583,0.6494657,0.04,0.039999943,-9.486032,1.6442068815231323,-1.9084941,0.15783998,0.09920398890972137,0.16858143
1716.5666666654342,-0.18190183,-0.65291625,-0.23243573,-2.2859197,0.005889358,1.422493,0.647634,0.04,0.039999943,-9.477455,1.6677287817001343,-1.9322139,0.15826838,0.09891138970851898,0.1696016
1716.583333332101,-0.1843208,-0.6511698,-0.23552476,-2.2849848,0.0059665632,1.4205216,0.6457967,0.04,0.039999943,-9.468652,1.6916167736053467,-1.9556526,0.15867606,0.09859710186719894,0.17060281
1716.5999999987675,-0.18674685,-0.6494181,-0.23862287,-2.2840474,0.006044002,1.4185444,0.643954,0.04,0.039999943,-9.459771,1.7153047323226929,-1.9793514,0.15906225,0.09826239943504333,0.17158729
1716.6166666654342,-0.18917978,-0.64766145,-0.24172974,-2.2831068,0.006121669,1.4165617,0.64210624,0.04,0.039999943,-9.4507,1.7393321990966797,-2.0027869,0.15942685,0.097905732691288,0.17255332
1716.6333333321008,-0.19161925,-0.64590013,-0.24484499,-2.282164,0.006199552,1.4145737,0.6402536,0.04,0.039999947,-9.441436,1.7632745504379272,-2.0263512,0.15976873,0.0975315272808075,0.17350018
1716.6499999987675,-0.19406493,-0.64413434,-0.24796815,-2.2812185,0.0062776427,1.4125805,0.63839614,0.04,0.039999943,-9.432163,1.787170648574829,-2.0500445,0.16008788,0.09713659435510635,0.17442898
1716.6666666654341,-0.19651654,-0.64236426,-0.251099,-2.2802703,0.0063559324,1.4105825,0.6365341,0.04,0.039999954,-9.422598,1.811334252357483,-2.0734258,0.16038628,0.09672313928604126,0.17533721
1716.6833333321008,-0.19897383,-0.64059013,-0.25423703,-2.2793205,0.006434411,1.4085802,0.6346679,0.04,0.03999994,-9.41296,1.835340142250061,-2.0970802,0.16066279,0.09629366546869278,0.17622606
1716.6999999987675,-0.20143646,-0.6388122,-0.25738192,-2.2783687,0.0065130685,1.4065733,0.6327976,0.04,0.039999958,-9.40326,1.859616756439209,-2.1204302,0.16091654,0.09584221988916397,0.17709516
1716.716666665434,-0.20390406,-0.63703066,-0.2605332,-2.2774148,0.006591898,1.4045621,0.63092357,0.04,0.03999995,-9.393432,1.8837214708328247,-2.1440449,0.1611479,0.09537123888731003,0.17794307
1716.7333333321008,-0.20637642,-0.6352457,-0.26369062,-2.276459,0.0066708853,1.4025474,0.6290459,0.04,0.039999947,-9.383385,1.9080525636672974,-2.167321,0.1613573,0.09488113969564438,0.17877111
1716.7499999987674,-0.20885321,-0.63345754,-0.26685372,-2.2755015,0.006750024,1.400529,0.6271649,0.04,0.039999947,-9.373212,1.9322419166564941,-2.1908674,0.16154462,0.09437631815671921,0.17957725
1716.766666665434,-0.21133421,-0.6316664,-0.2700221,-2.2745426,0.006829305,1.3985072,0.625281,0.04,0.03999996,-9.362933,1.9566525220870972,-2.214083,0.16170944,0.09385217726230621,0.18036382
1716.7833333321007,-0.21381897,-0.6298725,-0.27319536,-2.2735827,0.006908717,1.3964826,0.6233941,0.04,0.03999998,-9.352599,1.9809091091156006,-2.2375476,0.1618505,0.09330970048904419,0.18112618
1716.7999999987674,-0.21630727,-0.62807596,-0.27637315,-2.272621,0.00698825,1.3944553,0.62150455,0.04,0.03999998,-9.34206,2.00534725189209,-2.2606957,0.1619701,0.09274902194738388,0.18186633
1716.816666665434,-0.21879883,-0.6262772,-0.2795552,-2.2716577,0.0070678964,1.3924251,0.6196124,0.04,0.03999999,-9.331391,2.0296719074249268,-2.284083,0.16206661,0.09217411279678345,0.18258454
1716.8333333321007,-0.22129332,-0.6244764,-0.28274092,-2.270693,0.007147643,1.3903925,0.617718,0.04,0.03999999,-9.320506,2.054129123687744,-2.307076,0.1621414,0.09158415347337723,0.18327744
1716.8499999987673,-0.22379045,-0.62267375,-0.2859301,-2.2697277,0.0072274837,1.3883579,0.61582166,0.04,0.039999988,-9.309639,2.0785305500030518,-2.3303437,0.16219385,0.09097807854413986,0.18394953
1716.866666665434,-0.22628987,-0.62086934,-0.28912225,-2.2687614,0.007307411,1.3863213,0.61392367,0.04,0.039999995,-9.298562,2.1030263900756836,-2.353246,0.16222365,0.09035587310791016,0.1846005
1716.8833333321006,-0.22879127,-0.6190635,-0.29231688,-2.2677946,0.0073874085,1.3842833,0.6120243,0.04,0.039999995,-9.287426,2.127431631088257,-2.376242,0.16223049,0.08971719443798065,0.18522407
1716.8999999987673,-0.23129442,-0.61725664,-0.2955137,-2.2668273,0.0074674706,1.382244,0.6101237,0.04,0.039999988,-9.276196,2.1518516540527344,-2.399332,0.16221432,0.08906450867652893,0.18582323
1716.916666665434,-0.23379894,-0.61544865,-0.29871237,-2.26586,0.0075475858,1.3802032,0.60822195,0.04,0.039999995,-9.264772,2.176334857940674,-2.4220393,0.16217558,0.0883966013789177,0.18640131
1716.9333333321006,-0.23630455,-0.6136399,-0.30191246,-2.2648923,0.0076277447,1.3781618,0.60631955,0.04,0.04,-9.25339,2.200775623321533,-2.4449885,0.16211438,0.0877094641327858,0.18695222
1716.9499999987672,-0.23881099,-0.6118306,-0.30511352,-2.263924,0.0077079376,1.3761199,0.60441643,0.04,0.04,-9.241722,2.2251994609832764,-2.4675827,0.16202992,0.08700911700725555,0.18747625
1716.9666666654339,-0.24131785,-0.61002105,-0.30831522,-2.2629552,0.007788156,1.3740774,0.602513,0.04,0.04,-9.229965,2.249654769897461,-2.4903634,0.16192405,0.08629743754863739,0.18797754
1716.9833333321005,-0.24382487,-0.6082114,-0.31151727,-2.2619867,0.007868391,1.3720349,0.6006095,0.04,0.04,-9.218042,2.274041175842285,-2.5127635,0.16179585,0.08557326346635818,0.18845291
1716.9999999987672,-0.24633175,-0.606402,-0.31471908,-2.2610183,0.007948632,1.3699925,0.5987061,0.04,0.04,-9.206157,2.298489809036255,-2.5353837,0.16164441,0.08483469486236572,0.18890399
1717.0166666654338,-0.2488382,-0.6045928,-0.3179203,-2.2600498,0.008028866,1.3679506,0.59680295,0.04,0.04,-9.194028,2.322808265686035,-2.5576231,0.16147108,0.08408471941947937,0.18932569
1717.0333333321005,-0.25134385,-0.6027842,-0.32112062,-2.2590814,0.0081090825,1.3659091,0.59490055,0.04,0.04,-9.181862,2.3471944332122803,-2.5800762,0.16127588,0.08332358300685883,0.18972349
1717.0499999987671,-0.25384855,-0.60097635,-0.32431954,-2.2581131,0.008189276,1.3638687,0.592999,0.04,0.04,-9.169522,2.371485710144043,-2.602126,0.16105793,0.08255061507225037,0.1900967
1717.0666666654338,-0.25635162,-0.59916955,-0.3275167,-2.2571454,0.008269433,1.3618296,0.5910984,0.04,0.039999995,-9.157167,2.395805597305298,-2.6243765,0.16081764,0.08176800608634949,0.19044136
1717.0833333321004,-0.25885317,-0.5973639,-0.3307118,-2.2561781,0.008349545,1.3597919,0.58919924,0.04,0.04,-9.144647,2.41995906829834,-2.646259,0.16055642,0.08097460865974426,0.1907571
1717.099999998767,-0.26135272,-0.59555984,-0.33390436,-2.2552116,0.008429604,1.3577558,0.5873017,0.04,0.039999995,-9.132068,2.444274425506592,-2.6682892,0.16027184,0.08017252385616302,0.19104771
1717.1166666654337,-0.26384994,-0.5937574,-0.3370941,-2.2542465,0.008509598,1.3557214,0.5854059,0.04,0.03999998,-9.119354,2.4683802127838135,-2.6899393,0.15996553,0.07936020195484161,0.19131279
1717.1333333321004,-0.26634464,-0.5919569,-0.34028056,-2.2532818,0.008589524,1.3536891,0.58351207,0.04,0.039999977,-9.106663,2.492487907409668,-2.7116444,0.15963674,0.07853459566831589,0.19154795
1717.149999998767,-0.26883638,-0.59015846,-0.3434633,-2.252319,0.00866936,1.3516593,0.58162045,0.04,0.03999996,-9.093769,2.5166478157043457,-2.733346,0.15928642,0.07770311832427979,0.1917548
1717.1666666654337,-0.27132496,-0.58836246,-0.3466419,-2.2513576,0.008749102,1.3496321,0.5797311,0.04,0.039999973,-9.08088,2.5405566692352295,-2.7547204,0.158914,0.07685959339141846,0.19193225
1717.1833333321003,-0.27380994,-0.58656895,-0.3498161,-2.250397,0.008828744,1.3476081,0.5778446,0.04,0.03999996,-9.067927,2.5646424293518066,-2.7762034,0.1585212,0.07600587606430054,0.19208474
1717.199999998767,-0.2762911,-0.5847783,-0.35298547,-2.2494378,0.008908273,1.3455869,0.575961,0.04,0.039999958,-9.054696,2.5884060859680176,-2.7973251,0.15810652,0.07514826208353043,0.19220546
1717.2166666654336,-0.2787682,-0.58299065,-0.35614955,-2.2484798,0.008987674,1.3435693,0.57408035,0.04,0.039999958,-9.041525,2.6123745441436768,-2.8185532,0.15767051,0.0742829218506813,0.19230063
1717.2333333321003,-0.2812409,-0.5812061,-0.359308,-2.2475243,0.009066943,1.3415554,0.5722034,0.04,0.03999996,-9.028192,2.6360061168670654,-2.839436,0.15721405,0.07341236621141434,0.19236498
1717.249999998767,-0.28370887,-0.57942504,-0.3624605,-2.2465706,0.009146077,1.3395452,0.5703301,0.04,0.039999954,-9.01499,2.6598613262176514,-2.8604615,0.15673424,0.07253067195415497,0.19240361
1717.2666666654336,-0.28617173,-0.5776477,-0.36560658,-2.2456188,0.009225051,1.3375392,0.56846064,0.04,0.039999958,-9.001542,2.6833279132843018,-2.8810844,0.15623392,0.07164280116558075,0.1924105
1717.2833333321003,-0.2886293,-0.5758742,-0.36874586,-2.244669,0.009303859,1.3355376,0.56659526,0.04,0.03999996,-8.988078,2.707002878189087,-2.9018269,0.15571284,0.07074926793575287,0.19238752
1717.299999998767,-0.29108122,-0.5741047,-0.37187797,-2.2437212,0.009382502,1.3335407,0.56473404,0.04,0.03999996,-8.974485,2.7303340435028076,-2.9222164,0.15517072,0.0698503851890564,0.19233705
1717.3166666654336,-0.29352722,-0.5723397,-0.37500268,-2.242776,0.009460963,1.3315485,0.56287736,0.04,0.039999958,-8.960892,2.7538580894470215,-2.9427016,0.15460885,0.06894789636135101,0.19225769
1717.3333333321002,-0.29596713,-0.5705792,-0.3781193,-2.2418334,0.0095392335,1.3295611,0.5610255,0.04,0.039999958,-8.9472065,2.777021884918213,-2.9628012,0.15402609,0.06803912669420242,0.19214927
1717.3499999987669,-0.29840043,-0.56882334,-0.3812277,-2.2408934,0.0096173035,1.3275795,0.5591785,0.04,0.039999958,-8.933581,2.8003673553466797,-2.9830198,0.1534224,0.06712254881858826,0.19200818
1717.3666666654335,-0.30082685,-0.5670724,-0.3843274,-2.2399557,0.009695167,1.3256031,0.5573367,0.04,0.039999954,-8.919719,2.823320150375366,-3.0028903,0.15279931,0.06620441377162933,0.19184096
1717.3833333321002,-0.30324626,-0.5653266,-0.38741806,-2.239021,0.009772809,1.3236328,0.55550045,0.04,0.039999958,-8.905864,2.846308708190918,-3.0227003,0.15215698,0.0652821734547615,0.19164327
1717.3999999987668,-0.30565825,-0.5635862,-0.39049935,-2.238089,0.009850217,1.3216685,0.55366975,0.04,0.039999954,-8.892077,2.8694303035736084,-3.042506,0.15149312,0.06435514241456985,0.19141467
1717.4166666654335,-0.3080626,-0.5618514,-0.39357072,-2.2371597,0.00992739,1.3197105,0.5518451,0.04,0.039999966,-8.878064,2.892040252685547,-3.0619318,0.15081054,0.0634269118309021,0.19115672
1717.4333333321001,-0.31045902,-0.5601224,-0.39663208,-2.2362335,0.010004316,1.3177592,0.5500263,0.04,0.03999996,-8.864071,2.9149177074432373,-3.081401,0.15010762,0.06249859184026718,0.19086762
1717.4499999987668,-0.31284708,-0.5583992,-0.3996829,-2.2353113,0.010080985,1.3158145,0.5482139,0.04,0.03999996,-8.850037,2.9373414516448975,-3.1005597,0.14938585,0.06156831607222557,0.19055024
1717.4666666654334,-0.3152266,-0.5566822,-0.4027228,-2.2343917,0.01015739,1.3138767,0.54640806,0.04,0.03999995,-8.836118,2.960047483444214,-3.1197813,0.14864454,0.06063187122344971,0.1902022
1717.4833333321,-0.3175973,-0.5549718,-0.4057515,-2.2334754,0.010233519,1.3119463,0.5446089,0.04,0.039999958,-8.821929,2.982182741165161,-3.1386292,0.14788452,0.059696558862924576,0.18982494
1717.4999999987667,-0.31995896,-0.55326784,-0.4087686,-2.2325633,0.010309361,1.3100233,0.5428166,0.04,0.03999995,-8.807836,3.0046780109405518,-3.1575046,0.14710593,0.05876060947775841,0.18941963
1717.5166666654334,-0.3223111,-0.55157083,-0.41177365,-2.2316535,0.0103849135,1.308108,0.54103154,0.04,0.039999932,-8.7937155,3.0265629291534424,-3.1760845,0.14630884,0.05782255902886391,0.18898074
1717.5333333321,-0.32465363,-0.5498809,-0.4147664,-2.2307487,0.010460163,1.3062006,0.5392539,0.04,0.03999992,-8.779452,3.0488038063049316,-3.194631,0.14549385,0.05688924342393875,0.18851602
1717.5499999987667,-0.3269862,-0.54819787,-0.4177466,-2.229847,0.010535099,1.3043013,0.5374839,0.04,0.039999917,-8.765364,3.0704312324523926,-3.2129016,0.14466015,0.05595188960433006,0.18801649
1717.5666666654333,-0.32930857,-0.5465223,-0.42071372,-2.2289495,0.010609713,1.3024101,0.53572154,0.04,0.039999917,-8.751116,3.0924742221832275,-3.231164,0.14380765,0.05501604452729225,0.18749075
1717.5833333321,-0.33162042,-0.5448543,-0.42366746,-2.228057,0.010683995,1.3005276,0.5339672,0.04,0.039999906,-8.736905,3.1138269901275635,-3.2491136,0.14293793,0.05407989025115967,0.1869333
1717.5999999987666,-0.33392143,-0.543194,-0.4266075,-2.2271671,0.01075794,1.2986541,0.53222114,0.04,0.039999906,-8.722813,3.1355769634246826,-3.2670965,0.14205079,0.053140535950660706,0.18634497
1717.6166666654333,-0.33621147,-0.54154223,-0.42953333,-2.2262826,0.010831543,1.2967896,0.5304835,0.04,0.039999906,-8.708371,3.156668186187744,-3.28472,0.14114647,0.052209604531526566,0.18573114
1717.6333333321,-0.33849022,-0.5398985,-0.43244487,-2.2254019,0.010904789,1.2949345,0.5287545,0.04,0.03999991,-8.694197,3.1778552532196045,-3.302251,0.14022581,0.05127975344657898,0.18508434
1717.6499999987666,-0.34075743,-0.5382629,-0.4353416,-2.2245266,0.010977669,1.2930887,0.5270342,0.04,0.039999917,-8.679937,3.1992404460906982,-3.31969,0.13928753,0.05035315454006195,0.18441094
1717.6666666654332,-0.34301284,-0.5366362,-0.4382233,-2.2236552,0.011050177,1.2912526,0.52532285,0.04,0.039999913,-8.6658125,3.2198877334594727,-3.3369193,0.13833217,0.04942260682582855,0.18370613
1717.6833333321,-0.34525606,-0.535018,-0.4410896,-2.222788,0.011122301,1.2894264,0.52362067,0.04,0.039999906,-8.651463,3.240952730178833,-3.3539915,0.1373618,0.048501405864953995,0.18297273
1717.6999999987665,-0.34748697,-0.53340876,-0.44394022,-2.2219265,0.011194035,1.2876102,0.5219278,0.04,0.03999991,-8.6372,3.261284589767456,-3.3708498,0.1363755,0.04758279398083687,0.1822096
1717.7166666654332,-0.34970528,-0.53180873,-0.4467747,-2.2210693,0.011265372,1.2858044,0.52024466,0.04,0.039999913,-8.623065,3.2820987701416016,-3.3876534,0.13537292,0.04666490480303764,0.18141745
1717.7333333320998,-0.3519107,-0.530218,-0.44959277,-2.220217,0.011336301,1.2840089,0.51857144,0.04,0.03999991,-8.608763,3.302096366882324,-3.4041655,0.13435496,0.04575436934828758,0.18059532
1717.7499999987665,-0.35410318,-0.5286367,-0.45239407,-2.2193706,0.0114068175,1.2822243,0.5169081,0.04,0.039999906,-8.594611,3.322597026824951,-3.4206133,0.13332078,0.04484623670578003,0.17974591
1717.7666666654331,-0.35628226,-0.527065,-0.45517835,-2.218529,0.01147691,1.2804505,0.51525503,0.04,0.039999872,-8.580524,3.3423218727111816,-3.436845,0.13227117,0.043939460068941116,0.17886706
1717.7833333320998,-0.3584477,-0.5255033,-0.45794544,-2.2176921,0.011546567,1.2786878,0.51361233,0.04,0.039999865,-8.566346,3.3624861240386963,-3.4529505,0.13120651,0.043038394302129745,0.17795962
1717.7999999987665,-0.36059937,-0.52395165,-0.46069497,-2.2168612,0.011615791,1.2769363,0.51198,0.04,0.039999858,-8.552132,3.3818917274475098,-3.468812,0.13012713,0.042145609855651855,0.1770268
1717.816666665433,-0.3627369,-0.5224101,-0.46342638,-2.2160358,0.0116845695,1.2751962,0.5103585,0.04,0.039999858,-8.538114,3.4017581939697266,-3.4845688,0.12903371,0.04125630110502243,0.17606145
1717.8333333320998,-0.36486015,-0.5208789,-0.46613953,-2.2152152,0.011752893,1.2734681,0.50874794,0.04,0.039999858,-8.52407,3.4207816123962402,-3.500144,0.12792599,0.04036998376250267,0.17506996
1717.8499999987664,-0.3669688,-0.5193582,-0.46883422,-2.2144005,0.011820754,1.2717516,0.5071484,0.04,0.03999986,-8.509961,3.4403343200683594,-3.515556,0.12680453,0.03949476405978203,0.17405276
1717.866666665433,-0.36906275,-0.51784813,-0.47151002,-2.2135916,0.011888146,1.2700471,0.5055601,0.04,0.03999986,-8.496012,3.4590492248535156,-3.530777,0.12566918,0.03862272575497627,0.17300823
1717.8833333320997,-0.37114158,-0.516349,-0.47416675,-2.2127888,0.011955059,1.268355,0.50398326,0.04,0.03999985,-8.482107,3.4778902530670166,-3.5458603,0.12452036,0.037755344063043594,0.17193307
1717.8999999987664,-0.37320516,-0.5148611,-0.47680396,-2.2119918,0.012021486,1.2666755,0.50241804,0.04,0.03999986,-8.468226,3.4969727993011475,-3.560771,0.123358645,0.03689507767558098,0.17083508
1717.916666665433,-0.37525338,-0.5133842,-0.47942147,-2.2112007,0.012087422,1.2650083,0.50086445,0.04,0.03999986,-8.454333,3.5151026248931885,-3.5754895,0.12218494,0.03604341298341751,0.16970915
1717.9333333320997,-0.37728587,-0.51191854,-0.48201898,-2.2104156,0.012152864,1.2633541,0.49932286,0.04,0.03999986,-8.440578,3.5338058471679688,-3.5900652,0.120998554,0.03519730642437935,0.16855384
1717.9499999987663,-0.37930256,-0.51046455,-0.48459622,-2.2096364,0.012217801,1.2617126,0.4977933,0.04,0.03999986,-8.426814,3.551618814468384,-3.6044655,0.119799644,0.03435801342129707,0.16737469
1717.966666665433,-0.38130307,-0.5090221,-0.487153,-2.2088637,0.0122822225,1.2600844,0.49627584,0.04,0.039999835,-8.41311,3.5700082778930664,-3.6186614,0.11858903,0.03352756425738335,0.16617261
1717.9833333320996,-0.3832873,-0.50759125,-0.4896889,-2.2080977,0.012346126,1.2584695,0.49477094,0.04,0.039999817,-8.399517,3.587416172027588,-3.632743,0.11736745,0.03270364925265312,0.1649406
1717.9999999987663,-0.38525507,-0.5061725,-0.4922037,-2.2073383,0.012409499,1.256868,0.4932785,0.04,0.039999813,-8.386005,3.605448007583618,-3.6466436,0.11613317,0.0318850502371788,0.16368441
1718.016666665433,-0.38720617,-0.50476587,-0.49469724,-2.206585,0.012472337,1.2552805,0.4917988,0.04,0.03999981,-8.372551,3.622502088546753,-3.6603878,0.11488879,0.03107307478785515,0.16240276
1718.0333333320996,-0.3891403,-0.5033715,-0.4971692,-2.205838,0.012534639,1.2537068,0.4903319,0.04,0.03999981,-8.359041,3.6401495933532715,-3.673888,0.11363348,0.030274540185928345,0.16109614
1718.0499999987662,-0.39105734,-0.5019894,-0.4996194,-2.2050972,0.012596393,1.2521467,0.488878,0.04,0.03999981,-8.345678,3.656845808029175,-3.6872904,0.11236793,0.02948414906859398,0.15976661
1718.0666666654329,-0.3929571,-0.5006199,-0.5020476,-2.2043633,0.0126575995,1.2506007,0.48743728,0.04,0.039999805,-8.33239,3.674147605895996,-3.7004519,0.111092135,0.02870136871933937,0.15841563
1718.0833333320995,-0.3948394,-0.4992629,-0.5044534,-2.203636,0.012718241,1.2490698,0.48600984,0.04,0.039999813,-8.319203,3.690448522567749,-3.713525,0.10980609,0.027926849201321602,0.15703869
1718.0999999987662,-0.3967039,-0.49791875,-0.5068367,-2.2029157,0.012778321,1.2475516,0.48459584,0.04,0.039999813,-8.306015,3.707336187362671,-3.7263677,0.10851049,0.027167782187461853,0.15563747
1718.1166666654328,-0.39855066,-0.49658749,-0.50919735,-2.2022028,0.012837833,1.2460486,0.4831954,0.04,0.03999981,-8.29309,3.7232651710510254,-3.739089,0.10720599,0.02640627510845661,0.15421367
1718.1333333320995,-0.40037942,-0.4952692,-0.51153487,-2.2014968,0.012896769,1.2445606,0.48180857,0.04,0.039999817,-8.280155,3.739441394805908,-3.7516415,0.105891615,0.025655191391706467,0.1527693
1718.1499999987661,-0.40218988,-0.4939642,-0.5138494,-2.2007983,0.012955122,1.2430879,0.4804357,0.04,0.03999981,-8.267282,3.755753993988037,-3.7639873,0.1045695,0.024915846064686775,0.15129954
1718.1666666654328,-0.403982,-0.4926723,-0.51614034,-2.2001064,0.013012888,1.24163,0.47907668,0.04,0.039999787,-8.25455,3.77113676071167,-3.7762465,0.103238374,0.024185258895158768,0.1498116
1718.1833333320994,-0.40575576,-0.49139374,-0.51840764,-2.199422,0.013070061,1.2401869,0.4777317,0.04,0.039999776,-8.241821,3.7870798110961914,-3.7882266,0.10189938,0.023465553298592567,0.14830096
1718.199999998766,-0.4075107,-0.49012876,-0.5206511,-2.198745,0.013126635,1.238759,0.476401,0.04,0.03999977,-8.2293005,3.8020129203796387,-3.8001606,0.10055227,0.02275221236050129,0.14676617
1718.2166666654327,-0.40924683,-0.48887733,-0.5228705,-2.198075,0.013182606,1.2373464,0.4750846,0.04,0.03999976,-8.216846,3.81762957572937,-3.8118117,0.09919807,0.0220467671751976,0.14521563
1718.2333333320994,-0.41096398,-0.48763967,-0.5250658,-2.1974118,0.013237969,1.2359492,0.4737826,0.04,0.03999976,-8.204411,3.832148313522339,-3.8233984,0.0978366,0.02135205827653408,0.1436439
1718.249999998766,-0.4126619,-0.4864158,-0.5272364,-2.1967561,0.01329272,1.2345678,0.47249526,0.04,0.039999764,-8.192074,3.847353458404541,-3.8346913,0.096468195,0.020669933408498764,0.14205216
1718.2666666654327,-0.41434062,-0.48520598,-0.5293826,-2.196108,0.0133468555,1.2332021,0.47122243,0.04,0.039999764,-8.179925,3.8614466190338135,-3.8459938,0.09509371,0.019997527822852135,0.14043985
1718.2833333320993,-0.4159999,-0.48401007,-0.53150386,-2.195468,0.013400368,1.2318524,0.46996433,0.04,0.039999776,-8.167871,3.87632155418396,-3.856948,0.09371316,0.019334109500050545,0.13881359
1718.299999998766,-0.41763973,-0.4828283,-0.53360033,-2.1948352,0.013453255,1.2305187,0.46872106,0.04,0.039999764,-8.155966,3.8900392055511475,-3.867935,0.09232691,0.018679047003388405,0.13716705
1718.3166666654326,-0.4192598,-0.48166072,-0.53567183,-2.19421,0.013505512,1.2292006,0.46749276,0.04,0.039999772,-8.144113,3.9044439792633057,-3.8785708,0.0909344,0.018035737797617912,0.13549863
1718.3333333320993,-0.42086,-0.4805074,-0.5377181,-2.1935925,0.013557136,1.2278991,0.46627954,0.04,0.03999977,-8.132377,3.917813777923584,-3.8891885,0.08953649,0.017400162294507027,0.13381565
1718.349999998766,-0.42244038,-0.47936848,-0.53973883,-2.1929827,0.013608116,1.2266136,0.46508142,0.04,0.039999764,-8.120764,3.931868076324463,-3.8995216,0.08813348,0.016775907948613167,0.13212006
1718.3666666654326,-0.42400068,-0.478244,-0.54173404,-2.1923802,0.013658452,1.2253441,0.46389854,0.04,0.039999757,-8.109259,3.9447572231292725,-3.9098356,0.08672608,0.016161995008587837,0.13040486
1718.3833333320993,-0.42554086,-0.47713417,-0.54370326,-2.1917856,0.013708142,1.2240914,0.46273088,0.04,0.03999973,-8.09788,3.957923412322998,-3.9198923,0.08531427,0.015557321719825268,0.12867285
1718.399999998766,-0.42706087,-0.47603884,-0.5456466,-2.1911986,0.013757182,1.2228549,0.46157873,0.04,0.03999973,-8.086614,3.9713218212127686,-3.9297342,0.08389982,0.014964920468628407,0.12692817
1718.4166666654326,-0.4285604,-0.47495818,-0.54756415,-2.1906192,0.013805568,1.2216351,0.46044177,0.04,0.039999727,-8.075485,3.9836273193359375,-3.9395754,0.0824803,0.014381330460309982,0.1251649
1718.4333333320992,-0.43003953,-0.47389233,-0.54945576,-2.190048,0.0138533,1.220432,0.45932043,0.04,0.039999727,-8.06445,3.996675491333008,-3.9490714,0.081059024,0.013809380121529102,0.12339186
1718.4499999987659,-0.4314982,-0.47284138,-0.55132097,-2.1894844,0.013900371,1.2192456,0.45821482,0.04,0.039999727,-8.05363,4.0086236000061035,-3.9586062,0.07963356,0.013246612623333931,0.12160347
1718.4666666654325,-0.4329362,-0.47180527,-0.5531599,-2.1889288,0.013946782,1.2180759,0.45712486,0.04,0.039999735,-8.042852,4.021215915679932,-3.9677725,0.07820526,0.012694893404841423,0.119803384
1718.4833333320992,-0.4343535,-0.47078413,-0.5549724,-2.1883812,0.0139925275,1.2169231,0.4560506,0.04,0.039999735,-8.032246,4.032744407653809,-3.977002,0.07677466,0.012152420356869698,0.11799426
1718.4999999987658,-0.43575004,-0.46977797,-0.55675834,-2.187842,0.014037604,1.2157872,0.45499203,0.04,0.039999735,-8.021775,4.04493522644043,-3.985875,0.075342156,0.011620492674410343,0.11616967
1718.5166666654325,-0.43712577,-0.4687869,-0.55851775,-2.1873102,0.01408201,1.2146684,0.45394936,0.04,0.039999735,-8.011468,4.056014060974121,-3.9948077,0.0739086,0.011097836308181286,0.11433051
1718.5333333320991,-0.4384805,-0.4678108,-0.56025046,-2.1867874,0.014125748,1.2135668,0.45292243,0.04,0.039999735,-8.001225,4.067890644073486,-4.003348,0.07247276,0.010586471296846867,0.11248799
1718.5499999987658,-0.43981424,-0.46684986,-0.56195635,-2.1862729,0.014168805,1.2124821,0.4519115,0.04,0.039999742,-7.991265,4.0785603523254395,-4.012014,0.07103667,0.01008153147995472,0.11063049
1718.5666666654324,-0.44112706,-0.46590406,-0.56363547,-2.1857665,0.01421119,1.2114147,0.45091653,0.04,0.03999974,-7.981332,4.0899658203125,-4.0202622,0.06959981,0.009585879743099213,0.1087642
1718.583333332099,-0.4424188,-0.46497348,-0.56528777,-2.1852677,0.014252898,1.2103645,0.4499375,0.04,0.03999974,-7.9715853,4.100250720977783,-4.028605,0.06816202,0.009100161492824554,0.10688375
1718.5999999987657,-0.44368935,-0.4640582,-0.5669132,-2.184777,0.014293927,1.2093312,0.44897455,0.04,0.039999735,-7.961869,4.111306190490723,-4.0365224,0.06672437,0.0086253946647048,0.105003186
1718.6166666654324,-0.44493875,-0.46315804,-0.56851137,-2.1842945,0.014334273,1.2083154,0.44802773,0.04,0.039999712,-7.9523773,4.121176719665527,-4.0445547,0.06528702,0.008159952238202095,0.10311125
1718.633333332099,-0.4461669,-0.46227327,-0.57008266,-2.1838202,0.014373935,1.2073164,0.4470969,0.04,0.039999712,-7.943006,4.131285667419434,-4.0523562,0.06385033,0.007705779746174812,0.10121224
1718.6499999987657,-0.44737387,-0.46140376,-0.5716267,-2.1833541,0.014412916,1.206335,0.4461822,0.04,0.039999712,-7.933807,4.141692161560059,-4.0598297,0.062415395,0.007258247118443251,0.09930658
1718.6666666654323,-0.44855955,-0.4605496,-0.5731438,-2.1828961,0.014451216,1.2053709,0.4452835,0.04,0.03999971,-7.9247665,4.1509857177734375,-4.067453,0.060981512,0.00682055251672864,0.09739556
1718.683333332099,-0.44972396,-0.45971072,-0.5746336,-2.1824467,0.014488837,1.2044235,0.4444009,0.04,0.039999705,-7.9158072,4.160983085632324,-4.074653,0.05955011,0.006393787916749716,0.09548036
1718.6999999987656,-0.45086733,-0.4588872,-0.57609624,-2.1820056,0.014525769,1.203494,0.4435345,0.04,0.03999971,-7.9071,4.169853687286377,-4.0819807,0.058121227,0.005971691571176052,0.0935592
1718.7166666654323,-0.4519892,-0.45807904,-0.5775318,-2.181573,0.014562017,1.2025816,0.44268414,0.04,0.039999705,-7.898516,4.179449558258057,-4.088912,0.056693837,0.005558897275477648,0.091630444
1718.733333332099,-0.45308983,-0.45728612,-0.5789403,-2.1811485,0.014597581,1.2016863,0.44185004,0.04,0.03999971,-7.890045,4.18795919418335,-4.0959654,0.055270296,0.005155556369572878,0.08970223
1718.7499999987656,-0.4541693,-0.45650855,-0.5803216,-2.180732,0.0146324625,1.2008086,0.44103202,0.04,0.039999716,-7.8817167,4.1971611976623535,-4.1025968,0.05384898,0.004758247174322605,0.08777104
1718.7666666654322,-0.45522755,-0.45574626,-0.5816759,-2.1803238,0.014666659,1.1999481,0.44023007,0.04,0.039999727,-7.8735332,4.205294132232666,-4.109372,0.05243135,0.004372951574623585,0.08584225
1718.783333332099,-0.4562645,-0.4549992,-0.5830028,-2.1799233,0.0147001725,1.1991047,0.4394442,0.04,0.039999723,-7.8655214,4.214077472686768,-4.115726,0.051017493,0.003994448110461235,0.08390807
1718.7999999987655,-0.45728028,-0.4542674,-0.584303,-2.179531,0.0147330025,1.1982788,0.4386744,0.04,0.03999973,-7.857609,4.221728324890137,-4.122226,0.049608923,0.0036260609049350023,0.081974916
1718.8166666654322,-0.45827487,-0.4535509,-0.58557624,-2.179147,0.014765153,1.19747,0.43792057,0.04,0.039999735,-7.849906,4.230194091796875,-4.1283116,0.04820404,0.0032666362822055817,0.080041274
1718.8333333320988,-0.45924845,-0.45284963,-0.58682233,-2.178771,0.014796624,1.196678,0.43718278,0.04,0.03999974,-7.8423653,4.2375006675720215,-4.134541,0.046804585,0.0029146892484277487,0.07810753
1718.8499999987655,-0.46020103,-0.45216355,-0.58804166,-2.1784031,0.014827414,1.1959033,0.436461,0.04,0.03999973,-7.834924,4.2454938888549805,-4.1403394,0.045410674,0.0025700449477881193,0.07617644
1718.8666666654321,-0.46113247,-0.45149267,-0.5892341,-2.1780436,0.01485753,1.195146,0.43575513,0.04,0.039999735,-7.8276806,4.252409934997559,-4.146307,0.044021796,0.0022351769730448723,0.07424212
1718.8833333320988,-0.462043,-0.45083684,-0.59039974,-2.177692,0.0148869725,1.194406,0.43506515,0.04,0.039999742,-7.8206077,4.259663105010986,-4.1520176,0.042639762,0.0019067872781306505,0.07232046
1718.8999999987655,-0.46293268,-0.45019597,-0.5915387,-2.1773486,0.014915743,1.1936824,0.43439096,0.04,0.039999746,-7.8136086,4.26704740524292,-4.1574407,0.041264437,0.0015894112875685096,0.070398934
1718.916666665432,-0.46380153,-0.44957015,-0.59265125,-2.1770132,0.01494384,1.1929759,0.4337325,0.04,0.039999742,-7.8068986,4.273379802703857,-4.1630263,0.039895736,0.0012749091256409883,0.06847586
1718.9333333320988,-0.4646495,-0.44895917,-0.5937371,-2.176686,0.014971276,1.1922863,0.43308976,0.04,0.039999753,-7.800209,4.280470371246338,-4.168176,0.038534388,0.0009696903871372342,0.06656225
1718.9499999987654,-0.4654769,-0.44836316,-0.5947967,-2.1763668,0.014998044,1.1916133,0.43246266,0.04,0.039999753,-7.7938004,4.286477565765381,-4.1735487,0.03718145,0.0006677382625639439,0.06465954
1718.966666665432,-0.46628383,-0.44778198,-0.59583026,-2.1760554,0.015024146,1.1909572,0.43185115,0.04,0.039999746,-7.787424,4.293114185333252,-4.178449,0.035836384,0.0003748525050468743,0.06275834
1718.9833333320987,-0.46707025,-0.44721538,-0.59683764,-2.175752,0.015049591,1.1903177,0.43125507,0.04,0.039999727,-7.781226,4.298748016357422,-4.183512,0.034499157,9.163842332782224e-05,0.06086309
1718.9999999987654,-0.46783632,-0.4466635,-0.597819,-2.175456,0.015074377,1.1896948,0.4306744,0.04,0.039999727,-7.7752056,4.305046558380127,-4.188206,0.03317104,-0.00018651870777830482,0.058977675
1719.016666665432,-0.46858227,-0.4461262,-0.5987746,-2.1751678,0.015098513,1.1890882,0.43010902,0.04,0.03999973,-7.769338,4.310283184051514,-4.193048,0.03185266,-0.0004579527594614774,0.057101287
1719.0333333320987,-0.4693081,-0.44560343,-0.59970427,-2.1748874,0.015122,1.1884981,0.42955896,0.04,0.03999974,-7.763552,4.316218376159668,-4.197454,0.030543407,-0.0007202026899904013,0.05523382
1719.0499999987653,-0.47001398,-0.44509503,-0.60060865,-2.174615,0.015144842,1.1879241,0.42902395,0.04,0.03999974,-7.7580047,4.321073055267334,-4.2020717,0.029244699,-0.0009760966058820486,0.053378
1719.066666665432,-0.47069985,-0.4446008,-0.60148776,-2.1743503,0.015167047,1.1873666,0.42850405,0.04,0.039999746,-7.752605,4.326654434204102,-4.2062664,0.02795615,-0.0012275639455765486,0.051531423
1719.0833333320986,-0.47136593,-0.44412082,-0.6023415,-2.1740932,0.015188618,1.1868248,0.4279991,0.04,0.039999742,-7.7473774,4.331198215484619,-4.210677,0.026678437,-0.0014732552226632833,0.049697496
1719.0999999987653,-0.4720126,-0.44365498,-0.6031702,-2.1738436,0.015209557,1.1862987,0.42750895,0.04,0.039999746,-7.7422404,4.3363423347473145,-4.2146506,0.025412813,-0.0017137976828962564,0.047876365
1719.116666665432,-0.47263977,-0.44320303,-0.60397434,-2.1736014,0.015229872,1.1857886,0.42703348,0.04,0.039999746,-7.737273,4.340545177459717,-4.2187805,0.024158658,-0.0019479560432955623,0.046068933
1719.1333333320986,-0.47324774,-0.44276497,-0.604754,-2.1733665,0.015249567,1.1852943,0.4265725,0.04,0.039999746,-7.732438,4.344966411590576,-4.222685,0.02291686,-0.002175531815737486,0.044275098
1719.1499999987652,-0.47383663,-0.44234064,-0.60550904,-2.173139,0.015268645,1.184815,0.426126,0.04,0.039999753,-7.727725,4.349634170532227,-4.2263155,0.02168739,-0.002396089257672429,0.042496834
1719.1666666654319,-0.4744067,-0.4419298,-0.6062401,-2.1729188,0.015287116,1.1843514,0.4256938,0.04,0.039999764,-7.7232227,4.3532819747924805,-4.2301435,0.020471653,-0.0026133933570235968,0.040734414
1719.1833333320985,-0.47495812,-0.44153246,-0.6069472,-2.172706,0.015304984,1.1839029,0.42527574,0.04,0.03999977,-7.7188134,4.35759162902832,-4.2335887,0.019268617,-0.0028239728417247534,0.038988166
1719.1999999987652,-0.47549102,-0.4411485,-0.6076309,-2.1725,0.015322255,1.1834693,0.4248717,0.04,0.039999783,-7.714587,4.360943794250488,-4.2371817,0.018079635,-0.003029684768989682,0.037259437
1719.2166666654318,-0.47600558,-0.44077772,-0.6082912,-2.1723008,0.015338938,1.1830506,0.42448148,0.04,0.039999783,-7.710461,4.36490535736084,-4.240398,0.016904632,-0.0032295454293489456,0.035548475
1719.2333333320985,-0.47650212,-0.44041985,-0.60892826,-2.1721091,0.015355036,1.1826465,0.42410502,0.04,0.039999783,-7.7064753,4.367922782897949,-4.2437944,0.015744912,-0.003422684967517853,0.03385707
1719.2499999987651,-0.47698075,-0.44007486,-0.60954267,-2.1719244,0.015370557,1.1822568,0.423742,0.04,0.039999783,-7.7027144,4.371523857116699,-4.2468495,0.014599904,-0.003614867338910699,0.032184567
1719.2666666654318,-0.47744176,-0.4397425,-0.61013454,-2.1717458,0.015385513,1.1818818,0.42339227,0.04,0.03999979,-7.699023,4.374243259429932,-4.2500477,0.013470883,-0.0038007618859410286,0.030531771
1719.2833333320984,-0.47788545,-0.43942267,-0.6107041,-2.171574,0.015399908,1.1815205,0.42305562,0.04,0.039999787,-7.6954017,4.3775224685668945,-4.2528763,0.012358115,-0.003979152999818325,0.028902113
1719.299999998765,-0.4783119,-0.43911517,-0.61125195,-2.171409,0.015413747,1.1811733,0.42273214,0.04,0.039999787,-7.6920443,4.379922866821289,-4.2558875,0.011262018,-0.004155854694545269,0.02729343
1719.3166666654317,-0.47872135,-0.43881983,-0.61177814,-2.17125,0.015427042,1.1808399,0.4224214,0.04,0.039999798,-7.688709,4.3828864097595215,-4.2585316,0.010181989,-0.004325294401496649,0.025707567
1719.3333333320984,-0.4791142,-0.43853652,-0.612283,-2.171098,0.0154398,1.1805199,0.42212322,0.04,0.039999798,-7.685569,4.384969711303711,-4.261361,0.009120328,-0.0044901249930262566,0.02414658
1719.349999998765,-0.47949064,-0.4382649,-0.61276686,-2.1709526,0.015452027,1.1802135,0.4218375,0.04,0.0399998,-7.682545,4.387603759765625,-4.2638373,0.0080769,-0.004651347640901804,0.022609966
1719.3666666654317,-0.479851,-0.43800497,-0.6132303,-2.1708136,0.015463736,1.1799198,0.42156398,0.04,0.03999981,-7.6797266,4.389419078826904,-4.266514,0.0070513817,-0.004810116719454527,0.021097623
1719.3833333320983,-0.48019555,-0.4377564,-0.6136734,-2.1706798,0.015474933,1.1796391,0.4213024,0.04,0.039999813,-7.67696,4.391427040100098,-4.2689357,0.006044677,-0.004964947700500488,0.019611424
1719.399999998765,-0.48052454,-0.43751898,-0.6140967,-2.170552,0.015485632,1.1793711,0.42105255,0.04,0.03999982,-7.6742215,4.393587589263916,-4.2711425,0.0050577982,-0.0051126787438988686,0.018153643
1719.4166666654316,-0.4808383,-0.43729252,-0.6145006,-2.1704307,0.015495836,1.1791155,0.42081425,0.04,0.039999824,-7.671708,4.394974708557129,-4.2735233,0.004090956,-0.005255646537989378,0.01672406
1719.4333333320983,-0.48113704,-0.4370768,-0.61488545,-2.1703155,0.01550556,1.178872,0.4205872,0.04,0.03999983,-7.6693296,4.396865367889404,-4.275611,0.0031438395,-0.005395425017923117,0.015321892
1719.449999998765,-0.48142123,-0.4368716,-0.61525154,-2.1702054,0.015514814,1.1786404,0.4203713,0.04,0.03999984,-7.6671286,4.3979926109313965,-4.277851,0.002218163,-0.005534767638891935,0.013948439
1719.4666666654316,-0.481691,-0.43667668,-0.61559945,-2.1701005,0.015523608,1.1784204,0.4201661,0.04,0.039999843,-7.6648617,4.39955997467041,-4.279757,0.0013136277,-0.005666936747729778,0.012607257
1719.4833333320983,-0.48194692,-0.4364918,-0.61592937,-2.1700013,0.015531946,1.1782117,0.41997156,0.04,0.03999985,-7.662789,4.400420188903809,-4.2818274,0.0004317037,-0.005793397314846516,0.011297736
1719.499999998765,-0.4821892,-0.4363167,-0.61624193,-2.1699078,0.015539851,1.178014,0.4197872,0.04,0.039999846,-7.660858,4.40171480178833,-4.283609,-0.00042816947,-0.00591829651966691,0.01002002
1719.5166666654316,-0.48241818,-0.43615103,-0.6165377,-2.1698184,0.015547326,1.1778268,0.4196129,0.04,0.039999854,-7.659064,4.402342319488525,-4.2855506,-0.0012647877,-0.006040271837264299,0.008774045
1719.5333333320982,-0.4826343,-0.43599477,-0.61681694,-2.1697342,0.015554383,1.1776502,0.41944838,0.04,0.039999858,-7.6572065,4.40337610244751,-4.2871604,-0.0020785986,-0.006155815441161394,0.00756316
1719.5499999987649,-0.4828378,-0.4358476,-0.61708003,-2.1696556,0.015561038,1.1774839,0.41929325,0.04,0.039999865,-7.6556087,4.403757095336914,-4.288946,-0.0028681213,-0.006267540622502565,0.006386834
1719.5666666654315,-0.4830292,-0.4357091,-0.61732763,-2.169581,0.015567302,1.1773273,0.41914737,0.04,0.03999987,-7.6541348,4.404520511627197,-4.2905083,-0.0036320025,-0.006377881392836571,0.005245783
1719.5833333320982,-0.4832088,-0.43557885,-0.61756027,-2.169511,0.015573185,1.1771803,0.4190104,0.04,0.039999872,-7.6526,4.404677391052246,-4.2921333,-0.0043716594,-0.006481535732746124,0.004141996
1719.5999999987648,-0.48337695,-0.43545696,-0.6177783,-2.1694455,0.015578701,1.1770422,0.41888204,0.04,0.03999988,-7.651286,4.405219554901123,-4.2935705,-0.005086428,-0.006583765614777803,0.0030746765
1719.6166666654315,-0.48353413,-0.43534294,-0.61798227,-2.1693842,0.015583862,1.1769139,0.418762,0.04,0.039999884,-7.6500044,4.405139923095703,-4.295092,-0.005774436,-0.006681364960968494,0.0020459846
1719.6333333320981,-0.48368075,-0.43523642,-0.6181728,-2.169327,0.015588681,1.1767936,0.41864982,0.04,0.039999887,-7.64885,4.405214309692383,-4.2965174,-0.0064356877,-0.00677334563806653,0.0010573714
1719.6499999987648,-0.48381725,-0.43513715,-0.61835074,-2.1692736,0.015593174,1.1766813,0.41854528,0.04,0.03999989,-7.6477113,4.405379772186279,-4.297754,-0.0070694615,-0.006861893460154533,0.00010829284
1719.6666666654314,-0.48394397,-0.4350448,-0.61851585,-2.169224,0.015597356,1.176577,0.41844812,0.04,0.039999887,-7.6467447,4.4050774574279785,-4.2991223,-0.0076765586,-0.006948665250092745,-0.0008016086
1719.683333332098,-0.48406148,-0.4349591,-0.6186692,-2.1691778,0.015601239,1.1764802,0.41835794,0.04,0.039999887,-7.645765,4.404973030090332,-4.3003206,-0.008254413,-0.007029932923614979,-0.0016677976
1719.6999999987647,-0.4841701,-0.4348798,-0.61881125,-2.1691353,0.015604838,1.1763905,0.41827443,0.04,0.03999989,-7.644906,4.404456615447998,-4.301585,-0.008803497,-0.007107457146048546,-0.002492108
1719.7166666654314,-0.48427054,-0.43480653,-0.6189429,-2.1690958,0.015608167,1.1763078,0.41819724,0.04,0.03999989,-7.644136,4.40418815612793,-4.302704,-0.009323018,-0.007181805558502674,-0.003272832
1719.733333332098,-0.484363,-0.43473887,-0.6190645,-2.1690593,0.015611243,1.1762314,0.41812596,0.04,0.039999895,-7.643368,4.403537750244141,-4.303861,-0.009813655,-0.007249768823385239,-0.004009336
1719.7499999987647,-0.48444802,-0.4346764,-0.61917675,-2.1690264,0.015614081,1.1761607,0.4180602,0.04,0.0399999,-7.642726,4.403069496154785,-4.3049073,-0.010273276,-0.007314370013773441,-0.004701278
1719.7666666654313,-0.48452613,-0.43461898,-0.6192799,-2.1689951,0.0156166935,1.1760958,0.41799974,0.04,0.0399999,-7.6421833,4.402263641357422,-4.3060436,-0.010702153,-0.007378754671663046,-0.0053482945
1719.783333332098,-0.48459786,-0.4345661,-0.6193751,-2.168967,0.015619101,1.1760362,0.41794404,0.04,0.0399999,-7.641508,4.401573657989502,-4.3069963,-0.011098722,-0.007433853577822447,-0.0059459764
1719.7999999987646,-0.4846637,-0.4345176,-0.61946267,-2.1689415,0.015621319,1.1759807,0.4178928,0.04,0.039999906,-7.641079,4.400666236877441,-4.308059,-0.011464024,-0.007486762944608927,-0.0064976034
1719.8166666654313,-0.484724,-0.43447292,-0.6195431,-2.168917,0.015623359,1.1759294,0.4178456,0.04,0.039999906,-7.6406555,4.3999786376953125,-4.3089314,-0.011799272,-0.007539802696555853,-0.007007159
1719.833333332098,-0.48477927,-0.43443176,-0.6196173,-2.1688943,0.015625242,1.1758823,0.41780218,0.04,0.039999906,-7.6401105,4.3991193771362305,-4.3098044,-0.012105947,-0.007585544604808092,-0.0074728215
1719.8499999987646,-0.48483,-0.4343939,-0.61968565,-2.1688743,0.015626974,1.1758391,0.41776225,0.04,0.03999991,-7.6397085,4.39857292175293,-4.310554,-0.012388208,-0.007627156563103199,-0.007902053
1719.8666666654312,-0.48487654,-0.43435913,-0.61974853,-2.1688564,0.015628569,1.1757991,0.41772556,0.04,0.03999991,-7.6394424,4.397895336151123,-4.311333,-0.012647647,-0.007668770384043455,-0.008297762
1719.883333332098,-0.48491922,-0.43432721,-0.61980623,-2.168839,0.015630037,1.1757629,0.4176918,0.04,0.03999991,-7.6391616,4.397350311279297,-4.3120165,-0.012886067,-0.00771001260727644,-0.00866276
1719.8999999987645,-0.48495844,-0.4342977,-0.6198596,-2.1688225,0.015631389,1.1757302,0.41766068,0.04,0.039999913,-7.638719,4.396874904632568,-4.31258,-0.013104148,-0.007741830311715603,-0.008995771
1719.9166666654312,-0.48499435,-0.4342707,-0.6199085,-2.1688073,0.015632637,1.1756997,0.41763213,0.04,0.039999917,-7.638391,4.396374702453613,-4.313162,-0.013305413,-0.007766608614474535,-0.009300705
1719.9333333320978,-0.4850273,-0.4342457,-0.6199535,-2.168794,0.015633779,1.1756711,0.41760576,0.04,0.039999913,-7.6381316,4.395962715148926,-4.313626,-0.013489514,-0.007790836505591869,-0.009580947
1719.9499999987645,-0.48505753,-0.43422267,-0.61999524,-2.1687818,0.015634833,1.1756461,0.41758144,0.04,0.039999917,-7.6379952,4.395512580871582,-4.314153,-0.013658547,-0.007819113321602345,-0.009841051
1719.9666666654311,-0.48508525,-0.4342015,-0.6200335,-2.168771,0.015635801,1.1756216,0.41755906,0.04,0.03999992,-7.6377616,4.395249843597412,-4.3145857,-0.013814314,-0.007840050384402275,-0.010078905
1719.9833333320978,-0.48511067,-0.4341821,-0.6200685,-2.168761,0.0156367,1.1756004,0.41753846,0.04,0.03999992,-7.637638,4.394842624664307,-4.3149905,-0.01395685,-0.007867598906159401,-0.010300332
1719.9999999987645,-0.485134,-0.43416438,-0.620101,-2.1687515,0.015637528,1.1755797,0.41751963,0.04,0.039999917,-7.637395,4.39456033706665,-4.3153763,-0.014086967,-0.007886997424066067,-0.01050073
1720.016666665431,-0.48515546,-0.4341479,-0.62013054,-2.168742,0.015638286,1.1755615,0.41750228,0.04,0.039999917,-7.6372056,4.394251346588135,-4.3156605,-0.014207526,-0.007907867431640625,-0.0106875105
1720.0333333320978,-0.485175,-0.4341328,-0.6201579,-2.168733,0.015638985,1.1755445,0.41748637,0.04,0.039999917,-7.6369505,4.39400053024292,-4.3159804,-0.014317801,-0.007920868694782257,-0.010855366
1720.0499999987644,-0.48519304,-0.43411902,-0.62018317,-2.1687245,0.015639627,1.1755285,0.41747162,0.04,0.03999992,-7.636792,4.393712043762207,-4.3162494,-0.014418933,-0.007932930253446102,-0.011010541
1720.066666665431,-0.48520955,-0.43410623,-0.6202064,-2.168717,0.015640225,1.1755149,0.41745806,0.04,0.039999925,-7.636672,4.393545150756836,-4.3164697,-0.014511783,-0.007944784127175808,-0.011153798
1720.0833333320977,-0.48522475,-0.43409443,-0.6202278,-2.1687107,0.015640771,1.1755017,0.41744548,0.04,0.039999925,-7.636549,4.393324851989746,-4.3167534,-0.0145971505,-0.007951663807034492,-0.01128378
1720.0999999987644,-0.48523858,-0.43408358,-0.6202474,-2.168705,0.01564127,1.1754891,0.41743392,0.04,0.039999925,-7.6365566,4.3931684494018555,-4.3169703,-0.014675387,-0.007964816875755787,-0.011405859
1720.116666665431,-0.48525137,-0.43407363,-0.6202656,-2.1687,0.015641732,1.1754771,0.41742328,0.04,0.03999992,-7.6364603,4.392951011657715,-4.317183,-0.014746661,-0.007979167625308037,-0.011518395
1720.1333333320977,-0.48526308,-0.43406448,-0.62028223,-2.1686952,0.015642159,1.1754676,0.41741356,0.04,0.03999992,-7.63639,4.392826557159424,-4.31736,-0.014812706,-0.007994282990694046,-0.011623507
1720.1499999987643,-0.48527384,-0.43405613,-0.62029773,-2.1686907,0.015642554,1.1754582,0.41740474,0.04,0.03999992,-7.6362424,4.392703056335449,-4.317559,-0.014873393,-0.008001559413969517,-0.011717008
1720.166666665431,-0.4852837,-0.43404835,-0.62031186,-2.168687,0.015642913,1.1754489,0.4173967,0.04,0.03999992,-7.6361637,4.392560005187988,-4.3176847,-0.01493001,-0.008009864017367363,-0.011804617
1720.1833333320976,-0.4852927,-0.43404123,-0.6203249,-2.168684,0.015643248,1.1754405,0.41738898,0.04,0.03999992,-7.636165,4.392448902130127,-4.3178453,-0.014982271,-0.008023369126021862,-0.011886724
1720.1999999987643,-0.485301,-0.43403468,-0.6203369,-2.1686816,0.015643552,1.1754324,0.41738212,0.04,0.039999925,-7.4368176,3.9909870624542236,-4.262079,0.0,-0.0,0.0
1720.216666665431,-0.485301,-0.43403468,-0.6203369,-2.1686816,0.015643552,1.1754324,0.41738212,0.04,0.039999925,-7.636111,4.3901686668396,-4.3188357,0.0,-0.0,0.0
1720.2333333320976,-0.485301,-0.43403468,-0.6203369,-2.1686816,0.015643552,1.1754324,0.41738212,0.04,0.039999925,-7.636111,4.3901686668396,-4.3188357,0.0,-0.0,0.0
1720.2499999987642,-0.485301,-0.43403468,-0.6203369,-2.1686816,0.015643552,1.1754324,0.41738212,0.04,0.039999925,-7.636111,4.3901686668396,-4.3188357,0.0,-0.0,0.0
1720.2666666654309,-0.485301,-0.43403468,-0.6203369,-2.1686816,0.015643552,1.1754324,0.41738212,0.04,0.039999925,-7.636111,4.3901686668396,-4.3188357,0.0,-0.0,0.0
1720.2833333320975,-0.485301,-0.43403468,-0.6203369,-2.1686816,0.015643552,1.1754324,0.41738212,0.04,0.039999925,-7.636111,4.3901686668396,-4.3188357,0.0,-0.0,0.0
1720.2999999987642,-0.485301,-0.43403468,-0.6203369,-2.1686816,0.015643552,1.1754324,0.41738212,0.04,0.039999925,-7.636111,4.3901686668396,-4.3188357,0.0,-0.0,0.0
1720.3166666654308,-0.485301,-0.43403468,-0.6203369,-2.1686816,0.015643552,1.1754324,0.41738212,0.04,0.039999925,-7.636111,4.3901686668396,-4.3188357,0.0,-0.0,0.0
1720.3333333320975,-0.485301,-0.43403468,-0.6203369,-2.1686816,0.015643552,1.1754324,0.41738212,0.04,0.039999925,-7.636111,4.3901686668396,-4.3188357,0.0,-0.0,0.0
1720.3499999987641,-0.485301,-0.43403468,-0.6203369,-2.1686816,0.015643552,1.1754324,0.41738212,0.04,0.039999925,-7.636111,4.3901686668396,-4.3188357,0.0,-0.0,0.0
1720.3666666654308,-0.485301,-0.43403468,-0.6203369,-2.1686816,0.015643552,1.1754324,0.41738212,0.04,0.039999925,-7.636111,4.3901686668396,-4.3188357,0.0,-0.0,0.0
1720.3833333320974,-0.485301,-0.43403468,-0.6203369,-2.1686816,0.015643552,1.1754324,0.41738212,0.04,0.039999925,-7.636111,4.3901686668396,-4.3188357,0.0,-0.0,0.0
1720.399999998764,-0.485301,-0.43403468,-0.6203369,-2.1686816,0.015643552,1.1754324,0.41738212,0.04,0.039999925,-7.636111,4.3901686668396,-4.3188357,0.0,-0.0,0.0
1720.4166666654307,-0.485301,-0.43403468,-0.6203369,-2.1686816,0.015643552,1.1754324,0.41738212,0.04,0.039999925,-7.636111,4.3901686668396,-4.3188357,0.0,-0.0,0.0
1720.4333333320974,-0.485301,-0.43403468,-0.6203369,-2.1686816,0.015643552,1.1754324,0.41738212,0.04,0.039999925,-7.636111,4.3901686668396,-4.3188357,0.0,-0.0,0.0
1720.449999998764,-0.485301,-0.43403468,-0.6203369,-2.1686816,0.015643552,1.1754324,0.41738212,0.04,0.039999925,-7.636111,4.3901686668396,-4.3188357,0.0,-0.0,0.0
1720.4666666654307,-0.485301,-0.43403468,-0.6203369,-2.1686816,0.015643552,1.1754324,0.41738212,0.04,0.039999925,-7.636111,4.3901686668396,-4.3188357,0.0,-0.0,0.0
1720.4833333320973,-0.485301,-0.43403468,-0.6203369,-2.1686816,0.015643552,1.1754324,0.41738212,0.04,0.039999925,-7.636111,4.3901686668396,-4.3188357,0.0,-0.0,0.0
1720.499999998764,-0.485301,-0.43403468,-0.6203369,-2.1686816,0.015643552,1.1754324,0.41738212,0.04,0.039999925,-7.636111,4.3901686668396,-4.3188357,0.0,-0.0,0.0
1720.5166666654306,-0.485301,-0.43403468,-0.6203369,-2.1686816,0.015643552,1.1754324,0.41738212,0.04,0.039999925,-7.636111,4.3901686668396,-4.3188357,0.0,-0.0,0.0
1720.5333333320973,-0.485301,-0.43403468,-0.6203369,-2.1686816,0.015643552,1.1754324,0.41738212,0.04,0.039999925,-7.636111,4.3901686668396,-4.3188357,0.0,-0.0,0.0
1720.549999998764,-0.485301,-0.43403468,-0.6203369,-2.1686816,0.015643552,1.1754324,0.41738212,0.04,0.039999925,-7.636111,4.3901686668396,-4.3188357,0.0,-0.0,0.0
1720.5666666654306,-0.485301,-0.43403468,-0.6203369,-2.1686816,0.015643552,1.1754324,0.41738212,0.04,0.039999925,-7.636111,4.3901686668396,-4.3188357,0.0,-0.0,0.0
1720.5833333320973,-0.485301,-0.43403468,-0.6203369,-2.1686816,0.015643552,1.1754324,0.41738212,0.04,0.039999925,-7.636111,4.3901686668396,-4.3188357,0.0,-0.0,0.0
1720.599999998764,-0.485301,-0.43403468,-0.6203369,-2.1686816,0.015643552,1.1754324,0.41738212,0.04,0.039999925,-7.636111,4.3901686668396,-4.3188357,0.0,-0.0,0.0
1720.6166666654306,-0.485301,-0.43403468,-0.6203369,-2.1686816,0.015643552,1.1754324,0.41738212,0.04,0.039999925,-7.636111,4.3901686668396,-4.3188357,0.0,-0.0,0.0
1720.6333333320972,-0.485301,-0.43403468,-0.6203369,-2.1686816,0.015643552,1.1754324,0.41738212,0.04,0.039999925,-7.636111,4.3901686668396,-4.3188357,0.0,-0.0,0.0
1720.6499999987639,-0.485301,-0.43403468,-0.6203369,-2.1686816,0.015643552,1.1754324,0.41738212,0.04,0.039999925,-7.636111,4.3901686668396,-4.3188357,0.0,-0.0,0.0
1720.6666666654305,-0.485301,-0.43403468,-0.6203369,-2.1686816,0.015643552,1.1754324,0.41738212,0.04,0.039999925,-7.636111,4.3901686668396,-4.3188357,0.0,-0.0,0.0
1720.6833333320972,-0.485301,-0.43403468,-0.6203369,-2.1686816,0.015643552,1.1754324,0.41738212,0.04,0.039999925,-7.636111,4.3901686668396,-4.3188357,0.0,-0.0,0.0
1720.6999999987638,-0.485301,-0.43403468,-0.6203369,-2.1686816,0.015643552,1.1754324,0.41738212,0.04,0.039999925,-7.636111,4.3901686668396,-4.3188357,0.0,-0.0,0.0
1720.7166666654305,-0.485301,-0.43403468,-0.6203369,-2.1686816,0.015643552,1.1754324,0.41738212,0.04,0.039999925,-7.636111,4.3901686668396,-4.3188357,0.0,-0.0,0.0
1720.7333333320971,-0.485301,-0.43403468,-0.6203369,-2.1686816,0.015643552,1.1754324,0.41738212,0.04,0.039999925,-7.636111,4.3901686668396,-4.3188357,0.0,-0.0,0.0
1720.7499999987638,-0.485301,-0.43403468,-0.6203369,-2.1686816,0.015643552,1.1754324,0.41738212,0.04,0.039999925,-7.636111,4.3901686668396,-4.3188357,0.0,-0.0,0.0
1720.7666666654304,-0.485301,-0.43403468,-0.6203369,-2.1686816,0.015643552,1.1754324,0.41738212,0.04,0.039999925,-7.636111,4.3901686668396,-4.3188357,0.0,-0.0,0.0
1720.783333332097,-0.485301,-0.43403468,-0.6203369,-2.1686816,0.015643552,1.1754324,0.41738212,0.04,0.039999925,-7.636111,4.3901686668396,-4.3188357,0.0,-0.0,0.0
1720.7999999987637,-0.485301,-0.43403468,-0.6203369,-2.1686816,0.015643552,1.1754324,0.41738212,0.04,0.039999925,-7.636111,4.3901686668396,-4.3188357,0.0,-0.0,0.0
1720.8166666654304,-0.485301,-0.43403468,-0.6203369,-2.1686816,0.015643552,1.1754324,0.41738212,0.04,0.039999925,-7.636111,4.3901686668396,-4.3188357,0.0,-0.0,0.0
1720.833333332097,-0.485301,-0.43403468,-0.6203369,-2.1686816,0.015643552,1.1754324,0.41738212,0.04,0.039999925,-7.636111,4.3901686668396,-4.3188357,0.0,-0.0,0.0
1720.8499999987637,-0.485301,-0.43403468,-0.6203369,-2.1686816,0.015643552,1.1754324,0.41738212,0.04,0.039999925,-7.636111,4.3901686668396,-4.3188357,0.0,-0.0,0.0
1720.8666666654303,-0.485301,-0.43403468,-0.6203369,-2.1686816,0.015643552,1.1754324,0.41738212,0.04,0.039999925,-7.636111,4.3901686668396,-4.3188357,0.0,-0.0,0.0
1720.883333332097,-0.485301,-0.43403468,-0.6203369,-2.1686816,0.015643552,1.1754324,0.41738212,0.04,0.039999925,-7.636111,4.3901686668396,-4.3188357,0.0,-0.0,0.0
1720.8999999987636,-0.485301,-0.43403468,-0.6203369,-2.1686816,0.015643552,1.1754324,0.41738212,0.04,0.039999925,-7.636111,4.3901686668396,-4.3188357,0.0,-0.0,0.0
1720.9166666654303,-0.485301,-0.43403468,-0.6203369,-2.1686816,0.015643552,1.1754324,0.41738212,0.04,0.039999925,-7.636111,4.3901686668396,-4.3188357,0.0,-0.0,0.0
1720.933333332097,-0.485301,-0.43403468,-0.6203369,-2.1686816,0.015643552,1.1754324,0.41738212,0.04,0.039999925,-7.636111,4.3901686668396,-4.3188357,0.0,-0.0,0.0
1720.9499999987636,-0.485301,-0.43403468,-0.6203369,-2.1686816,0.015643552,1.1754324,0.41738212,0.04,0.039999925,-7.636111,4.3901686668396,-4.3188357,0.0,-0.0,0.0
1720.9666666654302,-0.485301,-0.43403468,-0.6203369,-2.1686816,0.015643552,1.1754324,0.41738212,0.04,0.039999925,-7.636111,4.3901686668396,-4.3188357,0.0,-0.0,0.0
1720.983333332097,-0.485301,-0.43403468,-0.6203369,-2.1686816,0.015643552,1.1754324,0.41738212,0.04,0.039999925,-7.636111,4.3901686668396,-4.3188357,0.0,-0.0,0.0
1720.9999999987635,-0.485301,-0.43403468,-0.6203369,-2.1686816,0.015643552,1.1754324,0.41738212,0.04,0.039999925,-7.636111,4.3901686668396,-4.3188357,0.0,-0.0,0.0
1721.0166666654302,-0.485301,-0.43403468,-0.6203369,-2.1686816,0.015643552,1.1754324,0.41738212,0.04,0.039999925,-7.636111,4.3901686668396,-4.3188357,0.0,-0.0,0.0
1721.0333333320968,-0.485301,-0.43403468,-0.6203369,-2.1686816,0.015643552,1.1754324,0.41738212,0.04,0.039999925,-7.636111,4.3901686668396,-4.3188357,0.0,-0.0,0.0
1721.0499999987635,-0.485301,-0.43403468,-0.6203369,-2.1686816,0.015643552,1.1754324,0.41738212,0.04,0.039999925,-7.636111,4.3901686668396,-4.3188357,0.0,-0.0,0.0
1721.0666666654301,-0.485301,-0.43403468,-0.6203369,-2.1686816,0.015643552,1.1754324,0.41738212,0.04,0.039999925,-7.636111,4.3901686668396,-4.3188357,0.0,-0.0,0.0
1721.0833333320968,-0.485301,-0.43403468,-0.6203369,-2.1686816,0.015643552,1.1754324,0.41738212,0.04,0.039999925,-7.636111,4.3901686668396,-4.3188357,0.0,-0.0,0.0
1721.0999999987635,-0.485301,-0.43403468,-0.6203369,-2.1686816,0.015643552,1.1754324,0.41738212,0.04,0.039999925,-7.636111,4.3901686668396,-4.3188357,0.0,-0.0,0.0
1721.11666666543,-0.485301,-0.43403468,-0.6203369,-2.1686816,0.015643552,1.1754324,0.41738212,0.04,0.039999925,-7.636111,4.3901686668396,-4.3188357,0.0,-0.0,0.0
1721.1333333320968,-0.485301,-0.43403468,-0.6203369,-2.1686816,0.015643552,1.1754324,0.41738212,0.04,0.039999925,-7.636111,4.3901686668396,-4.3188357,0.0,-0.0,0.0
1721.1499999987634,-0.485301,-0.43403468,-0.6203369,-2.1686816,0.015643552,1.1754324,0.41738212,0.04,0.039999925,-7.636111,4.3901686668396,-4.3188357,0.0,-0.0,0.0
1721.16666666543,-0.485301,-0.43403468,-0.6203369,-2.1686816,0.015643552,1.1754324,0.41738212,0.04,0.039999925,-7.636111,4.3901686668396,-4.3188357,0.0,-0.0,0.0
1721.1833333320967,-0.485301,-0.43403468,-0.6203369,-2.1686816,0.015643552,1.1754324,0.41738212,0.04,0.039999925,-7.636111,4.3901686668396,-4.3188357,0.0,-0.0,0.0
1721.1999999987634,-0.485301,-0.43403468,-0.6203369,-2.1686816,0.015643552,1.1754324,0.41738212,0.04,0.039999925,-7.636111,4.3901686668396,-4.3188357,0.0,-0.0,0.0
1721.21666666543,-0.485301,-0.43403468,-0.6203369,-2.1686816,0.015643552,1.1754324,0.41738212,0.04,0.039999925,-7.636111,4.3901686668396,-4.3188357,0.0,-0.0,0.0
1721.2333333320967,-0.485301,-0.43403468,-0.6203369,-2.1686816,0.015643552,1.1754324,0.41738212,0.04,0.039999925,-7.636111,4.3901686668396,-4.3188357,0.0,-0.0,0.0
1721.2499999987633,-0.485301,-0.43403468,-0.6203369,-2.1686816,0.015643552,1.1754324,0.41738212,0.04,0.039999925,-7.636111,4.3901686668396,-4.3188357,0.0,-0.0,0.0
1721.26666666543,-0.485301,-0.43403468,-0.6203369,-2.1686816,0.015643552,1.1754324,0.41738212,0.04,0.039999925,-7.636111,4.3901686668396,-4.3188357,0.0,-0.0,0.0
1721.2833333320966,-0.485301,-0.43403468,-0.6203369,-2.1686816,0.015643552,1.1754324,0.41738212,0.04,0.039999925,-7.636111,4.3901686668396,-4.3188357,0.0,-0.0,0.0
1721.2999999987633,-0.485301,-0.43403468,-0.6203369,-2.1686816,0.015643552,1.1754324,0.41738212,0.04,0.039999925,-7.636111,4.3901686668396,-4.3188357,0.0,-0.0,0.0
1721.31666666543,-0.485301,-0.43403468,-0.6203369,-2.1686816,0.015643552,1.1754324,0.41738212,0.04,0.039999925,-7.636111,4.3901686668396,-4.3188357,0.0,-0.0,0.0
1721.3333333320966,-0.485301,-0.43403468,-0.6203369,-2.1686816,0.015643552,1.1754324,0.41738212,0.04,0.039999925,-7.636111,4.3901686668396,-4.3188357,0.0,-0.0,0.0
1721.3499999987632,-0.485301,-0.43403468,-0.6203369,-2.1686816,0.015643552,1.1754324,0.41738212,0.04,0.039999925,-7.636111,4.3901686668396,-4.3188357,0.0,-0.0,0.0
1721.3666666654299,-0.485301,-0.43403468,-0.6203369,-2.1686816,0.015643552,1.1754324,0.41738212,0.04,0.039999925,-7.636111,4.3901686668396,-4.3188357,0.0,-0.0,0.0
1721.3833333320965,-0.485301,-0.43403468,-0.6203369,-2.1686816,0.015643552,1.1754324,0.41738212,0.04,0.039999925,-7.636111,4.3901686668396,-4.3188357,0.0,-0.0,0.0
1721.3999999987632,-0.485301,-0.43403468,-0.6203369,-2.1686816,0.015643552,1.1754324,0.41738212,0.04,0.039999925,-7.636111,4.3901686668396,-4.3188357,0.0,-0.0,0.0
1721.4166666654298,-0.485301,-0.43403468,-0.6203369,-2.1686816,0.015643552,1.1754324,0.41738212,0.04,0.039999925,-7.636111,4.3901686668396,-4.3188357,0.0,-0.0,0.0
1721.4333333320965,-0.485301,-0.43403468,-0.6203369,-2.1686816,0.015643552,1.1754324,0.41738212,0.04,0.039999925,-7.636111,4.3901686668396,-4.3188357,0.0,-0.0,0.0
1721.4499999987631,-0.485301,-0.43403468,-0.6203369,-2.1686816,0.015643552,1.1754324,0.41738212,0.04,0.039999925,-7.636111,4.3901686668396,-4.3188357,0.0,-0.0,0.0
1721.4666666654298,-0.485301,-0.43403468,-0.6203369,-2.1686816,0.015643552,1.1754324,0.41738212,0.04,0.039999925,-7.636111,4.3901686668396,-4.3188357,0.0,-0.0,0.0
1721.4833333320964,-0.485301,-0.43403468,-0.6203369,-2.1686816,0.015643552,1.1754324,0.41738212,0.04,0.039999925,-7.636111,4.3901686668396,-4.3188357,0.0,-0.0,0.0
1721.499999998763,-0.485301,-0.43403468,-0.6203369,-2.1686816,0.015643552,1.1754324,0.41738212,0.04,0.039999925,-7.636111,4.3901686668396,-4.3188357,0.0,-0.0,0.0
1721.5166666654297,-0.485301,-0.43403468,-0.6203369,-2.1686816,0.015643552,1.1754324,0.41738212,0.04,0.039999925,-7.636111,4.3901686668396,-4.3188357,0.0,-0.0,0.0
1721.5333333320964,-0.485301,-0.43403468,-0.6203369,-2.1686816,0.015643552,1.1754324,0.41738212,0.04,0.039999925,-7.636111,4.3901686668396,-4.3188357,0.0,-0.0,0.0
1721.549999998763,-0.485301,-0.43403468,-0.6203369,-2.1686816,0.015643552,1.1754324,0.41738212,0.04,0.039999925,-7.636111,4.3901686668396,-4.3188357,0.0,-0.0,0.0
1721.5666666654297,-0.485301,-0.43403468,-0.6203369,-2.1686816,0.015643552,1.1754324,0.41738212,0.04,0.039999925,-7.636111,4.3901686668396,-4.3188357,0.0,-0.0,0.0
1721.5833333320963,-0.485301,-0.43403468,-0.6203369,-2.1686816,0.015643552,1.1754324,0.41738212,0.04,0.039999925,-7.636111,4.3901686668396,-4.3188357,0.0,-0.0,0.0
1721.599999998763,-0.485301,-0.43403468,-0.6203369,-2.1686816,0.015643552,1.1754324,0.41738212,0.04,0.039999925,-7.636111,4.3901686668396,-4.3188357,0.0,-0.0,0.0
1721.6166666654296,-0.485301,-0.43403468,-0.6203369,-2.1686816,0.015643552,1.1754324,0.41738212,0.04,0.039999925,-7.636111,4.3901686668396,-4.3188357,0.0,-0.0,0.0
1721.6333333320963,-0.485301,-0.43403468,-0.6203369,-2.1686816,0.015643552,1.1754324,0.41738212,0.04,0.039999925,-7.636111,4.3901686668396,-4.3188357,0.0,-0.0,0.0
1721.649999998763,-0.485301,-0.43403468,-0.6203369,-2.1686816,0.015643552,1.1754324,0.41738212,0.04,0.039999925,-7.636111,4.3901686668396,-4.3188357,0.0,-0.0,0.0
1721.6666666654296,-0.485301,-0.43403468,-0.6203369,-2.1686816,0.015643552,1.1754324,0.41738212,0.04,0.039999925,-7.636111,4.3901686668396,-4.3188357,0.0,-0.0,0.0
1721.6833333320963,-0.485301,-0.43403468,-0.6203369,-2.1686816,0.015643552,1.1754324,0.41738212,0.04,0.039999925,-7.636111,4.3901686668396,-4.3188357,0.0,-0.0,0.0
1721.699999998763,-0.485301,-0.43403468,-0.6203369,-2.1686816,0.015643552,1.1754324,0.41738212,0.04,0.039999925,-7.636111,4.3901686668396,-4.3188357,0.0,-0.0,0.0
1721.7166666654296,-0.485301,-0.43403468,-0.6203369,-2.1686816,0.015643552,1.1754324,0.41738212,0.04,0.039999925,-7.636111,4.3901686668396,-4.3188357,0.0,-0.0,0.0
1721.7333333320962,-0.485301,-0.43403468,-0.6203369,-2.1686816,0.015643552,1.1754324,0.41738212,0.04,0.039999925,-7.636111,4.3901686668396,-4.3188357,0.0,-0.0,0.0
1721.7499999987629,-0.485301,-0.43403468,-0.6203369,-2.1686816,0.015643552,1.1754324,0.41738212,0.04,0.039999925,-7.636111,4.3901686668396,-4.3188357,0.0,-0.0,0.0
1721.7666666654295,-0.485301,-0.43403468,-0.6203369,-2.1686816,0.015643552,1.1754324,0.41738212,0.04,0.039999925,-7.636111,4.3901686668396,-4.3188357,0.0,-0.0,0.0
1721.7833333320962,-0.485301,-0.43403468,-0.6203369,-2.1686816,0.015643552,1.1754324,0.41738212,0.04,0.039999925,-7.636111,4.3901686668396,-4.3188357,0.0,-0.0,0.0
1721.7999999987628,-0.485301,-0.43403468,-0.6203369,-2.1686816,0.015643552,1.1754324,0.41738212,0.04,0.039999925,-7.636111,4.3901686668396,-4.3188357,0.0,-0.0,0.0
