rsonawane2002/My_IMU/logs_2/traj_406/imu_400hz_406.csv
time,j1,j2,j3,j4,j5,j6,j7,gripper1,gripper2,imu_ax,imu_ay,imu_az,imu_gx,imu_gy,imu_gz
0.0,0.00016700293,-0.785875,4.0107683e-05,-2.3551247,9.29385e-05,1.570997,0.786,0.04,0.04,-9.531864,-0.0057731652632355,0.09480082,3.8072255e-08,-0.0011641272576525,8.5042944e-07
0.0025,0.000167002243,-0.785857774,4.010717e-05,-2.35513919,9.294388800000001e-05,1.570996565,0.786,0.04,0.04,-9.577230900000043,-0.004814458501640713,0.08194727994998831,7.391338625003259e-08,-0.0013251072785352115,9.380835390000797e-07
0.005,0.00016700155599999998,-0.785840548,4.0106657e-05,-2.3551536800000004,9.294927600000002e-05,1.57099613,0.786,0.04,0.04,-9.622597800000083,-0.0038557517400459257,0.06909373989997661,1.0975451750006518e-07,-0.0014860872994179228,1.0257376380001594e-06
0.0075,0.000167000869,-0.7858233219999999,4.0106144e-05,-2.3551681700000002,9.295466400000002e-05,1.570995695,0.786,0.04,0.04,-9.667964700000125,-0.002897044978451139,0.05624019984996493,1.4559564875009778e-07,-0.0016470673203006342,1.1133917370002393e-06
0.01,0.000167000182,-0.785806096,4.0105631e-05,-2.35518266,9.296005200000001e-05,1.5709952600000001,0.786,0.04,0.04,-9.713331600000165,-0.0019383382168563523,0.04338665979995324,1.8143678000013037e-07,-0.0018080473411833456,1.201045836000319e-06
0.0125,0.000166999495,-0.78578887,4.0105118e-05,-2.3551971500000004,9.296544000000002e-05,1.570994825,0.786,0.04,0.04,-9.758698500000207,-0.0009796314552615653,0.03053311974994155,2.17277911250163e-07,-0.001969027362066057,1.2886999350003987e-06
0.015,0.00016699880799999999,-0.785771644,4.0104604999999996e-05,-2.3552116400000003,9.297082800000002e-05,1.57099439,0.786,0.04,0.04,-9.804065400000248,-2.092469366677882e-05,0.017679579699929865,2.5311904250019556e-07,-0.0021300073829487683,1.3763540340004786e-06
0.0175,0.00016699552149999995,-0.7857548619999999,4.0100486249999926e-05,-2.3552257350000003,9.297669250000004e-05,1.57099396,0.786,0.04,0.03999999975,-9.83422175,0.0006111312221035547,0.009033947979998538,4.670350735036297e-07,-0.0022866669343793275,1.6473132800040596e-06
0.02,0.00016698703599999994,-0.7857389679999999,4.008915599999992e-05,-2.3552390400000003,9.298351000000005e-05,1.5709935400000001,0.786,0.04,0.039999999,-9.833956999999998,0.0005898854462428054,0.008804132919998328,1.0371009040041478e-06,-0.002434685546905817,2.284882820004639e-06
0.0225,0.00016697855049999991,-0.7857230739999999,4.007782574999991e-05,-2.3552523450000002,9.299032750000005e-05,1.57099312,0.786,0.04,0.03999999825,-9.833692249999999,0.0005686396703820561,0.00857431785999812,1.6071667345046661e-06,-0.0025827041594323067,2.9224523600052185e-06
0.025,0.0001669700649999999,-0.7857071799999998,4.0066495499999896e-05,-2.35526565,9.299714500000006e-05,1.5709927,0.786,0.04,0.0399999975,-9.833427499999997,0.0005473938945213068,0.00834450279999791,2.177232565005185e-06,-0.0027307227719587965,3.560021900005799e-06
0.0275,0.0001669615794999999,-0.7856912859999998,4.005516524999989e-05,-2.355278955,9.300396250000007e-05,1.57099228,0.786,0.04,0.03999999675,-9.833162749999998,0.0005261481186605574,0.008114687739997701,2.7472983955057034e-06,-0.0028787413844852863,4.197591440006379e-06
0.03,0.0001669530939999999,-0.7856753919999998,4.004383499999988e-05,-2.35529226,9.301078000000007e-05,1.57099186,0.786,0.04,0.039999996,-9.832897999999997,0.0005049023427998082,0.007884872679997492,3.3173642260062213e-06,-0.0030267599970117756,4.835160980006958e-06
0.0325,0.00016694460849999988,-0.7856594979999998,4.0032504749999866e-05,-2.355305565,9.301759750000009e-05,1.57099144,0.786,0.04,0.03999999525,-9.832633249999997,0.0004836565669390588,0.0076550576199972825,3.88743005650674e-06,-0.0031747786095382654,5.4727305200075385e-06
0.035,0.0001669220329999996,-0.7856444399999998,4.0002173199999496e-05,-2.3553181,9.302357500000008e-05,1.57099101,0.786,0.04,0.0399999955,-9.832343499999995,0.0004495404311450536,0.007450948739997564,5.053075700018636e-06,-0.003314220858739471,6.451349030014633e-06
0.0375,0.0001668924124999996,-0.7856297999999998,3.996234099999946e-05,-2.35533025,9.302913250000007e-05,1.570990575,0.786,0.04,0.03999999625,-9.832041249999996,0.00040898911538477184,0.0072596929499973905,6.516511250019964e-06,-0.0034493749262782688,7.600492025015676e-06
0.04,0.00016686279199999956,-0.7856151599999998,3.992250879999942e-05,-2.3553424,9.303469000000008e-05,1.57099014,0.786,0.04,0.039999997,-9.831738999999995,0.0003684377996244899,0.007068437159997216,7.979946800021296e-06,-0.003584528993817067,8.749635020016723e-06
0.0425,0.00016683317149999955,-0.7856005199999998,3.9882676599999384e-05,-2.35535455,9.304024750000009e-05,1.5709897050000001,0.786,0.04,0.03999999775,-9.831436749999995,0.000327886483864208,0.006877181369997043,9.443382350022629e-06,-0.003719683061355865,9.89877801501777e-06
0.045,0.00016680355099999951,-0.7855858799999997,3.984284439999935e-05,-2.3553667000000003,9.304580500000009e-05,1.57098927,0.786,0.04,0.0399999985,-9.831134499999994,0.0002873351681039262,0.006685925579996869,1.0906817900023957e-05,-0.0038548371288946626,1.1047921010018811e-05
0.0475,0.0001667739304999995,-0.7855712399999998,3.980301219999931e-05,-2.35537885,9.30513625000001e-05,1.570988835,0.786,0.04,0.03999999925,-9.830832249999995,0.00024678385234364427,0.006494669789996695,1.2370253450025288e-05,-0.003989991196433461,1.2197064005019856e-05
0.05,0.00016674430999999874,-0.7855565999999998,3.976317999999829e-05,-2.355391,9.30569200000001e-05,1.5709884,0.786,0.04,0.04,-9.830529999999996,0.0002062325365830597,0.006303413999996644,1.3833689000049805e-05,-0.004125145263972032,1.3346207000040975e-05
0.0525,0.00016667406049999866,-0.7855430999999998,3.966942699999821e-05,-2.3554021300000003,9.306311500000011e-05,1.57098798,0.786,0.04,0.04,-9.830287599999995,0.0001490450551489428,0.006118919474996477,1.657160165005229e-05,-0.004247809457594918,1.559866940004302e-05
0.055,0.0001666038109999986,-0.7855295999999997,3.957567399999812e-05,-2.35541326,9.306931000000012e-05,1.57098756,0.786,0.04,0.04,-9.830045199999995,9.185757371482574e-05,0.005934424949996309,1.930951430005478e-05,-0.004370473651217804,1.785113180004507e-05
0.0575,0.00016653356149999853,-0.7855160999999997,3.948192099999804e-05,-2.35542439,9.307550500000012e-05,1.57098714,0.786,0.04,0.04,-9.829802799999994,3.4670092280708674e-05,0.005749930424996141,2.2047426950057273e-05,-0.004493137844840691,2.010359420004712e-05
0.06,0.00016646331199999848,-0.7855025999999997,3.9388167999997956e-05,-2.3554355200000003,9.308170000000013e-05,1.57098672,0.786,0.04,0.04,-9.829560399999995,-2.251738915340823e-05,0.005565435899995973,2.4785339600059758e-05,-0.004615802038463577,2.2356056600049165e-05
0.0625,0.0001663930624999984,-0.7854890999999997,3.929441499999787e-05,-2.35544665,9.308789500000014e-05,1.5709863,0.786,0.04,0.04,-9.829317999999994,-7.97048705875253e-05,0.0053809413749958054,2.7523252250062252e-05,-0.004738466232086464,2.4608519000051214e-05
0.065,0.00016632281299999835,-0.7854755999999997,3.9200661999997786e-05,-2.35545778,9.309409000000014e-05,1.57098588,0.786,0.04,0.04,-9.829075599999994,-0.00013689235202164236,0.005196446849995637,3.0261164900064744e-05,-0.0048611304257093505,2.686098140005327e-05
0.0675,0.00016623066349999666,-0.7854624349999997,3.907812579999558e-05,-2.35546854,9.310115850000021e-05,1.570985455,0.786,0.04,0.04,-9.828826299999992,-0.0001980686298354783,0.005022308199996232,3.351455300010522e-05,-0.00497982541565119,2.962818625009324e-05
0.07,0.00016609471399999654,-0.7854499399999997,3.889802319999541e-05,-2.3554785600000003,9.310997400000022e-05,1.57098502,0.786,0.04,0.04,-9.828563199999993,-0.00026722250040788127,0.0048688812999960925,3.779889200010912e-05,-0.0050905819982318004,3.34248760000967e-05
0.0725,0.00016595876449999642,-0.7854374449999997,3.871792059999525e-05,-2.3554885800000003,9.311878950000023e-05,1.570984585,0.786,0.04,0.04,-9.828300099999993,-0.0003363763709802838,0.004715454399995954,4.2083231000112996e-05,-0.005201338580812411,3.722156575010013e-05
0.075,0.0001658228149999963,-0.7854249499999997,3.8537817999995085e-05,-2.3554986,9.312760500000024e-05,1.57098415,0.786,0.04,0.04,-9.828036999999991,-0.0004055302415526868,0.004562027499995814,4.6367570000116895e-05,-0.0053120951633930215,4.101825550010359e-05
0.0775,0.00016568686549999617,-0.7854124549999997,3.8357715399994926e-05,-2.35550862,9.313642050000026e-05,1.5709837150000001,0.786,0.04,0.04,-9.827773899999992,-0.00047468411212508977,0.004408600599995674,5.0651909000120794e-05,-0.005422851745973633,4.481494525010705e-05
0.08,0.00016555091599999605,-0.7853999599999997,3.817761279999476e-05,-2.3555186400000006,9.314523600000025e-05,1.57098328,0.786,0.04,0.04,-9.827510799999992,-0.0005438379826974927,0.004255173699995535,5.49362480001247e-05,-0.0055336083285542435,4.8611635000110504e-05
0.0825,0.00016541496649999593,-0.7853874649999997,3.799751019999459e-05,-2.3555286600000005,9.315405150000026e-05,1.570982845,0.786,0.04,0.04,-9.827247699999992,-0.0006129918532698957,0.0041017467999953944,5.92205870001286e-05,-0.005644364911134855,5.240832475011396e-05
0.085,0.00016521522199999073,-0.7853755999999995,3.773409299998779e-05,-2.3555382200000006,9.316502000000048e-05,1.5709824000000001,0.78599981,0.04,0.04,-9.82699839999999,-0.0006926689296994192,0.003951752949994066,6.473104200024507e-05,-0.005747025832537746,5.7227831700213344e-05
0.08750000000000001,0.00016498357999998736,-0.7853640499999994,3.7429018499983355e-05,-2.3555475500000007,9.317706500000065e-05,1.57098195,0.785999525,0.04,0.04,-9.826755999999987,-0.0007776076090567854,0.003803475624991908,7.085455500033418e-05,-0.0058456389233523314,6.255874725029092e-05
0.09,0.00016475193799998398,-0.7853524999999992,3.712394399997891e-05,-2.355556880000001,9.318911000000083e-05,1.5709815,0.78599924,0.04,0.04,-9.826513599999982,-0.000862546288414151,0.003655198299989751,7.697806800042325e-05,-0.0059442520141669165,6.788966280036848e-05
0.0925,0.00016452029599998063,-0.785340949999999,3.6818869499974475e-05,-2.355566210000001,9.320115500000101e-05,1.57098105,0.785998955,0.04,0.04,-9.82627119999998,-0.0009474849677715171,0.0035069209749875934,8.310158100051238e-05,-0.0060428651049815015,7.322057835044606e-05
0.095,0.00016428865399997726,-0.7853293999999988,3.651379499997003e-05,-2.355575540000001,9.321320000000118e-05,1.5709806,0.78599867,0.04,0.04,-9.826028799999976,-0.0010324236471288832,0.0033586436499854354,8.922509400060148e-05,-0.0061414781957960865,7.855149390052364e-05
0.0975,0.00016405701199997388,-0.7853178499999988,3.6208720499965594e-05,-2.3555848700000013,9.322524500000135e-05,1.57098015,0.785998385,0.04,0.04,-9.825786399999973,-0.0011173623264862493,0.0032103663249832774,9.53486070006906e-05,-0.0062400912866106715,8.388240945060121e-05
0.1,0.00016382536999995392,-0.7853062999999987,3.59036459999396e-05,-2.355594200000001,9.323729000000208e-05,1.5709797,0.7859981,0.04,0.04,-9.82554399999998,-0.0012023010058453834,0.0030620889999827977,0.00010147212000119056,-0.00633870437742394,8.92133250009157e-05
0.10250000000000001,0.00016346355199995852,-0.7852955494999988,3.5429343599945645e-05,-2.355602855000001,9.325371200000188e-05,1.57097925,0.785997815,0.04,0.04,-9.825372099999981,-0.0013011258095615603,0.0029269884399845177,0.00011082220500107151,-0.006426979647959366,9.640472625082413e-05
0.105,0.00016310173399996315,-0.7852847989999989,3.495504119995169e-05,-2.355611510000001,9.327013400000167e-05,1.5709788,0.78599753,0.04,0.04,-9.825200199999983,-0.0013999506132777364,0.0027918878799862382,0.00012017229000095242,-0.006515254918494791,0.00010359612750073254
0.1075,0.00016273991599996776,-0.785274048499999,3.448073879995772e-05,-2.355620165000001,9.328655600000147e-05,1.5709783499999999,0.785997245,0.04,0.04,-9.825028299999985,-0.0014987754169939133,0.0026567873199879583,0.00012952237500083336,-0.0066035301890302175,0.00011078752875064098
0.11,0.00016237809799997236,-0.7852632979999992,3.4006436399963766e-05,-2.3556288200000006,9.330297800000125e-05,1.5709779,0.78599696,0.04,0.04,-9.824856399999987,-0.00159760022071009,0.0025216867599896784,0.00013887246000071434,-0.006691805459565644,0.00011797893000054942
0.1125,0.00016201627999997697,-0.7852525474999994,3.35321339999698e-05,-2.3556374750000004,9.331940000000104e-05,1.57097745,0.785996675,0.04,0.04,-9.82468449999999,-0.0016964250244262667,0.0023865861999913984,0.0001482225450005953,-0.00678008073010107,0.00012517033125045786
0.115,0.00016165446199998157,-0.7852417969999995,3.3057831599975844e-05,-2.3556461300000002,9.333582200000084e-05,1.5709769999999998,0.78599639,0.04,0.04,-9.824512599999991,-0.0017952498281424436,0.0022514856399931185,0.00015757263000047624,-0.006868356000636496,0.0001323617325003663
0.11750000000000001,0.00016123643599997976,-0.7852312859999997,3.251072169997354e-05,-2.355654435,9.335346500000077e-05,1.5709765349999998,0.785996072,0.0399999995,0.0399999995,-9.824336199999994,-0.0018952380691227935,0.0021221493349954995,0.00016763439750043876,-0.006953328661623568,0.0001402561205003553
0.12,0.0001607059939999865,-0.7852212539999998,3.181799679998236e-05,-2.35566204,9.337355000000051e-05,1.57097604,0.7859956880000001,0.039999998,0.039999998,-9.824150799999996,-0.0019975531846310453,0.002004341539997,0.00017911953000029248,-0.007031696103515195,0.00014955648200023683
0.1225,0.00016017555199999324,-0.7852112219999999,3.112527189999118e-05,-2.355669645,9.339363500000026e-05,1.5709755449999998,0.7859953040000001,0.0399999965,0.0399999965,-9.823965399999999,-0.0020998683001392975,0.0018865337449984999,0.00019060466250014625,-0.007110063545406823,0.0001588568435001184
0.125,0.00015964511,-0.78520119,3.0432547e-05,-2.35567725,9.341372e-05,1.57097505,0.78599492,0.039999994999999997,0.039999994999999997,-9.82378,-0.00220218341564755,0.0017687259499999997,0.000202089795,-0.0071884309872984505,0.000168157205
0.1275,0.00015911466800000676,-0.7851911580000002,2.973982210000882e-05,-2.355684855,9.343380499999974e-05,1.570974555,0.785994536,0.0399999935,0.0399999935,-9.823594600000002,-0.0023044985311558024,0.0016509181550014998,0.0002135749274998538,-0.007266798429190077,0.0001774575664998816
0.13,0.00015858422600001352,-0.7851811260000003,2.9047097200017642e-05,-2.3556924599999998,9.345388999999948e-05,1.57097406,0.785994152,0.039999992,0.039999992,-9.823409200000004,-0.0024068136466640546,0.0015331103600029997,0.00022506005999970753,-0.007345165871081705,0.00018675792799976318
0.1325,0.00015805378400002024,-0.7851710940000004,2.835437230002646e-05,-2.3557000649999997,9.347397499999923e-05,1.570973565,0.7859937680000001,0.0399999905,0.0399999905,-9.823223800000006,-0.0025091287621723073,0.0014153025650044996,0.00023654519249956133,-0.007423533312973332,0.00019605828949964476
0.135,0.00015738293700002425,-0.7851614750000003,2.748023860003159e-05,-2.3557073199999996,9.349853399999912e-05,1.57097273,0.785993256,0.039999989799999996,0.039999989799999996,-9.823022000000007,-0.002622311306182087,0.001297919550003836,0.0002498182329995362,-0.007494024187324211,0.00020683031699962324
0.1375,0.00015664188750001346,-0.7851520625000002,2.6515400500017545e-05,-2.3557143999999997,9.352532999999952e-05,1.570971725,0.78599268,0.0399999895,0.0399999895,-9.822812000000004,-0.0027409275644436682,0.0011807489250021308,0.00026398522749974235,-0.007560576777903965,0.0002183381774997907
0.14,0.0001559008380000027,-0.78514265,2.5550562400003505e-05,-2.3557214799999997,9.35521259999999e-05,1.57097072,0.785992104,0.0399999892,0.0399999892,-9.822602,-0.0028595438227052494,0.0010635783000004255,0.0002781522219999485,-0.007627129368483718,0.00022984603799995818
0.14250000000000002,0.0001551597884999919,-0.7851332375,2.4585724299989464e-05,-2.3557285599999997,9.357892200000029e-05,1.570969715,0.7859915279999999,0.0399999889,0.0399999889,-9.822391999999997,-0.0029781600809668306,0.0009464076749987205,0.0002923192165001547,-0.007693681959063472,0.00024135389850012565
0.145,0.00015441873899998113,-0.7851238249999998,2.3620886199975434e-05,-2.3557356400000002,9.360571800000068e-05,1.57096871,0.785990952,0.0399999886,0.0399999886,-9.822181999999994,-0.0030967763392284104,0.0008292370499970166,0.0003064862110003607,-0.007760234549643225,0.000252861759000293
0.1475,0.00015367768949997034,-0.7851144124999997,2.2656048099961393e-05,-2.3557427200000003,9.363251400000108e-05,1.570967705,0.785990376,0.0399999883,0.0399999883,-9.821971999999992,-0.0032153925974899916,0.0007120664249953114,0.0003206532055005669,-0.007826787140222977,0.00026436961950046045
0.15,0.0001529366399999456,-0.7851049999999996,2.1691209999929358e-05,-2.3557498000000003,9.365931000000191e-05,1.5709667,0.7859898,0.039999988,0.039999988,-9.821761999999993,-0.0033340088557513568,0.0005948957999951993,0.0003348202000009446,-0.007893339730802352,0.0002758774800007689
0.1525,0.00015193987949994468,-0.7850961109999995,2.039662974992818e-05,-2.3557561750000002,9.369432900000194e-05,1.57096568,0.7859889449999999,0.0399999874,0.0399999868,-9.821621599999991,-0.003448666410992601,0.0005069200775951192,0.0003521306620009604,-0.007952940510589116,0.00028996900800078173
0.155,0.00015094311899994378,-0.7850872219999996,1.9102049499927003e-05,-2.35576255,9.372934800000198e-05,1.57096466,0.7859880899999999,0.0399999868,0.039999985599999996,-9.821481199999992,-0.0035633239662338453,0.00041894435519503916,0.00036944112400097613,-0.008012541290375881,0.00030406053600079457
0.1575,0.00014994635849994287,-0.7850783329999995,1.7807469249925823e-05,-2.3557689250000005,9.376436700000201e-05,1.57096364,0.7859872349999999,0.039999986200000004,0.0399999844,-9.821340799999993,-0.0036779815214750895,0.00033096863279495907,0.0003867515860009919,-0.008072142070162644,0.0003181520640008074
0.16,0.00014894959799994196,-0.7850694439999996,1.6512888999924644e-05,-2.3557753000000003,9.379938600000204e-05,1.57096262,0.7859863799999999,0.0399999856,0.0399999832,-9.821200399999992,-0.0037926390767163342,0.00024299291039487898,0.00040406204800100764,-0.008131742849949409,0.00033224359200082024
0.1625,0.00014795283749994106,-0.7850605549999995,1.5218308749923466e-05,-2.3557816750000002,9.383440500000208e-05,1.5709616,0.785985525,0.039999985,0.039999981999999996,-9.821059999999992,-0.0039072966319575785,0.0001550171879947989,0.0004213725100010234,-0.008191343629736173,0.0003463351200008331
0.165,0.00014695607699994015,-0.7850516659999995,1.3923728499922286e-05,-2.3557880500000006,9.38694240000021e-05,1.57096058,0.7859846699999999,0.0399999844,0.039999980799999994,-9.820919599999991,-0.004021954187198823,6.704146559471881e-05,0.00043868297200103914,-0.008250944409522938,0.0003604266480008459
0.1675,0.00014585812599992077,-0.7850429229999996,1.2498881434897293e-05,-2.3557941450000004,9.390765150000272e-05,1.57095952,0.785983755,0.03999998365,0.039999979649999996,-9.820773399999991,-0.004142952081755421,-2.6763672706426995e-05,0.0004571821060012722,-0.00830708839930887,0.0003753324600010076
0.17,0.00014455779399991957,-0.7850344719999995,1.0813500739895759e-05,-2.3557996800000005,9.395229600000276e-05,1.57095838,0.7859827199999999,0.039999982600000004,0.0399999786,-9.820615599999991,-0.004276630654939268,-0.00013222764280652302,0.0004780585840012912,-0.008356318809095025,0.00039186684000102267
0.17250000000000001,0.0001432574619999184,-0.7850260209999995,9.128120044894223e-06,-2.3558052150000006,9.39969405000028e-05,1.57095724,0.7859816849999999,0.03999998155,0.039999977549999996,-9.820457799999991,-0.004410309228123114,-0.00023769161290661904,0.0004989350620013102,-0.00840554921888118,0.0004084012200010377
0.17500000000000002,0.0001419571299999172,-0.7850175699999995,7.442739349892689e-06,-2.3558107500000003,9.404158500000284e-05,1.5709561,0.78598065,0.0399999805,0.0399999765,-9.82029999999999,-0.004543987801306961,-0.00034315558300671505,0.0005198115400013293,-0.008454779628667334,0.0004249356000010528
0.1775,0.00014065679799991605,-0.7850091189999995,5.757358654891173e-06,-2.3558162850000004,9.408622950000288e-05,1.57095496,0.7859796149999999,0.03999997945,0.03999997545,-9.82014219999999,-0.004677666374490806,-0.0004486195531068099,0.0005406880180013479,-0.00850401003845349,0.00044146998000106765
0.18,0.00013935646599991486,-0.7850006679999995,4.071977959889638e-06,-2.3558218200000005,9.413087400000293e-05,1.57095382,0.78597858,0.0399999784,0.0399999744,-9.81998439999999,-0.004811344947674653,-0.0005540835232069059,0.000561564496001367,-0.008553240448239643,0.0004580043600010827
0.1825,0.00013805613399991368,-0.7849922169999994,2.3865972648881043e-06,-2.3558273550000006,9.417551850000297e-05,1.57095268,0.7859775449999999,0.03999997735,0.03999997335,-9.81982659999999,-0.0049450235208585,-0.0006595474933070019,0.000582440974001386,-0.008602470858025799,0.00047453874000109777
0.185,0.0001365199029998887,-0.7849839999999993,3.979175298559522e-07,-2.3558326400000005,9.422778000000377e-05,1.57095124,0.78597635,0.0399999763,0.0399999717,-9.819656199999988,-0.005070703104146539,-0.0007526160050058465,0.0006054011000016154,-0.00864502657205126,0.0004929597200013032
0.1875,0.00013486572249988717,-0.7849758999999994,-1.7424117251459962e-06,-2.3558378000000006,9.428385000000383e-05,1.57094965,0.785975075,0.03999997525,0.03999996975,-9.819479499999987,-0.005192383192487875,-0.0008394867875059257,0.0006294030500016372,-0.008684244938197376,0.0005123240000013209
0.19,0.00013321154199988567,-0.7849677999999994,-3.882740980147945e-06,-2.3558429600000004,9.433992000000388e-05,1.57094806,0.7859738,0.0399999742,0.0399999678,-9.819302799999988,-0.0053140632808292105,-0.0009263575700060048,0.0006534050000016591,-0.008723463304343492,0.0005316882800013385
0.1925,0.00013155736149988417,-0.7849596999999994,-6.023070235149892e-06,-2.3558481200000005,9.439599000000392e-05,1.57094647,0.7859725249999999,0.03999997315,0.03999996585,-9.819126099999988,-0.005435743369170546,-0.001013228352506084,0.0006774069500016809,-0.008762681670489606,0.0005510525600013562
0.195,0.00012990318099988265,-0.7849515999999994,-8.163399490151842e-06,-2.3558532800000007,9.445206000000398e-05,1.5709448799999999,0.7859712499999999,0.0399999721,0.0399999639,-9.818949399999987,-0.005557423457511882,-0.001100099135006163,0.0007014089000017028,-0.008801900036635722,0.0005704168400013737
0.1975,0.00012824900049988115,-0.7849434999999994,-1.030372874515379e-05,-2.3558584400000004,9.450813000000403e-05,1.57094329,0.7859699749999999,0.03999997105,0.03999996195,-9.818772699999988,-0.005679103545853218,-0.001186969917506242,0.0007254108500017247,-0.008841118402781838,0.0005897811200013914
0.2,0.00012659481999985009,-0.7849353999999994,-1.24440580001937e-05,-2.3558636000000006,9.456420000000501e-05,1.5709416999999999,0.7859686999999999,0.03999997,0.03999996,-9.818595999999992,-0.005800783634196043,-0.00127384070000609,0.0007494128000019847,-0.008880336768927447,0.0006091454000016045
0.2025,0.0001245344244998482,-0.7849275609999994,-1.5106089550196123e-05,-2.3558678600000005,9.463318650000508e-05,1.57093996,0.7859670844999999,0.0399999694,0.039999959700000004,-9.818499249999993,-0.005942937638620988,-0.0013575345200061662,0.0007766870000020094,-0.008912597596647642,0.0006311956010016245
0.20500000000000002,0.00012247402899984633,-0.7849197219999994,-1.7768121100198547e-05,-2.3558721200000003,9.470217300000514e-05,1.57093822,0.7859654689999999,0.0399999688,0.0399999594,-9.818402499999992,-0.006085091643045932,-0.0014412283400062423,0.0008039612000020342,-0.008944858424367836,0.0006532458020016446
0.20750000000000002,0.00012041363349984445,-0.7849118829999994,-2.043015265020097e-05,-2.35587638,9.477115950000521e-05,1.5709364799999999,0.7859638534999999,0.0399999682,0.0399999591,-9.818305749999993,-0.006227245647470877,-0.0015249221600063185,0.0008312354000020591,-0.00897711925208803,0.0006752960030016647
0.21,0.0001183532379998426,-0.7849040439999994,-2.3092184200203364e-05,-2.3558806400000005,9.484014600000526e-05,1.57093474,0.7859622379999999,0.0399999676,0.0399999588,-9.818208999999992,-0.00636939965189582,-0.0016086159800063938,0.0008585096000020836,-0.009009380079808225,0.0006973462040016845
0.2125,0.00011629284249984073,-0.7848962049999995,-2.575421575020579e-05,-2.3558849000000004,9.490913250000533e-05,1.570933,0.7859606224999999,0.039999967,0.0399999585,-9.818112249999993,-0.006511553656320764,-0.00169230980000647,0.0008857838000021084,-0.009041640907528419,0.0007193964050017047
0.215,0.00011423244699983885,-0.7848883659999994,-2.8416247300208215e-05,-2.3558891600000003,9.497811900000539e-05,1.5709312599999998,0.7859590069999999,0.039999966399999996,0.039999958200000005,-9.818015499999992,-0.006653707660745708,-0.001776003620006546,0.0009130580000021333,-0.009073901735248613,0.0007414466060017247
0.2175,0.00011201857299980055,-0.7848805799999994,-3.1275211100257386e-05,-2.3558933300000002,9.505201830000662e-05,1.5709293699999998,0.7859572634999998,0.0399999662,0.0399999581,-9.817893799999988,-0.006790185859436695,-0.001859671310006616,0.0009416114500024618,-0.009102734876798253,0.0007644661165019748
0.22,0.00010949774199979825,-0.7848728999999994,-3.452803940026034e-05,-2.3558973200000004,9.51357432000067e-05,1.5709271799999998,0.7859552639999998,0.0399999668,0.0399999584,-9.817722199999986,-0.006915312446663794,-0.0019432867400066922,0.0009727234000024901,-0.009124712646009218,0.0007894242460019976
0.2225,0.00010697691099979595,-0.7848652199999994,-3.7780867700263306e-05,-2.35590131,9.521946810000678e-05,1.5709249899999997,0.7859532644999998,0.0399999674,0.039999958700000005,-9.817550599999986,-0.0070404390338908935,-0.0020269021700067683,0.0010038353500025183,-0.009146690415220184,0.0008143823755020203
0.225,0.00010445607999979366,-0.7848575399999994,-4.103369600026626e-05,-2.3559053000000003,9.530319300000685e-05,1.5709227999999997,0.7859512649999999,0.039999968000000004,0.039999959,-9.817378999999987,-0.007165565621117993,-0.0021105176000068447,0.0010349473000025467,-0.009168668184431149,0.0008393405050020431
0.2275,0.00010193524899979136,-0.7848498599999993,-4.4286524300269225e-05,-2.35590929,9.538691790000694e-05,1.5709206099999997,0.7859492654999999,0.0399999686,0.0399999593,-9.817207399999987,-0.007290692208345091,-0.0021941330300069206,0.001066059250002575,-0.009190645953642114,0.0008642986345020658
0.23,9.941441799978906e-05,-0.7848421799999994,-4.753935260027219e-05,-2.35591328,9.547064280000701e-05,1.5709184199999997,0.7859472659999999,0.0399999692,0.0399999596,-9.817035799999987,-0.00741581879557219,-0.002277748460006997,0.0010971712000026033,-0.009212623722853079,0.0008892567640020884
0.2325,9.689358699978677e-05,-0.7848344999999993,-5.0792180900275145e-05,-2.3559172700000004,9.555436770000708e-05,1.5709162299999997,0.7859452664999999,0.0399999698,0.0399999599,-9.816864199999987,-0.007540945382799289,-0.0023613638900070733,0.0011282831500026317,-0.009234601492064044,0.0009142148935021112
0.23500000000000001,9.402864059974034e-05,-0.7848268759999993,-5.448623170033469e-05,-2.35592068,9.564914790000858e-05,1.5709136699999997,0.7859430699999999,0.03999997,0.0399999598,-9.816763099999996,-0.007678036298614983,-0.0024425398300068363,0.0011619268000029846,-0.009252637624741954,0.000941256073002401
0.23750000000000002,9.099163649973758e-05,-0.7848192799999993,-5.840089375033826e-05,-2.3559238000000002,9.574945575000868e-05,1.5709109249999997,0.7859407749999998,0.03999997,0.0399999595,-9.816697249999995,-0.007821109378722688,-0.0025224960250069092,0.0011968363000030165,-0.009268702939154088,0.0009693387775024266
0.24,8.795463239973485e-05,-0.7848116839999993,-6.231555580034177e-05,-2.3559269200000004,9.584976360000876e-05,1.5709081799999998,0.7859384799999998,0.03999997,0.039999959200000004,-9.816631399999995,-0.00796418245883039,-0.002602452220006981,0.0012317458000030478,-0.009284768253566222,0.000997421482002452
0.2425,8.49176282997321e-05,-0.7848040879999993,-6.623021785034534e-05,-2.35593004,9.595007145000885e-05,1.5709054349999998,0.7859361849999998,0.03999997,0.0399999589,-9.816565549999995,-0.008107255538938096,-0.0026824084150070537,0.0012666553000030797,-0.009300833567978357,0.0010255041865024775
0.245,8.188062419972932e-05,-0.7847964919999993,-7.014487990034891e-05,-2.35593316,9.605037930000894e-05,1.5709026899999998,0.7859338899999998,0.03999997,0.0399999586,-9.816499699999994,-0.008250328619045802,-0.0027623646100071266,0.0013015648000031113,-0.009316898882390491,0.001053586891002503
0.2475,7.884362009972655e-05,-0.7847888959999993,-7.405954195035246e-05,-2.3559362800000003,9.615068715000903e-05,1.5708999449999999,0.7859315949999999,0.03999997,0.0399999583,-9.816433849999994,-0.008393401699153506,-0.002842320805007199,0.0013364743000031432,-0.009332964196802625,0.0010816695955025285
0.25,7.580661599967165e-05,-0.7847812999999993,-7.797420400042283e-05,-2.3559394000000005,9.625099500001079e-05,1.5708971999999999,0.7859292999999998,0.03999997,0.039999958,-9.816367999999986,-0.008536474779259269,-0.002922277000007089,0.0013713838000034772,-0.00934902951121397,0.001109752300002821
0.2525,7.219636934971762e-05,-0.7847737324999994,-8.262338590036364e-05,-2.3559422650000004,9.636955575000927e-05,1.5708940949999999,0.7859265099999998,0.039999970450000005,0.0399999583,-9.816211249999988,-0.008658184064561675,-0.0030002189800060965,0.0014096158450029905,-0.009356414806098317,0.001140770455002426
0.255,6.858612269976358e-05,-0.7847661649999995,-8.727256780030446e-05,-2.3559451300000003,9.648811650000776e-05,1.5708909899999999,0.7859237199999999,0.0399999709,0.0399999586,-9.81605449999999,-0.008779893349864079,-0.003078160960005104,0.0014478478900025035,-0.009363800100982663,0.0011717886100020313
0.2575,6.497587604980955e-05,-0.7847585974999997,-9.192174970024526e-05,-2.355947995,9.660667725000626e-05,1.5708878849999999,0.7859209299999999,0.03999997135,0.0399999589,-9.815897749999992,-0.008901602635166485,-0.003156102940004112,0.0014860799350020167,-0.00937118539586701,0.0012028067650016363
0.26,6.136562939985551e-05,-0.7847510299999997,-9.657093160018606e-05,-2.35595086,9.672523800000475e-05,1.5708847799999999,0.7859181399999999,0.0399999718,0.039999959200000004,-9.815740999999994,-0.009023311920468891,-0.0032340449200031194,0.00152431198000153,-0.009378570690751355,0.0012338249200012413
0.2625,5.775538274990148e-05,-0.7847434624999998,-0.00010122011350012687,-2.355953725,9.684379875000323e-05,1.5708816749999999,0.7859153499999999,0.03999997225,0.0399999595,-9.815584249999995,-0.009145021205771296,-0.003311986900002127,0.0015625440250010432,-0.009385955985635701,0.0012648430750008463
0.265,5.4145136099947444e-05,-0.7847358949999999,-0.00010586929540006769,-2.35595659,9.696235950000172e-05,1.5708785699999999,0.78591256,0.039999972700000004,0.0399999598,-9.815427499999997,-0.009266730491073702,-0.003389928880001135,0.0016007760700005565,-0.009393341280520048,0.0012958612300004516
0.2675,5.032442499993439e-05,-0.7847283024999998,-0.00011078800750008443,-2.355959155,9.708764620000215e-05,1.5708753199999999,0.7859096149999999,0.039999973,0.03999996,-9.815303099999998,-0.009395785583185382,-0.0034697679250012938,0.0016403879650006552,-0.009398594172671425,0.001327920510000528
0.27,4.6082784999814796e-05,-0.7847206599999996,-0.0001162457800002383,-2.35596112,9.722638480000605e-05,1.5708717799999998,0.7859063599999998,0.039999973,0.03999996,-9.815243399999996,-0.009539532288915216,-0.003553401100003652,0.00168275956000185,-0.009399582259356984,0.0013620620400014907
0.2725,4.18411449996952e-05,-0.7847130174999994,-0.0001217035525003922,-2.355963085,9.736512340000996e-05,1.5708682399999998,0.7859031049999997,0.039999973,0.03999996,-9.815183699999995,-0.009683278994645049,-0.0036370342750060096,0.0017251311550030447,-0.00940057034604254,0.0013962035700024534
0.275,3.759950499957561e-05,-0.7847053749999993,-0.00012716132500054607,-2.35596505,9.750386200001388e-05,1.5708646999999996,0.7858998499999996,0.039999973,0.03999996,-9.815123999999994,-0.009827025700374881,-0.003720667450008368,0.0017675027500042393,-0.009401558432728099,0.0014303451000034159
0.2775,3.3357864999456014e-05,-0.784697732499999,-0.00013261909750069995,-2.3559670150000005,9.764260060001778e-05,1.5708611599999995,0.7858965949999995,0.039999973,0.03999996,-9.815064299999992,-0.009970772406104715,-0.003804300625010726,0.001809874345005434,-0.009402546519413657,0.0014644866300043786
0.28,2.9116224999336423e-05,-0.7846900899999988,-0.00013807687000085385,-2.3559689800000005,9.77813392000217e-05,1.5708576199999995,0.7858933399999994,0.039999973,0.03999996,-9.815004599999991,-0.010114519111834547,-0.003887933800013084,0.0018522459400066287,-0.009403534606099214,0.0014986281600053413
0.28250000000000003,2.487458499921683e-05,-0.7846824474999986,-0.00014353464250100773,-2.3559709450000006,9.792007780002562e-05,1.5708540799999993,0.7858900849999993,0.039999973,0.03999996,-9.81494489999999,-0.01025826581756438,-0.003971566975015442,0.0018946175350078235,-0.009404522692784772,0.0015327696900063038
0.28500000000000003,2.0172636499084853e-05,-0.7846747249999986,-0.00014958162000117668,-2.3559727400000003,9.807359260002985e-05,1.5708501699999993,0.7858864759999993,0.0399999734,0.03999996,-9.814826699999973,-0.010381119512042337,-0.0040568575300159795,0.0019395377300085712,-0.009399471338836762,0.001569109950006947
0.28750000000000003,1.524053374914765e-05,-0.7846669624999987,-0.00015592320000109596,-2.3559744500000006,9.82344955000278e-05,1.5708460749999993,0.7858826899999993,0.039999974,0.03999996,-9.814679249999974,-0.010493526700903475,-0.0041429767750148835,0.001985732225007983,-0.009391400264574605,0.0016065495750064703
0.29,1.0308430999210554e-05,-0.7846591999999988,-0.00016226478000101507,-2.3559761600000004,9.839539840002575e-05,1.5708419799999993,0.7858789039999994,0.0399999746,0.03999996,-9.814531799999978,-0.010605933889764612,-0.004229096020013785,0.002031926720007394,-0.009383329190312447,0.0016439892000059929
0.2925,5.376328249273351e-06,-0.7846514374999989,-0.00016860636000093433,-2.3559778700000003,9.85563013000237e-05,1.5708378849999993,0.7858751179999994,0.0399999752,0.03999996,-9.81438434999998,-0.010718341078625751,-0.004315215265012688,0.002078121215006806,-0.00937525811605029,0.0016814288250055162
0.295,4.4422549933614437e-07,-0.7846436749999989,-0.00017494794000085358,-2.3559795800000005,9.871720420002166e-05,1.5708337899999996,0.7858713319999995,0.0399999758,0.03999996,-9.814236899999981,-0.01083074826748689,-0.004401334510011592,0.0021243157100062178,-0.009367187041788133,0.0017188684500050394
0.2975,-4.487877250601059e-06,-0.784635912499999,-0.00018128952000077283,-2.3559812900000003,9.88781071000196e-05,1.5708296949999996,0.7858675459999995,0.0399999764,0.03999996,-9.814089449999983,-0.01094315545634803,-0.004487453755010495,0.0021705102050056297,-0.009359115967525975,0.0017563080750045627
0.3,-9.419980000620138e-06,-0.7846281499999991,-0.00018763110000079685,-2.355983,9.903901000002018e-05,1.5708255999999996,0.7858637599999996,0.039999977,0.03999996,-9.813941999999996,-0.011055562645211918,-0.004573573000009318,0.00221670470000548,-0.009351044893263194,0.0017937477000044366
0.3025,-1.5102286000625311e-05,-0.7846201624999991,-0.0001949325630008035,-2.3559839000000005,9.922387450002034e-05,1.5708208599999995,0.7858593859999995,0.039999977,0.039999959700000004,-9.813894299999996,-0.011193173239022714,-0.004658954200009396,0.002266918655005526,-0.009337249957023466,0.0018343993050044735
0.305,-2.0784592000630486e-05,-0.7846121749999991,-0.00020223402600081015,-2.3559848000000003,9.940873900002051e-05,1.5708161199999995,0.7858550119999995,0.039999977,0.0399999594,-9.813846599999996,-0.01133078383283351,-0.004744335400009473,0.0023171326100055716,-0.009323455020783739,0.0018750509100045106
0.3075,-2.6466898000635658e-05,-0.784604187499999,-0.0002095354890008168,-2.3559857,9.959360350002069e-05,1.5708113799999994,0.7858506379999995,0.039999977,0.0399999591,-9.813798899999995,-0.011468394426644305,-0.004829716600009551,0.002367346565005617,-0.009309660084544012,0.0019157025150045475
0.31,-3.214920400064083e-05,-0.7845961999999991,-0.00021683695200082345,-2.3559866,9.977846800002085e-05,1.5708066399999996,0.7858462639999996,0.039999977,0.0399999588,-9.813751199999995,-0.0116060050204551,-0.004915097800009629,0.002417560520005663,-0.009295865148304284,0.0019563541200045844
0.3125,-3.7831510000646e-05,-0.7845882124999991,-0.0002241384150008301,-2.3559875000000003,9.996333250002102e-05,1.5708018999999995,0.7858418899999996,0.039999977,0.0399999585,-9.813703499999995,-0.011743615614265896,-0.005000479000009707,0.0024677744750057086,-0.009282070212064557,0.0019970057250046215
0.315,-4.351381600065118e-05,-0.784580224999999,-0.00023143987800083673,-2.3559884,0.00010014819700002119,1.5707971599999995,0.7858375159999995,0.039999977,0.039999958200000005,-9.813655799999996,-0.011881226208076691,-0.005085860200009784,0.002517988430005754,-0.00926827527582483,0.0020376573300046586
0.3175,-4.946627900074996e-05,-0.784572144999999,-0.00023908689400096314,-2.3559891800000003,0.00010034165850002433,1.5707921849999993,0.7858329399999995,0.03999997715,0.0399999581,-9.813582999999987,-0.012007222278055436,-0.00517276392501039,0.0025695350350062617,-0.009251900343221877,0.0020793448450050545
0.32,-5.5959056000755876e-05,-0.784563879999999,-0.00024742501600097074,-2.35598972,0.00010055231400002453,1.5707867399999993,0.7858279599999994,0.0399999776,0.0399999584,-9.813459999999987,-0.012109989300382125,-0.005262712700010472,0.0026237469400063112,-0.009230365417895153,0.0021231041800050944
0.3225,-6.245183300076178e-05,-0.784555614999999,-0.0002557631380009783,-2.35599026,0.00010076296950002472,1.5707812949999993,0.7858229799999994,0.039999978049999996,0.039999958700000005,-9.813336999999986,-0.012212756322708813,-0.005352661475010553,0.0026779588450063607,-0.009208830492568428,0.0021668635150051342
0.325,-6.894461000076771e-05,-0.784547349999999,-0.0002641012600009859,-2.3559908000000003,0.0001009736250000249,1.5707758499999993,0.7858179999999995,0.0399999785,0.039999959,-9.813213999999986,-0.012315523345035502,-0.005442610250010635,0.0027321707500064098,-0.009187295567241703,0.002210622850005174
0.3275,-7.543738700077361e-05,-0.784539084999999,-0.0002724393820009935,-2.35599134,0.0001011842805000251,1.5707704049999993,0.7858130199999994,0.03999997895,0.0399999593,-9.813090999999986,-0.01241829036736219,-0.005532559025010717,0.0027863826550064592,-0.009165760641914978,0.002254382185005214
0.33,-8.193016400077953e-05,-0.784530819999999,-0.0002807775040010011,-2.35599188,0.00010139493600002529,1.5707649599999993,0.7858080399999994,0.039999979399999996,0.0399999596,-9.812967999999985,-0.012521057389688879,-0.0056225078000107995,0.0028405945600065087,-0.009144225716588255,0.0022981415200052538
0.3325,-8.842294100078543e-05,-0.784522554999999,-0.0002891156260010087,-2.35599242,0.00010160559150002547,1.5707595149999993,0.7858030599999993,0.03999997985,0.0399999599,-9.812844999999985,-0.012623824412015566,-0.005712456575010881,0.002894806465006558,-0.00912269079126153,0.0023419008550052936
0.335,-9.549646300089752e-05,-0.784514069999999,-0.00029819635000115206,-2.3559924,0.00010183467040002904,1.5707535699999993,0.7857976499999993,0.0399999797,0.0399999598,-9.812768299999993,-0.012732104584588204,-0.005806401850011694,0.0029517108300070997,-0.009097524359818941,0.002387742020005714
0.3375,-0.00010286035750090422,-0.7845054749999989,-0.00030764837500116065,-2.3559921,0.00010207296100002926,1.5707473749999992,0.7857920249999993,0.03999997925,0.0399999595,-9.812714749999994,-0.01284314133228231,-0.005902345375011781,0.0030099614250071525,-0.009070542175319411,0.002434624100005757
0.34,-0.00011022425200091092,-0.784496879999999,-0.00031710040000116924,-2.3559918,0.00010231125160002947,1.5707411799999993,0.7857863999999993,0.039999978799999995,0.039999959200000004,-9.812661199999994,-0.012954178079976415,-0.005998288900011868,0.003068212020007206,-0.009043559990819882,0.0024815061800057994
0.3425,-0.00011758814650091763,-0.7844882849999989,-0.00032655242500117783,-2.3559915,0.00010254954220002969,1.5707349849999992,0.7857807749999993,0.03999997835,0.0399999589,-9.812607649999993,-0.013065214827670521,-0.006094232425011956,0.0031264626150072587,-0.009016577806320352,0.0025283882600058423
0.34500000000000003,-0.00012495204100092434,-0.7844796899999988,-0.0003360044500011864,-2.3559912,0.00010278783280002991,1.570728789999999,0.7857751499999993,0.0399999779,0.0399999586,-9.812554099999995,-0.013176251575364627,-0.006190175950012043,0.0031847132100073115,-0.008989595621820824,0.0025752703400058847
0.34750000000000003,-0.00013231593550093104,-0.7844710949999989,-0.000345456475001195,-2.3559909,0.00010302612340003013,1.5707225949999992,0.7857695249999993,0.03999997745,0.0399999583,-9.812500549999994,-0.013287288323058734,-0.006286119475012131,0.0032429638050073648,-0.008962613437321293,0.0026221524200059276
0.35000000000000003,-0.0001396798300010564,-0.7844624999999988,-0.00035490850000135534,-2.3559906,0.00010326441400003421,1.5707163999999991,0.7857638999999992,0.039999977,0.039999958,-9.812446999999986,-0.013398325070753898,-0.006382063000012589,0.0033012144000079107,-0.008935631252820807,0.0026690345000064397
0.3525,-0.00014797581700106379,-0.7844534894999988,-0.0003655519975013648,-2.3559900000000003,0.00010353305290003445,1.5707095299999991,0.7857575459999991,0.03999997805,0.0399999583,-9.812334649999986,-0.01351767443122001,-0.0064809239500126774,0.003363336240007966,-0.008901140140365056,0.002719605725006485
0.355,-0.00015627180400107135,-0.7844444789999988,-0.0003761954950013745,-2.3559894,0.0001038016918000347,1.5707026599999991,0.7857511919999992,0.0399999791,0.0399999586,-9.812222299999986,-0.013637023791686123,-0.006579784900012767,0.0034254580800080225,-0.008866649027909306,0.002770176950006531
0.3575,-0.0001645677910010789,-0.7844354684999988,-0.00038683899250138416,-2.3559888,0.00010407033070003494,1.5706957899999991,0.7857448379999992,0.03999998015,0.0399999589,-9.812109949999986,-0.013756373152152238,-0.006678645850012857,0.003487579920008079,-0.008832157915453553,0.002820748175006577
0.36,-0.00017286377800108645,-0.7844264579999988,-0.00039748249000139384,-2.3559882,0.00010433896960003518,1.5706889199999992,0.7857384839999992,0.0399999812,0.039999959200000004,-9.811997599999986,-0.01387572251261835,-0.006777506800012947,0.0035497017600081356,-0.008797666802997803,0.002871319400006623
0.3625,-0.000181159765001094,-0.7844174474999988,-0.0004081259875014036,-2.3559876,0.00010460760850003543,1.570682049999999,0.7857321299999992,0.03999998225,0.0399999595,-9.811885249999985,-0.013995071873084464,-0.006876367750013037,0.003611823600008192,-0.008763175690542052,0.002921890625006669
0.365,-0.00018945575200110157,-0.7844084369999987,-0.00041876948500141326,-2.355987,0.00010487624740003567,1.570675179999999,0.7857257759999992,0.0399999833,0.0399999598,-9.811772899999985,-0.014114421233550578,-0.006975228700013127,0.0036739454400082487,-0.0087286845780863,0.002972461850006715
0.3675,-0.00019808274450124188,-0.7843992684999987,-0.0004298360340015926,-2.3559861349999998,0.00010515526450004008,1.5706680449999988,0.7857191704999991,0.039999984,0.03999996,-9.811684149999994,-0.014220139570544639,-0.007078900550015146,0.0037374590800088635,-0.008692385302851203,0.0030239860700071435
0.37,-0.00020737174800125033,-0.7843897839999987,-0.00044174868600160345,-2.35598474,0.00010545503800004036,1.570660379999999,0.7857120619999991,0.039999984,0.03999996,-9.811642599999994,-0.014298595860610962,-0.00719219420001525,0.003803756320008924,-0.008652469702059587,0.003077416280007192
0.3725,-0.0002166607515012588,-0.7843802994999987,-0.0004536613380016143,-2.355983345,0.00010575481150004062,1.570652714999999,0.785704953499999,0.039999984,0.03999996,-9.811601049999995,-0.014377052150677283,-0.007305487850015353,0.0038700535600089845,-0.008612554101267971,0.0031308464900072406
0.375,-0.00022594975500126724,-0.7843708149999987,-0.00046557399000162516,-2.35598195,0.00010605458500004089,1.5706450499999989,0.7856978449999991,0.039999984,0.03999996,-9.811559499999994,-0.014455508440743604,-0.007418781500015456,0.003936350800009045,-0.008572638500476354,0.0031842767000072893
0.3775,-0.0002352387585012757,-0.7843613304999987,-0.000477486642001636,-2.355980555,0.00010635435850004117,1.570637384999999,0.785690736499999,0.039999984,0.03999996,-9.811517949999994,-0.014533964730809925,-0.007532075150015559,0.0040026480400091055,-0.008532722899684738,0.0032377069100073376
0.38,-0.00024452776200128415,-0.7843518459999987,-0.0004893992940016468,-2.35597916,0.00010665413200004144,1.570629719999999,0.785683627999999,0.039999984,0.03999996,-9.811476399999993,-0.014612421020876247,-0.007645368800015662,0.004068945280009165,-0.008492807298893122,0.0032911371200073864
0.3825,-0.0002538167655012926,-0.7843423614999987,-0.0005013119460016577,-2.355977765,0.0001069539055000417,1.570622054999999,0.785676519499999,0.039999984,0.03999996,-9.811434849999994,-0.014690877310942568,-0.0077586624500157655,0.004135242520009226,-0.008452891698101506,0.003344567330007435
0.385,-0.0002638084820014487,-0.7843324999999987,-0.0005141224970018572,-2.35597611,0.00010727644900004677,1.570613769999999,0.7856688699999989,0.039999984,0.0399999594,-9.811358099999985,-0.014785869605853683,-0.007873998650016298,0.004204209340009847,-0.008408376015716132,0.0034005577400080217
0.3875,-0.00027415155500145813,-0.7843224499999986,-0.0005273819975018692,-2.355974325,0.00010761037750004707,1.5706051749999987,0.7856609499999988,0.039999984,0.0399999585,-9.811263749999986,-0.014889129903182008,-0.007990356125016404,0.0042745109500099115,-0.008361560292535325,0.0034578282500080737
0.39,-0.00028449462800146755,-0.7843123999999986,-0.0005406414980018813,-2.35597254,0.00010794430600004737,1.5705965799999988,0.7856530299999989,0.039999984,0.0399999576,-9.811169399999986,-0.014992390200510332,-0.00810671360001651,0.004344812560009975,-0.008314744569354517,0.003515098760008126
0.3925,-0.00029483770100147697,-0.7843023499999986,-0.0005539009985018934,-2.355970755,0.00010827823450004769,1.5705879849999989,0.7856451099999988,0.039999984,0.0399999567,-9.811075049999985,-0.015095650497838654,-0.008223071075016616,0.004415114170010039,-0.00826792884617371,0.003572369270008178
0.395,-0.0003051807740014864,-0.7842922999999985,-0.0005671604990019055,-2.3559689699999997,0.00010861216300004798,1.5705793899999987,0.7856371899999989,0.039999984,0.0399999558,-9.810980699999986,-0.015198910795166979,-0.008339428550016723,0.004485415780010103,-0.008221113122992903,0.0036296397800082304
0.3975,-0.0003155238470014958,-0.7842822499999985,-0.0005804199995019175,-2.355967185,0.00010894609150004828,1.5705707949999987,0.7856292699999988,0.039999984,0.039999954899999995,-9.810886349999986,-0.015302171092495303,-0.008455786025016827,0.004555717390010167,-0.008174297399812095,0.0036869102900082824
0.4,-0.00032586692000166747,-0.7842721999999984,-0.000593679500002137,-2.3559653999999997,0.00010928002000005375,1.5705621999999986,0.7856213499999988,0.039999984,0.039999954,-9.810791999999994,-0.015405431389816773,-0.008572143500018956,0.004626019000010821,-0.008127481676630586,0.0037441808000087547
0.4025,-0.0003373248800018342,-0.7842615649999983,-0.0006083633525023507,-2.3559628499999996,0.00010964932510005912,1.5705527799999985,0.7856125869999986,0.0399999849,0.039999954899999995,-9.810750299999993,-0.01546159824357331,-0.008702395175020852,0.004700372350011903,-0.008075838675714183,0.0038043379250096297
0.405,-0.00034878284000200096,-0.7842509299999981,-0.0006230472050025642,-2.3559602999999996,0.0001100186302000645,1.5705433599999983,0.7856038239999985,0.0399999858,0.0399999558,-9.810708599999993,-0.015517765097329848,-0.008832646850022746,0.004774725700012985,-0.008024195674797781,0.003864495050010505
0.40750000000000003,-0.0003602408000021677,-0.7842402949999979,-0.0006377310575027779,-2.3559577499999995,0.00011038793530006987,1.5705339399999982,0.7855950609999983,0.039999986700000004,0.0399999567,-9.810666899999992,-0.015573931951086386,-0.008962898525024642,0.004849079050014067,-0.00797255267388138,0.003924652175011381
0.41000000000000003,-0.00037169876000233445,-0.7842296599999978,-0.0006524149100029916,-2.3559551999999995,0.00011075724040007524,1.5705245199999982,0.7855862979999982,0.0399999876,0.0399999576,-9.810625199999992,-0.015630098804842923,-0.009093150200026538,0.004923432400015149,-0.00792090967296498,0.003984809300012256
0.41250000000000003,-0.0003831567200025012,-0.7842190249999976,-0.0006670987625032053,-2.3559526499999994,0.00011112654550008062,1.570515099999998,0.785577534999998,0.0399999885,0.0399999585,-9.810583499999991,-0.01568626565859946,-0.009223401875028433,0.004997785750016231,-0.007869266672048576,0.004044966425013131
0.41500000000000004,-0.00039461468000266794,-0.7842083899999975,-0.000681782615003419,-2.3559500999999994,0.00011149585060008599,1.570505679999998,0.785568771999998,0.0399999894,0.0399999594,-9.81054179999999,-0.015742432512356,-0.009353653550030329,0.005072139100017313,-0.007817623671132175,0.004105123550014007
0.4175,-0.00040646448600301034,-0.7841975349999973,-0.0006969669975038567,-2.355947364999999,0.00011187755180009687,1.5704959299999977,0.7855597114999977,0.03999999,0.03999996085,-9.81048669999998,-0.015811208076797464,-0.00948558772503224,0.005147819815018666,-0.007763751316801666,0.004166109715014927
0.42,-0.0004190979840028495,-0.7841862399999975,-0.0007131524400036506,-2.3559442599999993,0.00011228404520009169,1.5704855199999976,0.7855500559999978,0.03999999,0.0399999634,-9.810404799999981,-0.01590520106258126,-0.009620886900030517,0.0052261552600176685,-0.007705420255647803,0.004228753960014129
0.4225,-0.0004317314820026886,-0.7841749449999976,-0.0007293378825034445,-2.355941154999999,0.00011269053860008651,1.5704751099999978,0.785540400499998,0.03999999,0.03999996595,-9.810322899999981,-0.01599919404836506,-0.009756186075028794,0.005304490705016671,-0.007647089194493941,0.004291398205013331
0.425,-0.00044436498000252774,-0.7841636499999978,-0.0007455233250032384,-2.3559380499999993,0.00011309703200008133,1.570464699999998,0.7855307449999981,0.03999999,0.039999968500000004,-9.810240999999984,-0.01609318703414886,-0.009891485250027072,0.005382826150015674,-0.007588758133340079,0.004354042450012534
0.4275,-0.0004569984780023669,-0.7841523549999979,-0.0007617087675030324,-2.3559349449999996,0.00011350352540007616,1.570454289999998,0.7855210894999982,0.03999999,0.03999997105,-9.810159099999984,-0.016187180019932655,-0.010026784425025349,0.005461161595014676,-0.007530427072186216,0.004416686695011736
0.43,-0.00046963197600220606,-0.7841410599999981,-0.0007778942100028263,-2.3559318399999993,0.00011391001880007098,1.5704438799999982,0.7855114339999982,0.03999999,0.0399999736,-9.810077199999986,-0.016281173005716455,-0.010162083600023625,0.005539497040013679,-0.007472096011032354,0.004479330940010939
0.4325,-0.00048226547400204525,-0.7841297649999982,-0.0007940796525026202,-2.3559287349999996,0.0001143165122000658,1.5704334699999982,0.7855017784999984,0.03999999,0.03999997615,-9.809995299999986,-0.016375165991500254,-0.010297382775021903,0.005617832485012682,-0.007413764949878492,0.004541975185010141
0.435,-0.0004957229330021949,-0.7841179759999981,-0.0008113174000028112,-2.3559251499999996,0.00011474950300007061,1.5704223999999982,0.7854914939999983,0.0399999905,0.0399999763,-9.80992999999999,-0.01642076931894156,-0.010444415050024197,0.0056988031700130224,-0.007351866690431832,0.004607577940010616
0.4375,-0.0005095923725022075,-0.7841059399999981,-0.0008290813000028273,-2.3559213249999993,0.00011519574250007101,1.5704109999999982,0.7854808949999983,0.03999999125,0.03999997525,-9.80987299999999,-0.016442177817228783,-0.010597313875024335,0.005781091475013097,-0.007288184831840039,0.004674659950010677
0.44,-0.0005234618120022202,-0.7840939039999981,-0.0008468452000028435,-2.3559174999999994,0.00011564198200007143,1.5703995999999982,0.7854702959999983,0.039999992,0.0399999742,-9.80981599999999,-0.016463586315516008,-0.010750212700024474,0.005863379780013172,-0.007224502973248247,0.004741741960010738
0.4425,-0.0005373312515022327,-0.7840818679999981,-0.0008646091000028596,-2.3559136749999996,0.00011608822150007183,1.5703881999999982,0.7854596969999983,0.039999992750000005,0.03999997315,-9.80975899999999,-0.016484994813803232,-0.010903111525024614,0.005945668085013247,-0.007160821114656453,0.004808823970010799
0.445,-0.0005512006910022454,-0.784069831999998,-0.0008823730000028758,-2.3559098499999993,0.00011653446100007224,1.5703767999999982,0.7854490979999983,0.039999993500000004,0.0399999721,-9.80970199999999,-0.016506403312090454,-0.011056010350024752,0.006027956390013322,-0.0070971392560646605,0.0048759059800108605
0.4475,-0.000565070130502258,-0.784057795999998,-0.000900136900002892,-2.3559060249999995,0.00011698070050007264,1.5703653999999982,0.7854384989999982,0.039999994250000004,0.03999997105,-9.80964499999999,-0.016527811810377678,-0.011208909175024892,0.006110244695013397,-0.007033457397472867,0.004942987990010922
0.45,-0.0005789395700024827,-0.7840457599999979,-0.0009179008000031791,-2.355902199999999,0.00011742694000007982,1.570353999999998,0.7854278999999981,0.039999995,0.03999997,-9.809587999999989,-0.016549220308672872,-0.011361808000026043,0.006192533000014123,-0.0069697755388801385,0.00501007000001145
0.4525,-0.0005941048685024965,-0.7840329559999979,-0.0009373195750031968,-2.3558978049999992,0.00011791450450008026,1.570341534999998,0.7854163259999981,0.03999999575,0.039999970450000005,-9.809522149999989,-0.01661929665134505,-0.011520884950026187,0.0062788006400142015,-0.006900377431872931,0.005080010650011514
0.455,-0.0006092701670025103,-0.7840201519999979,-0.0009567383500032145,-2.3558934099999993,0.00011840206900008071,1.5703290699999979,0.785404751999998,0.0399999965,0.0399999709,-9.809456299999988,-0.01668937299401723,-0.011679961900026332,0.006365068280014281,-0.006830979324865722,0.005149951300011578
0.4575,-0.0006244354655025241,-0.7840073479999979,-0.0009761571250032321,-2.3558890149999994,0.00011888963350008115,1.570316604999998,0.7853931779999981,0.03999999725,0.03999997135,-9.809390449999988,-0.016759449336689408,-0.011839038850026478,0.006451335920014359,-0.006761581217858514,0.005219891950011641
0.46,-0.0006396007640025379,-0.7839945439999979,-0.0009955759000032497,-2.3558846199999994,0.00011937719800008159,1.570304139999998,0.7853816039999981,0.039999998,0.0399999718,-9.80932459999999,-0.016829525679361586,-0.011998115800026622,0.006537603560014437,-0.006692183110851306,0.005289832600011705
0.4625,-0.0006547660625025517,-0.7839817399999979,-0.0010149946750032674,-2.3558802249999995,0.00011986476250008204,1.5702916749999978,0.785370029999998,0.03999999875,0.03999997225,-9.809258749999989,-0.016899602022033767,-0.012157192750026767,0.006623871200014516,-0.006622785003844098,0.005359773250011768
0.465,-0.0006699313610025655,-0.7839689359999978,-0.0010344134500032852,-2.355875829999999,0.00012035232700008248,1.5702792099999978,0.7853584559999981,0.0399999995,0.039999972700000004,-9.809192899999989,-0.016969678364705944,-0.012316269700026913,0.006710138840014594,-0.00655338689683689,0.0054297139000118325
0.4675,-0.0006855484270028099,-0.7839558499999977,-0.0010544090800035971,-2.355871219999999,0.00012085428650009027,1.5702663749999977,0.7853465349999978,0.04,0.03999997265,-9.809133849999991,-0.017015766352414738,-0.012480880600029881,0.006797718395015343,-0.006482312432477581,0.005500817000012489
0.47000000000000003,-0.0007020690280028249,-0.7839421999999977,-0.0010755584200036164,-2.355866179999999,0.00012138503600009076,1.5702527999999976,0.7853339199999979,0.04,0.0399999716,-9.809088399999991,-0.017013877630233418,-0.01265655940003004,0.006887921780015425,-0.0064078852534166335,0.005574245000012556
0.47250000000000003,-0.00071858962900284,-0.7839285499999977,-0.0010967077600036357,-2.355861139999999,0.00012191578550009124,1.5702392249999977,0.7853213049999979,0.04,0.03999997055,-9.809042949999993,-0.017011988908052094,-0.0128322382000302,0.006978125165015506,-0.006333458074355686,0.0056476730000126225
0.47500000000000003,-0.0007351102300028551,-0.7839148999999976,-0.001117857100003655,-2.355856099999999,0.0001224465350000917,1.5702256499999976,0.7853086899999978,0.04,0.039999969499999996,-9.808997499999993,-0.017010100185870774,-0.01300791700003036,0.007068328550015589,-0.006259030895294738,0.00572110100001269
0.47750000000000004,-0.0007516308310028701,-0.7839012499999977,-0.0011390064400036743,-2.355851059999999,0.0001229772845000922,1.5702120749999975,0.7852960749999979,0.04,0.03999996845,-9.808952049999993,-0.01700821146368945,-0.01318359580003052,0.007158531935015671,-0.0061846037162337905,0.005794529000012757
0.48,-0.0007681514320028848,-0.7838875999999977,-0.001160155780003693,-2.355846019999999,0.00012350803400009268,1.5701984999999976,0.7852834599999978,0.04,0.039999967399999996,-9.808906599999993,-0.01700632274150813,-0.013359274600030675,0.007248735320015751,-0.006110176537172844,0.005867957000012822
0.4825,-0.0007846720330028998,-0.7838739499999976,-0.0011813051200037124,-2.355840979999999,0.00012403878350009315,1.5701849249999975,0.7852708449999978,0.04,0.03999996635,-9.808861149999993,-0.017004434019326806,-0.013534953400030835,0.007338938705015833,-0.006035749358111896,0.0059413850000128885
0.485,-0.0008021355000031644,-0.7838596949999975,-0.0012036582700040502,-2.355835499999999,0.00012459968400010163,1.5701705999999973,0.7852575059999976,0.04,0.0399999654,-9.808813899999992,-0.017031893134124534,-0.01371688250003265,0.007431723850016598,-0.005958072701454998,0.006017069800013553
0.4875,-0.0008200704000031806,-0.7838451374999974,-0.001226613325004071,-2.355829799999999,0.00012517566000010214,1.5701558999999974,0.7852438049999976,0.04,0.0399999645,-9.808765749999992,-0.017074026167400173,-0.013901936750032819,0.007525799875016684,-0.005878771306001411,0.006093883000013623
0.49,-0.000838005300003197,-0.7838305799999974,-0.001249568380004092,-2.355824099999999,0.00012575163600010266,1.5701411999999972,0.7852301039999976,0.04,0.0399999636,-9.808717599999992,-0.01711615920067581,-0.014086991000032988,0.007619875900016769,-0.0057994699105478244,0.006170696200013693
0.4925,-0.0008559402000032133,-0.7838160224999974,-0.0012725234350041128,-2.355818399999999,0.0001263276120001032,1.5701264999999973,0.7852164029999975,0.04,0.0399999627,-9.808669449999991,-0.017158292233951447,-0.014272045250033156,0.007713951925016856,-0.005720168515094237,0.006247509400013763
0.495,-0.0008738751000032296,-0.7838014649999974,-0.0012954784900041337,-2.355812699999999,0.00012690358800010373,1.5701117999999974,0.7852027019999975,0.04,0.0399999618,-9.808621299999992,-0.017200425267227086,-0.014457099500033325,0.007808027950016941,-0.00564086711964065,0.006324322600013832
0.4975,-0.0008918100000032459,-0.7837869074999974,-0.0013184335450041546,-2.355806999999999,0.00012747956400010425,1.5700970999999972,0.7851890009999976,0.04,0.0399999609,-9.80857314999999,-0.017242558300502725,-0.014642153750033492,0.007902103975017026,-0.005561565724187063,0.006401135800013903
0.5,-0.0009097449000035301,-0.7837723499999972,-0.0013413886000045174,-2.3558012999999987,0.00012805554000011328,1.570082399999997,0.7851752999999974,0.04,0.03999996,-9.80852499999999,-0.017284691333765857,-0.014827208000037907,0.00799618000001782,-0.005482264328732555,0.0064779490000144374
0.5025000000000001,-0.0009291523500035483,-0.7837568999999972,-0.0013662236800045407,-2.355794954999999,0.00012867820200011384,1.5700664999999971,0.7851604949999973,0.04,0.03999996,-9.80847909999999,-0.01725807152688012,-0.015035606300038102,0.00809413945001791,-0.005397901590898021,0.006557318455014512
0.505,-0.0009485598000035655,-0.7837414499999972,-0.0013910587600045627,-2.355788609999999,0.0001293008640001144,1.5700505999999972,0.7851456899999973,0.04,0.03999996,-9.80843319999999,-0.01723145171999438,-0.015244004600038287,0.008192098900017998,-0.005313538853063491,0.0066366879100145815
0.5075000000000001,-0.0009679672500035836,-0.7837259999999971,-0.001415893840004586,-2.355782264999999,0.00012992352600011496,1.570034699999997,0.7851308849999973,0.04,0.03999996,-9.80838729999999,-0.017204831913108638,-0.015452402900038482,0.008290058350018089,-0.005229176115228957,0.006716057365014656
0.51,-0.000987374700003601,-0.7837105499999971,-0.001440728920004608,-2.355775919999999,0.00013054618800011552,1.570018799999997,0.7851160799999972,0.04,0.03999996,-9.80834139999999,-0.0171782121062229,-0.015660801200038665,0.008388017800018174,-0.005144813377394427,0.0067954268200147265
0.5125,-0.0010067821500036182,-0.7836950999999972,-0.00146556400000463,-2.3557695749999987,0.00013116885000011608,1.570002899999997,0.7851012749999973,0.04,0.03999996,-9.808295499999991,-0.017151592299337163,-0.01586919950003885,0.008485977250018262,-0.005060450639559897,0.006874796275014796
0.515,-0.0010261896000036362,-0.7836796499999972,-0.0014903990800046532,-2.3557632299999987,0.00013179151200011665,1.5699869999999971,0.7850864699999972,0.04,0.03999996,-9.808249599999991,-0.017124972492451422,-0.016077597800039044,0.008583936700018353,-0.004976087901725363,0.006954165730014871
0.5175,-0.0010461071750039416,-0.783663867499997,-0.0015158853300050428,-2.3557566499999987,0.00013243057650012648,1.5699706849999968,0.785071277999997,0.03999999975,0.039999959,-9.808200399999988,-0.017110180109740948,-0.016286771500039668,0.008683157300019152,-0.004890022589808157,0.007034903150015714
0.52,-0.001067045000003961,-0.7836474199999969,-0.0015426739200050678,-2.3557495999999984,0.0001331024460001271,1.5699535399999969,0.785055311999997,0.039999999,0.039999956,-9.80814459999999,-0.017119042575360996,-0.016497496000039864,0.008784900200019248,-0.004800552129728474,0.007118376500015792
0.5225,-0.0010879828250039798,-0.7836309724999969,-0.0015694625100050917,-2.3557425499999987,0.0001337743155001277,1.5699363949999967,0.7850393459999969,0.03999999825,0.039999953,-9.80808879999999,-0.017127905040981044,-0.01670822050004005,0.008886643100019338,-0.0047110816696487945,0.007201849850015866
0.525,-0.0011089206500039992,-0.7836145249999968,-0.0015962511000051167,-2.3557354999999984,0.00013444618500012831,1.5699192499999968,0.7850233799999969,0.0399999975,0.03999995,-9.80803299999999,-0.01713676750660109,-0.016918945000040247,0.008988386000019432,-0.004621611209569111,0.007285323200015944
0.5275,-0.0011298584750040178,-0.7835980774999969,-0.0016230396900051404,-2.3557284499999986,0.00013511805450012893,1.5699021049999966,0.785007413999997,0.03999999675,0.039999947,-9.80797719999999,-0.017145629972221143,-0.017129669500040436,0.009090128900019524,-0.004532140749489431,0.0073687965500160175
0.53,-0.0011507963000040374,-0.7835816299999968,-0.0016498282800051654,-2.355721399999999,0.00013578992400012957,1.5698849599999967,0.7849914479999969,0.039999996,0.039999943999999996,-9.807921399999989,-0.01715449243784119,-0.017340394000040633,0.009191871800019617,-0.004442670289409748,0.007452269900016096
0.5325,-0.001171734125004056,-0.7835651824999967,-0.0016766168700051891,-2.3557143499999986,0.00013646179350013015,1.5698678149999965,0.7849754819999969,0.03999999525,0.039999941,-9.80786559999999,-0.01716335490346124,-0.01755111850004082,0.009293614700019708,-0.0043531998293300685,0.007535743250016169
0.535,-0.0011937300900043844,-0.7835480329999965,-0.0017047562300056085,-2.3557068199999986,0.0001371673610001406,1.5698497899999964,0.7849587099999966,0.0399999939,0.039999938,-9.807823349999994,-0.017125537246453746,-0.01778012360004635,0.009397837150020526,-0.004260797728766079,0.0076209695800167595
0.5375,-0.0012162551250044045,-0.7835305324999966,-0.0017335709750056342,-2.3556990499999984,0.00013788977750014126,1.5698313249999962,0.7849415349999966,0.039999992250000005,0.039999935,-9.807787874999994,-0.017064379528152866,-0.018018269000046563,0.00950329937502062,-0.00416692980796122,0.007707072400016836
0.54,-0.0012387801600044254,-0.7835130319999966,-0.001762385720005661,-2.3556912799999985,0.00013861219400014194,1.5698128599999963,0.7849243599999965,0.0399999906,0.039999932,-9.807752399999993,-0.017003221809851986,-0.018256414400046786,0.00960876160002072,-0.004073061887156358,0.007793175220016916
0.5425,-0.0012613051950044454,-0.7834955314999965,-0.0017912004650056867,-2.3556835099999986,0.00013933461050014256,1.5697943949999964,0.7849071849999966,0.03999998895,0.039999929,-9.807716924999992,-0.016942064091551107,-0.018494559800046998,0.009714223825020813,-0.0039791939663514995,0.007879278040016993
0.545,-0.0012838302300044663,-0.7834780309999966,-0.0018200152100057135,-2.3556757399999984,0.00014005702700014324,1.5697759299999963,0.7848900099999966,0.039999987300000005,0.039999926,-9.807681449999993,-0.016880906373250223,-0.01873270520004722,0.009819686050020912,-0.0038853260455466374,0.007965380860017073
0.5475,-0.0013063552650044864,-0.7834605304999965,-0.0018488299550057392,-2.3556679699999985,0.0001407794435001439,1.5697574649999964,0.7848728349999965,0.03999998565,0.039999923,-9.807645974999993,-0.016819748654949344,-0.018970850600047433,0.009925148275021006,-0.003791458124741779,0.00805148368001715
0.55,-0.0013288803000048362,-0.7834430299999963,-0.0018776447000061858,-2.355660199999998,0.00014150186000015503,1.569738999999996,0.7848556599999963,0.039999984,0.03999992,-9.807610499999988,-0.01675859093665774,-0.01920899600004976,0.010030610500021844,-0.0036975902039360015,0.008137586500017844
0.5525,-0.0013530488400048577,-0.7834244164999963,-0.0019085572400062132,-2.3556516949999984,0.00014227668650015573,1.569719199999996,0.7848372459999963,0.039999984,0.03999991895,-9.80756137499999,-0.016743797436353503,-0.01945767080004998,0.010139771875021941,-0.003599148802439394,0.008226752350017923
0.555,-0.0013772173800048802,-0.7834058029999963,-0.001939469780006242,-2.355643189999998,0.00014305151300015646,1.569699399999996,0.7848188319999962,0.039999984,0.0399999179,-9.80751224999999,-0.01672900393604926,-0.019706345600050214,0.010248933250022043,-0.003500707400942782,0.008315918200018006
0.5575,-0.001401385920004902,-0.7833871894999963,-0.0019703823200062694,-2.3556346849999983,0.00014382633950015713,1.569679599999996,0.7848004179999962,0.039999984,0.03999991685,-9.80746312499999,-0.016714210435745024,-0.019955020400050434,0.01035809462502214,-0.0034022659994461745,0.008405084050018085
0.56,-0.0014255544600049242,-0.7833685759999962,-0.002001294860006298,-2.355626179999998,0.00014460116600015785,1.569659799999996,0.7847820039999962,0.039999984,0.0399999158,-9.807413999999989,-0.016699416935440786,-0.020203695200050668,0.010467256000022242,-0.0033038245979495626,0.008494249900018168
0.5625,-0.001449723000004946,-0.7833499624999962,-0.002032207400006326,-2.355617674999998,0.00014537599250015855,1.569639999999996,0.7847635899999962,0.039999984,0.03999991475,-9.80736487499999,-0.016684623435136547,-0.020452370000050887,0.010576417375022339,-0.0032053831964529555,0.008583415750018248
0.5650000000000001,-0.0014738915400049684,-0.7833313489999962,-0.002063119940006355,-2.3556091699999984,0.00014615081900015928,1.569620199999996,0.7847451759999962,0.039999984,0.0399999137,-9.80731574999999,-0.01666982993483231,-0.02070104480005112,0.010685578750022441,-0.0031069417949563436,0.00867258160001833
0.5675,-0.0014986263750053404,-0.7833123504999959,-0.00209475531000683,-2.355600424999998,0.0001469436440001711,1.5695999249999957,0.7847263249999958,0.0399999843,0.0399999132,-9.807270574999992,-0.016626766603419395,-0.02095807900005652,0.010795958450023293,-0.00300700548102816,0.008762721125019012
0.5700000000000001,-0.0015244938000053647,-0.783292581999996,-0.002127836340006861,-2.355591199999998,0.0001477724660001719,1.5695786999999957,0.7847065999999959,0.039999985200000004,0.0399999138,-9.807233299999993,-0.016527163609841584,-0.021231832000056773,0.010908774800023398,-0.0029040793422395943,0.008854808000019098
0.5725,-0.0015503612250053877,-0.7832728134999959,-0.00216091737000689,-2.355581974999998,0.00014860128800017262,1.5695574749999956,0.7846868749999959,0.0399999861,0.0399999144,-9.807196024999993,-0.016427560616263773,-0.021505585000057018,0.011021591150023498,-0.0028011532034510327,0.00894689487501918
0.5750000000000001,-0.0015762286500054117,-0.7832530449999959,-0.0021939984000069208,-2.355572749999998,0.0001494301100001734,1.5695362499999956,0.7846671499999959,0.039999987,0.039999915000000004,-9.807158749999992,-0.016327957622685962,-0.021779338000057272,0.011134407500023603,-0.002698227064662467,0.009038981750019265
0.5775,-0.0016020960750054347,-0.7832332764999959,-0.0022270794300069505,-2.3555635249999978,0.00015025893200017412,1.5695150249999954,0.7846474249999958,0.0399999879,0.0399999156,-9.807121474999992,-0.016228354629108155,-0.022053091000057517,0.011247223850023703,-0.0025953009258739054,0.009131068625019348
0.58,-0.0016279635000054577,-0.7832135079999959,-0.0022601604600069798,-2.355554299999998,0.00015108775400017485,1.5694937999999954,0.7846276999999958,0.0399999888,0.0399999162,-9.807084199999993,-0.016128751635530344,-0.022326844000057758,0.011360040200023803,-0.002492374787085344,0.009223155500019429
0.5825,-0.001653830925005482,-0.7831937394999958,-0.0022932414900070108,-2.355545074999998,0.00015191657600017563,1.5694725749999954,0.7846079749999958,0.0399999897,0.0399999168,-9.807046924999993,-0.016029148641952533,-0.022600597000058013,0.011472856550023908,-0.002389448648296778,0.009315242375019515
0.585,-0.001680867360005878,-0.7831731789999956,-0.0023278145000075164,-2.3555353999999977,0.00015278257200018822,1.569450449999995,0.7845873599999955,0.03999999,0.039999916600000004,-9.807010549999992,-0.015939853899162894,-0.02288494630006164,0.011588096900024783,-0.0022838984848703387,0.00940934170002024
0.5875,-0.0017084883000059038,-0.7831522224999956,-0.002363133500007549,-2.3555254999999975,0.00015366715500018905,1.5694278749999953,0.7845662999999955,0.03999999,0.039999916,-9.806974624999992,-0.015855713281762416,-0.02317459375006191,0.011704549250024891,-0.0021770363091262093,0.009504447250020328
0.59,-0.0017361092400059283,-0.7831312659999955,-0.0023984525000075806,-2.3555155999999977,0.00015455173800018985,1.5694052999999952,0.7845452399999955,0.03999999,0.0399999154,-9.806938699999993,-0.01577157266436194,-0.02346424120006217,0.011821001600024994,-0.002070174133382084,0.009599552800020412
0.5925,-0.0017637301800059542,-0.7831103094999955,-0.0024337715000076134,-2.355505699999998,0.00015543632100019068,1.5693827249999952,0.7845241799999955,0.03999999,0.0399999148,-9.806902774999992,-0.015687432046961464,-0.02375388865006244,0.011937453950025103,-0.0019633119576379547,0.0096946583500205
0.595,-0.0017913511200059787,-0.7830893529999955,-0.002469090500007645,-2.3554957999999977,0.00015632090400019146,1.5693601499999952,0.7845031199999954,0.03999999,0.0399999142,-9.806866849999992,-0.01560329142956099,-0.024043536100062695,0.012053906300025206,-0.0018564497818938297,0.009789763900020586
0.5975,-0.0018189720600060044,-0.7830683964999955,-0.0025044095000076776,-2.355485899999998,0.00015720548700019229,1.5693375749999952,0.7844820599999954,0.03999999,0.0399999136,-9.806830924999991,-0.01551915081216051,-0.024333183550062965,0.012170358650025314,-0.0017495876061497002,0.009884869450020674
0.6,-0.0018465930000064234,-0.7830474399999952,-0.0025397285000082126,-2.3554759999999977,0.0001580900700002056,1.5693149999999947,0.7844609999999951,0.03999999,0.039999913,-9.806794999999992,-0.01543501019476404,-0.024622831000066635,0.012286811000026193,-0.0016427254304046861,0.009979975000021407
0.6025,-0.0018760211850064508,-0.7830252849999951,-0.0025773539750082474,-2.3554652599999977,0.0001590321330002065,1.5692908949999946,0.784438589999995,0.0399999915,0.03999991405,-9.806766049999993,-0.015369222592547969,-0.02492810920006692,0.012406809950026304,-0.0015317897719552777,0.010078048750021499
0.605,-0.0019054493700064769,-0.7830031299999951,-0.002614979450008281,-2.3554545199999977,0.00015997419600020734,1.5692667899999946,0.784416179999995,0.039999993,0.0399999151,-9.806737099999992,-0.015303434990331901,-0.02523338740006719,0.012526808900026411,-0.0014208541135058742,0.010176122500021586
0.6075,-0.0019348775550065043,-0.7829809749999951,-0.0026526049250083163,-2.3554437799999977,0.0001609162590002082,1.5692426849999945,0.784393769999995,0.0399999945,0.03999991615,-9.806708149999993,-0.01523764738811583,-0.025538665600067473,0.012646807850026523,-0.0013099184550564658,0.010274196250021676
0.61,-0.0019643057400065304,-0.7829588199999951,-0.0026902304000083494,-2.3554330399999976,0.00016185832200020904,1.5692185799999947,0.784371359999995,0.039999996,0.0399999172,-9.806679199999992,-0.015171859785899761,-0.025843943800067746,0.012766806800026629,-0.0011989827966070621,0.010372270000021763
0.6125,-0.001993733925006558,-0.782936664999995,-0.0027278558750083847,-2.3554222999999976,0.00016280038500020994,1.5691944749999946,0.784348949999995,0.0399999975,0.03999991825,-9.806650249999993,-0.01510607218368369,-0.026149222000068032,0.012886805750026742,-0.0010880471381576537,0.010470343750021855
0.615,-0.002023162110006584,-0.782914509999995,-0.0027654813500084183,-2.3554115599999976,0.00016374244800021077,1.5691703699999946,0.784326539999995,0.039999999,0.0399999193,-9.806621299999993,-0.015040284581467622,-0.0264545002000683,0.013006804700026848,-0.0009771114797082502,0.010568417500021942
0.6175,-0.0020532102800070295,-0.7828919404999947,-0.0028038981250089866,-2.3554005699999974,0.00016470422500022494,1.569145754999994,0.7843036499999947,0.04,0.03999991985,-9.80658694999999,-0.014943572971934148,-0.026768067150074175,0.013127938800027725,-0.000864716266343238,0.010667470100022693
0.62,-0.002084498420007057,-0.7828685419999947,-0.002843897500009022,-2.3553890799999975,0.00016570543000022582,1.5691201199999942,0.7842797999999946,0.04,0.0399999194,-9.806541799999989,-0.014785013347828318,-0.027098211600074466,0.013251343200027835,-0.0007494019431499705,0.010768480400022784
0.6225,-0.0021157865600070864,-0.7828451434999947,-0.0028838968750090595,-2.355377589999997,0.00016670663500022677,1.5690944849999942,0.7842559499999946,0.04,0.039999918950000005,-9.806496649999989,-0.014626453723722479,-0.02742835605007477,0.01337474760002795,-0.0006340876199566979,0.010869490700022877
0.625,-0.002147074700007114,-0.7828217449999947,-0.002923896250009095,-2.3553660999999972,0.00016770784000022765,1.569068849999994,0.7842320999999945,0.04,0.0399999185,-9.806451499999989,-0.014467894099616649,-0.027758500500075067,0.013498152000028059,-0.0005187732967634306,0.010970501000022968
0.6275000000000001,-0.0021783628400071434,-0.7827983464999946,-0.0029638956250091324,-2.3553546099999974,0.0001687090450002286,1.5690432149999942,0.7842082499999945,0.04,0.03999991805,-9.806406349999989,-0.01430933447551081,-0.028088644950075372,0.013621556400028174,-0.00040345897357015807,0.011071511300023061
0.63,-0.002209650980007171,-0.7827749479999946,-0.003003895000009168,-2.3553431199999975,0.00016971025000022948,1.5690175799999941,0.7841843999999946,0.04,0.039999917600000004,-9.806361199999989,-0.01415077485140498,-0.028418789400075667,0.013744960800028284,-0.00028814465037689063,0.011172521600023152
0.6325000000000001,-0.0022409391200072003,-0.7827515494999946,-0.0030438943750092052,-2.355331629999997,0.0001707114550002304,1.568991944999994,0.7841605499999945,0.04,0.03999991715,-9.806316049999989,-0.013992215227299142,-0.028748933850075972,0.013868365200028399,-0.0001728303271836181,0.011273531900023245
0.635,-0.0022735019400076696,-0.7827272349999942,-0.0030855205200098043,-2.3553196199999973,0.00017175320300024535,1.5689652999999937,0.7841357399999941,0.04,0.039999917,-9.806276599999991,-0.01387062054125067,-0.029085007800078323,0.013994103800029318,-5.4983397394293035e-05,0.011376502400024014
0.6375000000000001,-0.002306702100007701,-0.7827024624999942,-0.003127960050009844,-2.3553073499999972,0.00017281522250024635,1.5689381499999937,0.7841104499999941,0.04,0.039999917,-9.80623999999999,-0.013767508324211709,-0.029424046500078637,0.014121009500029435,6.412983569175306e-05,0.01148045300002411
0.64,-0.0023399022600077302,-0.7826776899999942,-0.0031703995800098817,-2.355295079999997,0.00017387724200024728,1.5689109999999937,0.7840851599999941,0.04,0.039999917,-9.80620339999999,-0.013664396107172752,-0.029763085200078938,0.014247915200029548,0.00018324306877779385,0.011584403600024204
0.6425,-0.0023731024200077597,-0.7826529174999942,-0.0032128391100099195,-2.355282809999997,0.00017493926150024823,1.5688838499999938,0.7840598699999941,0.04,0.039999917,-9.80616679999999,-0.013561283890133795,-0.030102123900079242,0.014374820900029662,0.00030235630186383465,0.011688354200024295
0.645,-0.002406302580007791,-0.7826281449999942,-0.003255278640009959,-2.355270539999997,0.0001760012810002492,1.5688566999999938,0.784034579999994,0.04,0.039999917,-9.806130199999991,-0.013458171673094835,-0.030441162600079556,0.014501726600029779,0.0004214695349498808,0.011792304800024392
0.6475,-0.0024395027400078203,-0.7826033724999941,-0.0032977181700099964,-2.355258269999997,0.00017706330050025015,1.5688295499999936,0.7840092899999941,0.04,0.039999917,-9.80609359999999,-0.013355059456055878,-0.030780201300079857,0.014628632300029892,0.0005405827680359216,0.011896255400024484
0.65,-0.0024727029000083155,-0.7825785999999938,-0.0033401577000106283,-2.355245999999997,0.000178125320000266,1.5688023999999932,0.7839839999999937,0.04,0.039999917,-9.806056999999994,-0.013251947238993634,-0.031119240000090365,0.014755538000030795,0.0006596960011228203,0.012000206000025293
0.6525,-0.0025078660650083465,-0.7825524999999938,-0.0033851022450106685,-2.355232919999997,0.00017925014750026698,1.5687736449999932,0.7839572249999937,0.03999999925,0.03999991445,-9.806036299999993,-0.01305037867273073,-0.031501372500090705,0.01488575810003091,0.0007824149128573394,0.012107169350025388
0.655,-0.0025430292300083796,-0.7825263999999937,-0.0034300467900107105,-2.355219839999997,0.00018037497500026804,1.5687448899999932,0.7839304499999936,0.0399999985,0.039999911900000004,-9.806015599999995,-0.012848810106467818,-0.03188350500009106,0.015015978200031031,0.0009051338245918638,0.012214132700025488
0.6575,-0.0025781923950084105,-0.7825002999999938,-0.0034749913350107502,-2.355206759999997,0.00018149980250026904,1.5687161349999932,0.7839036749999936,0.03999999775,0.03999990935,-9.805994899999995,-0.012647241540204912,-0.0322656375000914,0.015146198300031147,0.0010278527363263828,0.012321096050025583
0.66,-0.002613355560008443,-0.7824741999999938,-0.003519935880010792,-2.355193679999997,0.0001826246300002701,1.5686873799999932,0.7838768999999935,0.039999997,0.0399999068,-9.805974199999994,-0.012445672973942,-0.03264777000009176,0.015276418400031268,0.0011505716480609072,0.012428059400025683
0.6625,-0.0026485187250084746,-0.7824480999999938,-0.003564880425010832,-2.3551805999999966,0.0001837494575002711,1.5686586249999932,0.7838501249999936,0.03999999625,0.039999904249999996,-9.805953499999994,-0.012244104407679096,-0.0330299025000921,0.015406638500031385,0.0012732905597954262,0.01253502275002578
0.665,-0.0026836818900085073,-0.7824219999999937,-0.003609824970010874,-2.3551675199999966,0.00018487428500027215,1.568629869999993,0.7838233499999936,0.0399999955,0.0399999017,-9.805932799999994,-0.012042535841416183,-0.033412035000092453,0.015536858600031506,0.0013960094715299506,0.012641986100025877
0.6675,-0.0027195160400090273,-0.7823954329999934,-0.0036556257500115377,-2.3551541499999966,0.00018602035900028863,1.5686005599999926,0.7837960579999932,0.03999999525,0.0399999001,-9.80590539999999,-0.011861748434569356,-0.033795031800093425,0.015668167400032414,0.0015200229652998728,0.01274982400002661
0.67,-0.0027566921600090622,-0.7823679319999933,-0.003703139000011582,-2.3551401999999966,0.00018720892600028973,1.5685701399999925,0.7837677319999932,0.039999996,0.039999900399999996,-9.805864599999989,-0.011722523346509322,-0.03417975720009378,0.01580165360003254,0.0016466256231377808,0.012859411000026712
0.6725,-0.002793868280009095,-0.7823404309999933,-0.003750652250011624,-2.3551262499999965,0.0001883974930002908,1.5685397199999926,0.783739405999993,0.03999999675,0.0399999007,-9.80582379999999,-0.011583298258449294,-0.03456448260009413,0.015935139800032656,0.0017732282809756832,0.012968998000026809
0.675,-0.0028310444000091296,-0.7823129299999932,-0.0037981655000116684,-2.3551122999999965,0.0001895860600002919,1.5685092999999926,0.783711079999993,0.0399999975,0.039999901,-9.80578299999999,-0.011444073170389259,-0.03494920800009448,0.016068626000032782,0.0018998309388135912,0.013078585000026913
0.6775,-0.002868220520009163,-0.7822854289999932,-0.0038456787500117107,-2.3550983499999965,0.00019077462700029294,1.5684788799999925,0.783682753999993,0.03999999825,0.039999901299999994,-9.80574219999999,-0.01130484808232923,-0.03533393340009482,0.0162021122000329,0.0020264335966514936,0.01318817200002701
0.68,-0.0029053966400091973,-0.7822579279999933,-0.0038931920000117547,-2.355084399999997,0.00019196319400029404,1.5684484599999924,0.783654427999993,0.039999999,0.0399999016,-9.80570139999999,-0.011165622994269195,-0.035718658800095185,0.016335598400033024,0.002153036254489402,0.013297759000027111
0.6825,-0.0029425727600092305,-0.7822304269999932,-0.003940705250011797,-2.355070449999997,0.0001931517610002951,1.5684180399999925,0.7836261019999929,0.03999999975,0.039999901899999996,-9.80566059999999,-0.011026397906209167,-0.036103384200095526,0.016469084600033143,0.002279638912327304,0.013407346000027208
0.685,-0.002981123460009779,-0.7822019639999929,-0.003989972600012497,-2.3550559799999964,0.0001943841060003126,1.568386509999992,0.7835967399999926,0.04,0.039999900799999995,-9.805626399999992,-0.010815923474667666,-0.0365106194001043,0.016604775300034093,0.0024086583406057157,0.013518864300028032
0.6875,-0.0030203614500098138,-0.7821730199999928,-0.004040117000012541,-2.3550412499999966,0.0001956383400003137,1.568354424999992,0.7835668599999925,0.04,0.039999899,-9.805595499999992,-0.010569824371425297,-0.03692910950010467,0.016741568250034214,0.0025388861541030213,0.013631348250028133
0.6900000000000001,-0.0030595994400098503,-0.7821440759999928,-0.004090261400012589,-2.3550265199999965,0.00019689257400031486,1.568322339999992,0.7835369799999925,0.04,0.0399998972,-9.805564599999993,-0.01032372526818292,-0.03734759960010506,0.01687836120003434,0.0026691139676003326,0.013743832200028238
0.6925,-0.003098837430009885,-0.7821151319999927,-0.004140405800012633,-2.3550117899999963,0.00019814680800031597,1.568290254999992,0.7835070999999925,0.04,0.0399998954,-9.805533699999993,-0.01007762616494055,-0.03776608970010543,0.01701515415003446,0.0027993417810976383,0.013856316150028337
0.6950000000000001,-0.003138075420009922,-0.7820861879999927,-0.0041905502000126795,-2.3549970599999965,0.00019940104200031716,1.568258169999992,0.7834772199999924,0.04,0.0399998936,-9.805502799999992,-0.00983152706169817,-0.03818457980010582,0.01715194710003459,0.00292956959459495,0.013968800100028444
0.6975,-0.0031773134100099567,-0.7820572439999927,-0.004240694600012724,-2.3549823299999963,0.00020065527600031827,1.5682260849999918,0.7834473399999924,0.04,0.0399998918,-9.805471899999992,-0.009585427958455801,-0.03860306990010619,0.017288740050034713,0.0030597974080922557,0.014081284050028543
0.7000000000000001,-0.0032165514000105306,-0.7820282999999922,-0.004290839000013457,-2.354967599999996,0.00020190951000033654,1.5681939999999914,0.783417459999992,0.04,0.03999989,-9.805440999999993,-0.009339328855229811,-0.03902156000011041,0.01742553300003563,0.003190025221590373,0.014193768000029326
0.7025,-0.0032578991400100035,-0.7819978799999926,-0.004343675960012783,-2.3549521199999965,0.00020323084500031968,1.568160189999992,0.7833859719999924,0.04,0.03999989075,-9.805415499999993,-0.009157578460828184,-0.039455093000104885,0.01756544130003385,0.0033234185306677717,0.014308909050027857
0.705,-0.003299246880009476,-0.7819674599999931,-0.004396512920012109,-2.3549366399999965,0.00020455218000030282,1.5681263799999923,0.7833544839999929,0.04,0.0399998915,-9.805389999999994,-0.008975828066426557,-0.039888626000099354,0.017705349600032064,0.0034568118397451707,0.014424050100026389
0.7075,-0.0033405946200089505,-0.7819370399999934,-0.004449349880011438,-2.354921159999997,0.00020587351500028601,1.5680925699999928,0.7833229959999932,0.04,0.03999989225,-9.805364499999994,-0.008794077672024923,-0.040322159000093845,0.017845257900030286,0.003590205148822575,0.014539191150024925
0.71,-0.003381942360008423,-0.7819066199999938,-0.004502186840010764,-2.354905679999997,0.00020719485000026918,1.5680587599999931,0.7832915079999936,0.04,0.039999893,-9.805338999999995,-0.008612327277623295,-0.040755692000088314,0.0179851662000285,0.003723598457899974,0.014654332200023457
0.7125,-0.0034232901000078976,-0.7818761999999941,-0.004555023800010092,-2.354890199999997,0.00020851618500025238,1.5680249499999934,0.7832600199999941,0.04,0.03999989375,-9.805313499999995,-0.008430576883221661,-0.041189225000082805,0.018125074500026723,0.003856991766977378,0.014769473250021993
0.715,-0.00346463784000737,-0.7818457799999945,-0.004607860760009418,-2.354874719999997,0.00020983752000023552,1.567991139999994,0.7832285319999944,0.04,0.0399998945,-9.805287999999996,-0.008248826488820034,-0.04162275800007728,0.018264982800024938,0.003990385076054777,0.014884614300020525
0.7175,-0.0035067045600075974,-0.7818148549999944,-0.004661615110009708,-2.354858899999997,0.00021118172700024273,1.5679567499999938,0.7831964979999942,0.04,0.03999989475,-9.805267574999998,-0.008030614629336939,-0.04206781925008175,0.01840593500002498,0.0041247117100520385,0.015000687350020596
0.72,-0.00355020924000823,-0.7817829199999939,-0.004717204240010516,-2.354842399999997,0.00021257167800026294,1.5679211999999931,0.7831633719999938,0.04,0.039999894,-9.805257299999997,-0.007739479839746648,-0.04253593700008855,0.018548975000027057,0.004260904993887583,0.01511862440002231
0.7225,-0.0035937139200088635,-0.7817509849999934,-0.004772793370011325,-2.3548258999999967,0.00021396162900028318,1.5678856499999927,0.7831302459999933,0.04,0.03999989325,-9.805247024999998,-0.007448345050156344,-0.043004054750095375,0.018692015000029143,0.004397098277723133,0.01523656145002403
0.725,-0.003637218600009496,-0.781719049999993,-0.004828382500012133,-2.354809399999996,0.0002153515800003034,1.5678500999999923,0.7830971199999928,0.04,0.0399998925,-9.805236749999997,-0.007157210260566054,-0.04347217250010218,0.01883505500003122,0.004533291561558676,0.015354498500025742
0.7275,-0.00368072328001013,-0.7816871149999925,-0.004883971630012944,-2.354792899999996,0.00021674153100032366,1.5678145499999916,0.7830639939999923,0.04,0.03999989175,-9.805226474999998,-0.006866075470975751,-0.043940290250108996,0.018978095000033307,0.004669484845394227,0.01547243555002746
0.73,-0.003724227960010762,-0.7816551799999921,-0.0049395607600137515,-2.354776399999996,0.00021813148200034384,1.5677789999999912,0.7830308679999919,0.04,0.039999891,-9.805216199999997,-0.00657494068138546,-0.0444084080001158,0.019121135000035386,0.004805678129229771,0.015590372600029174
0.7325,-0.003767732640011396,-0.7816232449999916,-0.004995149890014562,-2.354759899999996,0.0002195214330003641,1.5677434499999905,0.7829977419999914,0.04,0.03999989025,-9.805205924999997,-0.006283805891795157,-0.04487652575012262,0.019264175000037468,0.00494187141306532,0.015708309650030894
0.735,-0.0038127058800122215,-0.781590269999991,-0.005052613080015616,-2.3547427899999955,0.00022095803800039037,1.5677066899999899,0.7829634999999907,0.04,0.0399998897,-9.805167049999985,-0.00603738874191012,-0.04535410550012896,0.019409200000039043,0.005080765346102579,0.015827966600032224
0.7375,-0.003858413400012264,-0.781556774999991,-0.0051110133000156705,-2.3547253749999952,0.00022241797000039173,1.5676693249999898,0.7829286999999907,0.04,0.039999889250000004,-9.805113874999986,-0.005813330411850856,-0.04583641625012941,0.01955521750003918,0.00522100960373908,0.015948483500032334
0.74,-0.0039041209200123047,-0.7815232799999909,-0.005169413520015722,-2.3547079599999954,0.00022387790200039304,1.5676319599999897,0.7828938999999907,0.04,0.0399998888,-9.805060699999986,-0.005589272081791601,-0.04631872700012984,0.01970123500003931,0.005361253861375575,0.016069000400032445
0.7425,-0.003949828440012348,-0.7814897849999909,-0.0052278137400157765,-2.354690544999995,0.0002253378340003944,1.5675945949999899,0.7828590999999906,0.04,0.03999988835,-9.805007524999986,-0.005365213751732338,-0.04680103775013029,0.019847252500039443,0.005501498119012076,0.016189517300032555
0.745,-0.003995535960012388,-0.7814562899999908,-0.005286213960015829,-2.3546731299999952,0.0002267977660003957,1.5675572299999898,0.7828242999999906,0.04,0.039999887899999996,-9.804954349999985,-0.005141155421673084,-0.04728334850013072,0.019993270000039573,0.00564174237664857,0.01631003420003266
0.7475,-0.004041243480012431,-0.7814227949999909,-0.0053446141800158825,-2.3546557149999954,0.00022825769800039706,1.5675198649999897,0.7827894999999906,0.04,0.03999988745,-9.804901174999985,-0.00491709709161382,-0.04776565925013117,0.02013928750003971,0.005781986634285071,0.016430551100032775
0.75,-0.004086951000013084,-0.7813892999999904,-0.005403014400016717,-2.354638299999995,0.00022971763000041782,1.5674824999999892,0.78275469999999,0.04,0.039999887,-9.804847999999993,-0.004693038761523224,-0.048247970000140965,0.020285305000040655,0.005922230891922411,0.016551068000033593
0.7525000000000001,-0.004134905850013129,-0.7813542074999904,-0.005464282890016775,-2.354620029999995,0.00023124900250041927,1.5674433349999892,0.78271821999999,0.04,0.039999887,-9.804823099999993,-0.0043541086836720875,-0.04876461350014145,0.020434303750040794,0.0060655710054953295,0.016674187550033706
0.755,-0.004182860700013172,-0.7813191149999903,-0.005525551380016829,-2.354601759999995,0.0002327803750004206,1.5674041699999892,0.78268173999999,0.04,0.039999887,-9.804798199999993,-0.004015178605820967,-0.04928125700014191,0.020583302500040927,0.0062089111190682415,0.016797307100033815
0.7575000000000001,-0.004230815550013216,-0.7812840224999903,-0.0055868198700168865,-2.354583489999995,0.00023431174750042206,1.5673650049999892,0.78264525999999,0.04,0.039999887,-9.804773299999994,-0.00367624852796983,-0.049797900500142385,0.020732301250041066,0.0063522512326411595,0.016920426650033932
0.76,-0.004278770400013259,-0.7812489299999903,-0.005648088360016941,-2.3545652199999947,0.0002358431200004234,1.5673258399999892,0.7826087799999899,0.04,0.039999887,-9.804748399999992,-0.0033373184501187094,-0.05031454400014285,0.020881300000041198,0.006495591346214072,0.01704354620003404
0.7625000000000001,-0.0043267252500133035,-0.7812138374999903,-0.005709356850016997,-2.3545469499999947,0.00023737449250042485,1.5672866749999892,0.7825722999999899,0.04,0.039999887,-9.804723499999993,-0.002998388372267573,-0.05083118750014333,0.021030298750041334,0.00663893145978699,0.017166665750034157
0.765,-0.004374680100013346,-0.7811787449999903,-0.005770625340017052,-2.3545286799999947,0.0002389058650004262,1.5672475099999892,0.7825358199999899,0.04,0.039999887,-9.804698599999993,-0.002659458294416452,-0.051347831000143784,0.021179297500041466,0.006782271573359903,0.017289785300034267
0.7675000000000001,-0.004423398770014031,-0.7811431124999898,-0.005832868465017926,-2.3545101349999946,0.00024046149400044794,1.5672077149999886,0.7824987519999893,0.04,0.03999988685,-9.804674499999994,-0.0023437773808084625,-0.05187001400014891,0.021329215400042376,0.006926532159600208,0.017413806450035135
0.77,-0.004473645080014075,-0.7811063999999898,-0.005897060860017983,-2.3544910399999948,0.00024206563600044938,1.5671666599999885,0.7824605079999893,0.04,0.0399998864,-9.804651999999994,-0.0020745947956284133,-0.05240327600014938,0.02148097160004251,0.007072633691172968,0.017539630800035247
0.7725,-0.00452389139001412,-0.7810696874999897,-0.005961253255018039,-2.3544719449999945,0.0002436697780004508,1.5671256049999884,0.7824222639999893,0.04,0.03999988595,-9.804629499999994,-0.0018054122104483642,-0.05293653800014986,0.021632727800042648,0.007218735222745728,0.01766545515003536
0.775,-0.004574137700014167,-0.7810329749999897,-0.006025445650018099,-2.3544528499999946,0.0002452739200004523,1.5670845499999884,0.7823840199999892,0.04,0.0399998855,-9.804606999999994,-0.0015362296252683033,-0.05346980000015035,0.02178448400004279,0.0073648367543184936,0.017791279500035475
0.7775,-0.004624384010014212,-0.7809962624999897,-0.006089638045018156,-2.3544337549999947,0.0002468780620004537,1.5670434949999885,0.7823457759999892,0.04,0.039999885049999996,-9.804584499999994,-0.0012670470400882542,-0.05400306200015083,0.021936240200042922,0.007510938285891253,0.017917103850035587
0.78,-0.004674630320014259,-0.7809595499999896,-0.006153830440018216,-2.3544146599999944,0.0002484822040004552,1.5670024399999885,0.7823075319999891,0.04,0.0399998846,-9.804561999999994,-0.0009978644549081931,-0.05453632400015132,0.022087996400043063,0.007657039817464019,0.018042928200035706
0.7825,-0.004724876630014303,-0.7809228374999896,-0.006218022835018273,-2.3543955649999946,0.00025008634600045664,1.5669613849999884,0.7822692879999891,0.04,0.03999988415,-9.804539499999994,-0.0007286818697281442,-0.0550695860001518,0.022239752600043197,0.00780314134903678,0.018168752550035815
0.785,-0.004776679160015017,-0.780885039999989,-0.0062842008900191836,-2.3543758799999943,0.0002517399940004793,1.5669190699999878,0.7822298609999886,0.04,0.0399998826,-9.804526199999998,-0.0003800310193382397,-0.05562623100016231,0.022393443200044168,0.007950832415414456,0.01829615440003661
0.7875,-0.0048292598000150636,-0.780846699999989,-0.006351371775019244,-2.354355899999994,0.00025341839500048083,1.5668761249999879,0.7821898424999886,0.04,0.0399998805,-9.804517499999998,8.353963605615337e-06,-0.056194567500162815,0.022548101000044306,0.008099318249193565,0.018424345000036726
0.79,-0.004881840440015113,-0.780808359999989,-0.006418542660019306,-2.3543359199999943,0.0002550967960004824,1.5668331799999877,0.7821498239999886,0.04,0.0399998784,-9.804508799999997,0.00039673894654948755,-0.056762904000163344,0.02270275880004445,0.008247804082972677,0.018552535600036845
0.7925,-0.004934421080015159,-0.780770019999989,-0.006485713545019366,-2.354315939999994,0.0002567751970004839,1.5667902349999876,0.7821098054999884,0.04,0.0399998763,-9.804500099999998,0.0007851239294933426,-0.05733124050016385,0.02285741660004459,0.008396289916751783,0.018680726200036957
0.795,-0.0049870017200152085,-0.7807316799999889,-0.006552884430019428,-2.354295959999994,0.00025845359800048546,1.5667472899999877,0.7820697869999884,0.04,0.0399998742,-9.804491399999998,0.001173508912437215,-0.05789957700016438,0.023012074400044734,0.008544775750530897,0.018808916800037077
0.7975,-0.005039582360015255,-0.7806933399999889,-0.006620055315019488,-2.354275979999994,0.0002601319990004869,1.5667043449999876,0.7820297684999884,0.04,0.0399998721,-9.804482699999998,0.00156189389538107,-0.058467913500164885,0.023166732200044872,0.008693261584310004,0.018937107400037193
0.8,-0.005092163000015995,-0.7806549999999883,-0.0066872262000204335,-2.3542559999999937,0.0002618104000005105,1.566661399999987,0.7819897499999878,0.04,0.03999987,-9.804473999999992,0.0019502788783039022,-0.059036250000170064,0.02332139000004582,0.008841747418089936,0.019065298000038065
0.8025,-0.005147119550016044,-0.7806149799999883,-0.006757428900020495,-2.3542349549999937,0.000263564266000512,1.566616459999987,0.7819479374999878,0.0399999985,0.039999867,-9.804444599999993,0.002266376651915738,-0.059620555500170584,0.02347881245004596,0.00899304538038311,0.019196069050038178
0.805,-0.005202076100016095,-0.7805749599999883,-0.006827631600020561,-2.3542139099999937,0.00026531813200051367,1.5665715199999868,0.7819061249999878,0.039999997,0.039999864,-9.804415199999992,0.0025824744255275875,-0.060204861000171125,0.023636234900046106,0.009144343342676293,0.019326840100038302
0.8075,-0.005257032650016144,-0.7805349399999882,-0.006897834300020623,-2.3541928649999937,0.0002670719980005152,1.5665265799999868,0.7818643124999878,0.039999995499999996,0.039999861,-9.804385799999991,0.0028985721991394236,-0.060789166500171646,0.023793657350046245,0.009295641304969467,0.019457611150038415
0.81,-0.005311989200016195,-0.7804949199999882,-0.006968037000020688,-2.3541718199999937,0.00026882586400051684,1.5664816399999868,0.7818224999999878,0.039999994,0.039999858,-9.804356399999993,0.0032146699727512735,-0.06137347200017219,0.023951079800046394,0.009446939267262647,0.01958838220003854
0.8125,-0.005366945750016244,-0.7804548999999882,-0.0070382397000207505,-2.3541507749999937,0.00027057973000051843,1.5664366999999866,0.7817806874999876,0.0399999925,0.039999855,-9.804326999999992,0.003530767746363109,-0.06195777750017271,0.024108502250046532,0.009598237229555821,0.019719153250038656
0.8150000000000001,-0.005421902300016295,-0.7804148799999882,-0.007108442400020816,-2.3541297299999937,0.0002723335960005201,1.5663917599999866,0.7817388749999876,0.039999991,0.039999852,-9.804297599999991,0.0038468655199749586,-0.06254208300017325,0.02426592470004668,0.009749535191849004,0.019849924300038777
0.8175,-0.005477664280017063,-0.7803742749999876,-0.007179672990021796,-2.3541083599999935,0.0002741130745005445,1.566346189999986,0.781696444999987,0.0399999905,0.0399998504,-9.804266249999989,0.0042040532456154855,-0.06313894200018497,0.024424228100047605,0.009901846759067162,0.01998155735003966
0.8200000000000001,-0.0055350371200171165,-0.7803324999999875,-0.0072529593600218645,-2.354086339999993,0.00027594377800054616,1.566299359999986,0.781652779999987,0.039999992,0.039999851600000004,-9.804230999999989,0.00464342087520354,-0.06376090800018555,0.024584293400047755,0.010056185536132587,0.020114914400039787
0.8225,-0.005592409960017167,-0.7802907249999875,-0.0073262457300219295,-2.3540643199999933,0.0002777744815005478,1.5662525299999859,0.781609114999987,0.0399999935,0.0399998528,-9.80419574999999,0.005082788504791576,-0.06438287400018611,0.024744358700047896,0.010210524313198003,0.020248271450039903
0.8250000000000001,-0.005649782800017221,-0.7802489499999875,-0.007399532100021998,-2.3540422999999935,0.00027960518500054954,1.5662056999999858,0.7815654499999869,0.039999995,0.039999854,-9.80416049999999,0.005522156134379631,-0.06500484000018668,0.024904424000048046,0.010364863090263427,0.02038162850004003
0.8275,-0.005707155640017272,-0.7802071749999874,-0.007472818470022063,-2.354020279999993,0.00028143588850055115,1.5661588699999858,0.7815217849999868,0.0399999965,0.039999855200000003,-9.80412524999999,0.005961523763967666,-0.06562680600018723,0.02506448930004819,0.010519201867328843,0.02051498555004015
0.8300000000000001,-0.005764528480017325,-0.7801653999999874,-0.007546104840022131,-2.3539982599999933,0.00028326659200055286,1.5661120399999857,0.7814781199999867,0.039999998,0.0399998564,-9.80408999999999,0.00640089139355572,-0.06624877200018782,0.025224554600048337,0.010673540644394268,0.02064834260004027
0.8325,-0.005821901320017376,-0.7801236249999873,-0.007619391210022196,-2.353976239999993,0.00028509729550055447,1.5660652099999857,0.7814344549999868,0.0399999995,0.0399998576,-9.80405474999999,0.006840259023143756,-0.06687073800018836,0.02538461990004848,0.010827879421459685,0.02078169965004039
0.835,-0.005880911490017629,-0.7800806899999871,-0.007694767000022518,-2.353953569999993,0.0002869799030005624,1.5660170299999856,0.7813895399999865,0.04,0.039999858,-9.804028999999995,0.007262542098882474,-0.06750987340019085,0.02554648140004796,0.010983951389835813,0.020916478500039925
0.8375,-0.005940740325016868,-0.7800371749999877,-0.007771187500021547,-2.3539305749999935,0.00028888846250053814,1.565968174999986,0.7813439999999872,0.04,0.039999858,-9.804007999999994,0.007676282897708205,-0.06815759350018262,0.02570924100004589,0.011140889953866124,0.021051968250038203
