rsonawane2002/My_IMU/logs_2/traj_429/imu_429.csv
time,j1,j2,j3,j4,j5,j6,j7,gripper1,gripper2,imu_ax,imu_ay,imu_az,imu_gx,imu_gy,imu_gz
1967.9333333318723,0.00016700293,-0.785875,4.0107683e-05,-2.3551247,9.29385e-05,1.570997,0.786,0.04,0.04,-9.472192,0.00905737653374672,0.0656284,3.589236e-07,-0.0011641274904832244,4.3991813e-07
1967.949999998539,0.00016700201,-0.78576016,4.0117735e-05,-2.3552213,9.2965325e-05,1.5709941,0.786,0.04,0.04,-9.83433,0.0006429229979403317,0.009124738,-5.570927e-07,-0.0022385178599506617,3.6247206e-07
1967.9666666652056,0.00016697563,-0.7856543,4.014878e-05,-2.35531,9.292952e-05,1.5709913,0.786,0.04,0.04,-9.832565,0.0006147352978587151,0.007517496,-2.7738754e-06,-0.0032282699830830097,-3.5396727e-06
1967.9833333318722,0.00016688228,-0.78555703,4.0236166e-05,-2.355391,9.273286e-05,1.5709884,0.786,0.04,0.04,-9.8306265,0.0005821750382892787,0.0061621163,-8.99556e-06,-0.004140445496886969,-1.4591964e-05
1967.999999998539,0.00016666281,-0.7854676,4.043055e-05,-2.3554652,9.223302e-05,1.5709856,0.786,0.04,0.04,-9.829109,0.000533081591129303,0.0048135472,-2.1013931e-05,-0.004979229066520929,-3.585508e-05
1968.0166666652055,0.00016624207,-0.7853856,4.079628e-05,-2.355532,9.1253125e-05,1.5709827,0.786,0.04,0.04,-9.827493,0.00047301745507866144,0.0036351504,-4.093711e-05,-0.005752381402999163,-7.0099515e-05
1968.0333333318722,0.00016553044,-0.78531057,4.1409967e-05,-2.3555963,8.95902e-05,1.5709798,0.7859981,0.04,0.039999995,-9.826068,0.00039678497705608606,0.0024428065,-7.035457e-05,-0.006458205170929432,-0.00011904602
1968.0499999985389,0.00016442608,-0.785242,4.2359738e-05,-2.3556545,8.697725e-05,1.570977,0.7859962,0.04,0.04,-9.825181,0.0002898365492001176,0.0014017844,-0.00010266896,-0.007123974617570639,-0.00018723583
1968.0666666652055,0.00016281485,-0.78517944,4.374298e-05,-2.3557062,8.315526e-05,1.5709741,0.7859924,0.04,0.04,-9.823903,0.00017267130897380412,0.0003618314,-0.00014858026,-0.007732602301985025,-0.00027427624
1968.0833333318722,0.00016057283,-0.78512275,4.5666173e-05,-2.3557563,7.782875e-05,1.5709713,0.78598857,0.04,0.04,-9.822789,3.128038952127099e-05,-0.000655334,-0.00020127655,-0.008287784643471241,-0.00038275708
1968.0999999985388,0.00015756708,-0.78507173,4.8243488e-05,-2.3558004,7.0680384e-05,1.5709683,0.78598285,0.04,0.04,-9.822138,-0.0001348640362266451,-0.0015310626,-0.00027151202,-0.008811219595372677,-0.0005142166
1968.1166666652055,0.00015365661,-0.78502625,5.1596195e-05,-2.3558428,6.136773e-05,1.5709653,0.7859752,0.039999995,0.04,-9.821107,-0.00033799209631979465,-0.0024210084,-0.0003519712,-0.009285470470786095,-0.0006705677
1968.133333331872,0.00014869348,-0.78498596,5.5851167e-05,-2.3558815,4.9542643e-05,1.570962,0.7859657,0.03999999,0.039999995,-9.820507,-0.0005595322581939399,-0.0031860557,-0.00044495825,-0.009729881770908833,-0.0008522889
1968.1499999985388,0.0001425236,-0.78495085,6.1140796e-05,-2.3559167,3.483724e-05,1.5709553,0.78595406,0.039999988,0.039999988,-9.819826,-0.0008243107586167753,-0.003976718,-0.0005522418,-0.010138318873941898,-0.0010594585
1968.1666666652054,0.00013498783,-0.78492063,6.760195e-05,-2.355951,1.6869817e-05,1.5709486,0.7859392,0.039999984,0.039999984,-9.819191,-0.0011230290401726961,-0.0045893337,-0.00067479,-0.010528800077736378,-0.0012950253
1968.183333331872,0.00012592228,-0.78489524,7.537521e-05,-2.3559818,-4.7500034e-06,1.5709418,0.78592175,0.039999977,0.039999973,-9.818904,-0.0014735101722180843,-0.005337186,-0.0008089244,-0.010896537452936172,-0.001558064
1968.1999999985387,0.00011515938,-0.7848747,8.460483e-05,-2.3560097,-3.042356e-05,1.5709347,0.7859008,0.039999973,0.03999997,-9.818204,-0.0018625198863446712,-0.0059770457,-0.0009594871,-0.011231357231736183,-0.0018509538
1968.2166666652054,0.00010252838,-0.7848591,9.543727e-05,-2.356037,-6.055844e-05,1.5709242,0.78587633,0.03999997,0.039999966,-9.8176985,-0.002317210426554084,-0.0066172387,-0.0011241966,-0.011537052690982819,-0.0021733893
1968.233333331872,8.785602e-05,-0.7848483,0.0001080217,-2.3560636,-9.5568765e-05,1.5709136,0.785848,0.03999997,0.039999966,-9.817477,-0.0028086770325899124,-0.0070765195,-0.0013046219,-0.011838826350867748,-0.0025258074
1968.2499999985387,7.096695e-05,-0.7848422,0.0001225088,-2.3560872,-0.00013587376,1.5709021,0.7858152,0.03999997,0.039999966,-9.817357,-0.0033903426956385374,-0.007697208,-0.0015009707,-0.01212398987263441,-0.0029085737
1968.2666666652053,5.1684314e-05,-0.7848409,0.0001390506,-2.3561091,-0.0001818955,1.5708877,0.7857779,0.039999966,0.039999958,-9.816749,-0.004001515917479992,-0.008183761,-0.0017118377,-0.012381035834550858,-0.00332112
1968.283333331872,2.98302e-05,-0.7848447,0.00015780012,-2.3561292,-0.0002340609,1.5708727,0.7857356,0.03999997,0.03999996,-9.816566,-0.004725918173789978,-0.008656491,-0.0019393539,-0.012630674988031387,-0.0037653449
1968.2999999985386,5.22585e-06,-0.78485334,0.00017891101,-2.3561492,-0.00029279632,1.5708544,0.785688,0.03999997,0.03999996,-9.816144,-0.005488371476531029,-0.009055214,-0.002182126,-0.012856826186180115,-0.004240519
1968.3166666652053,-2.2307615e-05,-0.784867,0.00020253717,-2.3561687,-0.00035852945,1.5708354,0.7856347,0.03999997,0.03999996,-9.816094,-0.006347516551613808,-0.009425228,-0.002440665,-0.013081999495625496,-0.004746704
1968.333333331872,-5.2949155e-05,-0.7848858,0.00022883233,-2.3561878,-0.00043168818,1.5708133,0.78557545,0.03999997,0.03999996,-9.816006,-0.007314777933061123,-0.009879155,-0.002714948,-0.01329369843006134,-0.005283893
1968.3499999985386,-8.6877284e-05,-0.7849098,0.0002579502,-2.356207,-0.00051269936,1.5707898,0.7855098,0.03999997,0.03999996,-9.815869,-0.008334971033036709,-0.010155629,-0.0030049607,-0.013501001521945,-0.005852049
1968.3666666652052,-0.0001242699,-0.7849388,0.0002900436,-2.356226,-0.00060198834,1.5707637,0.7854375,0.039999973,0.039999966,-9.8158655,-0.009484533220529556,-0.0105438605,-0.0033104292,-0.013699207454919815,-0.00645107
1968.3833333318719,-0.00016530407,-0.78497326,0.00032526493,-2.3562436,-0.0006999779,1.5707343,0.7853582,0.039999973,0.03999996,-9.815797,-0.010698641650378704,-0.010820795,-0.0036313052,-0.013894119299948215,-0.007079939
1968.3999999985385,-0.00021015547,-0.78501326,0.00036376534,-2.3562603,-0.0008070894,1.5707031,0.78527147,0.039999973,0.03999996,-9.815625,-0.01206841878592968,-0.011120753,-0.0039676246,-0.014080783352255821,-0.0077402014
1968.4166666652052,-0.00025899865,-0.7850589,0.000405695,-2.3562768,-0.0009237395,1.5706689,0.785177,0.039999973,0.03999996,-9.815388,-0.013497622683644295,-0.011338374,-0.0043191095,-0.014253185130655766,-0.008430774
1968.4333333318718,-0.00031200648,-0.7851103,0.00045120262,-2.356293,-0.0010503414,1.5706314,0.78507435,0.039999977,0.039999966,-9.815403,-0.015088719315826893,-0.011594303,-0.0046854825,-0.01442224346101284,-0.009151399
1968.4499999985385,-0.00036935002,-0.7851675,0.00050043536,-2.3563092,-0.0011873072,1.5705912,0.7849634,0.039999977,0.03999997,-9.815313,-0.016766881570219994,-0.011724298,-0.0050661145,-0.014588266611099243,-0.009903664
1968.4666666652051,-0.00043119886,-0.78523076,0.0005535389,-2.3563254,-0.0013350346,1.5705482,0.78484386,0.039999977,0.03999996,-9.815291,-0.018579846248030663,-0.011948613,-0.005461749,-0.01474745199084282,-0.010680826
1968.4833333318718,-0.00049771974,-0.78530014,0.0006106572,-2.3563418,-0.0014939301,1.5705019,0.78471524,0.039999977,0.03999996,-9.815245,-0.020522156730294228,-0.012046868,-0.005871973,-0.014901990070939064,-0.011490621
1968.4999999985384,-0.0005690777,-0.7853757,0.0006719318,-2.356359,-0.001664386,1.5704521,0.78457725,0.03999998,0.039999973,-9.815264,-0.022640405222773552,-0.0122084,-0.006296309,-0.015052792616188526,-0.012330001
1968.516666665205,-0.0006454353,-0.7854577,0.0007375027,-2.3563766,-0.0018467914,1.5703986,0.78442943,0.03999998,0.03999998,-9.815313,-0.02484249696135521,-0.012246903,-0.0067344788,-0.01520511507987976,-0.013198677
1968.5333333318717,-0.00072695286,-0.78554624,0.0008075079,-2.3563945,-0.0020415282,1.5703413,0.7842718,0.03999998,0.039999973,-9.815374,-0.027214767411351204,-0.012373039,-0.0071853213,-0.015355934388935566,-0.01409093
1968.5499999985384,-0.00081378804,-0.7856415,0.00088208285,-2.3564136,-0.0022489743,1.5702804,0.7841038,0.039999984,0.039999984,-9.815346,-0.029722340404987335,-0.012349727,-0.0076503525,-0.015504970215260983,-0.015014062
1968.566666665205,-0.00090609584,-0.78574353,0.0009613613,-2.3564327,-0.0024695,1.5702158,0.78392535,0.039999988,0.039999977,-9.815449,-0.032374508678913116,-0.012376768,-0.008128287,-0.015654930844902992,-0.015960168
1968.5833333318717,-0.0010040284,-0.7858525,0.0010454739,-2.3564517,-0.0027034632,1.5701473,0.783736,0.039999984,0.04,-9.81547,-0.03527664765715599,-0.012440123,-0.008619415,-0.01580119878053665,-0.016939595
1968.5999999985384,-0.0011077356,-0.7859687,0.0011345495,-2.3564708,-0.002951219,1.5700748,0.7835354,0.039999988,0.04,-9.815384,-0.0382109098136425,-0.012371614,-0.0091229575,-0.01594322733581066,-0.017940264
1968.616666665205,-0.0012173635,-0.78609216,0.0012287142,-2.3564904,-0.0032131006,1.5699983,0.78332335,0.039999984,0.039999995,-9.815353,-0.04141487553715706,-0.012353878,-0.009638221,-0.016080234199762344,-0.018967627
1968.6333333318717,-0.0013330565,-0.78622293,0.0013280922,-2.35651,-0.0034894845,1.5699174,0.78309953,0.039999988,0.039999995,-9.815356,-0.04471159353852272,-0.012219518,-0.010165126,-0.016216101124882698,-0.020019442
1968.6499999985383,-0.0014549557,-0.7863613,0.0014328042,-2.35653,-0.0037806982,1.5698323,0.7828638,0.039999988,0.039999995,-9.815309,-0.04826929047703743,-0.01217573,-0.01070379,-0.01634678803384304,-0.021097649
1968.666666665205,-0.0015831982,-0.7865072,0.0015429689,-2.3565505,-0.0040870667,1.5697426,0.7826157,0.039999988,0.039999995,-9.8153,-0.05192146077752113,-0.011972669,-0.011253883,-0.016476396471261978,-0.022199284
1968.6833333318716,-0.0017179186,-0.7866609,0.0016587029,-2.3565724,-0.0044089323,1.5696486,0.7823551,0.03999998,0.039999995,-9.81532,-0.055848415940999985,-0.011880125,-0.011814329,-0.016603825613856316,-0.023326345
1968.6999999985383,-0.0018592488,-0.7868226,0.001780119,-2.3565953,-0.0047466154,1.56955,0.7820818,0.039999973,0.039999995,-9.815422,-0.05987726151943207,-0.011626178,-0.0123853935,-0.01673324964940548,-0.024476565
1968.716666665205,-0.0020073182,-0.7869922,0.0019073283,-2.3566198,-0.005100412,1.5694467,0.78179544,0.03999997,0.039999995,-9.815475,-0.06417129188776016,-0.011479137,-0.012967062,-0.01686112768948078,-0.025648626
1968.7333333318716,-0.002162251,-0.7871702,0.0020404393,-2.3566465,-0.0054706093,1.5693382,0.78149575,0.039999973,0.04,-9.815596,-0.0685860812664032,-0.011204889,-0.013558505,-0.016993414610624313,-0.0268421
1968.7499999985382,-0.0023241702,-0.78735644,0.0021795563,-2.3566732,-0.005857496,1.5692252,0.7811825,0.03999997,0.039999995,-9.815823,-0.07328346371650696,-0.011007682,-0.0141588785,-0.017131324857473373,-0.028057382
1968.7666666652049,-0.0024931952,-0.7875512,0.002324782,-2.3567004,-0.0062613683,1.5691073,0.78085566,0.039999966,0.039999995,-9.81565,-0.07810654491186142,-0.010702644,-0.014768546,-0.017261765897274017,-0.029294664
1968.7833333318715,-0.0026694415,-0.7877544,0.0024762165,-2.3567276,-0.0066825068,1.5689842,0.78051466,0.03999996,0.039999995,-9.815657,-0.0832141861319542,-0.010469113,-0.015387473,-0.017389420419931412,-0.0305526
1968.7999999985382,-0.0028530222,-0.7879664,0.0026339565,-2.3567553,-0.0071211914,1.5688561,0.7801596,0.039999958,0.039999995,-9.815526,-0.08845198899507523,-0.010093272,-0.016013768,-0.017512861639261246,-0.03183059
1968.8166666652048,-0.003044046,-0.7881872,0.0027980967,-2.356784,-0.0075776638,1.5687227,0.7797902,0.03999996,0.04,-9.815441,-0.0939406007528305,-0.009746415,-0.01664905,-0.01763128489255905,-0.033127386
1968.8333333318715,-0.0032426212,-0.78841674,0.0029687283,-2.3568144,-0.0080521675,1.5685842,0.77940613,0.03999996,0.04,-9.815485,-0.0996938943862915,-0.009437244,-0.017292194,-0.017748920246958733,-0.034443337
1968.8499999985381,-0.0034488495,-0.7886553,0.0031459404,-2.3568466,-0.008544972,1.5684401,0.7790072,0.039999958,0.04,-9.815523,-0.10559183359146118,-0.008991204,-0.017942378,-0.01786816492676735,-0.035778705
1968.8666666652048,-0.0036628311,-0.78890306,0.0033298195,-2.356881,-0.009056331,1.5682906,0.77859324,0.03999996,0.04,-9.815681,-0.11179417371749878,-0.008662159,-0.018598936,-0.017991716042160988,-0.03713202
1968.8833333318714,-0.003884663,-0.7891601,0.0035204494,-2.3569152,-0.009586451,1.5681355,0.7781641,0.03999996,0.04,-9.815707,-0.11813342571258545,-0.008157712,-0.019262241,-0.018116731196641922,-0.038502958
1968.899999998538,-0.0041144392,-0.7894265,0.003717909,-2.35695,-0.010135553,1.5679749,0.7777196,0.039999958,0.04,-9.815634,-0.12478829175233841,-0.007804155,-0.019931734,-0.018237415701150894,-0.03989011
1968.9166666652047,-0.004352249,-0.7897024,0.003922278,-2.3569856,-0.010703848,1.5678089,0.7772596,0.039999966,0.04,-9.815411,-0.13158369064331055,-0.0072601084,-0.020607237,-0.018350787460803986,-0.041293647
1968.9333333318714,-0.0045981817,-0.78998774,0.004133629,-2.3570218,-0.011291552,1.5676372,0.77678376,0.03999996,0.04,-9.815372,-0.13872107863426208,-0.006849604,-0.021288075,-0.018460720777511597,-0.04271406
1968.949999998538,-0.0048523173,-0.79028267,0.0043520364,-2.35706,-0.011898868,1.5674596,0.77629226,0.039999958,0.04,-9.81521,-0.14599387347698212,-0.006267896,-0.021973751,-0.018566422164440155,-0.044149864
1968.9666666652047,-0.0051147398,-0.79058725,0.004577571,-2.3571007,-0.012526009,1.5672764,0.77578455,0.03999995,0.04,-9.815289,-0.15360641479492188,-0.005815753,-0.02266523,-0.018674951046705246,-0.045601416
1968.9833333318713,-0.005385528,-0.79090166,0.0048102955,-2.3571427,-0.013173161,1.5670873,0.77526075,0.039999954,0.04,-9.815335,-0.16136673092842102,-0.0052103987,-0.023359984,-0.01878664642572403,-0.0470673
1968.999999998538,-0.0056647523,-0.791226,0.0050502783,-2.3571854,-0.013840467,1.5668924,0.77472067,0.03999995,0.04,-9.815286,-0.16945552825927734,-0.0047459593,-0.024059225,-0.018895305693149567,-0.04854544
1969.0166666652046,-0.005952488,-0.7915605,0.0052975793,-2.3572285,-0.014528112,1.5666914,0.7741641,0.039999947,0.04,-9.815084,-0.1777130365371704,-0.0040921266,-0.024762364,-0.018999958410859108,-0.0500378
1969.0333333318713,-0.006248803,-0.7919046,0.005552257,-2.3572724,-0.015236267,1.5664843,0.7735908,0.039999943,0.04,-9.814908,-0.1863069087266922,-0.0035831155,-0.025468368,-0.01909836381673813,-0.051542975
1969.049999998538,-0.0065537607,-0.79225916,0.0058143674,-2.3573172,-0.015965085,1.5662715,0.7730009,0.03999994,0.04,-9.814674,-0.19506090879440308,-0.0029068058,-0.026177159,-0.019192904233932495,-0.053060472
1969.0666666652046,-0.0068674223,-0.79262364,0.006083965,-2.357365,-0.016714716,1.5660524,0.7723942,0.039999936,0.04,-9.814464,-0.20412026345729828,-0.002281949,-0.026889004,-0.019280845299363136,-0.054589752
1969.0833333318712,-0.007189849,-0.79299855,0.0063610994,-2.3574147,-0.017485308,1.5658271,0.77177036,0.039999932,0.04,-9.814542,-0.21348810195922852,-0.0017438373,-0.027602894,-0.019373422488570213,-0.05613051
1969.099999998538,-0.0075210957,-0.79338366,0.006645819,-2.357465,-0.018276969,1.5655959,0.77112955,0.039999932,0.04,-9.814438,-0.22300484776496887,-0.0010005133,-0.028318096,-0.01946740783751011,-0.057681244
1969.1166666652045,-0.007861216,-0.7937792,0.0069381706,-2.3575158,-0.019089835,1.5653583,0.7704716,0.039999932,0.04,-9.814219,-0.2328941375017166,-0.00046899728,-0.029035162,-0.019555291160941124,-0.05924322
1969.1333333318712,-0.008210258,-0.7941851,0.007238196,-2.3575673,-0.019924045,1.5651144,0.76979613,0.03999993,0.04,-9.813807,-0.24294301867485046,0.00029405672,-0.029753124,-0.019634190946817398,-0.060815748
1969.1499999985379,-0.008568272,-0.79460144,0.007545936,-2.35762,-0.020779712,1.5648645,0.7691036,0.039999925,0.04,-9.813549,-0.25334933400154114,0.00086935516,-0.030471312,-0.019707394763827324,-0.062397536
1969.1666666652045,-0.0089353025,-0.7950284,0.00786143,-2.3576763,-0.021656914,1.5646081,0.7683935,0.03999992,0.04,-9.813225,-0.26391786336898804,0.0016386807,-0.031191055,-0.019774645566940308,-0.06398728
1969.1833333318712,-0.009311386,-0.7954659,0.0081847105,-2.3577337,-0.022555774,1.5643455,0.76766586,0.039999917,0.04,-9.813279,-0.2748745083808899,0.0022547375,-0.031910215,-0.019848600029945374,-0.065586336
1969.1999999985378,-0.009696565,-0.79591405,0.008515811,-2.3577921,-0.023476372,1.5640764,0.76692086,0.039999917,0.04,-9.812912,-0.28597089648246765,0.003019127,-0.03262865,-0.019917689263820648,-0.067191586
1969.2166666652045,-0.010090873,-0.7963728,0.008854763,-2.3578508,-0.024418788,1.5638009,0.76615816,0.039999913,0.04,-9.812585,-0.29746630787849426,0.003621974,-0.033347793,-0.019980138167738914,-0.06880598
1969.233333331871,-0.0104943365,-0.7968423,0.009201592,-2.35791,-0.025383104,1.5635192,0.76537764,0.03999991,0.04,-9.812052,-0.3091026842594147,0.004412256,-0.034066122,-0.02003355696797371,-0.0704263
1969.2499999985378,-0.0109069925,-0.79732245,0.009556328,-2.3579712,-0.026369382,1.5632311,0.7645793,0.03999991,0.04,-9.811639,-0.3211270272731781,0.005026386,-0.034782402,-0.020078245550394058,-0.07205292
1969.2666666652044,-0.011328863,-0.79781324,0.009918987,-2.3580363,-0.027377699,1.5629367,0.7637631,0.039999906,0.04,-9.81126,-0.33332762122154236,0.0058355574,-0.03549707,-0.020120255649089813,-0.07368646
1969.283333331871,-0.011759974,-0.7983149,0.0102895945,-2.3581016,-0.02840811,1.5626355,0.7629291,0.039999895,0.04,-9.811216,-0.34591683745384216,0.006434012,-0.036209516,-0.02016919106245041,-0.07532636
1969.2999999985377,-0.012200349,-0.7988274,0.010668172,-2.3581676,-0.02946066,1.562328,0.76207703,0.0399999,0.04,-9.810555,-0.35863766074180603,0.007226982,-0.036919694,-0.020207472145557404,-0.076968715
1969.3166666652044,-0.0126500055,-0.7993507,0.011054727,-2.3582346,-0.030535398,1.562014,0.761207,0.039999902,0.04,-9.809982,-0.37172454595565796,0.007920024,-0.037626993,-0.020236851647496223,-0.07861878
1969.333333331871,-0.013108952,-0.7998848,0.011449276,-2.3583016,-0.031632386,1.5616933,0.760319,0.0399999,0.04,-9.809495,-0.3851447105407715,0.008519253,-0.03833135,-0.020259398967027664,-0.08027636
1969.3499999985377,-0.013577207,-0.80042976,0.01185183,-2.358372,-0.03275164,1.5613662,0.7594131,0.03999991,0.04,-9.808701,-0.3987008035182953,0.009317778,-0.039032605,-0.020270297303795815,-0.08193544
1969.3666666652043,-0.01405478,-0.8009856,0.012262395,-2.3584447,-0.033893112,1.5610327,0.7584892,0.03999991,0.04,-9.808447,-0.4126298427581787,0.009910372,-0.039730858,-0.02028423361480236,-0.083592944
1969.383333331871,-0.014541678,-0.8015523,0.0126809785,-2.3585181,-0.035056878,1.5606927,0.75754726,0.039999902,0.04,-9.807884,-0.42676645517349243,0.010670448,-0.040424824,-0.02029547467827797,-0.08525413
1969.3999999985376,-0.015037905,-0.80212986,0.013107591,-2.3585923,-0.036242954,1.5603461,0.75658727,0.039999895,0.04,-9.8072195,-0.44128653407096863,0.011233805,-0.041115068,-0.02029772661626339,-0.086919144
1969.4166666652043,-0.015543461,-0.80271834,0.0135422265,-2.358667,-0.037451338,1.559993,0.75560915,0.03999989,0.04,-9.806398,-0.455956369638443,0.011977235,-0.041800674,-0.020290222018957138,-0.08858416
1969.433333331871,-0.016058348,-0.8033178,0.013984889,-2.3587422,-0.03868203,1.5596333,0.754613,0.039999895,0.04,-9.805568,-0.4710198640823364,0.012528318,-0.042481657,-0.020270589739084244,-0.09025106
1969.4499999985376,-0.01658256,-0.8039279,0.014435568,-2.3588223,-0.039935015,1.559267,0.75359875,0.039999884,0.04,-9.804724,-0.4862637519836426,0.013274434,-0.043157462,-0.020243411883711815,-0.091919646
1969.4666666652042,-0.017116098,-0.8045492,0.0148942685,-2.3589032,-0.041210286,1.5588948,0.7525665,0.03999988,0.04,-9.804397,-0.5018980503082275,0.013764977,-0.04382733,-0.020224491134285927,-0.093587324
1969.4833333318709,-0.017658947,-0.8051809,0.015360974,-2.3589845,-0.042507805,1.5585155,0.75151616,0.039999872,0.04,-9.803366,-0.5176964402198792,0.0144563,-0.044491995,-0.020191233605146408,-0.09525558
1969.4999999985375,-0.018211091,-0.80582386,0.015835678,-2.3590665,-0.04382756,1.5581298,0.7504479,0.039999865,0.04,-9.802489,-0.5338754653930664,0.014892707,-0.04515035,-0.02015177346765995,-0.09692348
1969.5166666652042,-0.018772528,-0.8064773,0.016318372,-2.359149,-0.045169536,1.5577377,0.7493615,0.039999858,0.04,-9.801382,-0.550229012966156,0.015575222,-0.045803145,-0.020099779590964317,-0.09859037
1969.5333333318708,-0.019343236,-0.8071417,0.016809039,-2.3592348,-0.04653367,1.5573392,0.7482572,0.039999858,0.04,-9.800348,-0.566960334777832,0.01597896,-0.046448838,-0.020036082714796066,-0.1002556
1969.5499999985375,-0.019923203,-0.8078169,0.017307663,-2.3593233,-0.047919936,1.5569342,0.74713516,0.039999854,0.04,-9.799543,-0.5838951468467712,0.016594417,-0.047087695,-0.01997426711022854,-0.10192008
1969.5666666652041,-0.020512398,-0.8085027,0.017814232,-2.3594122,-0.049328256,1.5565227,0.7459953,0.039999846,0.04,-9.798621,-0.601129412651062,0.017044362,-0.04772012,-0.0199092049151659,-0.10358102
1969.5833333318708,-0.021110801,-0.80919933,0.018328726,-2.3595014,-0.050758623,1.5561048,0.7448375,0.03999984,0.04,-9.797436,-0.618712306022644,0.01737073,-0.048345514,-0.019833574071526527,-0.105241545
1969.5999999985374,-0.021718387,-0.80990654,0.018851114,-2.3595912,-0.052210934,1.5556803,0.74366194,0.039999835,0.04,-9.7960825,-0.6364331841468811,0.017878145,-0.048963323,-0.01974434405565262,-0.10689712
1969.616666665204,-0.02233513,-0.8106246,0.019381372,-2.3596816,-0.053685132,1.5552497,0.7424687,0.039999824,0.04,-9.794807,-0.6545485854148865,0.018156257,-0.04957375,-0.019644051790237427,-0.10854907
1969.6333333318707,-0.022960998,-0.81135315,0.01991949,-2.3597772,-0.055181175,1.5548126,0.7412577,0.03999982,0.04,-9.793371,-0.6728391051292419,0.018611537,-0.050176665,-0.019530246034264565,-0.110197626
1969.6499999985374,-0.023595965,-0.81209236,0.020465422,-2.3598733,-0.056698922,1.5543692,0.74002934,0.039999817,0.04,-9.792584,-0.6915430426597595,0.018808465,-0.05076978,-0.019426826387643814,-0.111841656
1969.666666665204,-0.024239989,-0.8128421,0.021019144,-2.3599699,-0.058238335,1.5539194,0.73878324,0.039999805,0.04,-9.791004,-0.7103784680366516,0.01915479,-0.051355712,-0.019309092313051224,-0.1134816
1969.6833333318707,-0.024893036,-0.81360245,0.021580623,-2.3600671,-0.059799317,1.5534633,0.73751974,0.0399998,0.04,-9.789541,-0.7295778393745422,0.019271042,-0.05193271,-0.01918116956949234,-0.11511548
1969.6999999985374,-0.02555506,-0.81437314,0.022149835,-2.360165,-0.061381776,1.553001,0.7362388,0.039999794,0.04,-9.787863,-0.748961329460144,0.019564956,-0.052501194,-0.019039809703826904,-0.1167443
1969.716666665204,-0.026226023,-0.81515443,0.022726733,-2.3602636,-0.06298559,1.5525326,0.7349406,0.039999787,0.04,-9.786255,-0.7687059044837952,0.019595742,-0.0530605,-0.01888713426887989,-0.11836606
1969.7333333318707,-0.026905889,-0.815946,0.023311282,-2.360367,-0.06461068,1.5520577,0.7336252,0.039999783,0.04,-9.78448,-0.7886224389076233,0.019804604,-0.05361106,-0.018721207976341248,-0.11998199
1969.7499999985373,-0.027594602,-0.81674796,0.023903437,-2.3604712,-0.066256955,1.5515769,0.73229265,0.039999783,0.04,-9.783291,-0.8089447617530823,0.019738529,-0.05415128,-0.018563279882073402,-0.12159197
1969.766666665204,-0.028292118,-0.8175602,0.024503162,-2.360576,-0.067924246,1.5510898,0.73094314,0.039999772,0.04,-9.781388,-0.8293929696083069,0.019817919,-0.05468195,-0.01839277893304825,-0.123194486
1969.7833333318706,-0.0289984,-0.81838244,0.025110412,-2.3606808,-0.06961248,1.5505964,0.72957665,0.039999764,0.04,-9.779498,-0.8502021431922913,0.019655943,-0.05520346,-0.01820949837565422,-0.124789126
1969.7999999985373,-0.029713366,-0.8192148,0.025725154,-2.3607862,-0.07132151,1.5500968,0.72819334,0.039999757,0.04,-9.777405,-0.8711709976196289,0.019619223,-0.05571497,-0.01801312156021595,-0.1263754
1969.816666665204,-0.030436993,-0.82005745,0.026347326,-2.360893,-0.07305123,1.5495914,0.7267933,0.039999753,0.04,-9.775363,-0.8924581408500671,0.019453775,-0.05621675,-0.017805371433496475,-0.12795317
1969.8333333318706,-0.031169204,-0.82091004,0.02697689,-2.3610044,-0.07480149,1.5490799,0.72537667,0.039999746,0.04,-9.773349,-0.9140745401382446,0.019137468,-0.05670832,-0.017586255446076393,-0.12952524
1969.8499999985372,-0.031909943,-0.8217724,0.02761379,-2.3611162,-0.07657211,1.5485628,0.72394353,0.039999742,0.04,-9.771616,-0.9358611702919006,0.018929703,-0.057188403,-0.017373818904161453,-0.13108806
1969.8666666652039,-0.03265915,-0.82264477,0.028257975,-2.3612287,-0.07836303,1.5480394,0.72249377,0.039999742,0.04,-9.769319,-0.957969069480896,0.01843613,-0.05765822,-0.01714569702744484,-0.13264263
1969.8833333318705,-0.033416763,-0.8235271,0.0289094,-2.3613412,-0.080174014,1.5475101,0.72102803,0.039999746,0.04,-9.766962,-0.9801913499832153,0.018114109,-0.058116157,-0.016907935962080956,-0.13418055
1969.8999999985372,-0.034182735,-0.82441896,0.029568003,-2.3614542,-0.08200496,1.546975,0.719546,0.03999973,0.04,-9.764492,-1.0028223991394043,0.017541554,-0.05856533,-0.016654225066304207,-0.13571261
1969.9166666652038,-0.034956984,-0.82532054,0.030233711,-2.3615687,-0.0838557,1.5464342,0.7180481,0.03999973,0.04,-9.761899,-1.0255502462387085,0.017066818,-0.059002984,-0.016387632116675377,-0.13722944
1969.9333333318705,-0.035739448,-0.8262317,0.03090649,-2.3616877,-0.08572607,1.5458876,0.7165343,0.039999716,0.04,-9.7594595,-1.0486786365509033,0.016356505,-0.05943021,-0.016112111508846283,-0.13873848
1969.9499999985371,-0.03653006,-0.8271523,0.031586263,-2.361807,-0.08761592,1.5453353,0.7150048,0.039999705,0.04,-9.757237,-1.0719671249389648,0.015736915,-0.059844777,-0.015842119231820107,-0.14023529
1969.9666666652038,-0.03732873,-0.82808226,0.032272976,-2.361927,-0.08952508,1.5447775,0.7134595,0.039999697,0.04,-9.754509,-1.0955523252487183,0.014834015,-0.060248252,-0.015559028834104538,-0.14172065
1969.9833333318704,-0.038135417,-0.8290217,0.03296657,-2.3620474,-0.091453336,1.5442141,0.71189874,0.039999686,0.04,-9.7515955,-1.1192779541015625,0.014050964,-0.060639583,-0.015262448228895664,-0.1431927
1969.999999998537,-0.038950007,-0.82997024,0.033666976,-2.362168,-0.093400545,1.543645,0.7103227,0.03999968,0.04,-9.748681,-1.1433402299880981,0.013031332,-0.06102019,-0.01495268102735281,-0.14465176
1970.0166666652037,-0.03977245,-0.8309279,0.034374144,-2.3622892,-0.09536648,1.5430706,0.70873135,0.039999668,0.04,-9.745575,-1.1675492525100708,0.012098866,-0.06138917,-0.014629743061959743,-0.14609855
1970.0333333318704,-0.04060266,-0.83189464,0.03508797,-2.3624156,-0.097350985,1.5424906,0.70712507,0.039999664,0.04,-9.742478,-1.1920616626739502,0.010911021,-0.061746366,-0.014293164946138859,-0.14752914
1970.049999998537,-0.041440565,-0.8328705,0.035808407,-2.3625424,-0.09935387,1.5419054,0.7055038,0.03999965,0.04,-9.739849,-1.216819405555725,0.009798935,-0.06209017,-0.013966481201350689,-0.14895135
1970.0666666652037,-0.042286076,-0.83385503,0.036535393,-2.3626697,-0.10137497,1.5413151,0.7038679,0.03999964,0.04,-9.736525,-1.2417373657226562,0.008510503,-0.062421687,-0.013625851832330227,-0.15035762
1970.0833333318703,-0.043139104,-0.83484817,0.037268844,-2.3627975,-0.10341401,1.5407193,0.7022175,0.03999963,0.04,-9.733126,-1.2669291496276855,0.007031109,-0.06274198,-0.01327109057456255,-0.15174732
1970.099999998537,-0.04399957,-0.83584994,0.038008686,-2.3629255,-0.10547083,1.5401183,0.7005527,0.03999961,0.04,-9.7296505,-1.2922887802124023,0.0056422325,-0.06305062,-0.012907352298498154,-0.15312497
1970.1166666652036,-0.044867378,-0.8368606,0.038754843,-2.363054,-0.10754526,1.539512,0.6988738,0.03999961,0.04,-9.726018,-1.3179128170013428,0.0039975913,-0.06334722,-0.012528271414339542,-0.15448658
1970.1333333318703,-0.04574245,-0.8378796,0.039507255,-2.3631833,-0.10963701,1.5389009,0.6971807,0.039999604,0.04,-9.722301,-1.343685269355774,0.0024806922,-0.06363275,-0.012137709185481071,-0.15583123
1970.149999998537,-0.046624698,-0.8389069,0.040265832,-2.3633168,-0.11174591,1.5382848,0.6954738,0.039999593,0.04,-9.718559,-1.3697509765625,0.0006465269,-0.063905105,-0.011735377833247185,-0.15715976
1970.1666666652036,-0.04751402,-0.83994263,0.04103049,-2.3634505,-0.11387173,1.5376636,0.6937531,0.039999582,0.04,-9.715124,-1.3959968090057373,-0.0011297651,-0.064164065,-0.011338411830365658,-0.1584731
1970.1833333318702,-0.048410337,-0.8409864,0.041801166,-2.3635855,-0.11601427,1.5370375,0.692019,0.039999567,0.04,-9.711096,-1.422481894493103,-0.0031452319,-0.06441093,-0.010927360504865646,-0.15977296
1970.199999998537,-0.049313534,-0.84203804,0.042577762,-2.3637211,-0.118173294,1.5364066,0.69027156,0.03999956,0.04,-9.707053,-1.4490689039230347,-0.0051248,-0.06464548,-0.010508131235837936,-0.16105196
1970.2166666652035,-0.050223544,-0.8430977,0.043360215,-2.3638568,-0.12034854,1.5357711,0.6885109,0.03999955,0.04,-9.7029295,-1.4759631156921387,-0.0073779216,-0.06486763,-0.010078695602715015,-0.16231619
1970.2333333318702,-0.051140256,-0.84416515,0.044148404,-2.3639927,-0.12253983,1.5351307,0.68673724,0.03999953,0.04,-9.698537,-1.502954363822937,-0.009550264,-0.06507748,-0.00963584054261446,-0.16356398
1970.2499999985369,-0.052063573,-0.84524024,0.04494227,-2.3641293,-0.12474691,1.5344858,0.68495095,0.039999533,0.04,-9.694089,-1.5301954746246338,-0.01196663,-0.065275565,-0.009180372580885887,-0.16479214
1970.2666666652035,-0.052993387,-0.8463229,0.045741748,-2.3642678,-0.1269695,1.5338364,0.68315196,0.03999952,0.04,-9.689553,-1.5575898885726929,-0.014361922,-0.06546177,-0.008713876828551292,-0.16600451
1970.2833333318702,-0.053929597,-0.84741324,0.04654672,-2.3644094,-0.12920742,1.5331826,0.68134063,0.039999515,0.04,-9.685156,-1.5852227210998535,-0.017008476,-0.065634504,-0.00824457686394453,-0.16719566
1970.2999999985368,-0.054872114,-0.84851074,0.04735711,-2.3645513,-0.13146038,1.5325246,0.6795171,0.039999507,0.04,-9.680671,-1.6130162477493286,-0.019623578,-0.06579356,-0.00777352973818779,-0.16837195
1970.3166666652035,-0.055820815,-0.8496156,0.048172813,-2.3646939,-0.13372815,1.5318618,0.6776816,0.039999504,0.04,-9.675794,-1.6409411430358887,-0.022452395,-0.06594058,-0.007291477173566818,-0.1695257
1970.33333333187,-0.056775607,-0.85072744,0.048993744,-2.3648367,-0.13601044,1.5311949,0.6758343,0.03999949,0.04,-9.67087,-1.669093370437622,-0.025429973,-0.0660751,-0.006801242008805275,-0.17065935
1970.3499999985368,-0.057736393,-0.85184634,0.049819823,-2.3649795,-0.13830705,1.530524,0.67397535,0.039999474,0.04,-9.665724,-1.69735586643219,-0.028394513,-0.066197895,-0.006298800464719534,-0.17177574
1970.3666666652034,-0.058703046,-0.8529721,0.050650954,-2.3651233,-0.14061768,1.529849,0.6721051,0.03999946,0.04,-9.660467,-1.7258211374282837,-0.031614907,-0.0663081,-0.00578326266258955,-0.17286986
1970.38333333187,-0.05967547,-0.8541046,0.051487036,-2.3652675,-0.1429421,1.5291697,0.6702236,0.039999448,0.04,-9.655179,-1.7544238567352295,-0.034799904,-0.066406265,-0.005259368102997541,-0.17394452
1970.3999999985367,-0.06065354,-0.85524374,0.052327987,-2.3654127,-0.14528005,1.5284865,0.66833127,0.03999943,0.04,-9.649788,-1.7832233905792236,-0.03822525,-0.06649227,-0.004728516563773155,-0.17499906
1970.4166666652034,-0.06163716,-0.8563893,0.0531737,-2.3655605,-0.14763126,1.5277995,0.66642815,0.039999418,0.04,-9.6442175,-1.812119722366333,-0.041650683,-0.066566415,-0.004187943879514933,-0.17603168
1970.43333333187,-0.06262622,-0.85754126,0.05402409,-2.3657098,-0.14999548,1.5271088,0.6645146,0.039999407,0.04,-9.638891,-1.8412669897079468,-0.045364276,-0.06662626,-0.0036499707493931055,-0.1770443
1970.4499999985367,-0.06362059,-0.85869926,0.05487904,-2.3658593,-0.15237242,1.5264144,0.6625908,0.03999939,0.04,-9.63314,-1.8704713582992554,-0.04905186,-0.066674456,-0.003104798262938857,-0.1780365
1970.4666666652033,-0.064620174,-0.85986334,0.05573848,-2.3660097,-0.15476184,1.5257163,0.6606569,0.039999373,0.04,-9.627263,-1.8998616933822632,-0.053010482,-0.06671053,-0.002551705576479435,-0.17900847
1970.48333333187,-0.065624855,-0.8610333,0.056602284,-2.3661602,-0.15716335,1.5250148,0.65871316,0.039999366,0.04,-9.621221,-1.9293063879013062,-0.056938924,-0.06673453,-0.0019916859455406666,-0.17995399
1970.4999999985366,-0.06663451,-0.86220914,0.057470366,-2.3663108,-0.15957677,1.5243096,0.6567598,0.03999935,0.04,-9.615046,-1.9589779376983643,-0.06113828,-0.06674644,-0.0014215370174497366,-0.18088214
1970.5166666652033,-0.06764905,-0.8633906,0.058342613,-2.3664618,-0.16200179,1.5236013,0.654797,0.039999332,0.04,-9.608698,-1.988700032234192,-0.06531301,-0.0667474,-0.0008417451754212379,-0.18178767
1970.53333333187,-0.068668306,-0.86457765,0.05921893,-2.366613,-0.16443819,1.5228895,0.6528251,0.039999325,0.04,-9.602296,-2.018566608428955,-0.06973811,-0.06673659,-0.00025394815020263195,-0.18266651
1970.5499999985366,-0.06969219,-0.86577,0.06009922,-2.3667645,-0.16688564,1.5221741,0.6508442,0.039999302,0.04,-9.595698,-2.0485572814941406,-0.07415336,-0.06671458,0.0003430515353102237,-0.1835261
1970.5666666652032,-0.070720576,-0.8669675,0.060983386,-2.3669176,-0.16934381,1.521456,0.64885455,0.039999284,0.04,-9.589054,-2.07865571975708,-0.078768045,-0.06668077,0.0009444812894798815,-0.1843618
1970.5833333318699,-0.07175333,-0.8681702,0.0618713,-2.367072,-0.1718124,1.5207348,0.6468564,0.039999276,0.04,-9.5824,-2.108893871307373,-0.08358897,-0.066634424,0.0015500368317589164,-0.18517257
1970.5999999985365,-0.07279032,-0.86937785,0.06276288,-2.367228,-0.17429116,1.5200107,0.6448502,0.039999265,0.04,-9.57561,-2.1392271518707275,-0.08841005,-0.06657575,0.0021578322630375624,-0.18596153
1970.6166666652032,-0.073831424,-0.87059045,0.063658014,-2.3673847,-0.17677976,1.5192835,0.6428359,0.039999243,0.04,-9.568701,-2.169691324234009,-0.093493484,-0.066505514,0.0027677430771291256,-0.18672805
1970.6333333318698,-0.07487656,-0.8718077,0.06455657,-2.3675416,-0.17927799,1.5185534,0.6408139,0.03999922,0.04,-9.561547,-2.2002084255218506,-0.098574325,-0.06642354,0.0033825670834630728,-0.18747245
1970.6499999985365,-0.07592561,-0.87302953,0.065458484,-2.3676991,-0.1817855,1.5178207,0.6387842,0.039999213,0.04,-9.554264,-2.2308013439178467,-0.10391049,-0.06633043,0.00400215107947588,-0.18819033
1970.6666666652031,-0.07697839,-0.87425584,0.066363625,-2.3678575,-0.18430199,1.5170856,0.63674736,0.0399992,0.04,-9.546835,-2.261491060256958,-0.10925793,-0.066226155,0.0046285116113722324,-0.18888555
1970.6833333318698,-0.07803481,-0.87548625,0.067271896,-2.3680158,-0.18682717,1.5163473,0.6347035,0.039999183,0.04,-9.539349,-2.292288303375244,-0.114856526,-0.0661107,0.005258621647953987,-0.18955572
1970.6999999985364,-0.07909476,-0.8767207,0.068183176,-2.3681743,-0.1893607,1.5156069,0.6326528,0.03999917,0.04,-9.531637,-2.323115110397339,-0.12045662,-0.065984644,0.005891741719096899,-0.19020075
1970.716666665203,-0.08015808,-0.8779591,0.069097355,-2.3683329,-0.19190231,1.5148647,0.6305956,0.039999153,0.04,-9.523792,-2.3540494441986084,-0.12632096,-0.06584798,0.006532675586640835,-0.19082232
1970.7333333318697,-0.08122464,-0.87920123,0.07001433,-2.3684916,-0.19445172,1.5141199,0.6285322,0.039999135,0.04,-9.515808,-2.3850231170654297,-0.13220856,-0.06570145,0.0071811252273619175,-0.19141863
1970.7499999985364,-0.082294345,-0.88044715,0.070934,-2.3686507,-0.19700855,1.5133729,0.6264627,0.039999116,0.04,-9.507758,-2.416084051132202,-0.13829188,-0.06554423,0.007832172326743603,-0.19198911
1970.766666665203,-0.08336705,-0.88169634,0.071856216,-2.3688102,-0.19957261,1.5126235,0.6243874,0.039999105,0.04,-9.499506,-2.447181463241577,-0.14440346,-0.065377496,0.008489166386425495,-0.19253485
1970.7833333318697,-0.084442616,-0.88294894,0.07278092,-2.3689704,-0.2021435,1.5118719,0.6223065,0.039999086,0.04,-9.491235,-2.4783668518066406,-0.15076514,-0.065199845,0.009146013297140598,-0.19305666
1970.7999999985364,-0.08552093,-0.8842049,0.073707946,-2.3691316,-0.20472093,1.5111188,0.62022036,0.03999906,0.04,-9.482853,-2.509584426879883,-0.15715316,-0.06501154,0.009802957996726036,-0.19355321
1970.816666665203,-0.08660185,-0.8854638,0.07463722,-2.3692935,-0.20730457,1.5103639,0.6181292,0.03999905,0.04,-9.474315,-2.5408577919006348,-0.1637279,-0.064813145,0.010463143698871136,-0.19402488
1970.8333333318697,-0.087685235,-0.88672554,0.07556862,-2.369456,-0.20989418,1.5096077,0.6160332,0.039999027,0.04,-9.465664,-2.5721542835235596,-0.17049383,-0.06460449,0.011123514734208584,-0.19446826
1970.8499999985363,-0.08877097,-0.88799,0.07650202,-2.3696191,-0.21248932,1.5088497,0.61393267,0.03999901,0.04,-9.456891,-2.603499174118042,-0.17728868,-0.06438542,0.011784796603024006,-0.19488727
1970.866666665203,-0.08985892,-0.889257,0.07743731,-2.3697827,-0.21508974,1.5080899,0.6118279,0.039998997,0.04,-9.447972,-2.6348795890808105,-0.18430115,-0.06415636,0.012446555308997631,-0.19528173
1970.8833333318696,-0.09094895,-0.8905266,0.07837436,-2.3699467,-0.21769513,1.5073283,0.60971904,0.03999898,0.04,-9.438901,-2.6662509441375732,-0.19134127,-0.06391796,0.013107715174555779,-0.19564897
1970.8999999985363,-0.092040904,-0.8917983,0.079313144,-2.3701108,-0.22030519,1.506566,0.6076065,0.039998963,0.04,-9.429686,-2.6976680755615234,-0.19858955,-0.06366982,0.013769429177045822,-0.19599172
1970.916666665203,-0.093134694,-0.89307225,0.08025347,-2.3702748,-0.22291955,1.5058023,0.6054904,0.039998945,0.04,-9.420343,-2.7290656566619873,-0.20592353,-0.06341273,0.014434028416872025,-0.19630548
1970.9333333318696,-0.09423016,-0.89434814,0.08119522,-2.3704393,-0.22553794,1.5050367,0.6033712,0.039998926,0.04,-9.410854,-2.760521650314331,-0.21341221,-0.06314696,0.015099529176950455,-0.1965969
1970.9499999985362,-0.09532718,-0.89562577,0.08213831,-2.3706038,-0.22816001,1.5042709,0.6012489,0.039998908,0.04,-9.401279,-2.7919371128082275,-0.220952,-0.0628729,0.01576223038136959,-0.1968594
1970.9666666652029,-0.0964256,-0.89690506,0.08308258,-2.3707688,-0.23078544,1.5035033,0.59912395,0.039998885,0.04,-9.391559,-2.8233654499053955,-0.22873135,-0.06258951,0.016427671536803246,-0.19709514
1970.9833333318695,-0.09752529,-0.8981859,0.08402793,-2.3709338,-0.23341389,1.5027355,0.59699637,0.03999887,0.04,-9.381769,-2.854807138442993,-0.23651536,-0.062297527,0.01708853244781494,-0.19730504
1970.9999999985362,-0.09862614,-0.8994682,0.0849743,-2.3710988,-0.2360451,1.5019661,0.59486663,0.039998844,0.04,-9.371763,-2.8862357139587402,-0.24452728,-0.061996713,0.01775243692100048,-0.19749059
1971.0166666652028,-0.099727996,-0.90075153,0.08592152,-2.3712637,-0.23867871,1.5011965,0.59273493,0.03999883,0.04,-9.361659,-2.9176278114318848,-0.252535,-0.061688296,0.018413353711366653,-0.1976472
1971.0333333318695,-0.10083071,-0.9020359,0.08686947,-2.3714283,-0.24131441,1.5004267,0.59060156,0.039998807,0.04,-9.351456,-2.949024200439453,-0.260786,-0.061371595,0.01907380297780037,-0.19777867
1971.0499999985361,-0.10193415,-0.9033211,0.08781806,-2.3715928,-0.24395181,1.4996567,0.58846664,0.039998785,0.04,-9.341044,-2.9803645610809326,-0.2690691,-0.0610478,0.019737813621759415,-0.19788122
1971.0666666652028,-0.10303821,-0.90460694,0.088767156,-2.3717573,-0.24659067,1.4988852,0.58633095,0.03999877,0.04,-9.330601,-3.0116994380950928,-0.2775017,-0.06071554,0.020401230081915855,-0.19795701
1971.0833333318694,-0.10414275,-0.9058935,0.08971664,-2.3719218,-0.24923064,1.4981134,0.584194,0.039998747,0.04,-9.32006,-3.0430147647857666,-0.2860287,-0.060377646,0.021057073026895523,-0.1980087
1971.099999998536,-0.10524759,-0.9071804,0.09066644,-2.3720863,-0.2518714,1.4973416,0.58205664,0.039998736,0.04,-9.309354,-3.0742695331573486,-0.29464787,-0.06003108,0.021711455658078194,-0.19803183
1971.1166666652027,-0.10635263,-0.9084675,0.09161638,-2.372251,-0.25451252,1.4965699,0.57991904,0.039998714,0.04,-9.298577,-3.105515480041504,-0.3034397,-0.059677646,0.0223634485155344,-0.19802979
1971.1333333318694,-0.10745776,-0.9097547,0.09256633,-2.3724158,-0.25715387,1.495798,0.57778126,0.039998688,0.04,-9.287696,-3.136704683303833,-0.31230295,-0.05931799,0.02301204577088356,-0.19800179
1971.149999998536,-0.10856281,-0.9110418,0.093516245,-2.3725805,-0.25979504,1.4950261,0.5756437,0.03999868,0.04,-9.276658,-3.1678054332733154,-0.32128012,-0.058951247,0.023656487464904785,-0.19794443
1971.1666666652027,-0.10966763,-0.91232854,0.094465956,-2.3727453,-0.26243562,1.4942541,0.5735065,0.03999865,0.04,-9.265578,-3.1989059448242188,-0.33035788,-0.058577705,0.02429574728012085,-0.19786245
1971.1833333318693,-0.1107721,-0.91361505,0.095415376,-2.37291,-0.2650754,1.4934822,0.5713696,0.03999863,0.04,-9.254318,-3.229907989501953,-0.33956137,-0.058197375,0.024929732084274292,-0.19775443
1971.199999998536,-0.11187607,-0.91490084,0.096364364,-2.3730748,-0.26771393,1.4927119,0.569234,0.039998606,0.04,-9.243004,-3.260870933532715,-0.3488415,-0.057808626,0.025558611378073692,-0.19761977
1971.2166666652026,-0.11297945,-0.9161861,0.09731281,-2.3732393,-0.270351,1.4919417,0.56709933,0.03999858,0.04,-9.231524,-3.2917349338531494,-0.3582899,-0.057415504,0.02618696540594101,-0.19745745
1971.2333333318693,-0.11408206,-0.9174704,0.098260604,-2.3734038,-0.27298626,1.4911717,0.5649662,0.039998557,0.04,-9.21998,-3.32254695892334,-0.3677325,-0.057015467,0.02680939994752407,-0.19726887
1971.249999998536,-0.115183756,-0.91875374,0.09920766,-2.3735683,-0.27561942,1.4904019,0.5628348,0.039998535,0.04,-9.208321,-3.353273391723633,-0.3773386,-0.056609485,0.027424702420830727,-0.19705497
1971.2666666652026,-0.116284445,-0.92003584,0.100153774,-2.3737328,-0.2782502,1.4896336,0.5607054,0.039998513,0.04,-9.196612,-3.3839499950408936,-0.38699925,-0.056197204,0.028030771762132645,-0.19681616
1971.2833333318692,-0.117383994,-0.92131644,0.10109893,-2.3738973,-0.2808781,1.4888655,0.55857825,0.03999851,0.04,-9.184759,-3.4144723415374756,-0.39682347,-0.055779368,0.028632670640945435,-0.19654736
1971.299999998536,-0.11848221,-0.92259556,0.102042966,-2.3740616,-0.28350297,1.488099,0.55645376,0.039998483,0.04,-9.172834,-3.4449965953826904,-0.4066895,-0.055355992,0.029225870966911316,-0.19625728
1971.3166666652025,-0.119579025,-0.9238732,0.10298574,-2.3742259,-0.2861243,1.4873327,0.554332,0.039998457,0.04,-9.160781,-3.475346565246582,-0.41667107,-0.05492776,0.02981392852962017,-0.1959384
1971.3333333318692,-0.12067427,-0.92514884,0.10392717,-2.37439,-0.2887419,1.4865682,0.55221325,0.03999844,0.04,-9.148675,-3.505615234375,-0.4266956,-0.054494064,0.030390674248337746,-0.1955934
1971.3499999985358,-0.12176781,-0.9264226,0.10486712,-2.3745532,-0.29135546,1.4858047,0.5500977,0.039998412,0.04,-9.136428,-3.535808563232422,-0.43686098,-0.054055512,0.030963687226176262,-0.19522566
1971.3666666652025,-0.122859515,-0.9276942,0.10580549,-2.3747165,-0.29396465,1.4850422,0.54798573,0.039998394,0.04,-9.124029,-3.5658206939697266,-0.44705397,-0.053612806,0.03152977302670479,-0.19482829
1971.3833333318692,-0.123949245,-0.92896366,0.10674221,-2.3748796,-0.29656914,1.4842813,0.5458775,0.039998375,0.04,-9.111705,-3.595818519592285,-0.45736262,-0.053164784,0.032084766775369644,-0.19440752
1971.3999999985358,-0.12503691,-0.9302307,0.107677124,-2.3750427,-0.29916853,1.4835219,0.54377335,0.03999835,0.04,-9.099167,-3.6256449222564697,-0.4677224,-0.052712247,0.03263269364833832,-0.19396184
1971.4166666652025,-0.12612231,-0.9314949,0.108610086,-2.3752058,-0.30176264,1.4827641,0.54167366,0.039998326,0.04,-9.086643,-3.655386209487915,-0.47818702,-0.052254915,0.033171605318784714,-0.1934911
1971.433333331869,-0.12720534,-0.9327565,0.10954101,-2.3753686,-0.30435103,1.4820077,0.5395785,0.0399983,0.04,-9.074037,-3.6849846839904785,-0.488739,-0.051793355,0.03369846194982529,-0.19299595
1971.4499999985358,-0.1282859,-0.93401515,0.11046978,-2.3755307,-0.30693352,1.4812533,0.53748816,0.039998278,0.04,-9.061321,-3.714461326599121,-0.4993338,-0.051327966,0.03421522304415703,-0.19247487
1971.4666666652024,-0.1293638,-0.9352708,0.11139629,-2.375692,-0.30950972,1.4805005,0.5354029,0.039998252,0.04,-9.048459,-3.743781328201294,-0.5099871,-0.050859053,0.03472444415092468,-0.19193123
1971.483333331869,-0.13043903,-0.9365232,0.11232044,-2.3758523,-0.3120793,1.4797498,0.5333231,0.039998233,0.04,-9.035514,-3.772977828979492,-0.52072173,-0.05038703,0.035226184874773026,-0.19136168
1971.4999999985357,-0.13151133,-0.93777215,0.11324209,-2.3760116,-0.31464192,1.479001,0.5312488,0.03999822,0.04,-9.022498,-3.801985740661621,-0.5314885,-0.049913317,0.035720013082027435,-0.1907644
1971.5166666652024,-0.13258056,-0.93901765,0.114161134,-2.3761702,-0.31719735,1.4782543,0.5291802,0.039998192,0.04,-9.009431,-3.830934762954712,-0.542337,-0.049436614,0.03620558977127075,-0.19014634
1971.533333331869,-0.13364673,-0.9402595,0.11507747,-2.3763282,-0.31974536,1.4775097,0.52711785,0.03999817,0.04,-8.996285,-3.8596720695495605,-0.5532053,-0.04895632,0.03668144345283508,-0.18950245
1971.5499999985357,-0.13470958,-0.94149756,0.115991,-2.3764858,-0.32228538,1.4767674,0.5250619,0.03999815,0.04,-8.983167,-3.8883278369903564,-0.5641714,-0.048473984,0.03714603930711746,-0.18883513
1971.5666666652023,-0.13576902,-0.9427317,0.116901584,-2.376643,-0.32481736,1.4760276,0.5230123,0.03999814,0.04,-8.969957,-3.916788339614868,-0.57516605,-0.047989123,0.03759872168302536,-0.1881411
1971.583333331869,-0.13682497,-0.94396174,0.11780914,-2.3767998,-0.32734084,1.4752903,0.52096957,0.03999811,0.04,-8.956658,-3.9451029300689697,-0.5862004,-0.04750025,0.038041189312934875,-0.18742655
1971.5999999985356,-0.13787726,-0.9451875,0.11871354,-2.3769565,-0.3298556,1.4745555,0.51893395,0.039998084,0.04,-8.943417,-3.9733054637908936,-0.5973272,-0.04700896,0.0384705476462841,-0.18668845
1971.6166666652023,-0.13892575,-0.9464088,0.11961471,-2.377113,-0.33236134,1.4738233,0.5169057,0.039998062,0.04,-8.930046,-4.001287937164307,-0.6084537,-0.04651501,0.03888687118887901,-0.18592773
1971.633333331869,-0.13997033,-0.9476257,0.12051251,-2.3772695,-0.3348576,1.4730939,0.51488507,0.039998047,0.04,-8.916719,-4.029165744781494,-0.61968744,-0.046017848,0.03928780555725098,-0.18514292
1971.6499999985356,-0.14101085,-0.94883776,0.121406846,-2.377425,-0.33734423,1.4723673,0.51287216,0.039998025,0.04,-8.903239,-4.056819915771484,-0.63087785,-0.045518782,0.03967655822634697,-0.18433763
1971.6666666652022,-0.14204724,-0.950045,0.12229759,-2.3775802,-0.3398209,1.4716437,0.51086736,0.039998,0.04,-8.88973,-4.0843377113342285,-0.6421857,-0.045017585,0.040054142475128174,-0.18351053
1971.6833333318689,-0.14307934,-0.9512473,0.123184666,-2.3777351,-0.34228745,1.4709232,0.5088708,0.039997976,0.04,-8.87621,-4.111640930175781,-0.65345985,-0.044514008,0.0404166504740715,-0.1826612
1971.6999999985355,-0.14410709,-0.9524444,0.12406794,-2.37789,-0.3447434,1.4702057,0.5068827,0.03999796,0.04,-8.862677,-4.138807773590088,-0.6648349,-0.044008203,0.04076526686549187,-0.18178704
1971.7166666652022,-0.14513028,-0.9536363,0.12494733,-2.3780444,-0.3471886,1.4694911,0.5049034,0.039997935,0.04,-8.849115,-4.165778636932373,-0.67618227,-0.04349992,0.041097186505794525,-0.18089548
1971.7333333318688,-0.1461488,-0.95482284,0.12582274,-2.3781965,-0.34962267,1.4687798,0.50293314,0.03999792,0.04,-8.835455,-4.192556858062744,-0.68758756,-0.042990383,0.04141611233353615,-0.17997861
1971.7499999985355,-0.14716259,-0.9560038,0.12669402,-2.3783472,-0.3520454,1.4680718,0.50097203,0.039997887,0.04,-8.821597,-4.219091415405273,-0.69893086,-0.042481907,0.041726820170879364,-0.17904224
1971.7666666652021,-0.1481715,-0.95717907,0.12756114,-2.378497,-0.35445642,1.4673674,0.49902043,0.039997865,0.04,-8.807811,-4.245472431182861,-0.7103695,-0.041973457,0.04202762618660927,-0.17808172
1971.7833333318688,-0.14917545,-0.9583485,0.12842396,-2.378646,-0.3568555,1.4666665,0.49707842,0.03999784,0.04,-8.794043,-4.2716755867004395,-0.7217549,-0.04146421,0.04231484606862068,-0.17710261
1971.7999999985354,-0.15017426,-0.9595121,0.12928234,-2.3787944,-0.35924247,1.4659692,0.49514627,0.039997824,0.04,-8.780297,-4.297705173492432,-0.7332288,-0.04095442,0.042589034885168076,-0.17610133
1971.816666665202,-0.15116784,-0.96066946,0.13013625,-2.3789427,-0.36161688,1.4652755,0.4932243,0.0399978,0.04,-8.766578,-4.323542594909668,-0.74467736,-0.040443167,0.04284760355949402,-0.17508002
1971.8333333318687,-0.15215611,-0.9618206,0.13098556,-2.3790905,-0.3639785,1.4645854,0.49131262,0.03999777,0.04,-8.75283,-4.34916877746582,-0.7561128,-0.039930202,0.043088704347610474,-0.17404039
1971.8499999985354,-0.15313889,-0.96296555,0.13183016,-2.3792381,-0.36632717,1.4638991,0.48941156,0.039997753,0.04,-8.739103,-4.374632358551025,-0.7676253,-0.03941632,0.04331411421298981,-0.1729817
1971.866666665202,-0.1541161,-0.9641041,0.13267,-2.3793857,-0.36866254,1.4632168,0.48752132,0.039997734,0.04,-8.725308,-4.399835109710693,-0.77904356,-0.038901743,0.043522756546735764,-0.1719024
1971.8833333318687,-0.1550876,-0.96523577,0.13350493,-2.3795326,-0.37098414,1.4625384,0.48564205,0.039997716,0.04,-8.71165,-4.424934387207031,-0.7905773,-0.038385563,0.04371311888098717,-0.17080641
1971.8999999985353,-0.15605335,-0.96636075,0.13433488,-2.379677,-0.37329185,1.461864,0.4837739,0.039997686,0.04,-8.697835,-4.449718952178955,-0.80203867,-0.037868176,0.043887775391340256,-0.16969442
1971.916666665202,-0.15701324,-0.967479,0.13515975,-2.3798194,-0.3755856,1.4611937,0.48191726,0.03999767,0.04,-8.683901,-4.474280834197998,-0.8135135,-0.0373529,0.04405377805233002,-0.16856118
1971.9333333318687,-0.15796709,-0.96859014,0.1359795,-2.379961,-0.37786493,1.4605278,0.48007223,0.03999765,0.04,-8.669888,-4.498559951782227,-0.82483786,-0.03684141,0.04420978203415871,-0.16740695
1971.9499999985353,-0.15891486,-0.96969414,0.13679397,-2.380102,-0.3801296,1.4598663,0.47823903,0.039997622,0.04,-8.656163,-4.522802829742432,-0.8363376,-0.03632896,0.04435097053647041,-0.16623661
1971.966666665202,-0.15985636,-0.97079086,0.13760309,-2.3802423,-0.38237938,1.4592087,0.47641772,0.03999761,0.04,-8.642384,-4.546729564666748,-0.84769046,-0.03581657,0.044475506991147995,-0.16504845
1971.9833333318686,-0.16079153,-0.9718804,0.13840678,-2.3803823,-0.38461408,1.4585556,0.4746087,0.039997596,0.04,-8.628703,-4.570522308349609,-0.85914654,-0.035302907,0.04458204656839371,-0.1638434
1971.9999999985353,-0.16172029,-0.97296226,0.13920492,-2.3805215,-0.38683346,1.457907,0.47281212,0.039997566,0.04,-8.614961,-4.594043254852295,-0.87044644,-0.034789458,0.044671762734651566,-0.1626232
1972.016666665202,-0.16264251,-0.9740367,0.13999745,-2.3806603,-0.38903722,1.4572632,0.47102815,0.039997548,0.04,-8.601323,-4.617372989654541,-0.8818854,-0.034275927,0.04474417492747307,-0.16138534
1972.0333333318686,-0.16355811,-0.9751035,0.14078431,-2.3807988,-0.39122513,1.456624,0.46925712,0.039997526,0.04,-8.587623,-4.640443325042725,-0.89315075,-0.03376236,0.04480096697807312,-0.16013215
1972.0499999985352,-0.164467,-0.9761623,0.14156534,-2.380934,-0.39339697,1.4559894,0.4674989,0.039997507,0.04,-8.57405,-4.663365364074707,-0.90452707,-0.033249147,0.04483983293175697,-0.15886413
1972.0666666652019,-0.16536908,-0.97721314,0.1423405,-2.3810678,-0.39555255,1.4553595,0.4657539,0.039997496,0.04,-8.56018,-4.685887813568115,-0.91573554,-0.03273963,0.04487013444304466,-0.15757766
1972.0833333318685,-0.16626427,-0.97825605,0.14310974,-2.381201,-0.3976915,1.4547346,0.46402243,0.03999746,0.04,-8.546479,-4.7082343101501465,-0.9268677,-0.032231834,0.04488629102706909,-0.1562746
1972.0999999985352,-0.16715237,-0.9792906,0.14387295,-2.3813334,-0.39981374,1.4541144,0.4623044,0.039997432,0.04,-8.532974,-4.730469226837158,-0.9381125,-0.031725585,0.04488706588745117,-0.15495728
1972.1166666652018,-0.1680334,-0.9803173,0.14463004,-2.3814654,-0.40191895,1.4534991,0.46060017,0.039997417,0.04,-8.519446,-4.752395153045654,-0.94919604,-0.031218791,0.04486966133117676,-0.15362614
1972.1333333318685,-0.16890727,-0.9813354,0.14538094,-2.3815968,-0.40400693,1.4528891,0.45890984,0.0399974,0.04,-8.506101,-4.7741899490356445,-0.96035516,-0.030712372,0.044833309948444366,-0.15228109
1972.1499999985351,-0.16977383,-0.98234504,0.1461256,-2.381728,-0.40607762,1.4522841,0.4572336,0.039997377,0.04,-8.492628,-4.79563045501709,-0.9713674,-0.030206637,0.044781412929296494,-0.15092206
1972.1666666652018,-0.17063302,-0.983346,0.14686394,-2.381857,-0.40813062,1.4516842,0.45557165,0.03999736,0.04,-8.479393,-4.816975116729736,-0.9824749,-0.029700538,0.04470914229750633,-0.14955108
1972.1833333318684,-0.17148475,-0.9843381,0.14759587,-2.3819828,-0.4101658,1.4510895,0.4539242,0.039997336,0.04,-8.465897,-4.837906837463379,-0.99334455,-0.029197512,0.04462570324540138,-0.14816675
1972.199999998535,-0.1723289,-0.9853216,0.14832132,-2.382108,-0.41218284,1.4505,0.45229134,0.039997324,0.04,-8.452416,-4.8586249351501465,-1.004268,-0.028700093,0.04453402757644653,-0.14676432
1972.2166666652017,-0.17316543,-0.9862963,0.1490402,-2.3822322,-0.41418177,1.4499159,0.4506732,0.0399973,0.04,-8.439205,-4.879187107086182,-1.015027,-0.028203247,0.04442556947469711,-0.14535376
1972.2333333318684,-0.17399426,-0.987262,0.14975241,-2.382356,-0.4161621,1.449337,0.44907007,0.03999729,0.04,-8.426086,-4.899526119232178,-1.0258689,-0.027707962,0.04430146515369415,-0.14392854
1972.249999998535,-0.1748153,-0.98821867,0.15045796,-2.3824794,-0.41812396,1.4487641,0.44748193,0.03999727,0.04,-8.413015,-4.91959810256958,-1.0365151,-0.027214086,0.04415956512093544,-0.14249517
1972.2666666652017,-0.17562844,-0.9891661,0.15115671,-2.3826022,-0.42006698,1.4481963,0.44590908,0.03999725,0.04,-8.4001665,-4.93951940536499,-1.0473174,-0.026718939,0.04399895295500755,-0.14104903
1972.2833333318683,-0.17643365,-0.9901042,0.15184863,-2.3827233,-0.42199102,1.447634,0.4443516,0.039997242,0.04,-8.387176,-4.959076881408691,-1.0578241,-0.026225924,0.04382079094648361,-0.13959128
1972.299999998535,-0.17723083,-0.9910329,0.15253362,-2.3828413,-0.42389578,1.4470773,0.44280958,0.03999722,0.04,-8.374336,-4.978475570678711,-1.0684468,-0.025734711,0.043627072125673294,-0.138125
1972.3166666652016,-0.17801996,-0.99195224,0.15321168,-2.3829584,-0.4257812,1.4465264,0.44128332,0.0399972,0.04,-8.361287,-4.997503280639648,-1.0788453,-0.025249036,0.04342767596244812,-0.13664627
1972.3333333318683,-0.17880091,-0.9928621,0.15388276,-2.3830745,-0.42764714,1.445981,0.4397728,0.03999718,0.04,-8.34851,-5.016346454620361,-1.0891283,-0.024766158,0.04321305453777313,-0.13515687
1972.349999998535,-0.17957355,-0.9937625,0.15454671,-2.3831902,-0.4294933,1.4454416,0.43827826,0.039997164,0.04,-8.335955,-5.0350422859191895,-1.0995328,-0.02428415,0.042981330305337906,-0.1336579
1972.3666666652016,-0.18033797,-0.9946531,0.1552035,-2.3833055,-0.43131965,1.4449079,0.4367997,0.03999715,0.04,-8.323424,-5.053433418273926,-1.1096851,-0.023803003,0.042732685804367065,-0.1321495
1972.3833333318682,-0.181094,-0.99553394,0.15585314,-2.3834207,-0.43312606,1.44438,0.43533748,0.039997123,0.04,-8.311126,-5.071687698364258,-1.1199682,-0.023321986,0.042465340346097946,-0.1306369
1972.399999998535,-0.18184164,-0.9964049,0.15649551,-2.3835309,-0.4349123,1.443858,0.43389156,0.039997112,0.04,-8.298829,-5.089593410491943,-1.1300083,-0.022841353,0.04217785224318504,-0.12911408
1972.4166666652015,-0.18258068,-0.9972661,0.15713057,-2.38364,-0.43667808,1.4433421,0.43246204,0.03999709,0.04,-8.286129,-5.107118606567383,-1.1399657,-0.02237092,0.04189186915755272,-0.12757854
1972.4333333318682,-0.18331121,-0.9981173,0.15775825,-2.3837483,-0.4384234,1.4428322,0.43104908,0.03999707,0.04,-8.273915,-5.12453556060791,-1.1497694,-0.02190167,0.04159196466207504,-0.12603575
1972.4499999985348,-0.18403311,-0.99895835,0.15837851,-2.3838563,-0.44014814,1.4423282,0.42965284,0.039997052,0.04,-8.261912,-5.141777038574219,-1.1596916,-0.021434473,0.0412767119705677,-0.12448592
1972.4666666652015,-0.18474634,-0.9997895,0.15899135,-2.383964,-0.4418523,1.4418303,0.42827323,0.039997034,0.04,-8.25,-5.15873908996582,-1.1693488,-0.020967556,0.040942080318927765,-0.12293085
1972.4833333318682,-0.1854508,-1.0006104,0.15959673,-2.384071,-0.44353554,1.4413382,0.42691055,0.03999702,0.04,-8.238244,-5.175517559051514,-1.1791134,-0.020501051,0.04059069603681564,-0.12136929
1972.4999999985348,-0.18614645,-1.0014207,0.16019452,-2.3841736,-0.44519764,1.4408525,0.42556494,0.03999701,0.04,-8.226512,-5.191969394683838,-1.1886005,-0.020035192,0.04022097587585449,-0.11980108
1972.5166666652015,-0.18683332,-1.002221,0.16078472,-2.3842747,-0.44683877,1.440373,0.42423642,0.039996993,0.04,-8.214503,-5.208084583282471,-1.1980788,-0.01957845,0.03985285758972168,-0.11822544
1972.533333331868,-0.18751132,-1.003011,0.16136724,-2.3843753,-0.44845867,1.4398996,0.422925,0.03999697,0.04,-8.202902,-5.224042892456055,-1.2073029,-0.019124748,0.03947091102600098,-0.11664611
1972.5499999985348,-0.18818039,-1.0037906,0.16194211,-2.3844757,-0.45005715,1.4394326,0.42163086,0.039996948,0.04,-8.191562,-5.239828586578369,-1.2166684,-0.018672662,0.0390741191804409,-0.11505998
1972.5666666652014,-0.18884048,-1.0045598,0.1625093,-2.3845751,-0.45163414,1.4389718,0.4203541,0.039996933,0.04,-8.180345,-5.255373954772949,-1.2258716,-0.01822067,0.0386609211564064,-0.11346934
1972.583333331868,-0.18949163,-1.0053183,0.16306873,-2.3846743,-0.4531896,1.4385173,0.4190947,0.039996922,0.04,-8.1691265,-5.270611763000488,-1.2348411,-0.017770788,0.03823303431272507,-0.111875914
1972.5999999985347,-0.19013365,-1.0060663,0.16362043,-2.3847685,-0.45472357,1.4380689,0.41785288,0.039996915,0.04,-8.158237,-5.28572416305542,-1.2439661,-0.01732093,0.037787534296512604,-0.110281006
1972.6166666652014,-0.19076656,-1.0068038,0.16416429,-2.3848617,-0.4562357,1.437627,0.4166286,0.0399969,0.04,-8.146779,-5.300278186798096,-1.2525917,-0.01688131,0.03734439238905907,-0.10867768
1972.633333331868,-0.19139034,-1.0075309,0.16470031,-2.3849547,-0.45772612,1.4371914,0.41542208,0.03999688,0.04,-8.136009,-5.314878940582275,-1.2614446,-0.01644408,0.03688963130116463,-0.10707277
1972.6499999985347,-0.19200498,-1.0082474,0.16522849,-2.3850467,-0.45919472,1.4367622,0.4142332,0.039996862,0.04,-8.125354,-5.3291802406311035,-1.2699833,-0.016008506,0.03641929849982262,-0.10546536
1972.6666666652013,-0.1926105,-1.0089527,0.16574873,-2.3851383,-0.4606413,1.4363394,0.41306207,0.039996855,0.04,-8.114845,-5.343287467956543,-1.2786477,-0.015574591,0.03593617305159569,-0.10385417
1972.683333331868,-0.19320674,-1.0096474,0.16626109,-2.3852296,-0.46206585,1.4359231,0.4119087,0.039996836,0.04,-8.10447,-5.357117652893066,-1.2870302,-0.015140885,0.03543645143508911,-0.10224479
1972.6999999985346,-0.19379376,-1.0103316,0.16676548,-2.3853157,-0.4634683,1.4355131,0.41077322,0.03999682,0.04,-8.094326,-5.370788097381592,-1.2955277,-0.01470684,0.03492183983325958,-0.10063428
1972.7166666652013,-0.1943715,-1.0110049,0.16726193,-2.385401,-0.46484873,1.4351099,0.40965566,0.039996814,0.04,-8.083598,-5.383885383605957,-1.3034486,-0.014285688,0.03441368415951729,-0.09901661
1972.733333331868,-0.19493997,-1.0116669,0.16775036,-2.3854856,-0.46620694,1.4347129,0.40855613,0.039996803,0.04,-8.073666,-5.397060394287109,-1.311679,-0.013865684,0.03389276936650276,-0.09739794
1972.7499999985346,-0.1954992,-1.0123187,0.16823086,-2.3855696,-0.46754292,1.4343225,0.4074746,0.039996788,0.04,-8.063807,-5.409951686859131,-1.3196176,-0.013446481,0.03335769847035408,-0.09578509
1972.7666666652012,-0.19604911,-1.0129595,0.16870333,-2.3856533,-0.4688566,1.4339386,0.4064111,0.039996784,0.04,-8.054098,-5.422634124755859,-1.3275558,-0.013030774,0.03281192481517792,-0.09416771
1972.7833333318679,-0.19658962,-1.0135894,0.16916774,-2.3857353,-0.470148,1.4335614,0.40536553,0.039996773,0.04,-8.044543,-5.435060501098633,-1.3352665,-0.012615334,0.03225274384021759,-0.092554435
1972.7999999985345,-0.19712079,-1.0142086,0.16962415,-2.385813,-0.47141698,1.4331906,0.4043381,0.039996758,0.04,-8.035051,-5.4472222328186035,-1.3430171,-0.012202922,0.031686317175626755,-0.09093791
1972.8166666652012,-0.19764262,-1.0148169,0.17007253,-2.3858902,-0.47266367,1.4328263,0.40332878,0.039996747,0.04,-8.025372,-5.459041118621826,-1.3504162,-0.0118001485,0.031122541055083275,-0.08932191
1972.8333333318678,-0.19815505,-1.0154141,0.17051286,-2.3859668,-0.47388813,1.4324688,0.40233758,0.03999673,0.04,-8.016209,-5.470761775970459,-1.3577282,-0.011399097,0.030547255650162697,-0.087709226
1972.8499999985345,-0.19865817,-1.0160005,0.17094517,-2.3860428,-0.4750902,1.4321176,0.40136448,0.03999671,0.04,-8.007235,-5.482296466827393,-1.365156,-0.010999931,0.029963068664073944,-0.08609859
1972.8666666652011,-0.1991519,-1.016576,0.1713694,-2.3861187,-0.47626987,1.431773,0.4004094,0.0399967,0.04,-7.998409,-5.4935526847839355,-1.3722447,-0.010601586,0.02936527505517006,-0.08449057
1972.8833333318678,-0.1996363,-1.0171407,0.17178561,-2.3861897,-0.47742712,1.4314346,0.3994725,0.039996695,0.04,-7.989778,-5.504642963409424,-1.3794472,-0.010204309,0.02875746227800846,-0.08288624
1972.8999999985344,-0.20011131,-1.0176944,0.17219377,-2.3862596,-0.4785621,1.4311031,0.39855373,0.039996687,0.04,-7.980766,-5.515246868133545,-1.3861368,-0.009817534,0.028154103085398674,-0.081281476
1972.916666665201,-0.200577,-1.018237,0.17259397,-2.3863285,-0.47967476,1.4307781,0.39765298,0.03999668,0.04,-7.972347,-5.52586030960083,-1.3930721,-0.009433664,0.027544355019927025,-0.07968119
1972.9333333318677,-0.20103337,-1.0187687,0.17298603,-2.3863971,-0.48076496,1.4304597,0.3967703,0.03999667,0.04,-7.9640293,-5.536191463470459,-1.3996654,-0.009051637,0.026926662772893906,-0.0780843
1972.9499999985344,-0.20148039,-1.0192895,0.17337012,-2.3864653,-0.4818329,1.4301475,0.39590567,0.03999665,0.04,-7.9560328,-5.546405792236328,-1.4063929,-0.0086706495,0.026299692690372467,-0.07649699
1972.966666665201,-0.20191813,-1.0197998,0.17374623,-2.3865325,-0.48287866,1.4298418,0.39505914,0.039996643,0.04,-7.9481025,-5.5562968254089355,-1.4127531,-0.008290918,0.0256614089012146,-0.07491214
1972.9833333318677,-0.20234655,-1.0202992,0.17411433,-2.3865945,-0.48390216,1.4295428,0.3942305,0.03999663,0.04,-7.9403,-5.566033363342285,-1.419183,-0.007915304,0.02501777745783329,-0.07333456
1972.9999999985343,-0.20276573,-1.020788,0.17447448,-2.386656,-0.4849036,1.4292502,0.3934198,0.039996613,0.04,-7.9321337,-5.575274467468262,-1.4251554,-0.0075504323,0.02438514679670334,-0.071759306
1973.016666665201,-0.2031756,-1.0212659,0.17482667,-2.3867173,-0.4858829,1.428964,0.39262688,0.039996605,0.04,-7.924701,-5.584578037261963,-1.4313409,-0.007188015,0.02374563366174698,-0.07018915
1973.0333333318677,-0.20357633,-1.0217329,0.17517096,-2.386778,-0.48684025,1.4286842,0.39185193,0.039996598,0.04,-7.9174023,-5.5936279296875,-1.4372243,-0.0068256557,0.023096630349755287,-0.06862656
1973.0499999985343,-0.20396784,-1.0221891,0.17550738,-2.3868382,-0.48777547,1.4284109,0.39109474,0.039996587,0.04,-7.910317,-5.6025238037109375,-1.443213,-0.0064655333,0.02244037389755249,-0.067073315
1973.066666665201,-0.20435019,-1.0226347,0.17583592,-2.386895,-0.4886889,1.4281441,0.39035526,0.039996583,0.04,-7.90331,-5.611146926879883,-1.4489727,-0.0061069024,0.02177799865603447,-0.06552831
1973.0833333318676,-0.20472339,-1.0230696,0.17615661,-2.3869493,-0.4895805,1.4278835,0.38963348,0.039996576,0.04,-7.8960943,-5.619378089904785,-1.4543818,-0.0057568136,0.02112274058163166,-0.0639881
1973.0999999985343,-0.20508759,-1.0234942,0.17646955,-2.3870027,-0.4904504,1.4276292,0.38892922,0.039996564,0.04,-7.8892875,-5.6275634765625,-1.459925,-0.0054119388,0.020466934889554977,-0.062456876
1973.116666665201,-0.20544265,-1.0239081,0.17677471,-2.3870559,-0.49129865,1.4273814,0.3882424,0.039996557,0.04,-7.882667,-5.635519027709961,-1.4651401,-0.0050705536,0.01980869472026825,-0.060933944
1973.1333333318676,-0.20578878,-1.0243118,0.17707208,-2.3871086,-0.49212542,1.4271396,0.38757297,0.039996546,0.04,-7.876358,-5.643354415893555,-1.4705297,-0.004730046,0.01914544776082039,-0.05942167
1973.1499999985342,-0.20612592,-1.0247047,0.1773618,-2.3871605,-0.49293095,1.4269042,0.38692078,0.03999654,0.04,-7.870125,-5.650919437408447,-1.4755299,-0.0043919575,0.018477393314242363,-0.057920985
1973.1666666652009,-0.20645417,-1.0250871,0.17764387,-2.387209,-0.49371514,1.426675,0.3862858,0.039996542,0.04,-7.8641195,-5.658332824707031,-1.4806885,-0.0040549967,0.01780460588634014,-0.05642936
1973.1833333318675,-0.20677361,-1.0254595,0.17791836,-2.3872547,-0.49447834,1.426452,0.38566798,0.039996535,0.04,-7.857831,-5.665330410003662,-1.4853815,-0.0037266372,0.017140770331025124,-0.054946847
1973.1999999985342,-0.20708428,-1.0258217,0.17818528,-2.3873005,-0.49522042,1.4262351,0.3850672,0.039996523,0.04,-7.85187,-5.672247409820557,-1.4901414,-0.0034064627,0.016484307125210762,-0.053472742
1973.2166666652008,-0.20738621,-1.0261735,0.17844471,-2.387346,-0.49594167,1.4260243,0.3844832,0.039996516,0.04,-7.8463335,-5.679060935974121,-1.4947014,-0.0030868605,0.01582113839685917,-0.05201373
1973.2333333318675,-0.20767948,-1.0265152,0.17869672,-2.387391,-0.49664232,1.4258195,0.38391602,0.039996505,0.04,-7.8409605,-5.685683727264404,-1.4993697,-0.0027682502,0.015155727043747902,-0.050567407
1973.2499999985341,-0.20796412,-1.0268472,0.17894131,-2.3874354,-0.49732235,1.4256207,0.38336548,0.039996497,0.04,-7.835669,-5.692074298858643,-1.5036886,-0.002452159,0.01448760274797678,-0.049134605
1973.2666666652008,-0.20824024,-1.0271691,0.17917858,-2.3874762,-0.49798203,1.4254282,0.38283134,0.039996494,0.04,-7.8305306,-5.698287010192871,-1.5080682,-0.0021397583,0.013820180669426918,-0.04771457
1973.2833333318674,-0.20850791,-1.0274814,0.17940858,-2.3875144,-0.49862152,1.4252411,0.3823136,0.039996494,0.04,-7.825187,-5.704130172729492,-1.5120744,-0.0018352284,0.013165171258151531,-0.046304863
1973.299999998534,-0.20876719,-1.0277839,0.17963137,-2.3875525,-0.49924093,1.4250603,0.38181216,0.039996482,0.04,-7.820169,-5.709898471832275,-1.5161096,-0.001539087,0.012517211027443409,-0.04490754
1973.3166666652007,-0.2090182,-1.0280762,0.17984705,-2.3875904,-0.49984062,1.4248849,0.3813267,0.039996475,0.04,-7.8155484,-5.715572834014893,-1.5200995,-0.0012444478,0.011868806555867195,-0.04352661
1973.3333333318674,-0.20926096,-1.0283595,0.1800556,-2.3876276,-0.5004206,1.4247158,0.38085705,0.03999647,0.04,-7.8110633,-5.721029758453369,-1.5238774,-0.00095018826,0.011216534301638603,-0.0421623
1973.349999998534,-0.20949557,-1.028633,0.18025726,-2.3876643,-0.5009812,1.4245518,0.3804032,0.039996468,0.04,-7.806674,-5.726334095001221,-1.5276569,-0.0006602578,0.010570544749498367,-0.040812854
1973.3666666652007,-0.20972219,-1.0288974,0.18045197,-2.3876977,-0.50152254,1.4243939,0.3799649,0.03999646,0.04,-7.8024373,-5.731419086456299,-1.5312151,-0.00037208316,0.00992264412343502,-0.039480936
1973.3833333318673,-0.20994087,-1.0291524,0.18063991,-2.3877292,-0.5020448,1.4242411,0.379542,0.039996453,0.04,-7.7980523,-5.736230373382568,-1.534694,-9.424744e-05,0.00929153710603714,-0.038162738
1973.399999998534,-0.21015166,-1.0293982,0.18082108,-2.3877597,-0.5025485,1.4240943,0.3791343,0.03999645,0.04,-7.79394,-5.740907192230225,-1.5379279,0.00017791515,0.008666247129440308,-0.03686182
1973.4166666652006,-0.21035473,-1.0296348,0.18099557,-2.38779,-0.5030337,1.4239523,0.37874153,0.039996445,0.04,-7.7901483,-5.745499610900879,-1.5413102,0.0004465339,0.00804685615003109,-0.03557619
1973.4333333318673,-0.21055014,-1.0298626,0.1811635,-2.3878195,-0.50350046,1.4238168,0.37836358,0.03999644,0.04,-7.786492,-5.749903202056885,-1.5443927,0.00071241806,0.007427630014717579,-0.034311764
1973.449999998534,-0.210738,-1.0300819,0.18132494,-2.3878486,-0.5039493,1.4236854,0.37800026,0.039996438,0.04,-7.7829814,-5.754177093505859,-1.5475748,0.00097500917,0.0068184249103069305,-0.033064306
1973.4666666652006,-0.21091844,-1.0302922,0.18148002,-2.387877,-0.50438046,1.4235588,0.37765124,0.03999643,0.04,-7.7795863,-5.758243083953857,-1.5504154,0.001233453,0.006209352519363165,-0.031838145
1973.4833333318672,-0.21109156,-1.0304939,0.18162882,-2.3879023,-0.5047941,1.4234388,0.37731624,0.039996427,0.04,-7.776419,-5.762203693389893,-1.5534037,0.0014896266,0.005602566991001368,-0.030633043
1973.499999998534,-0.21125747,-1.0306875,0.18177144,-2.387926,-0.50519055,1.4233229,0.37699538,0.039996423,0.04,-7.772922,-5.765788555145264,-1.5560127,0.0017364422,0.005018947646021843,-0.029442469
1973.5166666652005,-0.2114163,-1.0308727,0.18190797,-2.387949,-0.50557,1.423211,0.37668815,0.03999642,0.04,-7.7699223,-5.769417762756348,-1.5586855,0.0019764951,0.0044414992444217205,-0.02827346
1973.5333333318672,-0.21156818,-1.0310501,0.18203855,-2.3879714,-0.5059329,1.4231062,0.37639433,0.03999642,0.04,-7.767034,-5.7728400230407715,-1.5611385,0.0022123887,0.003867610590532422,-0.027127953
1973.5499999985338,-0.2117133,-1.0312191,0.18216324,-2.3879933,-0.5062794,1.4230056,0.37611374,0.03999642,0.04,-7.7642746,-5.776158332824707,-1.5637101,0.0024435981,0.0033117402344942093,-0.025999293
1973.5666666652005,-0.21185169,-1.0313803,0.18228221,-2.3880146,-0.5066101,1.4229088,0.37584612,0.03999641,0.04,-7.7617655,-5.779353141784668,-1.5661298,0.0026724816,0.0027586622163653374,-0.024897316
1973.5833333318672,-0.21198352,-1.031534,0.18239549,-2.3880355,-0.5069253,1.422816,0.37559125,0.039996408,0.04,-7.759241,-5.782337188720703,-1.5682975,0.002896046,0.0022119826171547174,-0.023818577
1973.5999999985338,-0.21210891,-1.0316802,0.18250328,-2.3880546,-0.50722486,1.422728,0.37534872,0.039996408,0.04,-7.757004,-5.785264015197754,-1.5705827,0.003115937,0.0016691447235643864,-0.022764439
1973.6166666652005,-0.21222806,-1.0318192,0.18260567,-2.388072,-0.5075095,1.4226444,0.3751183,0.039996408,0.04,-7.754595,-5.787933349609375,-1.5725825,0.003328844,0.001142683788202703,-0.021733629
1973.633333331867,-0.21234113,-1.0319512,0.18270281,-2.3880882,-0.5077793,1.4225667,0.37489972,0.039996404,0.04,-7.7523704,-5.790493965148926,-1.5746251,0.003533877,0.0006314037018455565,-0.020726258
1973.6499999985338,-0.2124482,-1.0320761,0.18279482,-2.3881035,-0.5080351,1.4224927,0.37469277,0.039996404,0.04,-7.750252,-5.792922496795654,-1.5764809,0.003732603,0.00013961148215457797,-0.019741546
1973.6666666652004,-0.21254942,-1.0321943,0.18288179,-2.388118,-0.5082769,1.4224226,0.37449706,0.039996404,0.04,-7.7483516,-5.795282363891602,-1.5783845,0.003925495,-0.0003413806844037026,-0.018782191
1973.683333331867,-0.21264493,-1.0323055,0.18296394,-2.3881323,-0.50850505,1.4223564,0.37431228,0.039996408,0.04,-7.7465577,-5.797495365142822,-1.5800637,0.004113385,-0.0008114015217870474,-0.017849933
1973.6999999985337,-0.21273498,-1.0324107,0.18304135,-2.3881462,-0.5087201,1.4222939,0.3741381,0.039996408,0.04,-7.7449894,-5.799668312072754,-1.5818794,0.004298503,-0.0012734095798805356,-0.016946593
1973.7166666652004,-0.21281967,-1.0325096,0.1831142,-2.3881598,-0.5089225,1.4222344,0.37397426,0.0399964,0.04,-7.743364,-5.801634311676025,-1.5833818,0.004476949,-0.0017211807426065207,-0.016070519
1973.733333331867,-0.21289922,-1.0326022,0.18318261,-2.3881729,-0.5091123,1.4221784,0.37382042,0.0399964,0.04,-7.7419777,-5.803560256958008,-1.585017,0.004651021,-0.0021606755908578634,-0.015224267
1973.7499999985337,-0.21297382,-1.0326891,0.18324672,-2.388184,-0.5092904,1.4221258,0.37367615,0.0399964,0.04,-7.7406545,-5.805335521697998,-1.5864873,0.0048211017,-0.0025897796731442213,-0.01440961
1973.7666666652003,-0.21304359,-1.0327703,0.18330672,-2.3881943,-0.5094571,1.4220768,0.37354124,0.039996397,0.04,-7.7392254,-5.806943893432617,-1.5878885,0.0049815453,-0.0029992572963237762,-0.013622435
1973.783333331867,-0.2131087,-1.0328462,0.18336272,-2.3882036,-0.50961274,1.4220313,0.3734153,0.039996393,0.04,-7.73796,-5.80845832824707,-1.5891899,0.005135169,-0.0033914295490831137,-0.0128629375
1973.7999999985336,-0.2131694,-1.0329173,0.1834149,-2.3882122,-0.5097576,1.4219892,0.37329793,0.03999639,0.04,-7.736846,-5.809933185577393,-1.5905184,0.0052818577,-0.00376698630861938,-0.0121345455
1973.8166666652003,-0.21322586,-1.0329831,0.18346342,-2.38822,-0.5098924,1.4219497,0.37318873,0.03999639,0.04,-7.735797,-5.811305999755859,-1.5917094,0.0054212506,-0.0041235703974962234,-0.011436296
1973.833333331867,-0.2132782,-1.0330443,0.18350846,-2.388227,-0.5100176,1.4219127,0.37308747,0.03999639,0.04,-7.7348285,-5.812560081481934,-1.5928307,0.0055544884,-0.004465953912585974,-0.010770516
1973.8499999985336,-0.21332677,-1.0331012,0.1835502,-2.3882337,-0.5101335,1.4218787,0.37299362,0.03999639,0.04,-7.7339635,-5.813782215118408,-1.593952,0.0056797257,-0.004792605061084032,-0.010137776
1973.8666666652002,-0.21337166,-1.0331538,0.18358877,-2.38824,-0.5102407,1.4218479,0.37290692,0.03999639,0.04,-7.733157,-5.8148884773254395,-1.5949745,0.005798553,-0.005100821610540152,-0.009537358
1973.8833333318669,-0.21341307,-1.0332023,0.1836244,-2.3882463,-0.5103395,1.4218185,0.37282684,0.039996386,0.04,-7.7324796,-5.815967082977295,-1.5960605,0.0059107617,-0.005389937199652195,-0.008971035
1973.8999999985335,-0.21345125,-1.033247,0.18365724,-2.3882523,-0.5104307,1.421792,0.37275302,0.039996386,0.04,-7.7318625,-5.81695032119751,-1.5969838,0.0060171294,-0.0056669521145522594,-0.008441535
1973.9166666652002,-0.21348642,-1.0332884,0.18368748,-2.3882582,-0.5105147,1.4217671,0.37268513,0.039996386,0.04,-7.731308,-5.817883491516113,-1.5979855,0.0061171525,-0.005924149416387081,-0.007946095
1973.9333333318668,-0.21351877,-1.0333263,0.1837153,-2.3882642,-0.5105918,1.4217446,0.37262252,0.039996386,0.04,-7.730814,-5.818745136260986,-1.5988301,0.0062096384,-0.006166147533804178,-0.007487996
1973.9499999985335,-0.21354857,-1.033361,0.1837408,-2.3882697,-0.51066285,1.4217235,0.37256497,0.03999638,0.04,-7.730398,-5.819561004638672,-1.5997838,0.006297212,-0.0063895476050674915,-0.007067309
1973.9666666652001,-0.213576,-1.0333925,0.18376432,-2.3882747,-0.51072824,1.4217046,0.372512,0.039996378,0.04,-7.729971,-5.820261478424072,-1.6005598,0.006377607,-0.006597534753382206,-0.0066814786
1973.9833333318668,-0.21360125,-1.0334221,0.18378595,-2.388279,-0.51078844,1.4216866,0.37246332,0.039996374,0.04,-7.729567,-5.820924282073975,-1.6013734,0.0064524696,-0.006787474732846022,-0.006325479
1973.9999999985334,-0.21362448,-1.0334492,0.18380599,-2.3882823,-0.51084393,1.4216707,0.37241846,0.03999637,0.04,-7.729135,-5.821513652801514,-1.6019421,0.0065190187,-0.006962376181036234,-0.0059980853
1974.0166666652,-0.21364583,-1.0334741,0.18382435,-2.3882854,-0.51089466,1.4216558,0.37237725,0.039996367,0.04,-7.728715,-5.822056293487549,-1.6026007,0.0065797525,-0.007119127549231052,-0.0056941905
1974.0333333318667,-0.2136655,-1.033497,0.18384121,-2.3882883,-0.51094157,1.4216416,0.37233922,0.039996363,0.04,-7.7284107,-5.8225812911987305,-1.603138,0.0066355034,-0.007263773120939732,-0.005416769
1974.0499999985334,-0.21368359,-1.0335181,0.18385677,-2.388291,-0.5109847,1.4216292,0.37230426,0.039996363,0.04,-7.728144,-5.823050498962402,-1.6036726,0.0066870637,-0.007399546913802624,-0.0051608845
1974.0666666652,-0.2137002,-1.0335374,0.1838711,-2.388293,-0.5110245,1.4216179,0.37227207,0.039996363,0.04,-7.727856,-5.823489665985107,-1.604171,0.0067343465,-0.007521414663642645,-0.004924188
1974.0833333318667,-0.21371554,-1.0335555,0.18388425,-2.3882952,-0.511061,1.421607,0.37224248,0.039996363,0.04,-7.727582,-5.823879241943359,-1.6045972,0.0067778155,-0.00763274310156703,-0.0047057644
1974.0999999985333,-0.21372965,-1.0335717,0.18389636,-2.388297,-0.5110947,1.4215969,0.3722153,0.039996363,0.04,-7.7273793,-5.824268341064453,-1.60498,0.0068168296,-0.0077365366742014885,-0.0045055454
1974.1166666652,-0.21374261,-1.033587,0.18390752,-2.3882985,-0.5111256,1.421588,0.37219027,0.03999636,0.04,-7.727191,-5.824609279632568,-1.6053841,0.006853594,-0.00783383660018444,-0.004322637
1974.1333333318667,-0.21375452,-1.0336009,0.18391778,-2.3883,-0.51115406,1.4215797,0.37216723,0.039996356,0.04,-7.72694,-5.8249125480651855,-1.6057067,0.006886025,-0.007919316180050373,-0.00415288
1974.1499999985333,-0.21376547,-1.0336137,0.18392721,-2.3883014,-0.51118046,1.4215722,0.372146,0.039996356,0.04,-7.7267823,-5.825203895568848,-1.6060156,0.006916417,-0.007998581975698471,-0.0039965026
1974.1666666652,-0.21377555,-1.0336254,0.18393593,-2.3883026,-0.51120454,1.4215652,0.37212652,0.039996356,0.04,-7.726643,-5.825480937957764,-1.6063297,0.0069448245,-0.008072630502283573,-0.0038517825
1974.1833333318666,-0.21378484,-1.0336361,0.18394393,-2.3883038,-0.51122665,1.4215585,0.3721086,0.039996356,0.04,-7.7264805,-5.825728893280029,-1.6065886,0.0069708885,-0.00814039260149002,-0.0037195852
1974.1999999985333,-0.21379341,-1.0336461,0.18395129,-2.3883047,-0.5112472,1.4215524,0.37209207,0.039996352,0.04,-7.726374,-5.825962543487549,-1.606849,0.0069949515,-0.008204088546335697,-0.003598729
1974.2166666652,-0.2138013,-1.0336552,0.18395805,-2.3883057,-0.511266,1.421547,0.37207696,0.039996352,0.04,-7.7262187,-5.82615852355957,-1.6070459,0.0070164613,-0.00826195441186428,-0.0034860913
1974.2333333318666,-0.21380855,-1.0336636,0.18396427,-2.3883066,-0.5112832,1.4215422,0.37206295,0.039996352,0.04,-7.726122,-5.826356887817383,-1.6072931,0.007036447,-0.008314668200910091,-0.0033830386
1974.2499999985332,-0.21381526,-1.0336715,0.18397,-2.3883076,-0.5112991,1.4215375,0.37205008,0.039996352,0.04,-7.726013,-5.826537609100342,-1.6074646,0.0070550623,-0.008362743072211742,-0.003288281
1974.2666666651999,-0.2138214,-1.0336785,0.18397528,-2.3883083,-0.51131374,1.4215332,0.3720382,0.039996352,0.04,-7.725926,-5.826706886291504,-1.6076427,0.0070720017,-0.008407744579017162,-0.003201316
1974.2833333318665,-0.21382706,-1.0336851,0.18398014,-2.388309,-0.51132715,1.4215293,0.37202722,0.039996352,0.04,-7.7258286,-5.826848030090332,-1.6078118,0.0070881224,-0.008449403569102287,-0.0031210256
1974.2999999985332,-0.21383226,-1.0336912,0.1839846,-2.3883097,-0.51133955,1.4215257,0.37201717,0.039996352,0.04,-7.725754,-5.826988697052002,-1.607962,0.0071029663,-0.00848747044801712,-0.003047519
1974.3166666651998,-0.21383706,-1.0336965,0.18398874,-2.3883104,-0.51135087,1.4215225,0.37200794,0.039996352,0.04,-7.7256775,-5.827116966247559,-1.6080966,0.007116313,-0.008522381074726582,-0.00297943
1974.3333333318665,-0.21384145,-1.0337015,0.1839925,-2.3883107,-0.51136136,1.4215193,0.37199947,0.039996352,0.04,-7.725623,-5.827244281768799,-1.6082476,0.007129511,-0.008555167354643345,-0.0029173656
1974.3499999985331,-0.2138455,-1.0337063,0.18399599,-2.388311,-0.511371,1.4215163,0.37199172,0.039996352,0.04,-7.535371,-5.721517086029053,-1.4413313,0.0,-0.0,0.0
1974.3666666651998,-0.2138455,-1.0337063,0.18399599,-2.388311,-0.511371,1.4215163,0.37199172,0.039996352,0.04,-7.7257657,-5.827516555786133,-1.6089462,0.0,-0.0,0.0
1974.3833333318664,-0.2138455,-1.0337063,0.18399599,-2.388311,-0.511371,1.4215163,0.37199172,0.039996352,0.04,-7.7257657,-5.827516555786133,-1.6089462,0.0,-0.0,0.0
1974.399999998533,-0.2138455,-1.0337063,0.18399599,-2.388311,-0.511371,1.4215163,0.37199172,0.039996352,0.04,-7.7257657,-5.827516555786133,-1.6089462,0.0,-0.0,0.0
1974.4166666651997,-0.2138455,-1.0337063,0.18399599,-2.388311,-0.511371,1.4215163,0.37199172,0.039996352,0.04,-7.7257657,-5.827516555786133,-1.6089462,0.0,-0.0,0.0
1974.4333333318664,-0.2138455,-1.0337063,0.18399599,-2.388311,-0.511371,1.4215163,0.37199172,0.039996352,0.04,-7.7257657,-5.827516555786133,-1.6089462,0.0,-0.0,0.0
1974.449999998533,-0.2138455,-1.0337063,0.18399599,-2.388311,-0.511371,1.4215163,0.37199172,0.039996352,0.04,-7.7257657,-5.827516555786133,-1.6089462,0.0,-0.0,0.0
1974.4666666651997,-0.2138455,-1.0337063,0.18399599,-2.388311,-0.511371,1.4215163,0.37199172,0.039996352,0.04,-7.7257657,-5.827516555786133,-1.6089462,0.0,-0.0,0.0
1974.4833333318663,-0.2138455,-1.0337063,0.18399599,-2.388311,-0.511371,1.4215163,0.37199172,0.039996352,0.04,-7.7257657,-5.827516555786133,-1.6089462,0.0,-0.0,0.0
1974.499999998533,-0.2138455,-1.0337063,0.18399599,-2.388311,-0.511371,1.4215163,0.37199172,0.039996352,0.04,-7.7257657,-5.827516555786133,-1.6089462,0.0,-0.0,0.0
1974.5166666651996,-0.2138455,-1.0337063,0.18399599,-2.388311,-0.511371,1.4215163,0.37199172,0.039996352,0.04,-7.7257657,-5.827516555786133,-1.6089462,0.0,-0.0,0.0
1974.5333333318663,-0.2138455,-1.0337063,0.18399599,-2.388311,-0.511371,1.4215163,0.37199172,0.039996352,0.04,-7.7257657,-5.827516555786133,-1.6089462,0.0,-0.0,0.0
1974.549999998533,-0.2138455,-1.0337063,0.18399599,-2.388311,-0.511371,1.4215163,0.37199172,0.039996352,0.04,-7.7257657,-5.827516555786133,-1.6089462,0.0,-0.0,0.0
1974.5666666651996,-0.2138455,-1.0337063,0.18399599,-2.388311,-0.511371,1.4215163,0.37199172,0.039996352,0.04,-7.7257657,-5.827516555786133,-1.6089462,0.0,-0.0,0.0
1974.5833333318662,-0.2138455,-1.0337063,0.18399599,-2.388311,-0.511371,1.4215163,0.37199172,0.039996352,0.04,-7.7257657,-5.827516555786133,-1.6089462,0.0,-0.0,0.0
1974.599999998533,-0.2138455,-1.0337063,0.18399599,-2.388311,-0.511371,1.4215163,0.37199172,0.039996352,0.04,-7.7257657,-5.827516555786133,-1.6089462,0.0,-0.0,0.0
1974.6166666651995,-0.2138455,-1.0337063,0.18399599,-2.388311,-0.511371,1.4215163,0.37199172,0.039996352,0.04,-7.7257657,-5.827516555786133,-1.6089462,0.0,-0.0,0.0
1974.6333333318662,-0.2138455,-1.0337063,0.18399599,-2.388311,-0.511371,1.4215163,0.37199172,0.039996352,0.04,-7.7257657,-5.827516555786133,-1.6089462,0.0,-0.0,0.0
1974.6499999985328,-0.2138455,-1.0337063,0.18399599,-2.388311,-0.511371,1.4215163,0.37199172,0.039996352,0.04,-7.7257657,-5.827516555786133,-1.6089462,0.0,-0.0,0.0
1974.6666666651995,-0.2138455,-1.0337063,0.18399599,-2.388311,-0.511371,1.4215163,0.37199172,0.039996352,0.04,-7.7257657,-5.827516555786133,-1.6089462,0.0,-0.0,0.0
1974.6833333318662,-0.2138455,-1.0337063,0.18399599,-2.388311,-0.511371,1.4215163,0.37199172,0.039996352,0.04,-7.7257657,-5.827516555786133,-1.6089462,0.0,-0.0,0.0
1974.6999999985328,-0.2138455,-1.0337063,0.18399599,-2.388311,-0.511371,1.4215163,0.37199172,0.039996352,0.04,-7.7257657,-5.827516555786133,-1.6089462,0.0,-0.0,0.0
1974.7166666651995,-0.2138455,-1.0337063,0.18399599,-2.388311,-0.511371,1.4215163,0.37199172,0.039996352,0.04,-7.7257657,-5.827516555786133,-1.6089462,0.0,-0.0,0.0
1974.733333331866,-0.2138455,-1.0337063,0.18399599,-2.388311,-0.511371,1.4215163,0.37199172,0.039996352,0.04,-7.7257657,-5.827516555786133,-1.6089462,0.0,-0.0,0.0
1974.7499999985328,-0.2138455,-1.0337063,0.18399599,-2.388311,-0.511371,1.4215163,0.37199172,0.039996352,0.04,-7.7257657,-5.827516555786133,-1.6089462,0.0,-0.0,0.0
1974.7666666651994,-0.2138455,-1.0337063,0.18399599,-2.388311,-0.511371,1.4215163,0.37199172,0.039996352,0.04,-7.7257657,-5.827516555786133,-1.6089462,0.0,-0.0,0.0
1974.783333331866,-0.2138455,-1.0337063,0.18399599,-2.388311,-0.511371,1.4215163,0.37199172,0.039996352,0.04,-7.7257657,-5.827516555786133,-1.6089462,0.0,-0.0,0.0
1974.7999999985327,-0.2138455,-1.0337063,0.18399599,-2.388311,-0.511371,1.4215163,0.37199172,0.039996352,0.04,-7.7257657,-5.827516555786133,-1.6089462,0.0,-0.0,0.0
1974.8166666651994,-0.2138455,-1.0337063,0.18399599,-2.388311,-0.511371,1.4215163,0.37199172,0.039996352,0.04,-7.7257657,-5.827516555786133,-1.6089462,0.0,-0.0,0.0
1974.833333331866,-0.2138455,-1.0337063,0.18399599,-2.388311,-0.511371,1.4215163,0.37199172,0.039996352,0.04,-7.7257657,-5.827516555786133,-1.6089462,0.0,-0.0,0.0
1974.8499999985327,-0.2138455,-1.0337063,0.18399599,-2.388311,-0.511371,1.4215163,0.37199172,0.039996352,0.04,-7.7257657,-5.827516555786133,-1.6089462,0.0,-0.0,0.0
1974.8666666651993,-0.2138455,-1.0337063,0.18399599,-2.388311,-0.511371,1.4215163,0.37199172,0.039996352,0.04,-7.7257657,-5.827516555786133,-1.6089462,0.0,-0.0,0.0
1974.883333331866,-0.2138455,-1.0337063,0.18399599,-2.388311,-0.511371,1.4215163,0.37199172,0.039996352,0.04,-7.7257657,-5.827516555786133,-1.6089462,0.0,-0.0,0.0
1974.8999999985326,-0.2138455,-1.0337063,0.18399599,-2.388311,-0.511371,1.4215163,0.37199172,0.039996352,0.04,-7.7257657,-5.827516555786133,-1.6089462,0.0,-0.0,0.0
1974.9166666651993,-0.2138455,-1.0337063,0.18399599,-2.388311,-0.511371,1.4215163,0.37199172,0.039996352,0.04,-7.7257657,-5.827516555786133,-1.6089462,0.0,-0.0,0.0
1974.933333331866,-0.2138455,-1.0337063,0.18399599,-2.388311,-0.511371,1.4215163,0.37199172,0.039996352,0.04,-7.7257657,-5.827516555786133,-1.6089462,0.0,-0.0,0.0
1974.9499999985326,-0.2138455,-1.0337063,0.18399599,-2.388311,-0.511371,1.4215163,0.37199172,0.039996352,0.04,-7.7257657,-5.827516555786133,-1.6089462,0.0,-0.0,0.0
1974.9666666651992,-0.2138455,-1.0337063,0.18399599,-2.388311,-0.511371,1.4215163,0.37199172,0.039996352,0.04,-7.7257657,-5.827516555786133,-1.6089462,0.0,-0.0,0.0
1974.9833333318659,-0.2138455,-1.0337063,0.18399599,-2.388311,-0.511371,1.4215163,0.37199172,0.039996352,0.04,-7.7257657,-5.827516555786133,-1.6089462,0.0,-0.0,0.0
1974.9999999985325,-0.2138455,-1.0337063,0.18399599,-2.388311,-0.511371,1.4215163,0.37199172,0.039996352,0.04,-7.7257657,-5.827516555786133,-1.6089462,0.0,-0.0,0.0
1975.0166666651992,-0.2138455,-1.0337063,0.18399599,-2.388311,-0.511371,1.4215163,0.37199172,0.039996352,0.04,-7.7257657,-5.827516555786133,-1.6089462,0.0,-0.0,0.0
1975.0333333318658,-0.2138455,-1.0337063,0.18399599,-2.388311,-0.511371,1.4215163,0.37199172,0.039996352,0.04,-7.7257657,-5.827516555786133,-1.6089462,0.0,-0.0,0.0
1975.0499999985325,-0.2138455,-1.0337063,0.18399599,-2.388311,-0.511371,1.4215163,0.37199172,0.039996352,0.04,-7.7257657,-5.827516555786133,-1.6089462,0.0,-0.0,0.0
1975.0666666651991,-0.2138455,-1.0337063,0.18399599,-2.388311,-0.511371,1.4215163,0.37199172,0.039996352,0.04,-7.7257657,-5.827516555786133,-1.6089462,0.0,-0.0,0.0
1975.0833333318658,-0.2138455,-1.0337063,0.18399599,-2.388311,-0.511371,1.4215163,0.37199172,0.039996352,0.04,-7.7257657,-5.827516555786133,-1.6089462,0.0,-0.0,0.0
1975.0999999985324,-0.2138455,-1.0337063,0.18399599,-2.388311,-0.511371,1.4215163,0.37199172,0.039996352,0.04,-7.7257657,-5.827516555786133,-1.6089462,0.0,-0.0,0.0
1975.116666665199,-0.2138455,-1.0337063,0.18399599,-2.388311,-0.511371,1.4215163,0.37199172,0.039996352,0.04,-7.7257657,-5.827516555786133,-1.6089462,0.0,-0.0,0.0
1975.1333333318657,-0.2138455,-1.0337063,0.18399599,-2.388311,-0.511371,1.4215163,0.37199172,0.039996352,0.04,-7.7257657,-5.827516555786133,-1.6089462,0.0,-0.0,0.0
1975.1499999985324,-0.2138455,-1.0337063,0.18399599,-2.388311,-0.511371,1.4215163,0.37199172,0.039996352,0.04,-7.7257657,-5.827516555786133,-1.6089462,0.0,-0.0,0.0
1975.166666665199,-0.2138455,-1.0337063,0.18399599,-2.388311,-0.511371,1.4215163,0.37199172,0.039996352,0.04,-7.7257657,-5.827516555786133,-1.6089462,0.0,-0.0,0.0
1975.1833333318657,-0.2138455,-1.0337063,0.18399599,-2.388311,-0.511371,1.4215163,0.37199172,0.039996352,0.04,-7.7257657,-5.827516555786133,-1.6089462,0.0,-0.0,0.0
1975.1999999985323,-0.2138455,-1.0337063,0.18399599,-2.388311,-0.511371,1.4215163,0.37199172,0.039996352,0.04,-7.7257657,-5.827516555786133,-1.6089462,0.0,-0.0,0.0
1975.216666665199,-0.2138455,-1.0337063,0.18399599,-2.388311,-0.511371,1.4215163,0.37199172,0.039996352,0.04,-7.7257657,-5.827516555786133,-1.6089462,0.0,-0.0,0.0
1975.2333333318657,-0.2138455,-1.0337063,0.18399599,-2.388311,-0.511371,1.4215163,0.37199172,0.039996352,0.04,-7.7257657,-5.827516555786133,-1.6089462,0.0,-0.0,0.0
1975.2499999985323,-0.2138455,-1.0337063,0.18399599,-2.388311,-0.511371,1.4215163,0.37199172,0.039996352,0.04,-7.7257657,-5.827516555786133,-1.6089462,0.0,-0.0,0.0
1975.266666665199,-0.2138455,-1.0337063,0.18399599,-2.388311,-0.511371,1.4215163,0.37199172,0.039996352,0.04,-7.7257657,-5.827516555786133,-1.6089462,0.0,-0.0,0.0
1975.2833333318656,-0.2138455,-1.0337063,0.18399599,-2.388311,-0.511371,1.4215163,0.37199172,0.039996352,0.04,-7.7257657,-5.827516555786133,-1.6089462,0.0,-0.0,0.0
1975.2999999985323,-0.2138455,-1.0337063,0.18399599,-2.388311,-0.511371,1.4215163,0.37199172,0.039996352,0.04,-7.7257657,-5.827516555786133,-1.6089462,0.0,-0.0,0.0
1975.316666665199,-0.2138455,-1.0337063,0.18399599,-2.388311,-0.511371,1.4215163,0.37199172,0.039996352,0.04,-7.7257657,-5.827516555786133,-1.6089462,0.0,-0.0,0.0
1975.3333333318656,-0.2138455,-1.0337063,0.18399599,-2.388311,-0.511371,1.4215163,0.37199172,0.039996352,0.04,-7.7257657,-5.827516555786133,-1.6089462,0.0,-0.0,0.0
1975.3499999985322,-0.2138455,-1.0337063,0.18399599,-2.388311,-0.511371,1.4215163,0.37199172,0.039996352,0.04,-7.7257657,-5.827516555786133,-1.6089462,0.0,-0.0,0.0
1975.3666666651989,-0.2138455,-1.0337063,0.18399599,-2.388311,-0.511371,1.4215163,0.37199172,0.039996352,0.04,-7.7257657,-5.827516555786133,-1.6089462,0.0,-0.0,0.0
1975.3833333318655,-0.2138455,-1.0337063,0.18399599,-2.388311,-0.511371,1.4215163,0.37199172,0.039996352,0.04,-7.7257657,-5.827516555786133,-1.6089462,0.0,-0.0,0.0
1975.3999999985322,-0.2138455,-1.0337063,0.18399599,-2.388311,-0.511371,1.4215163,0.37199172,0.039996352,0.04,-7.7257657,-5.827516555786133,-1.6089462,0.0,-0.0,0.0
1975.4166666651988,-0.2138455,-1.0337063,0.18399599,-2.388311,-0.511371,1.4215163,0.37199172,0.039996352,0.04,-7.7257657,-5.827516555786133,-1.6089462,0.0,-0.0,0.0
1975.4333333318655,-0.2138455,-1.0337063,0.18399599,-2.388311,-0.511371,1.4215163,0.37199172,0.039996352,0.04,-7.7257657,-5.827516555786133,-1.6089462,0.0,-0.0,0.0
1975.4499999985321,-0.2138455,-1.0337063,0.18399599,-2.388311,-0.511371,1.4215163,0.37199172,0.039996352,0.04,-7.7257657,-5.827516555786133,-1.6089462,0.0,-0.0,0.0
1975.4666666651988,-0.2138455,-1.0337063,0.18399599,-2.388311,-0.511371,1.4215163,0.37199172,0.039996352,0.04,-7.7257657,-5.827516555786133,-1.6089462,0.0,-0.0,0.0
1975.4833333318654,-0.2138455,-1.0337063,0.18399599,-2.388311,-0.511371,1.4215163,0.37199172,0.039996352,0.04,-7.7257657,-5.827516555786133,-1.6089462,0.0,-0.0,0.0
1975.499999998532,-0.2138455,-1.0337063,0.18399599,-2.388311,-0.511371,1.4215163,0.37199172,0.039996352,0.04,-7.7257657,-5.827516555786133,-1.6089462,0.0,-0.0,0.0
1975.5166666651987,-0.2138455,-1.0337063,0.18399599,-2.388311,-0.511371,1.4215163,0.37199172,0.039996352,0.04,-7.7257657,-5.827516555786133,-1.6089462,0.0,-0.0,0.0
1975.5333333318654,-0.2138455,-1.0337063,0.18399599,-2.388311,-0.511371,1.4215163,0.37199172,0.039996352,0.04,-7.7257657,-5.827516555786133,-1.6089462,0.0,-0.0,0.0
1975.549999998532,-0.2138455,-1.0337063,0.18399599,-2.388311,-0.511371,1.4215163,0.37199172,0.039996352,0.04,-7.7257657,-5.827516555786133,-1.6089462,0.0,-0.0,0.0
1975.5666666651987,-0.2138455,-1.0337063,0.18399599,-2.388311,-0.511371,1.4215163,0.37199172,0.039996352,0.04,-7.7257657,-5.827516555786133,-1.6089462,0.0,-0.0,0.0
1975.5833333318653,-0.2138455,-1.0337063,0.18399599,-2.388311,-0.511371,1.4215163,0.37199172,0.039996352,0.04,-7.7257657,-5.827516555786133,-1.6089462,0.0,-0.0,0.0
1975.599999998532,-0.2138455,-1.0337063,0.18399599,-2.388311,-0.511371,1.4215163,0.37199172,0.039996352,0.04,-7.7257657,-5.827516555786133,-1.6089462,0.0,-0.0,0.0
1975.6166666651986,-0.2138455,-1.0337063,0.18399599,-2.388311,-0.511371,1.4215163,0.37199172,0.039996352,0.04,-7.7257657,-5.827516555786133,-1.6089462,0.0,-0.0,0.0
1975.6333333318653,-0.2138455,-1.0337063,0.18399599,-2.388311,-0.511371,1.4215163,0.37199172,0.039996352,0.04,-7.7257657,-5.827516555786133,-1.6089462,0.0,-0.0,0.0
1975.649999998532,-0.2138455,-1.0337063,0.18399599,-2.388311,-0.511371,1.4215163,0.37199172,0.039996352,0.04,-7.7257657,-5.827516555786133,-1.6089462,0.0,-0.0,0.0
1975.6666666651986,-0.2138455,-1.0337063,0.18399599,-2.388311,-0.511371,1.4215163,0.37199172,0.039996352,0.04,-7.7257657,-5.827516555786133,-1.6089462,0.0,-0.0,0.0
1975.6833333318652,-0.2138455,-1.0337063,0.18399599,-2.388311,-0.511371,1.4215163,0.37199172,0.039996352,0.04,-7.7257657,-5.827516555786133,-1.6089462,0.0,-0.0,0.0
1975.699999998532,-0.2138455,-1.0337063,0.18399599,-2.388311,-0.511371,1.4215163,0.37199172,0.039996352,0.04,-7.7257657,-5.827516555786133,-1.6089462,0.0,-0.0,0.0
1975.7166666651985,-0.2138455,-1.0337063,0.18399599,-2.388311,-0.511371,1.4215163,0.37199172,0.039996352,0.04,-7.7257657,-5.827516555786133,-1.6089462,0.0,-0.0,0.0
1975.7333333318652,-0.2138455,-1.0337063,0.18399599,-2.388311,-0.511371,1.4215163,0.37199172,0.039996352,0.04,-7.7257657,-5.827516555786133,-1.6089462,0.0,-0.0,0.0
1975.7499999985318,-0.2138455,-1.0337063,0.18399599,-2.388311,-0.511371,1.4215163,0.37199172,0.039996352,0.04,-7.7257657,-5.827516555786133,-1.6089462,0.0,-0.0,0.0
1975.7666666651985,-0.2138455,-1.0337063,0.18399599,-2.388311,-0.511371,1.4215163,0.37199172,0.039996352,0.04,-7.7257657,-5.827516555786133,-1.6089462,0.0,-0.0,0.0
1975.7833333318652,-0.2138455,-1.0337063,0.18399599,-2.388311,-0.511371,1.4215163,0.37199172,0.039996352,0.04,-7.7257657,-5.827516555786133,-1.6089462,0.0,-0.0,0.0
1975.7999999985318,-0.2138455,-1.0337063,0.18399599,-2.388311,-0.511371,1.4215163,0.37199172,0.039996352,0.04,-7.7257657,-5.827516555786133,-1.6089462,0.0,-0.0,0.0
1975.8166666651985,-0.2138455,-1.0337063,0.18399599,-2.388311,-0.511371,1.4215163,0.37199172,0.039996352,0.04,-7.7257657,-5.827516555786133,-1.6089462,0.0,-0.0,0.0
1975.833333331865,-0.2138455,-1.0337063,0.18399599,-2.388311,-0.511371,1.4215163,0.37199172,0.039996352,0.04,-7.7257657,-5.827516555786133,-1.6089462,0.0,-0.0,0.0
1975.8499999985318,-0.2138455,-1.0337063,0.18399599,-2.388311,-0.511371,1.4215163,0.37199172,0.039996352,0.04,-7.7257657,-5.827516555786133,-1.6089462,0.0,-0.0,0.0
1975.8666666651984,-0.2138455,-1.0337063,0.18399599,-2.388311,-0.511371,1.4215163,0.37199172,0.039996352,0.04,-7.7257657,-5.827516555786133,-1.6089462,0.0,-0.0,0.0
1975.883333331865,-0.2138455,-1.0337063,0.18399599,-2.388311,-0.511371,1.4215163,0.37199172,0.039996352,0.04,-7.7257657,-5.827516555786133,-1.6089462,0.0,-0.0,0.0
1975.8999999985317,-0.2138455,-1.0337063,0.18399599,-2.388311,-0.511371,1.4215163,0.37199172,0.039996352,0.04,-7.7257657,-5.827516555786133,-1.6089462,0.0,-0.0,0.0
1975.9166666651984,-0.2138455,-1.0337063,0.18399599,-2.388311,-0.511371,1.4215163,0.37199172,0.039996352,0.04,-7.7257657,-5.827516555786133,-1.6089462,0.0,-0.0,0.0
1975.933333331865,-0.2138455,-1.0337063,0.18399599,-2.388311,-0.511371,1.4215163,0.37199172,0.039996352,0.04,-7.7257657,-5.827516555786133,-1.6089462,0.0,-0.0,0.0
1975.9499999985317,-0.2138455,-1.0337063,0.18399599,-2.388311,-0.511371,1.4215163,0.37199172,0.039996352,0.04,-7.7257657,-5.827516555786133,-1.6089462,0.0,-0.0,0.0
