rsonawane2002/My_IMU/logs_incomplete/traj_468/clean_468.csv
time,j1,j2,j3,j4,j5,j6,j7,gripper1,gripper2,imu_ax,imu_ay,imu_az,imu_gx,imu_gy,imu_gz,quat_x,quat_y,quat_z,quat_w
2398.8833333362672,0.00016700293,-0.785875,4.0107683e-05,-2.3551247,9.29385e-05,1.570997,0.786,0.04,0.04,0.0,-0.0,0.0,2.875329272945135e-08,-0.0011641195053377316,4.421952117202833e-08,0.9999995971961153,0.00020320632366974898,0.0008736418299892524,3.263050917662294e-05
2398.900000002934,0.00016700174,-0.78576016,4.011997e-05,-2.3552213,9.29799e-05,1.5709941,0.786,0.04,0.04,-0.2919984601838399,-4.1548669107608705e-05,0.020128407219188738,3.2570030293741083e-07,-0.0022383399535711936,2.0156691465101388e-07,0.9999996850587192,0.00020320731863229525,0.0007665025183226395,3.260579233003975e-05
2398.916666669601,0.00016697281,-0.7856542,4.0168783e-05,-2.35531,9.305866e-05,1.5709913,0.786,0.04,0.04,0.023196973812211752,-4.06103430485201e-05,-0.0016027239199800647,3.0733130611605366e-06,-0.0032260558132741206,1.0476135614178472e-06,0.9999997558852104,0.0002032088707176049,0.0006677376453446902,3.25900492930883e-05
2398.933333336268,0.00016687192,-0.78555673,4.031508e-05,-2.355391,9.324094e-05,1.5709884,0.786,0.04,0.04,0.022394863265229326,-0.00011312296003854975,-0.0014911283497953676,1.0176503979237802e-05,-0.004135011875064518,3.2179953822460147e-06,0.9999998123284298,0.00020321153694245056,0.0005770491854636154,3.2594692626616624e-05
2398.9500000029348,0.00016663632,-0.78546685,4.0646297e-05,-2.3554645,9.3621726e-05,1.5709856,0.786,0.04,0.04,0.02133939916071359,-0.0002180363052772642,-0.000936580739363535,2.381837618823233e-05,-0.004965308006716146,7.282176781036555e-06,0.9999998568207178,0.0002032157774040448,0.0004939602962369366,3.2636137335324554e-05
2398.9666666696016,0.00016618682,-0.7853838,4.127371e-05,-2.3555312,9.432342e-05,1.5709827,0.786,0.04,0.04,0.018926620371351177,-0.000353191586417972,-0.000945619334435932,4.618416880795879e-05,-0.005720688022129564,1.3745028220972947e-05,0.9999998916044821,0.00020322188083724346,0.00041763650446688177,3.27359323916948e-05
2398.9833333362685,0.00016542901,-0.78530717,4.2329946e-05,-2.3555913,9.548774e-05,1.5709797,0.7860019,0.04,0.04,0.01836069074079294,-0.0005112755195807244,-0.0007546387183143821,7.973399666350512e-05,-0.006408915202218827,2.3076397158835442e-05,0.9999999181372972,0.00020418382310980675,0.00034777974563691885,3.2918294123515716e-05
2399.0000000029354,0.00016425534,-0.7852361,4.396682e-05,-2.3556485,9.728152e-05,1.5709767,0.7860038,0.04,0.04,0.011058006239683671,-0.0006956785477397933,-0.001925268556979276,0.00011733304438845848,-0.007030432363481006,3.567011573396786e-05,0.99999993859992,0.00020514817671175438,0.00028215486366427986,3.321166490589143e-05
2399.0166666696023,0.00016254628,-0.7851698,4.635315e-05,-2.3556988,9.9884994e-05,1.5709734,0.78600746,0.04,0.04,0.01684415101759207,-0.000897976325726701,0.00013445110045307018,0.0001696702612217749,-0.007605944318288967,5.191481570685935e-05,0.9999999533356452,0.00020697917619231864,0.00022216252380076275,3.364730557334423e-05
2399.033333336269,0.00016017159,-0.78510827,4.9673046e-05,-2.355742,0.000103499595,1.5709667,0.7860113,0.04,0.04,0.016435330689801297,-0.0011213510499784199,-0.0020405672545686926,0.00023125758640697334,-0.008120401673300718,7.211978970236328e-05,0.9999999637334149,0.00020890193113667677,0.00016649143104143605,3.42601125467842e-05
2399.050000002936,0.00015699155,-0.78505045,5.412402e-05,-2.3557806,0.00010834849,1.5709599,0.786017,0.04,0.039999995,0.011746929719347321,-0.001366710424917806,-0.00017007708621452622,0.0003108677141400179,-0.008585415935110727,9.733926421582833e-05,0.9999999703607594,0.00021178092255598975,0.0001148733113464147,3.509192870491685e-05
2399.066666669603,0.00015285843,-0.7849959,5.991561e-05,-2.355815,0.00011463874,1.5709528,0.78602463,0.04,0.04,0.010804512766071639,-0.0016052917449696686,-0.00021457835128746439,0.0004027389829562075,-0.009003252458494254,0.00012549786654180887,0.9999999738654691,0.00021561595575789348,6.686110685697314e-05,3.6171994198419964e-05
2399.08333333627,0.00014761701,-0.7849442,6.726765e-05,-2.3558426,0.00012261725,1.5709423,0.786034,0.04,0.04,0.01338413282023776,-0.0018775526123237,-0.0010933595538942242,0.0005082384120556171,-0.009375496376940743,0.0001591981486441256,0.999999974785075,0.00022031737670526956,2.191834485788378e-05,3.754582463850635e-05
2399.1000000029367,0.00014110576,-0.7848947,7.640902e-05,-2.3558643,0.00013253266,1.5709311,0.78604543,0.04,0.04,0.012406393904407231,-0.0021550401759662984,0.0008473957807453303,0.0006306554920430199,-0.009706386772287443,0.00019782333109990554,0.9999999734913305,0.00022606392570427884,-1.9269567155491646e-05,3.925714770872076e-05
2399.1166666696035,0.00013315781,-0.7848471,8.75767e-05,-2.355882,0.00014463523,1.5709167,0.7860588,0.04,0.04,0.007910816151146527,-0.0024365693623635784,-0.0016347863462939927,0.0007699883768637495,-0.00999106771547005,0.00024087009621618857,0.9999999703078749,0.00023276586833225762,-5.911665961805712e-05,4.134634634248234e-05
2399.1333333362704,0.00012360116,-0.7848008,0.000101013815,-2.3558934,0.00015920185,1.5708988,0.786075,0.04,0.04,0.010954246925343192,-0.0027406210286185927,-0.000578176733090352,0.0009284242651307785,-0.010248172478909773,0.0002905060755950588,0.9999999653259287,0.0002408999391837579,-9.690775725100837e-05,4.386624118709541e-05
2399.1500000029373,0.00011226054,-0.78475535,0.000116969924,-2.3558981,0.00017648531,1.5708795,0.7860941,0.04,0.04,0.011746966593850772,-0.0030307566299968974,0.001485525195255022,0.0011040422462698402,-0.010471065316203038,0.0003440258994757506,0.9999999588573093,0.00025049527943932443,-0.0001316892556964738,4.685546535667752e-05
2399.166666669604,9.895673e-05,-0.78471047,0.00013569862,-2.3558972,0.00019677803,1.5708566,0.7861168,0.04,0.04,0.009249034742486728,-0.0033501028232129433,-0.0004386986741877763,0.0012976604619619738,-0.010650893867644728,0.00040460220246225085,0.9999999508197198,0.00026184975345631235,-0.0001651003886447629,5.0369894368828094e-05
2399.183333336271,8.350825e-05,-0.78466564,0.00015745775,-2.3558903,0.00022035034,1.57083,0.786143,0.04,0.04,0.009023117892059673,-0.003656135666810841,-0.00011565400777069357,0.0015084508323481736,-0.010800519485509578,0.00046989076692602924,0.9999999412334645,0.00027499255913051673,-0.00019734988013686233,5.445351215509781e-05
2399.200000002938,6.573133e-05,-0.7846204,0.0001825082,-2.3558774,0.0002474746,1.5707995,0.7861733,0.039999995,0.04,0.00842018527942301,-0.003964786052441667,-2.242406640373673e-05,0.0017377764738018043,-0.010922612789581558,0.0005400200368089901,0.9999999299800771,0.0002901615402310726,-0.0002287954991094292,5.915015535307642e-05
2399.216666669605,4.5440644e-05,-0.78457457,0.00021111302,-2.355858,0.0002784415,1.5707648,0.78620803,0.03999999,0.04,0.00895675834080567,-0.004288160826741282,0.00011606678778086632,0.0019850852041599244,-0.011018557583249905,0.0006157858801179147,0.9999999169749251,0.0003075646381778576,-0.0002594076151760003,6.451221293848231e-05
2399.2333333362717,2.2449696e-05,-0.78452754,0.00024353708,-2.3558314,0.00031354066,1.5707254,0.78624725,0.039999988,0.039999995,0.009766666185795359,-0.004612099850769187,0.0005270221782982532,0.0022500942368422067,-0.011086973887588364,0.0006980950783596,0.9999999021465866,0.00032720095723695093,-0.00028924602286549905,7.059099861161889e-05
2399.2500000029386,-3.4286702e-06,-0.78447914,0.00028004614,-2.3557973,0.0003530583,1.5706809,0.78629154,0.039999988,0.04,0.0093797045984223,-0.004933647415456086,0.00018468132683135963,0.0025341598682784763,-0.011128339312549682,0.0007852575832000643,0.9999998851886599,0.00034936762282109575,-0.0003186983967044949,7.743554053471709e-05
2399.2666666696055,-3.2382042e-05,-0.78442895,0.00032090646,-2.3557563,0.00039728353,1.5706311,0.7863411,0.039999988,0.04,0.008145308032858622,-0.005257598402864374,0.0002960604233770425,0.002836180590891725,-0.011146231048545334,0.0008790047536104534,0.9999998657789527,0.0003741531696694738,-0.00034815243944421584,8.509618836528984e-05
2399.2833333362723,-6.459789e-05,-0.7843766,0.0003663842,-2.355708,0.00044650363,1.5705761,0.7863962,0.039999984,0.039999995,0.008483702434558538,-0.005580790193659177,0.0005353495836635247,0.0031566895040423546,-0.011141934164154895,0.0009784811458933827,0.9999998436051839,0.0004017352776176412,-0.000377668081017652,9.362262046815103e-05
2399.300000002939,-0.000100263205,-0.7843217,0.0004167453,-2.3556516,0.0005010058,1.5705149,0.78645724,0.03999998,0.03999999,0.008605222417834568,-0.005904484337086713,0.00045286777707875814,0.0034956706816722913,-0.011115410735005155,0.0010836708407940608,0.999999818205767,0.00043226147990612176,-0.0004075735223067506,0.00010306439576328877
2399.316666669606,-0.00013956444,-0.78426415,0.0004722543,-2.3555872,0.0005610761,1.5704477,0.7865245,0.039999973,0.039999984,0.008877166630183453,-0.0062266771317873735,0.0006277802601761806,0.0038528378861374005,-0.011070270420887552,0.0011945576468929114,0.9999997892016814,0.00046587941596786165,-0.0004378095920249784,0.00011347124646005335
2399.333333336273,-0.000182687,-0.7842033,0.0005331748,-2.3555145,0.0006269992,1.570374,0.78659827,0.03999996,0.039999977,0.008508688781749818,-0.006548068582466608,0.000805882288501536,0.0042284379519196506,-0.011004960116188262,0.0013102565711308818,0.9999997559580143,0.000502766204258488,-0.00046873441901296365,0.00012489235431439383
2399.35000000294,-0.0002298153,-0.7841394,0.00059976854,-2.3554327,0.00069905864,1.5702934,0.78667897,0.039999954,0.03999997,0.009834756493787289,-0.006868589904491362,0.000637035507544681,0.004621913066432435,-0.01092022928792086,0.0014324537932402246,0.999999718030517,0.0005430986989310643,-0.0005001101579439144,0.0001373772895558575
2399.3666666696067,-0.0002811319,-0.7840718,0.00067229493,-2.3553421,0.0007775348,1.570206,0.7867668,0.039999947,0.03999996,0.008740643462212816,-0.00718556409185923,0.0009900684050601072,0.005033241281378975,-0.01081500556242911,0.001560252112058274,0.9999996746372791,0.0005869942191316544,-0.0005323248815153362,0.00015097464383210867
2399.3833333362736,-0.00033681805,-0.7840003,0.00075101154,-2.355242,0.0008627056,1.5701112,0.78686225,0.039999943,0.039999958,0.009463677728471787,-0.007501426645658009,0.0009132432935876622,0.005462386481199693,-0.01069239559974353,0.0016935955949607235,0.9999996249760577,0.0006346588598170937,-0.0005654985388477507,0.00016573255001732447
2399.4000000029405,-0.00039705326,-0.7839245,0.0008361732,-2.355133,0.0009548461,1.5700085,0.7869654,0.039999936,0.039999954,0.007841520636420185,-0.007812940300169421,0.0005830690844144115,0.005908788399443353,-0.010550898793492455,0.0018315786742429036,0.9999995679166065,0.0006861799268847218,-0.0006002577912070044,0.00018169835484024754
2399.4166666696074,-0.0004620147,-0.7838442,0.00092803163,-2.3550146,0.0010542293,1.5698978,0.7870768,0.039999925,0.039999943,0.008545267647686039,-0.008123771308033616,0.0008403401470680194,0.006372414812610537,-0.010397821718290554,0.0019758523214663593,0.9999995024770066,0.0007417631012612562,-0.0006366035702768554,0.00019891992116482986
2399.4333333362742,-0.00053187757,-0.7837593,0.0010268361,-2.3548846,0.0011611246,1.5697784,0.7871966,0.039999917,0.039999936,0.011696732575505742,-0.008433524499143604,0.0013077736495725745,0.006852950908477496,-0.010233065721580895,0.0021255166816784863,0.9999994281170567,0.0008015533986223043,-0.0006737918474590381,0.0002174448323396651
2399.450000002941,-0.00060681463,-0.7836693,0.0011328326,-2.354745,0.0012757959,1.5696507,0.7873251,0.039999913,0.039999936,0.008237444247316539,-0.008734429519174566,0.0009847151064557025,0.00735009631123804,-0.010046108189327635,0.002279625262521786,0.9999993430391362,0.0008656673361384048,-0.0007128966400133161,0.00023731780391972698
2399.466666669608,-0.0006869964,-0.7835741,0.0012462618,-2.3545952,0.0013985062,1.5695138,0.78746253,0.03999991,0.039999932,0.00838447268853848,-0.009033592854569769,0.000681301649296806,0.007863552180156207,-0.009848508189560429,0.0024398406525959733,0.9999992458276551,0.000934221012269054,-0.0007541278187613459,0.00025858548772489035
2399.483333336275,-0.0007725908,-0.78347355,0.0013673631,-2.3544335,0.0015295126,1.5693679,0.7876092,0.03999991,0.039999932,0.011421470172834347,-0.009333356750275204,0.0016390663480470025,0.008393530374102167,-0.009642287559032592,0.0026052273407404227,0.9999991357477578,0.001007358158658675,-0.0007966225063681495,0.0002812931921828925
2399.5000000029418,-0.0008637629,-0.7833674,0.0014963718,-2.3542616,0.0016690686,1.5692123,0.78776556,0.039999913,0.03999994,0.008131011727119386,-0.009623666998272466,0.0005804687680521781,0.008939751731854757,-0.009415921772919451,0.0027748440868501792,0.9999990102449529,0.001085283864483042,-0.0008416339428817104,0.00030548380366516404
2399.5166666696086,-0.0009606754,-0.7832554,0.0016335179,-2.3540773,0.0018174241,1.5690472,0.7879318,0.03999992,0.039999947,0.011543421197712789,-0.009915330873634795,0.001767783118289401,0.009501038024500903,-0.00918270296588382,0.0029503421423234134,0.9999988685035311,0.0011681117152269617,-0.0008881505175794635,0.00033120286253454585
2399.5333333362755,-0.0010634875,-0.78313714,0.0017790287,-2.3538816,0.0019748244,1.568872,0.7881081,0.03999992,0.039999947,0.00926904536384665,-0.010199234741336454,0.0011318030460838457,0.010077365722426884,-0.00893291649875187,0.0031307732629744824,0.9999987079332142,0.0012559263266359172,-0.0009371575118824709,0.0003584923458519817
2399.5500000029424,-0.0011723557,-0.78301233,0.0019331267,-2.3536735,0.0021415097,1.5686861,0.7882948,0.03999993,0.039999958,0.010402188047531347,-0.010481532776146843,0.0013732911693820071,0.010668967815491705,-0.008674524258967354,0.003315199969436187,0.9999985266029722,0.0013488704648777143,-0.000988567503601181,0.0003873946882727937
2399.5666666696093,-0.0012874347,-0.78288144,0.0020960302,-2.353453,0.002317716,1.5684899,0.7884922,0.03999994,0.03999997,0.01099791609422418,-0.010757002088381939,0.00128068950304705,0.01127523287865291,-0.00840536857947857,0.0035052557662168223,0.9999983226741649,0.001447117515687965,-0.001042025031505666,0.0004179516554736757
2399.583333336276,-0.0014088746,-0.782744,0.0022679532,-2.3532197,0.0025036752,1.5682827,0.7887005,0.039999943,0.039999973,0.010680285261188693,-0.011030923306692498,0.0012135258044443376,0.011895298329953678,-0.008122552992272826,0.003700010167835187,0.9999980934967972,0.001550750013874389,-0.0010979496370797086,0.00045020413110571597
2399.600000002943,-0.001536823,-0.7825993,0.0024491062,-2.3529742,0.0026996138,1.5680645,0.7889201,0.039999943,0.039999977,0.009439408182898568,-0.011298094768852959,0.0014237719811127647,0.01252937305553294,-0.007829652471575927,0.0038984814388079558,0.999997835890327,0.0016599401697776246,-0.0011568802917504117,0.00048419137331257484
2399.61666666961,-0.0016714243,-0.7824473,0.0026396941,-2.3527148,0.0029057534,1.567835,0.789151,0.039999947,0.03999998,0.011821567220926532,-0.011565701956652193,0.001976539078807349,0.013176309006767643,-0.00753103069608492,0.004102324242965989,0.9999975480631325,0.0017747090070065327,-0.001218164000205341,0.0005199539712122067
2399.633333336277,-0.0018128199,-0.78228855,0.0028399192,-2.3524415,0.0031223104,1.5675939,0.78939354,0.03999995,0.039999988,0.01229291209006167,-0.011827009552270347,0.0014050004675691952,0.01383685689575543,-0.007219916323628823,0.004309741223102362,0.9999972272951015,0.0018951969851214701,-0.0012817142606720527,0.0005575294167862782
2399.6500000029437,-0.0019611474,-0.7821222,0.0030499748,-2.3521552,0.0033494972,1.567341,0.78964806,0.039999958,0.039999995,0.009968126478643313,-0.012076588987902665,0.001325540127261604,0.014510449414290917,-0.006896212368962425,0.004522346939087509,0.9999968691817394,0.002021576357400664,-0.0013485176812728782,0.0005969554536310417
2399.6666666696105,-0.0021165423,-0.7819481,0.0032700545,-2.3518558,0.0035875211,1.5670761,0.7899147,0.039999958,0.04,0.009826274482493957,-0.012328387468356003,0.0013937677166397933,0.015196160318414599,-0.0065662968982054,0.004738317174364308,0.999996470332943,0.002153927515503511,-0.0014186371681375633,0.0006382683592107805
2399.6833333362774,-0.002279136,-0.78176624,0.003500344,-2.3515418,0.0038365843,1.5667988,0.79019374,0.039999958,0.04,0.012092760953597015,-0.012578910257335374,0.001679046208269419,0.01589340106609332,-0.006232161688340374,0.00495930123381675,0.9999960279471264,0.0022923287291761207,-0.0014915994087060765,0.0006815058117443763
2399.7000000029443,-0.0024490566,-0.7815766,0.0037410266,-2.351213,0.004096883,1.5665092,0.79048526,0.039999958,0.04,0.012457059114434621,-0.01282322233429039,0.001908587265231354,0.016602334182630983,-0.0058883575757009005,0.005183486066673014,0.9999955386513222,0.002436858416772701,-0.0015672591390666144,0.0007267030338779884
2399.716666669611,-0.0026264284,-0.7813788,0.0039922805,-2.3508697,0.004368609,1.5662066,0.79078966,0.039999958,0.04,0.011448098055533151,-0.013060836636053126,0.001348793599809106,0.01732294682729843,-0.005533128125531514,0.005412467019818446,0.9999949973152693,0.00258768453541018,-0.001646305858356761,0.0007738928869993086
2399.733333336278,-0.002811374,-0.78117275,0.0042542783,-2.3505113,0.004651952,1.5658914,0.79110706,0.039999954,0.04,0.012233527901694963,-0.013297295569093294,0.0021088976401184567,0.018053781781255804,-0.005172934618622008,0.005645342215259632,0.9999944006070829,0.0027448553653978648,-0.001728296748841141,0.0008231122960479791
2399.750000002945,-0.003004011,-0.7809585,0.004527185,-2.350138,0.004947087,1.565563,0.7914377,0.03999995,0.04,0.012060734520891181,-0.013517942806995885,0.0015412834964312339,0.01879500762987618,-0.004802717638787812,0.005881159619129966,0.9999937435692245,0.0029084787810308346,-0.0018135641257176647,0.0008743905021551943
2399.766666669612,-0.0032044551,-0.7807357,0.004811168,-2.3497493,0.0052541955,1.5652212,0.7917817,0.039999947,0.039999995,0.012083432473408706,-0.013751768250020932,0.0017288142729388056,0.01954602677358888,-0.004425867966326012,0.006121498479108901,0.9999930214365178,0.0030786302004002547,-0.0019022021438945263,0.0009277614762775202
2399.7833333362787,-0.0034128164,-0.7805043,0.0051063835,-2.3493452,0.0055734464,1.5648661,0.7921394,0.039999943,0.039999995,0.012406417712962359,-0.013969363340989114,0.0018694896317006382,0.020306744746544262,-0.004041896080916204,0.006364591468814086,0.9999922294386717,0.0032554153949660076,-0.001994126422140475,0.0009832561690385649
2399.8000000029456,-0.003629204,-0.7802641,0.0054129856,-2.3489254,0.005905007,1.5644972,0.7925107,0.03999995,0.04,0.01241844928370206,-0.014187654510932225,0.001845185672255667,0.021076322285191643,-0.0036497245297271684,0.006611187130666834,0.9999913625325277,0.0034387902132128794,-0.0020895209278123566,0.0010409056154684771
2399.8166666696125,-0.0038537234,-0.78001505,0.005731123,-2.3484895,0.00624905,1.5641143,0.7928962,0.039999947,0.04,0.012693474807057292,-0.01440806884709005,0.0016847574149769784,0.02185543253510057,-0.0032518765078651743,0.006862858343242028,0.9999904144086935,0.0036290678449695996,-0.0021884510808273436,0.001100744826315039
2399.8333333362793,-0.0040864754,-0.7797569,0.006060941,-2.348037,0.006605706,1.5637175,0.79329574,0.039999947,0.04,0.013595637176666564,-0.014603430117438466,0.0022631504456471774,0.022641523929312797,-0.0028479875197610083,0.007115333861531051,0.999989380789323,0.0038261112414651305,-0.0022906542362239163,0.001162791694291037
2399.850000002946,-0.0043275566,-0.7794898,0.006402579,-2.3475683,0.006975158,1.5633065,0.7937096,0.03999995,0.04,0.012891543908577496,-0.014829319272459396,0.0017700182883384485,0.02343592791110567,-0.0024349734918135413,0.007374344656589198,0.999988255012636,0.004030053719086324,-0.002396404856022328,0.0012270890637736962
2399.866666669613,-0.004577063,-0.77921355,0.006756173,-2.3470838,0.007357537,1.562881,0.79413795,0.03999995,0.04,0.011725505293314065,-0.015013068101430577,0.0015157629895234948,0.02423804026087049,-0.002014712190379145,0.0076347337292559,0.9999870296218811,0.00424099943234626,-0.0025061861944685104,0.001293654737750943
2399.88333333628,-0.0048350864,-0.7789278,0.007121852,-2.3465824,0.0077529713,1.562441,0.79458094,0.039999947,0.04,0.0133583224152245,-0.015206854040426127,0.002128907474907571,0.02504686406298215,-0.0015920942913752664,0.007897432340313315,0.9999856993280266,0.004458957803647483,-0.0026196174535068595,0.0013625120697312227
2399.900000002947,-0.005101716,-0.7786327,0.007499741,-2.3460636,0.008161625,1.5619864,0.79503864,0.039999943,0.03999999,0.014276554242398376,-0.015420900795260796,0.002272847261597377,0.025862382321849797,-0.0011641921959750813,0.00816539244887541,0.9999842583768725,0.004683969359650587,-0.00273640766343701,0.0014337024076685604
2399.9166666696137,-0.0053770337,-0.77832794,0.00788996,-2.3455281,0.008583565,1.5615171,0.7955113,0.039999936,0.04,0.012637825696137917,-0.015557522774627998,0.0019467770655534622,0.026684480929376364,-0.0007259431388540946,0.008430764639529725,0.9999826980393628,0.004916135156399337,-0.002857189878496359,0.0015072169846118847
2399.9333333362806,-0.0056611225,-0.7780135,0.008292627,-2.3449755,0.009018949,1.5610328,0.795999,0.03999993,0.04,0.013347983497502547,-0.015767903214003627,0.0019809885170252173,0.027512240999644815,-0.00028495620894115545,0.008702153156558295,0.9999810115975685,0.005155463813248933,-0.0029818525268262962,0.0015830959168745202
2399.9500000029475,-0.005954059,-0.7776893,0.008707849,-2.3444054,0.00946791,1.5605329,0.796502,0.039999925,0.04,0.013380944471852452,-0.015957228530674543,0.0018332179340552202,0.028345323968148466,0.0001621169964253974,0.008976244851856358,0.9999791905069376,0.005402082638515956,-0.0031106123222563384,0.001661369085096941
2399.9666666696144,-0.00625592,-0.7773552,0.00913574,-2.3438187,0.009930562,1.5600182,0.79702026,0.03999993,0.04,0.012330998651566283,-0.016126637906275706,0.0019605859250093616,0.029183101194449335,0.0006112833403649522,0.009253766215269812,0.9999772272469828,0.005655943219999914,-0.0032435369606702395,0.0017420567479665414
2399.9833333362812,-0.006566778,-0.7770114,0.009576393,-2.3432138,0.010407027,1.5594883,0.7975539,0.039999932,0.04,0.014784768695519368,-0.01631288883942386,0.0023493868446688992,0.030025760061725942,0.0010646599595409076,0.009534577849867325,0.9999751159817647,0.005917079550184696,-0.0033799794193663936,0.001825192038595897
2400.000000002948,-0.0068867,-0.77665764,0.010029906,-2.3425906,0.010897411,1.5589427,0.7981033,0.039999936,0.04,0.014711288147073454,-0.016484235379497607,0.0021459495972209197,0.030872582720900796,0.0015267071522363541,0.009817688002213793,0.9999728468853908,0.006185645739071707,-0.003520246857005886,0.001910795850750976
2400.016666669615,-0.0072157495,-0.7762938,0.010496376,-2.3419502,0.011401823,1.5583814,0.7986682,0.03999994,0.04,0.01257100701215208,-0.0166462629219509,0.001774037613611057,0.03172275111278995,0.0019947187341855382,0.010103762463490824,0.9999704101850412,0.006461531146056449,-0.003664944282855146,0.001998887943992416
2400.033333336282,-0.007553991,-0.7759198,0.0109758945,-2.341292,0.011920298,1.5578046,0.79924893,0.039999936,0.04,0.013620826055649182,-0.016769843330444872,0.0021598343739492876,0.03257664998885726,0.0024634931986719996,0.010387434347005679,0.9999677977393375,0.006744827927249097,-0.003813783180709077,0.0020894588825353735
2400.0500000029488,-0.007901481,-0.7755358,0.011468538,-2.3406155,0.012452964,1.557212,0.79984564,0.03999993,0.04,0.014221593864949256,-0.01694898174283161,0.0020382141800334708,0.03343342263683843,0.0029378407583170105,0.010676473787440754,0.999965000858853,0.007035600061354753,-0.003966594836178237,0.0021825477168108073
2400.0666666696156,-0.008258276,-0.77514124,0.011974389,-2.3399212,0.012999889,1.5566036,0.80045825,0.03999993,0.04,0.013024715983145363,-0.01708687322135305,0.0022213474325960547,0.03429240746572028,0.0034174692248868307,0.010966058016839239,0.9999620087522443,0.00733379214088834,-0.004123895886376814,0.0022781632358625644
2400.0833333362825,-0.008624428,-0.7747365,0.012493519,-2.3392081,0.013561173,1.5559791,0.80108696,0.03999993,0.04,0.015097019404008982,-0.017258711207402896,0.0022781064556776087,0.03515378665069503,0.0038966272610147443,0.011259191891021692,0.9999588141868129,0.0076394622634561125,-0.004285041448203342,0.002376334617711756
2400.1000000029494,-0.0089999875,-0.77432144,0.013026002,-2.3384776,0.014136896,1.5553386,0.80173177,0.039999925,0.04,0.012344731489033478,-0.01738595047375731,0.0016932229796262632,0.03601667204265525,0.004384690790161148,0.011554961278638306,0.9999554037994375,0.007952589772025587,-0.004450936343568673,0.0024770736539926163
2400.1166666696163,-0.009385001,-0.77389586,0.013571903,-2.3377278,0.014727107,1.5546819,0.8023929,0.03999992,0.04,0.015367129118604161,-0.017539153167366733,0.0025150718431898866,0.03688116386781007,0.004872423632840593,0.011850207800348525,0.9999517705525223,0.008273254594411989,-0.0046207575679735775,0.002580392758894444
2400.133333336283,-0.009779506,-0.7734598,0.014131284,-2.3369603,0.015331876,1.5540091,0.8030704,0.03999992,0.04,0.012548735253914423,-0.017655078083186546,0.001866081468149261,0.03774621944456477,0.005365935370889828,0.012148022685410959,0.9999479005289714,0.0086014646291512,-0.004795291483404378,0.002686301086082322
2400.15000000295,-0.010183547,-0.7730132,0.0147041995,-2.3361733,0.015951268,1.55332,0.80376434,0.03999992,0.04,0.01563396601178546,-0.017814421299801667,0.002651923587526639,0.038611572487598035,0.005859804193435798,0.0124475540447063,0.9999437875301316,0.008937180233951458,-0.004973685795085421,0.002794823603148231
2400.166666669617,-0.01059716,-0.772556,0.015290702,-2.3353686,0.016585378,1.5526146,0.8044749,0.039999925,0.04,0.012301626377553276,-0.017937904696284715,0.0016312103529925182,0.03947685062921242,0.006361375603086181,0.012751591718061818,0.9999394144841688,0.009280501662661271,-0.005157025963821231,0.002905982304741836
2400.183333336284,-0.011020379,-0.7720883,0.01589084,-2.3345447,0.01723424,1.5518925,0.8052014,0.03999993,0.04,0.015047310934668268,-0.01808124640615208,0.002275770918713782,0.040340849143692396,0.0068612455050822,0.013055530684211256,0.9999347775772901,0.009631057151414673,-0.00534454874808584,0.0030197894431505763
2400.2000000029507,-0.0114532355,-0.7716099,0.016504658,-2.3337023,0.017897887,1.5511546,0.8059445,0.039999925,0.04,0.013487541321199892,-0.0181696889844412,0.002458976213648434,0.04120697202574988,0.007365710322692898,0.013359963898666085,0.9999298621272027,0.00998912078094072,-0.0055364465666470535,0.003136248031011273
2400.2166666696176,-0.011895755,-0.7711209,0.017132195,-2.3328404,0.018576337,1.5503997,0.80670476,0.039999917,0.04,0.015159340369197416,-0.018293566786135862,0.00205404343274207,0.04207164507642141,0.00787452096465762,0.013664244438058738,0.9999246540960937,0.010354945930611214,-0.005732703735623361,0.0032553545830268406
2400.2333333362844,-0.01234797,-0.77062124,0.017773489,-2.3319604,0.019269647,1.5496285,0.8074812,0.039999917,0.04,0.01289650501750117,-0.018387700407286947,0.002082951509274622,0.04293254194655713,0.00838682633466089,0.013970597469863792,0.9999191447000142,0.010728035658928678,-0.005933660133100249,0.0033771275838334618
2400.2500000029513,-0.012809892,-0.77011085,0.018428573,-2.3310614,0.019977853,1.5488404,0.8082745,0.039999913,0.04,0.014179482129050847,-0.01853155394404768,0.0019986430120910725,0.04379355226920694,0.00889973792807957,0.01427813767280188,0.9999133196541079,0.011108638961103565,-0.0061392413153618635,0.0035015760459015206
2400.266666669618,-0.013281547,-0.7695897,0.01909747,-2.330143,0.020700958,1.548036,0.8090845,0.03999991,0.04,0.014723749702461042,-0.01860665525304124,0.002547067666780478,0.04465190919916922,0.009415055893242132,0.01458524405433547,0.999907170107564,0.011496665487125753,-0.006349043993907715,0.0036287036974252894
2400.283333336285,-0.013762945,-0.76905775,0.019780202,-2.3292055,0.02143903,1.5472147,0.80991113,0.03999991,0.04,0.014000713770534468,-0.01874561659522128,0.0021521235125998572,0.045507753696412766,0.00993433471050613,0.014896500977781356,0.9999006812712443,0.011892075630361213,-0.006563500224260236,0.003758536325401829
2400.300000002952,-0.014254102,-0.7685148,0.02047679,-2.3282492,0.022192085,1.546377,0.81075466,0.03999991,0.04,0.013496998227258139,-0.0188299683228553,0.0022937163288716533,0.046361112145100886,0.010456430910025752,0.015208503288215276,0.9998938391284521,0.012294925053696764,-0.006782684831637498,0.003891076633015079
2400.316666669619,-0.014755028,-0.76796114,0.02118725,-2.3272736,0.022960119,1.5455223,0.8116148,0.03999991,0.04,0.014448175626102788,-0.018922663755132144,0.002180731021561577,0.04721067506164381,0.010978148169673123,0.01551909560634496,0.9998866341136851,0.012705052307063005,-0.007006374154948333,0.004026324363673626
2400.3333333362857,-0.015265736,-0.76739675,0.02191159,-2.3262792,0.023743168,1.5446513,0.8124919,0.03999991,0.04,0.013709934064221052,-0.019013827941553874,0.002237009984251692,0.04805732555172309,0.011503879718202478,0.015832685219432884,0.9998790509875239,0.013122574384555677,-0.00723464411042651,0.004164296147693548
2400.3500000029526,-0.015786223,-0.7668216,0.022649823,-2.3252656,0.02454122,1.5437634,0.8133857,0.03999991,0.04,0.013956865017705766,-0.019106878418031006,0.002069127500736734,0.0488994898248561,0.012031926365297992,0.016146123891549194,0.9998710775325078,0.013547354566691195,-0.007467569808214229,0.0043049854106387165
2400.3666666696195,-0.01631649,-0.7662357,0.023401953,-2.3242328,0.025354285,1.5428591,0.81429636,0.03999991,0.04,0.014355766348073118,-0.01920299100454867,0.002472046529278238,0.04973774315878286,0.012562379814677102,0.016460229674289267,0.9998627021627121,0.013979379558836273,-0.007704899545155011,0.004448403537088306
2400.3833333362863,-0.016856544,-0.7656388,0.024167972,-2.3231814,0.02618236,1.5419377,0.81522393,0.03999991,0.04,0.012724982245315708,-0.01924182460905574,0.0018155166012556734,0.05057123329867753,0.013095830401001728,0.016775529512411017,0.9998539046751755,0.014418681109541249,-0.007947395032539668,0.004594546012727316
2400.400000002953,-0.017406378,-0.76503116,0.024947872,-2.32211,0.027025405,1.5409998,0.8161682,0.039999902,0.04,0.01542930243090268,-0.01933587989324803,0.0026851003322780898,0.051399109040810055,0.013627898863434317,0.017086822317794972,0.9998446815314316,0.014865083467233869,-0.008194029633652254,0.0047434149286276015
2400.41666666962,-0.017965987,-0.76441276,0.025741657,-2.3210204,0.027883451,1.540045,0.8171292,0.039999906,0.04,0.012164933484148932,-0.019393836241225065,0.001637247678831777,0.05222242372599098,0.014164612721468572,0.017403064409540984,0.9998350099122294,0.015318590268682005,-0.008445863718317407,0.004895010933988143
2400.433333336287,-0.01853535,-0.7637836,0.026549304,-2.3199115,0.028756484,1.5390738,0.8181071,0.039999906,0.04,0.014165757317763372,-0.019498199934131488,0.0024532779258068516,0.053040041441234975,0.014699494707102502,0.01771875645848036,0.9998248807163974,0.015779232861390956,-0.008702170507317739,0.005049350374986461
2400.450000002954,-0.019114474,-0.76314366,0.027370809,-2.3187838,0.029644495,1.5380858,0.8191018,0.039999902,0.04,0.0132716942056188,-0.019547440337629868,0.0019378019816773673,0.05385107540903168,0.015238880604111223,0.01803544734779794,0.9998142777505858,0.016246888541890398,-0.008963354794375187,0.00520642772081602
2400.4666666696207,-0.019703336,-0.7624927,0.02820614,-2.317637,0.03054745,1.5370815,0.8201132,0.039999906,0.04,0.01343770906407915,-0.019598355156934255,0.002570422785419524,0.054656022833298734,0.01577721637933372,0.018351377294039996,0.9998031890393344,0.0167214819717057,-0.009229225962778982,0.005366247811538744
2400.4833333362876,-0.020301921,-0.7618312,0.029055277,-2.316471,0.031465303,1.5360602,0.8211413,0.039999902,0.04,0.013735285261562424,-0.01964915900584327,0.0018332771339002463,0.05545438597158148,0.016317675843595857,0.0186666063660461,0.9997915992958607,0.017202995276650288,-0.009499862024655832,0.005528793037308426
2400.5000000029545,-0.020910207,-0.76115894,0.0299182,-2.3152866,0.032398034,1.5350226,0.822186,0.039999895,0.04,0.012799764644189082,-0.01969804818318724,0.002210203042984915,0.05624586109505617,0.016858967117844445,0.018981143762890014,0.9997794948376285,0.017691298202045774,-0.009775340860576444,0.005694065437103904
2400.5166666696214,-0.021528173,-0.7604759,0.030794866,-2.3140833,0.03334561,1.5339683,0.8232474,0.03999989,0.04,0.013041752657416694,-0.019742597010545537,0.002038381599911432,0.05703043377996938,0.017400822134502607,0.019297096761409734,0.9997668592892238,0.018186404868382553,-0.010055741431578117,0.005862065266249078
2400.5333333362883,-0.022155793,-0.75978243,0.03168524,-2.312861,0.034308005,1.5328976,0.82432544,0.039999895,0.04,0.01392568796096949,-0.01980767470417949,0.002063326966883494,0.05780740792107797,0.017942330741261434,0.01961288626092334,0.9997536823203117,0.01868826515156674,-0.010340636256623235,0.0060327998815021865
2400.550000002955,-0.022793043,-0.7590783,0.03258929,-2.31162,0.035285175,1.5318106,0.82541984,0.03999989,0.04,0.012814442893605005,-0.019828640149834043,0.002207647661678358,0.05857599907652376,0.018486668212290003,0.019927663520020615,0.9997399496880489,0.019196660646725806,-0.01063031192202352,0.0062062618533559296
2400.566666669622,-0.0234399,-0.75836337,0.033506986,-2.31036,0.03627705,1.5307069,0.826531,0.03999989,0.04,0.0131835418500037,-0.019871470188674578,0.002063846918365364,0.05933737833522683,0.019032212002461253,0.02024202232131557,0.9997256411338021,0.01971174305651335,-0.01092493838591198,0.006382426383923162
2400.583333336289,-0.024096314,-0.75763804,0.03443828,-2.3090816,0.037283603,1.5295871,0.82765865,0.039999887,0.04,0.012711933076570148,-0.019913057414606278,0.0020891635257758168,0.06008954671893263,0.019578157283253503,0.02055540299481893,0.999710746819569,0.02023335058410412,-0.011224237222437011,0.00656130447205971
2400.6000000029558,-0.02476227,-0.7569019,0.035383113,-2.3077843,0.03830481,1.528451,0.8288024,0.039999884,0.04,0.012852979969735223,-0.019946460727453263,0.0021778015854678756,0.060832756198773645,0.020124282944989906,0.02087207859488905,0.9996952534277761,0.020761229146212777,-0.01152843627270719,0.006742907045115808
2400.6166666696226,-0.025437722,-0.75615543,0.036341425,-2.3064687,0.039340567,1.5272986,0.8299626,0.03999988,0.04,0.012535519155099095,-0.019916239027616828,0.0018928083842295607,0.0615683709003671,0.020670467979051386,0.021183520188317095,0.9996791431045141,0.021295517317737565,-0.011837467246586303,0.006927203850059665
2400.6333333362895,-0.026122632,-0.7553985,0.037313193,-2.305135,0.04039081,1.5261304,0.83113897,0.03999988,0.04,0.012158107006765562,-0.01996327367883438,0.0021754113092908867,0.06229400050767586,0.021217433657461787,0.021495140158227267,0.9996624050017286,0.021836010419636287,-0.012151260588537114,0.007114178886057058
2400.6500000029564,-0.02681696,-0.7546311,0.038298327,-2.3037825,0.041455507,1.5249459,0.8323315,0.03999988,0.04,0.01302415875348295,-0.019988968218186826,0.0019690215524059695,0.06301114655010256,0.021765053669395656,0.02180848929349226,0.9996450234227374,0.02238265766692518,-0.012469867443758923,0.007303847469329001
2400.6666666696233,-0.027520666,-0.75385344,0.0392968,-2.302411,0.04253461,1.5237453,0.83354014,0.039999876,0.04,0.013375420849692787,-0.02006031241031589,0.0021712013111407913,0.06371842644462043,0.022313169368160767,0.022120277939627106,0.9996269878237112,0.022935398146906764,-0.01279295197431998,0.007496206115083817
2400.68333333629,-0.028233696,-0.7530654,0.040308498,-2.3010232,0.043628003,1.522529,0.83476484,0.039999872,0.04,0.009274285712601582,-0.01987933442158321,0.0013995555934176451,0.06441590897030537,0.022863633148521974,0.022430283301944298,0.9996082686232095,0.02349417794020098,-0.013121665899544985,0.007691214926410941
2400.700000002957,-0.02895601,-0.7522669,0.04133338,-2.2996168,0.044735625,1.5212969,0.83600545,0.039999872,0.04,0.012641710297778275,-0.020003876784118607,0.002283462721308638,0.06510285224531986,0.023407490619589084,0.022739397005633974,0.9995888646554396,0.02405884563098785,-0.013455077845422804,0.007888883566599746
2400.716666669624,-0.029687546,-0.75145835,0.04237139,-2.298191,0.0458574,1.5200487,0.83726203,0.03999987,0.04,0.014275329900970135,-0.020075662837613917,0.00219243388723811,0.06577963632793016,0.023951864282795172,0.023048341333259476,0.9995687679065473,0.024629355293729123,-0.013792673983213299,0.00808920441052281
2400.733333336291,-0.030428262,-0.75063974,0.043422427,-2.2967486,0.046993263,1.518785,0.8385343,0.03999987,0.04,0.009880361110869984,-0.019923918218181513,0.0013754132295096255,0.06644540372477811,0.02450272747181189,0.023355453249202407,0.9995479495006294,0.02520556710281561,-0.014135636166806523,0.008292154501238862
2400.7500000029577,-0.0311781,-0.7498109,0.04448643,-2.2952878,0.048143115,1.5175059,0.8398221,0.03999986,0.04,0.012486385169419023,-0.01999582781231704,0.00235709839866427,0.06710087208320901,0.025046846841011154,0.0236621750915176,0.9995264083226264,0.02578733649350299,-0.014483122562686749,0.00849773517328797
2400.7666666696246,-0.031937,-0.748972,0.04556333,-2.2938101,0.049306855,1.5162113,0.84112567,0.03999986,0.04,0.010273004353988924,-0.019924116022791705,0.00150408030810123,0.06774581004201995,0.02559554654698551,0.02396608363671851,0.9995041170928562,0.02637472181343698,-0.014835810866275102,0.008705899128401985
2400.7833333362914,-0.032704905,-0.74812317,0.04665302,-2.292315,0.05048441,1.5149014,0.84244454,0.03999986,0.04,0.011154634621179937,-0.01991595571272653,0.0018358365477810779,0.06837877209818821,0.026139137823462444,0.024269555276002608,0.9994810711600283,0.02696746405240626,-0.015193334756492673,0.00891666161531628
2400.8000000029583,-0.033481754,-0.7472644,0.047755416,-2.2908018,0.051675696,1.5135761,0.843779,0.039999854,0.04,0.012259331886443903,-0.019933276730783878,0.002031783967471057,0.06900102584868562,0.026680412500985795,0.02457245087357316,0.9994572561303597,0.027565646191585542,-0.0155554205800757,0.009130016921663209
2400.816666669625,-0.034267493,-0.7463958,0.048870433,-2.2892714,0.05288059,1.5122354,0.84512866,0.03999985,0.04,0.010778882299922188,-0.019844364629764688,0.001415850869546098,0.06961067087615458,0.0272260940513371,0.024873097678395933,0.9994326561451259,0.02816899764133085,-0.015922534883164325,0.009345923468318928
2400.833333336292,-0.035062056,-0.74551755,0.049997985,-2.2877238,0.054099023,1.5108795,0.8464934,0.03999985,0.04,0.010898187178298713,-0.01984461556717304,0.0016330607612191628,0.07020890079476927,0.02776724929167873,0.025172310193312362,0.9994072590844455,0.02877746625541307,-0.01629449240000879,0.009564384071162748
2400.850000002959,-0.035865355,-0.7446299,0.05113798,-2.2861588,0.055330873,1.5095087,0.84787315,0.039999846,0.04,0.01170938635772778,-0.019839879899340163,0.0016735475551366008,0.07079513507486196,0.028307551541525047,0.02547056605131779,0.9993810599145487,0.029390894003124158,-0.016670897928601963,0.00978537664193602
2400.866666669626,-0.03667734,-0.7437326,0.05229031,-2.2845776,0.05657603,1.5081233,0.84926784,0.039999846,0.04,0.009346375035912402,-0.01968921900251941,0.0015610769620977294,0.07137000463805784,0.028850420910660618,0.02576661994151567,0.9993540317595591,0.030009270875290445,-0.017052428924897573,0.010008872824095034
2400.8833333362927,-0.03749793,-0.74282545,0.053454872,-2.2829792,0.057834394,1.5067234,0.8506773,0.039999843,0.04,0.010885790958248265,-0.019711535284329396,0.002159241047761107,0.07193203582847806,0.029389055806783707,0.026061628191842046,0.9993261721877222,0.030632434517301816,-0.017438542283115865,0.010234880518020018
2400.9000000029596,-0.03832707,-0.74190867,0.054631576,-2.2813642,0.059105866,1.5053091,0.85210145,0.039999843,0.04,0.010172650884054946,-0.019640988503537293,0.0018698083079859984,0.07248170805527031,0.02992802585477162,0.026354745400225338,0.9992974649047238,0.031260286910474416,-0.017829438963638596,0.010463374384436066
2400.9166666696265,-0.039164666,-0.74098295,0.05582031,-2.279733,0.06039031,1.5038803,0.8535402,0.03999984,0.04,0.01008963619093528,-0.01957824394230312,0.0011172647629065224,0.07301867925930411,0.030465125119183173,0.026645213893035966,0.9992678974217536,0.0318927456386592,-0.01822508142828047,0.010694314604882177
2400.9333333362933,-0.040010642,-0.74004775,0.05702097,-2.278085,0.0616876,1.5024371,0.8549936,0.03999984,0.04,0.01030488325310941,-0.019536481993029375,0.0018096456349425694,0.07354250151750423,0.031001120741472314,0.026934020980476342,0.9992374558808439,0.03252978197801524,-0.01862540407836954,0.01092768832640022
2400.95000000296,-0.040864922,-0.73910344,0.058233425,-2.2764208,0.06299764,1.500979,0.8564608,0.03999984,0.04,0.00965621758113322,-0.019442192997730368,0.0008289375046377501,0.07405262387037488,0.03153745540655756,0.027221389024157737,0.9992061311400953,0.033170941005490055,-0.019030842090769898,0.011163476795739582
2400.966666669627,-0.041727435,-0.7381499,0.05945758,-2.2747402,0.06432031,1.4995081,0.85794294,0.03999984,0.04,0.010557717551007428,-0.01940109159807163,0.002784665648269957,0.07455139661590973,0.03206714658685638,0.027506733262851704,0.9991739142093338,0.0338167141221407,-0.019440174394571384,0.011401694132414623
2400.983333336294,-0.04259808,-0.73718745,0.060693305,-2.273044,0.06565547,1.4980229,0.8594386,0.03999983,0.04,0.008809316207303297,-0.019265586338146345,0.0007932198899718301,0.0750337379424834,0.03260417871062521,0.02778914878480796,0.9991407914079479,0.03446637476807128,-0.019854606209976068,0.011642275005048172
2401.000000002961,-0.043476783,-0.7362161,0.06194049,-2.2713323,0.06700297,1.4965225,0.8609481,0.03999983,0.04,0.008952257297467625,-0.019199884906226372,0.0003282014192418359,0.07550457246932797,0.03313491359820164,0.02806919532519688,0.9991067392345816,0.035120010454524446,-0.0202743999776113,0.011885166690617845
2401.0166666696277,-0.04436347,-0.73523587,0.063199036,-2.269605,0.06836271,1.4950099,0.8624712,0.03999983,0.04,0.009265921802237287,-0.01913136946555538,0.0024117567966719378,0.07596248023978619,0.03365836095923524,0.028347894010156187,0.9990717709878407,0.03577750559590909,-0.020698298124745277,0.012130414803018366
2401.0333333362946,-0.045258034,-0.7342469,0.064468764,-2.2678626,0.06973455,1.493484,0.86400795,0.039999828,0.04,0.008425240430920411,-0.018958966565012225,0.0013232928293138713,0.07640725444056566,0.034185471986967766,0.028624181589186372,0.9990358618261614,0.03643879723453647,-0.021126917381379662,0.012377972504396258
2401.0500000029615,-0.046160396,-0.7332494,0.06574959,-2.2661047,0.07111834,1.4919444,0.86555797,0.03999983,0.04,0.009228489603696488,-0.018953379951378024,0.0010196227384406953,0.07683766394213666,0.03470918190823116,0.0288972013545103,0.9989990067877657,0.03710365729489153,-0.021560189711727143,0.012627797590845154
2401.0666666696284,-0.04707047,-0.7322433,0.0670414,-2.264332,0.072513916,1.490392,0.86712116,0.039999824,0.04,0.008106412019248666,-0.018777343310601158,0.0014116919073714485,0.07725510695207252,0.03523193011651507,0.02916790482577994,0.9989611938655812,0.03777200638665076,-0.021998135939346,0.01287985634133072
2401.0833333362953,-0.047988143,-0.7312287,0.06834402,-2.2625444,0.07392116,1.4888264,0.8686975,0.039999824,0.04,0.008591389971845942,-0.01870805676965903,0.0011902099304128555,0.07765907329333453,0.03575045351683475,0.029436772704218156,0.998922411988651,0.03844378545638912,-0.022440689697622324,0.013134139958679224
2401.100000002962,-0.048913337,-0.7302059,0.069657326,-2.260742,0.07533993,1.4872476,0.87028676,0.039999828,0.04,0.008386837676344072,-0.018576875239820212,0.000827276623005524,0.0780485618520555,0.03626723690223761,0.02970233189938281,0.9988826521303775,0.039118809934432855,-0.022887930547741058,0.013390616772158897
2401.116666669629,-0.04984596,-0.72917485,0.0709812,-2.258925,0.07677009,1.4856564,0.8718889,0.039999828,0.04,0.008187522095903788,-0.01847374959428466,0.001336820808250927,0.07842471036445754,0.03678063482544778,0.029966040717191028,0.9988419078065535,0.03979704028414597,-0.023339583262279785,0.013649272769264937
2401.133333336296,-0.050785903,-0.7281357,0.07231549,-2.2570937,0.07821151,1.4840528,0.8735035,0.039999824,0.04,0.007886972619797206,-0.018363511583265046,0.0011372677925391983,0.07878605813664118,0.03729381241155344,0.03022687464415861,0.9988001721729721,0.04047825274095816,-0.023795727101354615,0.013910086052863433
2401.1500000029628,-0.051733084,-0.7270886,0.073660046,-2.255249,0.079664014,1.4824368,0.8751305,0.03999982,0.04,0.006410604680295862,-0.018106215137116133,0.0006528651589343681,0.0791337280690354,0.037803966527574964,0.030483959111675535,0.9987574249687732,0.04116235833047546,-0.024256797535878945,0.014173006022794416
2401.1666666696296,-0.052687384,-0.7260336,0.075014755,-2.2533906,0.081127435,1.4808086,0.8767698,0.039999817,0.04,0.007422249374311463,-0.01807972439982486,0.0008817545855466236,0.07946744068689462,0.038307643005027245,0.03073886159745883,0.9987136661346967,0.04184927490966579,-0.02472237005991497,0.014437994457311339
2401.1833333362965,-0.053648714,-0.72497094,0.07637943,-2.2515182,0.082601644,1.4791685,0.87842107,0.039999813,0.04,0.0075242409966591595,-0.01790814163662724,0.0009997016294782668,0.0797865169155563,0.038809307213391535,0.03099093194260015,0.9986688935560891,0.04253880058812705,-0.02519231488876383,0.01470505894328981
2401.2000000029634,-0.05461695,-0.7239006,0.07775397,-2.2496328,0.084086455,1.4775167,0.8800843,0.03999981,0.04,0.006473380783011962,-0.017761583868330932,0.0006948618396673822,0.08009171254953733,0.03930816188896344,0.031239362612177128,0.9986230914297175,0.04323086295997746,-0.025666889736678654,0.014974128433230248
2401.2166666696303,-0.055592008,-0.7228227,0.079138204,-2.2477336,0.0855817,1.4758531,0.8817592,0.039999813,0.04,0.007716820120906576,-0.017646458812230204,0.0010067913818634366,0.08038245661361901,0.03980259028428938,0.03148513296843288,0.9985762638187888,0.043925318455706436,-0.026145667983582074,0.015245188813712904
2401.233333336297,-0.056573782,-0.7217372,0.08053202,-2.2458212,0.08708726,1.474178,0.8834458,0.039999813,0.04,0.006472377827693165,-0.017516134801334737,0.0008183982421750002,0.08065907160121596,0.04029614371708504,0.03172798099534434,0.9985283931393742,0.0446220768415184,-0.026628997504222856,0.015518210101975944
2401.250000002964,-0.057562146,-0.7206445,0.081935205,-2.2438958,0.08860295,1.4724915,0.88514364,0.039999805,0.04,0.006977399141661067,-0.017306980612603884,0.0007014641781433184,0.08092087256856012,0.04078490995139942,0.031966843574784104,0.998479484312349,0.045320930373787274,-0.027116567329259218,0.015793177440832685
2401.266666669631,-0.058557004,-0.7195445,0.08334763,-2.2419577,0.090128556,1.4707941,0.8868527,0.03999981,0.04,0.006191906353647525,-0.017095522502719174,0.000791379252129687,0.08116873170885398,0.04127066184949927,0.03220297500522029,0.9984295258139211,0.046021822705562654,-0.027608484475319363,0.01607001564475083
2401.283333336298,-0.059558254,-0.71843743,0.08476915,-2.2400072,0.09166395,1.4690859,0.88857263,0.039999805,0.04,0.006104288955111059,-0.016951301197995483,0.000693627549597231,0.08140223186598242,0.0417541741239781,0.03243593062183251,0.9983785164813743,0.046724576158183345,-0.02810464798447308,0.01634871777715437
2401.3000000029647,-0.060565773,-0.7173236,0.08619959,-2.2380445,0.09320895,1.4673672,0.89030343,0.03999981,0.04,0.005985178811762637,-0.016759390232001792,0.000503084035030632,0.08162133487432266,0.042234319557111134,0.03266490880773324,0.9983264491854936,0.04742912855656493,-0.02860501624327413,0.01662924131675668
2401.3166666696316,-0.061579432,-0.716203,0.087638795,-2.2360694,0.09476339,1.4656377,0.8920446,0.039999813,0.04,0.0063168983364114695,-0.016661828669523038,0.00047093791046837197,0.08182568927937842,0.042711336932997265,0.032891139736951854,0.9982733282665543,0.04813517896454769,-0.029109545688160723,0.016911563129879063
2401.3333333362984,-0.06259915,-0.71507555,0.089086615,-2.2340827,0.096327126,1.463898,0.8937963,0.039999798,0.04,0.005252041699943533,-0.01640118858213524,0.0005233743994192963,0.08201707325581176,0.04318436905379065,0.033113666228171836,0.9982191343240243,0.04884282418561165,-0.029618374738269955,0.017195646915202555
2401.3500000029653,-0.06362479,-0.7139414,0.09054289,-2.2320848,0.097899914,1.4621477,0.8955582,0.039999798,0.04,0.004448585973992891,-0.01617046647371667,8.055854223698589e-05,0.08219312445083507,0.04365387288791968,0.033332010654784715,0.9981638590600083,0.04955182050171995,-0.030131842872016746,0.01748140716685507
2401.366666669632,-0.06465626,-0.712801,0.09200742,-2.2300754,0.09948162,1.4603878,0.8973301,0.039999798,0.04,0.0055816620681437,-0.015991128908993124,0.00046938566173881924,0.08235565062996342,0.0441158976300967,0.03354754797074421,0.9981075159548037,0.050262120617818803,-0.030649194741481867,0.01776886848478871
2401.383333336299,-0.065693416,-0.7116542,0.09348007,-2.2280545,0.101072066,1.4586182,0.8991118,0.0399998,0.04,0.005393047268764661,-0.015862448723810707,0.0004183844193095254,0.08250292932422625,0.044575209479666145,0.03375931044923616,0.9980501016935909,0.05097351914800141,-0.031170564613607493,0.018057983186120143
2401.400000002966,-0.06673615,-0.71050143,0.094960675,-2.2260237,0.10267107,1.456839,0.90090305,0.039999798,0.04,0.003567597419085189,-0.015542332426790595,-0.00026589238051322184,0.08263633473690526,0.04503090036001748,0.03396655237121063,0.997991599625152,0.05168591885939609,-0.031696351380734844,0.0183486832889728
2401.416666669633,-0.06778432,-0.7093427,0.09644905,-2.2239816,0.10427843,1.4550506,0.9027037,0.039999794,0.04,0.00559605198020563,-0.015452882913494226,0.0004353471511286955,0.08275542515580749,0.04547891632963003,0.03417076779997146,0.9979320308855896,0.052399180417326496,-0.03222579827086397,0.018640964298040297
2401.4333333362997,-0.068837844,-0.70817786,0.09794502,-2.2219298,0.10589396,1.4532529,0.9045135,0.039999798,0.04,0.0030179704587407485,-0.015057520868616558,-0.00012193694693962698,0.08286016044359297,0.04592614687012442,0.03436959397436602,0.9978713645210477,0.05311319958576949,-0.032759778311634034,0.018934751744803253
2401.4500000029666,-0.06989659,-0.70700735,0.09944841,-2.219867,0.10751749,1.4514465,0.9063322,0.039999787,0.04,0.0056397513495287654,-0.015010929155304109,0.0004426942376678511,0.08295115653199923,0.04636391818695733,0.03456666283647229,0.9978096361979882,0.05382780507316704,-0.03329717731759301,0.019230062249618974
2401.4666666696335,-0.070960425,-0.7058311,0.1009591,-2.2177944,0.10914877,1.4496313,0.9081598,0.039999783,0.04,0.003579390995600562,-0.014716619497134875,-0.00011072698478109544,0.08302794168170402,0.04680268669348468,0.03475711340647018,0.9977468183448565,0.054542960134065836,-0.033838690614793686,0.019526776487833967
2401.4833333363003,-0.07202922,-0.7046492,0.10247682,-2.2157123,0.11078767,1.4478076,0.909996,0.039999787,0.04,0.003326684807225533,-0.014401368032851414,-8.838900511509706e-05,0.08309059374390255,0.047233830609270666,0.03494448366058915,0.9976829093682339,0.05525853077775467,-0.0343842998584884,0.019824909938303537
2401.500000002967,-0.073102854,-0.70346206,0.10400147,-2.2136207,0.112434,1.4459755,0.9118402,0.039999776,0.04,0.0038682992733019006,-0.014299102375908701,-0.00013339516611310387,0.08313862439014734,0.047658226353131036,0.0351287603285972,0.997617932187214,0.05597419724763946,-0.034933628049622106,0.02012441930293485
2401.516666669634,-0.07418119,-0.70226973,0.10553283,-2.2115202,0.114087544,1.4441355,0.9136928,0.039999776,0.04,0.0028344181346007247,-0.013944438676674609,-0.0002998573335633026,0.08317458797268362,0.04807906448747627,0.035309059844848036,0.9975518632184158,0.05669012211709287,-0.03548689672539532,0.0204252394017164
2401.533333336301,-0.07526415,-0.7010722,0.10707072,-2.2094104,0.115748115,1.4422878,0.9155531,0.039999772,0.04,0.0036702392069543066,-0.013718057595618616,3.553761764862884e-05,0.08319525975314655,0.048493126122011745,0.035483927750209206,0.9974847248839468,0.05740598857905914,-0.03604375645566785,0.020727366427562097
2401.550000002968,-0.07635156,-0.6998699,0.10861498,-2.2072926,0.117415525,1.4404325,0.91742104,0.039999764,0.04,0.002189787642414842,-0.013447570705257816,-0.0005190089821915933,0.08320249350119818,0.04890253501544224,0.035654999609342077,0.997416503700369,0.05812173800420603,-0.03660451361197725,0.021030722781983095
2401.5666666696347,-0.07744328,-0.6986627,0.11016545,-2.2051651,0.11908955,1.4385698,0.91929656,0.03999976,0.04,0.004505934311671567,-0.01340433128016738,-1.7356004433644046e-05,0.08319628235900067,0.049305102067758774,0.03582163124748951,0.9973472264073852,0.05883723637988086,-0.037168468191599253,0.021335289193356047
2401.5833333363016,-0.07853919,-0.6974508,0.11172189,-2.2030299,0.12077004,1.4366999,0.92117923,0.039999757,0.04,0.0020362842108490042,-0.012928093453942746,-0.0004879652973688309,0.0831767644785307,0.0497063715065945,0.03598419164139674,0.9972768726244592,0.059552356795846036,-0.0377362181864134,0.0216410250548751
2401.6000000029685,-0.07963921,-0.6962345,0.11328416,-2.200887,0.12245677,1.4348229,0.92306894,0.039999753,0.04,0.0020094018553074022,-0.012667188423412523,-0.0007208097606792307,0.0831438206847104,0.05010113135549982,0.03614259826258027,0.9972054440170762,0.06026703438128869,-0.038307682032153026,0.0219478583673644
2401.6166666696354,-0.08074316,-0.6950139,0.11485206,-2.1987364,0.124149494,1.4329392,0.92496544,0.03999975,0.04,0.0021460720672550337,-0.012410192183673341,-0.0006197815468844681,0.08309710809198823,0.05048793481265251,0.03629583621240039,0.9971329496996955,0.06098112026492449,-0.038882716531691584,0.022255739698682074
2401.6333333363023,-0.08185092,-0.693789,0.116425395,-2.1965783,0.12584811,1.4310491,0.92686856,0.039999742,0.04,0.002414555852459088,-0.012200710419338345,-0.0003684218610189305,0.08303725038891192,0.05086727945930973,0.03644545883475533,0.99705939998278,0.06169452334792319,-0.0394610347635438,0.022564694330780833
2401.650000002969,-0.08296236,-0.69256,0.118003964,-2.1944134,0.12755232,1.4291528,0.9287778,0.039999746,0.04,0.0010426417897058116,-0.011767082628788561,-0.0007532035201540666,0.08296377255990003,0.05124337089241307,0.03659040316791436,0.9969847912223444,0.062407031361448845,-0.040042989725777,0.02287460342411919
2401.666666669636,-0.08407734,-0.69132715,0.11958759,-2.1922412,0.12926199,1.4272505,0.9306932,0.03999974,0.04,0.0025058138220401815,-0.011670122346585377,-0.0005922658008028492,0.08287799906456086,0.05161077421241929,0.03673153951535867,0.9969091417431081,0.06311859517205622,-0.04062805902470146,0.023185488401389544
2401.683333336303,-0.08519576,-0.6900905,0.12117612,-2.1900625,0.1309768,1.4253421,0.93261456,0.039999735,0.04,0.001035411764727101,-0.011230056677180578,-0.0010255529145908326,0.08277906046283418,0.05197429365710739,0.036867094747966525,0.9968324359432188,0.06382915498763979,-0.0412166861882852,0.023497199933798816
2401.70000000297,-0.086317435,-0.68885016,0.12276932,-2.187877,0.13269663,1.4234282,0.9345415,0.039999727,0.04,0.0021815065398111955,-0.011072400552375461,-0.0005519832113387579,0.08266705508348603,0.052328549856758874,0.03699867728961537,0.9967547068189835,0.06453850058417754,-0.041808253639678834,0.02380979429034973
2401.7166666696367,-0.087442264,-0.68760645,0.12436699,-2.1856856,0.13442126,1.4215091,0.9364738,0.039999727,0.04,0.0006311285314364312,-0.010630352652515884,-0.0009150131924151594,0.08254253594749321,0.052680151744961906,0.037125569702601564,0.9966759457362622,0.0652465453523144,-0.042403056171789834,0.024123190867044356
2401.7333333363035,-0.088570066,-0.6863593,0.125969,-2.1834888,0.13615052,1.4195845,0.9384111,0.03999972,0.04,7.456818402751253e-05,-0.010458996028026024,-0.0013756500157002804,0.08240578555940942,0.053023026039657584,0.03724753909248318,0.9965961442715083,0.06595312631090086,-0.04300148347030125,0.024437323346363008
2401.7500000029704,-0.08970075,-0.6851091,0.1275751,-2.1812863,0.13788418,1.4176553,0.94035345,0.039999716,0.04,0.0012177786778977406,-0.01012117192920603,-0.0007750008614859638,0.08225717659886407,0.053355475864450344,0.037364829911100655,0.9965153358949669,0.06665824085588928,-0.043602676060670316,0.024752189650370963
2401.7666666696373,-0.090834156,-0.6838557,0.1291851,-2.1790776,0.13962205,1.4157217,0.94230044,0.039999712,0.04,0.0018769684818398247,-0.0099115022483387,-0.00055830981577909,0.08209563680666748,0.053684131816616326,0.037477942822107146,0.9964335404719066,0.06736167248889123,-0.04420645672875469,0.02506778182467256
2401.783333336304,-0.091970146,-0.68259966,0.13079885,-2.1768646,0.14136386,1.4137833,0.9442519,0.039999712,0.04,-0.0006780671256478854,-0.009443060374247914,-0.0017176698187792994,0.08192259125343135,0.05400898100746959,0.03758546344674236,0.9963507271348093,0.06806340146317555,-0.04481359057535077,0.025383932298689512
2401.800000002971,-0.09310862,-0.68134063,0.13241605,-2.174647,0.14310944,1.411841,0.9462076,0.039999705,0.04,-0.00039608162629711785,-0.009019293838311015,-0.0008923660508530773,0.081737705753996,0.0543229245930133,0.03768824168762752,0.9962669109046401,0.06876335993607491,-0.04542375007059659,0.02570069058122295
2401.816666669638,-0.0942494,-0.68007916,0.13403666,-2.1724248,0.14485855,1.4098947,0.9481673,0.039999705,0.04,0.0005503327897393717,-0.00898964078644704,-0.001323214479787005,0.0815403039339107,0.054629245330792914,0.037785981789067564,0.9961821194954291,0.06946136935909115,-0.04603660877891756,0.026017947968495252
2401.833333336305,-0.095392376,-0.67881536,0.13566035,-2.1701984,0.14661098,1.4079447,0.95013076,0.0399997,0.04,-0.00032427328382489407,-0.008413159305220574,-0.0014084603939146234,0.08133115983938034,0.05492943133588642,0.037879092171775285,0.9960963523071864,0.07015735070795508,-0.0466522757543817,0.026335683566135852
2401.8500000029717,-0.096537374,-0.6775493,0.13728696,-2.167968,0.14836656,1.4059911,0.9520978,0.0399997,0.04,-0.00019981171437422063,-0.008257912137898948,-0.0014044310846283992,0.08111061872832602,0.05522088351987803,0.03796779251877868,0.996009619190629,0.07085120955772967,-0.04727066343186733,0.026653873314323364
2401.8666666696386,-0.09768428,-0.6762812,0.13891634,-2.1657338,0.15012506,1.4040343,0.95406795,0.039999697,0.04,-0.000206473900377091,-0.007954030841372806,-0.001415216353906068,0.08087811361541371,0.05550398355202846,0.03805084776289818,0.9959219434159184,0.07154275279977507,-0.04789158526246867,0.026972452716396915
2401.8833333363054,-0.098832965,-0.67501104,0.14054821,-2.1634963,0.15188622,1.4020743,0.9560414,0.03999969,0.04,-0.0009554895450847312,-0.007421500353865795,-0.0014742322708594102,0.08063544112559942,0.055781741257156,0.038128751202115355,0.995833306603346,0.07223211248128782,-0.048515243147054826,0.02729136435429546
2401.9000000029723,-0.09998324,-0.6737389,0.1421824,-2.1612554,0.15364982,1.4001116,0.95801747,0.03999969,0.04,-0.0007329739671213531,-0.00719119658763312,-0.0014185678489875286,0.08037994579520695,0.05604976863314072,0.03820201789701334,0.9957437440270326,0.07291893626811456,-0.049141446823999006,0.027610562627338766
2401.916666669639,-0.101135,-0.67246526,0.14381875,-2.1590116,0.1554157,1.3981464,0.95999604,0.03999969,0.04,-0.0008220348769683028,-0.006936309423033471,-0.0015880663772005477,0.08011471530700254,0.0563079978865893,0.03827066402583798,0.9956532709649839,0.07360319406973494,-0.049769955022444586,0.02793000924678148
2401.933333336306,-0.10228812,-0.6711903,0.14545701,-2.156765,0.15718362,1.3961787,0.96197695,0.03999969,0.04,-0.0006028124807322399,-0.006522057755464772,-0.0018296020868335816,0.07983892371711522,0.056561250132946814,0.0383342972668805,0.9955618953357617,0.07428482965587493,-0.05040072780277758,0.028249659739792626
2401.950000002973,-0.103442416,-0.66991395,0.14709704,-2.1545165,0.15895338,1.3942091,0.96396,0.039999675,0.04,-0.0020734877842709665,-0.006187146405137178,-0.0016687476304788618,0.07955247615137642,0.05680592821127112,0.03839286901909864,0.9954696116776046,0.07496379164921368,-0.05103399405520628,0.028569452546128405
2401.96666666964,-0.10459776,-0.6686364,0.14873856,-2.1522658,0.16072471,1.3922378,0.9659447,0.039999675,0.04,-0.0013517989731592905,-0.005783975716378009,-0.0016805784416096259,0.07925491584312909,0.057041507513377124,0.038443081754648875,0.9953764538402254,0.07563986963536969,-0.051669439867961006,0.028889344847765785
2401.9833333363067,-0.10575404,-0.6673578,0.15038139,-2.1500132,0.16249743,1.390265,0.967931,0.039999668,0.04,-0.0013991101976973397,-0.005438041735467136,-0.0016403314290869275,0.07894781299613526,0.057268656197194207,0.03849072488451701,0.9952824333894887,0.07631304613634404,-0.05230690828293093,0.029209315664207158
2402.0000000029736,-0.10691106,-0.6660782,0.1520254,-2.1477597,0.16427135,1.3882909,0.9699186,0.039999668,0.04,-0.00285520291010144,-0.005179967194654522,-0.001932819093175553,0.07863071148142632,0.057487339445446095,0.03853315635207194,0.9951875391970137,0.07698324477721247,-0.05294680442918578,0.029529269400065592
2402.0166666696405,-0.10806873,-0.6647982,0.15367034,-2.1455045,0.16604619,1.3863155,0.9719073,0.03999966,0.04,-0.0010073938959020978,-0.004816514117619852,-0.002117458543704487,0.0783038565030944,0.057695771922600045,0.038569843022405334,0.995091820244437,0.07765032987143995,-0.0535884583671642,0.02984916553775481
2402.0333333363074,-0.10922689,-0.6635176,0.15531597,-2.1432486,0.16782175,1.3843395,0.9738969,0.039999656,0.04,-0.002485207260782829,-0.004314693685961157,-0.0017947576307131285,0.07796739292317703,0.05789710279816537,0.03860169956557101,0.9949952681145137,0.07831431469793772,-0.05423206339886743,0.030168988094075866
2402.0500000029742,-0.110385396,-0.6622367,0.1569621,-2.1409914,0.16959785,1.3823628,0.97588706,0.039999656,0.04,-0.0013553814123046237,-0.004150786013451535,-0.001875586638799831,0.07762061858276167,0.058088449717690754,0.038629608847145606,0.9948979245021177,0.07897498784003854,-0.054877221335221285,0.030488714232804668
2402.066666669641,-0.11154411,-0.66095537,0.15860857,-2.1387339,0.17137425,1.380386,0.9778775,0.039999653,0.04,-0.0024908466745188207,-0.003727688162746823,-0.0017913023774296377,0.07726530490372635,0.058274991765387,0.038652174625660986,0.9947997874319149,0.07963229404769115,-0.055524151349729454,0.03080826653694619
2402.083333336308,-0.112702906,-0.659674,0.16025518,-2.1364763,0.17315072,1.3784091,0.979868,0.039999645,0.04,-0.0027410918982617716,-0.0033199366650804585,-0.0020478010962943216,0.07690099937591714,0.05845115372999293,0.038668257918393165,0.9947008709015756,0.0802861767217473,-0.05617277497005911,0.03112758595224427
2402.100000002975,-0.113861606,-0.65839267,0.1619017,-2.134219,0.17492709,1.3764323,0.9818584,0.03999964,0.04,-0.0029242928930361956,-0.0030022005396701523,-0.0022460650161759688,0.07652804058509266,0.0586183436561214,0.03867987927936415,0.9946011823053811,0.08093656987769485,-0.0568231361231734,0.0314466375674486
2402.1166666696417,-0.11502006,-0.65711164,0.16354796,-2.131962,0.17670311,1.3744557,0.98384833,0.039999638,0.04,-0.0029351749319062037,-0.0026926636763291434,-0.0023443300023240354,0.07614627947245153,0.05877621538682222,0.03868654099601234,0.9945007454463136,0.08158334984962758,-0.05747509608181935,0.0317653532079426
2402.1333333363086,-0.11617815,-0.65583104,0.16519368,-2.1297061,0.17847855,1.3724798,0.9858378,0.039999638,0.04,-0.0033662070950679635,-0.0021220413735700827,-0.0022279040446493426,0.07575630241210604,0.05892327751435501,0.03868749484420496,0.9943995628963087,0.08222660069523807,-0.05812857420743386,0.032083707864693764
2402.1500000029755,-0.11733575,-0.6545509,0.16683875,-2.1274512,0.18025316,1.3705045,0.9878263,0.03999963,0.04,-0.00329551822870755,-0.0018853751815761655,-0.0023934627631838623,0.07535715343646292,0.059059636171279864,0.038681864713327185,0.9942976642142894,0.08286605057383122,-0.05878357542747532,0.03240160274223885
2402.1666666696424,-0.11849269,-0.6532715,0.16848293,-2.1251974,0.18202679,1.3685305,0.9898137,0.039999627,0.04,-0.003167102525836185,-0.0015603951252607384,-0.002116465315604721,0.07495052792025805,0.059185028501073655,0.038673323537103566,0.9941950733561942,0.08350172179866859,-0.059439729266067644,0.03271906410192707
2402.1833333363093,-0.11964885,-0.6519931,0.170126,-2.1229448,0.18379919,1.366558,0.99179965,0.039999627,0.04,-0.00275263335844933,-0.0011978326417749763,-0.0022537497855967814,0.07453571366954415,0.05930398324519277,0.03865864458174151,0.9940918224977164,0.08413347971636746,-0.06009680307171498,0.033036045382942365
2402.200000002976,-0.120804064,-0.6507156,0.17176777,-2.1206942,0.18557012,1.3645868,0.99378407,0.039999627,0.04,-0.003945318658171715,-0.0007159527437905489,-0.0024310766567836595,0.07411361163733285,0.05941480206102269,0.03863945263208458,0.9939878956441212,0.08476133973351083,-0.0607551859534909,0.03335245087409427
2402.216666669643,-0.12195821,-0.6494394,0.17340806,-2.118446,0.18733941,1.3626177,0.9957666,0.03999962,0.04,-0.004415100035171093,-0.0003618944544037106,-0.0025291668059868044,0.07368357482749406,0.0595127912822116,0.038614375921087636,0.9938833178692795,0.08538520655434147,-0.06141470481458775,0.03366824906885071
2402.23333333631,-0.12311115,-0.6481643,0.17504664,-2.1162002,0.1891068,1.3606508,0.9977471,0.03999961,0.04,-0.003827912196019412,-2.1978472042327724e-06,-0.002113787552993074,0.07324624436374458,0.05960169821576694,0.03858348907515925,0.9937781084837692,0.08600507408543612,-0.06207516087662117,0.03398341848787449
2402.250000002977,-0.12426272,-0.64689064,0.17668337,-2.1139565,0.1908721,1.3586859,0.9997253,0.03999961,0.04,-0.003349576595690351,0.00018073112326710827,-0.0025422552814902133,0.07280125973485549,0.05967903620532966,0.038548063360212576,0.9936723060302322,0.08662072400868828,-0.0627363797621384,0.03429788703567921
2402.2666666696437,-0.12541278,-0.6456188,0.178318,-2.1117163,0.19263509,1.3567235,1.0017008,0.039999604,0.04,-0.005049002873391828,0.0008009994958813049,-0.00277889133764031,0.07235023822282326,0.059748792140186566,0.038507894422496934,0.9935659030269837,0.08723217352210326,-0.06339859335113966,0.034611596407576495
2402.2833333363105,-0.12656125,-0.6443487,0.17995033,-2.1094794,0.19439557,1.3547641,1.0036737,0.039999608,0.04,-0.0046170441689863395,0.0011637863257085712,-0.0024663273877179037,0.07189217412644434,0.059804850310188354,0.038462792719328585,0.9934589103406518,0.08783954213763658,-0.06406157587535843,0.03492453003521807
2402.3000000029774,-0.12770788,-0.6430806,0.18158017,-2.107246,0.1961533,1.3528079,1.0056431,0.039999604,0.04,-0.004146699286344813,0.0013527935211532505,-0.0024509478690593056,0.0714264336724584,0.05985109736595945,0.03841111590222131,0.9933514004760523,0.08844236660290059,-0.06472496326020932,0.03523665836750445
2402.3166666696443,-0.12885262,-0.64181477,0.18320729,-2.1050162,0.19790809,1.350855,1.0076095,0.039999597,0.04,-0.0045240336257190705,0.001886812158913287,-0.0026720720810002874,0.0709567463681513,0.05988850825004102,0.038355412843505625,0.9932433528481518,0.08904095795507422,-0.06538879360442375,0.035547932434426076
2402.333333336311,-0.12999529,-0.64055103,0.18483151,-2.1027904,0.19965972,1.3489054,1.0095721,0.039999597,0.04,-0.004656862225838054,0.0021622810092436495,-0.002565834530243727,0.07047896085403613,0.059916417162960395,0.03829407393116334,0.9931347984636496,0.0896350321539572,-0.06605312167337024,0.03585830738515215
2402.350000002978,-0.13113576,-0.6392898,0.18645266,-2.1005685,0.20140792,1.3469597,1.0115309,0.03999959,0.04,-0.00440251871998143,0.0025613974562854747,-0.002582586657928765,0.06999646628437835,0.05993320571129443,0.03822651062742062,0.9930257750084199,0.09022454956846943,-0.0667175875345326,0.03616772508280734
2402.366666669645,-0.13227387,-0.6380311,0.18807055,-2.0983517,0.20315254,1.3450178,1.0134858,0.03999959,0.04,-0.005755815303176703,0.0029388392710383293,-0.0029606161218609373,0.06950914630547575,0.059940749966638576,0.03815540919128331,0.9929162535896521,0.09080964617875621,-0.06738260974446644,0.03647609384794169
2402.383333336312,-0.13340952,-0.6367752,0.18968494,-2.0961392,0.20489334,1.3430803,1.0154365,0.03999959,0.04,-0.00423045747193207,0.0032674152165901305,-0.0023815959350637073,0.06901573582228551,0.05993491681558892,0.03807799162442303,0.9928063042945305,0.09139019612854384,-0.06804741749939332,0.036783463353600956
2402.4000000029787,-0.13454255,-0.63552225,0.19129567,-2.0939322,0.20663014,1.341147,1.0173829,0.039999586,0.04,-0.005810807136663598,0.0037206895615982116,-0.0031420496009015864,0.06851589922211898,0.05992123835049713,0.03799681435533439,0.9926959035726313,0.09196618631349578,-0.06871256531906761,0.03708971518280102
2402.4166666696456,-0.13567285,-0.6342723,0.1929025,-2.0917304,0.2083627,1.3392186,1.0193245,0.039999586,0.04,-0.005178521207449549,0.0040829963969313265,-0.002411757092835032,0.06801141375992302,0.059895351473277694,0.03790878052843792,0.9925851031554063,0.09253756593667911,-0.06937748800296854,0.03739486653117282
2402.4333333363124,-0.13680021,-0.63302565,0.19450524,-2.0895345,0.21009085,1.3372952,1.0212609,0.039999574,0.04,-0.005845918650759785,0.004436539945468221,-0.0030156383068691284,0.06750095152625725,0.059859779027471374,0.03781876783223015,0.9924739276226925,0.09310404835776999,-0.07004237783685445,0.0376988657062764
2402.4500000029793,-0.13792452,-0.63178223,0.1961037,-2.087344,0.21181424,1.3353769,1.0231924,0.039999574,0.04,-0.0047532162358088215,0.004756294464430821,-0.0025083904653389055,0.06698771743344972,0.05981231848334646,0.03772096117961771,0.992362390932083,0.09366594725958723,-0.07070679909254995,0.038001630880920706
2402.466666669646,-0.13904573,-0.6305422,0.19769774,-2.0851598,0.2135328,1.3334639,1.0251186,0.03999957,0.04,-0.006281639723582089,0.005229957311275735,-0.0028200256829702397,0.06646830594695087,0.05975607683614444,0.0376199760864334,0.9922504915669459,0.09422312993807846,-0.07137109540246957,0.03830313970000311
2402.483333336313,-0.14016369,-0.62930596,0.19928712,-2.0829823,0.21524633,1.3315566,1.0270389,0.039999563,0.04,-0.006123737503482829,0.005618567706838773,-0.0029694320258677465,0.0659436729611306,0.05968767693600657,0.03751199803229317,0.9921382701872672,0.09477544311061827,-0.07203504637614294,0.038603371699763134
2402.50000000298,-0.14127822,-0.62807345,0.20087168,-2.0808117,0.21695457,1.329655,1.0289532,0.03999956,0.04,-0.0063789025146032685,0.00592501468867912,-0.00287256247928358,0.06541551455961989,0.059608354131474015,0.037400279674242046,0.9920257493542365,0.09532281356380082,-0.07269861359876524,0.03890225460386698
2402.516666669647,-0.14238921,-0.6268448,0.20245117,-2.0786479,0.21865731,1.3277599,1.0308616,0.039999556,0.04,-0.005687344817495443,0.006298119589603912,-0.0024951365249936686,0.06488436849612228,0.059516011375423915,0.03728416286310103,0.9919129523333637,0.09586543856642364,-0.07336135601993762,0.039199797508318354
2402.5333333363137,-0.14349645,-0.62562037,0.20402543,-2.0764916,0.2203544,1.3258708,1.0327635,0.039999556,0.04,-0.00681585838488985,0.006647296389727941,-0.003219940322773951,0.06434790285868561,0.059414310059253,0.037162635196205426,0.9917998908257734,0.09640303998031285,-0.07402366689708746,0.03949591345503095
2402.5500000029806,-0.14459985,-0.6244003,0.20559424,-2.0743425,0.22204557,1.3239882,1.0346587,0.03999955,0.04,-0.0056381879485201125,0.0069607657986081595,-0.0028558492578767414,0.06380837292928901,0.05929924465991867,0.03703626376289446,0.9916866218309616,0.09693561821642672,-0.07468491955901736,0.039790611869604725
2402.5666666696475,-0.14569928,-0.6231845,0.20715755,-2.072201,0.22373067,1.3221124,1.0365472,0.03999955,0.04,-0.006475891402324407,0.007180558850816698,-0.0027019459773569565,0.06326652085315328,0.05917633884378032,0.03690501620056716,0.9915731420643199,0.09746322066945894,-0.07534529055720232,0.04008380900412453
2402.5833333363144,-0.14679462,-0.6219733,0.20871504,-2.0700676,0.2254095,1.3202437,1.0384287,0.039999537,0.039999995,-0.006659571228073702,0.007772582065568301,-0.002889741145573055,0.06272132166945565,0.05904097680195901,0.03676967449753131,0.9914594719499333,0.09798583490321966,-0.0760046715393747,0.040375506724622374
2402.6000000029812,-0.14788575,-0.6207666,0.21026658,-2.0679421,0.22708178,1.3183823,1.0403029,0.03999954,0.04,-0.006254000662941905,0.008030462843700015,-0.002579735112728798,0.06217242122154473,0.0588961447989535,0.03662830492673222,0.9913456522949218,0.09850337764928217,-0.07666281547297404,0.040665648788570735
2402.616666669648,-0.14897248,-0.6195648,0.2118119,-2.0658247,0.22874741,1.3165282,1.0421695,0.039999537,0.04,-0.006104987973554188,0.008306173836986064,-0.002830826330546543,0.06162133952195538,0.05874035695497907,0.03648424560829029,0.9912317175100327,0.09901573339072814,-0.0773195649816346,0.040954262467508516
2402.633333336315,-0.15005477,-0.618368,0.2133509,-2.0637164,0.23040618,1.3146819,1.0440284,0.039999537,0.04,-0.007250094675015362,0.008812284050424557,-0.0029471078307752308,0.06106856487231424,0.0585761650810062,0.036334512515596426,0.9911176544073144,0.0995230709169698,-0.07797508315819265,0.04124124008649941
2402.650000002982,-0.15113243,-0.61717606,0.21488342,-2.0616174,0.23205784,1.3128431,1.0458794,0.039999533,0.04,-0.007911804922411392,0.00918891115827547,-0.0029780399764200993,0.060512252269184635,0.05840032036420633,0.03617819402285043,0.9910034632401125,0.10002527018724551,-0.07862970583818893,0.041526503944725755
2402.6666666696487,-0.15220542,-0.61598945,0.21640922,-2.0595276,0.23370221,1.3110127,1.047722,0.039999533,0.04,-0.0069884047716683995,0.009521620365460226,-0.002640790500074708,0.05995462762596336,0.058208356530478476,0.03601931749878473,0.9908892229468472,0.10052228013425067,-0.07928262178570795,0.041810105562996254
2402.6833333363156,-0.1532735,-0.6148082,0.21792811,-2.057447,0.23533918,1.309191,1.0495567,0.03999953,0.04,-0.006509644528218672,0.00963817451833937,-0.0024906272510394345,0.0593952374935295,0.05800753246781992,0.03585575501429887,0.9907749379991349,0.1010143333478756,-0.07993363559212424,0.04209204903684657
2402.7000000029825,-0.1543366,-0.6136326,0.21943998,-2.055376,0.23696841,1.3073775,1.0513829,0.039999526,0.04,-0.007315509500571693,0.010161824439613998,-0.0031770263551944566,0.058831837049408205,0.05779920107302905,0.035686298821666025,0.9906606255054649,0.10150120933349364,-0.08058306164735009,0.04237215775127205
2402.7166666696494,-0.15539458,-0.61246264,0.22094458,-2.0533154,0.23858984,1.3055726,1.0531999,0.039999522,0.04,-0.007903051951263507,0.010531472707059342,-0.0028826169303552973,0.058266604529595284,0.05757865470994793,0.03551419036028665,0.9905463139864579,0.10198273257646055,-0.08123088336821693,0.04265050634281978
2402.7333333363163,-0.15644735,-0.6112985,0.2224418,-2.051265,0.2402032,1.3037769,1.055008,0.039999522,0.04,-0.007524992426777288,0.010794593909685402,-0.002761839147380485,0.057701900766957304,0.057344987533782,0.03533661767894221,0.9904320210787756,0.10245915053922106,-0.08187677226216526,0.04292701080348507
2402.750000002983,-0.15749477,-0.6101406,0.22393143,-2.0492249,0.24180833,1.3019902,1.0568068,0.039999526,0.04,-0.0069900046395066084,0.011094046232573707,-0.0030528618884861913,0.05713474931118079,0.0571014205150094,0.03515562207732742,0.9903178045226521,0.10293024104469209,-0.0825204684233519,0.043201664494629574
2402.76666666965,-0.15853669,-0.6089885,0.22541331,-2.0471954,0.24340506,1.3002129,1.0585964,0.039999522,0.04,-0.008083974898287494,0.011448129744134894,-0.002539422215108722,0.056567206494506216,0.05684910898790693,0.03496958443612779,0.9902036339123694,0.10339622260642992,-0.08316223544959551,0.04347444229068179
2402.783333336317,-0.15957302,-0.6078424,0.22688721,-2.045177,0.24499318,1.298445,1.0603763,0.039999522,0.04,-0.008169881480535324,0.011910969864914467,-0.0026977017847595874,0.05599776385008973,0.05658423745385553,0.03477918778128991,0.9900895374795126,0.1038569844999124,-0.08380204513345657,0.043745305755474743
2402.800000002984,-0.1606036,-0.60670286,0.22835307,-2.0431695,0.24657257,1.296687,1.0621463,0.03999952,0.04,-0.007323226824151874,0.011882340964813887,-0.002836707149778128,0.055427251192300256,0.05630678312478225,0.03458450996833577,0.9899755904384067,0.104312418558288,-0.08443930147744687,0.044014248109556224
2402.8166666696507,-0.16162837,-0.60556954,0.22981063,-2.0411737,0.24814296,1.2949388,1.0639064,0.03999951,0.04,-0.008790060932328814,0.012627590160119162,-0.002749659868195309,0.05485722274537614,0.05601996907914664,0.03438557651076929,0.9898617407941476,0.10476272895192118,-0.08507456725304832,0.04428117818252402
2402.8333333363175,-0.16264716,-0.6044431,0.23125978,-2.0391893,0.24970418,1.2932007,1.0656562,0.039999507,0.04,-0.0076020265278753385,0.012625678879335522,-0.0029032909638404547,0.054285451220557154,0.05572097654590863,0.03418332801035644,0.9897480834878142,0.10520768257105446,-0.08570717855771222,0.04454609190381937
2402.8500000029844,-0.16365992,-0.6033232,0.23270032,-2.037217,0.25125623,1.2914732,1.0673954,0.039999504,0.04,-0.008409930511588115,0.013024565950908729,-0.002526555547777143,0.05371415565467338,0.0554112466848289,0.033976011329756944,0.9896346065510598,0.1056473761116925,-0.08633727685627715,0.044809062278586394
2402.8666666696513,-0.16466649,-0.6022101,0.2341321,-2.0352564,0.25279865,1.2897563,1.0691241,0.0399995,0.04,-0.008195050213632982,0.013442633255533742,-0.002400374736577504,0.0531424062463738,0.05509138983037958,0.03376454228823789,0.9895213486860157,0.10608183331998709,-0.08696462291338457,0.04506994004446398
2402.883333336318,-0.16566676,-0.6011041,0.23555496,-2.033308,0.25433135,1.2880504,1.070842,0.039999496,0.04,-0.008056103156572902,0.013626963634943978,-0.0025337543151593422,0.052570851590950686,0.05476277507763774,0.033549549819115745,0.9894083404640919,0.10651107434796332,-0.08758900152805416,0.04532872899886975
2402.900000002985,-0.1666606,-0.6000052,0.23696882,-2.0313728,0.25585437,1.2863553,1.072549,0.039999496,0.04,-0.009410499279027817,0.013854691963738341,-0.003029589376568609,0.0519989434623145,0.05442406069472613,0.03333164156173038,0.9892955523614857,0.10693508364004772,-0.08821093434797063,0.045585403652231904
2402.916666669652,-0.16764799,-0.5989134,0.23837337,-2.0294497,0.2573673,1.2846711,1.0742447,0.039999496,0.04,-0.007961490970886942,0.014354428633134297,-0.002382124568600652,0.05142708852109211,0.05407057586952974,0.03310962605719263,0.9891830524690113,0.1073538433883796,-0.08882983103112382,0.04583996222527375
2402.933333336319,-0.16862871,-0.59782904,0.23976858,-2.0275393,0.25887007,1.2829982,1.075929,0.0399995,0.04,-0.008069593995019275,0.014362115428684374,-0.0026264198524028615,0.0508554769441371,0.05370854847290237,0.03288320833495027,0.9890708863189615,0.10776726646373691,-0.08944547410006305,0.04609235596248858
2402.9500000029857,-0.16960269,-0.5967521,0.24115425,-2.0256424,0.2603625,1.2813368,1.0776017,0.03999949,0.04,-0.00952988414022471,0.014895089288630148,-0.0026547508887198035,0.05028506790497264,0.05333796935893414,0.03265330805595411,0.9889590236945228,0.10817542671103425,-0.09005828167805724,0.046342555068290915
2402.9666666696526,-0.17056985,-0.5956827,0.24253024,-2.0237591,0.26184443,1.279687,1.0792626,0.039999485,0.04,-0.009295396854236415,0.015183722025441382,-0.0025122204106997614,0.04971594863546052,0.05295580980141084,0.03241953216590426,0.9888474899756909,0.10857841641783365,-0.09066803234798071,0.04659052443487571
2402.9833333363194,-0.17153007,-0.5946209,0.24389634,-2.0218885,0.2633157,1.278049,1.0809116,0.039999485,0.04,-0.007644247178850705,0.015249303187742091,-0.002292563578376594,0.04914727722093215,0.052560542075307144,0.03218303822834073,0.9887363612073108,0.1089761130985141,-0.09127415907820569,0.046836339364135816
2403.0000000029863,-0.1724832,-0.59356683,0.24525245,-2.020032,0.2647762,1.276423,1.0825484,0.03999948,0.04,-0.009558886197780225,0.015656897215721166,-0.002488736277661552,0.04857941619747335,0.052158282784739676,0.031943260065146625,0.9886256181001527,0.10936851613167838,-0.0918770751634291,0.047079910520937025
2403.016666669653,-0.17342919,-0.5925207,0.24659844,-2.0181892,0.26622567,1.2748091,1.0841728,0.03999948,0.04,-0.008936260750180836,0.01590472052214742,-0.0024145187579316385,0.04801388528302815,0.051743565887349414,0.031699153860377235,0.9885152981619714,0.10975569705866314,-0.09247646956349977,0.04732118806609711
2403.03333333632,-0.17436798,-0.5914827,0.24793415,-2.0163608,0.26766407,1.2732079,1.0857852,0.039999478,0.04,-0.00929376436489271,0.016203110240931018,-0.0022507734841914484,0.047448991703178255,0.051319915344356155,0.031450813109357094,0.9884054013160232,0.11013786897399629,-0.09307222114445785,0.04756021571035113
2403.050000002987,-0.17529936,-0.59045273,0.24925941,-2.0145466,0.2690912,1.2716192,1.0873848,0.039999474,0.04,-0.009319244414962569,0.01642771761123374,-0.002283949222747772,0.0468839567896131,0.05088697354321027,0.03119953310958005,0.988295964016078,0.11051483062835234,-0.09366435975242315,0.04779693957657205
2403.066666669654,-0.17622332,-0.58943105,0.25057414,-2.0127473,0.2705069,1.2700435,1.0889717,0.039999474,0.04,-0.009646563832532706,0.016717994520792923,-0.0021647876203623184,0.04632038754301302,0.05044386522800998,0.030945737010260845,0.9881870062418692,0.11088667376647106,-0.0942527233820688,0.04803134820930553
2403.0833333363207,-0.17713973,-0.58841777,0.2518781,-2.010963,0.27191103,1.2684803,1.0905454,0.039999478,0.04,-0.009880614408253052,0.017073998000288748,-0.0026473746337130066,0.04575828787153266,0.049991055110050094,0.030688064102165003,0.988078538235915,0.11125325419592921,-0.09483754576230663,0.04826339836952733
2403.1000000029876,-0.17804855,-0.5874127,0.25317127,-2.0091932,0.2733034,1.2669299,1.0921061,0.039999478,0.04,-0.009279966590769462,0.01723280159811047,-0.0021322502335774374,0.045198867486916254,0.049525127393610965,0.03042815528629761,0.98797058510249,0.1116147404881921,-0.09541852892933524,0.04849306151356543
2403.1166666696545,-0.17894968,-0.5864163,0.25445348,-2.0074384,0.27468404,1.2653931,1.0936536,0.039999474,0.04,-0.009305883413857075,0.017275653244941402,-0.0018111367213968776,0.04464060224684688,0.049049995998726864,0.030164222760797367,0.9878632009034147,0.11197112920336799,-0.09599520260872098,0.04872046389242437
2403.1333333363214,-0.17984292,-0.5854286,0.25572464,-2.005699,0.27605262,1.2638699,1.0951873,0.039999478,0.04,-0.009615506470250779,0.01756642304777678,-0.002097348744078964,0.04408360879217594,0.048567662856804916,0.029896767790868937,0.9877564161845686,0.112322233292102,-0.09656770155124045,0.04894545138827929
2403.1500000029882,-0.18072821,-0.5844496,0.2569846,-2.0039747,0.27740917,1.2623599,1.0967083,0.039999478,0.04,-0.00957975598168126,0.017731100642837117,-0.002225631291263852,0.04353013896230228,0.048076611254137896,0.02962646269764447,0.9876501725168847,0.1126685994877506,-0.09713613716962588,0.0491680208326545
2403.166666669655,-0.18160555,-0.5834793,0.25823316,-2.0022662,0.27875325,1.2608637,1.0982144,0.03999947,0.04,-0.010142886059449907,0.018404616430278686,-0.001778847223721236,0.04297624251632651,0.0475753153935055,0.02935415976872862,0.9875445969312093,0.11300939781864175,-0.09770032832209803,0.049388165813255884
2403.183333336322,-0.18247482,-0.5825181,0.25947022,-2.0005732,0.28008497,1.2593812,1.0997082,0.03999947,0.04,-0.00929615107292392,0.018293608173541864,-0.0021094508701802184,0.04242817863240935,0.04706528562851578,0.029077645824745476,0.987439579853762,0.11334592710143304,-0.09826005512058265,0.04960583146609624
2403.200000002989,-0.18333587,-0.58156604,0.26069587,-1.9988966,0.2814041,1.2579122,1.1011872,0.039999463,0.04,-0.010786399577522587,0.018392324126903503,-0.0025778861723280144,0.04187613979907402,0.04654616381301175,0.02880177552640416,0.9873352291321865,0.1136769953359062,-0.09881579599535441,0.04982092439625754
2403.2166666696558,-0.1841887,-0.5806229,0.2619096,-1.9972358,0.28271064,1.2564582,1.1026511,0.039999466,0.04,-0.009441031820722756,0.018951837210118283,-0.0008544015463129995,0.041330354272978174,0.04601556744691708,0.028522628270979563,0.9872316393084919,0.11400267176681528,-0.09936648188351521,0.050033823123847986
2403.2333333363226,-0.18503322,-0.5796891,0.26311153,-1.9955909,0.28400436,1.255018,1.104101,0.039999466,0.04,-0.009673781117358615,0.018928836693626883,-0.0021391702493378517,0.04079004958919684,0.04548102032625075,0.02823812313248391,0.9871287339847744,0.11432345174491038,-0.0999126203574022,0.05024419584452785
2403.2500000029895,-0.1858693,-0.57876456,0.26430157,-1.993963,0.28528517,1.2535917,1.1055368,0.039999463,0.04,-0.011049017807884809,0.01920406806716901,-0.0023683728026746564,0.04025158190196287,0.04493799698219606,0.027951687181867354,0.9870264666970137,0.11463951805394355,-0.10045464073641575,0.05045195828197498
2403.2666666696564,-0.18669689,-0.57784957,0.26547953,-1.9923513,0.28655303,1.2521799,1.1069582,0.039999466,0.04,-0.009531788119998552,0.019210616317910656,-0.001739359759622694,0.03971379862281926,0.04438073744789682,0.02766428497029073,0.9869249587443396,0.114950623647211,-0.10099168053549644,0.0506572837133711
2403.2833333363233,-0.18751594,-0.5769442,0.2666453,-1.9907563,0.2878077,1.2507827,1.1083647,0.039999463,0.04,-0.010119581177026049,0.01963410183326575,-0.001733991502184118,0.03917922045067228,0.04381855069944623,0.02737338898081422,0.9868242133064331,0.11525681700300358,-0.10152382791612867,0.05086010746874068
2403.30000000299,-0.18832636,-0.5760481,0.26779887,-1.9891781,0.28904918,1.2494005,1.1097562,0.03999946,0.04,-0.010535603697059415,0.019641644399087665,-0.00132833764088236,0.03864669684374858,0.04324775019606382,0.027080772199412705,0.9867242465081738,0.11555801567079621,-0.1020511398081366,0.05106046641938107
2403.316666669657,-0.18912806,-0.5751616,0.26894006,-1.987617,0.2902773,1.2480332,1.1111326,0.039999455,0.04,-0.010702230015802172,0.019931593774746847,-0.001592653245086062,0.038118367453784774,0.04266981328923146,0.02678571685026915,0.9866250697266671,0.11585428239535787,-0.1025735951794648,0.051258312588937364
2403.333333336324,-0.18992092,-0.5742848,0.27006882,-1.9860731,0.291492,1.246681,1.1124939,0.03999946,0.04,-0.01050525608303765,0.019935487572381172,-0.0014767396255832566,0.037594252478470716,0.04208230789863967,0.026488291249046017,0.986526714410108,0.11614565266230517,-0.10309098658343883,0.05145364523624726
2403.350000002991,-0.19070499,-0.57341784,0.27118492,-1.9845461,0.29269305,1.2453438,1.1138402,0.03999946,0.04,-0.009794106783589385,0.020374713068205264,-0.001435999951748812,0.037073000625573255,0.04148847166946709,0.026188877228338216,0.9864291867860097,0.11643238936234669,-0.10360309482459203,0.051646460738691884
2403.3666666696577,-0.1914801,-0.57256067,0.27228844,-1.9830366,0.2938805,1.2440219,1.1151714,0.039999455,0.04,-0.0110603874391213,0.020264746946896395,-0.0014530174087923342,0.036553962609597875,0.040888597174110475,0.025887370053243958,0.9863324826424746,0.11671440541448708,-0.10411021264274298,0.05183671359720146
2403.3833333363245,-0.1922463,-0.5717134,0.2733792,-1.9815447,0.29505435,1.2427152,1.1164873,0.039999455,0.04,-0.010677592630869981,0.02050316066711244,-0.0014064946657343924,0.036037175498162266,0.04027978368156503,0.02558493944395146,0.9862366255683983,0.1169917088792052,-0.10461218703630992,0.05202450157822131
2403.4000000029914,-0.19300345,-0.57087624,0.27445713,-1.9800702,0.296214,1.241424,1.117787,0.039999455,0.04,-0.010255065480402337,0.020871483101564392,-0.0014213900508597277,0.03552315153804736,0.03966280999099835,0.02527801195690995,0.9861417083039581,0.11726402067113174,-0.10510868755983677,0.052209619792146174
2403.4166666696583,-0.1937515,-0.57004905,0.27552217,-1.978614,0.29736,1.2401482,1.1190712,0.039999455,0.04,-0.011566018157216362,0.020696733792641142,-0.0013834913988430841,0.035015719666145535,0.03904113008936858,0.024971433461142965,0.9860476403384725,0.11753171347361367,-0.10560018346271141,0.05239225671345445
2403.433333336325,-0.19449042,-0.56923175,0.27657416,-1.977175,0.29849184,1.2388881,1.1203398,0.03999945,0.04,-0.010156197687649637,0.021060955147117477,-0.0007956549872956131,0.03451025183211507,0.03840958454788873,0.024662006653714253,0.9859545104492823,0.1177947405931592,-0.10608604958082253,0.05257235488012429
2403.450000002992,-0.19522014,-0.56842506,0.2776132,-1.9757539,0.2996096,1.2376438,1.1215928,0.03999946,0.04,-0.01030085911168932,0.020826087047648434,-0.0015245606563185632,0.034009186500374586,0.03777338648948342,0.02435176157003817,0.9858623261640701,0.11805324456693407,-0.10656621478498209,0.05274985463477115
2403.466666669659,-0.19594058,-0.5676283,0.27863905,-1.9743518,0.30071315,1.2364151,1.1228299,0.03999946,0.04,-0.012513163694416463,0.021492906880449247,-0.0012840041150319337,0.03351012002031773,0.037132271759488786,0.024040155685510614,0.9857710066721653,0.11830726750564825,-0.1070415242144949,0.05292471023756573
2403.483333336326,-0.19665174,-0.566842,0.27965164,-1.9729667,0.30180237,1.2352024,1.1240509,0.03999946,0.04,-0.009115473310572497,0.021184175138977412,-0.0008241445991652441,0.033013750339408544,0.036479264645264194,0.023727459526732435,0.9856807371850549,0.11855654735248133,-0.10751060376845042,0.05309707618625325
2403.5000000029927,-0.19735356,-0.5660661,0.2806509,-1.9715999,0.30287734,1.2340059,1.1252558,0.03999946,0.04,-0.01102571565088084,0.021431717247089033,-0.0008819307981910995,0.03252266609943134,0.035826305075385034,0.023412424998232435,0.9855914382581044,0.11880137774514295,-0.10797398866010081,0.053266943323282016
2403.5166666696596,-0.19804594,-0.5653005,0.2816368,-1.9702522,0.3039378,1.2328252,1.1264447,0.039999463,0.04,-0.011981571805108615,0.021786080533503505,-0.0013597065233739158,0.032034306214671404,0.03516709873952386,0.023096943549017004,0.98550307670069,0.11904180152030949,-0.10843214515006173,0.05343412020824284
2403.5333333363265,-0.19872889,-0.5645453,0.2826093,-1.9689224,0.3049838,1.2316604,1.127617,0.03999946,0.04,-0.010577252848387175,0.021517647675411977,-0.000839828997545311,0.031549085090200324,0.034499151066479605,0.02278015438088095,0.9854157532001758,0.11927753941124147,-0.10888449925855244,0.053598766386403485
2403.5500000029933,-0.19940233,-0.56380063,0.28356835,-1.967611,0.30601528,1.2305121,1.1287732,0.039999455,0.04,-0.010661626076791109,0.021612848475555113,-0.0006517502897374072,0.031069634232296063,0.033825529140322545,0.022460192806452825,0.985329469431561,0.1195089375384299,-0.10933076998789848,0.05376088961324407
2403.56666666966,-0.20006625,-0.56306654,0.28451377,-1.9663182,0.30703214,1.22938,1.1299132,0.039999455,0.04,-0.01128074667118284,0.022009646577181297,-0.0009778867815501968,0.03059277100311692,0.033150012685526385,0.022140781791723477,0.9852441900304436,0.11973606679227163,-0.10977134711177933,0.053920419820667254
2403.583333336327,-0.20072062,-0.56234294,0.2854457,-1.965044,0.3080344,1.2282643,1.1310366,0.03999945,0.04,-0.010957032201153183,0.021722775556592966,-0.0005852197736411213,0.030119224157686912,0.032467799925960945,0.02182064286246691,0.9851599794472583,0.11995872629731641,-0.1102059502008034,0.054077420620265514
2403.600000002994,-0.20136541,-0.5616301,0.28636396,-1.9637886,0.30902186,1.227165,1.1321435,0.039999455,0.04,-0.011217768696347719,0.02208479991123724,-0.0008712063680471616,0.029650487348136897,0.03178127980290781,0.021499809869667992,0.9850768297683187,0.12017705594782283,-0.11063464673164534,0.05423181372475891
2403.616666669661,-0.20200056,-0.56092775,0.28726852,-1.9625521,0.30999464,1.226082,1.1332338,0.03999946,0.04,-0.011358955285167838,0.02205489732902688,-0.0006929262056143415,0.02918522708576582,0.031090509542628382,0.02117796830780351,0.9849947366603643,0.12039108736546046,-0.11105751161548792,0.054383673543790784
2403.6333333363277,-0.202626,-0.5602361,0.2881593,-1.9613345,0.31095263,1.2250154,1.1343075,0.039999455,0.04,-0.011372062876979783,0.022140053555497197,-0.0006783714823876963,0.028724676658703634,0.030393446481496084,0.020855024253573412,0.9849137148496122,0.12060088701785038,-0.11147445523749211,0.05453298250736611
2403.6500000029946,-0.20324177,-0.5595552,0.2890364,-1.9601356,0.31189576,1.2239654,1.1353647,0.03999945,0.04,-0.010964067672558642,0.022068814219616817,-0.0005300073186331744,0.02826780334340446,0.029691853831515513,0.020530520387383018,0.9848338005939821,0.12080647554040601,-0.11188524951470183,0.05467971850833611
2403.6666666696615,-0.20384784,-0.5588851,0.28989965,-1.9589556,0.31282395,1.222932,1.136405,0.039999448,0.04,-0.011149418820188828,0.022312228421111913,-0.0006002400964266741,0.027814532432642647,0.028986971588140106,0.020206158127274006,0.9847550026076358,0.12100785660015244,-0.1122899123390744,0.05482389139011485
2403.6833333363284,-0.20444416,-0.5582258,0.290749,-1.9577949,0.3137372,1.2219152,1.1374289,0.03999945,0.04,-0.01151102826537631,0.022364976536487502,-0.00048312311731191215,0.027366091185054443,0.02827949468573524,0.01988219377540394,0.9846772943764679,0.12120526787396313,-0.11268851938172474,0.05496550353261908
2403.7000000029952,-0.20503074,-0.55757713,0.2915845,-1.9566529,0.31463555,1.220915,1.1384357,0.03999945,0.04,-0.01102678968813997,0.022320985999624288,-0.0003520738600659712,0.026919986556620888,0.027567048956824172,0.01955757835636981,0.9846007268580097,0.12139841627021947,-0.11308100911818782,0.055104614821029095
2403.716666669662,-0.20560755,-0.55693924,0.29240623,-1.9555298,0.31551895,1.2199311,1.1394259,0.03999945,0.04,-0.011236901731903615,0.022081799464446217,-0.0005693673706508307,0.026479103876519507,0.026851347403792636,0.019232230185038078,0.9845252931464791,0.1215874630970908,-0.1134674062204741,0.05524114135362215
2403.733333336329,-0.20617458,-0.5563122,0.29321402,-1.954426,0.31638727,1.2189641,1.1403993,0.03999945,0.04,-0.011580645306308313,0.022540439647877886,-0.00030570182545375246,0.026042774543116643,0.02613172211289718,0.01890645843374996,0.9844509876611466,0.12177260281369315,-0.11384763742037964,0.055375098652455705
2403.750000002996,-0.2067318,-0.5556961,0.29400784,-1.9533415,0.31724057,1.218014,1.1413559,0.03999945,0.04,-0.011240970463655131,0.0224213534102069,-0.0002497323120298489,0.025609938587726068,0.02540912386907919,0.018581915493867784,0.984377851902314,0.12195373272063859,-0.11422150993235064,0.05550656203065557
2403.7666666696628,-0.20727924,-0.5550907,0.2947878,-1.9522759,0.31807888,1.2170807,1.1422955,0.039999455,0.04,-0.011247705698425037,0.022273618997803446,-1.6080948972430065e-05,0.025180877499008936,0.024684817546052035,0.01825683677757263,0.9843058885787251,0.12213083994688807,-0.11458910360160748,0.05563553701451962
2403.7833333363296,-0.20781682,-0.5544962,0.29555383,-1.9512292,0.3189022,1.216164,1.1432183,0.039999463,0.04,-0.011016870907543108,0.0222338262199806,-0.0003714527125886491,0.02475712767294936,0.023958235941174334,0.01793202545692863,0.9842351026159223,0.12230399476715494,-0.1149504008391746,0.05576200309829102
2403.8000000029965,-0.20834462,-0.5539126,0.29630592,-1.9502016,0.3197105,1.215264,1.1441244,0.039999455,0.04,-0.011220751497154069,0.02238987740120768,-0.00017684716790977717,0.024337752330592842,0.023230660990963492,0.01760730408122893,0.9841654826015105,0.12247335875742374,-0.11530541090546356,0.05588596842082606
2403.8166666696634,-0.20886263,-0.5533397,0.29704407,-1.9491931,0.3205036,1.2143809,1.1450137,0.03999946,0.04,-0.011261880508950384,0.02252080341873519,0.00011711738499009527,0.023921902440820937,0.022500573713348224,0.01728239815134039,0.9840970532700751,0.12263894713452345,-0.11565401051681178,0.05600739453204171
2403.8333333363303,-0.20937082,-0.5527778,0.29776818,-1.948204,0.32128176,1.2135144,1.1458857,0.03999946,0.04,-0.01156841940401776,0.02245432855871865,-0.0002675388606654394,0.023509292026064554,0.021769981888588995,0.016957875112605374,0.984029818131531,0.12280057232230422,-0.11599639076414298,0.056126409069463035
2403.850000002997,-0.20986924,-0.5522268,0.2984784,-1.947234,0.32204494,1.2126648,1.1467412,0.03999946,0.04,-0.01120513947268087,0.022264088629458945,3.189389732316528e-05,0.023102751058109383,0.021036535749472028,0.016634044017466647,0.9839637684008602,0.12295856520381863,-0.11633238559994995,0.05624295314100506
2403.866666669664,-0.2103578,-0.5516865,0.2991746,-1.946283,0.322793,1.2118319,1.1475798,0.03999946,0.04,-0.011081273938851055,0.022417887719322627,6.492855353368299e-05,0.022699112227490745,0.02030298949587364,0.01631021139109492,0.9838989237857231,0.12311285249269381,-0.11666198729153208,0.05635702303705071
2403.883333336331,-0.2108366,-0.55115706,0.2998569,-1.9453509,0.32352608,1.2110157,1.1484017,0.039999463,0.04,-0.011093644090953703,0.02228918370952293,0.0001098593849890861,0.022298974567806534,0.019568901050171124,0.01598679090712702,0.9838352802986075,0.12326352234399386,-0.11698519728913093,0.05646865426354047
2403.900000002998,-0.21130562,-0.55063856,0.3005254,-1.9444379,0.32424423,1.2102162,1.1492069,0.03999945,0.04,-0.011116709887826204,0.022028084014258376,-7.722786909969415e-05,0.021903236526926093,0.01883482090687265,0.01566449082715015,0.9837728624011169,0.12341049242941549,-0.11730197830149966,0.05657783530673996
2403.9166666696647,-0.21176486,-0.55013084,0.30117992,-1.9435436,0.3249474,1.209433,1.1499951,0.039999455,0.04,-0.010776590987982004,0.022294651144327826,-3.024625170322537e-05,0.02151215869539126,0.018100062430612913,0.015343859758072917,0.9837116692500077,0.12355377001412468,-0.11761238722475531,0.05668460168294585
2403.9333333363315,-0.21221432,-0.5496338,0.30182055,-1.9426686,0.3256356,1.2086667,1.1507667,0.03999946,0.04,-0.011691105086031328,0.02224469981980115,0.0004093771315938355,0.021126142720542626,0.017366059485273068,0.015023208354770924,0.9836516681359377,0.12369361582182618,-0.11791648683234852,0.056788971741227885
2403.9500000029984,-0.2126541,-0.5491475,0.3024474,-1.9418124,0.326309,1.2079169,1.1515213,0.03999946,0.04,-0.011040179798360583,0.021997537177298465,0.00012866687555401768,0.020742916369917618,0.016631907083880536,0.01470363859496462,0.9835929077284516,0.12382973950305322,-0.11821423391427013,0.05689096923904153
2403.9666666696653,-0.21308418,-0.548672,0.30306044,-1.9409753,0.32696745,1.2071841,1.1522595,0.039999455,0.04,-0.011161530367953532,0.022128440069824062,0.0005023872939657892,0.02036602767345945,0.015897861232015337,0.014384613440574246,0.9835353744308432,0.12396254577412301,-0.11850538875132498,0.05699058979583373
2403.983333336332,-0.2135046,-0.54820716,0.3036597,-1.940157,0.32761115,1.2064673,1.1529813,0.03999946,0.04,-0.011219355538205633,0.021983766852218256,-7.329220790275315e-05,0.01999208265599335,0.015166539546489513,0.014066892677488257,0.9834790151465496,0.12409202633285259,-0.11879048129513321,0.057087803606816354
2404.000000002999,-0.21391538,-0.54775286,0.30424523,-1.9393575,0.3282401,1.2057672,1.1536862,0.039999463,0.04,-0.011003839984802255,0.02189249343884092,0.0006029229157933358,0.01962168729324888,0.014434310932728824,0.013751445149959561,0.9834239091792317,0.12421793638159398,-0.11906911099062122,0.057182741658998115
2404.016666669666,-0.21431658,-0.54730934,0.30481726,-1.9385766,0.3288542,1.2050834,1.1543747,0.039999466,0.04,-0.010741061503027893,0.021634650066737482,0.0001487421280144119,0.01925640793453656,0.013703645830338347,0.01343591803338736,0.983370044564662,0.12434051392268648,-0.11934128040214086,0.05727522014199792
