rsonawane2002/My_IMU/logs_incomplete/traj_468/imu_468.csv
time,j1,j2,j3,j4,j5,j6,j7,gripper1,gripper2,imu_ax,imu_ay,imu_az,imu_gx,imu_gy,imu_gz
2398.8833333362672,0.00016700293,-0.785875,4.0107683e-05,-2.3551247,9.29385e-05,1.570997,0.786,0.04,0.04,-9.556332,-0.014582389034330845,0.087733336,4.5903982e-07,-0.0011641272576525807,7.344301e-07
2398.900000002934,0.00016700174,-0.78576016,4.011997e-05,-2.3552213,9.29799e-05,1.5709941,0.786,0.04,0.04,-9.834516,0.0006559074390679598,0.009047522,1.8084545e-07,-0.002238391898572445,1.1097097e-06
2398.916666669601,0.00016697281,-0.7856542,4.0168783e-05,-2.35531,9.305866e-05,1.5709913,0.786,0.04,0.04,-9.832562,0.0006728422013111413,0.0075649344,2.865658e-06,-0.00322603527456522,2.3531784e-06
2398.933333336268,0.00016687192,-0.78555673,4.031508e-05,-2.355391,9.324094e-05,1.5709884,0.786,0.04,0.04,-9.830572,0.0007337314309552312,0.0063340003,9.912719e-06,-0.00413500564172864,4.884608e-06
2398.9500000029348,0.00016663632,-0.78546685,4.0646297e-05,-2.3554645,9.3621726e-05,1.5709856,0.786,0.04,0.04,-9.829225,0.0008281252812594175,0.0050419946,2.3503897e-05,-0.004965323489159346,9.274245e-06
2398.9666666696016,0.00016618682,-0.7853838,4.127371e-05,-2.3555312,9.432342e-05,1.5709827,0.786,0.04,0.04,-9.827704,0.0009428781922906637,0.003953707,4.5823646e-05,-0.005720690358430147,1.6029324e-05
2398.9833333362685,0.00016542901,-0.78530717,4.2329946e-05,-2.3555913,9.548774e-05,1.5709797,0.7860019,0.04,0.04,-9.82619,0.0010770063381642103,0.0030358504,7.9331105e-05,-0.006408845540136099,2.562408e-05
2399.0000000029354,0.00016425534,-0.7852361,4.396682e-05,-2.3556485,9.728152e-05,1.5709767,0.7860038,0.04,0.04,-9.825198,0.0012443840969353914,0.0020632986,0.00011688964,-0.007030497770756483,3.8476708e-05
2399.0166666696023,0.00016254628,-0.7851698,4.635315e-05,-2.3556988,9.9884994e-05,1.5709734,0.78600746,0.04,0.04,-9.824586,0.0014293752610683441,0.0012418721,0.00016918119,-0.0076058912090957165,5.496624e-05
2399.033333336269,0.00016017159,-0.78510827,4.9673046e-05,-2.355742,0.000103499595,1.5709667,0.7860113,0.04,0.04,-9.823527,0.0016296550165861845,0.0004539066,0.00023072396,-0.00812042411416769,7.5412325e-05
2399.050000002936,0.00015699155,-0.78505045,5.412402e-05,-2.3557806,0.00010834849,1.5709599,0.786017,0.04,0.039999995,-9.822371,0.0018364069983363152,-9.429734e-05,0.00031028362,-0.008585449308156967,0.00010087073
2399.066666669603,0.00015285843,-0.7849959,5.991561e-05,-2.355815,0.00011463874,1.5709528,0.78602463,0.04,0.04,-9.8219795,0.002075599506497383,-0.0008143429,0.0004020995,-0.009003283455967903,0.00012927958
2399.08333333627,0.00014761701,-0.7849442,6.726765e-05,-2.3558426,0.00012261725,1.5709423,0.786034,0.04,0.04,-9.821462,0.0023367637768387794,-0.0014138899,0.0005075296,-0.009375435300171375,0.00016324905
2399.1000000029367,0.00014110576,-0.7848947,7.640902e-05,-2.3558643,0.00013253266,1.5709311,0.78604543,0.04,0.04,-9.820792,0.0025990051217377186,-0.0019203973,0.0006298746,-0.009706305339932442,0.0002021676
2399.1166666696035,0.00013315781,-0.7848471,8.75767e-05,-2.355882,0.00014463523,1.5709167,0.7860588,0.04,0.04,-9.820137,0.0028397648129612207,-0.002413086,0.0007691213,-0.00999106653034687,0.00024553397
2399.1333333362704,0.00012360116,-0.7848008,0.000101013815,-2.3558934,0.00015920185,1.5708988,0.786075,0.04,0.04,-9.820065,0.0031794989481568336,-0.0028790683,0.0009274505,-0.010248065926134586,0.00029552964
2399.1500000029373,0.00011226054,-0.78475535,0.000116969924,-2.3558981,0.00017648531,1.5708795,0.7860941,0.04,0.04,-9.819671,0.00347717828117311,-0.00330204,0.0011029484,-0.010471008718013763,0.00034945534
2399.166666669604,9.895673e-05,-0.78471047,0.00013569862,-2.3558972,0.00019677803,1.5708566,0.7861168,0.04,0.04,-9.819276,0.003807272994890809,-0.0037756478,0.0012964306,-0.01065080240368843,0.000410482
2399.183333336271,8.350825e-05,-0.78466564,0.00015745775,-2.3558903,0.00022035034,1.57083,0.786143,0.04,0.04,-9.818898,0.004091543145477772,-0.004132048,0.0015070634,-0.010800417512655258,0.0004762777
2399.200000002938,6.573133e-05,-0.7846204,0.0001825082,-2.3558774,0.0002474746,1.5707995,0.7861733,0.039999995,0.04,-9.818905,0.004488118924200535,-0.0045210184,0.0017362062,-0.010922476649284363,0.0005469837
2399.216666669605,4.5440644e-05,-0.78457457,0.00021111302,-2.355858,0.0002784415,1.5707648,0.78620803,0.03999999,0.04,-9.818784,0.00485168257728219,-0.004894905,0.00198331,-0.011018460616469383,0.0006234
2399.2333333362717,2.2449696e-05,-0.78452754,0.00024353708,-2.3558314,0.00031354066,1.5707254,0.78624725,0.039999988,0.039999995,-9.818533,0.005183180328458548,-0.0052593374,0.0022480835,-0.011086825281381607,0.00070643355
2399.2500000029386,-3.4286702e-06,-0.78447914,0.00028004614,-2.3557973,0.0003530583,1.5706809,0.78629154,0.039999988,0.04,-9.8185215,0.005630024708807468,-0.0056378543,0.0025318933,-0.011128113605082035,0.0007944055
2399.2666666696055,-3.2382042e-05,-0.78442895,0.00032090646,-2.3557563,0.00039728353,1.5706311,0.7863411,0.039999988,0.04,-9.818439,0.006047748029232025,-0.0059960764,0.0028336255,-0.011146063916385174,0.0008890501
2399.2833333362723,-6.459789e-05,-0.7843766,0.0003663842,-2.355708,0.00044650363,1.5705761,0.7863962,0.039999984,0.039999995,-9.81844,0.006477205082774162,-0.0063791354,0.0031538133,-0.01114173699170351,0.000989515
2399.300000002939,-0.000100263205,-0.7843217,0.0004167453,-2.3556516,0.0005010058,1.5705149,0.78645724,0.03999998,0.03999999,-9.818315,0.006848928518593311,-0.0067806933,0.003492442,-0.011115171015262604,0.0010957926
2399.316666669606,-0.00013956444,-0.78426415,0.0004722543,-2.3555872,0.0005610761,1.5704477,0.7865245,0.039999973,0.039999984,-9.818479,0.007381887175142765,-0.0071694497,0.0038492212,-0.011070119217038155,0.001207878
2399.333333336273,-0.000182687,-0.7842033,0.0005331748,-2.3555145,0.0006269992,1.570374,0.78659827,0.03999996,0.039999977,-9.818521,0.007857851684093475,-0.0075991126,0.0042244033,-0.011004826985299587,0.0013248852
2399.35000000294,-0.0002298153,-0.7841394,0.00059976854,-2.3554327,0.00069905864,1.5702934,0.78667897,0.039999954,0.03999997,-9.818557,0.008363591507077217,-0.008054551,0.004617424,-0.010920033790171146,0.0014484992
2399.3666666696067,-0.0002811319,-0.7840718,0.00067229493,-2.3553421,0.0007775348,1.570206,0.7867668,0.039999947,0.03999996,-9.818436,0.00878970231860876,-0.008505716,0.0050282544,-0.010814713314175606,0.0015778269
2399.3833333362736,-0.00033681805,-0.7840003,0.00075101154,-2.355242,0.0008627056,1.5701112,0.78686225,0.039999943,0.039999958,-9.818666,0.009416305460035801,-0.00897567,0.0054568667,-0.010692109353840351,0.0017128261
2399.4000000029405,-0.00039705326,-0.7839245,0.0008361732,-2.355133,0.0009548461,1.5700085,0.7869654,0.039999936,0.039999954,-9.818687,0.009968969039618969,-0.009488349,0.005902694,-0.01055059302598238,0.0018525893
2399.4166666696074,-0.0004620147,-0.7838442,0.00092803163,-2.3550146,0.0010542293,1.5698978,0.7870768,0.039999925,0.039999943,-9.818911,0.010554258711636066,-0.010020215,0.006365698,-0.010397535748779774,0.001998782
2399.4333333362742,-0.00053187757,-0.7837593,0.0010268361,-2.3548846,0.0011611246,1.5697784,0.7871966,0.039999917,0.039999936,-9.818959,0.011049104854464531,-0.010640967,0.006845583,-0.01023267861455679,0.0021505042
2399.450000002941,-0.00060681463,-0.7836693,0.0011328326,-2.354745,0.0012757959,1.5696507,0.7873251,0.039999913,0.039999936,-9.818994,0.011775998398661613,-0.0112059815,0.007342025,-0.01004573330283165,0.002306797
2399.466666669608,-0.0006869964,-0.7835741,0.0012462618,-2.3545952,0.0013985062,1.5695138,0.78746253,0.03999991,0.039999932,-9.819222,0.01242978498339653,-0.011869541,0.007854728,-0.009848090820014477,0.0024693524
2399.483333336275,-0.0007725908,-0.78347355,0.0013673631,-2.3544335,0.0015295126,1.5693679,0.7876092,0.03999991,0.039999932,-9.819338,0.012984208762645721,-0.012575313,0.008383915,-0.00964184571057558,0.002637229
2399.5000000029418,-0.0008637629,-0.7833674,0.0014963718,-2.3542616,0.0016690686,1.5692123,0.78776556,0.039999913,0.03999994,-9.819439,0.013792358338832855,-0.01328152,0.008929282,-0.009415467269718647,0.0028094756
2399.5166666696086,-0.0009606754,-0.7832554,0.0016335179,-2.3540773,0.0018174241,1.5690472,0.7879318,0.03999992,0.039999947,-9.819709,0.014515893533825874,-0.014036411,0.009489688,-0.009182135574519634,0.0029877627
2399.5333333362755,-0.0010634875,-0.78313714,0.0017790287,-2.3538816,0.0019748244,1.568872,0.7881081,0.03999992,0.039999947,-9.819754,0.015267418697476387,-0.0148609085,0.010065075,-0.008932417258620262,0.003171138
2399.5500000029424,-0.0011723557,-0.78301233,0.0019331267,-2.3536735,0.0021415097,1.5686861,0.7882948,0.03999993,0.039999958,-9.819814,0.015907643362879753,-0.015764821,0.010655682,-0.008673995733261108,0.0033586745
2399.5666666696093,-0.0012874347,-0.78288144,0.0020960302,-2.353453,0.002317716,1.5684899,0.7884922,0.03999994,0.03999997,-9.820082,0.016851359978318214,-0.016660294,0.011260903,-0.008404762484133244,0.0035519986
2399.583333336276,-0.0014088746,-0.782744,0.0022679532,-2.3532197,0.0025036752,1.5682827,0.7887005,0.039999943,0.039999973,-9.820187,0.0176834799349308,-0.017599571,0.011879873,-0.00812199991196394,0.0037501776
2399.600000002943,-0.001536823,-0.7825993,0.0024491062,-2.3529742,0.0026996138,1.5680645,0.7889201,0.039999943,0.039999977,-9.820325,0.018541205674409866,-0.018603267,0.0125127975,-0.007829021662473679,0.0039522513
2399.61666666961,-0.0016714243,-0.7824473,0.0026396941,-2.3527148,0.0029057534,1.567835,0.789151,0.039999947,0.03999998,-9.820419,0.019292719662189484,-0.019743768,0.013158524,-0.007530271075665951,0.0041598785
2399.633333336277,-0.0018128199,-0.78228855,0.0028399192,-2.3524415,0.0031223104,1.5675939,0.78939354,0.03999995,0.039999988,-9.820649,0.020353469997644424,-0.020857284,0.013817826,-0.007219185587018728,0.004371235
2399.6500000029437,-0.0019611474,-0.7821222,0.0030499748,-2.3521552,0.0033494972,1.567341,0.78964806,0.039999958,0.039999995,-9.820712,0.021315239369869232,-0.02199611,0.014490088,-0.006895373575389385,0.0045879534
2399.6666666696105,-0.0021165423,-0.7819481,0.0032700545,-2.3518558,0.0035875211,1.5670761,0.7899147,0.039999958,0.04,-9.820928,0.02229478769004345,-0.023256268,0.015174437,-0.006565426010638475,0.0048082336
2399.6833333362774,-0.002279136,-0.78176624,0.003500344,-2.3515418,0.0038365843,1.5667988,0.79019374,0.039999958,0.04,-9.821018,0.023167353123426437,-0.0246188,0.015870214,-0.0062313019298017025,0.0050337287
2399.7000000029443,-0.0024490566,-0.7815766,0.0037410266,-2.351213,0.004096883,1.5665092,0.79048526,0.039999958,0.04,-9.821279,0.02437460981309414,-0.025955213,0.016577667,-0.0058874101378023624,0.0052625895
2399.716666669611,-0.0026264284,-0.7813788,0.0039922805,-2.3508697,0.004368609,1.5662066,0.79078966,0.039999958,0.04,-9.821354,0.02546428143978119,-0.027389504,0.017296724,-0.005532118957489729,0.0054964386
2399.733333336278,-0.002811374,-0.78117275,0.0042542783,-2.3505113,0.004651952,1.5658914,0.79110706,0.039999954,0.04,-9.821331,0.02641838975250721,-0.028925333,0.018025933,-0.005171803291887045,0.0057343584
2399.750000002945,-0.003004011,-0.7809585,0.004527185,-2.350138,0.004947087,1.565563,0.7914377,0.03999995,0.04,-9.821605,0.027742542326450348,-0.030453993,0.018765476,-0.0048015667125582695,0.0059753945
2399.766666669612,-0.0032044551,-0.7807357,0.004811168,-2.3497493,0.0052541955,1.5652212,0.7917817,0.039999947,0.039999995,-9.821736,0.02894243597984314,-0.03207715,0.019514754,-0.004424654878675938,0.006221165
2399.7833333362787,-0.0034128164,-0.7805043,0.0051063835,-2.3493452,0.0055734464,1.5648661,0.7921394,0.039999943,0.039999995,-9.821855,0.03016689047217369,-0.033782214,0.020273697,-0.0040405793115496635,0.0064698635
2399.8000000029456,-0.003629204,-0.7802641,0.0054129856,-2.3489254,0.005905007,1.5644972,0.7925107,0.03999995,0.04,-9.821762,0.031263016164302826,-0.035601974,0.021041373,-0.0036483125295490026,0.006722249
2399.8166666696125,-0.0038537234,-0.78001505,0.005731123,-2.3484895,0.00624905,1.5641143,0.7928962,0.039999947,0.04,-9.82207,0.03275448828935623,-0.037399013,0.021818548,-0.003250300884246826,0.006979902
2399.8333333362793,-0.0040864754,-0.7797569,0.006060941,-2.348037,0.006605706,1.5637175,0.79329574,0.039999947,0.04,-9.82217,0.03408527374267578,-0.03931079,0.02260265,-0.0028463576454669237,0.0072385543
2399.850000002946,-0.0043275566,-0.7794898,0.006402579,-2.3475683,0.006975158,1.5633065,0.7937096,0.03999995,0.04,-9.822182,0.035486891865730286,-0.04130326,0.023394998,-0.0024331388995051384,0.0075039086
2399.866666669613,-0.004577063,-0.77921355,0.006756173,-2.3470838,0.007357537,1.562881,0.79413795,0.03999995,0.04,-9.822069,0.03670968487858772,-0.043410916,0.024194967,-0.002012763638049364,0.0077708457
2399.88333333628,-0.0048350864,-0.7789278,0.007121852,-2.3465824,0.0077529713,1.562441,0.79458094,0.039999947,0.04,-9.822441,0.038356050848960876,-0.045487266,0.025001591,-0.0015900267753750086,0.008040283
2399.900000002947,-0.005101716,-0.7786327,0.007499741,-2.3460636,0.008161625,1.5619864,0.79503864,0.039999943,0.03999999,-9.822514,0.039876069873571396,-0.047714565,0.025814826,-0.0011619118740782142,0.008315174
2399.9166666696137,-0.0053770337,-0.77832794,0.00788996,-2.3455281,0.008583565,1.5615171,0.7955113,0.039999936,0.04,-9.822465,0.04138405621051788,-0.050005667,0.02663461,-0.0007234980585053563,0.008587614
2399.9333333362806,-0.0056611225,-0.7780135,0.008292627,-2.3449755,0.009018949,1.5610328,0.795999,0.03999993,0.04,-9.822411,0.04279489070177078,-0.05243486,0.027459968,-0.0002823520335368812,0.0088662915
2399.9500000029475,-0.005954059,-0.7776893,0.008707849,-2.3444054,0.00946791,1.5605329,0.796502,0.039999925,0.04,-9.822633,0.0446208231151104,-0.054831948,0.028290574,0.0001649487967370078,0.009147862
2399.9666666696144,-0.00625592,-0.7773552,0.00913574,-2.3438187,0.009930562,1.5600182,0.79702026,0.03999993,0.04,-9.822719,0.04629062861204147,-0.05736642,0.0291258,0.0006142887286841869,0.009433069
2399.9833333362812,-0.006566778,-0.7770114,0.009576393,-2.3432138,0.010407027,1.5594883,0.7975539,0.039999932,0.04,-9.822626,0.047800563275814056,-0.060056422,0.0299658,0.0010680167470127344,0.009721768
2400.000000002948,-0.0068867,-0.77665764,0.010029906,-2.3425906,0.010897411,1.5589427,0.7981033,0.039999936,0.04,-9.82277,0.04976174980401993,-0.06269106,0.03080996,0.0015304055996239185,0.010012868
2400.016666669615,-0.0072157495,-0.7762938,0.010496376,-2.3419502,0.011401823,1.5583814,0.7986682,0.03999994,0.04,-9.822731,0.05156245827674866,-0.06545446,0.03165734,0.0019987679552286863,0.010307094
2400.033333336282,-0.007553991,-0.7759198,0.0109758945,-2.341292,0.011920298,1.5578046,0.79924893,0.039999936,0.04,-9.822845,0.05336890369653702,-0.06831844,0.0325084,0.002467784332111478,0.010599164
2400.0500000029488,-0.007901481,-0.7755358,0.011468538,-2.3406155,0.012452964,1.557212,0.79984564,0.03999993,0.04,-9.822642,0.05505699664354324,-0.07133867,0.033362284,0.0029425504617393017,0.010896732
2400.0666666696156,-0.008258276,-0.77514124,0.011974389,-2.3399212,0.012999889,1.5566036,0.80045825,0.03999993,0.04,-9.822831,0.057188842445611954,-0.07430313,0.034218278,0.003422611393034458,0.011195007
2400.0833333362825,-0.008624428,-0.7747365,0.012493519,-2.3392081,0.013561173,1.5559791,0.80108696,0.03999993,0.04,-9.822921,0.059168312698602676,-0.0774486,0.035076592,0.00390230561606586,0.011497035
2400.1000000029494,-0.0089999875,-0.77432144,0.013026002,-2.3384776,0.014136896,1.5553386,0.80173177,0.039999925,0.04,-9.822805,0.06118692830204964,-0.08064867,0.035936337,0.004390702582895756,0.011801823
2400.1166666696163,-0.009385001,-0.77389586,0.013571903,-2.3377278,0.014727107,1.5546819,0.8023929,0.03999992,0.04,-9.8227005,0.06300806254148483,-0.0840018,0.03679763,0.0048789456486701965,0.01210627
2400.133333336283,-0.009779506,-0.7734598,0.014131284,-2.3369603,0.015331876,1.5540091,0.8030704,0.03999992,0.04,-9.82278,0.06533128768205643,-0.08734621,0.037659388,0.005373140797019005,0.01241346
2400.15000000295,-0.010183547,-0.7730132,0.0147041995,-2.3361733,0.015951268,1.55332,0.80376434,0.03999992,0.04,-9.822864,0.06748140603303909,-0.090830795,0.038521405,0.005867592990398407,0.012722501
2400.166666669617,-0.01059716,-0.772556,0.015290702,-2.3353686,0.016585378,1.5526146,0.8044749,0.039999925,0.04,-9.82269,0.06968875229358673,-0.094405904,0.039383166,0.006369848269969225,0.013036156
2400.183333336284,-0.011020379,-0.7720883,0.01589084,-2.3345447,0.01723424,1.5518925,0.8052014,0.03999993,0.04,-9.822583,0.071683868765831,-0.09811566,0.040243648,0.0068704504519701,0.013349878
2400.2000000029507,-0.0114532355,-0.7716099,0.016504658,-2.3337023,0.017897887,1.5511546,0.8059445,0.039999925,0.04,-9.822662,0.07418946921825409,-0.10181345,0.041106112,0.007375693880021572,0.013664249
2400.2166666696176,-0.011895755,-0.7711209,0.017132195,-2.3328404,0.018576337,1.5503997,0.80670476,0.039999917,0.04,-9.822619,0.0765070766210556,-0.10567683,0.04196717,0.007885284721851349,0.01397856
2400.2333333362844,-0.01234797,-0.77062124,0.017773489,-2.3319604,0.019269647,1.5496285,0.8074812,0.039999917,0.04,-9.822283,0.07864860445261002,-0.10965277,0.04282431,0.008398438803851604,0.014295019
2400.2500000029513,-0.012809892,-0.77011085,0.018428573,-2.3310614,0.019977853,1.5488404,0.8082745,0.039999913,0.04,-9.822478,0.08129549026489258,-0.11364253,0.043681446,0.00891227275133133,0.014612838
2400.266666669618,-0.013281547,-0.7695897,0.01909747,-2.330143,0.020700958,1.548036,0.8090845,0.03999991,0.04,-9.822361,0.08374250680208206,-0.1177649,0.044535913,0.009428598918020725,0.0149303
2400.283333336285,-0.013762945,-0.76905775,0.019780202,-2.3292055,0.02143903,1.5472147,0.80991113,0.03999991,0.04,-9.822238,0.08626775443553925,-0.12198803,0.04538777,0.009948980063199997,0.01525199
2400.300000002952,-0.014254102,-0.7685148,0.02047679,-2.3282492,0.022192085,1.546377,0.81075466,0.03999991,0.04,-9.821906,0.08857101947069168,-0.12636633,0.046237055,0.010472357273101807,0.015574508
2400.316666669619,-0.014755028,-0.76796114,0.02118725,-2.3272736,0.022960119,1.5455223,0.8116148,0.03999991,0.04,-9.822052,0.09138840436935425,-0.13074277,0.04708248,0.01099524088203907,0.015895734
2400.3333333362857,-0.015265736,-0.76739675,0.02191159,-2.3262792,0.023743168,1.5446513,0.8124919,0.03999991,0.04,-9.821866,0.0940399020910263,-0.13524707,0.04792491,0.011522391811013222,0.016220018
2400.3500000029526,-0.015786223,-0.7668216,0.022649823,-2.3252656,0.02454122,1.5437634,0.8133857,0.03999991,0.04,-9.821739,0.09671545773744583,-0.13985984,0.04876275,0.012051821686327457,0.016544156
2400.3666666696195,-0.01631649,-0.7662357,0.023401953,-2.3242328,0.025354285,1.5428591,0.81429636,0.03999991,0.04,-9.821391,0.09919040650129318,-0.14459461,0.04959665,0.012583812698721886,0.016868968
2400.3833333362863,-0.016856544,-0.7656388,0.024167972,-2.3231814,0.02618236,1.5419377,0.81522393,0.03999991,0.04,-9.821412,0.10221302509307861,-0.1493559,0.050425656,0.013118939474225044,0.017195016
2400.400000002953,-0.017406378,-0.76503116,0.024947872,-2.32211,0.027025405,1.5409998,0.8161682,0.039999902,0.04,-9.821286,0.10500018298625946,-0.15425912,0.05124906,0.013652569614350796,0.017517101
2400.41666666962,-0.017965987,-0.76441276,0.025741657,-2.3210204,0.027883451,1.540045,0.8171292,0.039999906,0.04,-9.8210335,0.10787995159626007,-0.1592573,0.05206775,0.014191177673637867,0.017844116
2400.433333336287,-0.01853535,-0.7637836,0.026549304,-2.3199115,0.028756484,1.5390738,0.8181071,0.039999906,0.04,-9.820744,0.11052443832159042,-0.16437799,0.052880723,0.014728079549968243,0.018170698
2400.450000002954,-0.019114474,-0.76314366,0.027370809,-2.3187838,0.029644495,1.5380858,0.8191018,0.039999902,0.04,-9.820669,0.11371627449989319,-0.16953593,0.053686995,0.015269579365849495,0.018498102
2400.4666666696207,-0.019703336,-0.7624927,0.02820614,-2.317637,0.03054745,1.5370815,0.8201132,0.039999906,0.04,-9.820509,0.11670608073472977,-0.17483738,0.054487094,0.01581001840531826,0.018824836
2400.4833333362876,-0.020301921,-0.7618312,0.029055277,-2.316471,0.031465303,1.5360602,0.8211413,0.039999902,0.04,-9.820111,0.1194700375199318,-0.18028545,0.055280596,0.016352828592061996,0.01915082
2400.5000000029545,-0.020910207,-0.76115894,0.0299182,-2.3152866,0.032398034,1.5350226,0.822186,0.039999895,0.04,-9.820031,0.12278595566749573,-0.18572512,0.056067143,0.016896557062864304,0.019476034
2400.5166666696214,-0.021528173,-0.7604759,0.030794866,-2.3140833,0.03334561,1.5339683,0.8232474,0.03999989,0.04,-9.819828,0.12590965628623962,-0.19133617,0.05684663,0.017440954223275185,0.019802682
2400.5333333362883,-0.022155793,-0.75978243,0.03168524,-2.312861,0.034308005,1.5328976,0.82432544,0.039999895,0.04,-9.819594,0.1290619969367981,-0.19703487,0.05761847,0.017985248938202858,0.020129045
2400.550000002955,-0.022793043,-0.7590783,0.03258929,-2.31162,0.035285175,1.5318106,0.82541984,0.03999989,0.04,-9.819102,0.13199454545974731,-0.2028418,0.058381844,0.018532466143369675,0.020454243
2400.566666669622,-0.0234399,-0.75836337,0.033506986,-2.31036,0.03627705,1.5307069,0.826531,0.03999989,0.04,-9.819024,0.13548544049263,-0.20870902,0.059138045,0.01908104494214058,0.020778919
2400.583333336289,-0.024096314,-0.75763804,0.03443828,-2.3090816,0.037283603,1.5295871,0.82765865,0.039999887,0.04,-9.818686,0.13875533640384674,-0.21472226,0.059884965,0.019630171358585358,0.021102479
2400.6000000029558,-0.02476227,-0.7569019,0.035383113,-2.3077843,0.03830481,1.528451,0.8288024,0.039999884,0.04,-9.818445,0.1420888900756836,-0.22081144,0.06062274,0.020179694518446922,0.021429194
2400.6166666696226,-0.025437722,-0.75615543,0.036341425,-2.3064687,0.039340567,1.5272986,0.8299626,0.03999988,0.04,-9.8179455,0.14515754580497742,-0.22705506,0.06135295,0.020729348063468933,0.021750567
2400.6333333362895,-0.026122632,-0.7553985,0.037313193,-2.305135,0.04039081,1.5261304,0.83113897,0.03999988,0.04,-9.817784,0.14881816506385803,-0.2333283,0.062073123,0.021280044689774513,0.022071902
2400.6500000029564,-0.02681696,-0.7546311,0.038298327,-2.3037825,0.041455507,1.5249459,0.8323315,0.03999988,0.04,-9.817484,0.15226341784000397,-0.23974285,0.062784664,0.021831633523106575,0.022394754
2400.6666666696233,-0.027520666,-0.75385344,0.0392968,-2.302411,0.04253461,1.5237453,0.83354014,0.039999876,0.04,-9.817099,0.15572886168956757,-0.2462518,0.063486375,0.022383805364370346,0.022715824
2400.68333333629,-0.028233696,-0.7530654,0.040308498,-2.3010232,0.043628003,1.522529,0.83476484,0.039999872,0.04,-9.816508,0.15896368026733398,-0.2528663,0.06417821,0.02293853834271431,0.023034886
2400.700000002957,-0.02895601,-0.7522669,0.04133338,-2.2996168,0.044735625,1.5212969,0.83600545,0.039999872,0.04,-9.8165045,0.1627829521894455,-0.2595681,0.064859346,0.023486845195293427,0.02335307
2400.716666669624,-0.029687546,-0.75145835,0.04237139,-2.298191,0.0458574,1.5200487,0.83726203,0.03999987,0.04,-9.816092,0.16636872291564941,-0.26641017,0.06553042,0.02403588593006134,0.023670724
2400.733333336291,-0.030428262,-0.75063974,0.043422427,-2.2967486,0.046993263,1.518785,0.8385343,0.03999987,0.04,-9.815325,0.16970989108085632,-0.2733122,0.06619032,0.024591660127043724,0.023986025
2400.7500000029577,-0.0311781,-0.7498109,0.04448643,-2.2952878,0.048143115,1.5175059,0.8398221,0.03999986,0.04,-9.8152685,0.1736375391483307,-0.28032106,0.06683989,0.025140851736068726,0.024300884
2400.7666666696246,-0.031937,-0.748972,0.04556333,-2.2938101,0.049306855,1.5162113,0.84112567,0.03999986,0.04,-9.814721,0.177311509847641,-0.28746343,0.06747899,0.025694865733385086,0.024612477
2400.7833333362914,-0.032704905,-0.74812317,0.04665302,-2.292315,0.05048441,1.5149014,0.84244454,0.03999986,0.04,-9.814411,0.18103808164596558,-0.29468963,0.06810594,0.026243992149829865,0.024923503
2400.8000000029583,-0.033481754,-0.7472644,0.047755416,-2.2908018,0.051675696,1.5135761,0.843779,0.039999854,0.04,-9.813862,0.18454182147979736,-0.3020333,0.06872215,0.026791004464030266,0.025233638
2400.816666669625,-0.034267493,-0.7463958,0.048870433,-2.2892714,0.05288059,1.5122354,0.84512866,0.03999985,0.04,-9.813399,0.18857982754707336,-0.30945688,0.06932576,0.027342772111296654,0.025540965
2400.833333336292,-0.035062056,-0.74551755,0.049997985,-2.2877238,0.054099023,1.5108795,0.8464934,0.03999985,0.04,-9.812992,0.19240690767765045,-0.3169926,0.06991786,0.027890130877494812,0.025846684
2400.850000002959,-0.035865355,-0.7446299,0.05113798,-2.2861588,0.055330873,1.5095087,0.84787315,0.039999846,0.04,-9.812488,0.19626669585704803,-0.3246166,0.070497975,0.028437048196792603,0.026150974
2400.866666669626,-0.03667734,-0.7437326,0.05229031,-2.2845776,0.05657603,1.5081233,0.84926784,0.039999846,0.04,-9.811766,0.19988620281219482,-0.3323369,0.07106667,0.028986606746912003,0.026452467
2400.8833333362927,-0.03749793,-0.74282545,0.053454872,-2.2829792,0.057834394,1.5067234,0.8506773,0.039999843,0.04,-9.811486,0.2040647268295288,-0.3401924,0.07162248,0.029532302170991898,0.026752658
2400.9000000029596,-0.03832707,-0.74190867,0.054631576,-2.2813642,0.059105866,1.5053091,0.85210145,0.039999843,0.04,-9.81092,0.20801566541194916,-0.34816346,0.072165914,0.030078615993261337,0.027050411
2400.9166666696265,-0.039164666,-0.74098295,0.05582031,-2.279733,0.06039031,1.5038803,0.8535402,0.03999984,0.04,-9.810385,0.2119898796081543,-0.35622615,0.07269664,0.030623143538832664,0.027345106
2400.9333333362933,-0.040010642,-0.74004775,0.05702097,-2.278085,0.0616876,1.5024371,0.8549936,0.03999984,0.04,-9.8097105,0.21573038399219513,-0.36433086,0.07321426,0.031167034059762955,0.02763755
2400.95000000296,-0.040864922,-0.73910344,0.058233425,-2.2764208,0.06299764,1.500979,0.8564608,0.03999984,0.04,-9.80919,0.22001589834690094,-0.3725975,0.07371813,0.03171147406101227,0.02792799
2400.966666669627,-0.041727435,-0.7381499,0.05945758,-2.2747402,0.06432031,1.4995081,0.85794294,0.03999984,0.04,-9.808649,0.22408296167850494,-0.38091928,0.07421052,0.03224960342049599,0.0282161
2400.983333336294,-0.04259808,-0.73718745,0.060693305,-2.273044,0.06565547,1.4980229,0.8594386,0.03999983,0.04,-9.807821,0.22789987921714783,-0.38941392,0.07468674,0.03279530629515648,0.028500056
2401.000000002961,-0.043476783,-0.7362161,0.06194049,-2.2713323,0.06700297,1.4965225,0.8609481,0.03999983,0.04,-9.80737,0.2322743535041809,-0.39793614,0.07515138,0.03333500027656555,0.02878155
2401.0166666696277,-0.04436347,-0.73523587,0.063199036,-2.269605,0.06836271,1.4950099,0.8624712,0.03999983,0.04,-9.806752,0.23641252517700195,-0.40655434,0.0756029,0.033867768943309784,0.029061388
2401.0333333362946,-0.045258034,-0.7342469,0.064468764,-2.2678626,0.06973455,1.493484,0.86400795,0.039999828,0.04,-9.806065,0.24057309329509735,-0.41534856,0.07604131,0.03440441936254501,0.029337844
2401.0500000029615,-0.046160396,-0.7332494,0.06574959,-2.2661047,0.07111834,1.4919444,0.86555797,0.03999983,0.04,-9.805357,0.244509756565094,-0.4241888,0.07646552,0.034938059747219086,0.029610457
2401.0666666696284,-0.04707047,-0.7322433,0.0670414,-2.264332,0.072513916,1.490392,0.86712116,0.039999824,0.04,-9.804689,0.24896162748336792,-0.43313316,0.07687669,0.03547091782093048,0.029880099
2401.0833333362953,-0.047988143,-0.7312287,0.06834402,-2.2625444,0.07392116,1.4888264,0.8686975,0.039999824,0.04,-9.804064,0.2531975209712982,-0.44219992,0.07727434,0.0359998419880867,0.03014736
2401.100000002962,-0.048913337,-0.7302059,0.069657326,-2.260742,0.07533993,1.4872476,0.87028676,0.039999828,0.04,-9.803307,0.25744274258613586,-0.45134607,0.07765766,0.036527473479509354,0.030410605
2401.116666669629,-0.04984596,-0.72917485,0.0709812,-2.258925,0.07677009,1.4856564,0.8718889,0.039999828,0.04,-9.802471,0.2614746391773224,-0.4605517,0.078027524,0.037052009254693985,0.030671349
2401.133333336296,-0.050785903,-0.7281357,0.07231549,-2.2570937,0.07821151,1.4840528,0.8735035,0.039999824,0.04,-9.801771,0.26600366830825806,-0.46992087,0.07838263,0.037576496601104736,0.030928236
2401.1500000029628,-0.051733084,-0.7270886,0.073660046,-2.255249,0.079664014,1.4824368,0.8751305,0.03999982,0.04,-9.801002,0.27031221985816956,-0.47935984,0.078724205,0.03809839114546776,0.03118077
2401.1666666696296,-0.052687384,-0.7260336,0.075014755,-2.2533906,0.081127435,1.4808086,0.8767698,0.039999817,0.04,-9.800313,0.2746512293815613,-0.48890913,0.07905164,0.03861406818032265,0.03143072
2401.1833333362965,-0.053648714,-0.72497094,0.07637943,-2.2515182,0.082601644,1.4791685,0.87842107,0.039999813,0.04,-9.7994,0.2787558138370514,-0.4985092,0.079364516,0.03912809118628502,0.031676892
2401.2000000029634,-0.05461695,-0.7239006,0.07775397,-2.2496328,0.084086455,1.4775167,0.8800843,0.03999981,0.04,-9.798664,0.2833615243434906,-0.50827,0.079663575,0.03963961452245712,0.031918712
2401.2166666696303,-0.055592008,-0.7228227,0.079138204,-2.2477336,0.0855817,1.4758531,0.8817592,0.039999813,0.04,-9.797848,0.2877405285835266,-0.518102,0.079948224,0.04014704003930092,0.0321572
2401.233333336297,-0.056573782,-0.7217372,0.08053202,-2.2458212,0.08708726,1.474178,0.8834458,0.039999813,0.04,-9.796853,0.29190513491630554,-0.5279815,0.08021879,0.04065396636724472,0.03239172
2401.250000002964,-0.057562146,-0.7206445,0.081935205,-2.2438958,0.08860295,1.4724915,0.88514364,0.039999805,0.04,-9.796062,0.2965291440486908,-0.5380548,0.080474615,0.04115637391805649,0.032621484
2401.266666669631,-0.058557004,-0.7195445,0.08334763,-2.2419577,0.090128556,1.4707941,0.8868527,0.03999981,0.04,-9.795133,0.30095672607421875,-0.54814637,0.08071654,0.04165609925985336,0.03284773
2401.283333336298,-0.059558254,-0.71843743,0.08476915,-2.2400072,0.09166395,1.4690859,0.88857263,0.039999805,0.04,-9.794204,0.3053916096687317,-0.55836767,0.08094421,0.042153775691986084,0.033069853
2401.3000000029647,-0.060565773,-0.7173236,0.08619959,-2.2380445,0.09320895,1.4673672,0.89030343,0.03999981,0.04,-9.793213,0.30960559844970703,-0.56861126,0.08115764,0.04264850169420242,0.03328706
2401.3166666696316,-0.061579432,-0.716203,0.087638795,-2.2360694,0.09476339,1.4656377,0.8920446,0.039999813,0.04,-9.792317,0.3142911493778229,-0.5790327,0.081356354,0.043140389025211334,0.03350056
2401.3333333362984,-0.06259915,-0.71507555,0.089086615,-2.2340827,0.096327126,1.463898,0.8937963,0.039999798,0.04,-9.791311,0.31875523924827576,-0.5894907,0.08154214,0.043628741055727005,0.03370951
2401.3500000029653,-0.06362479,-0.7139414,0.09054289,-2.2320848,0.097899914,1.4621477,0.8955582,0.039999798,0.04,-9.79032,0.32322680950164795,-0.6000562,0.081712745,0.04411362111568451,0.033913415
2401.366666669632,-0.06465626,-0.712801,0.09200742,-2.2300754,0.09948162,1.4603878,0.8973301,0.039999798,0.04,-9.789312,0.327503502368927,-0.61067826,0.08186966,0.044591598212718964,0.03411392
2401.383333336299,-0.065693416,-0.7116542,0.09348007,-2.2280545,0.101072066,1.4586182,0.8991118,0.0399998,0.04,-9.788306,0.3322073817253113,-0.62145835,0.082011595,0.04506704956293106,0.034309532
2401.400000002966,-0.06673615,-0.71050143,0.094960675,-2.2260237,0.10267107,1.456839,0.90090305,0.039999798,0.04,-9.787235,0.33669671416282654,-0.6322939,0.082139745,0.045539215207099915,0.034499697
2401.416666669633,-0.06778432,-0.7093427,0.09644905,-2.2239816,0.10427843,1.4550506,0.9027037,0.039999794,0.04,-9.786255,0.341214120388031,-0.64319956,0.08225358,0.04600405693054199,0.034686174
2401.4333333362997,-0.068837844,-0.70817786,0.09794502,-2.2219298,0.10589396,1.4532529,0.9045135,0.039999798,0.04,-9.785041,0.34550121426582336,-0.6541306,0.082353316,0.04646813124418259,0.03486607
2401.4500000029666,-0.06989659,-0.70700735,0.09944841,-2.219867,0.10751749,1.4514465,0.9063322,0.039999787,0.04,-9.784063,0.35023802518844604,-0.66530675,0.08243915,0.0469234399497509,0.035043668
2401.4666666696335,-0.070960425,-0.7058311,0.1009591,-2.2177944,0.10914877,1.4496313,0.9081598,0.039999783,0.04,-9.782808,0.3547329306602478,-0.6764656,0.0825112,0.04737965390086174,0.035213146
2401.4833333363003,-0.07202922,-0.7046492,0.10247682,-2.2157123,0.11078767,1.4478076,0.909996,0.039999787,0.04,-9.781676,0.35905951261520386,-0.6876665,0.082569085,0.047828663140535355,0.035378903
2401.500000002967,-0.073102854,-0.70346206,0.10400147,-2.2136207,0.112434,1.4459755,0.9118402,0.039999776,0.04,-9.780561,0.3637852668762207,-0.6990748,0.0826124,0.04827133193612099,0.03554077
2401.516666669634,-0.07418119,-0.70226973,0.10553283,-2.2115202,0.114087544,1.4441355,0.9136928,0.039999776,0.04,-9.779326,0.36830317974090576,-0.71047914,0.08264373,0.0487106628715992,0.03569769
2401.533333336301,-0.07526415,-0.7010722,0.10707072,-2.2094104,0.115748115,1.4422878,0.9155531,0.039999772,0.04,-9.7781725,0.37282028794288635,-0.7219849,0.08265996,0.049143411219120026,0.03584823
2401.550000002968,-0.07635156,-0.6998699,0.10861498,-2.2072926,0.117415525,1.4404325,0.91742104,0.039999764,0.04,-9.776904,0.3771687150001526,-0.73350906,0.0826628,0.04957177862524986,0.035994086
2401.5666666696347,-0.07744328,-0.6986627,0.11016545,-2.2051651,0.11908955,1.4385698,0.91929656,0.03999976,0.04,-9.77571,0.38186928629875183,-0.7452346,0.08265238,0.049993615597486496,0.03613456
2401.5833333363016,-0.07853919,-0.6974508,0.11172189,-2.2030299,0.12077004,1.4366999,0.92117923,0.039999757,0.04,-9.7743,0.38637199997901917,-0.75695544,0.08262893,0.050414424389600754,0.03626966
2401.6000000029685,-0.07963921,-0.6962345,0.11328416,-2.200887,0.12245677,1.4348229,0.92306894,0.039999753,0.04,-9.773022,0.3908863365650177,-0.7687679,0.082592145,0.050828803330659866,0.03639975
2401.6166666696354,-0.08074316,-0.6950139,0.11485206,-2.1987364,0.124149494,1.4329392,0.92496544,0.03999975,0.04,-9.771767,0.39523693919181824,-0.78057605,0.08254165,0.051235560327768326,0.03652393
2401.6333333363023,-0.08185092,-0.693789,0.116425395,-2.1965783,0.12584811,1.4310491,0.92686856,0.039999742,0.04,-9.770445,0.39991527795791626,-0.7926069,0.08247808,0.051635246723890305,0.036643755
2401.650000002969,-0.08296236,-0.69256,0.118003964,-2.1944134,0.12755232,1.4291528,0.9287778,0.039999746,0.04,-9.7690325,0.4044082462787628,-0.80463624,0.0824011,0.052031829953193665,0.03675769
2401.666666669636,-0.08407734,-0.69132715,0.11958759,-2.1922412,0.12926199,1.4272505,0.9306932,0.03999974,0.04,-9.767709,0.40891674160957336,-0.8167538,0.08231186,0.052419885993003845,0.036867153
2401.683333336303,-0.08519576,-0.6900905,0.12117612,-2.1900625,0.1309768,1.4253421,0.93261456,0.039999735,0.04,-9.766267,0.4132451117038727,-0.8288405,0.08220979,0.05280430614948273,0.03696991
2401.70000000297,-0.086317435,-0.68885016,0.12276932,-2.187877,0.13269663,1.4234282,0.9345415,0.039999727,0.04,-9.764865,0.41787493228912354,-0.84116733,0.082094625,0.05317964777350426,0.03706803
2401.7166666696367,-0.087442264,-0.68760645,0.12436699,-2.1856856,0.13442126,1.4215091,0.9364738,0.039999727,0.04,-9.763323,0.4223404824733734,-0.8534697,0.08196732,0.053552523255348206,0.03716015
2401.7333333363035,-0.088570066,-0.6863593,0.125969,-2.1834888,0.13615052,1.4195845,0.9384111,0.03999972,0.04,-9.76195,0.4266737401485443,-0.86576545,0.08182773,0.05391693115234375,0.037246868
2401.7500000029704,-0.08970075,-0.6851091,0.1275751,-2.1812863,0.13788418,1.4176553,0.94035345,0.039999716,0.04,-9.76049,0.4312599301338196,-0.878294,0.081676275,0.054270993918180466,0.03732844
2401.7666666696373,-0.090834156,-0.6838557,0.1291851,-2.1790776,0.13962205,1.4157217,0.94230044,0.039999712,0.04,-9.758924,0.43570366501808167,-0.8907958,0.08151234,0.05462147668004036,0.03740457
2401.783333336304,-0.091970146,-0.68259966,0.13079885,-2.1768646,0.14136386,1.4137833,0.9442519,0.039999712,0.04,-9.75731,0.44011783599853516,-0.90336347,0.08133703,0.054968200623989105,0.037473984
2401.800000002971,-0.09310862,-0.68134063,0.13241605,-2.174647,0.14310944,1.411841,0.9462076,0.039999705,0.04,-9.75587,0.44442254304885864,-0.9158889,0.08114996,0.05530417710542679,0.03753829
2401.816666669638,-0.0942494,-0.68007916,0.13403666,-2.1724248,0.14485855,1.4098947,0.9481673,0.039999705,0.04,-9.754281,0.4489561915397644,-0.9287025,0.080950476,0.055632635951042175,0.03759683
2401.833333336305,-0.095392376,-0.67881536,0.13566035,-2.1701984,0.14661098,1.4079447,0.95013076,0.0399997,0.04,-9.752643,0.4533393085002899,-0.94142497,0.08073952,0.0559551827609539,0.037649788
2401.8500000029717,-0.096537374,-0.6775493,0.13728696,-2.167968,0.14836656,1.4059911,0.9520978,0.0399997,0.04,-9.751056,0.4577363431453705,-0.9542328,0.080517165,0.056269098073244095,0.037697747
2401.8666666696386,-0.09768428,-0.6762812,0.13891634,-2.1657338,0.15012506,1.4040343,0.95406795,0.039999697,0.04,-9.749459,0.461986780166626,-0.9669912,0.08028308,0.05657470226287842,0.037739392
2401.8833333363054,-0.098832965,-0.67501104,0.14054821,-2.1634963,0.15188622,1.4020743,0.9560414,0.03999969,0.04,-9.747693,0.4664241373538971,-0.97997975,0.08003901,0.056874968111515045,0.037774988
2401.9000000029723,-0.09998324,-0.6737389,0.1421824,-2.1612554,0.15364982,1.4001116,0.95801747,0.03999969,0.04,-9.746026,0.47076961398124695,-0.9929561,0.07978223,0.05716582015156746,0.037805337
2401.916666669639,-0.101135,-0.67246526,0.14381875,-2.1590116,0.1554157,1.3981464,0.95999604,0.03999969,0.04,-9.744348,0.47509345412254333,-1.0059803,0.07951563,0.0574469231069088,0.037830796
2401.933333336306,-0.10228812,-0.6711903,0.14545701,-2.156765,0.15718362,1.3961787,0.96197695,0.03999969,0.04,-9.742608,0.4792892634868622,-1.0189414,0.07923898,0.05772300437092781,0.037850156
2401.950000002973,-0.103442416,-0.66991395,0.14709704,-2.1545165,0.15895338,1.3942091,0.96396,0.039999675,0.04,-9.740797,0.48366400599479675,-1.0321212,0.07895165,0.05799059569835663,0.037863944
2401.96666666964,-0.10459776,-0.6686364,0.14873856,-2.1522658,0.16072471,1.3922378,0.9659447,0.039999675,0.04,-9.73904,0.48789122700691223,-1.0452847,0.07865371,0.05824870243668556,0.037868902
2401.9833333363067,-0.10575404,-0.6673578,0.15038139,-2.1500132,0.16249743,1.390265,0.967931,0.039999668,0.04,-9.737319,0.49208980798721313,-1.0584024,0.07834609,0.058498565107584,0.03787074
2402.0000000029736,-0.10691106,-0.6660782,0.1520254,-2.1477597,0.16427135,1.3882909,0.9699186,0.039999668,0.04,-9.735424,0.4963815212249756,-1.0717361,0.07802863,0.05874001979827881,0.037866987
2402.0166666696405,-0.10806873,-0.6647982,0.15367034,-2.1455045,0.16604619,1.3863155,0.9719073,0.03999966,0.04,-9.733637,0.5005709528923035,-1.0850405,0.077701546,0.05897127091884613,0.037857138
2402.0333333363074,-0.10922689,-0.6635176,0.15531597,-2.1432486,0.16782175,1.3843395,0.9738969,0.039999656,0.04,-9.731714,0.5047483444213867,-1.0983258,0.07736499,0.059195272624492645,0.037841797
2402.0500000029742,-0.110385396,-0.6622367,0.1569621,-2.1409914,0.16959785,1.3823628,0.97588706,0.039999656,0.04,-9.729935,0.5088779330253601,-1.111602,0.0770182,0.05940955504775047,0.03782222
2402.066666669641,-0.11154411,-0.66095537,0.15860857,-2.1387339,0.17137425,1.380386,0.9778775,0.039999653,0.04,-9.727855,0.5130537748336792,-1.1250701,0.07666323,0.05961885303258896,0.037796263
2402.083333336308,-0.112702906,-0.659674,0.16025518,-2.1364763,0.17315072,1.3784091,0.979868,0.039999645,0.04,-9.725962,0.5171510577201843,-1.1385297,0.07629952,0.05981753021478653,0.037763707
2402.100000002975,-0.113861606,-0.65839267,0.1619017,-2.134219,0.17492709,1.3764323,0.9818584,0.03999964,0.04,-9.724019,0.5212497711181641,-1.1519792,0.07592709,0.060007091611623764,0.03772644
2402.1166666696417,-0.11502006,-0.65711164,0.16354796,-2.131962,0.17670311,1.3744557,0.98384833,0.039999638,0.04,-9.7221155,0.5252870321273804,-1.1653737,0.07554604,0.060187485069036484,0.037684053
2402.1333333363086,-0.11617815,-0.65583104,0.16519368,-2.1297061,0.17847855,1.3724798,0.9858378,0.039999638,0.04,-9.720073,0.5293487906455994,-1.1789832,0.07515683,0.060356732457876205,0.03763588
2402.1500000029755,-0.11733575,-0.6545509,0.16683875,-2.1274512,0.18025316,1.3705045,0.9878263,0.03999963,0.04,-9.7181,0.53337162733078,-1.1925406,0.07475866,0.06051509454846382,0.037581135
2402.1666666696424,-0.11849269,-0.6532715,0.16848293,-2.1251974,0.18202679,1.3685305,0.9898137,0.039999627,0.04,-9.716064,0.5373756885528564,-1.20611,0.074352644,0.06066279113292694,0.037523557
2402.1833333363093,-0.11964885,-0.6519931,0.170126,-2.1229448,0.18379919,1.366558,0.99179965,0.039999627,0.04,-9.714045,0.5413141846656799,-1.2196151,0.07393899,0.06080354005098343,0.037459232
2402.200000002976,-0.120804064,-0.6507156,0.17176777,-2.1206942,0.18557012,1.3645868,0.99378407,0.039999627,0.04,-9.711856,0.5452689528465271,-1.2333097,0.07351813,0.06093619763851166,0.037390087
2402.216666669643,-0.12195821,-0.6494394,0.17340806,-2.118446,0.18733941,1.3626177,0.9957666,0.03999962,0.04,-9.709804,0.5491865277290344,-1.2469536,0.07308928,0.06105561926960945,0.03731556
2402.23333333631,-0.12311115,-0.6481643,0.17504664,-2.1162002,0.1891068,1.3606508,0.9977471,0.03999961,0.04,-9.707795,0.5530760288238525,-1.2605157,0.07265332,0.06116592511534691,0.037235096
2402.250000002977,-0.12426272,-0.64689064,0.17668337,-2.1139565,0.1908721,1.3586859,0.9997253,0.03999961,0.04,-9.7056055,0.5569353103637695,-1.2743039,0.07220962,0.06126449257135391,0.037150294
2402.2666666696437,-0.12541278,-0.6456188,0.178318,-2.1117163,0.19263509,1.3567235,1.0017008,0.039999604,0.04,-9.703362,0.5607549548149109,-1.2879696,0.07176007,0.061355140060186386,0.037060685
2402.2833333363105,-0.12656125,-0.6443487,0.17995033,-2.1094794,0.19439557,1.3547641,1.0036737,0.039999608,0.04,-9.701282,0.564570426940918,-1.3016698,0.07130321,0.0614321306347847,0.03696682
2402.3000000029774,-0.12770788,-0.6430806,0.18158017,-2.107246,0.1961533,1.3528079,1.0056431,0.039999604,0.04,-9.699191,0.5683709979057312,-1.3153069,0.07083899,0.06149902194738388,0.03686633
2402.3166666696443,-0.12885262,-0.64181477,0.18320729,-2.1050162,0.19790809,1.350855,1.0076095,0.039999597,0.04,-9.696862,0.5720840096473694,-1.3291068,0.07037073,0.06155647709965706,0.036762245
2402.333333336311,-0.12999529,-0.64055103,0.18483151,-2.1027904,0.19965972,1.3489054,1.0095721,0.039999597,0.04,-9.694621,0.5758058428764343,-1.3428159,0.06989462,0.06160436570644379,0.036652282
2402.350000002978,-0.13113576,-0.6392898,0.18645266,-2.1005685,0.20140792,1.3469597,1.0115309,0.03999959,0.04,-9.692377,0.5794813632965088,-1.3565549,0.06941393,0.06164071336388588,0.036536757
2402.366666669645,-0.13227387,-0.6380311,0.18807055,-2.0983517,0.20315254,1.3450178,1.0134858,0.03999959,0.04,-9.690183,0.5831970572471619,-1.3701758,0.06892826,0.06166764348745346,0.03641804
2402.383333336312,-0.13340952,-0.6367752,0.18968494,-2.0961392,0.20489334,1.3430803,1.0154365,0.03999959,0.04,-9.687844,0.5867685079574585,-1.3840001,0.06843656,0.06168084964156151,0.036293812
2402.4000000029787,-0.13454255,-0.63552225,0.19129567,-2.0939322,0.20663014,1.341147,1.0173829,0.039999586,0.04,-9.68551,0.5903708934783936,-1.3977283,0.06793839,0.06168600171804428,0.036165718
2402.4166666696456,-0.13567285,-0.6342723,0.1929025,-2.0917304,0.2083627,1.3392186,1.0193245,0.039999586,0.04,-9.683197,0.5939205288887024,-1.4114276,0.06743569,0.06167839094996452,0.036031604
2402.4333333363124,-0.13680021,-0.63302565,0.19450524,-2.0895345,0.21009085,1.3372952,1.0212609,0.039999574,0.04,-9.680967,0.5975548028945923,-1.4250739,0.06692663,0.06166129931807518,0.03589568
2402.4500000029793,-0.13792452,-0.63178223,0.1961037,-2.087344,0.21181424,1.3353769,1.0231924,0.039999574,0.04,-9.678556,0.600972056388855,-1.4388685,0.06641521,0.06163148954510689,0.035753217
2402.466666669646,-0.13904573,-0.6305422,0.19769774,-2.0851598,0.2135328,1.3334639,1.0251186,0.03999957,0.04,-9.676112,0.6044444441795349,-1.4525563,0.06589739,0.06159278750419617,0.035607528
2402.483333336313,-0.14016369,-0.62930596,0.19928712,-2.0829823,0.21524633,1.3315566,1.0270389,0.039999563,0.04,-9.673872,0.6079590916633606,-1.4661741,0.0653745,0.06154138222336769,0.03545571
2402.50000000298,-0.14127822,-0.62807345,0.20087168,-2.0808117,0.21695457,1.329655,1.0289532,0.03999956,0.04,-9.671379,0.6112980842590332,-1.4799322,0.064847775,0.06147881597280502,0.035301015
2402.516666669647,-0.14238921,-0.6268448,0.20245117,-2.0786479,0.21865731,1.3277599,1.0308616,0.039999556,0.04,-9.66902,0.6146894693374634,-1.4936117,0.064317845,0.061402905732393265,0.035143282
2402.5333333363137,-0.14349645,-0.62562037,0.20402543,-2.0764916,0.2203544,1.3258708,1.0327635,0.039999556,0.04,-9.6665535,0.618019163608551,-1.507261,0.06378264,0.06131729111075401,0.034980465
2402.5500000029806,-0.14459985,-0.6244003,0.20559424,-2.0743425,0.22204557,1.3239882,1.0346587,0.03999955,0.04,-9.664273,0.6214427947998047,-1.5208013,0.063244194,0.06121790409088135,0.03481421
2402.5666666696475,-0.14569928,-0.6231845,0.20715755,-2.072201,0.22373067,1.3221124,1.0365472,0.03999955,0.04,-9.661644,0.6246091723442078,-1.5344509,0.06270357,0.06110997125506401,0.034643617
2402.5833333363144,-0.14679462,-0.6219733,0.20871504,-2.0700676,0.2254095,1.3202437,1.0384287,0.039999537,0.039999995,-9.659206,0.627848744392395,-1.548052,0.06215919,0.06098948419094086,0.03447014
2402.6000000029812,-0.14788575,-0.6207666,0.21026658,-2.0679421,0.22708178,1.3183823,1.0403029,0.03999954,0.04,-9.656698,0.6310599446296692,-1.561595,0.061611455,0.060858748853206635,0.03429136
2402.616666669648,-0.14897248,-0.6195648,0.2118119,-2.0658247,0.22874741,1.3165282,1.0421695,0.039999537,0.04,-9.654312,0.6343716382980347,-1.5750446,0.061061077,0.0607169084250927,0.034110926
2402.633333336315,-0.15005477,-0.618368,0.2133509,-2.0637164,0.23040618,1.3146819,1.0440284,0.039999537,0.04,-9.65163,0.6373841166496277,-1.5885941,0.06050919,0.060566045343875885,0.03392565
2402.650000002982,-0.15113243,-0.61717606,0.21488342,-2.0616174,0.23205784,1.3128431,1.0458794,0.039999533,0.04,-9.649139,0.640496551990509,-1.6020408,0.059953842,0.06040268391370773,0.03373506
2402.6666666696487,-0.15220542,-0.61598945,0.21640922,-2.0595276,0.23370221,1.3110127,1.047722,0.039999533,0.04,-9.646705,0.6435948014259338,-1.6155114,0.059396304,0.060223229229450226,0.033544112
2402.6833333363156,-0.1532735,-0.6148082,0.21792811,-2.057447,0.23533918,1.309191,1.0495567,0.03999953,0.04,-9.644264,0.6467959880828857,-1.6288298,0.058837026,0.06003424897789955,0.03334941
2402.7000000029825,-0.1543366,-0.6136326,0.21943998,-2.055376,0.23696841,1.3073775,1.0513829,0.039999526,0.04,-9.641531,0.6496381163597107,-1.6422426,0.05827423,0.059837114065885544,0.033149105
2402.7166666696494,-0.15539458,-0.61246264,0.22094458,-2.0533154,0.23858984,1.3055726,1.0531999,0.039999522,0.04,-9.6389885,0.6526321768760681,-1.6555382,0.05770889,0.059627715498209,0.03294766
2402.7333333363163,-0.15644735,-0.6112985,0.2224418,-2.051265,0.2402032,1.3037769,1.055008,0.039999522,0.04,-9.636596,0.6557492017745972,-1.6687479,0.05714376,0.059404417872428894,0.03274288
2402.750000002983,-0.15749477,-0.6101406,0.22393143,-2.0492249,0.24180833,1.3019902,1.0568068,0.039999526,0.04,-9.633884,0.6585076451301575,-1.6820393,0.05657607,0.05917084589600563,0.032535728
2402.76666666965,-0.15853669,-0.6089885,0.22541331,-2.0471954,0.24340506,1.3002129,1.0585964,0.039999522,0.04,-9.631261,0.6613830924034119,-1.6951731,0.05600818,0.058927785605192184,0.032324806
2402.783333336317,-0.15957302,-0.6078424,0.22688721,-2.045177,0.24499318,1.298445,1.0603763,0.039999522,0.04,-9.628705,0.6642326712608337,-1.7083308,0.055437762,0.05867181718349457,0.03211114
2402.800000002984,-0.1606036,-0.60670286,0.22835307,-2.0431695,0.24657257,1.296687,1.0621463,0.03999952,0.04,-9.626247,0.6672323942184448,-1.7213753,0.054866172,0.0584026500582695,0.031895008
2402.8166666696507,-0.16162837,-0.60556954,0.22981063,-2.0411737,0.24814296,1.2949388,1.0639064,0.03999951,0.04,-9.623513,0.6698207855224609,-1.7344396,0.054294754,0.05812346935272217,0.031676237
2402.8333333363175,-0.16264716,-0.6044431,0.23125978,-2.0391893,0.24970418,1.2932007,1.0656562,0.039999507,0.04,-9.620915,0.6725857853889465,-1.747439,0.053721085,0.05783195421099663,0.0314557
2402.8500000029844,-0.16365992,-0.6033232,0.23270032,-2.037217,0.25125623,1.2914732,1.0673954,0.039999504,0.04,-9.618316,0.6752905249595642,-1.7603384,0.053147815,0.05752881243824959,0.031231968
2402.8666666696513,-0.16466649,-0.6022101,0.2341321,-2.0352564,0.25279865,1.2897563,1.0691241,0.0399995,0.04,-9.615814,0.6781627535820007,-1.7731565,0.052573916,0.057215023785829544,0.031005586
2402.883333336318,-0.16566676,-0.6011041,0.23555496,-2.033308,0.25433135,1.2880504,1.070842,0.039999496,0.04,-9.61303,0.6806192994117737,-1.7860215,0.052000087,0.05689198151230812,0.030777074
2402.900000002985,-0.1666606,-0.6000052,0.23696882,-2.0313728,0.25585437,1.2863553,1.072549,0.039999496,0.04,-9.6104145,0.6832371950149536,-1.7987546,0.051425423,0.056558433920145035,0.030547174
2402.916666669652,-0.16764799,-0.5989134,0.23837337,-2.0294497,0.2573673,1.2846711,1.0742447,0.039999496,0.04,-9.60788,0.6858274340629578,-1.8114525,0.050850112,0.05620953068137169,0.030315783
2402.933333336319,-0.16862871,-0.59782904,0.23976858,-2.0275393,0.25887007,1.2829982,1.075929,0.0399995,0.04,-9.605308,0.6885719895362854,-1.8239996,0.05027506,0.055851634591817856,0.030081416
2402.9500000029857,-0.16960269,-0.5967521,0.24115425,-2.0256424,0.2603625,1.2813368,1.0776017,0.03999949,0.04,-9.602519,0.690865159034729,-1.8365707,0.049701054,0.05548439919948578,0.02984513
2402.9666666696526,-0.17056985,-0.5956827,0.24253024,-2.0237591,0.26184443,1.279687,1.0792626,0.039999485,0.04,-9.599917,0.6933503150939941,-1.8490691,0.049127825,0.05510503426194191,0.029607316
2402.9833333363194,-0.17153007,-0.5946209,0.24389634,-2.0218885,0.2633157,1.278049,1.0809116,0.039999485,0.04,-9.59748,0.6960355043411255,-1.8614452,0.048554286,0.054712262004613876,0.029369019
2403.0000000029863,-0.1724832,-0.59356683,0.24525245,-2.020032,0.2647762,1.276423,1.0825484,0.03999948,0.04,-9.594619,0.6982269287109375,-1.8738066,0.047981445,0.054311931133270264,0.029128723
2403.016666669653,-0.17342919,-0.5925207,0.24659844,-2.0181892,0.26622567,1.2748091,1.0841728,0.03999948,0.04,-9.592042,0.7006065845489502,-1.8860867,0.047410488,0.05389835685491562,0.028886756
2403.03333333632,-0.17436798,-0.5914827,0.24793415,-2.0163608,0.26766407,1.2732079,1.0857852,0.039999478,0.04,-9.589392,0.7029534578323364,-1.8982531,0.04684005,0.05347505956888199,0.028642306
2403.050000002987,-0.17529936,-0.59045273,0.24925941,-2.0145466,0.2690912,1.2716192,1.0873848,0.039999474,0.04,-9.586909,0.7055101990699768,-1.9103293,0.04626916,0.05304209887981415,0.02839649
2403.066666669654,-0.17622332,-0.58943105,0.25057414,-2.0127473,0.2705069,1.2700435,1.0889717,0.039999474,0.04,-9.584153,0.7075759172439575,-1.922393,0.045699164,0.052598658949136734,0.028150119
2403.0833333363207,-0.17713973,-0.58841777,0.2518781,-2.010963,0.27191103,1.2684803,1.0905454,0.039999478,0.04,-9.581566,0.7098221182823181,-1.9343622,0.045130283,0.052144765853881836,0.027901923
2403.1000000029876,-0.17804855,-0.5874127,0.25317127,-2.0091932,0.2733034,1.2669299,1.0921061,0.039999478,0.04,-9.579004,0.7120708227157593,-1.9462311,0.044563178,0.051677461713552475,0.027654435
2403.1166666696545,-0.17894968,-0.5864163,0.25445348,-2.0074384,0.27468404,1.2653931,1.0936536,0.039999474,0.04,-9.576483,0.7144973278045654,-1.9579849,0.043996952,0.051200151443481445,0.027404815
2403.1333333363214,-0.17984292,-0.5854286,0.25572464,-2.005699,0.27605262,1.2638699,1.0951873,0.039999478,0.04,-9.573741,0.7164101600646973,-1.9697105,0.04343206,0.05071500688791275,0.02715313
2403.1500000029882,-0.18072821,-0.5844496,0.2569846,-2.0039747,0.27740917,1.2623599,1.0967083,0.039999478,0.04,-9.571148,0.7185351252555847,-1.9813188,0.04287024,0.05022040009498596,0.026900947
2403.166666669655,-0.18160555,-0.5834793,0.25823316,-2.0022662,0.27875325,1.2608637,1.0982144,0.03999947,0.04,-9.5685425,0.7206289172172546,-1.9928246,0.042307317,0.04971562698483467,0.026648367
2403.183333336322,-0.18247482,-0.5825181,0.25947022,-2.0005732,0.28008497,1.2593812,1.0997082,0.03999947,0.04,-9.5661125,0.7229623794555664,-2.004257,0.041750036,0.04920070990920067,0.026394578
2403.200000002989,-0.18333587,-0.58156604,0.26069587,-1.9988966,0.2814041,1.2579122,1.1011872,0.039999463,0.04,-9.563379,0.7247622013092041,-2.0155864,0.041187823,0.04867767170071602,0.026142001
2403.2166666696558,-0.1841887,-0.5806229,0.2619096,-1.9972358,0.28271064,1.2564582,1.1026511,0.039999466,0.04,-9.560876,0.7267416715621948,-2.0268216,0.040631145,0.048141978681087494,0.025889665
2403.2333333363226,-0.18503322,-0.5796891,0.26311153,-1.9955909,0.28400436,1.255018,1.104101,0.039999466,0.04,-9.558402,0.7290034890174866,-2.0379834,0.0400806,0.04760101065039635,0.025633825
2403.2500000029895,-0.1858693,-0.57876456,0.26430157,-1.993963,0.28528517,1.2535917,1.1055368,0.039999463,0.04,-9.555695,0.7306773066520691,-2.04901,0.03953122,0.04705110564827919,0.025378063
2403.2666666696564,-0.18669689,-0.57784957,0.26547953,-1.9923513,0.28655303,1.2521799,1.1069582,0.039999466,0.04,-9.553251,0.7326189875602722,-2.0599818,0.03898115,0.04648706689476967,0.025124103
2403.2833333363233,-0.18751594,-0.5769442,0.2666453,-1.9907563,0.2878077,1.2507827,1.1083647,0.039999463,0.04,-9.550666,0.7344889044761658,-2.0708032,0.038434483,0.04591730609536171,0.024868235
2403.30000000299,-0.18832636,-0.5760481,0.26779887,-1.9891781,0.28904918,1.2494005,1.1097562,0.03999946,0.04,-9.548289,0.7366361021995544,-2.0815353,0.037889272,0.04533860832452774,0.024612607
2403.316666669657,-0.18912806,-0.5751616,0.26894006,-1.987617,0.2902773,1.2480332,1.1111326,0.039999455,0.04,-9.54566,0.738192081451416,-2.0922148,0.037347898,0.04475195333361626,0.024356835
2403.333333336324,-0.18992092,-0.5742848,0.27006882,-1.9860731,0.291492,1.246681,1.1124939,0.03999946,0.04,-9.543224,0.7400023341178894,-2.102778,0.036810067,0.04415520653128624,0.024101393
2403.350000002991,-0.19070499,-0.57341784,0.27118492,-1.9845461,0.29269305,1.2453438,1.1138402,0.03999946,0.04,-9.540746,0.7417669892311096,-2.11322,0.036274806,0.043551620095968246,0.023845756
2403.3666666696577,-0.1914801,-0.57256067,0.27228844,-1.9830366,0.2938805,1.2440219,1.1151714,0.039999455,0.04,-9.538362,0.7438080906867981,-2.1235228,0.035741527,0.04294155538082123,0.023589563
2403.3833333363245,-0.1922463,-0.5717134,0.2733792,-1.9815447,0.29505435,1.2427152,1.1164873,0.039999455,0.04,-9.535846,0.7452438473701477,-2.1337638,0.035209656,0.04232224076986313,0.023334686
2403.4000000029914,-0.19300345,-0.57087624,0.27445713,-1.9800702,0.296214,1.241424,1.117787,0.039999455,0.04,-9.533422,0.7469289302825928,-2.143889,0.034680516,0.04169391840696335,0.02307751
2403.4166666696583,-0.1937515,-0.57004905,0.27552217,-1.978614,0.29736,1.2401482,1.1190712,0.039999455,0.04,-9.530991,0.7486070990562439,-2.153872,0.034157224,0.041060470044612885,0.022822917
2403.433333336325,-0.19449042,-0.56923175,0.27657416,-1.977175,0.29849184,1.2388881,1.1203398,0.03999945,0.04,-9.5287895,0.7505249977111816,-2.163795,0.033635326,0.04041663557291031,0.02256786
2403.450000002992,-0.19522014,-0.56842506,0.2776132,-1.9757539,0.2996096,1.2376438,1.1215928,0.03999946,0.04,-9.52625,0.751863420009613,-2.1735961,0.033117533,0.039767760783433914,0.022313781
2403.466666669659,-0.19594058,-0.5676283,0.27863905,-1.9743518,0.30071315,1.2364151,1.1228299,0.03999946,0.04,-9.5238695,0.7534310817718506,-2.1832058,0.032601424,0.039113666862249374,0.022059673
2403.483333336326,-0.19665174,-0.566842,0.27965164,-1.9729667,0.30180237,1.2352024,1.1240509,0.03999946,0.04,-9.521778,0.755304217338562,-2.1928377,0.032086756,0.03844752535223961,0.021807406
2403.5000000029927,-0.19735356,-0.5660661,0.2806509,-1.9715999,0.30287734,1.2340059,1.1252558,0.03999946,0.04,-9.519213,0.7565231323242188,-2.2022152,0.031577904,0.03778035193681717,0.02155384
2403.5166666696596,-0.19804594,-0.5653005,0.2816368,-1.9702522,0.3039378,1.2328252,1.1264447,0.039999463,0.04,-9.516934,0.758047342300415,-2.2115498,0.031071138,0.03710687905550003,0.021301571
2403.5333333363265,-0.19872889,-0.5645453,0.2826093,-1.9689224,0.3049838,1.2316604,1.127617,0.03999946,0.04,-9.51473,0.7595446109771729,-2.2207704,0.030566724,0.03642435744404793,0.021050481
2403.5500000029933,-0.19940233,-0.56380063,0.28356835,-1.967611,0.30601528,1.2305121,1.1287732,0.039999455,0.04,-9.512586,0.7612799406051636,-2.2298663,0.03006796,0.03573499992489815,0.020798732
2403.56666666966,-0.20006625,-0.56306654,0.28451377,-1.9663182,0.30703214,1.22938,1.1299132,0.039999455,0.04,-9.510193,0.7624112963676453,-2.2388175,0.029571528,0.03504374623298645,0.020548217
2403.583333336327,-0.20072062,-0.56234294,0.2854457,-1.965044,0.3080344,1.2282643,1.1310366,0.03999945,0.04,-9.508011,0.7638396620750427,-2.247672,0.029077707,0.03434563800692558,0.020298969
2403.600000002994,-0.20136541,-0.5616301,0.28636396,-1.9637886,0.30902186,1.227165,1.1321435,0.039999455,0.04,-9.505832,0.7652223706245422,-2.2563994,0.028588325,0.0336427316069603,0.020050958
2403.616666669661,-0.20200056,-0.56092775,0.28726852,-1.9625521,0.30999464,1.226082,1.1332338,0.03999946,0.04,-9.50379,0.7668845653533936,-2.2650123,0.028102156,0.03293518349528313,0.019803494
2403.6333333363277,-0.202626,-0.5602361,0.2881593,-1.9613345,0.31095263,1.2250154,1.1343075,0.039999455,0.04,-9.501564,0.7679253220558167,-2.2734904,0.02762,0.03222079202532768,0.019557288
2403.6500000029946,-0.20324177,-0.5595552,0.2890364,-1.9601356,0.31189576,1.2239654,1.1353647,0.03999945,0.04,-9.499466,0.7692416310310364,-2.2818744,0.027141279,0.031501464545726776,0.019311192
2403.6666666696615,-0.20384784,-0.5588851,0.28989965,-1.9589556,0.31282395,1.222932,1.136405,0.039999448,0.04,-9.497367,0.7705181241035461,-2.290096,0.026665846,0.030778540298342705,0.019066583
2403.6833333363284,-0.20444416,-0.5582258,0.290749,-1.9577949,0.3137372,1.2219152,1.1374289,0.03999945,0.04,-9.495411,0.772113561630249,-2.2982316,0.026194725,0.0300529096275568,0.018823892
2403.7000000029952,-0.20503074,-0.55757713,0.2915845,-1.9566529,0.31463555,1.220915,1.1384357,0.03999945,0.04,-9.493299,0.7730585932731628,-2.3062165,0.025725573,0.029322141781449318,0.018582013
2403.716666669662,-0.20560755,-0.55693924,0.29240623,-1.9555298,0.31551895,1.2199311,1.1394259,0.03999945,0.04,-9.491271,0.7742863893508911,-2.3140848,0.025261331,0.028587467968463898,0.01834123
2403.733333336329,-0.20617458,-0.5563122,0.29321402,-1.954426,0.31638727,1.2189641,1.1403993,0.03999945,0.04,-9.489427,0.775774359703064,-2.3218439,0.02480109,0.027848539873957634,0.01810176
2403.750000002996,-0.2067318,-0.5556961,0.29400784,-1.9533415,0.31724057,1.218014,1.1413559,0.03999945,0.04,-9.487368,0.7766679525375366,-2.3294501,0.02434384,0.02710670605301857,0.017864792
2403.7666666696628,-0.20727924,-0.5550907,0.2947878,-1.9522759,0.31807888,1.2170807,1.1422955,0.039999455,0.04,-9.48545,0.7778388261795044,-2.3369453,0.023890242,0.026362808421254158,0.01762835
2403.7833333363296,-0.20781682,-0.5544962,0.29555383,-1.9512292,0.3189022,1.216164,1.1432183,0.039999463,0.04,-9.483556,0.7789651155471802,-2.3443117,0.023441596,0.02561633661389351,0.017393807
2403.8000000029965,-0.20834462,-0.5539126,0.29630592,-1.9502016,0.3197105,1.215264,1.1441244,0.039999455,0.04,-9.481787,0.7803831100463867,-2.3515651,0.022997137,0.024868493899703026,0.017160388
2403.8166666696634,-0.20886263,-0.5533397,0.29704407,-1.9491931,0.3205036,1.2143809,1.1450137,0.03999946,0.04,-9.4798355,0.7811768651008606,-2.3586447,0.022555947,0.024117913097143173,0.016928002
2403.8333333363303,-0.20937082,-0.5527778,0.29776818,-1.948204,0.32128176,1.2135144,1.1458857,0.03999946,0.04,-9.47802,0.7822517156600952,-2.3656387,0.022117926,0.02336670085787773,0.016696714
2403.850000002997,-0.20986924,-0.5522268,0.2984784,-1.947234,0.32204494,1.2126648,1.1467412,0.03999946,0.04,-9.476287,0.7833467721939087,-2.3724914,0.02168537,0.02261233702301979,0.016468048
2403.866666669664,-0.2103578,-0.5516865,0.2991746,-1.946283,0.322793,1.2118319,1.1475798,0.03999946,0.04,-9.474649,0.7846713066101074,-2.3792589,0.02125567,0.021857494488358498,0.016239887
2403.883333336331,-0.2108366,-0.55115706,0.2998569,-1.9453509,0.32352608,1.2110157,1.1484017,0.039999463,0.04,-9.472802,0.7854013442993164,-2.3858192,0.020829443,0.021102003753185272,0.016012918
2403.900000002998,-0.21130562,-0.55063856,0.3005254,-1.9444379,0.32424423,1.2102162,1.1492069,0.03999945,0.04,-9.471103,0.7864024043083191,-2.3922853,0.020407321,0.020346427336335182,0.015787903
2403.9166666696647,-0.21176486,-0.55013084,0.30117992,-1.9435436,0.3249474,1.209433,1.1499951,0.039999455,0.04,-9.469473,0.7873911261558533,-2.3986156,0.019989429,0.019590243697166443,0.015565563
2403.9333333363315,-0.21221432,-0.5496338,0.30182055,-1.9426686,0.3256356,1.2086667,1.1507667,0.03999946,0.04,-9.467927,0.7886574268341064,-2.4048448,0.01957667,0.01883421652019024,0.015344123
2403.9500000029984,-0.2126541,-0.5491475,0.3024474,-1.9418124,0.326309,1.2079169,1.1515213,0.03999946,0.04,-9.466259,0.7893149256706238,-2.4109337,0.019166477,0.018078187480568886,0.015124253
2403.9666666696653,-0.21308418,-0.548672,0.30306044,-1.9409753,0.32696745,1.2071841,1.1522595,0.039999455,0.04,-9.464705,0.7902485728263855,-2.4168859,0.018762447,0.01732180081307888,0.014906235
2403.983333336332,-0.2135046,-0.54820716,0.3036597,-1.940157,0.32761115,1.2064673,1.1529813,0.03999946,0.04,-9.46329,0.7914721369743347,-2.422769,0.018361537,0.016568124294281006,0.014689445
2404.000000002999,-0.21391538,-0.54775286,0.30424523,-1.9393575,0.3282401,1.2057672,1.1536862,0.039999463,0.04,-9.461698,0.7920810580253601,-2.4284258,0.017963544,0.01581374555826187,0.014475638
2404.016666669666,-0.21431658,-0.54730934,0.30481726,-1.9385766,0.3288542,1.2050834,1.1543747,0.039999466,0.04,-9.460249,0.792978048324585,-2.4340274,0.017570885,0.01506045926362276,0.014262569
2404.033333336333,-0.2147082,-0.5468763,0.30537552,-1.9378142,0.3294538,1.2044158,1.1550468,0.039999466,0.04,-9.458806,0.793829619884491,-2.4394534,0.017182076,0.014310114085674286,0.014052161
2404.0500000029997,-0.2150903,-0.54645383,0.30592024,-1.9370704,0.3300388,1.2037646,1.1557028,0.039999463,0.04,-9.457513,0.794986367225647,-2.4448256,0.016797677,0.013561317697167397,0.0138427485
2404.0666666696666,-0.21546294,-0.5460418,0.3064515,-1.9363453,0.3306092,1.2031294,1.1563424,0.039999466,0.04,-9.456033,0.7955297827720642,-2.44997,0.016416779,0.01281538512557745,0.013634621
2404.0833333363335,-0.21582612,-0.5456402,0.30696937,-1.9356383,0.33116522,1.2025102,1.1569656,0.039999466,0.04,-9.454769,0.7963817715644836,-2.455077,0.016040001,0.012069422751665115,0.013429907
2404.1000000030003,-0.21617989,-0.545249,0.3074739,-1.9349499,0.3317068,1.2019073,1.1575725,0.039999463,0.04,-9.45343,0.7971677780151367,-2.4600072,0.015668752,0.01132775004953146,0.013227319
2404.116666669667,-0.21652438,-0.5448681,0.307965,-1.9342794,0.33223408,1.2013199,1.1581637,0.039999463,0.04,-9.452306,0.7982524633407593,-2.464891,0.015303094,0.010588686913251877,0.013026159
2404.133333336334,-0.2168596,-0.5444976,0.30844286,-1.9336269,0.33274722,1.2007486,1.1587389,0.039999466,0.04,-9.450954,0.7987746000289917,-2.4695349,0.014939386,0.009853066876530647,0.012827851
2404.150000003001,-0.21718562,-0.5441371,0.30890787,-1.9329928,0.33324623,1.200193,1.1592981,0.039999466,0.04,-9.4497385,0.7995460629463196,-2.4741046,0.014581197,0.009122305549681187,0.01263023
2404.166666669668,-0.21750242,-0.5437869,0.3093597,-1.9323763,0.33373117,1.1996531,1.1598417,0.039999466,0.04,-9.448659,0.8002868294715881,-2.478607,0.014227287,0.008393355645239353,0.01243595
2404.1833333363347,-0.21781017,-0.5434466,0.30979857,-1.9317774,0.33420223,1.1991284,1.16037,0.03999947,0.04,-9.447576,0.8013102412223816,-2.4829557,0.013878228,0.007671066094189882,0.012243927
2404.2000000030016,-0.21810892,-0.54311615,0.31022465,-1.9311961,0.3346595,1.1986191,1.1608828,0.03999947,0.04,-9.446409,0.8017820119857788,-2.487123,0.013531841,0.006951004266738892,0.012053861
2404.2166666696685,-0.2183987,-0.5427959,0.310638,-1.9306322,0.33510303,1.1981254,1.1613799,0.039999474,0.04,-9.445356,0.8024949431419373,-2.4912524,0.013189935,0.006235937122255564,0.011866381
2404.2333333363354,-0.21867964,-0.5424854,0.31103873,-1.9300853,0.33553293,1.1976467,1.1618619,0.039999474,0.04,-9.444392,0.8034543991088867,-2.4952385,0.012854222,0.005529304035007954,0.011680098
2404.2500000030022,-0.21895176,-0.54218453,0.311427,-1.9295558,0.33594927,1.1971831,1.1623288,0.039999474,0.04,-9.443295,0.8038885593414307,-2.4990418,0.012523581,0.00482863700017333,0.01149633
2404.266666669669,-0.21921521,-0.5418933,0.31180277,-1.9290432,0.3363525,1.1967344,1.1627809,0.039999478,0.04,-9.442359,0.8045753836631775,-2.5028012,0.012196776,0.00413318257778883,0.011316072
2404.283333336336,-0.21947001,-0.5416115,0.31216633,-1.9285473,0.3367424,1.1963003,1.1632179,0.039999485,0.04,-9.441438,0.805263340473175,-2.5064309,0.011874088,0.003443580586463213,0.011137041
2404.300000003003,-0.21971634,-0.5413391,0.3125178,-1.9280682,0.3371193,1.1958803,1.1636404,0.039999485,0.04,-9.440631,0.8061708807945251,-2.509977,0.011557994,0.0027603968046605587,0.010960608
2404.3166666696698,-0.21995424,-0.541076,0.31285724,-1.9276057,0.33748335,1.1954751,1.1640484,0.03999948,0.04,-9.439716,0.8065798878669739,-2.5133345,0.011245914,0.0020815832540392876,0.010787865
2404.3333333363366,-0.22018379,-0.5408222,0.31318477,-1.9271592,0.33783463,1.195084,1.1644423,0.039999485,0.04,-9.438922,0.8072208166122437,-2.516658,0.01093723,0.0014097511302679777,0.010615889
2404.3500000030035,-0.2204051,-0.5405776,0.31350058,-1.9267287,0.3381732,1.194707,1.1648219,0.039999485,0.04,-9.43807,0.8078517913818359,-2.5197945,0.010634005,0.0007476129685528576,0.010446578
2404.3666666696704,-0.22061832,-0.5403419,0.31380484,-1.9263138,0.33849937,1.1943439,1.1651874,0.03999948,0.04,-9.4374,0.8087249398231506,-2.522908,0.010336732,9.385409066453576e-05,0.010280075
2404.3833333363373,-0.22082348,-0.54011506,0.31409764,-1.9259145,0.33881325,1.1939942,1.1655391,0.039999485,0.04,-9.436548,0.8090972304344177,-2.525792,0.010045161,-0.0005505908047780395,0.010116505
2404.400000003004,-0.22102073,-0.539897,0.31437913,-1.9255309,0.33911508,1.1936582,1.1658775,0.039999485,0.04,-9.435882,0.8097050189971924,-2.5286536,0.009757871,-0.0011884551495313644,0.009955445
2404.416666669671,-0.22121015,-0.5396875,0.31464955,-1.9251624,0.33940497,1.1933355,1.1662023,0.039999485,0.04,-9.435227,0.8103142380714417,-2.5313973,0.009474813,-0.0018174716969951987,0.009796066
2404.433333336338,-0.22139199,-0.53948635,0.31490904,-1.9248089,0.33968306,1.193026,1.1665144,0.03999949,0.04,-9.434672,0.8111344575881958,-2.534079,0.009198198,-0.002436878392472863,0.009640713
2404.450000003005,-0.22156622,-0.5392938,0.3151578,-1.9244701,0.33994964,1.1927291,1.1668133,0.039999485,0.04,-9.433992,0.8114938735961914,-2.5365932,0.008924515,-0.0030473400838673115,0.009487555
2404.4666666696717,-0.22173303,-0.53910947,0.31539595,-1.9241457,0.3402048,1.1924449,1.1670994,0.03999948,0.04,-9.433405,0.8120583891868591,-2.5389962,0.008657473,-0.003646908327937126,0.009337376
2404.4833333363385,-0.22189254,-0.53893304,0.3156237,-1.9238354,0.34044874,1.192173,1.1673727,0.039999485,0.04,-9.432949,0.8128635883331299,-2.5413725,0.008395477,-0.004237042274326086,0.009190191
2404.5000000030054,-0.2220449,-0.5387646,0.3158413,-1.9235393,0.34068173,1.1919136,1.1676338,0.03999949,0.04,-9.432351,0.8132109642028809,-2.543577,0.008140803,-0.004817280452698469,0.00904709
2404.5166666696723,-0.22219023,-0.5386038,0.31604895,-1.9232568,0.34090394,1.1916665,1.167883,0.039999492,0.04,-9.431892,0.8137640953063965,-2.5457306,0.007890755,-0.0053856768645346165,0.008906
2404.533333336339,-0.22232871,-0.5384506,0.31624675,-1.9229877,0.3411157,1.1914309,1.1681206,0.03999949,0.04,-9.431423,0.8143095374107361,-2.547786,0.0076464484,-0.0059417784214019775,0.008768412
2404.550000003006,-0.22246046,-0.538305,0.31643495,-1.9227314,0.34131715,1.1912067,1.1683464,0.039999496,0.04,-9.431085,0.8150673508644104,-2.5497766,0.0074061276,-0.006487736478447914,0.008632738
2404.566666669673,-0.22258568,-0.5381666,0.31661373,-1.9224883,0.3415085,1.1909937,1.1685607,0.039999496,0.04,-9.430571,0.8154180645942688,-2.5515761,0.007173185,-0.007019789423793554,0.00850164
2404.58333333634,-0.22270443,-0.53803515,0.31678337,-1.9222575,0.34169006,1.1907917,1.1687641,0.039999492,0.04,-9.430243,0.8159680962562561,-2.5533774,0.0069464543,-0.0075418828055262566,0.008373272
2404.6000000030067,-0.22281687,-0.53791094,0.31694403,-1.9220388,0.34186193,1.1906004,1.1689572,0.039999496,0.04,-9.429885,0.8164879679679871,-2.5550828,0.0067259846,-0.00805056281387806,0.008247405
2404.6166666696736,-0.22292326,-0.53779316,0.31709602,-1.921832,0.3420245,1.1904193,1.1691396,0.039999496,0.04,-9.429591,0.8172011971473694,-2.5566707,0.006509075,-0.008544232696294785,0.00812522
2404.6333333363405,-0.22302371,-0.5376823,0.3172396,-1.9216366,0.34217796,1.1902483,1.1693115,0.0399995,0.04,-9.429268,0.8175520896911621,-2.558205,0.0062995404,-0.009026871994137764,0.008006563
2404.6500000030073,-0.22311836,-0.5375776,0.31737486,-1.9214524,0.3423225,1.1900873,1.1694734,0.0399995,0.04,-9.428974,0.8180716037750244,-2.559589,0.006098199,-0.009494377300143242,0.007891877
2404.666666669674,-0.22320741,-0.53747904,0.3175022,-1.9212792,0.34245855,1.1899357,1.1696261,0.039999496,0.04,-9.428731,0.8186100721359253,-2.560991,0.005903164,-0.009946992620825768,0.0077807694
2404.683333336341,-0.22329107,-0.5373866,0.31762174,-1.921117,0.34258634,1.1897936,1.169769,0.039999496,0.04,-9.428591,0.8192802667617798,-2.5623121,0.0057131546,-0.010387621819972992,0.007672784
2404.700000003008,-0.22336951,-0.5372998,0.31773394,-1.9209648,0.34270608,1.1896601,1.1699034,0.039999504,0.04,-9.428382,0.8196638822555542,-2.563527,0.005531037,-0.010813077911734581,0.0075689536
2404.716666669675,-0.22344287,-0.5372187,0.3178388,-1.9208221,0.3428181,1.1895353,1.170029,0.039999504,0.04,-9.428219,0.8201694488525391,-2.5646827,0.005353877,-0.011225714348256588,0.007469634
2404.7333333363417,-0.22351146,-0.5371429,0.31793672,-1.9206895,0.3429227,1.1894189,1.1701461,0.0399995,0.04,-9.42806,0.8208357095718384,-2.5657682,0.0051842807,-0.011619689874351025,0.0073734317
2404.7500000030086,-0.22357535,-0.5370724,0.3180281,-1.9205655,0.34302014,1.1893106,1.1702554,0.039999504,0.04,-9.427936,0.8212265968322754,-2.5668106,0.0050219307,-0.011999418027698994,0.0072806147
2404.7666666696755,-0.22363481,-0.53700674,0.31811315,-1.9204502,0.34311074,1.1892098,1.1703572,0.039999504,0.04,-9.427802,0.8217206001281738,-2.567717,0.004866087,-0.012361477129161358,0.007192245
2404.7833333363424,-0.22368999,-0.5369459,0.31819203,-1.9203435,0.3431948,1.1891164,1.1704516,0.03999951,0.04,-9.42772,0.8222411274909973,-2.5686347,0.0047170166,-0.012707028537988663,0.0071084774
2404.8000000030092,-0.22374114,-0.5368895,0.31826514,-1.9202447,0.34327278,1.1890293,1.1705388,0.039999507,0.04,-9.427709,0.8228904604911804,-2.569498,0.0045749093,-0.013035988435149193,0.0070282635
2404.816666669676,-0.22378846,-0.5368371,0.31833282,-1.9201534,0.34334475,1.1889488,1.1706194,0.03999951,0.04,-9.427639,0.8232917785644531,-2.5702634,0.004441738,-0.013350192457437515,0.006952865
2404.833333336343,-0.2238322,-0.53678894,0.31839526,-1.9200689,0.34341127,1.1888748,1.1706942,0.039999504,0.04,-9.427636,0.8238202333450317,-2.5710378,0.0043159383,-0.013648608699440956,0.006882697
2404.85000000301,-0.22387254,-0.53674453,0.31845284,-1.9199908,0.34347248,1.1888064,1.1707629,0.03999951,0.04,-9.427554,0.8243382573127747,-2.5716999,0.00419604,-0.01392406690865755,0.006815592
2404.8666666696768,-0.22390969,-0.53670347,0.31850588,-1.919919,0.3435289,1.1887436,1.1708263,0.03999951,0.04,-9.427597,0.8249638676643372,-2.5723565,0.0040857024,-0.014182274229824543,0.0067535155
2404.8833333363436,-0.22394392,-0.5366658,0.3185548,-1.9198529,0.34358075,1.1886857,1.1708847,0.03999951,0.04,-9.427585,0.8253901600837708,-2.572964,0.0039827996,-0.014421702362596989,0.006695189
2404.9000000030105,-0.2239754,-0.53663117,0.3185998,-1.9197922,0.34362844,1.1886325,1.1709386,0.03999951,0.04,-9.427612,0.8259125351905823,-2.573506,0.0038877148,-0.014642303809523582,0.006642354
2404.9166666696774,-0.22400439,-0.5365993,0.31864122,-1.9197363,0.34367228,1.1885836,1.170988,0.03999951,0.04,-9.427665,0.8264086842536926,-2.5740368,0.003799314,-0.0148452278226614,0.0065943925
2404.9333333363443,-0.22403109,-0.53657,0.31867942,-1.9196846,0.34371278,1.1885389,1.1710334,0.039999515,0.04,-9.427705,0.826924204826355,-2.5745249,0.0037191445,-0.01503156777471304,0.0065497975
2404.950000003011,-0.2240557,-0.53654295,0.31871453,-1.9196372,0.3437501,1.1884977,1.1710755,0.03999952,0.04,-9.427686,0.8272507190704346,-2.5749347,0.0036460415,-0.015201045200228691,0.006507717
2404.966666669678,-0.22407836,-0.53651804,0.3187469,-1.9195936,0.34378433,1.1884594,1.1711147,0.039999515,0.04,-9.427723,0.827648937702179,-2.5753536,0.0035770994,-0.01535847783088684,0.006468857
2404.983333336345,-0.2240992,-0.53649515,0.31877664,-1.9195535,0.34381595,1.1884239,1.1711501,0.039999515,0.04,-9.427778,0.8280539512634277,-2.5757356,0.0035112672,-0.015504619106650352,0.006434285
2405.000000003012,-0.22411846,-0.536474,0.318804,-1.9195167,0.34384495,1.1883912,1.1711819,0.03999951,0.04,-9.427792,0.8283330798149109,-2.5760639,0.00345387,-0.015640804544091225,0.006402515
2405.0166666696787,-0.22413613,-0.5364545,0.31882915,-1.9194831,0.34387162,1.1883621,1.1712117,0.039999515,0.04,-9.4278145,0.828648030757904,-2.5763972,0.003403915,-0.015766458585858345,0.006374124
2405.0333333363455,-0.22415239,-0.5364367,0.31885237,-1.9194516,0.34389624,1.1883343,1.1712395,0.039999522,0.04,-9.427832,0.8289136290550232,-2.5767305,0.0033552947,-0.015879129990935326,0.006346145
2405.0500000030124,-0.22416744,-0.5364204,0.3188737,-1.9194229,0.34391895,1.1883091,1.1712638,0.039999515,0.04,-9.427828,0.8291865587234497,-2.576937,0.0033100925,-0.01598450355231762,0.006321406
2405.0666666696793,-0.22418122,-0.53640527,0.31889343,-1.9193966,0.3439398,1.1882858,1.1712878,0.03999952,0.04,-9.4278345,0.829399824142456,-2.5771763,0.0032736426,-0.01608067750930786,0.0062981253
2405.083333336346,-0.22419396,-0.5363914,0.31891158,-1.9193722,0.34395882,1.1882646,1.1713083,0.03999952,0.04,-9.427886,0.8296014070510864,-2.577433,0.0032329166,-0.016170859336853027,0.0062774457
2405.100000003013,-0.2242057,-0.53637874,0.3189282,-1.9193501,0.34397644,1.1882446,1.1713284,0.03999952,0.04,-9.427854,0.8297989368438721,-2.577632,0.0032024402,-0.0162512194365263,0.0062583187
2405.11666666968,-0.2242165,-0.5363668,0.3189436,-1.9193294,0.3439926,1.1882269,1.1713455,0.039999522,0.04,-9.427924,0.8300278782844543,-2.577826,0.0031678295,-0.016328737139701843,0.0062414324
2405.133333336347,-0.22422643,-0.5363562,0.31895778,-1.9193107,0.34400758,1.1882099,1.1713618,0.039999515,0.04,-9.42787,0.8301473259925842,-2.5780234,0.0031435562,-0.016396058723330498,0.0062244083
2405.1500000030137,-0.2242356,-0.53634614,0.31897074,-1.9192933,0.3440213,1.1881949,1.171378,0.039999515,0.04,-9.427923,0.8303078413009644,-2.5781372,0.0031182936,-0.01646152138710022,0.006210279
2405.1666666696806,-0.22424397,-0.5363369,0.31898266,-1.9192771,0.34403384,1.1881812,1.171391,0.039999515,0.04,-9.427905,0.830446720123291,-2.5783427,0.0030891523,-0.016519401222467422,0.006195896
2405.1833333363475,-0.22425173,-0.5363285,0.31899366,-1.9192625,0.3440454,1.1881677,1.1714036,0.039999515,0.04,-9.427897,0.8305933475494385,-2.5784662,0.003071576,-0.016571350395679474,0.006182628
2405.2000000030143,-0.2242589,-0.53632057,0.31900382,-1.919249,0.34405604,1.1881552,1.1714162,0.03999952,0.04,-9.427952,0.8307127356529236,-2.5785775,0.0030516637,-0.016623735427856445,0.0061721792
2405.216666669681,-0.22426546,-0.5363136,0.3190132,-1.9192364,0.34406582,1.1881452,1.1714281,0.039999515,0.04,-9.427959,0.8308097720146179,-2.578715,0.003029305,-0.016673017293214798,0.006162803
2405.233333336348,-0.22427149,-0.53630704,0.31902188,-1.9192251,0.34407482,1.1881354,1.1714371,0.03999952,0.04,-9.427895,0.8308963775634766,-2.5788054,0.003007656,-0.016709445044398308,0.0061516142
2405.250000003015,-0.22427706,-0.5363008,0.3190298,-1.9192145,0.34408322,1.1881257,1.171446,0.039999515,0.04,-9.427955,0.8309916257858276,-2.5789115,0.0029961024,-0.01674739457666874,0.006142606
2405.266666669682,-0.22428218,-0.5362951,0.3190371,-1.9192047,0.3440909,1.1881164,1.1714547,0.03999952,0.04,-9.42796,0.8310860991477966,-2.5790093,0.002983386,-0.01678546518087387,0.0061346497
2405.2833333363487,-0.2242869,-0.53629017,0.31904387,-1.9191955,0.3440979,1.1881084,1.1714631,0.03999952,0.04,-9.427966,0.8311649560928345,-2.5790722,0.002969064,-0.016821712255477905,0.0061282325
2405.3000000030156,-0.22429127,-0.5362855,0.31905004,-1.9191871,0.3441045,1.1881022,1.1714712,0.03999952,0.04,-9.082801,0.9631654620170593,-2.326369,0.0,-0.0,0.0
2405.3166666696825,-0.22429127,-0.5362855,0.31905004,-1.9191871,0.3441045,1.1881022,1.1714712,0.03999952,0.04,-9.428206,0.8319806456565857,-2.5793085,0.0,-0.0,0.0
2405.3333333363494,-0.22429127,-0.5362855,0.31905004,-1.9191871,0.3441045,1.1881022,1.1714712,0.03999952,0.04,-9.428206,0.8319806456565857,-2.5793085,0.0,-0.0,0.0
2405.3500000030162,-0.22429127,-0.5362855,0.31905004,-1.9191871,0.3441045,1.1881022,1.1714712,0.03999952,0.04,-9.428206,0.8319806456565857,-2.5793085,0.0,-0.0,0.0
2405.366666669683,-0.22429127,-0.5362855,0.31905004,-1.9191871,0.3441045,1.1881022,1.1714712,0.03999952,0.04,-9.428206,0.8319806456565857,-2.5793085,0.0,-0.0,0.0
2405.38333333635,-0.22429127,-0.5362855,0.31905004,-1.9191871,0.3441045,1.1881022,1.1714712,0.03999952,0.04,-9.428206,0.8319806456565857,-2.5793085,0.0,-0.0,0.0
2405.400000003017,-0.22429127,-0.5362855,0.31905004,-1.9191871,0.3441045,1.1881022,1.1714712,0.03999952,0.04,-9.428206,0.8319806456565857,-2.5793085,0.0,-0.0,0.0
2405.4166666696838,-0.22429127,-0.5362855,0.31905004,-1.9191871,0.3441045,1.1881022,1.1714712,0.03999952,0.04,-9.428206,0.8319806456565857,-2.5793085,0.0,-0.0,0.0
2405.4333333363506,-0.22429127,-0.5362855,0.31905004,-1.9191871,0.3441045,1.1881022,1.1714712,0.03999952,0.04,-9.428206,0.8319806456565857,-2.5793085,0.0,-0.0,0.0
2405.4500000030175,-0.22429127,-0.5362855,0.31905004,-1.9191871,0.3441045,1.1881022,1.1714712,0.03999952,0.04,-9.428206,0.8319806456565857,-2.5793085,0.0,-0.0,0.0
2405.4666666696844,-0.22429127,-0.5362855,0.31905004,-1.9191871,0.3441045,1.1881022,1.1714712,0.03999952,0.04,-9.428206,0.8319806456565857,-2.5793085,0.0,-0.0,0.0
2405.4833333363513,-0.22429127,-0.5362855,0.31905004,-1.9191871,0.3441045,1.1881022,1.1714712,0.03999952,0.04,-9.428206,0.8319806456565857,-2.5793085,0.0,-0.0,0.0
2405.500000003018,-0.22429127,-0.5362855,0.31905004,-1.9191871,0.3441045,1.1881022,1.1714712,0.03999952,0.04,-9.428206,0.8319806456565857,-2.5793085,0.0,-0.0,0.0
2405.516666669685,-0.22429127,-0.5362855,0.31905004,-1.9191871,0.3441045,1.1881022,1.1714712,0.03999952,0.04,-9.428206,0.8319806456565857,-2.5793085,0.0,-0.0,0.0
2405.533333336352,-0.22429127,-0.5362855,0.31905004,-1.9191871,0.3441045,1.1881022,1.1714712,0.03999952,0.04,-9.428206,0.8319806456565857,-2.5793085,0.0,-0.0,0.0
2405.550000003019,-0.22429127,-0.5362855,0.31905004,-1.9191871,0.3441045,1.1881022,1.1714712,0.03999952,0.04,-9.428206,0.8319806456565857,-2.5793085,0.0,-0.0,0.0
2405.5666666696857,-0.22429127,-0.5362855,0.31905004,-1.9191871,0.3441045,1.1881022,1.1714712,0.03999952,0.04,-9.428206,0.8319806456565857,-2.5793085,0.0,-0.0,0.0
2405.5833333363526,-0.22429127,-0.5362855,0.31905004,-1.9191871,0.3441045,1.1881022,1.1714712,0.03999952,0.04,-9.428206,0.8319806456565857,-2.5793085,0.0,-0.0,0.0
2405.6000000030194,-0.22429127,-0.5362855,0.31905004,-1.9191871,0.3441045,1.1881022,1.1714712,0.03999952,0.04,-9.428206,0.8319806456565857,-2.5793085,0.0,-0.0,0.0
2405.6166666696863,-0.22429127,-0.5362855,0.31905004,-1.9191871,0.3441045,1.1881022,1.1714712,0.03999952,0.04,-9.428206,0.8319806456565857,-2.5793085,0.0,-0.0,0.0
2405.633333336353,-0.22429127,-0.5362855,0.31905004,-1.9191871,0.3441045,1.1881022,1.1714712,0.03999952,0.04,-9.428206,0.8319806456565857,-2.5793085,0.0,-0.0,0.0
2405.65000000302,-0.22429127,-0.5362855,0.31905004,-1.9191871,0.3441045,1.1881022,1.1714712,0.03999952,0.04,-9.428206,0.8319806456565857,-2.5793085,0.0,-0.0,0.0
2405.666666669687,-0.22429127,-0.5362855,0.31905004,-1.9191871,0.3441045,1.1881022,1.1714712,0.03999952,0.04,-9.428206,0.8319806456565857,-2.5793085,0.0,-0.0,0.0
2405.683333336354,-0.22429127,-0.5362855,0.31905004,-1.9191871,0.3441045,1.1881022,1.1714712,0.03999952,0.04,-9.428206,0.8319806456565857,-2.5793085,0.0,-0.0,0.0
2405.7000000030207,-0.22429127,-0.5362855,0.31905004,-1.9191871,0.3441045,1.1881022,1.1714712,0.03999952,0.04,-9.428206,0.8319806456565857,-2.5793085,0.0,-0.0,0.0
2405.7166666696876,-0.22429127,-0.5362855,0.31905004,-1.9191871,0.3441045,1.1881022,1.1714712,0.03999952,0.04,-9.428206,0.8319806456565857,-2.5793085,0.0,-0.0,0.0
2405.7333333363545,-0.22429127,-0.5362855,0.31905004,-1.9191871,0.3441045,1.1881022,1.1714712,0.03999952,0.04,-9.428206,0.8319806456565857,-2.5793085,0.0,-0.0,0.0
2405.7500000030213,-0.22429127,-0.5362855,0.31905004,-1.9191871,0.3441045,1.1881022,1.1714712,0.03999952,0.04,-9.428206,0.8319806456565857,-2.5793085,0.0,-0.0,0.0
2405.766666669688,-0.22429127,-0.5362855,0.31905004,-1.9191871,0.3441045,1.1881022,1.1714712,0.03999952,0.04,-9.428206,0.8319806456565857,-2.5793085,0.0,-0.0,0.0
2405.783333336355,-0.22429127,-0.5362855,0.31905004,-1.9191871,0.3441045,1.1881022,1.1714712,0.03999952,0.04,-9.428206,0.8319806456565857,-2.5793085,0.0,-0.0,0.0
2405.800000003022,-0.22429127,-0.5362855,0.31905004,-1.9191871,0.3441045,1.1881022,1.1714712,0.03999952,0.04,-9.428206,0.8319806456565857,-2.5793085,0.0,-0.0,0.0
2405.816666669689,-0.22429127,-0.5362855,0.31905004,-1.9191871,0.3441045,1.1881022,1.1714712,0.03999952,0.04,-9.428206,0.8319806456565857,-2.5793085,0.0,-0.0,0.0
2405.8333333363557,-0.22429127,-0.5362855,0.31905004,-1.9191871,0.3441045,1.1881022,1.1714712,0.03999952,0.04,-9.428206,0.8319806456565857,-2.5793085,0.0,-0.0,0.0
2405.8500000030226,-0.22429127,-0.5362855,0.31905004,-1.9191871,0.3441045,1.1881022,1.1714712,0.03999952,0.04,-9.428206,0.8319806456565857,-2.5793085,0.0,-0.0,0.0
2405.8666666696895,-0.22429127,-0.5362855,0.31905004,-1.9191871,0.3441045,1.1881022,1.1714712,0.03999952,0.04,-9.428206,0.8319806456565857,-2.5793085,0.0,-0.0,0.0
2405.8833333363564,-0.22429127,-0.5362855,0.31905004,-1.9191871,0.3441045,1.1881022,1.1714712,0.03999952,0.04,-9.428206,0.8319806456565857,-2.5793085,0.0,-0.0,0.0
2405.9000000030233,-0.22429127,-0.5362855,0.31905004,-1.9191871,0.3441045,1.1881022,1.1714712,0.03999952,0.04,-9.428206,0.8319806456565857,-2.5793085,0.0,-0.0,0.0
2405.91666666969,-0.22429127,-0.5362855,0.31905004,-1.9191871,0.3441045,1.1881022,1.1714712,0.03999952,0.04,-9.428206,0.8319806456565857,-2.5793085,0.0,-0.0,0.0
2405.933333336357,-0.22429127,-0.5362855,0.31905004,-1.9191871,0.3441045,1.1881022,1.1714712,0.03999952,0.04,-9.428206,0.8319806456565857,-2.5793085,0.0,-0.0,0.0
2405.950000003024,-0.22429127,-0.5362855,0.31905004,-1.9191871,0.3441045,1.1881022,1.1714712,0.03999952,0.04,-9.428206,0.8319806456565857,-2.5793085,0.0,-0.0,0.0
2405.9666666696908,-0.22429127,-0.5362855,0.31905004,-1.9191871,0.3441045,1.1881022,1.1714712,0.03999952,0.04,-9.428206,0.8319806456565857,-2.5793085,0.0,-0.0,0.0
2405.9833333363576,-0.22429127,-0.5362855,0.31905004,-1.9191871,0.3441045,1.1881022,1.1714712,0.03999952,0.04,-9.428206,0.8319806456565857,-2.5793085,0.0,-0.0,0.0
2406.0000000030245,-0.22429127,-0.5362855,0.31905004,-1.9191871,0.3441045,1.1881022,1.1714712,0.03999952,0.04,-9.428206,0.8319806456565857,-2.5793085,0.0,-0.0,0.0
2406.0166666696914,-0.22429127,-0.5362855,0.31905004,-1.9191871,0.3441045,1.1881022,1.1714712,0.03999952,0.04,-9.428206,0.8319806456565857,-2.5793085,0.0,-0.0,0.0
2406.0333333363583,-0.22429127,-0.5362855,0.31905004,-1.9191871,0.3441045,1.1881022,1.1714712,0.03999952,0.04,-9.428206,0.8319806456565857,-2.5793085,0.0,-0.0,0.0
2406.050000003025,-0.22429127,-0.5362855,0.31905004,-1.9191871,0.3441045,1.1881022,1.1714712,0.03999952,0.04,-9.428206,0.8319806456565857,-2.5793085,0.0,-0.0,0.0
2406.066666669692,-0.22429127,-0.5362855,0.31905004,-1.9191871,0.3441045,1.1881022,1.1714712,0.03999952,0.04,-9.428206,0.8319806456565857,-2.5793085,0.0,-0.0,0.0
2406.083333336359,-0.22429127,-0.5362855,0.31905004,-1.9191871,0.3441045,1.1881022,1.1714712,0.03999952,0.04,-9.428206,0.8319806456565857,-2.5793085,0.0,-0.0,0.0
2406.100000003026,-0.22429127,-0.5362855,0.31905004,-1.9191871,0.3441045,1.1881022,1.1714712,0.03999952,0.04,-9.428206,0.8319806456565857,-2.5793085,0.0,-0.0,0.0
2406.1166666696927,-0.22429127,-0.5362855,0.31905004,-1.9191871,0.3441045,1.1881022,1.1714712,0.03999952,0.04,-9.428206,0.8319806456565857,-2.5793085,0.0,-0.0,0.0
2406.1333333363596,-0.22429127,-0.5362855,0.31905004,-1.9191871,0.3441045,1.1881022,1.1714712,0.03999952,0.04,-9.428206,0.8319806456565857,-2.5793085,0.0,-0.0,0.0
2406.1500000030264,-0.22429127,-0.5362855,0.31905004,-1.9191871,0.3441045,1.1881022,1.1714712,0.03999952,0.04,-9.428206,0.8319806456565857,-2.5793085,0.0,-0.0,0.0
2406.1666666696933,-0.22429127,-0.5362855,0.31905004,-1.9191871,0.3441045,1.1881022,1.1714712,0.03999952,0.04,-9.428206,0.8319806456565857,-2.5793085,0.0,-0.0,0.0
2406.18333333636,-0.22429127,-0.5362855,0.31905004,-1.9191871,0.3441045,1.1881022,1.1714712,0.03999952,0.04,-9.428206,0.8319806456565857,-2.5793085,0.0,-0.0,0.0
2406.200000003027,-0.22429127,-0.5362855,0.31905004,-1.9191871,0.3441045,1.1881022,1.1714712,0.03999952,0.04,-9.428206,0.8319806456565857,-2.5793085,0.0,-0.0,0.0
2406.216666669694,-0.22429127,-0.5362855,0.31905004,-1.9191871,0.3441045,1.1881022,1.1714712,0.03999952,0.04,-9.428206,0.8319806456565857,-2.5793085,0.0,-0.0,0.0
2406.233333336361,-0.22429127,-0.5362855,0.31905004,-1.9191871,0.3441045,1.1881022,1.1714712,0.03999952,0.04,-9.428206,0.8319806456565857,-2.5793085,0.0,-0.0,0.0
2406.2500000030277,-0.22429127,-0.5362855,0.31905004,-1.9191871,0.3441045,1.1881022,1.1714712,0.03999952,0.04,-9.428206,0.8319806456565857,-2.5793085,0.0,-0.0,0.0
2406.2666666696946,-0.22429127,-0.5362855,0.31905004,-1.9191871,0.3441045,1.1881022,1.1714712,0.03999952,0.04,-9.428206,0.8319806456565857,-2.5793085,0.0,-0.0,0.0
2406.2833333363615,-0.22429127,-0.5362855,0.31905004,-1.9191871,0.3441045,1.1881022,1.1714712,0.03999952,0.04,-9.428206,0.8319806456565857,-2.5793085,0.0,-0.0,0.0
2406.3000000030283,-0.22429127,-0.5362855,0.31905004,-1.9191871,0.3441045,1.1881022,1.1714712,0.03999952,0.04,-9.428206,0.8319806456565857,-2.5793085,0.0,-0.0,0.0
2406.316666669695,-0.22429127,-0.5362855,0.31905004,-1.9191871,0.3441045,1.1881022,1.1714712,0.03999952,0.04,-9.428206,0.8319806456565857,-2.5793085,0.0,-0.0,0.0
2406.333333336362,-0.22429127,-0.5362855,0.31905004,-1.9191871,0.3441045,1.1881022,1.1714712,0.03999952,0.04,-9.428206,0.8319806456565857,-2.5793085,0.0,-0.0,0.0
2406.350000003029,-0.22429127,-0.5362855,0.31905004,-1.9191871,0.3441045,1.1881022,1.1714712,0.03999952,0.04,-9.428206,0.8319806456565857,-2.5793085,0.0,-0.0,0.0
2406.366666669696,-0.22429127,-0.5362855,0.31905004,-1.9191871,0.3441045,1.1881022,1.1714712,0.03999952,0.04,-9.428206,0.8319806456565857,-2.5793085,0.0,-0.0,0.0
2406.3833333363627,-0.22429127,-0.5362855,0.31905004,-1.9191871,0.3441045,1.1881022,1.1714712,0.03999952,0.04,-9.428206,0.8319806456565857,-2.5793085,0.0,-0.0,0.0
2406.4000000030296,-0.22429127,-0.5362855,0.31905004,-1.9191871,0.3441045,1.1881022,1.1714712,0.03999952,0.04,-9.428206,0.8319806456565857,-2.5793085,0.0,-0.0,0.0
2406.4166666696965,-0.22429127,-0.5362855,0.31905004,-1.9191871,0.3441045,1.1881022,1.1714712,0.03999952,0.04,-9.428206,0.8319806456565857,-2.5793085,0.0,-0.0,0.0
2406.4333333363634,-0.22429127,-0.5362855,0.31905004,-1.9191871,0.3441045,1.1881022,1.1714712,0.03999952,0.04,-9.428206,0.8319806456565857,-2.5793085,0.0,-0.0,0.0
2406.4500000030303,-0.22429127,-0.5362855,0.31905004,-1.9191871,0.3441045,1.1881022,1.1714712,0.03999952,0.04,-9.428206,0.8319806456565857,-2.5793085,0.0,-0.0,0.0
2406.466666669697,-0.22429127,-0.5362855,0.31905004,-1.9191871,0.3441045,1.1881022,1.1714712,0.03999952,0.04,-9.428206,0.8319806456565857,-2.5793085,0.0,-0.0,0.0
2406.483333336364,-0.22429127,-0.5362855,0.31905004,-1.9191871,0.3441045,1.1881022,1.1714712,0.03999952,0.04,-9.428206,0.8319806456565857,-2.5793085,0.0,-0.0,0.0
2406.500000003031,-0.22429127,-0.5362855,0.31905004,-1.9191871,0.3441045,1.1881022,1.1714712,0.03999952,0.04,-9.428206,0.8319806456565857,-2.5793085,0.0,-0.0,0.0
2406.5166666696978,-0.22429127,-0.5362855,0.31905004,-1.9191871,0.3441045,1.1881022,1.1714712,0.03999952,0.04,-9.428206,0.8319806456565857,-2.5793085,0.0,-0.0,0.0
2406.5333333363646,-0.22429127,-0.5362855,0.31905004,-1.9191871,0.3441045,1.1881022,1.1714712,0.03999952,0.04,-9.428206,0.8319806456565857,-2.5793085,0.0,-0.0,0.0
2406.5500000030315,-0.22429127,-0.5362855,0.31905004,-1.9191871,0.3441045,1.1881022,1.1714712,0.03999952,0.04,-9.428206,0.8319806456565857,-2.5793085,0.0,-0.0,0.0
2406.5666666696984,-0.22429127,-0.5362855,0.31905004,-1.9191871,0.3441045,1.1881022,1.1714712,0.03999952,0.04,-9.428206,0.8319806456565857,-2.5793085,0.0,-0.0,0.0
2406.5833333363653,-0.22429127,-0.5362855,0.31905004,-1.9191871,0.3441045,1.1881022,1.1714712,0.03999952,0.04,-9.428206,0.8319806456565857,-2.5793085,0.0,-0.0,0.0
2406.600000003032,-0.22429127,-0.5362855,0.31905004,-1.9191871,0.3441045,1.1881022,1.1714712,0.03999952,0.04,-9.428206,0.8319806456565857,-2.5793085,0.0,-0.0,0.0
2406.616666669699,-0.22429127,-0.5362855,0.31905004,-1.9191871,0.3441045,1.1881022,1.1714712,0.03999952,0.04,-9.428206,0.8319806456565857,-2.5793085,0.0,-0.0,0.0
2406.633333336366,-0.22429127,-0.5362855,0.31905004,-1.9191871,0.3441045,1.1881022,1.1714712,0.03999952,0.04,-9.428206,0.8319806456565857,-2.5793085,0.0,-0.0,0.0
2406.650000003033,-0.22429127,-0.5362855,0.31905004,-1.9191871,0.3441045,1.1881022,1.1714712,0.03999952,0.04,-9.428206,0.8319806456565857,-2.5793085,0.0,-0.0,0.0
2406.6666666696997,-0.22429127,-0.5362855,0.31905004,-1.9191871,0.3441045,1.1881022,1.1714712,0.03999952,0.04,-9.428206,0.8319806456565857,-2.5793085,0.0,-0.0,0.0
2406.6833333363666,-0.22429127,-0.5362855,0.31905004,-1.9191871,0.3441045,1.1881022,1.1714712,0.03999952,0.04,-9.428206,0.8319806456565857,-2.5793085,0.0,-0.0,0.0
2406.7000000030334,-0.22429127,-0.5362855,0.31905004,-1.9191871,0.3441045,1.1881022,1.1714712,0.03999952,0.04,-9.428206,0.8319806456565857,-2.5793085,0.0,-0.0,0.0
2406.7166666697003,-0.22429127,-0.5362855,0.31905004,-1.9191871,0.3441045,1.1881022,1.1714712,0.03999952,0.04,-9.428206,0.8319806456565857,-2.5793085,0.0,-0.0,0.0
2406.733333336367,-0.22429127,-0.5362855,0.31905004,-1.9191871,0.3441045,1.1881022,1.1714712,0.03999952,0.04,-9.428206,0.8319806456565857,-2.5793085,0.0,-0.0,0.0
2406.750000003034,-0.22429127,-0.5362855,0.31905004,-1.9191871,0.3441045,1.1881022,1.1714712,0.03999952,0.04,-9.428206,0.8319806456565857,-2.5793085,0.0,-0.0,0.0
2406.766666669701,-0.22429127,-0.5362855,0.31905004,-1.9191871,0.3441045,1.1881022,1.1714712,0.03999952,0.04,-9.428206,0.8319806456565857,-2.5793085,0.0,-0.0,0.0
2406.783333336368,-0.22429127,-0.5362855,0.31905004,-1.9191871,0.3441045,1.1881022,1.1714712,0.03999952,0.04,-9.428206,0.8319806456565857,-2.5793085,0.0,-0.0,0.0
2406.8000000030347,-0.22429127,-0.5362855,0.31905004,-1.9191871,0.3441045,1.1881022,1.1714712,0.03999952,0.04,-9.428206,0.8319806456565857,-2.5793085,0.0,-0.0,0.0
2406.8166666697016,-0.22429127,-0.5362855,0.31905004,-1.9191871,0.3441045,1.1881022,1.1714712,0.03999952,0.04,-9.428206,0.8319806456565857,-2.5793085,0.0,-0.0,0.0
2406.8333333363685,-0.22429127,-0.5362855,0.31905004,-1.9191871,0.3441045,1.1881022,1.1714712,0.03999952,0.04,-9.428206,0.8319806456565857,-2.5793085,0.0,-0.0,0.0
2406.8500000030353,-0.22429127,-0.5362855,0.31905004,-1.9191871,0.3441045,1.1881022,1.1714712,0.03999952,0.04,-9.428206,0.8319806456565857,-2.5793085,0.0,-0.0,0.0
2406.866666669702,-0.22429127,-0.5362855,0.31905004,-1.9191871,0.3441045,1.1881022,1.1714712,0.03999952,0.04,-9.428206,0.8319806456565857,-2.5793085,0.0,-0.0,0.0
2406.883333336369,-0.22429127,-0.5362855,0.31905004,-1.9191871,0.3441045,1.1881022,1.1714712,0.03999952,0.04,-9.428206,0.8319806456565857,-2.5793085,0.0,-0.0,0.0
2406.900000003036,-0.22429127,-0.5362855,0.31905004,-1.9191871,0.3441045,1.1881022,1.1714712,0.03999952,0.04,-9.428206,0.8319806456565857,-2.5793085,0.0,-0.0,0.0
