rsonawane2002/My_IMU/logs_2/traj_308/clean_308.csv
time,j1,j2,j3,j4,j5,j6,j7,gripper1,gripper2,imu_ax,imu_ay,imu_az,imu_gx,imu_gy,imu_gz,quat_x,quat_y,quat_z,quat_w
630.8833333330882,0.00016700293,-0.785875,4.0107683e-05,-2.3551247,9.29385e-05,1.570997,0.786,0.04,0.04,0.0,-0.0,0.0,2.875329272945135e-08,-0.0011641195053377316,4.421952117202833e-08,0.9999995971961153,0.00020320632366974898,0.0008736418299892524,3.263050917662294e-05
630.8999999997549,0.00016700455,-0.78576016,4.0118837e-05,-2.3552213,9.297012e-05,1.5709941,0.786,0.04,0.04,-0.29199846056133794,-3.602727929316119e-05,0.020128408114472585,4.871950135532173e-07,-0.002239023084789354,-3.1382059498233606e-07,0.9999996850590676,0.00020320631732968737,0.000766502520090921,3.2601303816546406e-05
630.9166666664215,0.00016699753,-0.7856543,4.0158684e-05,-2.35531,9.29721e-05,1.5709913,0.786,0.04,0.04,0.02332872153214538,-2.5178297823622367e-06,-0.0016704361685881963,4.102973943283486e-06,-0.0032332882943077847,-3.0173676256550282e-06,0.9999997558484728,0.00020320009941438819,0.000667797265617672,3.2550367662901024e-05
630.9333333330882,0.00016696895,-0.78555703,4.0275358e-05,-2.355391,9.2900445e-05,1.5709884,0.786,0.04,0.04,0.02246073666736237,-1.2380407527330878e-05,-0.001524897770255329,1.3539985946210708e-05,-0.004155822528099248,-1.0219082847086984e-05,0.9999998122544638,0.0002031771316972648,0.0005771982585914429,3.2438567664791215e-05
630.9499999997548,0.000166901,-0.7854677,4.0537896e-05,-2.3554652,9.2692506e-05,1.5709856,0.786,0.04,0.04,0.020518935455537957,-2.7610995701333844e-05,-0.001459022060568138,3.179869531733309e-05,-0.005015421258076893,-2.3861668135392184e-05,0.9999998568240761,0.00020312193401260723,0.0004940200688815341,3.2209913835116603e-05
630.9666666664215,0.00016677137,-0.7853857,4.1034233e-05,-2.355532,9.226844e-05,1.5709839,0.7860019,0.04,0.04,0.021113684580087444,-4.7706013808367e-05,-4.231186980785395e-05,6.221017930177837e-05,-0.005820173430175709,-4.5694233064826675e-05,0.9999998909842037,0.0002039682323266056,0.00041882893856051587,3.179404423735373e-05
630.9833333330881,0.00016655371,-0.7853108,4.1869e-05,-2.3555949,9.153303e-05,1.5709844,0.7860038,0.04,0.04,0.014941330842765943,-7.097424489864554e-05,-0.0007182327063093297,9.883219875036181e-05,-0.0065694448828968344,-7.729629607891356e-05,0.9999999172600788,0.00020473863548633818,0.0003501348165626614,3.1105255034645476e-05
630.9999999997548,0.00016621815,-0.78524256,4.3162006e-05,-2.355653,9.038616e-05,1.570985,0.78600764,0.04,0.039999995,0.01552289401318685,-0.000104847736598075,-0.0015915632997520746,0.0001530459476631127,-0.007280166543031672,-0.00011930198903152987,0.9999999370080106,0.00020635930683964658,0.0002872224553359241,3.0051162107432106e-05
631.0166666664214,0.00016573165,-0.78518075,4.5046847e-05,-2.3557045,8.869784e-05,1.5709858,0.78601205,0.04,0.039999995,0.018538061371375925,-0.00012968302733060762,-0.0005071511422816144,0.0002195534137258511,-0.007962384583377795,-0.0001745428938682093,0.9999999512541351,0.0002081437704449244,0.00023098599226856632,2.851963617128965e-05
631.0333333330881,0.00016505831,-0.78512496,4.7668862e-05,-2.3557541,8.6326836e-05,1.5709867,0.7860183,0.04,0.04,0.009934807285238989,-0.00015586028020884383,-0.002488162733049748,0.00030680442464462885,-0.008611688599884905,-0.00024409077580090684,0.9999999614779549,0.00021068452840534098,0.0001787730570524383,2.6387735047476878e-05
631.0499999997547,0.00016415954,-0.785075,5.1183986e-05,-2.3557973,8.3150364e-05,1.5709877,0.7860275,0.04,0.039999995,0.017397339614122487,-0.00020660508515243838,-0.00044252296846902794,0.00041231693476030483,-0.009253631861560793,-0.00032660364021536127,0.9999999679170757,0.00021448199347968164,0.0001326996596660482,2.3539807471416844e-05
631.0666666664214,0.00016299472,-0.7850308,5.575773e-05,-2.3558393,7.9008256e-05,1.5709921,0.78603894,0.04,0.039999995,0.009447222356406826,-0.00023763455166488263,-0.00014436173136900265,0.0005336457283245333,-0.009873371518370463,-0.0004253332069889039,0.9999999715707102,0.0002191702544160263,9.181221143675612e-05,1.983674377429481e-05
631.083333333088,0.0001615212,-0.7849921,6.15637e-05,-2.3558748,7.374297e-05,1.5709969,0.78605354,0.04,0.039999995,0.017180047211651228,-0.0002786633659516307,1.4989799401732284e-06,0.0006771486419876346,-0.010483743743200295,-0.0005402316967775218,0.9999999729079128,0.00022515602175043165,5.7094268176223625e-05,1.5138833866844785e-05
631.0999999997547,0.00015969458,-0.78495884,6.878276e-05,-2.355909,6.719049e-05,1.5710026,0.7860715,0.04,0.039999995,0.008323551310196464,-0.0003203801967033217,-0.0018346251080325615,0.0008412624847664264,-0.011078323082404334,-0.0006719714074709465,0.999999972589436,0.00023248702578338248,2.6161750982260464e-05,9.299083086654465e-06
631.1166666664213,0.00015746907,-0.7849309,7.760196e-05,-2.3559384,5.9182075e-05,1.5710111,0.7860935,0.04,0.039999995,0.015240349650280649,-0.0003659808887442799,0.0012782378599585087,0.0010280162482065292,-0.011679518996984934,-0.0008211194369288812,0.9999999708404183,0.00024147748514665,1.7566005940192498e-06,2.1682188039770084e-06
631.133333333088,0.00015479756,-0.78490835,8.821359e-05,-2.3559656,4.9541155e-05,1.5710196,0.7861198,0.04,0.039999995,0.009679315883404094,-0.0004087326036804708,-0.0020242203983000806,0.001236995453431334,-0.012268855251897751,-0.0009881669584807442,0.9999999679921849,0.0002522319656846955,-1.880323039661349e-05,-6.411186723072644e-06
631.1499999997546,0.00015163182,-0.7848911,0.00010081442,-2.35599,3.8090733e-05,1.571032,0.78615123,0.04,0.039999995,0.011933503929029143,-0.0004569003699775732,0.0011197616919700337,0.001469173962936248,-0.012870712756704088,-0.0011735225498644677,0.999999964176374,0.0002650625276543326,-3.337177618676048e-05,-1.6596127361279016e-05
631.1666666664213,0.00014792295,-0.78487945,0.000115605144,-2.35601,2.4641244e-05,1.5710471,0.78618824,0.04,0.04,0.014250083003197744,-0.0004990836260203302,0.0007398750326403913,0.0017241834169839242,-0.013470827469384529,-0.0013782959919634349,0.999999959469083,0.0002801907536868347,-4.171036856696839e-05,-2.8552037494539883e-05
631.183333333088,0.00014362091,-0.78487325,0.00013278903,-2.356029,9.023468e-06,1.5710633,0.7862311,0.04,0.039999995,0.008059354382461414,-0.0005570512629409234,-0.0017888278992073126,0.0020022171460299973,-0.014066798962649429,-0.0016004259320430356,0.9999999537214578,0.0002976890542028095,-4.623270080324661e-05,-4.243638506539715e-05
631.1999999997546,0.00013867562,-0.7848724,0.00015257238,-2.3560452,-8.958043e-06,1.5710833,0.7862804,0.04,0.039999995,0.011999470102352916,-0.0006011198228350449,0.0010897173461588139,0.002304853268482735,-0.014686656938619569,-0.0018424928175272753,0.9999999467923564,0.00031780738081027825,-4.473303241302665e-05,-5.841839591569365e-05
631.2166666664212,0.00013303618,-0.7848772,0.0001751628,-2.3560584,-2.9490317e-05,1.5711066,0.78633666,0.04,0.039999995,0.012479683427657484,-0.0006512827518869802,0.0006181630589408016,0.0026317802177076195,-0.015310669268343286,-0.0021038579395859028,0.999999938306016,0.000340765923057814,-3.7270525186342834e-05,-7.666458145821337e-05
631.2333333330879,0.00012665149,-0.7848876,0.00020076957,-2.3560703,-5.2763866e-05,1.5711318,0.78640044,0.04,0.039999995,0.008927363358157692,-0.0006997367499286876,-0.0011596245999445642,0.00298323465014934,-0.015943189731002023,-0.0023846328603149376,0.9999999276748928,0.0003667845140588371,-2.536456456779383e-05,-9.734458626270313e-05
631.2499999997546,0.000119470365,-0.7849038,0.00022960268,-2.3560805,-7.897008e-05,1.5711597,0.78647226,0.04,0.039999995,0.010058722227945793,-0.0007495216408460374,-0.0005689312868817353,0.0033591998992506854,-0.016599860659617216,-0.0026848651559273754,0.999999914248333,0.0003960826634923097,-8.418469136855087e-06,-0.00012062744206915717
631.2666666664212,0.00011144141,-0.784926,0.00026187234,-2.3560877,-0.000108299544,1.5711914,0.7865527,0.039999995,0.03999999,0.013065627522301781,-0.0008007659678544083,0.0008598055351694001,0.003759393203724303,-0.017278361076648537,-0.003004563503666607,0.9999998971485363,0.00042890966630111345,1.4969225181636587e-05,-0.00014668107356897382
631.2833333330879,0.00010251339,-0.7849542,0.00029778882,-2.356092,-0.00014095099,1.571227,0.7866422,0.039999995,0.039999995,0.012727436944959258,-0.0008455291050894363,0.000718304949920423,0.004183826199759778,-0.017967738826640052,-0.003344470140769473,0.9999998752725489,0.0004653956011099874,4.470998339679106e-05,-0.00017567822514652777
631.2999999997545,9.2634946e-05,-0.78498846,0.00033756212,-2.3560958,-0.00017710513,1.5712664,0.7867413,0.03999999,0.03999999,0.008780681124798129,-0.0009022385052532525,-0.00029727436772208904,0.00463278108297602,-0.018671834515929492,-0.0037029705525821275,0.9999998473100209,0.0005058197642375259,7.970215238181245e-05,-0.0002077832233586441
631.3166666664212,8.1755046e-05,-0.7850292,0.00038140133,-2.3560967,-0.00021695242,1.5713105,0.7868505,0.039999988,0.039999988,0.013455761282599177,-0.0009538497858548674,0.001101513252610431,0.00510601349114068,-0.019401461162083633,-0.0040807538626257125,0.9999998115952027,0.0005503422865462529,0.00012167544407448621,-0.00024316252408860414
631.3333333330878,6.982294e-05,-0.7850763,0.00042951436,-2.3560948,-0.00026068196,1.5713593,0.7869703,0.039999984,0.039999984,0.013457675548145254,-0.0010043068953784846,0.0010995052600382138,0.005603831360822527,-0.02014612605727762,-0.004477614906016673,0.9999997661751041,0.0005991832852789,0.00017063122441291598,-0.00028198246957919737
631.3499999997545,5.678814e-05,-0.78513014,0.000482108,-2.3560915,-0.0003084805,1.5714124,0.78710127,0.03999998,0.03999998,0.011216564099325588,-0.0010545892336777537,0.00014312970708640904,0.006125735478307585,-0.020904011680395983,-0.004893552912724976,0.9999997089547451,0.0006525632395735618,0.00022585580136041432,-0.00032440838494297944
631.3666666664211,4.2600666e-05,-0.78519076,0.0005393876,-2.3560877,-0.00036053368,1.5714701,0.7872439,0.039999977,0.039999977,0.009767392184056867,-0.001104840847965992,-0.00026533771599890343,0.006671751965629844,-0.021687477359049325,-0.005328323026717893,0.9999996375943736,0.0007107028648145702,0.000286993327638693,-0.00037060408704390536
631.3833333330878,2.721083e-05,-0.7852586,0.0006015561,-2.3560808,-0.00041702544,1.5715332,0.7873987,0.039999973,0.039999973,0.014953369750636547,-0.0011577077536368576,0.0012926020679815409,0.007241129178408955,-0.022501163396548767,-0.005781697908800905,0.9999995487532685,0.0007737936551271972,0.0003559829566518561,-0.0004207288596202517
631.3999999997544,1.0569555e-05,-0.78533363,0.00066881493,-2.3560715,-0.00047813822,1.5716013,0.7875662,0.03999997,0.03999997,0.013627419778616812,-0.0012076021892504219,0.0007017873248527096,0.007834210748722188,-0.02332798938145656,-0.00625345091185996,0.9999994392466136,0.0008420573840371045,0.000432290515010469,-0.00047494287129057295
631.4166666664211,-7.3717856e-06,-0.785416,0.00074136286,-2.3560605,-0.00054405234,1.5716743,0.7877469,0.039999966,0.039999966,0.012546761265341821,-0.0012567580904023726,0.0003098555030556227,0.00845021847446402,-0.024174920225466693,-0.00674334059947663,0.9999993055392777,0.0009157165137247627,0.0005156205244139783,-0.0005334038839348557
631.4333333330877,-2.6661039e-05,-0.78550595,0.0008193968,-2.3560488,-0.00061494653,1.5717535,0.7879412,0.039999966,0.03999997,0.011533474568792279,-0.0013063604616008525,0.0005428102835214332,0.009088963022584474,-0.02504810642672552,-0.007251951398607769,0.9999991436034572,0.000994904117191846,0.0006061545889352511,-0.0005962673596660583
631.4499999997544,-4.734569e-05,-0.7856037,0.00090311025,-2.356034,-0.00069099566,1.5718378,0.78814965,0.03999997,0.039999973,0.015551393493362653,-0.001358138369912242,0.0007593531345717608,0.009750514842456664,-0.025947385400342974,-0.007777262825921966,0.9999989484068647,0.0010798443323594583,0.0007047303165563559,-0.0006636840840610199
631.466666666421,-6.947224e-05,-0.7857094,0.0009926946,-2.356017,-0.0007723738,1.5719285,0.7883727,0.039999966,0.03999997,0.014483474183180078,-0.0014076023435362177,0.001235665504117911,0.010434405396923155,-0.026865620796943716,-0.008319832550736815,0.9999987146509945,0.0011707310246219986,0.0008115895889479379,-0.0007358040267413268
631.4833333330877,-9.308675e-05,-0.78582305,0.0010883382,-2.355998,-0.0008592508,1.5720253,0.7886109,0.039999966,0.03999997,0.014441065766201966,-0.0014571606734408923,0.0009290733032907283,0.011140465781001693,-0.02780475198819108,-0.008879329869604033,0.9999984367711534,0.0012677892941273632,0.0009265872347030429,-0.0008127740471396767
631.4999999997543,-0.00011823455,-0.78594506,0.0011902266,-2.355978,-0.00095179526,1.5721282,0.7888645,0.039999966,0.03999997,0.012815005262556411,-0.0015039797172776686,0.00018688681542311514,0.011867926889722203,-0.028766426493921412,-0.009455451972644892,0.9999981091997762,0.0013711256042771307,0.0010493101431829567,-0.0008947400031768306
631.516666666421,-0.00014496008,-0.78607583,0.0012985426,-2.3559556,-0.001050172,1.5722378,0.7891342,0.039999966,0.03999997,0.015942653987965905,-0.0015566992574966615,0.0011140717864233096,0.012616880753759064,-0.029756623002367723,-0.010047807881474306,0.999997723840307,0.0014810256981922553,0.00118104447391985,-0.000981840637253224
631.5333333330876,-0.00017330705,-0.78621525,0.0014134649,-2.3559308,-0.0011545441,1.5723541,0.78942037,0.03999996,0.039999966,0.015742043181798948,-0.0016044225370569426,0.000995447168095076,0.013386629953232735,-0.030764621682127843,-0.010656046354867992,0.999997273486066,0.0015976274821336645,0.0013216163677723621,-0.0010742146149356376
631.5499999997543,-0.00020331843,-0.7863634,0.0015351695,-2.355904,-0.0012650702,1.5724772,0.7897234,0.039999958,0.039999966,0.015184357916231406,-0.0016529942308759929,0.0009720764249543379,0.014176701704819168,-0.0317944904738217,-0.011280665771784586,0.9999967501490034,0.001721099110329112,0.0014710312337068566,-0.0011719967549483426
631.5666666664209,-0.00023503628,-0.7865208,0.0016638283,-2.3558755,-0.0013819057,1.5726075,0.7900438,0.039999958,0.039999966,0.015729830385824428,-0.0017013392433354226,0.0009026225592956294,0.01498718768205777,-0.032847177399500715,-0.011919556607079489,0.999996144655003,0.0018516398827287581,0.0016296227939592547,-0.0012753173818570267
631.5833333330876,-0.0002685019,-0.78668743,0.0017996108,-2.355845,-0.0015052051,1.5727447,0.79038185,0.039999958,0.039999966,0.015794235481880747,-0.0017489142330902687,0.0006467661782139089,0.015817098167914954,-0.033921886313586794,-0.012573196833383335,0.9999954477904563,0.0019893900076688644,0.0017973377503274761,-0.0013843058813655803
631.5999999997542,-0.00030375586,-0.7868635,0.001942683,-2.3558123,-0.0016351183,1.572889,0.7907379,0.039999954,0.03999996,0.016378971521668895,-0.001797532438924652,0.0007622645640692483,0.016666507022844043,-0.03501982767293202,-0.013241195096011028,0.99999464922394,0.0021344607518867685,0.001974421262607998,-0.0014990868773170959
631.6166666664209,-0.00034083752,-0.7870492,0.0020932069,-2.3557782,-0.0017717913,1.5730411,0.7911127,0.039999954,0.03999996,0.015636412427655344,-0.0018453371245333392,0.0009512163456903977,0.017535547559643413,-0.036142908179846174,-0.013923115770484149,0.9999937375322153,0.0022871722343789577,0.002161029907088196,-0.0016197806214762894
631.6333333330875,-0.00037978584,-0.78724474,0.0022513405,-2.3557413,-0.0019153687,1.573201,0.79150635,0.039999954,0.03999996,0.01837324439311061,-0.0018955251482048697,0.0013146470847935632,0.018422404185815904,-0.037287702789178506,-0.01461853049738194,0.9999926995643245,0.0024475486438165018,0.0023579759988468217,-0.001746503043125341
631.6499999997542,-0.0004206385,-0.78745025,0.0024172384,-2.3557024,-0.0020659894,1.5733688,0.7919193,0.03999995,0.039999958,0.016904420450036817,-0.0019413121405907055,0.0010199602254790108,0.019327714627614977,-0.038448509292217506,-0.015327046544512304,0.9999915233056201,0.0026157931205801122,0.002564940187051248,-0.0018793682695333758
631.6666666664208,-0.00046343255,-0.78766596,0.0025910537,-2.3556614,-0.0022237923,1.5735447,0.7923519,0.03999995,0.039999958,0.017624661237247707,-0.0019905177571337375,0.001063030534198539,0.020251055895067288,-0.039631938340707135,-0.01604822944070962,0.9999901946352182,0.002792049648640395,0.0027822294484258145,-0.0020184874223759647
631.6833333330875,-0.0005082037,-0.78789216,0.002772933,-2.3556182,-0.0023889106,1.5737286,0.7928047,0.03999995,0.03999996,0.017891019986704393,-0.0020366934023987888,0.0006992155010987489,0.021191748455011632,-0.04083642354862983,-0.01678353713852766,0.9999886989253528,0.0029765537905623125,0.0030098833108215084,-0.002163966628057319
631.6999999997541,-0.0005549877,-0.7881286,0.0029630198,-2.3555727,-0.002561472,1.5739207,0.7932779,0.03999995,0.03999996,0.01820057595636193,-0.002086552253108189,0.001277535789356854,0.02214863385423088,-0.04206043256305423,-0.017527773720958314,0.9999870205369846,0.0031693622998225962,0.0032481501479722863,-0.0023159060414665628
631.7166666664208,-0.0006038184,-0.78837556,0.0031614548,-2.3555253,-0.0027416071,1.5741212,0.793772,0.03999995,0.039999966,0.017667250308717186,-0.002130115951337044,0.0009123459825621794,0.023121988405298485,-0.043305147435529066,-0.018286163849477677,0.9999851435647771,0.003370681660097844,0.003496921668226496,-0.0024744077523121966
631.7333333330874,-0.0006547292,-0.78863364,0.0033683751,-2.355476,-0.0029294363,1.5743306,0.79428697,0.03999995,0.039999966,0.01856155726160935,-0.0021816339456341965,0.0008724713769447945,0.024111276237120616,-0.04457121641320462,-0.019053536783326476,0.9999830494983303,0.003580511069935923,0.0037567751299459004,-0.0026395638126297887
631.7499999997541,-0.00070775225,-0.78890246,0.0035839113,-2.355424,-0.003125083,1.5745486,0.79482335,0.039999947,0.039999973,0.01929720049314021,-0.002226877002503092,0.0013164956361055857,0.025116936363079358,-0.04585579780569856,-0.019834950108426945,0.99998071958408,0.0037990594546685233,0.004027812115218725,-0.0028114652639017216
631.7666666664207,-0.0007629196,-0.78918254,0.0038081948,-2.3553693,-0.00332866,1.5747751,0.7953815,0.039999947,0.039999973,0.01983147235489202,-0.002278650427598632,0.0008095748425640537,0.026137671574038145,-0.04715819825834256,-0.02062283525081683,0.9999781339712309,0.004026477314107708,0.004310194335874519,-0.002990198093936912
631.7833333330874,-0.00082026166,-0.7894738,0.004041349,-2.3553128,-0.0035402821,1.5750109,0.79596186,0.039999947,0.03999997,0.01876907536531025,-0.0023220786787746944,0.001159686613538824,0.02717360244823218,-0.04847945644211034,-0.021419374118954643,0.9999752721133963,0.004262974058754005,0.004603935377556283,-0.0031758452343858892
631.799999999754,-0.0008798077,-0.7897763,0.0042834966,-2.3552535,-0.0037600603,1.5752555,0.79656446,0.039999943,0.03999996,0.02045792557738846,-0.0023739232018934065,0.001096727024596511,0.028222925034498223,-0.049819050865386905,-0.022225015974153262,0.9999721118824191,0.004508523204525068,0.00490937660239677,-0.0033684859068873595
631.8166666664207,-0.000941587,-0.79009056,0.0045347535,-2.3551924,-0.0039881016,1.5755097,0.7971897,0.03999995,0.039999984,0.0190736991219298,-0.00241375545179303,0.0008740521850292282,0.02928650377463412,-0.051175913521365204,-0.02304357317591789,0.9999686309375494,0.004763307279892441,0.005226473270488138,-0.003568195873715929
631.8333333330874,-0.0010056269,-0.7904166,0.004795235,-2.3551292,-0.004224506,1.5757728,0.797838,0.039999954,0.039999995,0.019846542614532225,-0.0024659693314672392,0.0005451397845135375,0.030363970482239006,-0.052551512966066444,-0.023868576578234303,0.99996480576489,0.005027480419940947,0.005555240893811524,-0.0037750458042939265
631.849999999754,-0.0010719548,-0.7907544,0.005065053,-2.3550627,-0.0044693714,1.5760458,0.79850954,0.039999954,0.04,0.022146573200920727,-0.0025281800060563634,0.0017774629348377147,0.0314540336862813,-0.05394545538038961,-0.02470114149832667,0.9999606058463161,0.0053011654877236835,0.005896738642505172,-0.0039890942984706634
631.8666666664207,-0.0011405963,-0.7911039,0.0053443103,-2.3549943,-0.004722805,1.5763282,0.79920447,0.039999954,0.04,0.019575773050162226,-0.002552865863980581,0.00076966877511353,0.032556286126738145,-0.055350575685470804,-0.02554108884381326,0.9999560111981909,0.00558437002083495,0.006250029308380395,-0.004210417285514675
631.8833333330873,-0.0012115764,-0.79146564,0.005633112,-2.354924,-0.004984887,1.5766201,0.799923,0.039999954,0.04,0.0201661038036427,-0.002613022348455993,0.0005528960003831074,0.033671024695885315,-0.05677523288087047,-0.026387656542722866,0.9999509935111107,0.005877190774410338,0.006615428283062401,-0.004439066723459776
631.899999999754,-0.0012849199,-0.7918395,0.005931556,-2.35485,-0.0052557173,1.5769219,0.8006659,0.03999995,0.04,0.023025472025040017,-0.0026658840172002433,0.0015772879954134567,0.03479843628448655,-0.05821734449681931,-0.02723973180036183,0.9999455167300036,0.006179993410327018,0.006993908635996207,-0.0046750930478077065
631.9166666664206,-0.0013606496,-0.79222566,0.006239737,-2.3547742,-0.0055353725,1.5772333,0.80143267,0.039999947,0.04,0.020350732075513633,-0.002705814663006914,0.0004159940771852888,0.035935017033957364,-0.059670290663179665,-0.028097695415175726,0.999939559768909,0.006492490041603543,0.0073845934940340065,-0.004918552749314494
631.9333333330873,-0.0014387879,-0.79262406,0.0065577473,-2.3546965,-0.0058239405,1.577555,0.80222416,0.03999994,0.039999977,0.02048043969695712,-0.002755108590744631,0.0009799743146965412,0.03708444885198576,-0.06114211108517653,-0.02895415567596677,0.9999330881825986,0.0068151051110460865,0.007787802144673226,-0.005169491047715787
631.9499999997539,-0.0015193567,-0.79303515,0.0068856752,-2.3546152,-0.006121494,1.5778865,0.8030402,0.03999994,0.039999958,0.023770532457390026,-0.0028225532276258437,0.001120994230641159,0.038242843558796084,-0.06262972114330832,-0.0298143230635034,0.9999260644690422,0.007147732782600692,0.008204447991027344,-0.005427941109115209
631.9666666664206,-0.0016023755,-0.79345876,0.0072236033,-2.354532,-0.0064281183,1.578228,0.80388117,0.03999995,0.039999984,0.020791378915729908,-0.0028483289505342596,0.0005540018985561446,0.039411710133662445,-0.06412693018279045,-0.0306921081025143,0.9999184617950566,0.007490532488541151,0.008633688390307067,-0.005693953742786422
631.9833333330872,-0.0016878649,-0.7938951,0.007571613,-2.3544466,-0.0067438823,1.5785797,0.80474716,0.03999995,0.039999995,0.02153228567627341,-0.002903440904298161,0.0005669091018623007,0.04059003974316454,-0.06564095411539575,-0.03157125998349846,0.999910244008205,0.007843546922793827,0.009075842962969122,-0.005967560107215554
631.9999999997539,-0.0017758432,-0.7943443,0.00792978,-2.354358,-0.007068855,1.5789418,0.8056385,0.03999995,0.04,0.02378662572630752,-0.002967045387144377,0.001264423875202425,0.041777506569895366,-0.06717080259281649,-0.032455566247445056,0.9999013678079315,0.008206908247528195,0.0095317391819556,-0.006248780761996757
632.0166666664205,-0.0018663285,-0.7948064,0.008298175,-2.3542671,-0.0074031013,1.5793147,0.8065553,0.039999954,0.04,0.021993654028995557,-0.0030060212855702838,0.000816307752393719,0.042973622190477886,-0.068708009455111,-0.03334195012171639,0.9998918000458166,0.008580659875432326,0.010000982969573515,-0.006537646126947728
632.0333333330872,-0.0019593379,-0.7952814,0.008676872,-2.3541744,-0.007746684,1.5796975,0.8074976,0.039999958,0.04,0.02127731087020468,-0.0030481249966051067,8.864839582400919e-05,0.04417788203382111,-0.07025837909726831,-0.03423260092086825,0.9998815086896596,0.008964848352682395,0.010483032028755833,-0.006834187148987814
632.0499999997538,-0.0020548867,-0.7957695,0.009065936,-2.3540778,-0.008099659,1.5800908,0.80846566,0.039999958,0.04,0.025037432372565505,-0.003132045730863762,0.0011532233136435366,0.04539014368944877,-0.07182632603777003,-0.035124140233830176,0.9998704405986089,0.009359517604403811,0.010979281633804547,-0.007138404735117482
632.0666666664205,-0.002152992,-0.79627067,0.00946543,-2.3539789,-0.008462086,1.5804946,0.8094597,0.03999995,0.04,0.022600923559656927,-0.0031606651245764776,0.0006178659398115016,0.04661027792777913,-0.07340082107893449,-0.036014227364196544,0.9998585612641253,0.0097648036748185,0.011489072360542547,-0.007450321625250388
632.0833333330871,-0.0022536665,-0.796785,0.009875411,-2.3538785,-0.008834031,1.580909,0.8104799,0.039999947,0.04,0.02109749856815668,-0.003188786769575073,8.142979290859387e-06,0.04783726718620273,-0.07498774985602571,-0.036906377518768164,0.9998458342679208,0.010180783171998721,0.012011953876658864,-0.007769962365104417
632.0999999997538,-0.0023569241,-0.7973127,0.010295932,-2.353774,-0.009215528,1.5813342,0.81152624,0.039999943,0.04,0.025944696543356294,-0.0032881381179873485,0.0012207793777863074,0.04907024279650018,-0.07659113918917532,-0.037796641909612724,0.9998321984454265,0.010607445755899659,0.012549531620652156,-0.008097302169455162
632.1166666664204,-0.0024627775,-0.7978535,0.010727049,-2.3536673,-0.00960663,1.5817703,0.8125989,0.039999932,0.04,0.022929581546882183,-0.0033171413158213613,0.000566519609623839,0.05031002974333977,-0.07819775844645231,-0.038686519629506456,0.9998176198863509,0.011044837170490747,0.013100909405945787,-0.008432360844198105
632.1333333330871,-0.0025712394,-0.7984078,0.01116881,-2.353559,-0.010007378,1.5822171,0.81369805,0.039999925,0.04,0.021559271129745206,-0.0033537209226071514,-0.00011494651750432183,0.05155548291454576,-0.07981493457345507,-0.039576286566020205,0.9998020578752046,0.011493067647484355,0.01366569878727349,-0.00877514337272057
632.1499999997537,-0.0026823198,-0.7989756,0.011621259,-2.3534472,-0.010417809,1.5826745,0.81482387,0.03999992,0.04,0.02537064666972011,-0.00344224555162264,0.000567280618879451,0.05280635892682203,-0.08144768534578262,-0.040465169868462485,0.9997854510284777,0.011952188905520083,0.014245001311562026,-0.009125624898257838
632.1666666664204,-0.002796029,-0.7995568,0.0120844375,-2.3533325,-0.010837962,1.5831428,0.8159763,0.039999913,0.04,0.024136612105785105,-0.0034841745634773408,0.0004528385366686649,0.05406150585039183,-0.08308686349176403,-0.04135471683603824,0.9997677551249411,0.012422190623690788,0.01483854806309675,-0.009483801132647447
632.183333333087,-0.0029123765,-0.8001516,0.012558383,-2.3532164,-0.0112678725,1.5836219,0.8171556,0.039999913,0.04,0.02192393511935009,-0.003511715687661704,-0.00030678151019536415,0.055321724698897554,-0.08473347857043828,-0.04224029756818483,0.9997489292727361,0.012903154363354296,0.015445743920888188,-0.009849671071848939
632.1999999997537,-0.0030313705,-0.80076003,0.013043127,-2.353096,-0.0117075695,1.5841115,0.8183617,0.03999991,0.04,0.026822909138601858,-0.0036110705616912778,0.0005163029875632219,0.05658554630316848,-0.08639465305990815,-0.04313224455590082,0.9997289036688554,0.013395076989387269,0.01606790032961114,-0.010223192285905014
632.2166666664203,-0.0031530187,-0.8013821,0.013538701,-2.3529737,-0.012157087,1.5846124,0.81959474,0.03999991,0.04,0.023060746630676476,-0.0036278338655566095,7.802083759056444e-05,0.05785345124257072,-0.0880589856264776,-0.04401605812450991,0.9997076373548733,0.013898005799296578,0.016704274239665445,-0.010604360955089076
632.233333333087,-0.0032773276,-0.80201787,0.014045135,-2.3528485,-0.01261645,1.5851241,0.8208548,0.039999902,0.04,0.024582765328151623,-0.003696932390706738,5.4282102213143446e-05,0.059124470400255896,-0.08973311530680125,-0.04489029991657182,0.999685073000433,0.014411966913784616,0.01735513589015576,-0.01099314732135896
632.2499999997536,-0.0034043037,-0.80266726,0.014562458,-2.3527198,-0.0130856745,1.5856469,0.82214195,0.03999989,0.04,0.025900950665436184,-0.0037787476945806697,0.0003639789056153475,0.060398450069689726,-0.09141366544890475,-0.04576710346863783,0.9996611478770081,0.014937012408774387,0.018020935148269166,-0.01138951192564973
632.2666666664203,-0.0035339526,-0.8033301,0.015090686,-2.3525896,-0.01356478,1.5861807,0.8234562,0.039999884,0.04,0.022104625361918373,-0.003785154165941891,-0.0003879353746238934,0.06167461424934319,-0.09309728010157667,-0.046639589655205,0.9996358257860655,0.015473136376217193,0.01870060246513874,-0.011793444074345516
632.283333333087,-0.0036662796,-0.8040068,0.01562984,-2.352456,-0.014053786,1.5867255,0.8247977,0.039999884,0.039999995,0.025788089232636757,-0.0038782861534138527,1.671395182256674e-05,0.06295323255002984,-0.09479403958018978,-0.04750710638230733,0.999609030095476,0.016020368187114137,0.01939524399106279,-0.01220488694163686
632.2999999997536,-0.0038012858,-0.80469733,0.016179927,-2.3523197,-0.014552707,1.5872815,0.8261664,0.03999988,0.039999995,0.025101713652464497,-0.003924846923153598,-7.842744533803625e-05,0.06423309322688986,-0.09649479416235368,-0.0483735541003964,0.9995807037450131,0.016578732555543655,0.020104774734999026,-0.012623801342350914
632.3166666664202,-0.003938976,-0.80540144,0.016740968,-2.3521817,-0.01506155,1.5878485,0.8275624,0.039999872,0.039999984,0.02279587337714606,-0.003961062074724943,-0.0005781305672192261,0.06551415115755257,-0.09819945738330327,-0.0492326852524064,0.9995508021896811,0.017148252978682447,0.020828454985615665,-0.013050161863233014
632.3333333330869,-0.004079351,-0.80611956,0.017312972,-2.3520398,-0.015580322,1.5884267,0.82898563,0.03999987,0.039999977,0.027004164100241645,-0.004071716780003343,-4.393035055727523e-05,0.06679593568699958,-0.09991588848862834,-0.050086311933742245,0.9995192391281684,0.017728900364143985,0.021567600085602618,-0.01348389154039045
632.3499999997535,-0.0042224135,-0.8068514,0.01789594,-2.3518953,-0.016109025,1.5890157,0.83043575,0.03999986,0.03999996,0.02459202923399406,-0.004095537893032339,-0.0005988297138159737,0.06807817222865013,-0.10163006324568036,-0.05093361201561249,0.9994859733762195,0.01832049439668712,0.022321378967322763,-0.013924961409252737
632.3666666664202,-0.004368164,-0.80759674,0.018489877,-2.3517494,-0.016647663,1.5896161,0.83191395,0.039999854,0.03999994,0.022558407964412552,-0.00412785626855653,-0.0006953171542534164,0.06936236615126154,-0.10335164372844226,-0.05177214415671516,0.9994509414567104,0.0189236240099683,0.023089388941703096,-0.014373315342096129
632.3833333330869,-0.004516602,-0.8083561,0.019094776,-2.3515992,-0.01719624,1.5902275,0.83341926,0.039999846,0.03999992,0.02799024570441233,-0.004252341048707753,-0.00010580537546100999,0.07064223288693923,-0.10508343058514433,-0.052605986344008634,0.999414052447272,0.01953781896011837,0.02387320851896197,-0.014828867664568491
632.3999999997535,-0.0046677263,-0.8091292,0.019710636,-2.3514469,-0.01775475,1.59085,0.8349514,0.039999835,0.039999913,0.024016018220507362,-0.0042564628389028455,-0.0008616505728920032,0.07192256327462225,-0.10681119847781154,-0.05343662164894432,0.9993752715084866,0.02016292626301242,0.024671650746999264,-0.015291590867830315
632.4166666664202,-0.004821535,-0.8099163,0.020337453,-2.3512917,-0.018323187,1.5914835,0.8365107,0.039999835,0.039999917,0.025659347507556163,-0.004341621768176769,-0.0009703613744527217,0.07320387041041265,-0.10854522367725714,-0.054260770570621626,0.9993345172599659,0.020799126808154517,0.02548523170756179,-0.01576140544561674
632.4333333330868,-0.004978025,-0.8107169,0.020975212,-2.3511336,-0.01890154,1.592128,0.83809733,0.03999983,0.039999913,0.025097838993870525,-0.004396080482425846,-0.0006105364228181642,0.0744838966975707,-0.11028065289610808,-0.05507552411142084,0.9992917265057394,0.02144647667581121,0.02631375126852005,-0.01623824096233437
632.4499999997535,-0.005137195,-0.81153125,0.021623911,-2.3509736,-0.019489795,1.5927836,0.83971125,0.039999835,0.039999925,0.023728588667948358,-0.004441151618038604,-0.0013022195278100668,0.07576191031497098,-0.11201945736195111,-0.0558843478070053,0.9992468413257133,0.022104975567651,0.02715683038688507,-0.016722042909769936
632.4666666664201,-0.0052990415,-0.8123593,0.022283522,-2.3508105,-0.02008794,1.5934503,0.8413523,0.039999828,0.03999993,0.02593027831854222,-0.004523197749519564,-0.0007574310764590919,0.07703702337008186,-0.11376457325040953,-0.05668667380685119,0.9991997750085775,0.0227745388683191,0.028015220083296065,-0.01721271175114431
632.4833333330868,-0.00546356,-0.813201,0.02295403,-2.3506444,-0.020695958,1.5941279,0.8430204,0.03999982,0.039999925,0.02586171025931172,-0.004584837004727345,-0.0011136330613670253,0.0783099196471132,-0.11551026203665485,-0.05747851351746433,0.9991504614098653,0.023455140219472398,0.02888877938806217,-0.01771017468028365
632.4999999997534,-0.005630743,-0.81405646,0.02363541,-2.3504765,-0.021313824,1.5948166,0.8447155,0.039999813,0.03999991,0.02353020293330843,-0.004607029049285595,-0.0015834269265768697,0.07957943694829336,-0.11725535757602565,-0.05825798057706144,0.9990988462533744,0.02414674836641655,0.02977695062381612,-0.018214367132893955
632.5166666664201,-0.005800586,-0.81492543,0.024327649,-2.3503048,-0.02194152,1.5955162,0.8464377,0.03999979,0.039999876,0.027061412338591495,-0.004746299970990152,-0.0008380371320892976,0.08084595843727263,-0.1190072064570328,-0.05902613182774116,0.9990448282711014,0.024849422677547854,0.030680696675809187,-0.018725174200661707
632.5333333330867,-0.005973084,-0.81580806,0.025030708,-2.3501306,-0.022579022,1.5962268,0.84818673,0.039999787,0.039999865,0.025190322582657743,-0.004755153434814717,-0.0014664553793286572,0.08210838098903171,-0.12075553351643385,-0.05978658092872506,0.9989883520889794,0.02556302204228227,0.031599517537053645,-0.01924252545890123
632.5499999997534,-0.0061482266,-0.8167042,0.025744565,-2.3499548,-0.023226306,1.5969483,0.84996265,0.03999978,0.039999872,0.02300798082415234,-0.004779497279531336,-0.002025830650831395,0.08336733973926808,-0.12250316008816214,-0.060543411623470225,0.998929364575397,0.026287574485476632,0.03253273855552101,-0.019766358762856116
632.56666666642,-0.0063260067,-0.81761384,0.026469182,-2.349775,-0.023883332,1.5976812,0.8517655,0.03999976,0.03999984,0.027763659721635747,-0.004954380230517627,-0.0006755074072106737,0.08462114882301346,-0.12425766486535328,-0.061279918264319916,0.9988677392486512,0.02702310931284096,0.03348197670905377,-0.020296509232111466
632.5833333330867,-0.0065064174,-0.818537,0.027204527,-2.349593,-0.024550075,1.5984241,0.85359484,0.039999746,0.03999981,0.02447655779738156,-0.004918887649799433,-0.0024771955746683005,0.0858693586259939,-0.12600337784307916,-0.06200710114624995,0.9988034534553406,0.027769407362077322,0.03444574867995109,-0.020832949342851303
632.5999999997533,-0.0066894474,-0.81947356,0.027950555,-2.3494086,-0.025226492,1.5991784,0.85545087,0.039999723,0.039999776,0.02451156740139737,-0.0050085985395288,-0.0015608592016880252,0.08711310130187533,-0.12775374151336752,-0.06272391931046145,0.9987364097126364,0.028526574502052274,0.03542463146534782,-0.02137554553774039
632.61666666642,-0.006875088,-0.8204236,0.02870723,-2.3492205,-0.025912564,1.5999433,0.8573334,0.039999705,0.03999974,0.02718748502648083,-0.005108084690146411,-0.0017800669954048942,0.08835069467947412,-0.1295025302390698,-0.06342707451324442,0.9986665173238537,0.029294537519564796,0.03641904979015075,-0.021924188927811023
632.6333333330866,-0.0070633297,-0.8213869,0.029474515,-2.3490307,-0.02660823,1.600719,0.8592422,0.039999697,0.03999973,0.02338770700425208,-0.005114875323267848,-0.0022690882662823597,0.08958278832359223,-0.13124593971484294,-0.06412498861528435,0.9985937372319741,0.030073141824519846,0.03742802742083343,-0.022478809249302987
632.6499999997533,-0.007254158,-0.82236344,0.030252354,-2.3488386,-0.027313465,1.6015052,0.86117727,0.03999969,0.039999727,0.024623786521793534,-0.005178587981373439,-0.0024088300911939697,0.09080922078582279,-0.1329911251201793,-0.06481221981748057,0.9985179816211512,0.030862429055340628,0.038451812774651144,-0.023039291359972642
632.6666666664199,-0.007447562,-0.82335335,0.031040695,-2.348643,-0.028028214,1.602302,0.8631384,0.03999968,0.039999712,0.0264524006251321,-0.005290902314791443,-0.0021286236379536305,0.09202864278950987,-0.13473688415313054,-0.06548553312727629,0.9984391521743899,0.031662286273369526,0.03949100717751437,-0.02360549481231232
632.6833333330866,-0.007643532,-0.8243563,0.03183949,-2.348446,-0.028752431,1.6031094,0.8651255,0.03999967,0.0399997,0.023278727610342997,-0.005283937846161518,-0.0026530959207571314,0.09324128782024022,-0.13647641424910045,-0.06614668227339437,0.9983572059474973,0.03247268355881103,0.04054466708251487,-0.024177347380629804
632.6999999997532,-0.007842053,-0.8253722,0.032648697,-2.3482454,-0.02948607,1.6039271,0.86713845,0.039999664,0.039999694,0.026022067103115276,-0.005430658748211206,-0.002265167099091414,0.09444698670597536,-0.13821740469323615,-0.06679613258693093,0.9982720375935478,0.03329356448327753,0.04161348460136031,-0.02475470505088964
632.7166666664199,-0.008043111,-0.8264012,0.033468246,-2.3480422,-0.030229079,1.6047555,0.86917716,0.039999645,0.03999967,0.025059159196505476,-0.005453169220256959,-0.0025419179517260915,0.09564472018286876,-0.1399534357491527,-0.06743196665970132,0.9981835729249805,0.03412487764160892,0.04269731812889096,-0.025337452383095527
632.7333333330865,-0.00824669,-0.827443,0.034298085,-2.347837,-0.030981403,1.6055944,0.87124157,0.039999638,0.039999668,0.024044694702896052,-0.00550522323336626,-0.002797344441285432,0.09683479721659449,-0.1416845700344315,-0.06805656039707818,0.9980917457368766,0.03496659342876534,0.04379581881169735,-0.025925483419104944
632.7499999997532,-0.008452777,-0.8284977,0.03513815,-2.3476288,-0.031742986,1.6064435,0.8733314,0.039999627,0.039999656,0.025261047007774096,-0.005593075576569573,-0.0028352566986189487,0.09801560915443969,-0.14341425242671488,-0.06866704372165416,0.9979964661863562,0.035818604234449325,0.04490925966292107,-0.02651866261276082
632.7666666664198,-0.008661359,-0.8295651,0.035988364,-2.3474178,-0.03251377,1.6073028,0.87544656,0.039999623,0.03999965,0.0250774008842658,-0.00563929449024711,-0.0029272422040316215,0.09918773161213958,-0.1451383980969136,-0.06926334132527169,0.997897659269766,0.036680830855156527,0.04603752721633718,-0.027116864853858516
632.7833333330865,-0.008872415,-0.8306453,0.036848683,-2.347205,-0.033293705,1.6081723,0.8775867,0.039999615,0.039999645,0.02364828884635628,-0.005681186775800123,-0.0033670880923430957,0.10035097988465952,-0.1468567867566326,-0.0698476940231195,0.9977952606491555,0.03755315057505994,0.04718029962533718,-0.027719993420532364
632.7999999997531,-0.00908593,-0.83173794,0.037719034,-2.3469894,-0.034082714,1.6090517,0.87975174,0.039999586,0.039999608,0.024355089953198572,-0.005774726334292768,-0.003227845278463981,0.10150468941746017,-0.14857327150906605,-0.07041531727504988,0.9976891909125662,0.03843548151274531,0.048337581439639066,-0.028327907047268085
632.8166666664198,-0.009301886,-0.8328431,0.03859933,-2.3467715,-0.034880746,1.6099415,0.8819416,0.03999958,0.039999597,0.024378189611384826,-0.0058186078966609295,-0.003207010738570659,0.10264883708730511,-0.1502861414503888,-0.0709689398779947,0.9975793549682719,0.039327828857838774,0.04950961748460475,-0.028940459480510165
632.8333333330864,-0.009520268,-0.83396107,0.039489508,-2.3465517,-0.03568772,1.6108412,0.88415605,0.03999957,0.03999959,0.023614786323999937,-0.005857692495939842,-0.003945566374019549,0.10378299048801387,-0.15199196420213512,-0.07151016048814574,0.9974656909164408,0.040230059027280156,0.05069605331422172,-0.029557536663436915
632.8499999997531,-0.009741052,-0.8350911,0.0403895,-2.3463287,-0.036503576,1.6117507,0.88639504,0.03999955,0.039999563,0.0250308839831348,-0.005998809441674913,-0.003246011127089332,0.10490658181174897,-0.1536930004683485,-0.07203588898770463,0.997348100192253,0.04114216197963079,0.051897192775817835,-0.030178981635155977
632.8666666664197,-0.009964227,-0.83623314,0.041299235,-2.3461034,-0.037328225,1.6126702,0.88865805,0.039999537,0.03999955,0.023702393740521188,-0.0060357177673893425,-0.0035323613072568705,0.10601854790389642,-0.1553861191617607,-0.07254725942769928,0.9972265284509136,0.04206387610602539,0.05311264646581462,-0.030804676042338417
632.8833333330864,-0.010189768,-0.83738756,0.042218607,-2.3458762,-0.038161635,1.6135994,0.89094514,0.039999522,0.039999533,0.023340124001913765,-0.006014714062960516,-0.004170561916216897,0.10712047117261424,-0.15707343827965795,-0.07304374964649213,0.9971008918471468,0.04299525135371034,0.054342361998139965,-0.0314344958782367
632.899999999753,-0.010417658,-0.83855397,0.043147553,-2.3456457,-0.03900371,1.6145383,0.89325607,0.039999504,0.039999515,0.025392500706900023,-0.006196855692954667,-0.0036451216307353818,0.10821075366451433,-0.15875503582971556,-0.07352599617833953,0.9969710858775886,0.04393616566968583,0.05558681509773275,-0.032068259347804995
632.9166666664197,-0.010647872,-0.83973217,0.044085994,-2.345413,-0.03985436,1.6154866,0.89559066,0.03999948,0.039999485,0.023063292837921523,-0.006203153856520344,-0.004211957420841017,0.1092891210633206,-0.1604247119162236,-0.07399068231297198,0.9968370705089651,0.044886532578581,0.056845234382719725,-0.03270586155645813
632.9333333330864,-0.010880394,-0.8409224,0.045033816,-2.345179,-0.04071351,1.6164448,0.8979485,0.039999455,0.03999946,0.021894204530958916,-0.006178405437168993,-0.004461539267031078,0.11035503092381974,-0.1620891728965645,-0.07444184112378527,0.9966987756329418,0.0458461558793998,0.05811752701020112,-0.0333471692515983
632.949999999753,-0.011115205,-0.84212434,0.04599095,-2.344942,-0.041581098,1.617412,0.90032965,0.03999944,0.039999444,0.024521006107214305,-0.006338887249576763,-0.004420105192259882,0.11140910664780074,-0.16374857165727746,-0.07487766461636583,0.9965560964257928,0.046815079306028434,0.05940402419461368,-0.03399201282127983
632.9666666664197,-0.011352274,-0.84333783,0.04695731,-2.3447027,-0.042457048,1.6183885,0.9027337,0.03999943,0.03999943,0.02337390739000078,-0.006379283875333763,-0.004363284069652806,0.11245010792776247,-0.16539747629788204,-0.07529819401007558,0.9964089662969896,0.04779308414679354,0.06070457284796125,-0.03464026307707283
632.9833333330863,-0.011591581,-0.84456265,0.047932785,-2.3444617,-0.043341246,1.6193746,0.9051604,0.03999941,0.039999407,0.021948536355598236,-0.006399480745638078,-0.004471952834239623,0.11347828570894233,-0.16703745372015683,-0.07570309158266797,0.9962573285003784,0.048780086059807194,0.06201878370099876,-0.03529177073392143
632.999999999753,-0.011833109,-0.8457989,0.048917294,-2.344218,-0.044233616,1.6203698,0.9076097,0.03999939,0.03999938,0.02361686265990315,-0.006508961946502523,-0.004722540275037268,0.11449323388964443,-0.1686699100174767,-0.076092140100026,0.9961010826599366,0.04977601237459536,0.06334698144291212,-0.03594637197072637
633.0166666664196,-0.01207683,-0.84704626,0.049910747,-2.3439715,-0.045134068,1.6213739,0.9100811,0.03999937,0.039999366,0.02364105851722087,-0.006601509237105438,-0.00462922880908323,0.11549422518505624,-0.17029118159488515,-0.07646640193024663,0.9959401602716289,0.05078065187581526,0.06468906918448585,-0.036603918932735104
633.0333333330863,-0.01232272,-0.84830475,0.050913043,-2.3437233,-0.046042535,1.6223872,0.91257447,0.03999935,0.039999343,0.021752543856168316,-0.0065674264253856585,-0.004994913285782943,0.11648235823989597,-0.17190062702931078,-0.07682395343877083,0.9957745056439101,0.051793947389837884,0.06604462909821096,-0.037264297802117936
633.0499999997529,-0.012570754,-0.8495742,0.051924076,-2.343474,-0.046958916,1.6234088,0.91508937,0.03999933,0.03999932,0.020417070070610777,-0.006553920098578692,-0.005725210009077664,0.11745626246604715,-0.17350142636146737,-0.07716646499459731,0.9956040936615687,0.05281568367439461,0.06741293841180786,-0.03792740403743097
633.0666666664196,-0.012820906,-0.8508546,0.05294374,-2.343221,-0.047883105,1.6244392,0.9176259,0.0399993,0.03999929,0.02479398296033608,-0.006820655535341724,-0.004780260944481363,0.11841622604696744,-0.17509879136540396,-0.07749163082989763,0.9954287476785976,0.053845915158436564,0.06879541924660622,-0.0385929528081636
633.0833333330862,-0.013073157,-0.85214573,0.053971935,-2.3429658,-0.048815023,1.6254784,0.92018384,0.039999276,0.03999927,0.022135411912227454,-0.006756996215682293,-0.005341371164968578,0.11936122581587448,-0.1766772932645419,-0.07780086576239573,0.9952484415027012,0.05488452941466959,0.0701912633560958,-0.0392608541151351
633.0999999997529,-0.013327477,-0.85344744,0.05500856,-2.3427098,-0.049754567,1.626526,0.92276275,0.03999926,0.039999254,0.019707547969938233,-0.006724586528910476,-0.005817724119649981,0.12029064003203385,-0.17824391557828545,-0.07809521532043946,0.9950631590413188,0.055931321183139995,0.07159965780718178,-0.03993101340204249
633.1166666664195,-0.013583839,-0.85475963,0.056053504,-2.3424513,-0.050701648,1.627582,0.9253623,0.03999923,0.039999224,0.022159545739164344,-0.006878549130690664,-0.0055783797693109705,0.12120455184541076,-0.17980589719749646,-0.07837241814093335,0.9948727850137894,0.05698612054294453,0.07302124236595188,-0.040603224843654
633.1333333330862,-0.013842216,-0.8560821,0.05710666,-2.3421903,-0.051656142,1.6286464,0.9279822,0.039999202,0.03999919,0.022405727530117048,-0.006983162448168101,-0.00540193868976413,0.12210325183514947,-0.1813527694345935,-0.07863308138629362,0.994677239451975,0.05804880452941187,0.0744560932970671,-0.0412773034468466
633.1499999997528,-0.014102582,-0.8574148,0.05816791,-2.3419275,-0.05261796,1.629719,0.93062234,0.039999176,0.03999917,0.020658594009059783,-0.006935573894920055,-0.005968254551169672,0.1229867918299378,-0.1828854923484589,-0.07887851008114266,0.9944764858670055,0.05911929712069843,0.07590363691182606,-0.041953136582663385
633.1666666664195,-0.01436491,-0.85875744,0.059237145,-2.3416634,-0.05358702,1.6307997,0.9332823,0.039999146,0.03999914,0.019842748235321395,-0.006945893344839638,-0.006120535833953333,0.12385370455414363,-0.18440573073998678,-0.07910791800282281,0.9942704814158037,0.06019742378434086,0.07736350291153272,-0.042630603704051175
633.1833333330861,-0.014629171,-0.8601099,0.06031426,-2.3413963,-0.054563206,1.6318883,0.9359617,0.039999127,0.039999124,0.022279088517240808,-0.00714264233603254,-0.005780519435316656,0.12470470470434414,-0.18591724493614153,-0.07932068142782715,0.9940591104008744,0.061282975576728925,0.07883635349826298,-0.04330948280205269
633.1999999997528,-0.0148953395,-0.8614722,0.06139913,-2.3411272,-0.0555464,1.6329846,0.9386606,0.039999094,0.03999909,0.0208788649905145,-0.0071181770448458526,-0.006234105045588301,0.1255399833590498,-0.18741053638727104,-0.07951814987177738,0.9938423272664886,0.06237599673733215,0.0803217046009356,-0.043989627579171686
633.2166666664194,-0.015163383,-0.8628441,0.062491626,-2.3408568,-0.056536518,1.6340889,0.9413784,0.039999064,0.039999057,0.019138744363722537,-0.007071723206894531,-0.006452346239504969,0.12635767899180886,-0.18888904705343806,-0.07969689221742013,0.9936201072389077,0.06347618995087406,0.08181908845267892,-0.04467093646471747
633.2333333330861,-0.015433275,-0.86422575,0.06359165,-2.3405852,-0.05753343,1.6352009,0.9441149,0.03999904,0.039999038,0.019180258064599442,-0.007154528819236505,-0.00670245141267678,0.12715867860113791,-0.19035823979051653,-0.07986188014993403,0.993392380798003,0.06458346883362932,0.0833284880974039,-0.04535324020720105
633.2499999997527,-0.015704986,-0.8656164,0.0646991,-2.3403106,-0.058537055,1.6363202,0.9468698,0.039999004,0.039999,0.021654307591845168,-0.007353426728516632,-0.006081883224839935,0.1279426473505745,-0.19181248883899288,-0.08000870478710188,0.993159049070045,0.0656976494750051,0.08485032617599231,-0.046036336209248914
633.2666666664194,-0.015978487,-0.86701626,0.06581377,-2.3400342,-0.059547246,1.6374466,0.94964284,0.039998975,0.039998975,0.019249942775800832,-0.0071846550995256775,-0.006996427464178723,0.12870980924459752,-0.19324718164199417,-0.08014104111425813,0.992920101473867,0.06681868921183054,0.08638384069325758,-0.04672009126939252
633.283333333086,-0.016253745,-0.868425,0.06693562,-2.3397565,-0.060563914,1.6385806,0.9524336,0.039998934,0.03999893,0.018659434362433558,-0.007314574904858373,-0.006604290025657988,0.129458305968545,-0.19467063559289016,-0.08025657690466045,0.9926754852782603,0.06794630541668366,0.08792897775582452,-0.04740438142839654
633.2999999997527,-0.01653073,-0.8698427,0.06806451,-2.3394778,-0.061586954,1.6397215,0.95524186,0.03999891,0.039998915,0.017693454024314548,-0.007270260805936762,-0.007213793697191662,0.13018978710026954,-0.19607838249784926,-0.08035679866417944,0.9924251683655693,0.06908043240680838,0.0894853024613473,-0.04808908084441985
633.3166666664193,-0.01680941,-0.8712691,0.0692003,-2.3391964,-0.06261622,1.6408695,0.95806736,0.03999887,0.039998874,0.02042097851697733,-0.0074815589311647,-0.006763148538002639,0.130902859210351,-0.1974739599147734,-0.0804397381927645,0.9921690286172391,0.07022092409082185,0.0910535257294445,-0.048773926690320955
633.333333333086,-0.017089749,-0.87270397,0.07034285,-2.3389132,-0.06365163,1.6420242,0.96090966,0.039998844,0.039998848,0.018750963642188978,-0.00741118935393692,-0.0071408892828861426,0.1315976790170497,-0.1988476497321392,-0.08050683011224335,0.9919070622164602,0.07136758310842485,0.09263299825094369,-0.04945882773999213
633.3499999997526,-0.01737173,-0.87414706,0.07149204,-2.3386285,-0.06469303,1.6431856,0.96376836,0.039998807,0.039998814,0.017705547934587784,-0.007407714659479758,-0.007127580983623538,0.13227426808102333,-0.20020674366776908,-0.08055797302211075,0.9916392401731924,0.07252020546845103,0.09422342077673877,-0.05014363493681744
633.3666666664193,-0.017655315,-0.8755986,0.07264774,-2.338343,-0.06574034,1.6443535,0.9666433,0.03999878,0.03999879,0.01697704670724498,-0.007397553707955834,-0.007774852488018347,0.1329327534939627,-0.20154956605001303,-0.08059420932837044,0.9913655242896234,0.07367871263385503,0.09582450353189247,-0.050828231106780766
633.383333333086,-0.017940456,-0.8770581,0.07380982,-2.3380554,-0.06679341,1.6455282,0.9695341,0.039998755,0.039998762,0.01825777449386834,-0.00756044503846115,-0.0070478031468868,0.13357204645630488,-0.20287823332064425,-0.08061260732373915,0.9910858255717044,0.07484293382638182,0.09743662664181331,-0.05151238099502627
633.3999999997526,-0.018227143,-0.8785254,0.074978165,-2.3377657,-0.06785216,1.646709,0.9724408,0.03999871,0.03999872,0.018250558520849225,-0.007578885102618033,-0.007516034929833104,0.13419264254160987,-0.20418625591730566,-0.08061725745233896,0.9908001017470319,0.07601286113613179,0.09905950116590453,-0.05219596295435516
633.4166666664192,-0.01851533,-0.8800005,0.076152615,-2.3374746,-0.06891641,1.6478959,0.9753628,0.039998673,0.039998684,0.017032634592339946,-0.007559091374174237,-0.007721488728207326,0.1347929819867743,-0.20547406216125313,-0.08060553984455635,0.9905083362308964,0.07718823433841798,0.10069281766427464,-0.05287881246442744
633.4333333330859,-0.018804992,-0.88148296,0.07733303,-2.337182,-0.06998608,1.649089,0.9782994,0.03999864,0.039998654,0.016531557406995745,-0.007540374131968092,-0.007614428837854348,0.1353728524088561,-0.206745453198325,-0.08057936701606337,0.9902105165387034,0.0783686998326759,0.10233629599587775,-0.05356082845265037
633.4499999997525,-0.019096093,-0.88297284,0.07851933,-2.3368886,-0.07106105,1.6502879,0.98125046,0.0399986,0.039998613,0.015575500492959193,-0.007568825721583627,-0.007993411250906135,0.13593496031513644,-0.20799714168392888,-0.08053683009372593,0.9899066189411527,0.07955419288339792,0.10398958223111363,-0.05424189302158426
633.4666666664192,-0.019388596,-0.8844699,0.0797113,-2.3365934,-0.072141185,1.6514926,0.98421574,0.039998565,0.039998583,0.01666466654990373,-0.007614528511511176,-0.007826170348779193,0.1364775749742909,-0.20923335939158627,-0.0804794498916652,0.9895965687809727,0.08074458300612777,0.10565292996587561,-0.05492177857387738
633.4833333330859,-0.019682463,-0.885974,0.08090884,-2.336296,-0.07322637,1.652703,0.9871949,0.039998524,0.039998543,0.017207260924934076,-0.0077201155824477286,-0.007752112514114451,0.13700022557792305,-0.21044843762465673,-0.08040591022770754,0.9892803110543621,0.08193971242688207,0.10732638966407966,-0.055600321665064095
633.4999999997525,-0.019977676,-0.8874849,0.082111806,-2.3359973,-0.07431646,1.653919,0.99018735,0.039998475,0.039998498,0.015686308080864464,-0.007648494703257902,-0.008088345000167863,0.1375033550316096,-0.21164197885443348,-0.08031832162915566,0.9889578638989888,0.08313930296750591,0.10900940991644924,-0.05627742250755767
633.5166666664192,-0.020274183,-0.88900244,0.083320044,-2.335698,-0.075411305,1.6551402,0.99319303,0.03999843,0.03999846,0.014029074220722748,-0.007586005776568511,-0.008322735442023443,0.1379872792541229,-0.2128124637712691,-0.08021669245418772,0.988629235147565,0.0843433269424586,0.11070139538320323,-0.056952960169159524
633.5333333330858,-0.020571956,-0.8905263,0.08453343,-2.3353977,-0.0765108,1.6563666,0.99621195,0.039998394,0.039998423,0.013696990230016581,-0.007606333860422226,-0.00820257830878024,0.1384505673567046,-0.21396813898213102,-0.08009873288948921,0.9882943863982309,0.08555177711103716,0.11240219493126702,-0.05762678041953547
633.5499999997525,-0.020870961,-0.89205664,0.08575183,-2.3350966,-0.077614814,1.6575978,0.9992431,0.039998356,0.039998386,0.014095546941250703,-0.007638726629483061,-0.008711211483758419,0.1388910668168528,-0.2151057434975887,-0.07996658268912982,0.9879533089801468,0.08676417587641497,0.11411174458483071,-0.05829877192078341
633.5666666664191,-0.021171162,-0.89359313,0.086975075,-2.334793,-0.07872322,1.658834,1.002286,0.039998323,0.039998353,0.01637788380914884,-0.007815635723681935,-0.00812648507266811,0.13931204081888338,-0.21622419764829184,-0.07981934008961146,0.9876059037928938,0.08798027828014628,0.11583066713456756,-0.05896868642195053
633.5833333330858,-0.02147252,-0.89513546,0.08820303,-2.3344884,-0.07983587,1.6600752,1.0053407,0.03999829,0.039998326,0.01389834210798746,-0.007721251841671939,-0.008235059248318244,0.1397151558936421,-0.21731602225644348,-0.07965936925074436,0.987252196265307,0.0892001339241518,0.11755821986521443,-0.05963641521220978
633.5999999997524,-0.021775005,-0.89668345,0.089435555,-2.3341823,-0.08095267,1.6613208,1.008407,0.039998252,0.039998285,0.013847078780804267,-0.007696599875428589,-0.008551691403013706,0.1400962119109198,-0.21838505484038018,-0.07948399023048408,0.9868921766609978,0.09042361763729698,0.11929412216990362,-0.06030185266153909
633.6166666664191,-0.022078583,-0.89823705,0.09067247,-2.3338754,-0.082073465,1.662571,1.0114845,0.03999821,0.03999825,0.012537799443457232,-0.007591928669294784,-0.008655453097650145,0.14045586423306147,-0.21943303418873905,-0.07929551264592467,0.9865258515997382,0.09165056429732914,0.12103802550587668,-0.060964863413536574
633.6333333330857,-0.022383211,-0.89979625,0.09191368,-2.333568,-0.08319813,1.6638253,1.0145721,0.03999817,0.03999821,0.011922747604398154,-0.007613600476624738,-0.009026071510609412,0.14079378691424302,-0.22045997059855643,-0.0790935398231716,0.9861532586542623,0.0928804439003414,0.12278959348430252,-0.06162539507715243
633.6499999997524,-0.022688847,-0.9013605,0.09315901,-2.3332598,-0.0843265,1.665084,1.0176699,0.039998133,0.039998174,0.012284591359357222,-0.007710234970056962,-0.008471474474114338,0.14111316192797774,-0.22146627455384596,-0.07887624297269756,0.9857743511713727,0.09411323495030918,0.1245488955595769,-0.06228322562886949
633.666666666419,-0.022995459,-0.90292984,0.094408296,-2.3329504,-0.085458465,1.6663465,1.0207778,0.039998095,0.039998136,0.012419935617957734,-0.007636589539184585,-0.008915211694282554,0.1414115970879321,-0.22245081695980418,-0.07864558729253188,0.9853891044897671,0.09534897985645771,0.12631574105394303,-0.0629382106131155
633.6833333330857,-0.023303024,-0.90450376,0.0956614,-2.3326397,-0.086593874,1.667613,1.0238954,0.03999806,0.039998103,0.011929645738462114,-0.007678440949859117,-0.008562299364522907,0.1416883161538347,-0.22341158369511555,-0.07840290806776713,0.9849975258639684,0.09658742637920016,0.12808992025602248,-0.06359021493995161
633.6999999997523,-0.023611484,-0.90608245,0.09691816,-2.332328,-0.08773261,1.6688832,1.027022,0.03999802,0.039998066,0.01156571530627204,-0.007615472744471746,-0.008985798874783235,0.1419431471168388,-0.22434877010089016,-0.07814651526942952,0.9845996220260123,0.09782829806938512,0.12987125129605373,-0.06423913518937553
633.716666666419,-0.023920815,-0.90766567,0.09817845,-2.3320155,-0.08887453,1.6701568,1.0301571,0.039998,0.03999804,0.011162486270510641,-0.007633318174099513,-0.009043110066975224,0.14217689322445368,-0.2252618312710219,-0.07787633365498103,0.9841954159359941,0.09907130546500256,0.1316594605500134,-0.06488486828001788
633.7333333330856,-0.024230985,-0.9092529,0.09944207,-2.331702,-0.0900195,1.6714339,1.0333009,0.039997973,0.039998014,0.0105536696398012,-0.007550389318516926,-0.008706973301153553,0.14239066771161918,-0.2261514121173378,-0.07759412699612228,0.9837848968435947,0.10031657065478408,0.1334542697227226,-0.06552724843358129
633.7499999997523,-0.024541944,-0.9108443,0.10070891,-2.331388,-0.09116736,1.6727144,1.0364524,0.03999794,0.039997984,0.009864015659477587,-0.007548104436158609,-0.009123472652561304,0.14258236611513136,-0.2270158435935498,-0.0773007469841559,0.9833681037334169,0.10156362873894594,0.1352554496292154,-0.06616619395673423
633.7666666664189,-0.024853656,-0.91243964,0.10197881,-2.331074,-0.09231799,1.6739978,1.0396116,0.039997913,0.039997958,0.008409094826467012,-0.007416902883623788,-0.009210833007111674,0.14275394518816964,-0.2278566406173658,-0.07699416534206346,0.9829450879632667,0.10281243316843795,0.13706239012482072,-0.06680163806481754
633.7833333330856,-0.025166087,-0.91403854,0.10325162,-2.3307593,-0.09347125,1.6752841,1.0427781,0.039997872,0.039997917,0.009344334052929781,-0.007515271533549417,-0.008949148976267196,0.14290400622383234,-0.22867719934172595,-0.076676243447377,0.9825158115834932,0.10406286050519714,0.13887526302765624,-0.06743339210587643
633.7999999997522,-0.0254792,-0.91564083,0.1045272,-2.3304439,-0.094626985,1.6765735,1.0459516,0.03999784,0.039997883,0.009115104391277384,-0.007523599447258056,-0.008881820726092116,0.14303169902993423,-0.22947390602558698,-0.07634494532823566,0.9820802875759984,0.10531467422382607,0.14069393765892582,-0.0680613256835318
633.8166666664189,-0.025792947,-0.9172466,0.10580535,-2.3301275,-0.09578509,1.6778653,1.0491313,0.039997805,0.039997853,0.009293682709810014,-0.007436274135264043,-0.009352775836402039,0.14313826994089981,-0.23024290401162892,-0.07600415806269889,0.9816385447639097,0.10656756738471196,0.14251821906113887,-0.06868535689024162
633.8333333330855,-0.026107306,-0.9188553,0.10708594,-2.3298097,-0.09694539,1.6791596,1.0523174,0.03999776,0.03999781,0.00971394740405529,-0.007541356739332317,-0.008836186532468204,0.14322477816526372,-0.23098655911732163,-0.07565134776788392,0.9811905384909406,0.10782163518772815,0.1443482001839923,-0.0693052614521046
633.8499999997522,-0.02642223,-0.9204668,0.10836881,-2.3294914,-0.09810779,1.6804564,1.055509,0.039997734,0.039997783,0.0075780330966335185,-0.0073147191536587775,-0.008978596720909948,0.14328911847899295,-0.23170017559037753,-0.07528724745967677,0.9807363931073683,0.10907642448172908,0.14618312147756904,-0.06992106872828567
633.8666666664188,-0.02673768,-0.9220811,0.1096538,-2.3291728,-0.09927209,1.6817553,1.0587058,0.039997686,0.039997738,0.007110696827750118,-0.007304852590779565,-0.009315798708442458,0.14333299586693116,-0.23238927655280534,-0.07491264802691262,0.9802761309047341,0.11033183608453916,0.14802276613182563,-0.07053264372857275
633.8833333330855,-0.02705362,-0.92369795,0.110940784,-2.3288531,-0.100438155,1.6830561,1.0619073,0.039997652,0.039997704,0.008293637001566267,-0.007408902462448241,-0.00913338673291797,0.14335552164802579,-0.23305190587339158,-0.07452671317594535,0.979809746479356,0.11158757822067616,0.14986725830482917,-0.07113984803960544
633.8999999997521,-0.02737001,-0.9253171,0.11222957,-2.3285332,-0.10160587,1.6843588,1.0651138,0.039997615,0.039997667,0.006330440824342531,-0.007181498091289595,-0.009149319379320175,0.14335842889939066,-0.2336849606636115,-0.07413017676333497,0.9793372847791625,0.11284384179479519,0.151716023951421,-0.07174258210254823
633.9166666664188,-0.027686803,-0.9269383,0.113520004,-2.3282132,-0.10277507,1.6856632,1.0683243,0.039997596,0.03999765,0.005406504878990859,-0.0071052581153446814,-0.009130130897716526,0.14333785269309518,-0.23429315861017522,-0.0737240187151592,0.9788588455088784,0.11410016884659374,0.15356861584582787,-0.07234080636405166
633.9333333330854,-0.028003978,-0.9285614,0.11481189,-2.3278925,-0.103945635,1.6869689,1.0715386,0.039997566,0.03999762,0.006358275067652741,-0.007068278658210747,-0.009234165035021391,0.14329703020574625,-0.23487581912287653,-0.07330769895474587,0.9783744215659347,0.11535642671449474,0.15542510326554207,-0.0729343767785919
633.9499999997521,-0.02832148,-0.93018615,0.11610514,-2.3275716,-0.10511741,1.6882759,1.0747563,0.039997533,0.039997585,0.005178788657511646,-0.007073237867229187,-0.009132781206488971,0.14323451900973938,-0.23543112490317308,-0.072882077846469,0.9778840758371545,0.11661247066805819,0.15728509538800722,-0.07352322542973122
633.9666666664187,-0.028639281,-0.93181235,0.117399566,-2.3272507,-0.106290236,1.6895843,1.0779766,0.039997496,0.039997548,0.0044383956034455,-0.006955194596396097,-0.008998236091239953,0.14315059793027957,-0.23595886295183244,-0.07244720364327704,0.9773878902177081,0.11786790998645404,0.159148289167117,-0.07410728645944441
633.9833333330854,-0.028957337,-0.9334401,0.11869502,-2.3269296,-0.10746398,1.6908938,1.0811993,0.039997466,0.039997518,0.004895286120865094,-0.006960491325364027,-0.009192239409050451,0.1430474634575702,-0.23646164163424394,-0.07200257389721074,0.9768858592142794,0.11912264306276535,0.1610147564021673,-0.07468642579258117
633.999999999752,-0.029275611,-0.9350687,0.11999135,-2.3266082,-0.1086385,1.6922041,1.0844247,0.039997432,0.03999749,0.003950402605434888,-0.006859447644004535,-0.00890524682255478,0.14292481402248183,-0.23693491871743094,-0.0715496866224241,0.9763780386643035,0.12037685363791045,0.1628839784148294,-0.07526053612646118
634.0166666664187,-0.029594054,-0.9366985,0.121288374,-2.3262868,-0.10981369,1.6935151,1.0876515,0.0399974,0.039997455,0.0036085956419018572,-0.006729576312503038,-0.009303676932859162,0.14277868597869553,-0.23737985982580073,-0.07108901297102184,0.9758645309811356,0.12162987901589613,0.16475574953569014,-0.0758296294233321
634.0333333330854,-0.029912636,-0.93832886,0.12258592,-2.3259654,-0.11098933,1.6948266,1.0908797,0.03999736,0.039997417,0.002964467864785547,-0.006681622054975633,-0.008883469672071875,0.1426136328175449,-0.23779731182818106,-0.07061832732085488,0.9753453827983178,0.12288178120936755,0.16662976482563857,-0.0763935440660286
634.049999999752,-0.030231318,-0.9399597,0.12388384,-2.325644,-0.11216533,1.6961386,1.0941089,0.039997336,0.03999739,0.0027277097748523715,-0.006596105017286913,-0.008881840216901082,0.14242700072030004,-0.23818898358760957,-0.07013984524604862,0.974820639821779,0.12413239909701126,0.168505858353187,-0.07695221486437717
634.0666666664187,-0.03055006,-0.94159085,0.12518199,-2.3253226,-0.11334157,1.6974508,1.0973387,0.039997313,0.03999737,0.002298305267300904,-0.006494153278897852,-0.008972584228006397,0.14221997225512695,-0.2385508814808961,-0.06965350980014991,0.9742903877143324,0.1253814679062674,0.1703837081132897,-0.07750561220124987
634.0833333330853,-0.030868838,-0.94322205,0.12648018,-2.3250012,-0.11451783,1.6987629,1.1005687,0.03999729,0.039997347,0.0019136495943872234,-0.0064313338975510725,-0.008863338250342245,0.14199304681132674,-0.23888482503540098,-0.06915935794781869,0.9737546859530297,0.12662889664041377,0.1722630807857047,-0.07805360413437301
634.099999999752,-0.031187592,-0.9448533,0.12777834,-2.3246799,-0.115694,1.700075,1.1037984,0.039997265,0.03999732,0.0018576286664906405,-0.006485555239717222,-0.0088834175701491,0.14174535609275596,-0.2391909785468777,-0.06865803587773159,0.9732135790397299,0.12787442975953292,0.17414392325029138,-0.0785961435526599
634.1166666664186,-0.03150628,-0.94648415,0.12907621,-2.3243585,-0.116869956,1.701387,1.1070273,0.03999724,0.039997295,0.0012315525743211708,-0.006267628364908795,-0.008562546412904659,0.1414779651013349,-0.2394668497257571,-0.06814921983534941,0.9726671704329599,0.12911781463843638,0.1760258734324815,-0.07913316237372177
634.1333333330853,-0.031824872,-0.9481145,0.13037367,-2.324037,-0.118045524,1.7026987,1.1102554,0.039997213,0.039997272,0.0009806277430080002,-0.006221401855288633,-0.00866811328015249,0.14119246982796071,-0.23971277814644065,-0.06763419844699443,0.97211550257146,0.13035907414371795,0.17790874158954395,-0.07966455369017865
634.1499999997519,-0.032143336,-0.949744,0.13167053,-2.3237157,-0.1192206,1.7040095,1.1134821,0.03999718,0.039997235,0.00022768306799925142,-0.006018984110360559,-0.00860224002170451,0.14088552931446674,-0.23992874432232747,-0.06711128049108442,0.9715586958244316,0.1315980221274831,0.17979203224289994,-0.08019031289396598
634.1666666664186,-0.03246163,-0.9513727,0.13296665,-2.3233943,-0.12039498,1.7053196,1.1167068,0.039997146,0.0399972,0.00035251807832814563,-0.006030588283557903,-0.008640373846802163,0.14055834122495153,-0.2401164303519236,-0.06658321088950388,0.9709968048705936,0.132834318775681,0.1816757822570101,-0.08071033903907673
634.1833333330852,-0.032779697,-0.9530003,0.13426195,-2.3230731,-0.12156859,1.7066288,1.1199293,0.03999713,0.03999719,-0.0005876975526231121,-0.005959726231319351,-0.008535384205021757,0.14021284378976642,-0.24027364878048593,-0.06604938546606405,0.9704299327894066,0.13406783782171314,0.18355957160546166,-0.08122465192401912
634.1999999997519,-0.033097528,-0.9546266,0.13555607,-2.322752,-0.12274123,1.707937,1.1231492,0.039997105,0.039997164,-0.00046107585669474815,-0.00567097651288373,-0.008316912453332215,0.13984868389730284,-0.24040150621467984,-0.06550836851443861,0.9698581331934749,0.13529849631382268,0.18544331933368427,-0.08173306361682245
634.2166666664185,-0.033415064,-0.9562514,0.13684902,-2.322431,-0.12391279,1.7092439,1.1263661,0.039997075,0.039997134,-0.0014117462918683543,-0.005702433997413492,-0.008324853101870922,0.13946501356274524,-0.24049746981610798,-0.0649625734470228,0.9692815204243449,0.13652615166730034,0.18732657894695717,-0.08223561816400976
634.2333333330852,-0.033732273,-0.95787436,0.13814063,-2.3221104,-0.1250831,1.7105496,1.1295797,0.039997052,0.039997116,-0.0016696916321556898,-0.005655856728659092,-0.008035769816761018,0.13906200689798742,-0.2405634747120446,-0.06441222339673812,0.9687001814306824,0.13775051743146705,0.18920921766044935,-0.08273225124367631
634.2499999997518,-0.034049097,-0.9594955,0.13943066,-2.3217897,-0.12625201,1.7118536,1.1327894,0.039997034,0.039997093,-0.0016070207716545326,-0.005442430754365457,-0.008251638854606114,0.13864074521320652,-0.2405982958753542,-0.06385452767552735,0.968114197220698,0.13897150202715355,0.191091020801729,-0.08322286063932936
634.2666666664185,-0.034365516,-0.9611145,0.14071901,-2.32147,-0.12741943,1.713156,1.1359949,0.039997023,0.039997082,-0.003668170330284326,-0.005205053377935198,-0.00803208462361038,0.138200707165265,-0.24060193915407546,-0.06329367773553303,0.9675237283763701,0.14018893348094014,0.19297135949591857,-0.08370754071445163
634.2833333330851,-0.03468149,-0.96273136,0.14200555,-2.3211503,-0.12858519,1.7144563,1.1391958,0.039997015,0.039997075,-0.0023087444500191623,-0.005289921699917766,-0.008110308682440781,0.13774217381578274,-0.2405775541763586,-0.06272779506463678,0.9669288050277328,0.1414026144060953,0.19485039352960026,-0.08418616743932371
634.2999999997518,-0.034996983,-0.96434563,0.14329009,-2.3208315,-0.12974913,1.7157547,1.142392,0.039997004,0.039997064,-0.004440136666739036,-0.004991757561151333,-0.007699895621704478,0.13726562055248587,-0.240522289089255,-0.06215735204811319,0.9663295766223114,0.1426125623772417,0.19672749409055618,-0.084658723507928
634.3166666664184,-0.03531194,-0.9659572,0.1445725,-2.3205132,-0.13091114,1.7170509,1.1455827,0.039996997,0.039997056,-0.003948291625643918,-0.004972153247453925,-0.007774052555098443,0.13676985447925688,-0.240437625922059,-0.061583194520200245,0.9657261509363405,0.14381834598920573,0.19860257592361552,-0.0851252112544458
634.3333333330851,-0.03562634,-0.96756583,0.14585255,-2.3201954,-0.13207102,1.7183449,1.1487677,0.039996978,0.039997038,-0.004268749660152338,-0.004817520254568608,-0.007406512651786379,0.13625739478203466,-0.24032167491209025,-0.06100461171681865,0.965118594511534,0.14502000035021761,0.2004754906887011,-0.08558548743582954
634.3499999997517,-0.035940144,-0.96917146,0.14713016,-2.3198783,-0.13322866,1.7196362,1.1519462,0.039996967,0.039997026,-0.005091260038758705,-0.004643630481175609,-0.007715578140587986,0.13572649073211968,-0.2401752032831434,-0.06042334178506523,0.9645070884077936,0.14621711665122972,0.2023457562080325,-0.0860396777883365
634.3666666664184,-0.036253314,-0.9707738,0.1484051,-2.319562,-0.13438398,1.7209249,1.1551185,0.03999696,0.03999702,-0.005394188847995807,-0.004423820919660648,-0.0073370097285696545,0.1351802220268785,-0.23999839336456813,-0.059837609146857734,0.9638916718731612,0.14740990009689448,0.20421324968552151,-0.08648765750015831
634.383333333085,-0.036565803,-0.9723728,0.14967729,-2.3192463,-0.13553672,1.722211,1.1582836,0.039996948,0.039997008,-0.005543113220829454,-0.0045118454294793,-0.007122590575137089,0.13461488505790137,-0.23979162474982152,-0.059249243343937524,0.963272475942407,0.1485978763442458,0.20607787183358728,-0.08692939076230037
634.3999999997517,-0.03687756,-0.9739679,0.15094654,-2.3189313,-0.13668682,1.723494,1.1614416,0.039996937,0.039996997,-0.0063636207295658664,-0.004226749677160857,-0.007041177851574432,0.13403425763467328,-0.23955298244682016,-0.05865773146718888,0.9626496387498196,0.14978110894588112,0.20793909228393756,-0.08736490323875061
634.4166666664183,-0.037188575,-0.9755591,0.15221268,-2.3186173,-0.13783416,1.7247739,1.1645918,0.039996922,0.03999698,-0.007050029898669763,-0.003969313477153458,-0.006940877515337895,0.13343635790470104,-0.23928425867580974,-0.058064772565012114,0.9620232994509904,0.15095936930147993,0.20979660473169193,-0.0877942183551033
634.433333333085,-0.037498802,-0.97714627,0.15347558,-2.3183036,-0.13897854,1.7260505,1.1677341,0.03999691,0.03999697,-0.005941323556735156,-0.004116959629944794,-0.006807696329658164,0.13282167780365753,-0.23898742926037564,-0.05746788335638444,0.9613934739752883,0.15213260413636,0.21165063275175539,-0.08821716733265589
634.4499999997516,-0.037808195,-0.9787293,0.15473509,-2.3179903,-0.14011987,1.7273237,1.1708679,0.0399969,0.03999696,-0.006625036881091617,-0.003876370446993793,-0.006831891379022181,0.13219049604016528,-0.2386549628364752,-0.056869589420676006,0.9607603176658696,0.15330052032473682,0.21350084132051908,-0.08863381534252715
634.4666666664183,-0.038116716,-0.98030794,0.15599106,-2.317678,-0.14125799,1.7285932,1.1739929,0.039996892,0.03999695,-0.007949962689357548,-0.0036532399891084366,-0.006549966534952212,0.13154374319743473,-0.23829115126546285,-0.056269068108887176,0.9601239945165869,0.15446303386031263,0.21534673982965516,-0.08904419110149599
634.4833333330849,-0.038424328,-0.9818818,0.15724336,-2.317367,-0.14239272,1.729859,1.1771084,0.03999689,0.039996948,-0.00940918842520233,-0.003401181942885856,-0.006267010846272569,0.1308816567884052,-0.23789668523521013,-0.055666519140967624,0.9594847183136096,0.15561990320090832,0.2171877330964422,-0.08944836299688022
634.4999999997516,-0.038731012,-0.9834509,0.15849176,-2.3170574,-0.14352404,1.731121,1.1802145,0.03999688,0.03999694,-0.009008310053504331,-0.0031757735801357656,-0.006206039759693027,0.13020474479492655,-0.23747570934536488,-0.05506205738589674,0.9588425212089051,0.156771191164468,0.21902388803442507,-0.08984625541950954
634.5166666664182,-0.039036717,-0.9850151,0.1597362,-2.316749,-0.1446517,1.7323788,1.1833109,0.03999687,0.03999693,-0.009789591973063949,-0.0031286696306073725,-0.00614799161080537,0.12951136412640288,-0.23702243753973923,-0.054456731275331245,0.9581975589242836,0.15791674582206164,0.22085485075678238,-0.09023787651376668
634.5333333330849,-0.039341412,-0.98657405,0.16097647,-2.3164415,-0.14577566,1.7336327,1.1863967,0.03999687,0.03999693,-0.008893129817755252,-0.0030154556539263577,-0.005783395288672111,0.1288019891017087,-0.2365406595010018,-0.053850343025183815,0.9575499165581345,0.15905626266293493,0.22268071070611728,-0.09062319618413153
634.5499999997515,-0.03964505,-0.9881276,0.16221242,-2.3161347,-0.14689565,1.7348822,1.1894717,0.039996866,0.039996926,-0.009302290366397514,-0.002954097968481395,-0.005681903373799813,0.12807923154814693,-0.2360264425268621,-0.05324242108901927,0.9568997406759391,0.16018961478689475,0.2245011860311813,-0.09100214876221094
634.5666666664182,-0.039947607,-0.9896756,0.16344391,-2.3158286,-0.1480117,1.7361274,1.1925358,0.039996862,0.039996922,-0.00952088414427621,-0.002688881450009506,-0.005561514118435085,0.12734250205791361,-0.2354809320008892,-0.05263434706229803,0.9562471183146035,0.16131679211583205,0.22631612510913904,-0.09137479308900545
634.5833333330849,-0.040249042,-0.9912179,0.16467084,-2.3155234,-0.14912362,1.7373676,1.1955886,0.039996862,0.039996922,-0.01042756716813642,-0.002517850783829989,-0.005621723037885218,0.12659222714690038,-0.234901353541433,-0.052025047263150784,0.9555922205574315,0.16243774224397356,0.22812506760292234,-0.09174116543820127
634.5999999997515,-0.04054932,-0.99275404,0.16589303,-2.3152199,-0.15023123,1.7386031,1.1986295,0.039996862,0.039996922,-0.012310716112917675,-0.002200345316587249,-0.004907947197252405,0.12582616526654175,-0.2342924896874206,-0.051416200598783726,0.95493530393626,0.16355215318690355,0.2299273796875005,-0.09210134936107191
634.6166666664182,-0.040848386,-0.9942842,0.16711034,-2.3149176,-0.15133435,1.7398338,1.2016579,0.03999686,0.03999692,-0.01124031985448859,-0.002225802764874163,-0.005084847389347225,0.1250470646684577,-0.23365478370125,-0.050806961425752487,0.9542764190653034,0.16465977868703968,0.23172332116804942,-0.09245526337362121
634.6333333330848,-0.041146234,-0.99580806,0.16832261,-2.3146172,-0.15243295,1.7410591,1.204674,0.039996855,0.03999691,-0.013377636293121498,-0.0016627147342462845,-0.004980756823980137,0.12425610137887322,-0.23298650224472103,-0.05019659415786351,0.9536157873409911,0.16576085104787663,0.23351201508095723,-0.09280306679596391
634.6499999997515,-0.04144282,-0.9973255,0.16952966,-2.3143172,-0.15352687,1.7422794,1.2076774,0.039996855,0.03999691,-0.010589352462098134,-0.0019721207387385364,-0.004577597505650566,0.12345027048768512,-0.23229200793256155,-0.0495877371678018,0.9529533431770116,0.16685511459906832,0.23529428384763765,-0.09314449231444613
634.6666666664181,-0.041738097,-0.99883616,0.17073143,-2.314018,-0.15461601,1.7434945,1.2106683,0.03999686,0.039996915,-0.011601912390002411,-0.0017865133873626315,-0.004382380397172092,0.12263221232133419,-0.2315632873823103,-0.048979223689142315,0.9522892217254486,0.16794277769618426,0.237069678280492,-0.09347956592332604
634.6833333330848,-0.042032037,-1.0003401,0.17192774,-2.3137205,-0.15570022,1.7447035,1.2136449,0.039996862,0.03999692,-0.013887380578703201,-0.0012226726674863242,-0.004646225818683014,0.12179863076625985,-0.23079946995758222,-0.048373409361576115,0.9516238427989238,0.16902302242160336,0.23883720780756879,-0.0938086769694537
634.6999999997514,-0.042324606,-1.0018369,0.17311847,-2.3134246,-0.15677935,1.7459074,1.2166071,0.039996866,0.039996922,-0.013839545514793272,-0.0012721305875457167,-0.003623901671945262,0.12095550501357666,-0.2300095956929092,-0.047766564140107035,0.9509572443452833,0.17009584065715394,0.24059707470915145,-0.09413167405161914
634.7166666664181,-0.04261577,-1.0033267,0.17430344,-2.3131306,-0.15785329,1.7471051,1.2195561,0.039996874,0.03999693,-0.01480733912884169,-0.0007790793302236976,-0.004185619096519488,0.12010292344804019,-0.22919099741678994,-0.047159764174487195,0.9502895193736283,0.17116191823943186,0.2423487217559814,-0.09444852659771145
634.7333333330847,-0.04290551,-1.004809,0.17548253,-2.3128378,-0.15892196,1.748297,1.2224902,0.039996885,0.03999694,-0.013707347525437896,-0.0008597078689817628,-0.003617464741756393,0.11923294411810745,-0.22834485995409676,-0.0465563546737795,0.9496208244138921,0.17222044894396843,0.24409236098947845,-0.0947593062004996
634.7499999997514,-0.04319378,-1.006284,0.17665559,-2.312546,-0.15998513,1.749483,1.2254093,0.0399969,0.039996956,-0.013335067357944652,-0.000851395240471231,-0.0035446528020788293,0.1183531218481462,-0.22746755880572822,-0.045953633145834,0.9489512342304536,0.17327141569780988,0.2458280398729814,-0.09506390675110872
634.766666666418,-0.043480534,-1.0077512,0.17782255,-2.3122559,-0.1610428,1.7506627,1.2283131,0.039996915,0.03999697,-0.015331405170604384,-0.00040467276382349926,-0.003261375483476492,0.11746311176213772,-0.2265567350244868,-0.04535261190468487,0.9482810074947997,0.17431477421720865,0.24755498718318153,-0.09536256411708909
634.7833333330847,-0.043765746,-1.0092105,0.1789832,-2.3119676,-0.16209474,1.7518361,1.2312009,0.039996915,0.03999697,-0.016080110915206447,-0.0001496444136481201,-0.002882234393952743,0.11656222770991594,-0.22561760525538666,-0.04475285710452326,0.9476103533152097,0.1753502545297012,0.2492728793722026,-0.09565530897803837
634.7999999997513,-0.044049397,-1.0106612,0.18013747,-2.3116813,-0.16314092,1.7530031,1.2340732,0.039996922,0.039996978,-0.016617041640687447,1.04099080730502e-05,-0.002293716052892414,0.11565166561818341,-0.224652744758022,-0.04415452481977608,0.946939380038749,0.17637804343067565,0.2509814727338652,-0.09594215273661781
634.816666666418,-0.044331435,-1.0121043,0.18128516,-2.311396,-0.16418117,1.7541635,1.236929,0.039996937,0.039996993,-0.014357600146386318,-1.447999582737669e-06,-0.0031968480139088484,0.1147299379109771,-0.22366112283127967,-0.04355850462431651,0.9462680793278114,0.17739792003087873,0.25268129974764464,-0.09622297424115396
634.8333333330846,-0.04461185,-1.0135393,0.1824262,-2.3111124,-0.16521533,1.755317,1.2397681,0.039996948,0.039997004,-0.016563630681032393,0.0003698692463680042,-0.0028454116223208814,0.1137978958418564,-0.22263633633434288,-0.042963883604705835,0.9455967371227781,0.17840972665924845,0.25437161859859275,-0.09649797836048132
634.8499999997513,-0.0448906,-1.014965,0.18356046,-2.3108304,-0.16624339,1.7564634,1.2425904,0.03999696,0.039997015,-0.0171502990888861,0.000554153939885671,-0.0015548686586264182,0.11285746995956329,-0.22158250370964233,-0.04237210976261752,0.944925560297799,0.179413464357308,0.2560519420767027,-0.09676723237722872
634.8666666664179,-0.045167647,-1.0163822,0.1846878,-2.3105502,-0.16726515,1.757603,1.2453952,0.039996967,0.039997023,-0.017190323357985093,0.0007269061866932436,-0.0019470218733275146,0.11190763266828173,-0.22050285022817742,-0.04178338703444233,0.9442546472960407,0.18040886592877714,0.2577224071331176,-0.09703073232555712
634.8833333330846,-0.04544297,-1.0177913,0.18580803,-2.310272,-0.16828053,1.7587354,1.2481831,0.03999698,0.039997038,-0.016994026063565926,0.00105250884467889,-0.0025448052519250197,0.11094904117882168,-0.21939603208586655,-0.04119499731884643,0.9435839987371034,0.18139641187534872,0.25938301156649807,-0.09728839805825135
634.8999999997512,-0.04571652,-1.0191901,0.18692106,-2.309995,-0.16928944,1.7598606,1.2509527,0.039997,0.039997056,-0.017889934811154973,0.001077001415288048,-0.0003274373610251402,0.10997869778474369,-0.21825788082437975,-0.04061167026396765,0.9429140346023309,0.1823753002365779,0.26103301084255737,-0.09754045552508724
634.9166666664179,-0.04598828,-1.0205805,0.18802685,-2.3097198,-0.17029174,1.7609786,1.2537038,0.03999701,0.039997067,-0.01732965691068067,0.00123396687048416,-0.002058533278237462,0.109002353473591,-0.21709527845435117,-0.04003035285455022,0.9422446980734517,0.18334560855736118,0.26267287628706343,-0.0977868950232182
634.9333333330845,-0.04625821,-1.0219612,0.18912515,-2.3094468,-0.17128728,1.7620889,1.2564366,0.039997045,0.039997097,-0.01950195607163252,0.0017464118691190578,-0.000641130721312777,0.10801854508415071,-0.2159019944752738,-0.03945025999527286,0.9415763206388446,0.18430746887890304,0.26430160354578747,-0.0980278108028201
634.9499999997512,-0.046526294,-1.0233328,0.1902159,-2.3091757,-0.17227602,1.7631916,1.2591506,0.03999706,0.039997116,-0.01834108375176058,0.0017893742548555358,-0.0012632422969671708,0.10702681023422418,-0.21468515089064177,-0.03887533502256049,0.940908898733506,0.18526078517617997,0.26591959464302833,-0.09826319221811301
634.9666666664178,-0.046792503,-1.0246944,0.191299,-2.3089058,-0.17325778,1.7642866,1.2618456,0.039997067,0.03999712,-0.018067721039294327,0.0017154275707045863,-0.00029253986992827663,0.10602669205699151,-0.21344032365063237,-0.03830254521955068,0.9402426078361332,0.18620538192968228,0.26752666841318945,-0.09849302430968335
634.9833333330845,-0.0470568,-1.0260469,0.19237432,-2.308638,-0.17423256,1.7653737,1.2645214,0.03999709,0.03999714,-0.019168416955306355,0.0022880520110318825,-0.0010257571560146062,0.1050199677482683,-0.21216656912769016,-0.03773239926143436,0.939577571866317,0.18714136222112757,0.2691225738081405,-0.09871746177196158
634.9999999997511,-0.04731917,-1.0273888,0.1934417,-2.3083732,-0.17520021,1.766453,1.2671776,0.039997112,0.039997164,-0.021743383582828457,0.0027002815978227623,0.0006904775543326025,0.10400490209847951,-0.2108647092176704,-0.03716688456482769,0.9389141552761465,0.18806856191842497,0.27070640437173377,-0.09893668516856144
635.0166666664178,-0.04757956,-1.0287211,0.19450115,-2.3081098,-0.17616057,1.767524,1.2698138,0.039997138,0.039997187,-0.01864633751922362,0.0023275176887202487,-0.0005765862219675455,0.10298220129775601,-0.2095427223740315,-0.036603735140858275,0.9382522822061438,0.18898684004128027,0.2722788882831585,-0.09915057348024577
635.0333333330844,-0.047837954,-1.0300432,0.1955524,-2.307848,-0.17711355,1.7685869,1.27243,0.03999715,0.039997198,-0.019447034881636682,0.002744966509031499,0.00020763185490935143,0.1019542015924865,-0.20819209024005308,-0.036044397759879394,0.9375921111651131,0.18989627049707747,0.2738397474001329,-0.09935910766546939
635.0499999997511,-0.048094336,-1.0313549,0.1965954,-2.3075886,-0.17805909,1.7696412,1.2750254,0.03999717,0.039997216,-0.02144037428277734,0.003200674116243807,0.0006040081822700216,0.10091887081547377,-0.20681204865921324,-0.03548926323401275,0.9369339761571889,0.19079661214652577,0.27538820110089574,-0.09956262255536022
635.0666666664177,-0.048348665,-1.032656,0.19763006,-2.3073323,-0.17899702,1.7706875,1.2776003,0.0399972,0.039997246,-0.022560525371462248,0.003406471281527934,0.0013079216074185496,0.09987843303327584,-0.20541143212550944,-0.03493805726908028,0.9362779968545241,0.19168797534924598,0.2769241038277118,-0.09976108174937517
635.0833333330844,-0.04860092,-1.0339464,0.19865628,-2.307077,-0.17992732,1.7717247,1.2801538,0.039997235,0.03999728,-0.019262134687281218,0.003183271650200603,0.0004997236202841648,0.09883151318100272,-0.20398917306059866,-0.03439083579293259,0.9356242059042265,0.192570044797882,0.27844788428994766,-0.09995448417694525
635.099999999751,-0.048851084,-1.035226,0.19967392,-2.3068233,-0.18084991,1.7727536,1.2826859,0.039997265,0.03999731,-0.020406330940625494,0.0034798366971830474,0.0013786600333354215,0.09778084706131081,-0.20254010912593842,-0.03384672535101169,0.9349727261645222,0.19344287513162634,0.27995939911792056,-0.10014284914473058
635.1166666664177,-0.049099118,-1.0364946,0.20068295,-2.306572,-0.18176459,1.7737738,1.2851964,0.0399973,0.03999734,-0.022111949210446014,0.0037779714043423285,0.0016046795630275668,0.09672548074873172,-0.20106332085080364,-0.033305838828992906,0.9343238220688601,0.1943064379338583,0.28145804302562144,-0.10032633606526349
635.1333333330844,-0.04934499,-1.0377524,0.20168321,-2.3063233,-0.1826714,1.7747849,1.2876853,0.039997328,0.03999737,-0.02261868071440354,0.004262210594013771,0.0015000222200356461,0.09566585905988273,-0.19956427579295702,-0.03276977783779994,0.9336776320649286,0.1951608108911213,0.28294357214836613,-0.10050508571147004
635.149999999751,-0.04958869,-1.0389991,0.20267457,-2.3060765,-0.18357015,1.7757874,1.2901524,0.039997373,0.039997414,-0.021369124355219427,0.0041196227625966975,0.001923164268635702,0.09460048484413955,-0.19804428618063116,-0.0322366242777158,0.9330341685389808,0.19600600177514238,0.28441632118179005,-0.10067891463614739
635.1666666664177,-0.04983019,-1.0402346,0.20365693,-2.3058324,-0.18446085,1.7767807,1.2925969,0.039997417,0.03999746,-0.02301259156713975,0.004662700159099864,0.002163990705428276,0.09353010490704472,-0.19649753666099926,-0.03170999964942199,0.9323937461209398,0.1968416795898944,0.28587567386600454,-0.10084817530549371
635.1833333330843,-0.05006947,-1.0414587,0.20463023,-2.3055909,-0.18534327,1.7777647,1.2950189,0.03999745,0.03999749,-0.02340367977056168,0.004775910361762281,0.0022618875506585923,0.09245710989416508,-0.19493117723067704,-0.031186106230192266,0.9317565122893583,0.1976679871380298,0.2873213713173417,-0.1010128618122113
635.199999999751,-0.050306518,-1.0426713,0.20559442,-2.3053508,-0.18621743,1.7787397,1.2974181,0.0399975,0.039997537,-0.021159590195196643,0.0044861761580083925,0.002630469609132824,0.09137912814173738,-0.19334421637398447,-0.030666997804291683,0.9311224129744238,0.19848477015682203,0.2887540456982728,-0.10117286773320257
635.2166666664176,-0.050541274,-1.0438725,0.20654932,-2.3051133,-0.18708324,1.7797048,1.2997943,0.03999753,0.039997566,-0.023803078222472962,0.005337909950228759,0.0024421397080587326,0.09029929531391699,-0.1917305212568015,-0.030151218098245832,0.9304917887589603,0.19929214328192385,0.29017272065833627,-0.10132849976184712
635.2333333330843,-0.05077375,-1.0450618,0.20749487,-2.3048787,-0.18794058,1.7806607,1.3021473,0.039997563,0.0399976,-0.024203434861913564,0.0053784261362349595,0.003373384337868046,0.0892150204785846,-0.19009767637171826,-0.02964097274868683,0.9298647659604935,0.20008996584111835,0.2915773997700709,-0.10147976418114596
635.2499999997509,-0.05100391,-1.0462395,0.20843104,-2.3046455,-0.18878941,1.781607,1.304477,0.039997596,0.039997634,-0.021740039971041014,0.005137320913722876,0.0028337556749136183,0.08812803957018317,-0.18844608094668192,-0.029134597497779125,0.9292412872917645,0.20087830181602032,0.29296856572405194,-0.1016265582879216
635.2666666664176,-0.051231727,-1.0474054,0.20935766,-2.3044147,-0.1896296,1.7825439,1.3067827,0.03999762,0.039997656,-0.023481111724210635,0.005608488927727473,0.00343556330184569,0.08703813828838959,-0.18676830341153638,-0.02863348938234382,0.928621628780634,0.20165689250091715,0.2943457560395838,-0.10176907275376801
635.2833333330842,-0.05145718,-1.0485591,0.21027474,-2.3041868,-0.19046111,1.783471,1.3090645,0.039997656,0.03999769,-0.024946812203197055,0.005958958715768237,0.003898377789779417,0.08594683024737168,-0.18507057819412748,-0.02813546147691726,0.9280060252478491,0.20242581529576478,0.295708408949052,-0.10190752318820018
635.2999999997509,-0.05168027,-1.0497003,0.21118215,-2.3039608,-0.1912839,1.7843884,1.3113226,0.03999769,0.039997723,-0.02348051787843808,0.005882554068159518,0.0042582453445350055,0.08485354953430173,-0.18335670545946053,-0.02764219771900261,0.9273944612614273,0.20318521000492323,0.2970568348933999,-0.10204175860890294
635.3166666664175,-0.051900968,-1.0508294,0.21207976,-2.303737,-0.1920978,1.785296,1.3135566,0.03999773,0.03999776,-0.02358803580500002,0.0061503823885811215,0.0038393929445712516,0.08375789206566506,-0.18161997161469828,-0.027153350372197377,0.9267870501023653,0.20393503845208108,0.2983909846412304,-0.10217183632949567
635.3333333330842,-0.05211924,-1.051946,0.21296756,-2.3035164,-0.1929028,1.7861936,1.3157656,0.03999777,0.0399978,-0.02626325323937806,0.00667926077359271,0.004780420340977365,0.08265968613005312,-0.17986207394020692,-0.026670298949699456,0.9261841825364875,0.20467496304888866,0.29971003541389535,-0.10229816319150739
635.3499999997508,-0.052335083,-1.0530504,0.21384542,-2.3032975,-0.19369876,1.7870812,1.3179498,0.039997816,0.039997842,-0.023034689898304705,0.006330661227813006,0.004208603352617857,0.08156088025185398,-0.17809159272691355,-0.026190642715144843,0.9255857183258981,0.20540504855018227,0.301014773179388,-0.10242045883996943
635.3666666664175,-0.052548476,-1.0541422,0.21471332,-2.3030813,-0.19448574,1.7879587,1.3201096,0.039997853,0.039997876,-0.025082333466608375,0.006831972276236109,0.004782874412123661,0.08046313266285197,-0.1762992926198224,-0.025715238083593567,0.9249918395788583,0.206125638761892,0.3023046272866072,-0.10253891982377754
635.3833333330841,-0.052759394,-1.0552212,0.21557117,-2.3028681,-0.19526362,1.7888262,1.3222444,0.039997894,0.039997913,-0.026251810267607922,0.007157621767983624,0.005489807808944924,0.07936200035337196,-0.17448934805503874,-0.025245560812306316,0.9244028121519038,0.20683645661869343,0.303579201733946,-0.1026537353127286
635.3999999997508,-0.052967835,-1.0562874,0.21641892,-2.302657,-0.1960323,1.7896831,1.3243539,0.039997935,0.039997954,-0.024319952824392033,0.006969835160444693,0.004922919851968466,0.07826073560836692,-0.1726653005607009,-0.024781231219020178,0.9238186429614413,0.20753748969838448,0.304838793707926,-0.10276485360895797
635.4166666664174,-0.05317378,-1.0573409,0.21725644,-2.3024485,-0.19679177,1.7905298,1.3264381,0.039997976,0.039997995,-0.0257466760767322,0.007482278662851449,0.005537549998346769,0.07715962745416095,-0.17082228920987574,-0.024321648333510918,0.9232394928888736,0.2082287405018485,0.30608315765946487,-0.10287240152985817
635.4333333330841,-0.0533772,-1.0583816,0.21808371,-2.302243,-0.19754192,1.7913662,1.3284967,0.039998017,0.039998032,-0.025905493886035913,0.007576597706976385,0.005567860103172784,0.07605778171471343,-0.16896645303263447,-0.02386579951245664,0.9226654889927879,0.2089102188560924,0.30731216230353064,-0.10297645740424259
635.4499999997507,-0.053578082,-1.059409,0.21890065,-2.3020391,-0.19828276,1.7921921,1.3305297,0.039998066,0.039998077,-0.024251608072933806,0.0074336002534231005,0.005849691544157487,0.07495552369183599,-0.16709388984959922,-0.023414079303939357,0.9220966537149611,0.20958189612797312,0.3085260593663498,-0.10307696500647509
635.4666666664174,-0.053776424,-1.0604239,0.21970722,-2.3018389,-0.19901416,1.7930075,1.3325367,0.039998103,0.03999811,-0.027161768809325082,0.008134379335461572,0.005860619147979307,0.07385410664269666,-0.16520519252456306,-0.0229682887215257,0.9215332642082612,0.21024374585169275,0.3097242124030137,-0.1031742338922303
635.483333333084,-0.053972196,-1.0614252,0.22050339,-2.301641,-0.19973615,1.7938125,1.3345178,0.03999815,0.03999816,-0.025719064239515532,0.007897148865693149,0.006634288841089742,0.07275411774840806,-0.16330314092358464,-0.022527183633508994,0.9209753461087394,0.2108957795256351,0.3109068377423134,-0.10326819589417206
635.4999999997507,-0.054165397,-1.0624137,0.22128902,-2.301445,-0.20044865,1.7946068,1.336473,0.039998192,0.039998192,-0.024444041523707938,0.00803044460171709,0.005832479657641443,0.07165368736524394,-0.16138909333075965,-0.022089439158903896,0.9204228740624437,0.21153809115538108,0.31207423588888344,-0.10335879346885839
635.5166666664173,-0.05435601,-1.063389,0.22206418,-2.3012521,-0.20115158,1.7953906,1.3384019,0.039998233,0.039998233,-0.0268636465668326,0.008358749833867196,0.006792833008684163,0.07055587516302717,-0.15945497526140112,-0.021658563731103926,0.9198761417629272,0.2121705740318991,0.3132257860124679,-0.10344630639707307
635.533333333084,-0.05454402,-1.0643508,0.2228287,-2.3010619,-0.20184489,1.7961637,1.3403044,0.039998274,0.03999827,-0.02622859496792529,0.00855562513053243,0.0068197470268982485,0.06945844512214902,-0.15751030961616752,-0.021231394025883733,0.9193352339190723,0.21279322782306265,0.31436150564601195,-0.10353073763660241
635.5499999997506,-0.05472942,-1.0652994,0.22358263,-2.3008735,-0.20252866,1.7969255,1.3421801,0.039998323,0.039998315,-0.025180906550703597,0.00850757661349233,0.00653003675992192,0.06836284792873326,-0.15555459344092315,-0.020809053323039204,0.9188001972124397,0.21340600510912616,0.3154815099907476,-0.10361221665278396
635.5666666664173,-0.054912206,-1.0662344,0.22432587,-2.3006887,-0.20320274,1.7976775,1.3440298,0.03999836,0.039998353,-0.02767880553835589,0.008919041074945122,0.008003996266969793,0.0672698912036235,-0.15358506844243128,-0.020391587040923927,0.9182711694333784,0.21400912660567825,0.3165855162629333,-0.10369071322670484
635.5833333330839,-0.055092353,-1.0671561,0.22505839,-2.300506,-0.20386703,1.798418,1.3458529,0.039998405,0.03999839,-0.025655310597150205,0.00884181511831561,0.006626121478103819,0.0661777801029389,-0.15160446912372572,-0.019977869027663436,0.9177482034446882,0.21460258742030786,0.31767360705973186,-0.103766294740707
635.5999999997506,-0.05526987,-1.0680643,0.2257802,-2.3003259,-0.20452166,1.7991478,1.3476491,0.039998464,0.039998442,-0.02584445245692457,0.008944282276723836,0.007411892075093185,0.06508628770217532,-0.14961338909445754,-0.01956988860913736,0.9172313733643793,0.2151862304687804,0.31874588522574787,-0.10383908023661352
635.6166666664172,-0.05544472,-1.0689589,0.2264912,-2.300149,-0.20516649,1.7998666,1.3494183,0.03999851,0.039998483,-0.02805130070346884,0.009525525381945399,0.007917277598723516,0.06399934165713456,-0.14760961832349495,-0.01916751445165425,0.9167209900657713,0.21576007533838693,0.3198016112502365,-0.10390931481132122
635.6333333330839,-0.055616915,-1.0698396,0.22719137,-2.2999744,-0.20580152,1.8005743,1.3511605,0.03999855,0.039998524,-0.02633275910564059,0.00927141025120759,0.007955133794301794,0.06291449867885049,-0.14560019344257824,-0.01876862900206221,0.9162169886813581,0.21632417541156299,0.32084121910508523,-0.1039768864091152
635.6499999997505,-0.055786442,-1.0707073,0.22788072,-2.299803,-0.2064267,1.8012711,1.3528761,0.039998595,0.03999856,-0.02679253004176374,0.009556008025954355,0.007378372913047215,0.06183226474505195,-0.143582508389559,-0.01837368993365673,0.9157193733172223,0.21687874080449074,0.3218647771259357,-0.10404184910046373
635.6666666664172,-0.05595329,-1.0715609,0.22855921,-2.2996345,-0.20704201,1.801957,1.3545644,0.03999864,0.0399986,-0.027465735831677662,0.009614896022833164,0.008796467532179442,0.06075165408040959,-0.14155426452322922,-0.01798497077434602,0.9152284130229976,0.21742352164645193,0.32287186687503205,-0.1041043794030385
635.6833333330839,-0.05611748,-1.0724005,0.22922677,-2.2994678,-0.20764749,1.802632,1.3562255,0.03999868,0.03999864,-0.025506911642025898,0.009554019798271862,0.008319875039508595,0.05967603206242394,-0.13952068667704803,-0.01760097798635288,0.9147440249170258,0.21795854215881064,0.3238629661903255,-0.10416439847188538
635.6999999997505,-0.056278978,-1.0732268,0.2298834,-2.2993045,-0.20824306,1.8032959,1.3578595,0.03999872,0.039998673,-0.027485613306943435,0.010048911787510773,0.008030707042760987,0.058604154007474325,-0.1374786745033934,-0.017220925723246357,0.9142663430745414,0.21848402538640302,0.3248377123445982,-0.10422209559775163
635.7166666664172,-0.056437787,-1.0740395,0.23052908,-2.2991438,-0.2088287,1.8039485,1.3594664,0.039998766,0.039998714,-0.026707353810495604,0.00998274494672935,0.008406226770274472,0.05753548189085542,-0.13542967897910355,-0.016846465590073634,0.9137954255933294,0.21899999616231713,0.3257961514576915,-0.10427746420472704
635.7333333330838,-0.05659391,-1.0748379,0.23116381,-2.2989855,-0.2094044,1.8045902,1.3610463,0.039998814,0.039998762,-0.02658800425385799,0.009944986334117778,0.009085604708980455,0.056469712790183285,-0.13337398018736119,-0.01647727962694112,0.9133313565350696,0.2195064373118485,0.32673827345577666,-0.1043305219368098
635.7499999997505,-0.056747325,-1.0756228,0.23178755,-2.2988305,-0.20997015,1.8052211,1.3625987,0.03999886,0.039998807,-0.02762948926608999,0.010364037967111606,0.008891283402934214,0.0554087553360503,-0.13131276135653908,-0.016113635129538312,0.9128742647453131,0.2200032177410685,0.32766395187894815,-0.1043814906405841
635.7666666664171,-0.056898035,-1.0763942,0.23240034,-2.2986774,-0.21052597,1.8058406,1.3641235,0.039998904,0.03999885,-0.025172299041997803,0.009978030789914438,0.00821118447056346,0.05435295523146415,-0.1292477233991698,-0.01575532540910747,0.9124240460422778,0.22049037978496663,0.3285736854366946,-0.10443029189209721
635.7833333330838,-0.05704604,-1.0771513,0.23300213,-2.2985275,-0.21107182,1.8064489,1.3656209,0.039998963,0.03999891,-0.02810123111407492,0.010593495557764676,0.009680033856085402,0.05330299340719377,-0.12717482313118456,-0.015400417788880029,0.9119810372220499,0.22096803173875992,0.32946659657663757,-0.10447716706103576
635.7999999997504,-0.057191364,-1.0778947,0.23359299,-2.298381,-0.21160768,1.8070462,1.3670906,0.039999004,0.03999896,-0.02829660308747428,0.010680196840717748,0.009340611051422698,0.05225846784697136,-0.1251030098302876,-0.015051965760951583,0.9115452725326397,0.22143610719053444,0.3303427963184166,-0.10452226306498849
635.8166666664171,-0.057333976,-1.0786245,0.23417284,-2.2982361,-0.21213359,1.8076322,1.3685333,0.03999906,0.039999023,-0.024275657482197843,0.010125709484537504,0.008573181653992457,0.051219916629804525,-0.12303223713145688,-0.014707212954150662,0.9111164408640973,0.22189488563357984,0.33120328355136824,-0.10456517528122158
635.8333333330837,-0.05747389,-1.0793403,0.23474161,-2.298095,-0.21264951,1.8082074,1.369949,0.039999105,0.039999083,-0.02875317119759302,0.011094800569316776,0.010005955872260941,0.05018820797229805,-0.12095159052676353,-0.014370318767498065,0.9106949287764291,0.22234450278023304,0.33204697572014497,-0.10460628422523746
635.8499999997504,-0.057611104,-1.0800427,0.23529942,-2.2979565,-0.2131555,1.8087715,1.3713372,0.039999157,0.039999157,-0.026227363424258243,0.010644694801933974,0.009087943486751904,0.04916033913846704,-0.1188743984294155,-0.014040553729950028,0.9102806356048363,0.22278469775160742,0.3328745123115447,-0.10464560164637288
635.866666666417,-0.057745613,-1.0807309,0.2358463,-2.2978194,-0.21365154,1.8093244,1.3726976,0.039999213,0.039999247,-0.02481915218104369,0.010316646114119643,0.009543556906144168,0.04814066101511646,-0.11679383537103037,-0.013716644504159256,0.9098736108471247,0.223215331846136,0.3336860401383581,-0.1046831148257278
635.8833333330837,-0.05787744,-1.081405,0.23638219,-2.2976859,-0.21413761,1.8098663,1.3740313,0.03999926,0.039999343,-0.028457546749871554,0.01118581564456822,0.0103235436905047,0.04713261725568957,-0.11470965168369518,-0.01340102668376568,0.9094740331892673,0.22363700050356852,0.33448080405165725,-0.10471898911454017
635.8999999997503,-0.05800656,-1.0820656,0.23690712,-2.2975552,-0.2146138,1.8103969,1.3753375,0.039999317,0.03999945,-0.02686049182276662,0.011039215378516598,0.00949404705112844,0.04612775673041,-0.11262956194928882,-0.013090863667195893,0.9090819010886408,0.22404938201478655,0.33525916208194845,-0.10475335685296386
635.916666666417,-0.05813299,-1.0827122,0.23742114,-2.2974262,-0.21508001,1.8109168,1.3766167,0.03999936,0.03999957,-0.024664515927641517,0.01047531749927555,0.009858611189206279,0.04513358461400194,-0.11055301652664189,-0.012789970779962854,0.9086970326558991,0.22445264420891003,0.3360217722734741,-0.10478588601613206
635.9333333330836,-0.058256753,-1.0833454,0.23792422,-2.297301,-0.21553636,1.8114253,1.3778685,0.0399994,0.0399997,-0.028321675222242604,0.011562486963004326,0.00974011998655655,0.044146986710090326,-0.10847225754223824,-0.012494964803657242,0.90831977500882,0.2248467968557313,0.3367676745551001,-0.10481716293810998
