rsonawane2002/My_IMU/logs_2/traj_299/imu_299.csv
time,j1,j2,j3,j4,j5,j6,j7,gripper1,gripper2,imu_ax,imu_ay,imu_az,imu_gx,imu_gy,imu_gz
531.4333333331787,0.00016700293,-0.785875,4.0107683e-05,-2.3551247,9.29385e-05,1.570997,0.786,0.04,0.04,-9.524207,-0.0038030771538615227,0.114826776,1.0754846e-07,-0.0011641276068985462,-3.5786293e-08
531.4499999998453,0.0001670066,-0.78576016,4.0115578e-05,-2.3552213,9.2983544e-05,1.5709941,0.786,0.04,0.04,-9.83441,0.0006423348095268011,0.00908511,8.433641e-08,-0.0022387136705219746,1.5043212e-06
531.466666666512,0.00016701635,-0.7856543,4.0129544e-05,-2.35531,9.309145e-05,1.5709913,0.786,0.04,0.04,-9.832563,0.000675175164360553,0.0075805862,1.5549435e-06,-0.0032348493114113808,5.469228e-06
531.4833333331786,0.00016704298,-0.78555703,4.016061e-05,-2.355391,9.337009e-05,1.5709884,0.786,0.04,0.04,-9.830895,0.0007412984850816429,0.0062325443,5.4735365e-06,-0.004162459168583155,1.518032e-05
531.4999999998453,0.0001671022,-0.78546757,4.0224604e-05,-2.3554652,9.397599e-05,1.5709856,0.786,0.04,0.04,-9.829299,0.0008425777778029442,0.0050434526,1.29998225e-05,-0.005030082538723946,3.3125743e-05
531.5166666665119,0.00016721412,-0.7853855,4.0341445e-05,-2.355532,9.512504e-05,1.5709859,0.786,0.04,0.03999999,-9.828091,0.0009787083836272359,0.0039159064,2.5893065e-05,-0.005850337911397219,6.307535e-05
531.5333333331786,0.00016740336,-0.78531027,4.0535528e-05,-2.3555937,9.701981e-05,1.5709865,0.7860019,0.04,0.039999995,-9.826812,0.0011261670151725411,0.0028480762,4.512825e-05,-0.006613544654101133,0.000103153005
531.5499999998452,0.00016769773,-0.7852414,4.0834286e-05,-2.3556514,9.994025e-05,1.5709873,0.7860038,0.04,0.039999995,-9.825947,0.001312568667344749,0.0019675517,6.322964e-05,-0.0073490142822265625,0.00015836704
531.5666666665119,0.00016812852,-0.7851786,4.1268595e-05,-2.3557022,0.00010417087,1.5709883,0.78600574,0.04,0.04,-9.82536,0.001514417352154851,0.0011680699,9.030269e-05,-0.008070385083556175,0.00022811393
531.5833333331785,0.00016872949,-0.7851215,4.187158e-05,-2.3557484,0.00011005469,1.5709927,0.78600955,0.04,0.04,-9.82451,0.0017725389916449785,0.00045626564,0.0001279788,-0.008770473301410675,0.0003173189
531.5999999998452,0.00016953729,-0.78506976,4.2679145e-05,-2.3557909,0.00011793681,1.5709975,0.78601336,0.04,0.04,-9.823953,0.0020365132950246334,-0.00021700212,0.00016834239,-0.009450736455619335,0.0004245078
531.6166666665118,0.0001705907,-0.7850232,4.372944e-05,-2.355827,0.00012818667,1.5710057,0.7860191,0.04,0.04,-9.823691,0.002340999897569418,-0.0007278344,0.00022212874,-0.010135938413441181,0.00055145356
531.6333333331785,0.00017193049,-0.78498155,4.5062377e-05,-2.3558614,0.00014119255,1.5710143,0.7860267,0.04,0.04,-9.823078,0.0026815440505743027,-0.0012184575,0.0002811978,-0.010803802870213985,0.00069914403
531.6499999998451,0.00017359912,-0.78494465,4.6719582e-05,-2.355889,0.00015735188,1.5710267,0.78603625,0.04,0.04,-9.823198,0.003046995960175991,-0.0015352234,0.00034729752,-0.011495217680931091,0.00086765987
531.6666666665118,0.00017564037,-0.7849123,4.8743834e-05,-2.3559136,0.00017709791,1.5710428,0.7860476,0.039999995,0.039999995,-9.822701,0.0034645020496100187,-0.0018359415,0.0004219288,-0.012177861295640469,0.0010601453
531.6833333331784,0.00017809938,-0.7848844,5.1179573e-05,-2.3559332,0.0002008508,1.5710626,0.7860609,0.03999999,0.03999999,-9.822719,0.003907873295247555,-0.0020124859,0.0005063346,-0.012871574610471725,0.0012747954
531.6999999998451,0.0001810226,-0.7848609,5.40721e-05,-2.3559487,0.00022903949,1.5710856,0.7860762,0.039999988,0.039999995,-9.822567,0.004391958937048912,-0.0020850627,0.00060150033,-0.013573914766311646,0.0015113532
531.7166666665117,0.00018445707,-0.7848418,5.7467496e-05,-2.3559604,0.0002621232,1.5711126,0.7860945,0.03999998,0.039999988,-9.82263,0.004937811754643917,-0.0020189376,0.00070843205,-0.014295090921223164,0.0017735874
531.7333333331784,0.00018845056,-0.7848267,6.141248e-05,-2.3559675,0.00030055607,1.5711441,0.7861157,0.039999977,0.039999984,-9.822747,0.005522820167243481,-0.0018580622,0.0008240426,-0.015036975033581257,0.0020601966
531.749999999845,0.00019305153,-0.78481585,6.595447e-05,-2.3559713,0.0003447979,1.5711794,0.78614014,0.039999973,0.03999998,-9.82279,0.006151038687676191,-0.0016041043,0.0009496307,-0.015798810869455338,0.002371474
531.7666666665117,0.0001983087,-0.78480935,7.114132e-05,-2.3559694,0.00039531308,1.5712202,0.78616804,0.03999997,0.039999977,-9.823139,0.006857931148260832,-0.00120682,0.0010848799,-0.01659209281206131,0.002707667
531.7833333331783,0.00020427132,-0.784807,7.702111e-05,-2.3559651,0.00045256774,1.5712667,0.7861997,0.039999966,0.039999977,-9.823097,0.007608484011143446,-0.0007035014,0.0012305812,-0.017400385811924934,0.0030680639
531.799999999845,0.00021098863,-0.7848089,8.3642095e-05,-2.3559544,0.00051703147,1.5713191,0.78623533,0.039999958,0.03999997,-9.823639,0.00843091867864132,-8.4321015e-05,0.0013861572,-0.018245235085487366,0.0034545287
531.8166666665117,0.00021851013,-0.7848148,9.105277e-05,-2.35594,0.0005891734,1.5713776,0.7862753,0.039999947,0.039999958,-9.823612,0.009315300732851028,0.0006767991,0.0015518721,-0.019107073545455933,0.0038662348
531.8333333331783,0.00022688523,-0.78482485,9.9301404e-05,-2.355921,0.0006694631,1.571443,0.78631985,0.039999943,0.039999954,-9.8240385,0.010268174111843109,0.0015700022,0.001727171,-0.02000371366739273,0.004303225
531.849999999845,0.0002361631,-0.7848393,0.000108436245,-2.3558972,0.00075836806,1.5715153,0.78636914,0.039999932,0.039999947,-9.824322,0.01129184290766716,0.0026078671,0.0019123289,-0.020928634330630302,0.0047646095
531.8666666665116,0.00024639303,-0.78485805,0.00011850545,-2.3558693,0.0008563566,1.5715954,0.78642344,0.03999993,0.039999943,-9.824647,0.012401826679706573,0.0037991577,0.002107639,-0.02188359759747982,0.0052520405
531.8833333331783,0.00025762382,-0.7848812,0.00012955679,-2.355836,0.00096389215,1.5716833,0.786483,0.039999932,0.039999947,-9.825098,0.013592137023806572,0.0051389816,0.0023131082,-0.02287263423204422,0.00576457
531.8999999998449,0.00026990392,-0.7849088,0.00014163785,-2.3557982,0.0010814365,1.5717793,0.78654814,0.03999994,0.039999954,-9.825384,0.014866536483168602,0.0066463156,0.0025285045,-0.0238910224288702,0.006302068
531.9166666665116,0.00028328173,-0.7849409,0.00015479584,-2.3557556,0.0012094468,1.5718842,0.7866191,0.039999943,0.03999996,-9.82585,0.016223402693867683,0.008326768,0.002753297,-0.024944767355918884,0.0068635186
531.9333333331782,0.00029780477,-0.78497756,0.0001690775,-2.355707,0.0013483778,1.5719981,0.78669626,0.039999947,0.039999966,-9.826227,0.017684239894151688,0.010151983,0.0029878076,-0.02602921612560749,0.00745046
531.9499999998449,0.00031352046,-0.78501904,0.0001845291,-2.3556533,0.0014986775,1.5721213,0.78677964,0.03999995,0.039999973,-9.826553,0.019234586507081985,0.012176515,0.0032315268,-0.0271440539509058,0.008060966
531.9666666665115,0.00033047548,-0.7850652,0.0002011964,-2.3555942,0.001660791,1.5722542,0.7868696,0.039999958,0.03999998,-9.827024,0.02089635655283928,0.014407254,0.0034850491,-0.028294149786233902,0.008696526
531.9833333331782,0.0003487157,-0.7851162,0.00021912466,-2.3555295,0.0018351561,1.5723972,0.78696626,0.039999954,0.039999977,-9.827419,0.02265908196568489,0.01679198,0.0037475966,-0.029476439580321312,0.009356053
531.9999999998448,0.00036828712,-0.78517205,0.00023835847,-2.3554592,0.0020222059,1.5725509,0.78707,0.039999958,0.039999984,-9.827773,0.024497468024492264,0.0193939,0.0040197815,-0.030691441148519516,0.01003844
532.0166666665115,0.0003892344,-0.78523284,0.0002589418,-2.355383,0.0022223673,1.572715,0.78718096,0.039999954,0.03999998,-9.828268,0.026515256613492966,0.022183679,0.004301121,-0.03193947672843933,0.010745094
532.0333333331781,0.00041160168,-0.78529894,0.00028091788,-2.3553004,0.0024360607,1.5728904,0.7872996,0.039999954,0.03999998,-9.828694,0.028617747128009796,0.025195604,0.0045911134,-0.033221419900655746,0.01147491
532.0499999998448,0.00043543256,-0.78537023,0.00030432953,-2.3552125,0.0026636994,1.5730773,0.7874259,0.039999958,0.039999984,-9.829064,0.030838366597890854,0.0284202,0.0048895623,-0.0345330610871315,0.012227573
532.0666666665114,0.0004607698,-0.78544676,0.00032921854,-2.3551183,0.0029056906,1.5732759,0.7875601,0.039999954,0.039999984,-9.829545,0.033183179795742035,0.031862877,0.00519679,-0.035879217088222504,0.013001914
532.0833333331781,0.0004876554,-0.78552866,0.00035562617,-2.3550174,0.003162434,1.5734867,0.7877026,0.03999995,0.03999998,-9.829993,0.03566247224807739,0.03552666,0.0055126003,-0.03725919872522354,0.013799341
532.0999999998447,0.00051613076,-0.78561616,0.0003835928,-2.35491,0.0034343216,1.5737098,0.7878535,0.039999947,0.03999998,-9.830377,0.03827017918229103,0.03942059,0.005836233,-0.03866959363222122,0.014617845
532.1166666665114,0.0005462361,-0.7857092,0.00041315812,-2.3547952,0.0037217406,1.573946,0.7880129,0.039999947,0.03999998,-9.830745,0.041017770767211914,0.043553125,0.006168345,-0.04010949656367302,0.015458771
532.133333333178,0.0005780113,-0.78580797,0.00044436118,-2.3546739,0.004025066,1.5741949,0.7881812,0.039999943,0.03999998,-9.831074,0.04389587417244911,0.047931742,0.006508445,-0.04157700762152672,0.016320074
532.1499999998447,0.0006114952,-0.7859126,0.00047724004,-2.3545458,0.004344668,1.5744574,0.7883584,0.039999947,0.039999984,-9.8314495,0.046930376440286636,0.05256116,0.0068565905,-0.043075576424598694,0.017203148
532.1666666665113,0.00064672594,-0.7860232,0.00051183184,-2.3544111,0.004680908,1.5747335,0.78854483,0.039999947,0.039999988,-9.831877,0.050101689994335175,0.05744875,0.007212599,-0.044604379683732986,0.018105946
532.183333333178,0.0006837405,-0.7861397,0.000548173,-2.3542693,0.005034138,1.5750238,0.78874075,0.03999994,0.03999998,-9.832288,0.05343097820878029,0.06258164,0.0075760013,-0.04616375267505646,0.019029828
532.1999999998446,0.00072257494,-0.78626233,0.0005862992,-2.3541203,0.005404707,1.575328,0.7889463,0.039999936,0.03999998,-9.832651,0.056905873119831085,0.06797077,0.007946324,-0.04775117710232735,0.019972745
532.2166666665113,0.0007632652,-0.7863911,0.0006262455,-2.3539639,0.0057929517,1.5756466,0.7891616,0.039999936,0.03999998,-9.832991,0.06054859608411789,0.0736356,0.008323927,-0.049367111176252365,0.020936046
532.2333333331779,0.00080584566,-0.78652626,0.0006680458,-2.3537998,0.0061991997,1.5759802,0.7893869,0.039999932,0.03999998,-9.833344,0.06434062868356705,0.07957349,0.008708338,-0.05101173743605614,0.02191773
532.2499999998446,0.0008503504,-0.7866677,0.0007117327,-2.3536282,0.0066237734,1.5763289,0.7896225,0.039999932,0.039999984,-9.833548,0.06825872510671616,0.085776985,0.009099637,-0.05268134921789169,0.02291821
532.2666666665112,0.00089681183,-0.7868157,0.00075733894,-2.3534489,0.0070669865,1.5766929,0.78986824,0.03999993,0.03999998,-9.833936,0.07243749499320984,0.092265084,0.0094971005,-0.054376792162656784,0.02393809
532.2833333331779,0.00094526215,-0.7869703,0.00080489577,-2.3532615,0.007529143,1.5770724,0.79012454,0.039999925,0.03999998,-9.834206,0.07673521339893341,0.09903772,0.00990135,-0.056096334010362625,0.024975248
532.2999999998445,0.0009957326,-0.78713155,0.0008544334,-2.3530657,0.008010536,1.5774678,0.79039156,0.039999925,0.03999998,-9.83448,0.08121483772993088,0.10611815,0.010311925,-0.057841651141643524,0.026031088
532.3166666665112,0.001048253,-0.7872995,0.0009059818,-2.352862,0.008511458,1.5778792,0.7906694,0.03999992,0.03999998,-9.834628,0.08585841953754425,0.11347161,0.010728113,-0.05960647016763687,0.027103532
532.3333333331778,0.001102853,-0.7874743,0.00095956994,-2.3526502,0.009032186,1.5783069,0.7909582,0.039999917,0.03999998,-9.834891,0.0906926766037941,0.121139586,0.011150231,-0.06139549985527992,0.028193055
532.3499999998445,0.0011595613,-0.78765607,0.0010152255,-2.3524296,0.00957299,1.5787511,0.79125816,0.039999917,0.03999998,-9.835118,0.09571493417024612,0.12909774,0.011577833,-0.06320781260728836,0.029300282
532.3666666665112,0.0012184046,-0.78784466,0.0010729757,-2.3522007,0.0101341335,1.579212,0.7915695,0.039999917,0.039999984,-9.835204,0.10091055929660797,0.13738327,0.012011362,-0.06503796577453613,0.030422963
532.3833333331778,0.0012794103,-0.78804034,0.0011328462,-2.3519635,0.010715872,1.5796899,0.7918921,0.039999917,0.039999984,-9.835379,0.10630856454372406,0.14594753,0.0124493465,-0.06689068675041199,0.031562798
532.3999999998445,0.0013426037,-0.7882431,0.0011948628,-2.3517182,0.011318452,1.5801847,0.79222625,0.039999913,0.039999984,-9.835522,0.11189289391040802,0.15483816,0.012893082,-0.06876257807016373,0.032717444
532.4166666665111,0.0014080107,-0.78845316,0.0012590499,-2.351464,0.0119421035,1.5806968,0.79257214,0.039999906,0.03999998,-9.835699,0.11767272651195526,0.1640379,0.013341822,-0.0706571415066719,0.033887558
532.4333333331778,0.0014756549,-0.7886706,0.0013254306,-2.3512,0.012587061,1.5812265,0.7929299,0.039999906,0.039999984,-9.835779,0.12364978343248367,0.17356777,0.013795069,-0.07257085293531418,0.03507279
532.4499999998444,0.0015455588,-0.7888952,0.0013940283,-2.350928,0.01325354,1.581774,0.7932999,0.039999902,0.039999988,-9.835632,0.1298155039548874,0.18341921,0.0142525565,-0.07449488341808319,0.03627096
532.4666666665111,0.0016177451,-0.78912735,0.0014648646,-2.3506467,0.013941763,1.5823392,0.7936816,0.039999895,0.039999977,-9.835768,0.13623130321502686,0.19357501,0.014712956,-0.0764397531747818,0.03748815
532.4833333331777,0.001692235,-0.7893668,0.0015379607,-2.3503568,0.014651926,1.5829226,0.7940755,0.039999902,0.039999988,-9.835698,0.14279970526695251,0.20408802,0.015179334,-0.07839928567409515,0.038716786
532.4999999998444,0.0017690494,-0.7896139,0.0016133366,-2.3500588,0.015384229,1.583524,0.79448164,0.039999902,0.03999999,-9.835581,0.14955143630504608,0.21488462,0.015649721,-0.0803753212094307,0.03995919
532.516666666511,0.0018482081,-0.78986865,0.0016910118,-2.3497505,0.016138855,1.5841436,0.79490024,0.03999991,0.04,-9.835739,0.15662148594856262,0.22606365,0.01612363,-0.08237137645483017,0.041216046
532.5333333331777,0.0019297291,-0.7901311,0.0017710046,-2.3494332,0.016915997,1.5847818,0.7953313,0.039999895,0.039999995,-9.835457,0.16381819546222687,0.23754506,0.016601114,-0.08437611162662506,0.042482533
532.5499999998443,0.0020136312,-0.79040116,0.0018533325,-2.3491066,0.017715799,1.5854387,0.7957748,0.0399999,0.039999995,-9.835295,0.17129971086978912,0.24938151,0.017082201,-0.0863938182592392,0.043767214
532.566666666511,0.0020999317,-0.7906791,0.0019380123,-2.348771,0.018538445,1.5861145,0.79623103,0.03999989,0.039999988,-9.835107,0.17894306778907776,0.26153067,0.017567292,-0.08842381089925766,0.04506176
532.5833333331776,0.0021886467,-0.7909649,0.0020250601,-2.3484251,0.019384084,1.5868093,0.79670006,0.039999895,0.039999995,-9.834896,0.18682362139225006,0.2740382,0.018055147,-0.0904664620757103,0.04636864
532.5999999998443,0.0022797906,-0.7912585,0.002114491,-2.3480701,0.020252867,1.587523,0.79718196,0.0399999,0.04,-9.834452,0.1949223428964615,0.28688967,0.018545752,-0.09251397103071213,0.047686584
532.6166666665109,0.0023733783,-0.7915601,0.002206319,-2.3477056,0.021144925,1.5882559,0.7976766,0.03999989,0.04,-9.834146,0.20326383411884308,0.30007142,0.019038763,-0.09457280486822128,0.049017053
532.6333333331776,0.0024694244,-0.7918696,0.0023005588,-2.3473313,0.0220604,1.5890081,0.79818434,0.039999895,0.04,-9.833749,0.21182994544506073,0.31362107,0.019535417,-0.09664072841405869,0.05035979
532.6499999998442,0.0025679418,-0.79218715,0.0023972224,-2.346948,0.02299941,1.5897791,0.79870504,0.03999991,0.04,-9.833306,0.22061002254486084,0.32749796,0.020033956,-0.09871656447649002,0.051710915
532.6666666665109,0.0026689412,-0.7925128,0.0024963215,-2.3465543,0.023962073,1.5905697,0.799239,0.03999993,0.04,-9.832856,0.22961674630641937,0.34174398,0.020535294,-0.10080315917730331,0.053069513
532.6833333331775,0.0027724348,-0.7928463,0.002597867,-2.3461518,0.024948513,1.5913798,0.79978603,0.039999936,0.04,-9.832214,0.23891150951385498,0.35631436,0.021037946,-0.10289271920919418,0.054444466
532.6999999998442,0.002878433,-0.7931879,0.0027018695,-2.3457386,0.025958825,1.5922095,0.80034643,0.039999932,0.04,-9.831739,0.24840466678142548,0.37122425,0.021543095,-0.10499395430088043,0.055828758
532.7166666665108,0.002986946,-0.793538,0.0028083387,-2.3453157,0.026993077,1.593059,0.80092,0.039999936,0.04,-9.830906,0.25814300775527954,0.38647616,0.022049403,-0.10709429532289505,0.057222944
532.7333333331775,0.0030979821,-0.79389596,0.002917283,-2.3448837,0.028051354,1.5939281,0.8015069,0.039999936,0.04,-9.830165,0.2681270241737366,0.40212363,0.022557681,-0.10919802635908127,0.058626767
532.7499999998441,0.0032115493,-0.7942622,0.0030287101,-2.344441,0.029133769,1.5948172,0.8021073,0.039999932,0.04,-9.829365,0.2782965302467346,0.41808018,0.023067897,-0.11130964756011963,0.06004083
532.7666666665108,0.0033276554,-0.7946366,0.0031426277,-2.3439882,0.03024035,1.595726,0.80272096,0.039999936,0.04,-9.828499,0.2888176441192627,0.43439677,0.023578433,-0.11342039704322815,0.061463065
532.7833333331774,0.0034463063,-0.7950192,0.0032590418,-2.3435261,0.031371173,1.5966547,0.8033481,0.039999932,0.04,-9.827509,0.29953381419181824,0.45107588,0.024090962,-0.11553168296813965,0.06289401
532.7999999998441,0.0035675082,-0.79540986,0.0033779582,-2.343054,0.0325263,1.5976033,0.8039888,0.039999936,0.04,-9.826576,0.31050458550453186,0.46808952,0.024604287,-0.11764737218618393,0.06433445
532.8166666665107,0.0036912658,-0.79580903,0.003499382,-2.3425715,0.033705786,1.5985718,0.8046429,0.039999932,0.04,-9.825497,0.3217153549194336,0.4854417,0.02511836,-0.11976411193609238,0.06578219
532.8333333331774,0.0038175834,-0.79621625,0.0036233165,-2.3420796,0.03490964,1.5995606,0.80531055,0.039999936,0.04,-9.824251,0.33318638801574707,0.5031758,0.025633555,-0.12187846750020981,0.06723793
532.849999999844,0.0039464645,-0.79663175,0.003749766,-2.3415773,0.036137927,1.6005694,0.8059918,0.039999932,0.04,-9.823074,0.3449060320854187,0.5212172,0.026149036,-0.12399342656135559,0.06870137
532.8666666665107,0.0040779137,-0.79705566,0.003878733,-2.341065,0.03739066,1.6015984,0.8066865,0.039999936,0.04,-9.8216915,0.35688644647598267,0.5396239,0.026664736,-0.12610536813735962,0.07017303
532.8833333331773,0.004211929,-0.7974876,0.004010219,-2.340543,0.038667854,1.6026473,0.8073949,0.03999993,0.04,-9.820234,0.36912035942077637,0.5583835,0.027181191,-0.12821288406848907,0.07165093
532.899999999844,0.004348513,-0.79792815,0.004144226,-2.340011,0.039969526,1.6037161,0.8081169,0.03999993,0.04,-9.818829,0.3816200792789459,0.57747823,0.027697343,-0.13032202422618866,0.07313588
532.9166666665107,0.004487667,-0.798377,0.004280755,-2.3394687,0.0412957,1.6048052,0.80885226,0.03999993,0.04,-9.817131,0.39437544345855713,0.5969461,0.028213158,-0.132424458861351,0.07462816
532.9333333331773,0.0046293926,-0.79883385,0.0044198036,-2.3389165,0.042646345,1.6059142,0.809601,0.039999932,0.04,-9.815462,0.40738725662231445,0.6167238,0.028729947,-0.13452284038066864,0.07612589
532.949999999844,0.0047736852,-0.7992992,0.004561373,-2.338354,0.04402147,1.6070436,0.8103637,0.03999993,0.04,-9.813654,0.4206730127334595,0.63684165,0.029247254,-0.13661709427833557,0.07762964
532.9666666665106,0.004920546,-0.79977274,0.0047054617,-2.337782,0.045421034,1.6081928,0.8111399,0.039999932,0.04,-9.811696,0.4342120885848999,0.65731573,0.029762605,-0.13870179653167725,0.079139195
532.9833333331773,0.0050699706,-0.8002547,0.004852065,-2.3371994,0.04684505,1.6093624,0.81192964,0.03999993,0.04,-9.809755,0.44803163409233093,0.67812425,0.030277735,-0.14078348875045776,0.080655254
532.9999999998439,0.0052219564,-0.80074495,0.0050011813,-2.3366075,0.048293464,1.6105517,0.81273293,0.039999932,0.04,-9.8074465,0.46203410625457764,0.69926095,0.030791836,-0.1428540050983429,0.08217555
533.0166666665106,0.0053764996,-0.80124325,0.0051528066,-2.3360052,0.04976626,1.6117613,0.8135497,0.039999932,0.04,-9.805388,0.47645145654678345,0.7207532,0.031305376,-0.14491945505142212,0.08370099
533.0333333331772,0.005533598,-0.80175006,0.005306937,-2.3353925,0.051263377,1.612991,0.81437993,0.039999932,0.04,-9.803021,0.49106132984161377,0.7425411,0.031817976,-0.14697475731372833,0.08523099
533.0499999998439,0.0056932434,-0.802265,0.0054635676,-2.3347702,0.05278478,1.6142405,0.8152236,0.03999993,0.04,-9.800453,0.505942702293396,0.7647021,0.03233019,-0.1490161269903183,0.086765446
533.0666666665105,0.0058554327,-0.80278796,0.005622693,-2.3341382,0.054330412,1.6155099,0.8160808,0.039999936,0.04,-9.797922,0.5211058259010315,0.7871615,0.03284093,-0.15105022490024567,0.08830497
533.0833333331772,0.006020157,-0.8033192,0.005784307,-2.3334966,0.05590021,1.6167989,0.8169514,0.039999936,0.04,-9.795238,0.5365124940872192,0.8099403,0.033349726,-0.15307512879371643,0.08984405
533.0999999998438,0.0061874115,-0.80385876,0.0059484025,-2.332845,0.057494093,1.6181079,0.8178353,0.03999993,0.04,-9.792456,0.5522072315216064,0.83306676,0.033857256,-0.1550910472869873,0.091384985
533.1166666665105,0.006357186,-0.8044062,0.006114971,-2.3321834,0.059112,1.6194365,0.81873244,0.039999932,0.04,-9.789417,0.5682117938995361,0.85649616,0.034363862,-0.15709151327610016,0.0929346
533.1333333331771,0.0065294737,-0.804962,0.006284005,-2.3315122,0.060753867,1.6207848,0.8196429,0.039999932,0.04,-9.78632,0.5844554901123047,0.8802279,0.034868825,-0.15908119082450867,0.09448658
533.1499999998438,0.0067042657,-0.8055258,0.006455497,-2.3308308,0.06241959,1.6221529,0.8205667,0.039999932,0.04,-9.783083,0.6009837985038757,0.90429515,0.035371672,-0.16105790436267853,0.09604128
533.1666666665104,0.0068815527,-0.80609757,0.0066294344,-2.3301399,0.06410909,1.6235404,0.82150376,0.039999932,0.04,-9.779651,0.6177888512611389,0.9286569,0.035872404,-0.16301783919334412,0.09759935
533.1833333331771,0.007061323,-0.80667716,0.0068058097,-2.3294399,0.06582224,1.6249473,0.8224539,0.039999932,0.04,-9.776093,0.634853184223175,0.9533244,0.036370955,-0.16496361792087555,0.09915712
533.1999999998437,0.0072435685,-0.8072649,0.0069846115,-2.32873,0.06755896,1.6263735,0.823417,0.03999993,0.04,-9.772546,0.6522354483604431,0.9782955,0.036867186,-0.16689953207969666,0.10072057
533.2166666665104,0.007428275,-0.8078605,0.0071658297,-2.3280103,0.069319114,1.6278188,0.8243931,0.039999936,0.04,-9.768639,0.6698620319366455,1.0035757,0.037361737,-0.16881734132766724,0.102284834
533.233333333177,0.0076154307,-0.808464,0.00734945,-2.327281,0.07110264,1.6292828,0.8253821,0.039999936,0.04,-9.764609,0.6877686381340027,1.0291293,0.03785443,-0.17071950435638428,0.1038507
533.2499999998437,0.007805023,-0.80907524,0.0075354604,-2.3265417,0.072909415,1.6307657,0.82638407,0.039999936,0.04,-9.760351,0.7058971524238586,1.0549972,0.038344383,-0.17260633409023285,0.1054194
533.2666666665103,0.007997041,-0.8096946,0.0077238493,-2.3257937,0.07473929,1.6322677,0.8273989,0.039999932,0.04,-9.756091,0.7244058847427368,1.0811371,0.038831815,-0.1744758039712906,0.10698456
533.283333333177,0.008191467,-0.8103217,0.007914602,-2.3250358,0.076592155,1.633789,0.8284264,0.039999936,0.04,-9.751678,0.7431766986846924,1.1075826,0.03931597,-0.17632843554019928,0.108553015
533.2999999998436,0.008388291,-0.8109566,0.008107704,-2.3242688,0.078467846,1.6353297,0.8294666,0.03999993,0.04,-9.746913,0.762199878692627,1.134273,0.03979824,-0.17815788090229034,0.110123165
533.3166666665103,0.0085874945,-0.81159925,0.008303144,-2.3234923,0.08036618,1.6368887,0.8305194,0.03999994,0.04,-9.742073,0.7814952731132507,1.1612458,0.040277354,-0.1799652874469757,0.11169088
533.3333333331769,0.008789063,-0.81224936,0.008500904,-2.322707,0.082287125,1.638466,0.83158463,0.03999994,0.04,-9.737037,0.801084578037262,1.1885219,0.040753618,-0.18175427615642548,0.113260105
533.3499999998436,0.008992981,-0.8129071,0.008700969,-2.3219125,0.08423043,1.640062,0.8326624,0.039999943,0.04,-9.731921,0.8209498524665833,1.2160323,0.041226864,-0.18352706730365753,0.11482785
533.3666666665102,0.009199232,-0.8135725,0.008903322,-2.321109,0.086196005,1.6416762,0.83375245,0.039999932,0.04,-9.726534,0.8411023616790771,1.2438126,0.041696522,-0.1852782815694809,0.116396666
533.3833333331769,0.009407798,-0.8142453,0.009107947,-2.3202965,0.08818363,1.6433088,0.8348546,0.039999936,0.04,-9.720926,0.8615020513534546,1.2718544,0.04216315,-0.18700754642486572,0.11796156
533.3999999998435,0.009618661,-0.8149256,0.009314826,-2.3194747,0.0901931,1.6449592,0.83596885,0.03999995,0.04,-9.715144,0.8821606636047363,1.3001292,0.04262719,-0.1887141317129135,0.11951794
533.4166666665102,0.009831802,-0.81561345,0.009523941,-2.318644,0.09222436,1.6466274,0.8370953,0.03999996,0.04,-9.709154,0.9031969308853149,1.3286766,0.04308824,-0.1903976947069168,0.12108325
533.4333333331768,0.010047203,-0.81630856,0.009735281,-2.3178048,0.094277196,1.6483132,0.83823377,0.03999996,0.04,-9.702968,0.9244431257247925,1.3574739,0.043545146,-0.19205862283706665,0.12264564
533.4499999998435,0.010264847,-0.81701064,0.009948812,-2.3169568,0.09635139,1.6500165,0.839384,0.03999996,0.04,-9.696617,0.9459550976753235,1.3864859,0.04399814,-0.1936977505683899,0.12420208
533.4666666665102,0.010484714,-0.81772006,0.010164525,-2.3161001,0.09844675,1.6517375,0.84054595,0.03999997,0.04,-9.69004,0.9677586555480957,1.4156971,0.044447754,-0.19531381130218506,0.1257559
533.4833333331768,0.010706784,-0.8184365,0.010382396,-2.315235,0.1005631,1.6534755,0.84171945,0.03999997,0.04,-9.683254,0.9898699522018433,1.4451838,0.0448938,-0.19690535962581635,0.12731133
533.4999999998435,0.010931033,-0.8191601,0.010602407,-2.3143616,0.10270027,1.6552305,0.8429045,0.03999997,0.04,-9.676132,1.0121339559555054,1.4748529,0.045336697,-0.19847266376018524,0.12885997
533.5166666665101,0.011157446,-0.8198907,0.010824536,-2.3134787,0.104858026,1.6570027,0.844101,0.039999973,0.04,-9.669072,1.0348469018936157,1.5047762,0.045775358,-0.2000177800655365,0.13040683
533.5333333331768,0.011385993,-0.82062817,0.011048762,-2.3125877,0.107036196,1.6587912,0.8453089,0.039999977,0.04,-9.66148,1.0577343702316284,1.5348673,0.04621036,-0.20153161883354187,0.13194859
533.5499999998434,0.011616653,-0.82137245,0.011275067,-2.3116891,0.109234534,1.6605966,0.84652776,0.039999973,0.04,-9.653861,1.0809152126312256,1.5651938,0.04664107,-0.20302283763885498,0.13348718
533.5666666665101,0.011849407,-0.82212347,0.0115034245,-2.3107822,0.11145282,1.6624181,0.84775776,0.039999977,0.04,-9.64601,1.1043643951416016,1.5957006,0.047068343,-0.20448893308639526,0.13502043
533.5833333331767,0.012084231,-0.82288116,0.011733813,-2.309867,0.113690846,1.6642559,0.8489988,0.03999998,0.04,-9.637878,1.1280714273452759,1.6263949,0.047491163,-0.20592941343784332,0.13654822
533.5999999998434,0.012321102,-0.8236454,0.011966213,-2.3089437,0.11594841,1.6661098,0.8502506,0.03999998,0.04,-9.629479,1.1520617008209229,1.6572782,0.047909312,-0.2073420286178589,0.13807243
533.61666666651,0.012559998,-0.8244162,0.012200594,-2.308013,0.1182253,1.6679794,0.8515132,0.03999998,0.04,-9.620872,1.176316261291504,1.6883258,0.048323687,-0.20872662961483002,0.13959199
533.6333333331767,0.012800891,-0.82519335,0.012436936,-2.3070745,0.1205212,1.6698645,0.85278624,0.039999988,0.04,-9.612103,1.200812816619873,1.7195683,0.048732925,-0.21008720993995667,0.1411015
533.6499999998433,0.0130437575,-0.825977,0.012675214,-2.3061285,0.12283595,1.6717653,0.8540697,0.039999984,0.04,-9.603027,1.2256183624267578,1.7509512,0.049138326,-0.21141980588436127,0.14260937
533.66666666651,0.013288575,-0.8267669,0.012915406,-2.3051748,0.12516923,1.6736816,0.8553635,0.039999984,0.04,-9.593719,1.2506030797958374,1.7825137,0.049538802,-0.21272532641887665,0.14410003
533.6833333331766,0.013535311,-0.8275631,0.013157484,-2.3042138,0.12752087,1.6756129,0.85666746,0.039999995,0.04,-9.584121,1.275943636894226,1.814206,0.049935404,-0.2140001654624939,0.14559212
533.6999999998433,0.013783947,-0.8283652,0.013401425,-2.303245,0.12989067,1.677559,0.85798144,0.04,0.04,-9.574288,1.30152428150177,1.8460625,0.05032708,-0.2152458280324936,0.14707977
533.7166666665099,0.01403445,-0.82917345,0.0136472015,-2.302269,0.13227822,1.6795195,0.8593054,0.04,0.04,-9.564212,1.3273288011550903,1.878045,0.050714113,-0.21646331250667572,0.14855808
533.7333333331766,0.014286802,-0.8299877,0.013894785,-2.3012853,0.13468339,1.6814946,0.8606389,0.04,0.04,-9.55385,1.3534021377563477,1.910181,0.051096182,-0.2176516056060791,0.15002896
533.7499999998432,0.014540971,-0.83080786,0.0141441515,-2.3002949,0.13710588,1.6834838,0.8619821,0.04,0.04,-9.543106,1.3796451091766357,1.9424255,0.051474396,-0.2188078612089157,0.15149154
533.7666666665099,0.014796925,-0.8316338,0.01439527,-2.2992976,0.13954546,1.6854868,0.86333483,0.04,0.04,-9.532342,1.406287431716919,1.9748178,0.051847614,-0.21993422508239746,0.15294464
533.7833333331765,0.015054642,-0.8324654,0.014648119,-2.2982926,0.1420018,1.6875038,0.86469686,0.04,0.04,-9.521282,1.4331358671188354,2.0073118,0.052215163,-0.22103415429592133,0.15439104
533.7999999998432,0.015314092,-0.83330274,0.014902664,-2.2972813,0.14447474,1.6895344,0.866068,0.04,0.04,-9.509742,1.4601818323135376,2.0398867,0.05257875,-0.2220974564552307,0.15582792
533.8166666665098,0.015575242,-0.83414537,0.015158886,-2.296263,0.14696392,1.691578,0.86744803,0.04,0.04,-9.498128,1.48750901222229,2.0725968,0.05293703,-0.22313162684440613,0.15725523
533.8333333331765,0.015838068,-0.8349935,0.015416748,-2.2952383,0.1494691,1.6936351,0.86883706,0.04,0.04,-9.486194,1.5150545835494995,2.105375,0.053291116,-0.2241366058588028,0.1586719
533.8499999998431,0.016102547,-0.8358471,0.015676226,-2.294207,0.15198997,1.695705,0.87023485,0.04,0.04,-9.473963,1.54283607006073,2.1382499,0.053639706,-0.2251078188419342,0.16007726
533.8666666665098,0.016368639,-0.8367058,0.015937295,-2.2931697,0.15452626,1.6977875,0.87164104,0.04,0.04,-9.461469,1.5708842277526855,2.1712167,0.05398277,-0.22604770958423615,0.16147412
533.8833333331764,0.016636318,-0.8375697,0.016199915,-2.2921264,0.15707771,1.6998825,0.87305564,0.04,0.04,-9.44875,1.5991402864456177,2.2042418,0.054321084,-0.22695787250995636,0.1628591
533.8999999998431,0.016905554,-0.8384385,0.01646406,-2.2910771,0.15964402,1.7019894,0.8744786,0.04,0.04,-9.435711,1.627639651298523,2.2373362,0.054654084,-0.2278357297182083,0.1642336
533.9166666665097,0.017176304,-0.8393123,0.016729705,-2.2900214,0.16222493,1.7041086,0.8759093,0.04,0.04,-9.422421,1.6563432216644287,2.2704844,0.05498106,-0.2286844402551651,0.16559325
533.9333333331764,0.017448554,-0.840191,0.016996814,-2.2889602,0.16482,1.7062393,0.8773481,0.04,0.04,-9.408751,1.6852586269378662,2.3036735,0.055304296,-0.22949707508087158,0.16693747
533.949999999843,0.017722271,-0.8410744,0.017265359,-2.2878933,0.16742904,1.7083818,0.8787947,0.04,0.04,-9.394941,1.7144767045974731,2.3369257,0.055621326,-0.23028050363063812,0.16827658
533.9666666665097,0.01799742,-0.84196246,0.017535305,-2.2868207,0.17005172,1.7105354,0.88024884,0.04,0.04,-9.380718,1.743831753730774,2.3701992,0.055932805,-0.23102886974811554,0.16960005
533.9833333331763,0.018273959,-0.84285504,0.017806629,-2.2857428,0.1726878,1.7126998,0.88171035,0.04,0.04,-9.366274,1.773445963859558,2.4035134,0.056239188,-0.23174500465393066,0.17091322
533.999999999843,0.018551877,-0.84375197,0.018079294,-2.2846591,0.17533693,1.7148749,0.88317907,0.04,0.04,-9.351492,1.803174376487732,2.436853,0.056539737,-0.23243068158626556,0.17221051
534.0166666665096,0.018831132,-0.84465325,0.018353272,-2.2835708,0.17799887,1.7170604,0.88465524,0.04,0.04,-9.336488,1.8332719802856445,2.4701955,0.05683516,-0.23308165371418,0.17349775
534.0333333331763,0.019111682,-0.8455588,0.018628526,-2.282477,0.18067321,1.7192565,0.8861377,0.04,0.04,-9.321218,1.863477110862732,2.5035632,0.0571229,-0.23370185494422913,0.17476776
534.049999999843,0.0193935,-0.8464684,0.018905021,-2.2813778,0.18335967,1.7214622,0.88762754,0.04,0.04,-9.305515,1.8938945531845093,2.5369084,0.057408396,-0.23428411781787872,0.17602493
534.0666666665096,0.019676562,-0.84738207,0.019182736,-2.2802744,0.18605797,1.7236775,0.8891234,0.04,0.04,-9.289641,1.9245126247406006,2.5702717,0.057685237,-0.2348358929157257,0.1772676
534.0833333331763,0.019960824,-0.8482997,0.019461628,-2.279166,0.18876778,1.7259023,0.89062566,0.04,0.04,-9.27349,1.9553216695785522,2.6036296,0.057958428,-0.23535655438899994,0.17849505
534.0999999998429,0.02024626,-0.849221,0.019741673,-2.2780528,0.19148871,1.7281364,0.89213467,0.04,0.04,-9.256961,1.9863147735595703,2.636951,0.058225874,-0.23584210872650146,0.17970595
534.1166666665096,0.020532828,-0.85014606,0.02002283,-2.2769358,0.19422053,1.7303792,0.89364964,0.04,0.04,-9.24017,2.017484426498413,2.6702332,0.0584851,-0.23629291355609894,0.18089993
534.1333333331762,0.0208205,-0.8510746,0.020305075,-2.275814,0.19696294,1.732631,0.89517033,0.04,0.04,-9.223194,2.048879384994507,2.7035213,0.058738388,-0.23671478033065796,0.18208003
534.1499999998429,0.02110924,-0.8520066,0.020588359,-2.2746887,0.19971554,1.734891,0.89669627,0.04,0.04,-9.2057495,2.0803914070129395,2.7367125,0.058986682,-0.23709893226623535,0.18324268
534.1666666665095,0.021399017,-0.8529421,0.020872656,-2.2735586,0.20247798,1.7371591,0.89822763,0.04,0.04,-9.188219,2.1121273040771484,2.76992,0.05923021,-0.2374541312456131,0.1843878
534.1833333331762,0.02168979,-0.85388076,0.021157935,-2.2724254,0.20524997,1.739435,0.8997644,0.04,0.04,-9.170153,2.143982410430908,2.8030317,0.0594688,-0.23777194321155548,0.18551612
534.1999999998428,0.021981528,-0.8548225,0.021444164,-2.2712877,0.20803116,1.7417185,0.9013064,0.04,0.04,-9.152029,2.1760499477386475,2.8360999,0.059699982,-0.23806056380271912,0.18662733
534.2166666665095,0.022274194,-0.85576737,0.021731302,-2.2701468,0.21082121,1.7440095,0.90285325,0.04,0.04,-9.133422,2.2081899642944336,2.8690836,0.059925552,-0.2383130043745041,0.18771233
534.2333333331761,0.022567756,-0.8567152,0.022019317,-2.2690017,0.21361984,1.7463071,0.90440464,0.04,0.04,-9.114671,2.2406060695648193,2.9020123,0.0601449,-0.2385324388742447,0.18878776
534.2499999998428,0.02286218,-0.8576655,0.02230818,-2.267854,0.21642672,1.7486118,0.905961,0.04,0.04,-9.09541,2.273008108139038,2.9348655,0.060359806,-0.23871709406375885,0.18984024
534.2666666665094,0.023157423,-0.8586187,0.022597848,-2.2667022,0.21924135,1.7509229,0.9075215,0.04,0.04,-9.07623,2.3057544231414795,2.9675946,0.06056535,-0.2388724684715271,0.19087474
534.2833333331761,0.023453457,-0.85957456,0.022888288,-2.265548,0.22206356,1.75324,0.9090861,0.04,0.04,-9.056377,2.3385138511657715,3.0002613,0.060767204,-0.23898914456367493,0.19189052
534.2999999998427,0.023750238,-0.86053276,0.023179464,-2.2643905,0.22489303,1.755563,0.91065454,0.04,0.04,-9.036522,2.3714661598205566,3.0328467,0.060962386,-0.23907649517059326,0.19288795
534.3166666665094,0.024047738,-0.86149323,0.023471342,-2.26323,0.22772929,1.7578915,0.912227,0.04,0.04,-9.016236,2.404510736465454,3.0652812,0.061152227,-0.23912955820560455,0.19386348
534.333333333176,0.024345912,-0.86245596,0.023763886,-2.2620673,0.23057204,1.7602254,0.913803,0.04,0.04,-8.995693,2.4376840591430664,3.0976274,0.061335087,-0.23914974927902222,0.19481795
534.3499999998427,0.024644729,-0.8634207,0.024057059,-2.260902,0.23342097,1.7625644,0.9153823,0.04,0.04,-8.97493,2.471010684967041,3.1298544,0.061511464,-0.23913903534412384,0.1957525
534.3666666665093,0.024944149,-0.8643875,0.024350833,-2.259734,0.23627567,1.7649083,0.916965,0.04,0.04,-8.953834,2.504425525665283,3.1619368,0.061681706,-0.23909515142440796,0.19666596
534.383333333176,0.02524415,-0.8653562,0.024645168,-2.258564,0.23913583,1.7672567,0.9185507,0.04,0.04,-8.932402,2.537942409515381,3.1939018,0.06184574,-0.23901548981666565,0.1975583
534.3999999998426,0.025544671,-0.8663266,0.024940021,-2.2573922,0.24200116,1.7696091,0.9201392,0.04,0.04,-8.910846,2.5716006755828857,3.2257361,0.06200228,-0.23890668153762817,0.19842865
534.4166666665093,0.025845697,-0.8672986,0.025235362,-2.2562177,0.24487126,1.7719655,0.92173034,0.04,0.04,-8.888912,2.6053478717803955,3.2574139,0.06215323,-0.23876523971557617,0.19927834
534.4333333331759,0.026147189,-0.8682722,0.025531154,-2.2550418,0.24774572,1.7743255,0.92332387,0.04,0.04,-8.86665,2.6391525268554688,3.2889378,0.062297616,-0.2385897934436798,0.2001029
534.4499999998426,0.0264491,-0.869247,0.025827365,-2.2538643,0.2506243,1.7766889,0.9249198,0.04,0.04,-8.844275,2.6730968952178955,3.3203313,0.062435485,-0.23838455975055695,0.20090632
534.4666666665092,0.026751405,-0.8702231,0.026123954,-2.2526853,0.25350657,1.7790552,0.9265177,0.04,0.04,-8.821505,2.7070908546447754,3.3515296,0.06256659,-0.2381458431482315,0.20168528
534.4833333331759,0.027054042,-0.87120026,0.026420886,-2.2515047,0.25639224,1.7814243,0.92811745,0.04,0.04,-8.798588,2.7411959171295166,3.3825731,0.062690265,-0.2378779947757721,0.20244211
534.4999999998425,0.027356995,-0.8721783,0.026718123,-2.2503223,0.25928086,1.7837957,0.9297188,0.04,0.04,-8.775264,2.7752976417541504,3.4134502,0.06280838,-0.23757751286029816,0.20317447
534.5166666665092,0.027660225,-0.87315756,0.027015628,-2.249139,0.2621722,1.7861693,0.9313217,0.04,0.04,-8.751741,2.809553384780884,3.4441226,0.06292024,-0.23724448680877686,0.20388296
534.5333333331758,0.027963698,-0.8741376,0.027313372,-2.247955,0.2650658,1.7885447,0.9329258,0.04,0.04,-8.72797,2.8438501358032227,3.4746664,0.063025236,-0.2368806153535843,0.20456667
534.5499999998425,0.028267367,-0.87511826,0.027611313,-2.2467704,0.26796126,1.7909218,0.9345309,0.04,0.04,-8.703987,2.878199815750122,3.50499,0.06312319,-0.23648719489574432,0.20522596
534.5666666665091,0.0285712,-0.87609947,0.027909413,-2.2455854,0.27085835,1.7933003,0.9361369,0.04,0.04,-8.679741,2.912602663040161,3.5351188,0.0632149,-0.236062690615654,0.2058605
534.5833333331758,0.02887516,-0.87708116,0.028207636,-2.2443993,0.27375665,1.7956798,0.93774354,0.04,0.04,-8.6553,2.94705867767334,3.5650494,0.06329899,-0.23560990393161774,0.20646904
534.5999999998425,0.029179217,-0.878063,0.028505947,-2.2432132,0.27665585,1.7980598,0.93935066,0.04,0.04,-8.630432,2.9815220832824707,3.594773,0.063377336,-0.23512262105941772,0.2070534
534.6166666665091,0.02948332,-0.8790451,0.028804313,-2.2420268,0.27955556,1.8004403,0.94095814,0.04,0.04,-8.605556,3.0160646438598633,3.6243024,0.06344814,-0.23461033403873444,0.20761053
534.6333333331758,0.02978743,-0.8800275,0.029102692,-2.2408402,0.28245544,1.802821,0.9425656,0.04,0.04,-8.580294,3.05059552192688,3.653599,0.063511744,-0.23406708240509033,0.20814121
534.6499999998424,0.03009153,-0.88100964,0.029401045,-2.2396536,0.28535515,1.8052016,0.94417304,0.04,0.04,-8.554812,3.0851540565490723,3.6826963,0.06356941,-0.23349213600158691,0.20864509
534.6666666665091,0.030395562,-0.8819915,0.029699339,-2.2384675,0.2882543,1.8075817,0.94578016,0.04,0.04,-8.529144,3.1197612285614014,3.7115598,0.063619606,-0.2328888177871704,0.20912428
534.6833333331757,0.030699497,-0.8829732,0.029997531,-2.2372816,0.29115254,1.809961,0.94738686,0.04,0.04,-8.503286,3.15436053276062,3.7401943,0.06366214,-0.23225870728492737,0.20957506
534.6999999998424,0.031003289,-0.8839545,0.030295597,-2.2360961,0.29404947,1.8123392,0.94899267,0.04,0.04,-8.477149,3.1889612674713135,3.7686126,0.0636975,-0.2315991073846817,0.20999743
534.716666666509,0.03130691,-0.8849351,0.030593492,-2.234911,0.29694483,1.8147162,0.95059776,0.04,0.04,-8.450842,3.223576545715332,3.7967784,0.06372633,-0.23091168701648712,0.2103917
534.7333333331757,0.031610325,-0.8859151,0.03089118,-2.2337265,0.29983816,1.8170916,0.9522016,0.04,0.04,-8.424235,3.2581589221954346,3.8246992,0.0637481,-0.23019404709339142,0.21076047
534.7499999998423,0.031913504,-0.8868943,0.031188628,-2.2325425,0.3027292,1.8194652,0.9538042,0.04,0.04,-8.397511,3.292717695236206,3.8524065,0.063763365,-0.22944863140583038,0.21109854
534.766666666509,0.03221639,-0.8878727,0.031485796,-2.2313607,0.30561754,1.8218364,0.95540524,0.04,0.04,-8.370488,3.327313184738159,3.8798418,0.06377179,-0.22867318987846375,0.2114118
534.7833333331756,0.032518942,-0.88885003,0.03178265,-2.2301803,0.3085028,1.824205,0.95700467,0.04,0.04,-8.343487,3.361898422241211,3.9070835,0.06377196,-0.22787605226039886,0.21169488
534.7999999998423,0.03282114,-0.8898263,0.032079153,-2.229001,0.31138465,1.8265709,0.95860225,0.04,0.04,-8.316197,3.3964486122131348,3.9340174,0.06376392,-0.22705292701721191,0.21195316
534.8166666665089,0.033122938,-0.89080125,0.03237527,-2.2278233,0.3142628,1.8289335,0.9601977,0.04,0.04,-8.288672,3.430928945541382,3.9607198,0.06374902,-0.22620345652103424,0.21218173
534.8333333331756,0.033424307,-0.8917748,0.032670964,-2.2266462,0.31713682,1.8312925,0.9617908,0.04,0.04,-8.260972,3.4653732776641846,3.9871278,0.06372671,-0.22532792389392853,0.21238105
534.8499999998422,0.033725206,-0.89274675,0.032966197,-2.2254715,0.32000646,1.8336482,0.9633814,0.04,0.04,-8.233016,3.4997336864471436,4.0132895,0.0636988,-0.2244243323802948,0.21254958
534.8666666665089,0.034025606,-0.8937172,0.03326093,-2.2242994,0.32287118,1.8359997,0.9649694,0.04,0.04,-8.205059,3.534113645553589,4.039192,0.06366247,-0.22349682450294495,0.21268913
534.8833333331755,0.034325458,-0.8946859,0.03355513,-2.223129,0.32573086,1.8383472,0.9665545,0.04,0.04,-8.176955,3.568455457687378,4.064837,0.06361766,-0.22254714369773865,0.21280253
534.8999999998422,0.034624733,-0.89565283,0.03384877,-2.2219608,0.328585,1.8406901,0.96813667,0.04,0.04,-8.148567,3.602668285369873,4.0901923,0.06356584,-0.2215714305639267,0.2128846
534.9166666665088,0.0349234,-0.89661777,0.0341418,-2.2207952,0.33143333,1.8430285,0.96971554,0.04,0.04,-8.120018,3.636824369430542,4.1152678,0.06350677,-0.22056978940963745,0.21293761
534.9333333331755,0.035221417,-0.8975807,0.0344342,-2.2196314,0.33427545,1.8453614,0.97129095,0.04,0.04,-8.091441,3.670938730239868,4.140091,0.06343953,-0.21954578161239624,0.21295893
534.9499999998421,0.035518743,-0.8985412,0.034725912,-2.2184703,0.33711097,1.8476892,0.97286296,0.04,0.04,-8.062562,3.7049248218536377,4.164624,0.06336588,-0.2184966653585434,0.21295182
534.9666666665088,0.03581534,-0.89949965,0.03501691,-2.2173126,0.33993953,1.850011,0.974431,0.04,0.04,-8.033647,3.7388620376586914,4.188853,0.06328345,-0.21742373704910278,0.21291587
534.9833333331754,0.036111183,-0.9004554,0.035307188,-2.2161574,0.34276095,1.8523273,0.9759949,0.04,0.04,-8.004644,3.7727348804473877,4.212866,0.06319366,-0.21633024513721466,0.21285035
534.9999999998421,0.036406223,-0.90140885,0.03559667,-2.2150054,0.34557477,1.8546371,0.97755456,0.04,0.04,-7.975511,3.8064658641815186,4.2365336,0.0630967,-0.21521304547786713,0.21275304
535.0166666665087,0.036700435,-0.9023595,0.03588533,-2.2138565,0.34838063,1.8569405,0.9791098,0.04,0.04,-7.9461555,3.8400967121124268,4.259946,0.06299258,-0.21407437324523926,0.21262412
535.0333333331754,0.03699378,-0.9033074,0.03617316,-2.2127116,0.35117826,1.8592374,0.9806605,0.04,0.04,-7.916756,3.8736355304718018,4.2830534,0.062880896,-0.2129141390323639,0.21246393
535.049999999842,0.037286222,-0.9042523,0.036460087,-2.2115695,0.3539673,1.8615271,0.9822065,0.04,0.04,-7.887329,3.907116651535034,4.305891,0.06276052,-0.2117334008216858,0.21227567
535.0666666665087,0.03757773,-0.9051941,0.03674608,-2.2104313,0.35674742,1.8638093,0.9837475,0.04,0.04,-7.8576765,3.9403958320617676,4.32842,0.06263248,-0.21053168177604675,0.2120552
535.0833333331753,0.037868246,-0.9061328,0.037031144,-2.2092967,0.3595184,1.866084,0.98528343,0.04,0.04,-7.828005,3.9735991954803467,4.3506603,0.062496405,-0.2093101143836975,0.2118054
535.099999999842,0.038157754,-0.9070683,0.0373152,-2.2081664,0.36227968,1.8683507,0.9868141,0.04,0.04,-7.7982326,4.006659030914307,4.3726172,0.062352233,-0.20806942880153656,0.21152315
535.1166666665086,0.03844623,-0.90800047,0.03759824,-2.2070394,0.365031,1.8706092,0.98833907,0.04,0.04,-7.7683873,4.0395989418029785,4.394283,0.06219971,-0.20680946111679077,0.2112109
535.1333333331753,0.03873362,-0.9089292,0.03788023,-2.2059171,0.36777216,1.8728589,0.9898583,0.04,0.04,-7.7384095,4.07236909866333,4.4156413,0.062041476,-0.20552901923656464,0.21086633
535.149999999842,0.039019916,-0.90985435,0.038161132,-2.2047987,0.37050265,1.8751007,0.9913717,0.04,0.04,-7.7084794,4.105048179626465,4.4367414,0.06187381,-0.20423348248004913,0.21049127
535.1666666665086,0.03930506,-0.91077596,0.0384409,-2.203685,0.37322226,1.8773332,0.99287903,0.04,0.04,-7.678366,4.137545108795166,4.4574857,0.06169999,-0.20291422307491302,0.210088
535.1833333331753,0.039589014,-0.91169363,0.03871952,-2.2025752,0.37593064,1.8795563,0.99438024,0.04,0.04,-7.64827,4.169889450073242,4.4780087,0.06151756,-0.20157960057258606,0.20964877
535.1999999998419,0.039871756,-0.9126075,0.038996946,-2.2014706,0.37862748,1.8817699,0.99587536,0.04,0.04,-7.6180625,4.202066421508789,4.4981704,0.061327398,-0.20022612810134888,0.20918033
535.2166666665086,0.04015327,-0.91351736,0.039273154,-2.2003713,0.38131243,1.8839738,0.99736327,0.04,0.04,-7.587947,4.234165191650391,4.5180917,0.061126944,-0.19885775446891785,0.20868613
535.2333333331752,0.04043348,-0.914423,0.03954811,-2.1992767,0.3839853,1.886168,0.99884486,0.04,0.04,-7.5577536,4.266021251678467,4.537692,0.06092095,-0.1974738985300064,0.20815603
535.2499999998419,0.04071239,-0.9153245,0.03982178,-2.1981866,0.38664567,1.8883522,1.000319,0.04,0.04,-7.5275726,4.2977519035339355,4.5569887,0.06070447,-0.19607312977313995,0.2075959
535.2666666665085,0.04098997,-0.91622156,0.040094126,-2.1971025,0.38929334,1.8905255,1.001786,0.04,0.04,-7.497126,4.3292365074157715,4.5759807,0.06048467,-0.19465169310569763,0.20700783
535.2833333331752,0.041266166,-0.91711444,0.040365126,-2.1960232,0.39192763,1.892688,1.0032458,0.04,0.04,-7.4669805,4.360641002655029,4.594715,0.06025475,-0.1932210922241211,0.20638941
535.2999999998418,0.041540958,-0.9180026,0.04063474,-2.1949496,0.3945486,1.8948395,1.0046984,0.04,0.04,-7.4365997,4.391765117645264,4.6131406,0.060017873,-0.19177202880382538,0.20573942
535.3166666665085,0.041814305,-0.9188861,0.040902957,-2.1938815,0.39715576,1.8969798,1.0061436,0.04,0.04,-7.406353,4.422731876373291,4.631265,0.059771564,-0.19031080603599548,0.20505479
535.3333333331751,0.04208619,-0.91976494,0.041169714,-2.1928194,0.39974892,1.8991085,1.0075808,0.04,0.04,-7.376098,4.453550815582275,4.649101,0.059515797,-0.1888352334499359,0.20434472
535.3499999998418,0.042356573,-0.920639,0.041435007,-2.1917634,0.40232775,1.9012256,1.0090101,0.04,0.04,-7.3458548,4.484155654907227,4.6666374,0.059252843,-0.1873466968536377,0.20360628
535.3666666665084,0.042625427,-0.921508,0.04169879,-2.190713,0.40489203,1.9033307,1.0104314,0.04,0.04,-7.315608,4.514530658721924,4.6839004,0.058982063,-0.18584506213665009,0.20283276
535.3833333331751,0.0428927,-0.922372,0.04196104,-2.1896682,0.40744138,1.9054236,1.0118446,0.04,0.04,-7.2853928,4.544724464416504,4.7008533,0.058702085,-0.1843300461769104,0.20203187
535.3999999998417,0.043158382,-0.923231,0.04222173,-2.18863,0.4099755,1.9075038,1.0132495,0.04,0.04,-7.2551665,4.574676513671875,4.7175155,0.05841418,-0.18280071020126343,0.20119953
535.4166666665084,0.043422446,-0.9240846,0.042480823,-2.1875982,0.41249415,1.9095714,1.014646,0.04,0.04,-7.2250547,4.604471206665039,4.7339206,0.05811827,-0.18126128613948822,0.20033932
535.433333333175,0.04368485,-0.9249329,0.042738296,-2.186573,0.41499713,1.9116263,1.0160333,0.04,0.04,-7.1949916,4.634060382843018,4.750005,0.05781208,-0.17970962822437286,0.19945715
535.4499999998417,0.04394557,-0.9257758,0.042994123,-2.1855545,0.4174841,1.9136677,1.0174118,0.04,0.04,-7.164984,4.663372039794922,4.765828,0.057500105,-0.1781482696533203,0.19853666
535.4666666665083,0.044204596,-0.9266132,0.04324827,-2.1845427,0.41995463,1.9156955,1.0187817,0.04,0.04,-7.135056,4.69251012802124,4.7813697,0.05717852,-0.17657922208309174,0.19758876
535.483333333175,0.044461872,-0.9274449,0.043500707,-2.183537,0.42240867,1.9177102,1.0201418,0.04,0.04,-7.105119,4.721369743347168,4.796604,0.056848645,-0.17499826848506927,0.19660984
535.4999999998416,0.04471737,-0.9282707,0.043751404,-2.1825378,0.42484576,1.9197106,1.0214928,0.04,0.04,-7.075337,4.75005578994751,4.8115597,0.05651333,-0.1734047383069992,0.19560392
535.5166666665083,0.04497108,-0.9290909,0.044000342,-2.181546,0.42726582,1.921697,1.0228342,0.04,0.04,-7.0454926,4.778427600860596,4.8262362,0.0561688,-0.17180295288562775,0.19456881
535.5333333331749,0.045222957,-0.9299054,0.0442475,-2.1805618,0.4296684,1.9236693,1.024166,0.04,0.04,-7.015836,4.806610584259033,4.8406663,0.055817552,-0.17019225656986237,0.19350265
535.5499999998416,0.045472983,-0.9307138,0.044492833,-2.1795845,0.43205336,1.9256274,1.025488,0.04,0.04,-6.9863634,4.834630012512207,4.854836,0.055456936,-0.1685749888420105,0.19241332
535.5666666665082,0.04572113,-0.931516,0.04473633,-2.1786144,0.43442038,1.9275706,1.0267998,0.04,0.04,-6.9568458,4.862295627593994,4.8686776,0.055088967,-0.16694723069667816,0.19129267
535.5833333331749,0.045967374,-0.93231225,0.044977978,-2.1776516,0.43676928,1.929499,1.0281016,0.039999995,0.04,-6.927494,4.889758586883545,4.882268,0.054714575,-0.16531163454055786,0.19014436
535.5999999998415,0.046211682,-0.9331023,0.045217715,-2.1766963,0.4390997,1.931412,1.0293933,0.039999988,0.04,-6.8982434,4.916964054107666,4.895621,0.054332353,-0.16366878151893616,0.1889665
535.6166666665082,0.046454042,-0.93388593,0.045455527,-2.1757486,0.44141144,1.9333097,1.0306747,0.039999988,0.04,-6.869112,4.943938255310059,4.9086876,0.05394226,-0.16201861202716827,0.18776494
535.6333333331748,0.046694417,-0.93466324,0.04569139,-2.174809,0.44370437,1.9351921,1.0319458,0.03999998,0.04,-6.8401227,4.9706525802612305,4.9214787,0.053544544,-0.16036197543144226,0.1865378
535.6499999998415,0.04693279,-0.9354339,0.04592529,-2.1738772,0.44597808,1.9370587,1.0332061,0.039999973,0.04,-6.811348,4.997155666351318,4.9340334,0.0531366,-0.15870076417922974,0.18528362
535.6666666665081,0.047169134,-0.93619823,0.046157196,-2.1729536,0.44823247,1.9389094,1.0344558,0.039999958,0.04,-6.7826233,5.0233283042907715,4.9463134,0.0527228,-0.15703456103801727,0.18399926
535.6833333331748,0.04740341,-0.9369556,0.046387084,-2.1720376,0.4504672,1.940744,1.0356946,0.03999994,0.04,-6.754068,5.049295902252197,4.9583435,0.052300222,-0.15536247193813324,0.1826924
535.6999999998415,0.04763563,-0.93770653,0.04661495,-2.1711295,0.45268214,1.9425627,1.0369223,0.039999936,0.04,-6.725673,5.074998378753662,4.97009,0.051869895,-0.15368589758872986,0.18136485
535.7166666665081,0.04786575,-0.93845075,0.046840746,-2.1702302,0.45487702,1.9443644,1.038139,0.03999992,0.04,-6.697346,5.100363254547119,4.981638,0.051434185,-0.15200206637382507,0.18000534
535.7333333331748,0.04809374,-0.93918794,0.047064457,-2.169339,0.45705163,1.94615,1.0393443,0.039999917,0.04,-6.669322,5.12553596496582,4.9929295,0.050989926,-0.15031811594963074,0.17861915
535.7499999998414,0.048319586,-0.9399184,0.04728607,-2.1684556,0.45920575,1.9479185,1.0405384,0.03999991,0.04,-6.641512,5.1504998207092285,5.0039387,0.050538268,-0.1486285775899887,0.17721385
535.7666666665081,0.048543267,-0.9406417,0.047505554,-2.1675804,0.46133927,1.9496702,1.0417211,0.039999902,0.04,-6.6135564,5.174998760223389,5.0147357,0.05008071,-0.14693228900432587,0.17578429
535.7833333331747,0.048764754,-0.94135815,0.0477229,-2.1667144,0.463452,1.9514043,1.0428925,0.039999895,0.04,-6.585996,5.1993231773376465,5.0252814,0.049616013,-0.14523404836654663,0.17432633
535.7999999998414,0.048984047,-0.94206727,0.04793807,-2.1658568,0.4655435,1.9531214,1.044052,0.039999887,0.04,-6.5586705,5.223430633544922,5.035616,0.04914196,-0.1435350626707077,0.17284895
535.816666666508,0.049201105,-0.9427691,0.048151057,-2.165008,0.46761385,1.9548211,1.0451996,0.03999988,0.04,-6.531477,5.2472124099731445,5.0456862,0.048662126,-0.14183323085308075,0.17134827
535.8333333331747,0.049415905,-0.9434638,0.04836183,-2.1641676,0.4696627,1.9565032,1.0463356,0.039999876,0.04,-6.504537,5.27073335647583,5.055528,0.04817489,-0.14013035595417023,0.1698228
535.8499999998413,0.049628437,-0.94415116,0.048570395,-2.163336,0.47168988,1.9581676,1.0474595,0.039999872,0.04,-6.477684,5.29395055770874,5.0651565,0.047680765,-0.1384238749742508,0.1682778
535.866666666508,0.049838684,-0.9448312,0.04877671,-2.1625135,0.47369537,1.959814,1.0485711,0.03999986,0.04,-6.45111,5.316904544830322,5.0745497,0.047180753,-0.1367150992155075,0.16671218
535.8833333331746,0.05004663,-0.9455039,0.04898077,-2.1617005,0.4756788,1.9614424,1.0496707,0.039999854,0.04,-6.4247646,5.33957576751709,5.0837417,0.046674747,-0.13500717282295227,0.16512111
535.8999999998413,0.05025226,-0.946169,0.04918255,-2.1608965,0.47764003,1.9630524,1.0507581,0.03999985,0.04,-6.398701,5.362026691436768,5.0927157,0.046160102,-0.13329969346523285,0.16351481
535.9166666665079,0.050455544,-0.94682676,0.04938203,-2.1601014,0.47957894,1.9646444,1.0518329,0.039999843,0.04,-6.372777,5.384145736694336,5.1014533,0.045639016,-0.13159148395061493,0.16189145
535.9333333331746,0.050656486,-0.947477,0.0495792,-2.159315,0.48149538,1.9662179,1.0528955,0.03999983,0.04,-6.347026,5.405905246734619,5.10999,0.045113906,-0.1298818141222,0.1602397
535.9499999998412,0.050855055,-0.9481195,0.04977404,-2.158538,0.48338932,1.9677726,1.0539453,0.03999983,0.04,-6.321557,5.4274468421936035,5.118317,0.044581186,-0.12817144393920898,0.15857127
535.9666666665079,0.05105123,-0.9487542,0.049966544,-2.157771,0.4852605,1.9693093,1.0549827,0.039999817,0.04,-6.2963204,5.448695659637451,5.126438,0.044044733,-0.12646138668060303,0.15688665
535.9833333331745,0.051245,-0.94938076,0.0501567,-2.1570132,0.48710865,1.9708269,1.0560073,0.039999817,0.04,-6.2714777,5.469709873199463,5.1343503,0.043499,-0.12475534528493881,0.1551763
535.9999999998412,0.051436346,-0.9499996,0.050344482,-2.1562643,0.4889338,1.9723252,1.0570191,0.039999813,0.04,-6.2468767,5.490477085113525,5.142043,0.042947825,-0.12305029481649399,0.1534549
536.0166666665078,0.05162526,-0.9506106,0.050529875,-2.1555252,0.4907358,1.9738044,1.058018,0.039999805,0.04,-6.22227,5.510754108428955,5.1495695,0.04239126,-0.12134849280118942,0.15171167
536.0333333331745,0.051811732,-0.9512138,0.050712876,-2.1547954,0.49251443,1.9752643,1.0590038,0.0399998,0.04,-6.198083,5.530886173248291,5.156908,0.04183014,-0.11964880675077438,0.14995497
536.0499999998411,0.051995754,-0.951809,0.050893474,-2.1540756,0.49426976,1.9767052,1.0599769,0.039999794,0.04,-6.174095,5.550668716430664,5.164038,0.041263986,-0.11794961243867874,0.14818123
536.0666666665078,0.052177306,-0.9523964,0.05107165,-2.1533654,0.49600145,1.9781268,1.0609372,0.039999787,0.04,-6.150536,5.570269584655762,5.1710076,0.040690318,-0.11625658720731735,0.14639428
536.0833333331744,0.052356374,-0.9529758,0.05124739,-2.1526647,0.49770954,1.9795293,1.0618843,0.039999783,0.04,-6.1270576,5.5894575119018555,5.1777725,0.040111303,-0.11456459015607834,0.14458781
536.0999999998411,0.05253296,-0.9535472,0.05142069,-2.1519737,0.4993939,1.9809126,1.0628178,0.039999772,0.04,-6.103897,5.608405113220215,5.1843424,0.03952824,-0.11287274956703186,0.1427689
536.1166666665077,0.052707046,-0.9541104,0.051591523,-2.1512926,0.5010542,1.9822756,1.0637383,0.039999772,0.04,-6.081061,5.627063274383545,5.1907635,0.03894122,-0.11118520051240921,0.1409316
536.1333333331744,0.052878622,-0.9546653,0.05175991,-2.1506212,0.50269073,1.9836191,1.0646458,0.039999764,0.04,-6.058527,5.645471572875977,5.1970086,0.038348757,-0.10950341075658798,0.13908806
536.149999999841,0.05304769,-0.95521224,0.051925823,-2.1499598,0.5043033,1.984943,1.0655397,0.03999975,0.04,-6.0362325,5.663535118103027,5.2030563,0.037751168,-0.10782551020383835,0.13722953
536.1666666665077,0.053214215,-0.95575106,0.05208925,-2.149308,0.50589174,1.9862474,1.0664204,0.03999974,0.04,-6.0142574,5.681336402893066,5.2089777,0.037149575,-0.10615267604589462,0.1353575
536.1833333331743,0.0533782,-0.9562816,0.05225019,-2.148666,0.5074556,1.9875314,1.0672878,0.039999735,0.04,-5.9924994,5.698816299438477,5.2146935,0.036543556,-0.1044817566871643,0.13347125
536.199999999841,0.053539652,-0.95680416,0.052408647,-2.1480343,0.50899565,1.9887958,1.0681415,0.03999973,0.04,-5.971105,5.716035842895508,5.220278,0.035934217,-0.10281797498464584,0.1315762
536.2166666665076,0.053698562,-0.9573181,0.052564602,-2.1474123,0.51051134,1.9900403,1.0689821,0.039999723,0.04,-5.950033,5.732992172241211,5.225719,0.035320293,-0.10116026550531387,0.12967004
536.2333333331743,0.053854898,-0.9578241,0.052718032,-2.1468005,0.5120025,1.9912647,1.069809,0.03999972,0.04,-5.929205,5.749596118927002,5.2309422,0.03470184,-0.09950721263885498,0.12775068
536.249999999841,0.05400869,-0.95832175,0.05286897,-2.1461987,0.5134695,1.9924692,1.0706223,0.039999716,0.04,-5.908852,5.766094207763672,5.2360845,0.034080245,-0.0978606566786766,0.12582727
536.2666666665076,0.05415992,-0.95881116,0.05301739,-2.1456065,0.514912,1.9936533,1.071422,0.039999716,0.04,-5.888522,5.782041072845459,5.241038,0.03345529,-0.09622059017419815,0.12389306
536.2833333331743,0.054308582,-0.9592921,0.053163286,-2.1450243,0.51633006,1.9948174,1.0722083,0.03999971,0.04,-5.8685803,5.797797203063965,5.2458563,0.03282937,-0.09458538144826889,0.12194909
536.2999999998409,0.054454677,-0.95976484,0.053306654,-2.1444523,0.51772356,1.9959617,1.0729808,0.039999705,0.04,-5.849024,5.813297748565674,5.2505264,0.03219891,-0.09295780211687088,0.11999868
536.3166666665076,0.05459818,-0.96022916,0.053447504,-2.1438904,0.5190925,1.9970852,1.0737395,0.039999697,0.04,-5.8297844,5.8285346031188965,5.255068,0.031565975,-0.09133715182542801,0.118040994
536.3333333331742,0.054739114,-0.9606854,0.053585824,-2.1433384,0.5204369,1.9981891,1.074485,0.039999694,0.04,-5.8108454,5.843455791473389,5.2594633,0.03093163,-0.08972512185573578,0.11607755
536.3499999998409,0.05487748,-0.9611331,0.05372163,-2.142797,0.5217566,1.9992727,1.0752163,0.039999694,0.04,-5.7921906,5.858099460601807,5.2637453,0.030294128,-0.08811896294355392,0.11410905
536.3666666665075,0.05501326,-0.9615727,0.05385491,-2.1422656,0.52305174,2.000336,1.0759342,0.039999686,0.04,-5.773956,5.8725080490112305,5.267884,0.029655773,-0.08652257174253464,0.112137295
536.3833333331742,0.05514648,-0.9620038,0.053985666,-2.1417441,0.5243223,2.0013793,1.0766387,0.039999675,0.04,-5.755929,5.886563777923584,5.2718954,0.029015658,-0.08493302762508392,0.11016089
536.3999999998408,0.05527713,-0.96242666,0.054113887,-2.1412327,0.52556825,2.002403,1.0773295,0.03999967,0.04,-5.7383122,5.900400638580322,5.2757754,0.028372085,-0.08335269242525101,0.108184054
536.4166666665075,0.0554052,-0.96284103,0.05423959,-2.140731,0.5267897,2.003406,1.0780072,0.03999967,0.04,-5.7209377,5.913904666900635,5.2795215,0.027728472,-0.08177787810564041,0.10620117
536.4333333331741,0.0555307,-0.9632473,0.054362774,-2.1402397,0.5279866,2.0043886,1.0786711,0.03999966,0.04,-5.703922,5.927140712738037,5.2831573,0.027081553,-0.08021299540996552,0.10421721
536.4499999998408,0.05565364,-0.96364534,0.05448344,-2.1397579,0.5291593,2.0053513,1.0793216,0.03999966,0.04,-5.687304,5.94014835357666,5.2867193,0.02643429,-0.07866203784942627,0.10222999
536.4666666665074,0.055774022,-0.96403503,0.0546016,-2.1392868,0.5303076,2.006294,1.0799583,0.039999664,0.04,-5.6708403,5.952799320220947,5.2901154,0.025786106,-0.07711527496576309,0.10024273
536.4833333331741,0.05589185,-0.9644164,0.054717243,-2.1388254,0.5314314,2.007217,1.0805813,0.039999664,0.04,-5.654921,5.965274810791016,5.293423,0.025137408,-0.07558221369981766,0.098252684
536.4999999998407,0.056007124,-0.96478957,0.054830384,-2.1383736,0.5325311,2.00812,1.0811908,0.039999656,0.04,-5.6393137,5.9775309562683105,5.296599,0.024490338,-0.07405667006969452,0.09626898
536.5166666665074,0.056119844,-0.9651544,0.054941032,-2.1379325,0.5336063,2.0090032,1.0817871,0.03999966,0.04,-5.6237845,5.989287853240967,5.2996855,0.023843221,-0.07253933697938919,0.09428134
536.533333333174,0.05623003,-0.96551114,0.05504919,-2.1375012,0.5346573,2.009866,1.0823702,0.039999653,0.04,-5.6088724,6.0009965896606445,5.3026824,0.023193773,-0.07103712111711502,0.09230063
536.5499999998407,0.056337696,-0.9658598,0.05515487,-2.1370795,0.53568417,2.0107095,1.0829394,0.03999965,0.04,-5.594194,6.012362480163574,5.305574,0.022544408,-0.06954673677682877,0.09032319
536.5666666665073,0.056442842,-0.9662002,0.055258065,-2.136668,0.5366871,2.011533,1.0834955,0.039999645,0.04,-5.579724,6.023387432098389,5.30834,0.021899251,-0.06806301325559616,0.08834627
536.583333333174,0.056545474,-0.96653247,0.055358816,-2.136266,0.5376661,2.0123367,1.0840384,0.03999965,0.04,-5.5658007,6.034299373626709,5.3110375,0.02125296,-0.06659463793039322,0.08637698
536.5999999998406,0.056645602,-0.96685666,0.055457115,-2.1358738,0.53862125,2.0131211,1.0845681,0.03999965,0.04,-5.5520477,6.044829368591309,5.3136244,0.020608734,-0.06513667851686478,0.084412076
536.6166666665073,0.056743257,-0.9671728,0.055552978,-2.135491,0.5395527,2.0138862,1.0850844,0.03999964,0.04,-5.538695,6.055148601531982,5.316133,0.019964963,-0.06369080394506454,0.082452096
536.6333333331739,0.05683842,-0.96748084,0.055646416,-2.1351185,0.54046065,2.0146313,1.0855877,0.03999964,0.04,-5.525622,6.065187931060791,5.3185253,0.019325355,-0.062255121767520905,0.080497906
536.6499999998406,0.056931127,-0.9677812,0.055737436,-2.1347551,0.54134494,2.0153573,1.0860783,0.039999638,0.04,-5.513041,6.075074195861816,5.320881,0.018685225,-0.06083834543824196,0.07855628
536.6666666665072,0.057021387,-0.9680735,0.05582605,-2.1344013,0.542206,2.016064,1.0865557,0.03999964,0.04,-5.500554,6.084560871124268,5.323117,0.018048797,-0.05942940339446068,0.0766202
536.6833333331739,0.057109226,-0.96835786,0.055912286,-2.1340578,0.54304403,2.0167518,1.0870202,0.039999638,0.04,-5.4885535,6.09388542175293,5.325282,0.017415088,-0.05803609639406204,0.07469261
536.6999999998405,0.05719464,-0.9686342,0.05599615,-2.1337235,0.5438588,2.017421,1.087472,0.039999634,0.04,-5.4769254,6.103006839752197,5.327355,0.016783006,-0.05665718764066696,0.07277739
536.7166666665072,0.057277653,-0.9689029,0.056077655,-2.1333976,0.5446508,2.0180712,1.0879111,0.039999627,0.04,-5.4655337,6.1118083000183105,5.3293214,0.016153505,-0.055290788412094116,0.07087234
536.7333333331738,0.057358284,-0.9691641,0.056156825,-2.1330812,0.54542005,2.018703,1.0883378,0.039999627,0.04,-5.454368,6.120312690734863,5.3312445,0.015529799,-0.05393584445118904,0.06897819
536.7499999998405,0.057436552,-0.96941763,0.05623367,-2.1327746,0.5461668,2.0193162,1.0887516,0.03999963,0.04,-5.4437337,6.128748416900635,5.333115,0.01490893,-0.05259503796696663,0.067095995
536.7666666665071,0.057512477,-0.9696636,0.056308214,-2.1324773,0.5468911,2.0199108,1.0891534,0.039999634,0.04,-5.4332724,6.1367974281311035,5.334907,0.014292751,-0.051271095871925354,0.065226965
536.7833333331738,0.057586074,-0.96990204,0.056380466,-2.1321886,0.5475931,2.0204875,1.0895425,0.03999963,0.04,-5.42321,6.144681930541992,5.3366213,0.01367826,-0.049963440746068954,0.06337262
536.7999999998405,0.057657354,-0.97013307,0.05645047,-2.131909,0.5482732,2.021046,1.0899196,0.03999963,0.04,-5.4133716,6.152273178100586,5.3382406,0.013071626,-0.0486675426363945,0.061532114
536.8166666665071,0.05772635,-0.9703567,0.05651824,-2.1316383,0.54893154,2.0215867,1.0902848,0.039999627,0.04,-5.403908,6.159662246704102,5.3398275,0.0124699585,-0.0473879836499691,0.05970688
536.8333333331738,0.057793103,-0.970573,0.056583785,-2.1313767,0.54956824,2.0221095,1.0906378,0.03999963,0.04,-5.3947926,6.166869163513184,5.3413415,0.011871599,-0.046124838292598724,0.057898935
536.8499999998404,0.05785761,-0.9707819,0.05664714,-2.131124,0.5501836,2.022615,1.0909793,0.039999627,0.04,-5.3860183,6.173840045928955,5.342799,0.011279616,-0.0448809415102005,0.056107383
536.8666666665071,0.057919905,-0.97098356,0.056708306,-2.1308796,0.55077785,2.0231032,1.091309,0.039999623,0.04,-5.3775144,6.1805853843688965,5.34417,0.010691076,-0.04365275055170059,0.05433485
536.8833333331737,0.057980027,-0.97117835,0.056767333,-2.130644,0.5513514,2.023574,1.0916271,0.039999623,0.04,-5.369291,6.187094211578369,5.345472,0.010109936,-0.04244013503193855,0.05258204
536.8999999998404,0.058037978,-0.9713661,0.056824274,-2.1304169,0.5519044,2.0240278,1.0919337,0.039999623,0.04,-5.3614044,6.193421363830566,5.3467655,0.0095348405,-0.0412464365363121,0.05085013
536.916666666507,0.0580938,-0.97154695,0.056879096,-2.1301978,0.552437,2.0244653,1.0922292,0.039999627,0.04,-5.3538136,6.199501991271973,5.3479824,0.008966426,-0.04007294774055481,0.04913624
536.9333333331737,0.058147512,-0.97172105,0.056931864,-2.1299875,0.55294967,2.0248864,1.0925136,0.039999627,0.04,-5.3464923,6.205400466918945,5.3491225,0.008404542,-0.03891390934586525,0.047446344
536.9499999998403,0.05819915,-0.97188824,0.056982584,-2.1297848,0.5534423,2.025291,1.0927868,0.03999963,0.04,-5.3395195,6.211094379425049,5.3502245,0.007849594,-0.03777452930808067,0.045776702
536.966666666507,0.058248736,-0.972049,0.0570313,-2.129591,0.5539156,2.0256796,1.0930493,0.039999627,0.04,-5.3327947,6.21656608581543,5.351273,0.0073036603,-0.03665471449494362,0.044131313
536.9833333331736,0.05829633,-0.97220314,0.057078052,-2.1294053,0.5543697,2.0260525,1.0933009,0.039999627,0.04,-5.326453,6.221919536590576,5.352287,0.0067633893,-0.03555574268102646,0.042511985
536.9999999998403,0.05834193,-0.972351,0.05712285,-2.1292272,0.5548048,2.0264096,1.0935422,0.03999963,0.04,-5.3204527,6.2271223068237305,5.3532386,0.006231256,-0.034478336572647095,0.040918946
537.0166666665069,0.058385592,-0.9724924,0.057165746,-2.1290567,0.5552216,2.0267515,1.0937735,0.039999638,0.04,-5.3144774,6.231927394866943,5.3541465,0.005708048,-0.033420104533433914,0.039351415
537.0333333331736,0.058427338,-0.9726278,0.057206754,-2.1288939,0.55562013,2.0270789,1.0939944,0.03999964,0.04,-5.3089266,6.236653804779053,5.3549833,0.0051916516,-0.03238309174776077,0.037810102
537.0499999998402,0.05846721,-0.9727571,0.05724593,-2.1287382,0.55600065,2.0273914,1.0942053,0.039999638,0.04,-5.303602,6.241194248199463,5.3557982,0.00468516,-0.031365204602479935,0.036295902
537.0666666665069,0.05850524,-0.9728803,0.057283305,-2.128589,0.55636376,2.0276897,1.0944067,0.03999964,0.04,-5.2985563,6.245545864105225,5.3565674,0.0041891523,-0.030369335785508156,0.03481013
537.0833333331735,0.058541458,-0.97299767,0.0573189,-2.1284463,0.5567096,2.0279737,1.0945982,0.039999638,0.04,-5.293712,6.249682426452637,5.3572707,0.0037025434,-0.029391972348093987,0.033352282
537.0999999998402,0.058575917,-0.9731093,0.057352763,-2.1283102,0.5570384,2.0282438,1.0947808,0.03999965,0.04,-5.2891154,6.253638744354248,5.3579535,0.0032296246,-0.028435757383704185,0.031923223
537.1166666665068,0.05860864,-0.97321546,0.057384934,-2.1281812,0.55735093,2.0285,1.0949538,0.039999645,0.04,-5.284815,6.25747537612915,5.3586025,0.0027651908,-0.027500707656145096,0.030526252
537.1333333331735,0.058639698,-0.97331613,0.057415456,-2.1280591,0.55764735,2.0287433,1.0951184,0.039999645,0.04,-5.2808304,6.261190414428711,5.3592377,0.002313581,-0.026591116562485695,0.029162308
537.1499999998401,0.05866911,-0.9734114,0.05744436,-2.1279433,0.5579281,2.0289745,1.0952742,0.039999645,0.04,-5.277095,6.264742374420166,5.359821,0.0018689272,-0.025706259533762932,0.027831146
537.1666666665068,0.058696903,-0.9735017,0.057471693,-2.127834,0.5581935,2.0291924,1.0954212,0.03999965,0.04,-5.2735133,6.268102645874023,5.360324,0.0014369367,-0.0248402152210474,0.026533224
537.1833333331734,0.05872314,-0.97358686,0.057497498,-2.1277313,0.55844414,2.0293977,1.0955601,0.039999653,0.04,-5.270221,6.2713518142700195,5.3608766,0.0010175278,-0.024002669379115105,0.025271738
537.1999999998401,0.058747873,-0.973667,0.057521824,-2.127634,0.5586804,2.0295923,1.095691,0.039999656,0.04,-5.2672167,6.27447509765625,5.361358,0.0006088428,-0.02319362759590149,0.02404654
537.2166666665067,0.058771133,-0.97374254,0.057544705,-2.1275423,0.5589027,2.0297737,1.0958142,0.039999653,0.04,-5.2642927,6.277385711669922,5.361763,0.00021204907,-0.022404050454497337,0.022856696
537.2333333331734,0.058792975,-0.97381335,0.057566192,-2.1274564,0.5591114,2.0299454,1.0959301,0.039999653,0.04,-5.261627,6.2801690101623535,5.3622103,-0.00017112307,-0.02164553292095661,0.021705776
537.24999999984,0.058813445,-0.9738798,0.05758633,-2.1273763,0.559307,2.0301056,1.0960387,0.039999664,0.04,-5.2592883,6.282937049865723,5.3625484,-0.000543818,-0.020909640938043594,0.020591574
537.2666666665067,0.058832586,-0.973942,0.057605173,-2.1273007,0.55949,2.0302563,1.0961399,0.03999966,0.04,-5.257058,6.285489559173584,5.36294,-0.0009035756,-0.02020559273660183,0.019520592
537.2833333331733,0.058850452,-0.9739998,0.057622775,-2.1272304,0.559661,2.0303972,1.0962348,0.039999664,0.04,-5.2548904,6.287841320037842,5.363224,-0.0012467045,-0.01952175982296467,0.018485222
537.29999999984,0.058867097,-0.9740536,0.057639167,-2.1271653,0.55981994,2.030527,1.096323,0.03999967,0.04,-5.253069,6.290183067321777,5.363514,-0.0015790082,-0.018866408616304398,0.017492983
537.3166666665066,0.05888257,-0.9741037,0.057654403,-2.127104,0.55996776,2.0306482,1.096405,0.039999668,0.04,-5.251529,6.292478561401367,5.3638263,-0.0018969886,-0.0182476956397295,0.016547821
537.3333333331733,0.05889694,-0.9741503,0.057668556,-2.127047,0.5601053,2.0307612,1.0964814,0.03999967,0.04,-5.2499137,6.294485092163086,5.364055,-0.0021981131,-0.01765344850718975,0.015642192
537.34999999984,0.05891024,-0.9741935,0.057681657,-2.1269946,0.56023264,2.0308666,1.0965521,0.03999967,0.04,-5.248525,6.296475410461426,5.364273,-0.0024865442,-0.01708446443080902,0.0147787295
537.3666666665066,0.058922537,-0.9742335,0.057693776,-2.1269462,0.56035024,2.0309644,1.0966175,0.03999968,0.04,-5.247404,6.298439025878906,5.364475,-0.0027605183,-0.01654563471674919,0.013960544
537.3833333331733,0.058933884,-0.9742702,0.05770494,-2.1269014,0.56045914,2.0310545,1.0966777,0.03999968,0.04,-5.2463465,6.300254821777344,5.3646593,-0.003017613,-0.01603482849895954,0.013189119
537.3999999998399,0.058944322,-0.9743043,0.05771525,-2.1268601,0.560559,2.031137,1.0967331,0.039999682,0.04,-5.245489,6.302002429962158,5.3648276,-0.003260283,-0.015557481907308102,0.01246316
537.4166666665066,0.058953933,-0.9743355,0.057724755,-2.126822,0.56065094,2.0312119,1.0967838,0.039999686,0.04,-5.244719,6.3036675453186035,5.3650117,-0.003484409,-0.015112700872123241,0.011787702
537.4333333331732,0.05896278,-0.97436434,0.057733484,-2.1267874,0.5607362,2.03128,1.0968306,0.039999682,0.04,-5.244195,6.305294990539551,5.365156,-0.0036913177,-0.014705851674079895,0.0111643765
537.4499999998399,0.05897092,-0.97439086,0.05774153,-2.126755,0.5608144,2.0313447,1.0968736,0.03999969,0.04,-5.2437305,6.306834697723389,5.3653126,-0.003884917,-0.01433597132563591,0.010588218
537.4666666665065,0.058978412,-0.9744153,0.05774894,-2.1267254,0.5608864,2.0314038,1.0969132,0.03999968,0.04,-5.243158,6.308180332183838,5.365353,-0.0040609273,-0.013985064812004566,0.010055927
537.4833333331732,0.058985308,-0.97443783,0.057755765,-2.1266985,0.5609525,2.0314562,1.0969499,0.039999682,0.04,-5.242775,6.309507369995117,5.365476,-0.004223407,-0.013664786703884602,0.009566218
537.4999999998398,0.058991637,-0.9744585,0.05776203,-2.1266732,0.5610132,2.0315075,1.0969839,0.039999682,0.04,-5.2425046,6.310758590698242,5.365613,-0.0043744026,-0.013379178009927273,0.009119247
537.5166666665065,0.05899746,-0.97447747,0.057767797,-2.1266499,0.5610693,2.0315518,1.097015,0.039999686,0.04,-5.241995,6.3117780685424805,5.365604,-0.0045132446,-0.013101798482239246,0.008703115
537.5333333331731,0.059002813,-0.9744949,0.05777311,-2.1266286,0.56112105,2.0315952,1.0970436,0.039999682,0.04,-5.241747,6.312806129455566,5.3657475,-0.004640661,-0.01285904087126255,0.008323237
537.5499999998398,0.05900773,-0.97451085,0.057777993,-2.1266093,0.5611683,2.0316324,1.0970701,0.039999682,0.04,-5.2414174,6.313742637634277,5.365752,-0.004758746,-0.012625529430806637,0.0079703415
537.5666666665064,0.05901225,-0.9745257,0.057782486,-2.1265917,0.5612119,2.0316687,1.0970943,0.039999682,0.04,-5.241253,6.3146538734436035,5.3658814,-0.00486797,-0.01242288388311863,0.0076524154
537.5833333331731,0.0590164,-0.97453934,0.057786617,-2.1265743,0.56125206,2.0317028,1.0971166,0.03999969,0.04,-5.240942,6.315422058105469,5.365898,-0.004967918,-0.012227892875671387,0.007355793
537.5999999998397,0.059020236,-0.97455174,0.057790425,-2.1265588,0.5612891,2.0317318,1.0971371,0.03999969,0.04,-5.2405396,6.316042900085449,5.365913,-0.005057625,-0.012041262350976467,0.007078744
537.6166666665064,0.059023753,-0.9745632,0.057793926,-2.1265447,0.56132305,2.0317605,1.0971559,0.039999686,0.04,-5.2404785,6.316787242889404,5.366032,-0.0051416876,-0.011882077902555466,0.0068283533
537.633333333173,0.059027,-0.9745737,0.057797145,-2.1265328,0.5613544,2.0317872,1.0971733,0.039999682,0.04,-5.240252,6.317403316497803,5.366028,-0.0052191145,-0.011727867648005486,0.0065960214
537.6499999998397,0.059029996,-0.97458345,0.057800114,-2.126521,0.5613831,2.0318086,1.0971894,0.039999682,0.04,-5.240183,6.318056583404541,5.3660765,-0.0052932412,-0.011588127352297306,0.006383811
537.6666666665063,0.059032746,-0.9745924,0.057802845,-2.1265109,0.56140953,2.0318296,1.0972039,0.039999686,0.04,-5.2400017,6.318535804748535,5.3661923,-0.0053596497,-0.011469945311546326,0.0061926018
537.683333333173,0.05903527,-0.97460055,0.05780535,-2.1265008,0.5614339,2.03185,1.0972174,0.03999969,0.04,-5.239885,6.319036960601807,5.366186,-0.0054201307,-0.011357823386788368,0.0060151936
537.6999999998396,0.059037577,-0.9746081,0.057807654,-2.1264908,0.5614564,2.0318694,1.0972301,0.039999682,0.04,-5.2396502,6.31941556930542,5.3661675,-0.0054763313,-0.011247849091887474,0.0058487556
537.7166666665063,0.05903972,-0.97461504,0.05780978,-2.1264818,0.56147707,2.0318882,1.0972415,0.039999686,0.04,-5.2393985,6.3197503089904785,5.366181,-0.005526891,-0.011141657829284668,0.0056930413
537.7333333331729,0.059041664,-0.97462136,0.057811737,-2.1264737,0.5614959,2.031902,1.0972517,0.039999686,0.04,-5.239269,6.3201375007629395,5.366196,-0.00557293,-0.01103998813778162,0.0055485563
537.7499999998396,0.05904346,-0.97462726,0.057813536,-2.126466,0.56151325,2.0319154,1.0972614,0.039999694,0.04,-5.239303,6.3205437660217285,5.366325,-0.0056137997,-0.01096263900399208,0.0054220753
537.7666666665062,0.05904512,-0.97463274,0.057815194,-2.1264591,0.56152964,2.0319288,1.0972708,0.039999686,0.04,-5.239151,6.320826530456543,5.3663235,-0.005652915,-0.01088773924857378,0.0053041265
537.7833333331729,0.05904665,-0.9746377,0.05781672,-2.1264532,0.5615445,2.0319407,1.0972792,0.039999686,0.04,-5.2390327,6.32111930847168,5.366325,-0.0056918324,-0.01081486139446497,0.005192477
537.7999999998395,0.059048057,-0.9746422,0.057818126,-2.126448,0.56155795,2.0319526,1.0972866,0.039999682,0.04,-5.23902,6.321433067321777,5.3663487,-0.0057267486,-0.01075090654194355,0.0050923526
537.8166666665062,0.059049353,-0.97464633,0.05781942,-2.1264439,0.5615707,2.0319638,1.0972929,0.039999686,0.04,-5.238946,6.321690082550049,5.366345,-0.0057577626,-0.010688514448702335,0.0050001815
537.8333333331728,0.059050534,-0.97465026,0.057820603,-2.1264398,0.56158215,2.031975,1.0972989,0.039999686,0.04,-5.2389545,6.321977615356445,5.366373,-0.0057866266,-0.010633323341608047,0.0049154395
537.8499999998395,0.05905161,-0.97465384,0.057821687,-2.1264358,0.561593,2.0319812,1.0973048,0.03999969,0.04,-4.903799,6.157569885253906,5.4053063,0.0,-0.0,0.0
537.8666666665061,0.05905161,-0.97465384,0.057821687,-2.1264358,0.561593,2.0319812,1.0973048,0.03999969,0.04,-5.2399235,6.323115825653076,5.366332,0.0,-0.0,0.0
537.8833333331728,0.05905161,-0.97465384,0.057821687,-2.1264358,0.561593,2.0319812,1.0973048,0.03999969,0.04,-5.2399235,6.323115825653076,5.366332,0.0,-0.0,0.0
537.8999999998395,0.05905161,-0.97465384,0.057821687,-2.1264358,0.561593,2.0319812,1.0973048,0.03999969,0.04,-5.2399235,6.323115825653076,5.366332,0.0,-0.0,0.0
537.9166666665061,0.05905161,-0.97465384,0.057821687,-2.1264358,0.561593,2.0319812,1.0973048,0.03999969,0.04,-5.2399235,6.323115825653076,5.366332,0.0,-0.0,0.0
537.9333333331728,0.05905161,-0.97465384,0.057821687,-2.1264358,0.561593,2.0319812,1.0973048,0.03999969,0.04,-5.2399235,6.323115825653076,5.366332,0.0,-0.0,0.0
537.9499999998394,0.05905161,-0.97465384,0.057821687,-2.1264358,0.561593,2.0319812,1.0973048,0.03999969,0.04,-5.2399235,6.323115825653076,5.366332,0.0,-0.0,0.0
537.9666666665061,0.05905161,-0.97465384,0.057821687,-2.1264358,0.561593,2.0319812,1.0973048,0.03999969,0.04,-5.2399235,6.323115825653076,5.366332,0.0,-0.0,0.0
537.9833333331727,0.05905161,-0.97465384,0.057821687,-2.1264358,0.561593,2.0319812,1.0973048,0.03999969,0.04,-5.2399235,6.323115825653076,5.366332,0.0,-0.0,0.0
537.9999999998394,0.05905161,-0.97465384,0.057821687,-2.1264358,0.561593,2.0319812,1.0973048,0.03999969,0.04,-5.2399235,6.323115825653076,5.366332,0.0,-0.0,0.0
538.016666666506,0.05905161,-0.97465384,0.057821687,-2.1264358,0.561593,2.0319812,1.0973048,0.03999969,0.04,-5.2399235,6.323115825653076,5.366332,0.0,-0.0,0.0
538.0333333331727,0.05905161,-0.97465384,0.057821687,-2.1264358,0.561593,2.0319812,1.0973048,0.03999969,0.04,-5.2399235,6.323115825653076,5.366332,0.0,-0.0,0.0
538.0499999998393,0.05905161,-0.97465384,0.057821687,-2.1264358,0.561593,2.0319812,1.0973048,0.03999969,0.04,-5.2399235,6.323115825653076,5.366332,0.0,-0.0,0.0
538.066666666506,0.05905161,-0.97465384,0.057821687,-2.1264358,0.561593,2.0319812,1.0973048,0.03999969,0.04,-5.2399235,6.323115825653076,5.366332,0.0,-0.0,0.0
538.0833333331726,0.05905161,-0.97465384,0.057821687,-2.1264358,0.561593,2.0319812,1.0973048,0.03999969,0.04,-5.2399235,6.323115825653076,5.366332,0.0,-0.0,0.0
538.0999999998393,0.05905161,-0.97465384,0.057821687,-2.1264358,0.561593,2.0319812,1.0973048,0.03999969,0.04,-5.2399235,6.323115825653076,5.366332,0.0,-0.0,0.0
538.1166666665059,0.05905161,-0.97465384,0.057821687,-2.1264358,0.561593,2.0319812,1.0973048,0.03999969,0.04,-5.2399235,6.323115825653076,5.366332,0.0,-0.0,0.0
538.1333333331726,0.05905161,-0.97465384,0.057821687,-2.1264358,0.561593,2.0319812,1.0973048,0.03999969,0.04,-5.2399235,6.323115825653076,5.366332,0.0,-0.0,0.0
538.1499999998392,0.05905161,-0.97465384,0.057821687,-2.1264358,0.561593,2.0319812,1.0973048,0.03999969,0.04,-5.2399235,6.323115825653076,5.366332,0.0,-0.0,0.0
538.1666666665059,0.05905161,-0.97465384,0.057821687,-2.1264358,0.561593,2.0319812,1.0973048,0.03999969,0.04,-5.2399235,6.323115825653076,5.366332,0.0,-0.0,0.0
538.1833333331725,0.05905161,-0.97465384,0.057821687,-2.1264358,0.561593,2.0319812,1.0973048,0.03999969,0.04,-5.2399235,6.323115825653076,5.366332,0.0,-0.0,0.0
538.1999999998392,0.05905161,-0.97465384,0.057821687,-2.1264358,0.561593,2.0319812,1.0973048,0.03999969,0.04,-5.2399235,6.323115825653076,5.366332,0.0,-0.0,0.0
538.2166666665058,0.05905161,-0.97465384,0.057821687,-2.1264358,0.561593,2.0319812,1.0973048,0.03999969,0.04,-5.2399235,6.323115825653076,5.366332,0.0,-0.0,0.0
538.2333333331725,0.05905161,-0.97465384,0.057821687,-2.1264358,0.561593,2.0319812,1.0973048,0.03999969,0.04,-5.2399235,6.323115825653076,5.366332,0.0,-0.0,0.0
538.2499999998391,0.05905161,-0.97465384,0.057821687,-2.1264358,0.561593,2.0319812,1.0973048,0.03999969,0.04,-5.2399235,6.323115825653076,5.366332,0.0,-0.0,0.0
538.2666666665058,0.05905161,-0.97465384,0.057821687,-2.1264358,0.561593,2.0319812,1.0973048,0.03999969,0.04,-5.2399235,6.323115825653076,5.366332,0.0,-0.0,0.0
538.2833333331724,0.05905161,-0.97465384,0.057821687,-2.1264358,0.561593,2.0319812,1.0973048,0.03999969,0.04,-5.2399235,6.323115825653076,5.366332,0.0,-0.0,0.0
538.2999999998391,0.05905161,-0.97465384,0.057821687,-2.1264358,0.561593,2.0319812,1.0973048,0.03999969,0.04,-5.2399235,6.323115825653076,5.366332,0.0,-0.0,0.0
538.3166666665057,0.05905161,-0.97465384,0.057821687,-2.1264358,0.561593,2.0319812,1.0973048,0.03999969,0.04,-5.2399235,6.323115825653076,5.366332,0.0,-0.0,0.0
538.3333333331724,0.05905161,-0.97465384,0.057821687,-2.1264358,0.561593,2.0319812,1.0973048,0.03999969,0.04,-5.2399235,6.323115825653076,5.366332,0.0,-0.0,0.0
538.349999999839,0.05905161,-0.97465384,0.057821687,-2.1264358,0.561593,2.0319812,1.0973048,0.03999969,0.04,-5.2399235,6.323115825653076,5.366332,0.0,-0.0,0.0
538.3666666665057,0.05905161,-0.97465384,0.057821687,-2.1264358,0.561593,2.0319812,1.0973048,0.03999969,0.04,-5.2399235,6.323115825653076,5.366332,0.0,-0.0,0.0
538.3833333331723,0.05905161,-0.97465384,0.057821687,-2.1264358,0.561593,2.0319812,1.0973048,0.03999969,0.04,-5.2399235,6.323115825653076,5.366332,0.0,-0.0,0.0
538.399999999839,0.05905161,-0.97465384,0.057821687,-2.1264358,0.561593,2.0319812,1.0973048,0.03999969,0.04,-5.2399235,6.323115825653076,5.366332,0.0,-0.0,0.0
538.4166666665056,0.05905161,-0.97465384,0.057821687,-2.1264358,0.561593,2.0319812,1.0973048,0.03999969,0.04,-5.2399235,6.323115825653076,5.366332,0.0,-0.0,0.0
538.4333333331723,0.05905161,-0.97465384,0.057821687,-2.1264358,0.561593,2.0319812,1.0973048,0.03999969,0.04,-5.2399235,6.323115825653076,5.366332,0.0,-0.0,0.0
538.449999999839,0.05905161,-0.97465384,0.057821687,-2.1264358,0.561593,2.0319812,1.0973048,0.03999969,0.04,-5.2399235,6.323115825653076,5.366332,0.0,-0.0,0.0
538.4666666665056,0.05905161,-0.97465384,0.057821687,-2.1264358,0.561593,2.0319812,1.0973048,0.03999969,0.04,-5.2399235,6.323115825653076,5.366332,0.0,-0.0,0.0
538.4833333331723,0.05905161,-0.97465384,0.057821687,-2.1264358,0.561593,2.0319812,1.0973048,0.03999969,0.04,-5.2399235,6.323115825653076,5.366332,0.0,-0.0,0.0
538.4999999998389,0.05905161,-0.97465384,0.057821687,-2.1264358,0.561593,2.0319812,1.0973048,0.03999969,0.04,-5.2399235,6.323115825653076,5.366332,0.0,-0.0,0.0
538.5166666665056,0.05905161,-0.97465384,0.057821687,-2.1264358,0.561593,2.0319812,1.0973048,0.03999969,0.04,-5.2399235,6.323115825653076,5.366332,0.0,-0.0,0.0
538.5333333331722,0.05905161,-0.97465384,0.057821687,-2.1264358,0.561593,2.0319812,1.0973048,0.03999969,0.04,-5.2399235,6.323115825653076,5.366332,0.0,-0.0,0.0
538.5499999998389,0.05905161,-0.97465384,0.057821687,-2.1264358,0.561593,2.0319812,1.0973048,0.03999969,0.04,-5.2399235,6.323115825653076,5.366332,0.0,-0.0,0.0
538.5666666665055,0.05905161,-0.97465384,0.057821687,-2.1264358,0.561593,2.0319812,1.0973048,0.03999969,0.04,-5.2399235,6.323115825653076,5.366332,0.0,-0.0,0.0
538.5833333331722,0.05905161,-0.97465384,0.057821687,-2.1264358,0.561593,2.0319812,1.0973048,0.03999969,0.04,-5.2399235,6.323115825653076,5.366332,0.0,-0.0,0.0
538.5999999998388,0.05905161,-0.97465384,0.057821687,-2.1264358,0.561593,2.0319812,1.0973048,0.03999969,0.04,-5.2399235,6.323115825653076,5.366332,0.0,-0.0,0.0
538.6166666665055,0.05905161,-0.97465384,0.057821687,-2.1264358,0.561593,2.0319812,1.0973048,0.03999969,0.04,-5.2399235,6.323115825653076,5.366332,0.0,-0.0,0.0
538.6333333331721,0.05905161,-0.97465384,0.057821687,-2.1264358,0.561593,2.0319812,1.0973048,0.03999969,0.04,-5.2399235,6.323115825653076,5.366332,0.0,-0.0,0.0
538.6499999998388,0.05905161,-0.97465384,0.057821687,-2.1264358,0.561593,2.0319812,1.0973048,0.03999969,0.04,-5.2399235,6.323115825653076,5.366332,0.0,-0.0,0.0
538.6666666665054,0.05905161,-0.97465384,0.057821687,-2.1264358,0.561593,2.0319812,1.0973048,0.03999969,0.04,-5.2399235,6.323115825653076,5.366332,0.0,-0.0,0.0
538.6833333331721,0.05905161,-0.97465384,0.057821687,-2.1264358,0.561593,2.0319812,1.0973048,0.03999969,0.04,-5.2399235,6.323115825653076,5.366332,0.0,-0.0,0.0
538.6999999998387,0.05905161,-0.97465384,0.057821687,-2.1264358,0.561593,2.0319812,1.0973048,0.03999969,0.04,-5.2399235,6.323115825653076,5.366332,0.0,-0.0,0.0
538.7166666665054,0.05905161,-0.97465384,0.057821687,-2.1264358,0.561593,2.0319812,1.0973048,0.03999969,0.04,-5.2399235,6.323115825653076,5.366332,0.0,-0.0,0.0
538.733333333172,0.05905161,-0.97465384,0.057821687,-2.1264358,0.561593,2.0319812,1.0973048,0.03999969,0.04,-5.2399235,6.323115825653076,5.366332,0.0,-0.0,0.0
538.7499999998387,0.05905161,-0.97465384,0.057821687,-2.1264358,0.561593,2.0319812,1.0973048,0.03999969,0.04,-5.2399235,6.323115825653076,5.366332,0.0,-0.0,0.0
538.7666666665053,0.05905161,-0.97465384,0.057821687,-2.1264358,0.561593,2.0319812,1.0973048,0.03999969,0.04,-5.2399235,6.323115825653076,5.366332,0.0,-0.0,0.0
538.783333333172,0.05905161,-0.97465384,0.057821687,-2.1264358,0.561593,2.0319812,1.0973048,0.03999969,0.04,-5.2399235,6.323115825653076,5.366332,0.0,-0.0,0.0
538.7999999998386,0.05905161,-0.97465384,0.057821687,-2.1264358,0.561593,2.0319812,1.0973048,0.03999969,0.04,-5.2399235,6.323115825653076,5.366332,0.0,-0.0,0.0
538.8166666665053,0.05905161,-0.97465384,0.057821687,-2.1264358,0.561593,2.0319812,1.0973048,0.03999969,0.04,-5.2399235,6.323115825653076,5.366332,0.0,-0.0,0.0
538.8333333331719,0.05905161,-0.97465384,0.057821687,-2.1264358,0.561593,2.0319812,1.0973048,0.03999969,0.04,-5.2399235,6.323115825653076,5.366332,0.0,-0.0,0.0
538.8499999998386,0.05905161,-0.97465384,0.057821687,-2.1264358,0.561593,2.0319812,1.0973048,0.03999969,0.04,-5.2399235,6.323115825653076,5.366332,0.0,-0.0,0.0
538.8666666665052,0.05905161,-0.97465384,0.057821687,-2.1264358,0.561593,2.0319812,1.0973048,0.03999969,0.04,-5.2399235,6.323115825653076,5.366332,0.0,-0.0,0.0
538.8833333331719,0.05905161,-0.97465384,0.057821687,-2.1264358,0.561593,2.0319812,1.0973048,0.03999969,0.04,-5.2399235,6.323115825653076,5.366332,0.0,-0.0,0.0
538.8999999998385,0.05905161,-0.97465384,0.057821687,-2.1264358,0.561593,2.0319812,1.0973048,0.03999969,0.04,-5.2399235,6.323115825653076,5.366332,0.0,-0.0,0.0
538.9166666665052,0.05905161,-0.97465384,0.057821687,-2.1264358,0.561593,2.0319812,1.0973048,0.03999969,0.04,-5.2399235,6.323115825653076,5.366332,0.0,-0.0,0.0
538.9333333331718,0.05905161,-0.97465384,0.057821687,-2.1264358,0.561593,2.0319812,1.0973048,0.03999969,0.04,-5.2399235,6.323115825653076,5.366332,0.0,-0.0,0.0
538.9499999998385,0.05905161,-0.97465384,0.057821687,-2.1264358,0.561593,2.0319812,1.0973048,0.03999969,0.04,-5.2399235,6.323115825653076,5.366332,0.0,-0.0,0.0
538.9666666665051,0.05905161,-0.97465384,0.057821687,-2.1264358,0.561593,2.0319812,1.0973048,0.03999969,0.04,-5.2399235,6.323115825653076,5.366332,0.0,-0.0,0.0
538.9833333331718,0.05905161,-0.97465384,0.057821687,-2.1264358,0.561593,2.0319812,1.0973048,0.03999969,0.04,-5.2399235,6.323115825653076,5.366332,0.0,-0.0,0.0
538.9999999998385,0.05905161,-0.97465384,0.057821687,-2.1264358,0.561593,2.0319812,1.0973048,0.03999969,0.04,-5.2399235,6.323115825653076,5.366332,0.0,-0.0,0.0
539.0166666665051,0.05905161,-0.97465384,0.057821687,-2.1264358,0.561593,2.0319812,1.0973048,0.03999969,0.04,-5.2399235,6.323115825653076,5.366332,0.0,-0.0,0.0
539.0333333331718,0.05905161,-0.97465384,0.057821687,-2.1264358,0.561593,2.0319812,1.0973048,0.03999969,0.04,-5.2399235,6.323115825653076,5.366332,0.0,-0.0,0.0
539.0499999998384,0.05905161,-0.97465384,0.057821687,-2.1264358,0.561593,2.0319812,1.0973048,0.03999969,0.04,-5.2399235,6.323115825653076,5.366332,0.0,-0.0,0.0
539.0666666665051,0.05905161,-0.97465384,0.057821687,-2.1264358,0.561593,2.0319812,1.0973048,0.03999969,0.04,-5.2399235,6.323115825653076,5.366332,0.0,-0.0,0.0
539.0833333331717,0.05905161,-0.97465384,0.057821687,-2.1264358,0.561593,2.0319812,1.0973048,0.03999969,0.04,-5.2399235,6.323115825653076,5.366332,0.0,-0.0,0.0
539.0999999998384,0.05905161,-0.97465384,0.057821687,-2.1264358,0.561593,2.0319812,1.0973048,0.03999969,0.04,-5.2399235,6.323115825653076,5.366332,0.0,-0.0,0.0
539.116666666505,0.05905161,-0.97465384,0.057821687,-2.1264358,0.561593,2.0319812,1.0973048,0.03999969,0.04,-5.2399235,6.323115825653076,5.366332,0.0,-0.0,0.0
539.1333333331717,0.05905161,-0.97465384,0.057821687,-2.1264358,0.561593,2.0319812,1.0973048,0.03999969,0.04,-5.2399235,6.323115825653076,5.366332,0.0,-0.0,0.0
539.1499999998383,0.05905161,-0.97465384,0.057821687,-2.1264358,0.561593,2.0319812,1.0973048,0.03999969,0.04,-5.2399235,6.323115825653076,5.366332,0.0,-0.0,0.0
539.166666666505,0.05905161,-0.97465384,0.057821687,-2.1264358,0.561593,2.0319812,1.0973048,0.03999969,0.04,-5.2399235,6.323115825653076,5.366332,0.0,-0.0,0.0
539.1833333331716,0.05905161,-0.97465384,0.057821687,-2.1264358,0.561593,2.0319812,1.0973048,0.03999969,0.04,-5.2399235,6.323115825653076,5.366332,0.0,-0.0,0.0
539.1999999998383,0.05905161,-0.97465384,0.057821687,-2.1264358,0.561593,2.0319812,1.0973048,0.03999969,0.04,-5.2399235,6.323115825653076,5.366332,0.0,-0.0,0.0
539.2166666665049,0.05905161,-0.97465384,0.057821687,-2.1264358,0.561593,2.0319812,1.0973048,0.03999969,0.04,-5.2399235,6.323115825653076,5.366332,0.0,-0.0,0.0
539.2333333331716,0.05905161,-0.97465384,0.057821687,-2.1264358,0.561593,2.0319812,1.0973048,0.03999969,0.04,-5.2399235,6.323115825653076,5.366332,0.0,-0.0,0.0
539.2499999998382,0.05905161,-0.97465384,0.057821687,-2.1264358,0.561593,2.0319812,1.0973048,0.03999969,0.04,-5.2399235,6.323115825653076,5.366332,0.0,-0.0,0.0
539.2666666665049,0.05905161,-0.97465384,0.057821687,-2.1264358,0.561593,2.0319812,1.0973048,0.03999969,0.04,-5.2399235,6.323115825653076,5.366332,0.0,-0.0,0.0
539.2833333331715,0.05905161,-0.97465384,0.057821687,-2.1264358,0.561593,2.0319812,1.0973048,0.03999969,0.04,-5.2399235,6.323115825653076,5.366332,0.0,-0.0,0.0
539.2999999998382,0.05905161,-0.97465384,0.057821687,-2.1264358,0.561593,2.0319812,1.0973048,0.03999969,0.04,-5.2399235,6.323115825653076,5.366332,0.0,-0.0,0.0
539.3166666665048,0.05905161,-0.97465384,0.057821687,-2.1264358,0.561593,2.0319812,1.0973048,0.03999969,0.04,-5.2399235,6.323115825653076,5.366332,0.0,-0.0,0.0
539.3333333331715,0.05905161,-0.97465384,0.057821687,-2.1264358,0.561593,2.0319812,1.0973048,0.03999969,0.04,-5.2399235,6.323115825653076,5.366332,0.0,-0.0,0.0
539.3499999998381,0.05905161,-0.97465384,0.057821687,-2.1264358,0.561593,2.0319812,1.0973048,0.03999969,0.04,-5.2399235,6.323115825653076,5.366332,0.0,-0.0,0.0
539.3666666665048,0.05905161,-0.97465384,0.057821687,-2.1264358,0.561593,2.0319812,1.0973048,0.03999969,0.04,-5.2399235,6.323115825653076,5.366332,0.0,-0.0,0.0
539.3833333331714,0.05905161,-0.97465384,0.057821687,-2.1264358,0.561593,2.0319812,1.0973048,0.03999969,0.04,-5.2399235,6.323115825653076,5.366332,0.0,-0.0,0.0
539.3999999998381,0.05905161,-0.97465384,0.057821687,-2.1264358,0.561593,2.0319812,1.0973048,0.03999969,0.04,-5.2399235,6.323115825653076,5.366332,0.0,-0.0,0.0
539.4166666665047,0.05905161,-0.97465384,0.057821687,-2.1264358,0.561593,2.0319812,1.0973048,0.03999969,0.04,-5.2399235,6.323115825653076,5.366332,0.0,-0.0,0.0
539.4333333331714,0.05905161,-0.97465384,0.057821687,-2.1264358,0.561593,2.0319812,1.0973048,0.03999969,0.04,-5.2399235,6.323115825653076,5.366332,0.0,-0.0,0.0
539.449999999838,0.05905161,-0.97465384,0.057821687,-2.1264358,0.561593,2.0319812,1.0973048,0.03999969,0.04,-5.2399235,6.323115825653076,5.366332,0.0,-0.0,0.0
