rsonawane2002/My_IMU/logs_2/traj_299/imu_400hz_299.csv
time,j1,j2,j3,j4,j5,j6,j7,gripper1,gripper2,imu_ax,imu_ay,imu_az,imu_gx,imu_gy,imu_gz
0.0,0.00016700293,-0.785875,4.0107683e-05,-2.3551247,9.29385e-05,1.570997,0.786,0.04,0.04,-9.524207,-0.0038030771538615,0.114826776,1.0754846e-07,-0.0011641276068985,-3.5786293e-08
0.0025,0.0001670034805,-0.785857774,4.010886725e-05,-2.35513919,9.294525660000001e-05,1.570996565,0.786,0.04,0.04,-9.570737450000042,-0.0031362653593526484,0.09896552609998557,1.0406665249999684e-07,-0.0013253155164421567,1.952298309502101e-07
0.005,0.000167004031,-0.785840548,4.0110051500000005e-05,-2.3551536800000004,9.295201320000001e-05,1.57099613,0.786,0.04,0.04,-9.617267900000085,-0.0024694535648437967,0.08310427619997116,1.0058484499999366e-07,-0.0014865034259858132,4.2624595490042025e-07
0.0075,0.0001670045815,-0.7858233219999999,4.011123575e-05,-2.3551681700000002,9.295876980000002e-05,1.570995695,0.786,0.04,0.04,-9.663798350000127,-0.0018026417703349454,0.06724302629995672,9.710303749999051e-08,-0.0016476913355294698,6.572620788506303e-07
0.01,0.000167005132,-0.785806096,4.011242000000001e-05,-2.35518266,9.296552640000002e-05,1.5709952600000001,0.786,0.04,0.04,-9.71032880000017,-0.0011358299758260936,0.05138177639994229,9.362122999998734e-08,-0.0018088792450731265,8.882782028008405e-07
0.0125,0.0001670056825,-0.78578887,4.0113604250000005e-05,-2.3551971500000004,9.297228300000002e-05,1.570994825,0.786,0.04,0.04,-9.756859250000211,-0.00046901818131724234,0.03552052649992786,9.013942249998417e-08,-0.001970067154616783,1.1192943267510505e-06
0.015,0.000167006233,-0.785771644,4.01147885e-05,-2.3552116400000003,9.297903960000003e-05,1.57099439,0.786,0.04,0.04,-9.803389700000254,0.0001977936131916094,0.01965927659991344,8.665761499998101e-08,-0.0021312550641604394,1.3503104507012605e-06
0.0175,0.0001670070875,-0.785754867,4.011627630000001e-05,-2.3552257350000003,9.29889393000001e-05,1.57099396,0.786,0.04,0.04,-9.83431765,0.0006439768272685164,0.009009883809998563,1.5786676450140453e-07,-0.0022885204525673213,1.7025665400037868e-06
0.02,0.00016700855,-0.785738988,4.0118371200000016e-05,-2.3552390400000003,9.300512520000012e-05,1.5709935400000001,0.786,0.04,0.04,-9.834040599999998,0.0006489028804935759,0.008784205239998358,3.78457828001605e-07,-0.002437940798700867,2.2973025600043275e-06
0.0225,0.00016701001250000002,-0.7857231089999999,4.0120466100000015e-05,-2.3552523450000002,9.302131110000013e-05,1.57099312,0.786,0.04,0.04,-9.833763549999999,0.0006538289337186354,0.008558526669998153,5.990488915018056e-07,-0.002587361144834413,2.892038580004868e-06
0.025,0.000167011475,-0.7857072299999999,4.012256100000002e-05,-2.35526565,9.303749700000014e-05,1.5709927,0.786,0.04,0.04,-9.833486499999998,0.0006587549869436948,0.008332848099997948,8.196399550020064e-07,-0.002736781490967959,3.4867746000054096e-06
0.0275,0.00016701293750000001,-0.7856913509999999,4.012465590000002e-05,-2.355278955,9.305368290000016e-05,1.57099228,0.786,0.04,0.04,-9.833209449999998,0.0006636810401687543,0.008107169529997743,1.0402310185022068e-06,-0.002886201837101505,4.08151062000595e-06
0.03,0.00016701440000000003,-0.7856754719999999,4.0126750800000027e-05,-2.35529226,9.306986880000018e-05,1.57099186,0.786,0.04,0.04,-9.832932399999997,0.0006686070933938137,0.007881490959997538,1.2608220820024074e-06,-0.003035622183235051,4.676246640006491e-06
0.0325,0.00016701586250000004,-0.7856595929999999,4.0128845700000026e-05,-2.355305565,9.30860547000002e-05,1.57099144,0.786,0.04,0.04,-9.832655349999998,0.0006735331466188732,0.007655812389997332,1.481413145502608e-06,-0.0031850425293685966,5.270982660007032e-06
0.035,0.00016701901300000005,-0.7856445729999998,4.013265060000006e-05,-2.3553181,9.311931400000053e-05,1.57099101,0.786,0.04,0.04,-9.832396199999998,0.0006817874964327363,0.007445782009997425,1.946802800007485e-06,-0.0033276102971302518,6.4403372000185494e-06
0.0375,0.00016702300750000005,-0.7856299824999998,4.0137310500000066e-05,-2.35533025,9.316111000000057e-05,1.570990575,0.786,0.04,0.04,-9.832145999999996,0.0006917059945409103,0.007243575724997241,2.534591750008018e-06,-0.0034667517757061483,7.897001000019872e-06
0.04,0.00016702700200000006,-0.7856153919999997,4.014197040000007e-05,-2.3553424,9.32029060000006e-05,1.57099014,0.786,0.04,0.04,-9.831895799999996,0.0007016244926490844,0.0070413694399970575,3.1223807000085536e-06,-0.003605893254282045,9.353664800021199e-06
0.0425,0.00016703099650000006,-0.7856008014999998,4.014663030000007e-05,-2.35535455,9.324470200000064e-05,1.5709897050000001,0.786,0.04,0.04,-9.831645599999996,0.0007115429907572584,0.0068391631549968735,3.7101696500090885e-06,-0.0037450347328579414,1.0810328600022524e-05
0.045,0.00016703499100000007,-0.7855862109999998,4.015129020000007e-05,-2.3553667000000003,9.328649800000068e-05,1.57098927,0.786,0.04,0.04,-9.831395399999996,0.0007214614888654324,0.00663695686999669,4.297958600009622e-06,-0.003884176211433838,1.2266992400023847e-05
0.0475,0.00016703898550000007,-0.7855716204999997,4.0155950100000076e-05,-2.35537885,9.332829400000072e-05,1.570988835,0.786,0.04,0.04,-9.831145199999996,0.0007313799869736065,0.006434750584996506,4.885747550010157e-06,-0.0040233176900097345,1.3723656200025172e-05
0.05,0.00016704298000000015,-0.7855570299999998,4.016061000000017e-05,-2.355391,9.337009000000166e-05,1.5709884,0.786,0.04,0.04,-9.830894999999996,0.0007412984850818764,0.006232544299996755,5.473536500020536e-06,-0.004162459168585467,1.5180320000048968e-05
0.0525,0.00016705186300000017,-0.7855436109999997,4.017020910000018e-05,-2.3554021300000003,9.346097500000173e-05,1.57098798,0.786,0.04,0.04,-9.830655599999995,0.0007564903789900852,0.006054180544996593,6.602479400021561e-06,-0.004292602674106706,1.787213345005141e-05
0.055,0.00016706074600000018,-0.7855301919999997,4.017980820000019e-05,-2.35541326,9.355186000000182e-05,1.57098756,0.786,0.04,0.04,-9.830416199999995,0.000771682272898294,0.005875816789996431,7.731422300022589e-06,-0.0044227461796279436,2.056394690005386e-05
0.0575,0.00016706962900000017,-0.7855167729999997,4.0189407300000196e-05,-2.35542439,9.36427450000019e-05,1.57098714,0.786,0.04,0.04,-9.830176799999995,0.0007868741668065028,0.005697453034996269,8.860365200023617e-06,-0.004552889685149182,2.3255760350056307e-05
0.06,0.00016707851200000018,-0.7855033539999997,4.0199006400000205e-05,-2.3554355200000003,9.373363000000199e-05,1.57098672,0.786,0.04,0.04,-9.829937399999995,0.0008020660607147116,0.005519089279996107,9.989308100024641e-06,-0.00468303319067042,2.594757380005875e-05
0.0625,0.0001670873950000002,-0.7854899349999998,4.0208605500000215e-05,-2.35544665,9.382451500000206e-05,1.5709863,0.786,0.04,0.04,-9.829697999999995,0.0008172579546229204,0.0053407255249959444,1.111825100002567e-05,-0.004813176696191659,2.8639387250061202e-05
0.065,0.0001670962780000002,-0.7854765159999997,4.0218204600000225e-05,-2.35545778,9.391540000000214e-05,1.57098588,0.786,0.04,0.04,-9.829458599999995,0.0008324498485311292,0.005162361769995781,1.2247193900026697e-05,-0.004943320201712897,3.133120070006365e-05
0.0675,0.0001671077960000004,-0.7854634664999997,4.023044605000043e-05,-2.35546854,9.403344250000423e-05,1.570985615,0.786,0.04,0.0399999995,-9.829238599999996,0.0008493843080946165,0.0049870752899958464,1.3644484625047495e-05,-0.005071095307360586,3.462322335011032e-05
0.07,0.00016712458400000043,-0.7854511559999997,4.0247972200000445e-05,-2.3554785600000003,9.420580000000439e-05,1.57098566,0.786,0.04,0.039999998,-9.829057399999996,0.00086980389896828,0.004817943359995692,1.5578471000049257e-05,-0.005194133613261693,3.9115664400114414e-05
0.0725,0.00016714137200000043,-0.7854388454999996,4.026549835000046e-05,-2.3554885800000003,9.437815750000454e-05,1.570985705,0.786,0.04,0.0399999965,-9.828876199999996,0.0008902234898419435,0.004648811429995539,1.7512457375051005e-05,-0.0053171719191628,4.360810545011848e-05
0.075,0.00016715816000000046,-0.7854265349999996,4.028302450000048e-05,-2.3554986,9.45505150000047e-05,1.57098575,0.786,0.04,0.039999994999999997,-9.828694999999996,0.000910643080715607,0.004479679499995386,1.9446443750052765e-05,-0.005440210225063907,4.810054650012257e-05
0.0775,0.00016717494800000046,-0.7854142244999996,4.0300550650000495e-05,-2.35550862,9.472287250000485e-05,1.570985795,0.786,0.04,0.0399999935,-9.828513799999996,0.0009310626715892706,0.004310547569995231,2.1380430125054526e-05,-0.005563248530965013,5.259298755012666e-05
0.08,0.0001671917360000005,-0.7854019139999996,4.031807680000051e-05,-2.3555186400000006,9.489523000000501e-05,1.5709858399999999,0.786,0.04,0.039999992,-9.828332599999996,0.0009514822624629342,0.004141415639995078,2.3314416500056287e-05,-0.00568628683686612,5.708542860013075e-05
0.0825,0.00016720852400000052,-0.7853896034999996,4.033560295000053e-05,-2.3555286600000005,9.506758750000518e-05,1.570985885,0.786,0.04,0.0399999905,-9.828151399999996,0.0009719018533365978,0.003972283709994924,2.5248402875058048e-05,-0.0058093251427672275,6.157786965013483e-05
0.085,0.00016723304400000088,-0.7853779769999996,4.03608533000009e-05,-2.3555381700000004,9.531451700000879e-05,1.57098596,0.78600019,0.04,0.0399999905,-9.827963099999995,0.000993454246782414,0.003809123379995047,2.781658350008923e-05,-0.00592665858567113,6.708311550018591e-05
0.08750000000000001,0.00016726143000000092,-0.7853666924999996,4.038996575000093e-05,-2.3555474250000006,9.559873250000904e-05,1.57098605,0.786000475,0.04,0.03999999125,-9.827771249999994,0.001015573041514229,0.003648948849994901,3.0701861250091856e-05,-0.0060411395970768195,7.309476375019139e-05
0.09,0.00016728981600000093,-0.7853554079999996,4.041907820000095e-05,-2.3555566800000003,9.58829480000093e-05,1.57098614,0.7860007600000001,0.04,0.039999992,-9.827579399999994,0.001037691836246044,0.003488774319994756,3.3587139000094464e-05,-0.006155620608482508,7.910641200019683e-05
0.0925,0.00016731820200000097,-0.7853441234999996,4.0448190650000984e-05,-2.3555659350000004,9.616716350000957e-05,1.57098623,0.786001045,0.04,0.039999992750000005,-9.827387549999994,0.0010598106309778592,0.0033285997899946103,3.647241675009709e-05,-0.006270101619888197,8.51180602502023e-05
0.095,0.00016734658800000098,-0.7853328389999996,4.047730310000101e-05,-2.3555751900000006,9.645137900000982e-05,1.57098632,0.78600133,0.04,0.039999993500000004,-9.827195699999994,0.0010819294257096745,0.003168425259994464,3.935769450009972e-05,-0.006384582631293887,9.112970850020776e-05
0.0975,0.00016737497400000101,-0.7853215544999995,4.0506415550001034e-05,-2.3555844450000003,9.673559450001008e-05,1.57098641,0.786001615,0.04,0.039999994250000004,-9.827003849999993,0.0011040482204414896,0.003008250729994318,4.2242972250102346e-05,-0.006499063642699576,9.714135675021324e-05
0.1,0.0001674033600000016,-0.7853102699999996,4.0535528000001635e-05,-2.3555937000000005,9.701981000001594e-05,1.5709865,0.7860019,0.04,0.039999995,-9.826811999999995,0.0011261670151735171,0.0028480761999951946,4.512825000009879e-05,-0.006613544654105114,0.00010315300500030131
0.10250000000000001,0.00016744751550000164,-0.7852999394999995,4.0580341700001676e-05,-2.3556023550000003,9.745787600001634e-05,1.57098662,0.7860021850000001,0.04,0.039999995,-9.826682249999996,0.0011541272629993727,0.0027159975249950743,4.784345850010126e-05,-0.006723865098324024,0.00011143511025030886
0.105,0.00016749167100000168,-0.7852896089999996,4.062515540000171e-05,-2.3556110100000005,9.789594200001674e-05,1.5709867400000002,0.78600247,0.04,0.039999995,-9.826552499999995,0.0011820875108252279,0.0025839188499949548,5.0558667000103715e-05,-0.006834185542542935,0.00011971721550031636
0.1075,0.00016753582650000173,-0.7852792784999996,4.066996910000175e-05,-2.3556196650000003,9.833400800001714e-05,1.57098686,0.786002755,0.04,0.039999995,-9.826422749999995,0.0012100477586510835,0.0024518401749948344,5.3273875500106185e-05,-0.006944505986761844,0.0001279993207503239
0.11,0.00016757998200000177,-0.7852689479999996,4.071478280000179e-05,-2.3556283200000006,9.877207400001753e-05,1.57098698,0.7860030400000001,0.04,0.039999995,-9.826292999999994,0.0012380080064769389,0.002319761499994714,5.598908400010866e-05,-0.007054826430980755,0.00013628142600033145
0.1125,0.00016762413750000182,-0.7852586174999996,4.075959650000183e-05,-2.3556369750000004,9.921014000001793e-05,1.5709871000000002,0.786003325,0.04,0.039999995,-9.826163249999995,0.0012659682543027942,0.002187682824994594,5.870429250011113e-05,-0.007165146875199665,0.00014456353125033897
0.115,0.00016766829300000186,-0.7852482869999996,4.080441020000187e-05,-2.3556456300000006,9.964820600001833e-05,1.5709872200000001,0.7860036100000001,0.04,0.039999995,-9.826033499999994,0.0012939285021286498,0.002055604149994474,6.14195010001136e-05,-0.007275467319418576,0.00015284563650034652
0.11750000000000001,0.00016771926950000276,-0.7852382599999995,4.085600145000278e-05,-2.3556539400000003,0.00010015178100002713,1.57098735,0.7860038970000001,0.04,0.03999999525,-9.825917649999996,0.0013226611015864993,0.0019275776099948734,6.45832925001736e-05,-0.007385082822297606,0.00016185438450044725
0.12,0.0001677838880000028,-0.7852288399999996,4.0921147800002844e-05,-2.3556615600000006,0.0001007863740000277,1.5709875,0.786004188,0.04,0.039999996,-9.825829599999995,0.0013529384043080416,0.0018076553399947648,6.864425000017729e-05,-0.007493288442497144,0.0001723164180004567
0.1225,0.0001678485065000029,-0.7852194199999996,4.09862941500029e-05,-2.3556691800000005,0.00010142096700002828,1.57098765,0.786004479,0.04,0.03999999675,-9.825741549999995,0.0013832157070295843,0.0016877330699946558,7.270520750018098e-05,-0.007601494062696682,0.00018277845150046622
0.125,0.00016791312500000295,-0.7852099999999995,4.105144050000296e-05,-2.3556768000000003,0.00010205556000002885,1.5709878000000002,0.78600477,0.04,0.0399999975,-9.825653499999996,0.0014134930097511268,0.0015678107999945465,7.676616500018467e-05,-0.007709699682896221,0.00019324048500047575
0.1275,0.000167977743500003,-0.7852005799999995,4.111658685000302e-05,-2.3556844200000007,0.00010269015300002943,1.5709879500000001,0.786005061,0.04,0.03999999825,-9.825565449999996,0.0014437703124726693,0.0014478885299944373,8.082712250018837e-05,-0.00781790530309576,0.00020370251850048527
0.13,0.00016804236200000305,-0.7851911599999996,4.118173320000308e-05,-2.3556920400000005,0.00010332474600003001,1.5709881,0.786005352,0.04,0.039999999,-9.825477399999995,0.001474047615194212,0.0013279662599943282,8.488808000019206e-05,-0.007926110923295298,0.0002141645520004948
0.1325,0.00016810698050000314,-0.7851817399999995,4.124687955000314e-05,-2.3556996600000004,0.00010395933900003059,1.57098825,0.786005643,0.04,0.03999999975,-9.825389349999996,0.0015043249179157545,0.001208043989994219,8.894903750019576e-05,-0.008034316543494837,0.00022462658550050432
0.135,0.00016818861700000444,-0.7851728899999996,4.132889350000444e-05,-2.3557068200000004,0.00010475925200004334,1.57098874,0.786006121,0.04,0.04,-9.825274999999994,0.0015402295161057117,0.0010968894739947558,9.407030100027757e-05,-0.008140393905346708,0.00023703442700065723
0.1375,0.00016827876250000452,-0.7851643249999996,4.141934125000452e-05,-2.3557137500000005,0.00010564182500004415,1.5709894,0.7860066925,0.04,0.04,-9.825147499999993,0.001578947762029262,0.0009901188349946586,9.972171750028271e-05,-0.008245407138024978,0.0002504151725006694
0.14,0.0001683689080000046,-0.7851557599999995,4.1509789000004605e-05,-2.3557206800000006,0.00010652439800004495,1.57099006,0.786007264,0.04,0.04,-9.825019999999993,0.0016176660079528123,0.0008833481959945615,0.00010537313400028787,-0.00835042037070325,0.0002637959180006816
0.14250000000000002,0.00016845905350000467,-0.7851471949999995,4.1600236750004687e-05,-2.35572761,0.00010740697100004576,1.57099072,0.7860078355,0.04,0.04,-9.824892499999994,0.0016563842538763625,0.0007765775569944643,0.00011102455050029301,-0.00845543360338152,0.00027717666350069375
0.145,0.00016854919900000475,-0.7851386299999995,4.169068450000477e-05,-2.3557345400000003,0.00010828954400004655,1.57099138,0.786008407,0.04,0.04,-9.824764999999994,0.0016951024997999124,0.0006698069179943682,0.00011667596700029809,-0.00856044683605979,0.0002905574090007058
0.1475,0.00016863934450000483,-0.7851300649999996,4.178113225000485e-05,-2.3557414700000003,0.00010917211700004735,1.57099204,0.7860089785,0.04,0.04,-9.824637499999993,0.0017338207457234624,0.000563036278994271,0.00012232738350030325,-0.00866546006873806,0.000303938154500718
0.15,0.0001687294900000066,-0.7851214999999996,4.1871580000006606e-05,-2.3557484000000004,0.0001100546900000645,1.5709927,0.78600955,0.04,0.04,-9.824509999999995,0.0017725389916470606,0.00045626563999448923,0.00012797880000033039,-0.008770473301416169,0.00031731890000087735
0.1525,0.00016885066000000673,-0.7851137389999996,4.199271475000672e-05,-2.3557547750000003,0.0001112370080000656,1.57099342,0.7860101214999999,0.04,0.04,-9.824426449999995,0.0018121351371540517,0.0003552754759943973,0.0001340333385003359,-0.008872512774547566,0.000333397235000892
0.155,0.00016897183000000684,-0.7851059779999996,4.211384950000683e-05,-2.35576115,0.00011241932600006667,1.57099414,0.786010693,0.04,0.04,-9.824342899999996,0.0018517312826610427,0.00025428531199430537,0.0001400878770003414,-0.008974552247678964,0.00034947557000090663
0.1575,0.00016909300000000693,-0.7850982169999996,4.223498425000694e-05,-2.3557675250000005,0.00011360164400006775,1.57099486,0.7860112645,0.04,0.04,-9.824259349999995,0.0018913274281680337,0.00015329514799421342,0.00014614241550034692,-0.009076591720810363,0.0003655539050009213
0.16,0.00016921417000000704,-0.7850904559999995,4.235611900000705e-05,-2.3557739000000004,0.00011478396200006883,1.57099558,0.786011836,0.04,0.04,-9.824175799999995,0.0019309235736750248,5.2304983994121514e-05,0.00015219695400035243,-0.00917863119394176,0.0003816322400009359
0.1625,0.00016933534000000716,-0.7850826949999995,4.247725375000716e-05,-2.3557802750000003,0.0001159662800000699,1.5709963,0.7860124075,0.04,0.04,-9.824092249999994,0.001970519719182016,-4.868518000597044e-05,0.00015825149250035795,-0.009280670667073158,0.00039771057500095057
0.165,0.00016945651000000727,-0.7850749339999995,4.259838850000727e-05,-2.3557866500000006,0.00011714859800007098,1.57099702,0.786012979,0.04,0.04,-9.824008699999995,0.002010115864689007,-0.0001496753440060624,0.00016430603100036346,-0.009382710140204555,0.0004137889100009652
0.1675,0.00016958996050000963,-0.7850674319999995,4.27316597500096e-05,-2.3557927050000003,0.0001184493030000937,1.5709979100000002,0.7860136470000001,0.04,0.04,-9.823939899999997,0.0020517376251546235,-0.00024254373400466953,0.00017103170750049166,-0.009484996553516653,0.00043085508800116046
0.17,0.00016974797200000976,-0.7850604479999995,4.2889204000009744e-05,-2.3557981200000007,0.0001199867820000951,1.57099914,0.7860145080000001,0.04,0.04,-9.823900599999996,0.002097410615536385,-0.0003191685760047393,0.000179099660000499,-0.009587776847190017,0.00044989695200117774
0.17250000000000001,0.0001699059835000099,-0.7850534639999995,4.3046748250009886e-05,-2.3558035350000006,0.00012152426100009649,1.5710003700000001,0.786015369,0.04,0.04,-9.823861299999997,0.0021430836059181464,-0.00039579341800480907,0.00018716761250050636,-0.00969055714086338,0.00046893881600119507
0.17500000000000002,0.00017006399500001007,-0.7850464799999995,4.320429250001003e-05,-2.3558089500000006,0.0001230617400000979,1.5710016,0.78601623,0.04,0.04,-9.823821999999998,0.002188756596299908,-0.00047241826000487885,0.0001952355650005137,-0.009793337434536744,0.0004879806800012124
0.1775,0.0001702220065000102,-0.7850394959999996,4.336183675001017e-05,-2.3558143650000005,0.00012459921900009928,1.57100283,0.7860170910000001,0.04,0.04,-9.823782699999997,0.0022344295866816694,-0.0005490431020049478,0.00020330351750052095,-0.009896117728210106,0.0005070225440012296
0.18,0.00017038001800001034,-0.7850325119999996,4.351938100001032e-05,-2.3558197800000005,0.00012613669800010067,1.5710040600000001,0.786017952,0.04,0.04,-9.823743399999998,0.002280102577063431,-0.0006256679440050175,0.00021137147000052832,-0.00999889802188347,0.0005260644080012469
0.1825,0.00017053802950001048,-0.7850255279999996,4.367692525001046e-05,-2.3558251950000004,0.00012767417700010209,1.57100529,0.786018813,0.04,0.04,-9.823704099999997,0.0023257755674451924,-0.0007022927860050873,0.00021943942250053565,-0.010101678315556833,0.0005451062720012642
0.185,0.00017072467900001352,-0.7850190349999996,4.386273370001345e-05,-2.3558304400000005,0.0001294872580001313,1.57100656,0.78601986,0.04,0.04,-9.823629699999994,0.002375054312873328,-0.000776896710004953,0.00022803564600059633,-0.010202724859125122,0.000566222607001491
0.1875,0.00017092564750001372,-0.7850127874999996,4.4062674250013636e-05,-2.3558356000000007,0.00013143814000013307,1.57100785,0.7860210000000001,0.04,0.04,-9.823537749999995,0.0024261359358241094,-0.00085049017500502,0.0002368960050006044,-0.010302904527641134,0.0005883761775015111
0.19,0.0001711266160000139,-0.7850065399999996,4.426261480001382e-05,-2.3558407600000004,0.00013338902200013485,1.5710091400000001,0.78602214,0.04,0.04,-9.823445799999995,0.0024772175587748912,-0.0009240836400050869,0.00024575636400061244,-0.010403084196157144,0.0006105297480015312
0.1925,0.00017132758450001407,-0.7850002924999996,4.4462555350014004e-05,-2.3558459200000006,0.00013533990400013663,1.57101043,0.7860232800000001,0.04,0.04,-9.823353849999995,0.0025282991817256726,-0.000997677105005154,0.0002546167230006205,-0.010503263864673157,0.0006326833185015514
0.195,0.00017152855300001427,-0.7849940449999996,4.466249590001418e-05,-2.3558510800000008,0.0001372907860001384,1.5710117200000002,0.7860244200000001,0.04,0.04,-9.823261899999993,0.002579380804676454,-0.001071270570005221,0.0002634770820006286,-0.010603443533189167,0.0006548368890015716
0.1975,0.00017172952150001445,-0.7849877974999996,4.4862436450014366e-05,-2.3558562400000005,0.00013924166800014016,1.5710130100000002,0.78602556,0.04,0.04,-9.823169949999993,0.0026304624276272353,-0.001144864035005288,0.00027233744100063666,-0.01070362320170518,0.0006769904595015918
0.2,0.00017193049000001822,-0.7849815499999996,4.506237700001809e-05,-2.3558614000000007,0.00014119255000017637,1.5710143000000003,0.7860267000000001,0.04,0.04,-9.823078000000002,0.0026815440505782886,-0.0012184575000034573,0.00028119780000072144,-0.010803802870221446,0.0006991440300018392
0.2025,0.00017218078450001846,-0.7849760149999996,4.5310957750018316e-05,-2.3558655400000004,0.0001436164495001786,1.57101616,0.7860281325,0.04,0.04,-9.823096000000001,0.0027363618370185787,-0.0012659723850035006,0.0002911127580007305,-0.010907515091829106,0.0007244214060018623
0.20500000000000002,0.00017243107900001867,-0.7849704799999996,4.5559538500018545e-05,-2.3558696800000005,0.00014604034900018078,1.5710180200000001,0.7860295650000001,0.04,0.04,-9.823114000000002,0.0027911796234588687,-0.001313487270003544,0.00030102771600073954,-0.011011227313436766,0.0007496987820018853
0.20750000000000002,0.0001726813735000189,-0.7849649449999996,4.580811925001877e-05,-2.3558738200000002,0.000148464248500183,1.5710198800000001,0.7860309975,0.04,0.04,-9.823132000000001,0.0028459974098991583,-0.001361002155003587,0.00031094267400074853,-0.011114939535044424,0.0007749761580019084
0.21,0.00017293166800001912,-0.7849594099999996,4.605670000001899e-05,-2.3558779600000004,0.00015088814800018517,1.5710217400000002,0.7860324300000001,0.04,0.04,-9.823150000000002,0.002900815196339448,-0.00140851704000363,0.0003208576320007574,-0.011218651756652083,0.000800253534001931
0.2125,0.00017318196250001936,-0.7849538749999996,4.630528075001922e-05,-2.3558821,0.0001533120475001874,1.5710236000000002,0.7860338625000001,0.04,0.04,-9.823168,0.0029556329827797375,-0.001456031925003673,0.00033077259000076646,-0.011322363978259743,0.0008255309100019541
0.215,0.00017343225700001958,-0.7849483399999996,4.655386150001945e-05,-2.3558862400000002,0.00015573594700018958,1.5710254600000002,0.7860352950000001,0.04,0.04,-9.823186000000002,0.0030104507692200275,-0.0015035468100037164,0.0003406875480007755,-0.0114260761998674,0.0008508082860019771
0.2175,0.00017370118250002424,-0.7849430324999996,4.6820794600024026e-05,-2.3558902300000004,0.00015833918150023437,1.5710275050000002,0.7860368175000001,0.03999999975,0.03999999975,-9.823173149999993,0.0030678712646525605,-0.001550259305003569,0.00035102908400088577,-0.011529349861674571,0.0008772841415022846
0.22,0.00017400737000002452,-0.7849381799999996,4.7124432400024306e-05,-2.35589392,0.00016130108600023705,1.5710299200000002,0.7860385200000001,0.039999999,0.039999999,-9.823098599999994,0.0031304971780677323,-0.0015953670200036102,0.000362223776000896,-0.011631746403881075,0.0009061569560023109
0.2225,0.0001743135575000248,-0.7849333274999997,4.742807020002458e-05,-2.3558976100000004,0.00016426299050023975,1.5710323350000002,0.7860402225000002,0.03999999825,0.03999999825,-9.823024049999994,0.0031931230914829046,-0.0016404747350036513,0.0003734184680009062,-0.011734142946087578,0.0009350297705023372
0.225,0.00017461974500002507,-0.7849284749999996,4.773170800002485e-05,-2.3559013,0.00016722489500024245,1.5710347500000001,0.7860419250000001,0.0399999975,0.0399999975,-9.822949499999995,0.0032557490048980764,-0.0016855824500036924,0.00038461316000091634,-0.01183653948829408,0.0009639025850023635
0.2275,0.00017492593250002534,-0.7849236224999996,4.803534580002513e-05,-2.3559049900000004,0.00017018679950024516,1.5710371650000003,0.7860436275000001,0.03999999675,0.03999999675,-9.822874949999994,0.003318374918313248,-0.0017306901650037333,0.00039580785200092654,-0.011938936030500584,0.0009927753995023897
0.23,0.00017523212000002561,-0.7849187699999997,4.8338983600025407e-05,-2.35590868,0.00017314870400024783,1.5710395800000003,0.7860453300000001,0.039999996,0.039999996,-9.822800399999993,0.0033810008317284204,-0.0017757978800037745,0.00040700254400093675,-0.012041332572707088,0.001021648214002416
0.2325,0.00017553830750002592,-0.7849139174999996,4.864262140002568e-05,-2.3559123700000004,0.00017611060850025053,1.5710419950000003,0.7860470325000001,0.03999999525,0.03999999525,-9.822725849999994,0.0034436267451435926,-0.0018209055950038156,0.00041819723600094696,-0.012143729114913591,0.0010505210285024424
0.23500000000000001,0.00017588627100003154,-0.7849095099999996,4.898740790003123e-05,-2.35591556,0.00017947319900030463,1.5710447800000003,0.7860489300000001,0.039999994500000004,0.039999994500000004,-9.8227028,0.003508839174179436,-0.0018535959400022642,0.0004303693800010825,-0.012247232627132426,0.0010816103100027528
0.23750000000000002,0.00017625512250003187,-0.7849053249999997,4.9352768750031566e-05,-2.3559185000000005,0.00018303613250030787,1.5710477500000004,0.7860509250000002,0.039999993750000004,0.039999993750000004,-9.8227055,0.0035753448610251217,-0.0018800776000022883,0.000443030250001094,-0.012351289624357215,0.001113807825002782
0.24,0.0001766239740000322,-0.7849011399999997,4.97181296000319e-05,-2.3559214400000004,0.00018659906600031109,1.5710507200000003,0.7860529200000002,0.039999993000000005,0.039999993000000005,-9.822708200000001,0.0036418505478708067,-0.001906559260002312,0.0004556911200011054,-0.012455346621582004,0.0011460053400028111
0.2425,0.00017699282550003254,-0.7848969549999997,5.008349045003223e-05,-2.3559243800000003,0.00019016199950031433,1.5710536900000003,0.7860549150000001,0.03999999225,0.03999999225,-9.8227109,0.0037083562347164922,-0.001933040920002336,0.00046835199000111694,-0.012559403618806794,0.0011782028550028404
0.245,0.00017736167700003287,-0.7848927699999997,5.0448851300032565e-05,-2.35592732,0.00019372493300031757,1.5710566600000004,0.7860569100000001,0.0399999915,0.0399999915,-9.8227136,0.0037748619215621777,-0.0019595225800023604,0.0004810128600011284,-0.012663460616031585,0.0012104003700028696
0.2475,0.00017773052850003323,-0.7848885849999997,5.08142121500329e-05,-2.35593026,0.0001972878665003208,1.5710596300000004,0.7860589050000001,0.03999999075,0.03999999075,-9.8227163,0.003841367608407863,-0.0019860042400023843,0.00049367373000114,-0.012767517613256374,0.0012425978850028989
0.25,0.00017809938000003987,-0.7848843999999997,5.117957300003946e-05,-2.3559332,0.00020085080000038457,1.5710626000000003,0.7860609000000002,0.03999999,0.03999999,-9.822718999999998,0.003907873295254104,-0.00201248590000099,0.0005063346000012983,-0.01287157461048128,0.0012747954000032272
0.2525,0.0001785378630000403,-0.7848808749999997,5.161345205003986e-05,-2.355935525,0.00020507910350038843,1.5710660500000004,0.7860631950000002,0.0399999897,0.03999999075,-9.822696199999998,0.00398048614152438,-0.002023372420001,0.0005206094595013112,-0.012976925633857363,0.0013102790700032594
0.255,0.00017897634600004067,-0.7848773499999997,5.204733110004025e-05,-2.35593785,0.00020930740700039226,1.5710695000000003,0.7860654900000001,0.0399999894,0.0399999915,-9.822673399999998,0.004053098987794657,-0.00203425894000101,0.0005348843190013243,-0.013082276657233443,0.0013457627400032918
0.2575,0.00017941482900004109,-0.7848738249999997,5.248121015004065e-05,-2.355940175,0.00021353571050039611,1.5710729500000005,0.7860677850000002,0.0399999891,0.03999999225,-9.822650599999998,0.004125711834064932,-0.00204514546000102,0.0005491591785013373,-0.013187627680609524,0.001381246410003324
0.26,0.00017985331200004147,-0.7848702999999997,5.291508920004104e-05,-2.3559425000000003,0.00021776401400039997,1.5710764000000004,0.7860700800000002,0.0399999888,0.039999993000000005,-9.822627799999998,0.004198324680335208,-0.00205603198000103,0.0005634340380013502,-0.013292978703985605,0.0014167300800033565
0.2625,0.00018029179500004186,-0.7848667749999997,5.3348968250041435e-05,-2.355944825,0.0002219923175004038,1.5710798500000003,0.7860723750000002,0.0399999885,0.039999993750000004,-9.822604999999998,0.004270937526605485,-0.0020669185000010398,0.0005777088975013633,-0.013398329727361687,0.0014522137500033888
0.265,0.00018073027800004227,-0.7848632499999997,5.378284730004183e-05,-2.35594715,0.00022622062100040766,1.5710833000000004,0.7860746700000002,0.0399999882,0.039999994500000004,-9.822582199999998,0.0043435503728757605,-0.0020778050200010497,0.0005919837570013762,-0.013503680750737768,0.001487697420003421
0.2675,0.00018119432350005013,-0.7848599449999997,5.424186980004957e-05,-2.355949285,0.00023069367550048296,1.5710869500000004,0.7860771150000003,0.0399999876,0.03999999465,-9.82257015,0.004419251577936619,-0.0020817564449990347,0.000606846916001561,-0.013609973574067704,0.0015244649100038283
0.27,0.0001817094940000506,-0.7848570799999997,5.4751179200050034e-05,-2.35595104,0.00023565623200048747,1.5710910000000005,0.7860798600000003,0.0399999864,0.039999993600000006,-9.822579600000001,0.004501129500575943,-0.002071837679999026,0.0006228866740015756,-0.013718149997304526,0.0015638000400038641
0.2725,0.00018222466450005108,-0.7848542149999997,5.52604886000505e-05,-2.355952795,0.000240618788500492,1.5710950500000003,0.7860826050000003,0.0399999852,0.03999999255,-9.822589050000001,0.004583007423215268,-0.002061918914999017,0.0006389264320015903,-0.01382632642054135,0.0016031351700038997
0.275,0.00018273983500005154,-0.7848513499999997,5.576979800005096e-05,-2.35595455,0.0002455813450004965,1.5710991000000003,0.7860853500000002,0.039999983999999995,0.0399999915,-9.822598500000002,0.004664885345854592,-0.0020520001499990076,0.0006549661900016048,-0.013934502843778174,0.0016424703000039356
0.2775,0.00018325500550005203,-0.7848484849999997,5.6279107400051425e-05,-2.355956305,0.00025054390150050103,1.5711031500000003,0.7860880950000003,0.0399999828,0.03999999045,-9.82260795,0.0047467632684939165,-0.0020420813849989987,0.0006710059480016194,-0.014042679267014996,0.0016818054300039714
0.28,0.0001837701760000525,-0.7848456199999997,5.678841680005189e-05,-2.35595806,0.0002555064580005056,1.5711072000000004,0.7860908400000003,0.0399999816,0.0399999894,-9.8226174,0.004828641191133241,-0.0020321626199989893,0.0006870457060016341,-0.01415085569025182,0.0017211405600040073
0.28250000000000003,0.00018428534650005295,-0.7848427549999998,5.729772620005235e-05,-2.355959815,0.0002604690145005101,1.5711112500000004,0.7860935850000003,0.039999980399999996,0.03999998835,-9.82262685,0.0049105191137725655,-0.0020222438549989804,0.0007030854640016486,-0.014259032113488643,0.0017604756900040431
0.28500000000000003,0.0001848564190000621,-0.7848402899999998,5.786199440006136e-05,-2.35596111,0.0002659664870005978,1.5711157500000004,0.7860966200000004,0.0399999797,0.0399999876,-9.822641700000002,0.004996312595912949,-0.0020028500599974975,0.0007199931050017982,-0.01436927933247045,0.001802248320004458
0.28750000000000003,0.00018545544250006267,-0.7848380249999998,5.84537420000619e-05,-2.355962175,0.00027173141750060304,1.5711204750000005,0.7860998000000003,0.03999997925,0.039999987,-9.822659250000003,0.005084063857802954,-0.0019787187499974756,0.000737334687501814,-0.014480561949324264,0.0018452397000044971
0.29,0.0001860544660000632,-0.7848357599999998,5.9045489600062425e-05,-2.35596324,0.00027749634800060816,1.5711252000000004,0.7861029800000003,0.039999978799999995,0.0399999864,-9.822676800000002,0.005171815119692957,-0.001954587439997454,0.0007546762700018294,-0.01459184456617808,0.0018882310800045353
0.2925,0.00018665348950006375,-0.7848334949999998,5.963723720006296e-05,-2.355964305,0.0002832612785006134,1.5711299250000004,0.7861061600000003,0.03999997835,0.0399999858,-9.822694350000003,0.005259566381582962,-0.0019304561299974324,0.0007720178525018452,-0.014703127183031895,0.0019312224600045744
0.295,0.0001872525130000643,-0.7848312299999998,6.02289848000635e-05,-2.3559653700000003,0.00028902620900061863,1.5711346500000005,0.7861093400000003,0.0399999779,0.039999985200000004,-9.822711900000002,0.005347317643472967,-0.0019063248199974103,0.0007893594350018609,-0.014814409799885712,0.0019742138400046134
0.2975,0.00018785153650006483,-0.7848289649999998,6.0820732400064035e-05,-2.3559664350000005,0.0002947911395006239,1.5711393750000004,0.7861125200000003,0.03999997745,0.0399999846,-9.822729450000002,0.005435068905362972,-0.0018821935099973884,0.0008067010175018767,-0.014925692416739527,0.0020172052200046527
0.3,0.00018845056000007534,-0.7848266999999998,6.141248000007434e-05,-2.3559675,0.00030055607000072424,1.5711441000000006,0.7861157000000004,0.039999977,0.039999984,-9.822747,0.005522820167253684,-0.0018580621999958428,0.0008240426000020558,-0.01503697503359367,0.0020601966000050958
0.3025,0.00018914070550007594,-0.7848250724999998,6.209377850007497e-05,-2.3559680700000003,0.00030719234450073027,1.5711493950000006,0.7861193660000004,0.0399999764,0.0399999834,-9.82275345,0.005617052945318675,-0.001819968514995808,0.000842880815002073,-0.01515125040897489,0.002106888210005138
0.305,0.00018983085100007658,-0.7848234449999998,6.27750770000756e-05,-2.3559686400000004,0.00031382861900073635,1.5711546900000004,0.7861230320000003,0.0399999758,0.0399999828,-9.822759900000001,0.0057112857233836654,-0.0017818748299957732,0.0008617190300020902,-0.01526552578435611,0.0021535798200051806
0.3075,0.0001905209965000772,-0.7848218174999998,6.34563755000762e-05,-2.3559692100000005,0.0003204648935007424,1.5711599850000004,0.7861266980000003,0.0399999752,0.0399999822,-9.82276635,0.005805518501448657,-0.0017437811449957385,0.0008805572450021074,-0.015379801159737328,0.0022002714300052234
0.31,0.00019121114200007782,-0.7848201899999998,6.413767400007683e-05,-2.35596978,0.0003271011680007484,1.5711652800000004,0.7861303640000004,0.0399999746,0.0399999816,-9.822772800000001,0.005899751279513647,-0.0017056874599957039,0.0008993954600021245,-0.015494076535118547,0.002246963040005266
0.3125,0.00019190128750007845,-0.7848185624999998,6.481897250007746e-05,-2.35597035,0.0003337374425007545,1.5711705750000005,0.7861340300000004,0.039999974,0.039999981,-9.82277925,0.005993984057578638,-0.0016675937749956692,0.0009182336750021417,-0.015608351910499765,0.0022936546500053083
0.315,0.00019259143300007908,-0.7848169349999998,6.550027100007808e-05,-2.3559709200000003,0.0003403737170007605,1.5711758700000005,0.7861376960000004,0.0399999734,0.039999980399999996,-9.8227857,0.006088216835643629,-0.0016295000899956345,0.0009370718900021588,-0.015722627285880985,0.0023403462600053507
0.3175,0.00019331438850009108,-0.7848155249999998,6.621381250008987e-05,-2.3559712050000003,0.00034732365900087527,1.5711814400000006,0.7861415350000005,0.03999997285,0.03999997985,-9.822807450000006,0.006186383310717583,-0.0015842400849931165,0.0009563931600023434,-0.015838474966599344,0.002388283650005825
0.32,0.0001941029640000918,-0.7848145499999999,6.699184000009059e-05,-2.3559709200000003,0.00035490093600088217,1.5711875600000007,0.7861457200000005,0.0399999724,0.039999979399999996,-9.822859800000005,0.006292417179805385,-0.0015246474399930622,0.0009766805400023618,-0.01595746725799035,0.002438712600005871
0.3225,0.0001948915395000925,-0.7848135749999998,6.776986750009129e-05,-2.3559706350000003,0.00036247821300088907,1.5711936800000006,0.7861499050000005,0.039999971950000004,0.03999997895,-9.822912150000006,0.006398451048893186,-0.001465054794993008,0.0009969679200023803,-0.01607645954938136,0.002489141550005917
0.325,0.00019568011500009324,-0.7848125999999999,6.854789500009199e-05,-2.35597035,0.0003700554900008959,1.5711998000000007,0.7861540900000005,0.0399999715,0.0399999785,-9.822964500000005,0.006504484917980988,-0.0014054621499929537,0.001017255300002399,-0.016195451840772368,0.0025395705000059625
0.3275,0.00019646869050009397,-0.7848116249999999,6.93259225000927e-05,-2.355970065,0.0003776327670009028,1.5712059200000006,0.7861582750000005,0.03999997105,0.039999978049999996,-9.823016850000005,0.006610518787068789,-0.0013458695049928995,0.0010375426800024172,-0.01631444413216338,0.0025899994500060085
0.33,0.00019725726600009467,-0.7848106499999998,7.01039500000934e-05,-2.35596978,0.0003852100440009097,1.5712120400000007,0.7861624600000005,0.039999970600000004,0.0399999776,-9.823069200000006,0.00671655265615659,-0.0012862768599928452,0.0010578300600024358,-0.016433436423554385,0.0026404284000060545
0.3325,0.0001980458415000954,-0.7848096749999999,7.088197750009412e-05,-2.355969495,0.0003927873210009166,1.5712181600000006,0.7861666450000004,0.03999997015,0.03999997715,-9.823121550000005,0.006822586525244392,-0.001226684214992791,0.0010781174400024541,-0.016552428714945396,0.0026908573500061
0.335,0.000198904962000109,-0.784809115,7.172929900010749e-05,-2.35596897,0.0004010385460010467,1.5712248500000008,0.7861712060000006,0.039999969600000004,0.039999977,-9.823134799999998,0.006932986434562781,-0.0011564881399907983,0.0010994500300026638,-0.016672922112062435,0.0027437066900065886
0.3375,0.00019979935500010984,-0.7848087625,7.26112675001083e-05,-2.355968325,0.00040962674500105457,1.5712318250000008,0.7861759550000006,0.039999969,0.039999977,-9.8231285,0.007045569363995274,-0.0010809903499907295,0.0011213052250026835,-0.016794166062042086,0.002797766225006638
0.34,0.00020069374800011063,-0.7848084099999999,7.34932360001091e-05,-2.35596768,0.00041821494400106236,1.5712388000000008,0.7861807040000005,0.0399999684,0.039999977,-9.823122199999998,0.0071581522934277666,-0.0010054925599906608,0.0011431604200027035,-0.016915410012021737,0.0028518257600066875
0.3425,0.00020158814100011146,-0.7848080574999999,7.43752045001099e-05,-2.355967035,0.0004268031430010702,1.5712457750000008,0.7861854530000005,0.0399999678,0.039999977,-9.8231159,0.007270735222860259,-0.0009299947699905921,0.0011650156150027234,-0.017036653962001387,0.0029058852950067365
0.34500000000000003,0.00020248253400011228,-0.784807705,7.525717300011071e-05,-2.3559663900000003,0.000435391342001078,1.5712527500000009,0.7861902020000006,0.0399999672,0.039999977,-9.823109599999999,0.007383318152292751,-0.0008544969799905234,0.0011868708100027433,-0.017157897911981038,0.0029599448300067855
0.34750000000000003,0.00020337692700011308,-0.7848073525,7.613914150011151e-05,-2.3559657450000002,0.00044397954100108583,1.5712597250000009,0.7861949510000006,0.0399999666,0.039999977,-9.8231033,0.007495901081725244,-0.0007789991899904546,0.0012087260050027632,-0.017279141861960688,0.003014004365006835
0.35000000000000003,0.00020427132000012832,-0.784807,7.702111000012647e-05,-2.3559651,0.0004525677400012313,1.5712667000000011,0.7861997000000006,0.039999966,0.039999977,-9.823097000000011,0.00760848401115911,-0.0007035013999881727,0.0012305812000029718,-0.017400385811941036,0.003068063900007382
0.3525,0.00020527891650012922,-0.7848072850000001,7.801425775012736e-05,-2.3559634949999997,0.00046223729950123994,1.571274560000001,0.7862050445000006,0.039999964799999996,0.03999997595,-9.823178300000011,0.007731849211283904,-0.0006106243422380902,0.0012539176000029924,-0.01752711320297551,0.0031260336200074337
0.355,0.00020628651300013014,-0.7848075700000001,7.900740550012825e-05,-2.3559618899999997,0.00047190685900124873,1.571282420000001,0.7862103890000006,0.0399999636,0.0399999749,-9.82325960000001,0.007855214411408701,-0.0005177472844880057,0.0012772540000030137,-0.017653840594009984,0.0031840033400074865
0.3575,0.00020729410950013103,-0.784807855,8.000055325012916e-05,-2.3559602849999997,0.0004815764185012575,1.571290280000001,0.7862157335000006,0.0399999624,0.03999997385,-9.82334090000001,0.007978579611533499,-0.0004248702267379212,0.001300590400003035,-0.01778056798504446,0.0032419730600075393
0.36,0.00020830170600013196,-0.7848081400000001,8.099370100013006e-05,-2.3559586799999996,0.0004912459780012663,1.571298140000001,0.7862210780000007,0.0399999612,0.0399999728,-9.82342220000001,0.008101944811658296,-0.00033199316898783663,0.001323926800003056,-0.017907295376078936,0.0032999427800075917
0.3625,0.00020930930250013288,-0.784808425,8.198684875013097e-05,-2.3559570749999996,0.0005009155375012751,1.571306000000001,0.7862264225000007,0.03999996,0.03999997175,-9.823503500000012,0.008225310011783093,-0.00023911611123775207,0.0013472632000030773,-0.01803402276711341,0.0033579125000076445
0.365,0.0002103168990001338,-0.7848087100000001,8.297999650013188e-05,-2.3559554699999996,0.000510585097001284,1.571313860000001,0.7862317670000007,0.0399999588,0.039999970700000005,-9.823584800000011,0.00834867521190789,-0.00014623905348766758,0.0013705996000030985,-0.018160750158147887,0.0034158822200076972
0.3675,0.00021136470500015083,-0.7848091950000001,8.40126287501486e-05,-2.3559536799999994,0.0005206385665014467,1.571322025000001,0.7862373285000008,0.039999957450000005,0.0399999694,-9.82363765,0.00847513778136952,-4.626500923473653e-05,0.001394442945003323,-0.018288327008503014,0.0034751140050082565
0.37,0.00021249293000015186,-0.7848100800000002,8.512423000014962e-05,-2.3559515199999996,0.0005314598560014566,1.5713308000000012,0.7862433240000009,0.0399999558,0.039999967600000005,-9.823633599999999,0.008607795089501097,6.790300801536743e-05,0.0014193001800033459,-0.01841760277749842,0.0035368699200083124
0.3725,0.0002136211550001529,-0.7848109650000001,8.623583125015064e-05,-2.3559493599999994,0.0005422811455014665,1.5713395750000012,0.7862493195000009,0.03999995415,0.0399999658,-9.82362955,0.008740452397632673,0.00018207102526547137,0.0014441574150033684,-0.01854687854649383,0.0035986258350083687
0.375,0.00021474938000015393,-0.7848118500000002,8.734743250015165e-05,-2.3559471999999997,0.0005531024350014763,1.5713483500000012,0.7862553150000008,0.0399999525,0.039999964,-9.8236255,0.008873109705764248,0.0002962390425155753,0.001469014650003391,-0.018676154315489236,0.003660381750008425
0.3775,0.00021587760500015493,-0.7848127350000002,8.845903375015266e-05,-2.3559450399999995,0.0005639237245014862,1.5713571250000011,0.7862613105000008,0.03999995085,0.0399999622,-9.82362145,0.009005767013895823,0.0004104070597656793,0.0014938718850034138,-0.018805430084484646,0.003722137665008481
0.38,0.00021700583000015597,-0.7848136200000002,8.957063500015367e-05,-2.3559428799999997,0.000574745014001496,1.571365900000001,0.7862673060000008,0.0399999492,0.0399999604,-9.8236174,0.0091384243220274,0.0005245750770157832,0.0015187291200034364,-0.018934705853480054,0.0037838935800085373
0.3825,0.000218134055000157,-0.7848145050000002,9.068223625015468e-05,-2.3559407199999995,0.0005855663035015059,1.571374675000001,0.7862733015000009,0.03999994755,0.0399999586,-9.82361335,0.009271081630158976,0.0006387430942658872,0.001543586355003459,-0.01906398162247546,0.0038456494950085936
0.385,0.00021934764000017596,-0.7848158050000003,9.18776334001733e-05,-2.3559380999999995,0.0005972023700016869,1.5713841400000013,0.7862797550000009,0.0399999466,0.039999957600000004,-9.823654650000009,0.009410588070770231,0.0007661194100187661,0.001569401990003683,-0.01919673755766842,0.003909933820009181
0.3875,0.00022060390500017708,-0.7848173125000002,9.311492850017443e-05,-2.3559352499999995,0.0006092458250016978,1.5713939500000014,0.7862864375000009,0.039999946,0.039999957,-9.82371862500001,0.009553519077619175,0.0009000998750188881,0.001595696825003707,-0.01933123357595906,0.003975482350009241
0.39,0.00022186017000017823,-0.7848188200000003,9.435222360017556e-05,-2.3559323999999995,0.0006212892800017088,1.5714037600000013,0.786293120000001,0.0399999454,0.0399999564,-9.82378260000001,0.00969645008446812,0.00103408034001901,0.0016219916600037308,-0.019465729594249703,0.0040410308800093
0.3925,0.0002231164350001794,-0.7848203275000002,9.558951870017668e-05,-2.3559295499999995,0.0006333327350017198,1.5714135700000014,0.786299802500001,0.0399999448,0.0399999558,-9.82384657500001,0.009839381091317066,0.001168060805019132,0.0016482864950037549,-0.019600225612540347,0.00410657941000936
0.395,0.00022437270000018054,-0.7848218350000002,9.682681380017781e-05,-2.3559266999999995,0.0006453761900017307,1.5714233800000013,0.786306485000001,0.039999944200000005,0.0399999552,-9.82391055000001,0.00998231209816601,0.001302041270019254,0.0016745813300037787,-0.01973472163083099,0.0041721279400094196
0.3975,0.00022562896500018167,-0.7848233425000002,9.806410890017894e-05,-2.3559238499999995,0.0006574196450017417,1.5714331900000014,0.786313167500001,0.039999943600000004,0.0399999546,-9.82397452500001,0.010125243105014956,0.001436021735019376,0.0017008761650038028,-0.01986921764912163,0.004237676470009479
0.4,0.00022688523000020253,-0.7848248500000004,9.930140400019941e-05,-2.3559209999999995,0.0006694631000019407,1.5714430000000015,0.7863198500000012,0.039999943,0.039999954,-9.824038500000006,0.010268174111865447,0.0015700022000226558,0.001727171000004042,-0.020003713667412888,0.004303225000010072
0.4025,0.0002282769105002038,-0.7848270175000004,0.00010067163015020065,-2.3559174299999994,0.0006827988440019528,1.5714538450000015,0.7863272435000012,0.039999941350000005,0.03999995295,-9.824081025000007,0.010421724431239185,0.0017256819350227976,0.0017549446850040672,-0.020142451766898654,0.0043724326750101345
0.405,0.00022966859100020506,-0.7848291850000003,0.0001020418563002019,-2.3559138599999994,0.000696134588001965,1.5714646900000016,0.7863346370000012,0.0399999397,0.0399999519,-9.824123550000007,0.010575274750612925,0.0018813616700229393,0.0017827183700040924,-0.02028118986638442,0.004441640350010198
0.40750000000000003,0.00023106027150020632,-0.7848313525000004,0.00010341208245020315,-2.3559102899999993,0.0007094703320019771,1.5714755350000016,0.7863420305000012,0.03999993805,0.03999995085,-9.824166075000006,0.010728825069986665,0.002037041405023081,0.0018104920550041177,-0.020419927965870187,0.004510848025010261
0.41000000000000003,0.0002324519520002076,-0.7848335200000004,0.00010478230860020439,-2.3559067199999992,0.0007228060760019893,1.5714863800000016,0.7863494240000012,0.039999936400000005,0.0399999498,-9.824208600000008,0.010882375389360405,0.0021927211400232225,0.001838265740004143,-0.020558666065355953,0.0045800557000103236
0.41250000000000003,0.00023384363250020886,-0.7848356875000003,0.00010615253475020565,-2.355903149999999,0.0007361418200020015,1.5714972250000017,0.7863568175000011,0.03999993475,0.03999994875,-9.824251125000007,0.011035925708734145,0.002348400875023364,0.0018660394250041683,-0.02069740416484172,0.004649263375010387
0.41500000000000004,0.00023523531300021012,-0.7848378550000004,0.00010752276090020689,-2.355899579999999,0.0007494775640020136,1.5715080700000015,0.7863642110000011,0.0399999331,0.0399999477,-9.824293650000007,0.011189476028107884,0.002504080610023506,0.0018938131100041935,-0.020836142264327485,0.00471847105001045
0.4175,0.00023667459650023306,-0.7848402375000004,0.0001089397052502294,-2.3558958049999994,0.0007632674870022324,1.5715193050000018,0.7863718550000013,0.0399999319,0.0399999468,-9.824338250000007,0.011347342096294356,0.0026674316300271395,0.0019220944050044495,-0.02097638249399453,0.004788981050011105
0.42,0.00023820908600023444,-0.7848430500000004,0.00011045008600023077,-2.355891619999999,0.0007779657680022457,1.5715313200000018,0.7863800000000013,0.039999931600000004,0.039999946200000004,-9.824387000000009,0.01151383966210042,0.002846125220027302,0.0019513909200044761,-0.021119626984022085,0.004862095700011171
0.4225,0.00023974357550023584,-0.7848458625000004,0.00011196046675023214,-2.355887434999999,0.0007926640490022592,1.5715433350000019,0.7863881450000012,0.0399999313,0.0399999456,-9.824435750000008,0.01168033722790648,0.003024818810027465,0.001980687435004503,-0.021262871474049642,0.004935210350011238
0.425,0.00024127806500023725,-0.7848486750000004,0.00011347084750023352,-2.3558832499999993,0.0008073623300022725,1.571555350000002,0.7863962900000012,0.039999931,0.039999945,-9.824484500000008,0.011846834793712542,0.0032035124000276277,0.0020099839500045294,-0.021406115964077196,0.005008325000011304
0.4275,0.00024281255450023866,-0.7848514875000004,0.00011498122825023489,-2.3558790649999994,0.0008220606110022859,1.571567365000002,0.7864044350000012,0.039999930700000005,0.0399999444,-9.824533250000009,0.012013332359518604,0.0033822059900277903,0.002039280465004556,-0.02154936045410475,0.005081439650011371
0.43,0.00024434704400024004,-0.7848543000000004,0.00011649160900023626,-2.3558748799999996,0.0008367588920022993,1.571579380000002,0.7864125800000012,0.0399999304,0.0399999438,-9.824582000000008,0.012179829925324666,0.003560899580027953,0.002068576980004583,-0.021692604944132308,0.005154554300011437
0.4325,0.0002458815335002415,-0.7848571125000005,0.00011800198975023764,-2.3558706949999997,0.0008514571730023127,1.571591395000002,0.7864207250000013,0.039999930100000004,0.039999943200000006,-9.824630750000008,0.012346327491130727,0.003739593170028116,0.0020978734950046094,-0.021835849434159862,0.005227668950011504
0.435,0.0002475161090002666,-0.7848603650000006,0.00011961058400026234,-2.3558659699999995,0.0008671101550025527,1.5716041900000022,0.7864293960000014,0.039999930200000006,0.0399999434,-9.82469210000001,0.012520857714144755,0.003933140090031804,0.0021281859200048773,-0.021982501260959717,0.005303293450012166
0.4375,0.00024920072750026813,-0.7848638375000005,0.00012126828500026385,-2.3558609749999992,0.0008832404875025674,1.5716173750000022,0.7864383300000014,0.0399999305,0.039999944,-9.82475975000001,0.012699404265759918,0.004134113675031987,0.0021590063000049057,-0.022130856756144512,0.005380172875012236
0.44,0.0002508853460002697,-0.7848673100000005,0.00012292598600026534,-2.3558559799999994,0.000899370820002582,1.5716305600000022,0.7864472640000014,0.0399999308,0.039999944600000004,-9.82482740000001,0.012877950817375082,0.00433508726003217,0.0021898266800049336,-0.022279212251329308,0.005457052300012306
0.4425,0.00025256996450027117,-0.7848707825000005,0.00012458368700026687,-2.355850984999999,0.0009155011525025967,1.571643745000002,0.7864561980000014,0.039999931100000004,0.039999945200000005,-9.824895050000011,0.013056497368990243,0.004536060845032353,0.0022206470600049616,-0.022427567746514103,0.005533931725012376
0.445,0.0002542545830002727,-0.7848742550000005,0.00012624138800026836,-2.3558459899999993,0.0009316314850026114,1.571656930000002,0.7864651320000015,0.0399999314,0.0399999458,-9.824962700000011,0.013235043920605406,0.004737034430032537,0.0022514674400049895,-0.022575923241698898,0.005610811150012446
0.4475,0.00025593920150027426,-0.7848777275000005,0.00012789908900026988,-2.3558409949999994,0.000947761817502626,1.571670115000002,0.7864740660000015,0.039999931700000005,0.0399999464,-9.825030350000011,0.01341359047222057,0.004938008015032719,0.0022822878200050175,-0.022724278736883693,0.005687690575012516
0.45,0.00025762382000030156,-0.7848812000000006,0.00012955679000029667,-2.355835999999999,0.0009638921500028866,1.5716833000000023,0.7864830000000016,0.039999932,0.039999947,-9.825098000000008,0.013592137023837797,0.005138981600037016,0.0023131082000052896,-0.022872634232069207,0.0057645700000132
0.4525,0.00025946583500030323,-0.7848853400000007,0.00013136894900029833,-2.355830329999999,0.0009815238025029027,1.5716977000000023,0.7864927710000016,0.039999933200000004,0.03999994805,-9.825140900000008,0.013783296942742286,0.005365081700037222,0.002345417645005319,-0.02302539246159325,0.005845194700013273
0.455,0.0002613078500003049,-0.7848894800000006,0.00013318110800029998,-2.3558246599999992,0.0009991554550029186,1.5717121000000023,0.7865025420000016,0.0399999344,0.0399999491,-9.825183800000007,0.013974456861646774,0.0055911818000374276,0.0023777270900053483,-0.023178150691117286,0.005925819400013346
0.4575,0.0002631498650003066,-0.7848936200000006,0.00013499326700030164,-2.355818989999999,0.0010167871075029346,1.5717265000000022,0.7865123130000016,0.0399999356,0.03999995015,-9.825226700000007,0.014165616780551263,0.0058172819000376335,0.0024100365350053776,-0.023330908920641324,0.00600644410001342
0.46,0.00026499188000030826,-0.7848977600000007,0.00013680542600030327,-2.3558133199999993,0.0010344187600029508,1.5717409000000024,0.7865220840000017,0.0399999368,0.0399999512,-9.825269600000007,0.014356776699455752,0.0060433820000378394,0.0024423459800054074,-0.023483667150165366,0.006087068800013493
0.4625,0.00026683389500030993,-0.7849019000000007,0.00013861758500030493,-2.355807649999999,0.0010520504125029668,1.5717553000000024,0.7865318550000017,0.039999938,0.03999995225,-9.825312500000008,0.01454793661836024,0.006269482100038045,0.0024746554250054367,-0.023636425379689404,0.006167693500013566
0.465,0.0002686759100003116,-0.7849060400000006,0.0001404297440003066,-2.3558019799999994,0.0010696820650029828,1.5717697000000024,0.7865416260000017,0.0399999392,0.039999953299999995,-9.825355400000007,0.01473909653726473,0.0064955822000382505,0.002506964870005466,-0.023789183609213446,0.00624831820001364
0.4675,0.00027057281050034133,-0.7849104050000008,0.0001422957495003357,-2.355796069999999,0.001087837015003266,1.5717845450000028,0.7865516880000017,0.039999940149999996,0.039999954299999994,-9.82540730000001,0.014934379793738168,0.0067303382200428735,0.0025397441250057354,-0.023943709675249517,0.006330140530014325
0.47000000000000003,0.00027257948200034313,-0.7849152200000008,0.0001442694480003375,-2.355789679999999,0.0011070385600032834,1.5718002800000026,0.7865623320000018,0.0399999406,0.0399999552,-9.825477200000012,0.015137909725343204,0.006982406080043102,0.002573463000005766,-0.024101771414306947,0.006414358120014401
0.47250000000000003,0.000274586153500345,-0.7849200350000008,0.0001462431465003393,-2.355783289999999,0.001126240105003301,1.5718160150000027,0.7865729760000018,0.03999994105,0.0399999561,-9.825547100000012,0.015341439656948239,0.007234473940043332,0.0026071818750057966,-0.02425983315336438,0.006498575710014477
0.47500000000000003,0.0002765928250003468,-0.7849248500000008,0.00014821684500034108,-2.355776899999999,0.0011454416500033184,1.5718317500000027,0.7865836200000018,0.039999941500000004,0.039999957,-9.825617000000012,0.015544969588553274,0.007486541800043562,0.0026409007500058273,-0.024417894892421816,0.006582793300014554
0.47750000000000004,0.0002785994965003486,-0.7849296650000008,0.0001501905435003429,-2.3557705099999993,0.0011646431950033359,1.5718474850000026,0.7865942640000019,0.03999994195,0.0399999579,-9.825686900000013,0.015748499520158308,0.007738609660043791,0.002674619625005858,-0.02457595663147925,0.006667010890014631
0.48,0.00028060616800035037,-0.7849344800000009,0.00015216424200034464,-2.355764119999999,0.0011838447400033527,1.5718632200000027,0.7866049080000018,0.0399999424,0.0399999588,-9.825756800000013,0.01595202945176334,0.007990677520044015,0.002708338500005888,-0.02473401837053668,0.006751228480014706
0.4825,0.0002826128395003522,-0.7849392950000009,0.00015413794050034643,-2.355757729999999,0.0012030462850033702,1.5718789550000027,0.7866155520000019,0.039999942850000005,0.039999959700000004,-9.825826700000013,0.016155559383368375,0.008242745380044245,0.0027420573750059187,-0.024892080109594115,0.006835446070014782
0.485,0.00028473403400038435,-0.7849445660000011,0.00015622400600037798,-2.355750739999999,0.0012233399000036768,1.571895590000003,0.7866268160000021,0.0399999434,0.0399999606,-9.825887700000012,0.016369486413934663,0.008509289500048305,0.0027767480600062065,-0.02505321223291636,0.006922212740015534
0.4875,0.00028691249000038636,-0.784950065000001,0.00015836625500037992,-2.355743449999999,0.0012441795500036958,1.571912675000003,0.786638390000002,0.039999944,0.0399999615,-9.82594425000001,0.016588611993977462,0.008783071750048554,0.0028119246500062384,-0.0252158795483698,0.007010253950015614
0.49,0.0002890909460003883,-0.784955564000001,0.00016050850400038186,-2.355736159999999,0.0012650192000037148,1.571929760000003,0.7866499640000021,0.039999944600000004,0.0399999624,-9.82600080000001,0.01680773757402026,0.009056854000048804,0.0028471012400062704,-0.025378546863823237,0.007098295160015694
0.4925,0.0002912694020003903,-0.784961063000001,0.0001626507530003838,-2.3557288699999988,0.0012858588500037338,1.5719468450000031,0.786661538000002,0.039999945200000005,0.0399999633,-9.82605735000001,0.01702686315406306,0.009330636250049052,0.0028822778300063028,-0.025541214179276676,0.007186336370015774
0.495,0.00029344785800039226,-0.784966562000001,0.00016479300200038577,-2.355721579999999,0.0013066985000037528,1.571963930000003,0.7866731120000021,0.0399999458,0.0399999642,-9.82611390000001,0.01724598873410586,0.009604418500049302,0.0029174544200063347,-0.025703881494730112,0.007274377580015854
0.4975,0.00029562631400039427,-0.7849720610000009,0.0001669352510003877,-2.355714289999999,0.0013275381500037718,1.571981015000003,0.7866846860000021,0.0399999464,0.0399999651,-9.82617045000001,0.01746511431414866,0.009878200750049552,0.0029526310100063667,-0.025866548810183552,0.0073624187900159345
0.5,0.0002978047700004288,-0.7849775600000011,0.00016907750000042158,-2.355706999999999,0.001348377800004101,1.5719981000000034,0.7866962600000023,0.039999947,0.039999966,-9.826227000000008,0.0176842398941939,0.010151983000055239,0.0029878076000066497,-0.026029216125637817,0.007450460000016658
0.5025000000000001,0.000300162123500431,-0.7849837820000011,0.00017139524000042374,-2.3556989449999985,0.001370922755004122,1.5720165800000034,0.7867087670000024,0.039999947450000004,0.03999996705,-9.826275900000008,0.017916791886133664,0.010455662800055523,0.003024365480006684,-0.026196441799432733,0.0075420359000167424
0.505,0.0003025194770004331,-0.7849900040000011,0.0001737129800004258,-2.3556908899999986,0.001393467710004142,1.5720350600000035,0.7867212740000024,0.0399999479,0.0399999681,-9.826324800000009,0.018149343878073414,0.010759342600055791,0.0030609233600067164,-0.02636366747322764,0.007633611800016824
0.5075000000000001,0.0003048768305004353,-0.7849962260000011,0.00017603072000042796,-2.3556828349999988,0.001416012665004163,1.5720535400000035,0.7867337810000024,0.03999994835,0.03999996915,-9.826373700000008,0.018381895870013175,0.011063022400056076,0.0030974812400067506,-0.026530893147022557,0.00772518770001691
0.51,0.0003072341840004374,-0.7850024480000012,0.00017834846000043002,-2.355674779999999,0.001438557620004183,1.5720720200000036,0.7867462880000023,0.0399999488,0.0399999702,-9.82642260000001,0.01861444786195293,0.011366702200056346,0.003134039120006783,-0.026698118820817466,0.00781676360001699
0.5125,0.0003095915375004395,-0.7850086700000012,0.00018066620000043208,-2.3556667249999985,0.001461102575004203,1.5720905000000036,0.7867587950000023,0.03999994925,0.03999997125,-9.82647150000001,0.01884699985389268,0.011670382000056614,0.0031705970000068156,-0.026865344494612375,0.007908339500017071
0.515,0.0003119488910004417,-0.7850148920000012,0.00018298394000043424,-2.3556586699999986,0.0014836475300042241,1.5721089800000034,0.7867713020000023,0.0399999497,0.0399999723,-9.82652040000001,0.01907955184583244,0.011974061800056899,0.0032071548800068498,-0.02703257016840729,0.007999915400017156
0.5175,0.0003143682110004788,-0.7850213480000013,0.00018536246500047064,-2.3556503449999986,0.0015067831750045777,1.5721279450000039,0.7867841380000026,0.0399999504,0.03999997335,-9.826576550000015,0.01931767500941669,0.012288051950062991,0.003244202915007159,-0.02720155874270468,0.008092744000017946
0.52,0.0003169114640004812,-0.7850282720000014,0.00018786256000047295,-2.3556414799999983,0.0015311002000046004,1.5721478800000037,0.7867976320000025,0.0399999516,0.0399999744,-9.826647200000014,0.019566940516280516,0.012622662800063304,0.003282231260007194,-0.027374073118004057,0.008188078000018036
0.5225,0.0003194547170004834,-0.7850351960000014,0.00019036265500047518,-2.3556326149999984,0.001555417225004622,1.5721678150000038,0.7868111260000026,0.0399999528,0.03999997545,-9.826717850000014,0.019816206023144333,0.0129572736500636,0.0033202596050072282,-0.027546587493303423,0.00828341200001812
0.525,0.0003219979700004858,-0.7850421200000013,0.00019286275000047752,-2.3556237499999986,0.0015797342500046448,1.5721877500000039,0.7868246200000025,0.039999954000000004,0.0399999765,-9.826788500000013,0.02006547153000816,0.01329188450006391,0.0033582879500072636,-0.0277191018686028,0.008378746000018209
0.5275,0.000324541223000488,-0.7850490440000013,0.00019536284500047975,-2.3556148849999983,0.0016040512750046662,1.5722076850000037,0.7868381140000026,0.0399999552,0.039999977549999996,-9.826859150000013,0.020314737036871977,0.01362649535006421,0.003396316295007297,-0.027891616243902167,0.008474080000018293
0.53,0.0003270844760004904,-0.7850559680000013,0.00019786294000048209,-2.3556060199999984,0.0016283683000046889,1.5722276200000038,0.7868516080000025,0.0399999564,0.0399999786,-9.826929800000013,0.020564002543735804,0.013961106200064521,0.003434344640007333,-0.028064130619201544,0.008569414000018382
0.5325,0.00032962772900049266,-0.7850628920000013,0.0002003630350004843,-2.3555971549999986,0.0016526853250047105,1.572247555000004,0.7868651020000026,0.039999957600000004,0.039999979649999996,-9.827000450000014,0.02081326805059962,0.014295717050064818,0.0034723729850073665,-0.02823664499450091,0.008664748000018466
0.535,0.00033229950200053254,-0.7850703000000016,0.00020298922600052346,-2.355587729999998,0.001678227510005091,1.572268500000004,0.7868792660000028,0.039999957600000004,0.0399999797,-9.827063500000012,0.021072629094175226,0.014645726600069625,0.0035113038500076657,-0.02841237876567716,0.008762478700019255
0.5375,0.00033503553500053494,-0.7850779500000015,0.00020567846500052584,-2.355578024999998,0.0017043822750051141,1.572289950000004,0.7868937650000029,0.039999957,0.03999997925,-9.827122750000012,0.0213370379061023,0.015003435500069945,0.0035506859750077005,-0.028589722234790425,0.008861407750019343
0.54,0.0003377715680005375,-0.7850856000000015,0.00020836770400052836,-2.355568319999998,0.0017305370400051384,1.5723114000000042,0.7869082640000028,0.0399999564,0.039999978799999995,-9.827182000000011,0.021601446718029386,0.015361144400070277,0.0035900681000077374,-0.0287670657039037,0.008960336800019435
0.5425,0.00034050760100053995,-0.7850932500000015,0.00021105694300053074,-2.355558614999998,0.0017566918050051616,1.5723328500000042,0.7869227630000029,0.0399999558,0.03999997835,-9.827241250000013,0.02186585552995646,0.015718853300070595,0.003629450225007772,-0.02894440917301697,0.009059265850019524
0.545,0.0003432436340005425,-0.7851009000000015,0.00021374618200053325,-2.3555489099999978,0.001782846570005186,1.5723543000000042,0.7869372620000029,0.0399999552,0.0399999779,-9.827300500000012,0.02213026434188355,0.01607656220007093,0.003668832350007809,-0.029121752642130246,0.009158194900019616
0.5475,0.00034597966700054497,-0.7851085500000016,0.00021643542100053563,-2.355539204999998,0.0018090013350052093,1.5723757500000042,0.7869517610000029,0.0399999546,0.03999997745,-9.827359750000012,0.022394673153810624,0.016434271100071247,0.003708214475007844,-0.029299096111243515,0.009257123950019704
0.55,0.0003487157000005875,-0.7851162000000017,0.00021912466000057731,-2.3555294999999976,0.0018351561000056144,1.5723972000000046,0.7869662600000031,0.039999954,0.039999977,-9.827419000000011,0.022659081965739982,0.016791980000078102,0.00374759660000817,-0.029476439580357772,0.009356053000020481
0.5525,0.0003516514130005901,-0.7851245775000018,0.0002220097315005799,-2.3555189549999977,0.0018632135700056393,1.5724202550000046,0.7869818210000031,0.0399999546,0.03999997805,-9.827472100000012,0.022934839874561335,0.017182268000078448,0.003788424335008206,-0.029658689815587662,0.009458411050020573
0.555,0.0003545871260005928,-0.7851329550000017,0.0002248948030005826,-2.355508409999998,0.0018912710400056656,1.5724433100000046,0.7869973820000031,0.0399999552,0.0399999791,-9.82752520000001,0.023210597783382705,0.01757255600007881,0.003829252070008244,-0.029840940050817562,0.009560769100020669
0.5575,0.0003575228390005954,-0.7851413325000017,0.00022777987450058515,-2.3554978649999976,0.0019193285100056903,1.5724663650000046,0.7870129430000032,0.0399999558,0.03999998015,-9.827578300000011,0.02348635569220406,0.017962844000079158,0.0038700798050082803,-0.030023190286047455,0.009663127150020758
0.56,0.00036045855200059814,-0.7851497100000018,0.00023066494600058784,-2.3554873199999977,0.0019473859800057166,1.5724894200000046,0.7870285040000032,0.0399999564,0.0399999812,-9.827631400000012,0.023762113601025425,0.01835313200007952,0.003910907540008318,-0.030205440521277355,0.009765485200020855
0.5625,0.00036339426500060074,-0.7851580875000017,0.0002335500175005904,-2.355476774999998,0.0019754434500057413,1.5725124750000046,0.7870440650000032,0.039999957,0.03999998225,-9.82768450000001,0.02403787150984678,0.018743420000079867,0.003951735275008354,-0.030387690756507244,0.009867843250020946
0.5650000000000001,0.00036632997800060344,-0.7851664650000018,0.0002364350890005931,-2.3554662299999976,0.002003500920005768,1.5725355300000048,0.7870596260000032,0.039999957600000004,0.0399999833,-9.827737600000011,0.02431362941866815,0.01913370800008023,0.003992563010008393,-0.030569940991737144,0.00997020130002104
0.5675,0.00036933448400064867,-0.7851750895000019,0.00023938763650063744,-2.3554553899999977,0.002032213970006199,1.572559105000005,0.7870755480000035,0.0399999578,0.0399999838,-9.827797750000016,0.024598357454004724,0.019533388950086394,0.0040338484750087125,-0.030753842927554138,0.010073772700021882
0.5700000000000001,0.00037247657600065164,-0.7851842080000019,0.00024247513600064033,-2.3554439599999974,0.0020622381800062266,1.572583720000005,0.7870921920000035,0.0399999572,0.0399999832,-9.827872000000015,0.02490102574235511,0.019951855800086786,0.004076049400008752,-0.030941048264542283,0.010179770800021982
0.5725,0.0003756186680006544,-0.785193326500002,0.00024556263550064305,-2.3554325299999976,0.002092262390006253,1.572608335000005,0.7871088360000035,0.0399999566,0.0399999826,-9.827946250000016,0.025203694030705485,0.020370322650087157,0.004118250325008789,-0.03112825360153042,0.010285768900022077
0.5750000000000001,0.00037876076000065736,-0.7852024450000019,0.0002486501350006459,-2.3554210999999974,0.0021222866000062813,1.5726329500000051,0.7871254800000035,0.039999955999999996,0.039999981999999996,-9.828020500000015,0.025506362319055873,0.020788789500087546,0.004160451250008829,-0.031315458938518566,0.010391767000022176
0.5775,0.0003819028520006601,-0.785211563500002,0.00025173763450064867,-2.3554096699999976,0.002152310810006308,1.5726575650000052,0.7871421240000035,0.0399999554,0.0399999814,-9.828094750000016,0.025809030607406247,0.021207256350087918,0.004202652175008866,-0.0315026642755067,0.01049776510002227
0.58,0.0003850449440006629,-0.785220682000002,0.0002548251340006514,-2.3553982399999973,0.002182335020006335,1.5726821800000053,0.7871587680000035,0.0399999548,0.0399999808,-9.828169000000015,0.026111698895756617,0.021625723200088293,0.004244853100008904,-0.03168986961249484,0.010603763200022364
0.5825,0.00038818703600066584,-0.785229800500002,0.0002579126335006543,-2.3553868099999975,0.0022123592300063626,1.5727067950000053,0.7871754120000035,0.0399999542,0.0399999802,-9.828243250000016,0.026414367184107005,0.02204419005008868,0.004287054025008943,-0.031877074949482984,0.010709761300022463
0.585,0.000391471128000714,-0.7852394500000022,0.0002611394080007015,-2.355374739999997,0.0022437366400068215,1.5727325400000056,0.7871928240000038,0.039999954,0.03999998,-9.828310600000012,0.026725505665011695,0.022484871500096145,0.004330120240009257,-0.032067671045701865,0.010818075600023297
0.5875,0.0003948262200007171,-0.7852493650000022,0.0002644358200007046,-2.3553623499999974,0.002275790650006851,1.5727588500000056,0.7872106200000039,0.039999954,0.03999998,-9.828374500000013,0.02704087924218951,0.022936660250096566,0.004373619100009297,-0.0322599625215345,0.010927548000023398
0.59,0.0003981813120007201,-0.7852592800000021,0.0002677322320007075,-2.355349959999997,0.0023078446600068797,1.5727851600000056,0.7872284160000038,0.039999954,0.03999998,-9.828438400000014,0.027356252819367308,0.023388449000096966,0.004417117960009336,-0.032452253997367134,0.011037020400023495
0.5925,0.0004015364040007232,-0.7852691950000021,0.0002710286440007106,-2.355337569999997,0.0023398986700069097,1.5728114700000058,0.7872462120000039,0.039999954,0.03999998,-9.828502300000014,0.02767162639654512,0.023840237750097387,0.004460616820009377,-0.03264454547319977,0.011146492800023599
0.595,0.0004048914960007262,-0.7852791100000022,0.0002743250560007135,-2.3553251799999972,0.002371952680006938,1.5728377800000057,0.7872640080000038,0.039999954,0.03999998,-9.828566200000013,0.02798699997372292,0.02429202650009779,0.0045041156800094155,-0.0328368369490324,0.011255965200023695
0.5975,0.00040824658800072935,-0.7852890250000022,0.00027762146800071655,-2.355312789999997,0.002404006690006968,1.5728640900000057,0.7872818040000039,0.039999954,0.03999998,-9.828630100000014,0.028302373550900737,0.024743815250098212,0.004547614540009456,-0.03302912842486504,0.011365437600023797
0.6,0.00041160168000078023,-0.7852989400000023,0.00028091788000076653,-2.3553003999999973,0.002436060700007453,1.5728904000000061,0.7872996000000041,0.039999954,0.03999998,-9.828694000000013,0.028617747128082405,0.025195604000105575,0.004591113400009772,-0.03322141990069864,0.011474910000024641
0.6025,0.00041517631200078356,-0.7853096335000024,0.00028442962750076977,-2.355287214999997,0.002470206505007485,1.572918435000006,0.7873185450000042,0.0399999546,0.0399999806,-9.828749500000013,0.02895084004856488,0.025679293400106027,0.004635880735009813,-0.033418166078670195,0.011587809450024748
0.605,0.00041875094400078673,-0.7853203270000023,0.0002879413750007729,-2.3552740299999972,0.0025043523100075154,1.5729464700000062,0.7873374900000042,0.0399999552,0.0399999812,-9.828805000000013,0.02928393296904734,0.026162982800106455,0.004680648070009853,-0.03361491225664174,0.011700708900024849
0.6075,0.00042232557600079007,-0.7853310205000024,0.0002914531225007762,-2.355260844999997,0.002538498115007547,1.5729745050000061,0.7873564350000042,0.0399999558,0.0399999818,-9.828860500000014,0.029617025889529816,0.026646672200106906,0.004725415405009895,-0.03381165843461329,0.011813608350024953
0.61,0.00042590020800079324,-0.7853417140000023,0.0002949648700007793,-2.355247659999997,0.0025726439200075774,1.5730025400000063,0.7873753800000042,0.0399999564,0.0399999824,-9.828916000000014,0.029950118810012277,0.027130361600107337,0.004770182740009934,-0.03400840461258484,0.011926507800025054
0.6125,0.00042947484000079657,-0.7853524075000023,0.00029847661750078254,-2.355234474999997,0.002606789725007609,1.5730305750000062,0.7873943250000043,0.039999957,0.039999983,-9.828971500000012,0.030283211730494752,0.027614051000107786,0.004814950075009976,-0.034205150790556395,0.012039407250025159
0.615,0.0004330494720007998,-0.7853631010000024,0.00030198836500078567,-2.355221289999997,0.0026409355300076394,1.5730586100000064,0.7874132700000043,0.039999957600000004,0.039999983600000004,-9.829027000000012,0.030616304650977214,0.028097740400108217,0.004859717410010016,-0.03440189696852794,0.01215230670002526
0.6175,0.0004366994220008539,-0.7853740565000026,0.00030557398050083873,-2.3552077899999966,0.002675798960008155,1.5730872300000067,0.7874326100000045,0.0399999578,0.039999984,-9.829088050000017,0.030955607257862377,0.028592333850116017,0.004904923685010353,-0.03460036888723141,0.012266290050026095
0.62,0.0004405000080008572,-0.7853855360000026,0.00030930733200084206,-2.3551936599999967,0.002712097640008187,1.5731170200000066,0.7874527400000045,0.0399999572,0.039999984,-9.829160200000016,0.03130732923754037,0.029108735400116475,0.004951007840010394,-0.034802292287395245,0.012382441200026198
0.6225,0.00044430059400086077,-0.7853970155000026,0.00031304068350084555,-2.355179529999997,0.002748396320008221,1.5731468100000068,0.7874728700000045,0.0399999566,0.039999984,-9.829232350000016,0.031659051217218376,0.029625136950116957,0.004997091995010437,-0.035004215687559084,0.012498592350026306
0.625,0.00044810118000086416,-0.7854084950000026,0.00031677403500084887,-2.3551653999999966,0.002784695000008253,1.573176600000007,0.7874930000000046,0.039999955999999996,0.039999984,-9.829304500000017,0.032010773196896374,0.030141538500117415,0.005043176150010478,-0.03520613908772291,0.01261474350002641
0.6275000000000001,0.0004519017660008677,-0.7854199745000027,0.00032050738650085236,-2.355151269999997,0.002820993680008287,1.5732063900000068,0.7875131300000046,0.0399999554,0.039999984,-9.829376650000016,0.03236249517657438,0.030657940050117898,0.005089260305010521,-0.03540806248788675,0.012730894650026518
0.63,0.00045570235200087105,-0.7854314540000026,0.0003242407380008557,-2.355137139999997,0.0028572923600083196,1.573236180000007,0.7875332600000046,0.0399999548,0.039999984,-9.829448800000016,0.032714217156252376,0.031174341600118356,0.005135344460010562,-0.035609985888050574,0.012847045800026621
0.6325000000000001,0.0004595029380008746,-0.7854429335000026,0.00032797408950085917,-2.3551230099999967,0.0028935910400083534,1.573265970000007,0.7875533900000046,0.0399999542,0.039999984,-9.829520950000017,0.03306593913593038,0.031690743150118834,0.005181428615010605,-0.035811909288214414,0.012963196950026729
0.635,0.0004634583600009316,-0.7854549500000029,0.0003318593030009151,-2.3551082099999965,0.0029313649400088968,1.5732969800000074,0.787574350000005,0.0399999536,0.039999983600000004,-9.829589800000015,0.033431109041061446,0.032229255300126956,0.005228371030010943,-0.036017215251970415,0.013081656700027632
0.6375000000000001,0.0004674912000009354,-0.7854672350000028,0.0003358204475009188,-2.3550930749999965,0.0029698764500089327,1.5733286000000073,0.787595725000005,0.039999953,0.039999983,-9.829657000000015,0.03380300290891208,0.03277882275012747,0.0052757425750109875,-0.03622421249752076,0.013201270750027744
0.64,0.000471524040000939,-0.7854795200000029,0.0003397815920009223,-2.3550779399999966,0.003008387960008967,1.5733602200000074,0.787617100000005,0.0399999524,0.0399999824,-9.829724200000015,0.03417489677676271,0.033328390200127955,0.005323114120011029,-0.0364312097430711,0.013320884800027851
0.6425,0.0004755568800009426,-0.7854918050000029,0.00034374273650092586,-2.355062804999996,0.003046899470009001,1.5733918400000073,0.7876384750000051,0.039999951799999996,0.0399999818,-9.829791400000015,0.034546790644613336,0.033877957650128444,0.005370485665011072,-0.03663820698862143,0.013440498850027956
0.645,0.00047958972000094633,-0.7855040900000029,0.00034770388100092953,-2.3550476699999963,0.003085410980009037,1.5734234600000074,0.787659850000005,0.0399999512,0.0399999812,-9.829858600000016,0.03491868451246398,0.03442752510012896,0.005417857210011116,-0.03684520423417177,0.013560112900028069
0.6475,0.0004836225600009499,-0.7855163750000029,0.00035166502550093305,-2.3550325349999963,0.003123922490009071,1.5734550800000073,0.787681225000005,0.0399999506,0.0399999806,-9.829925800000016,0.0352905783803146,0.03497709255012945,0.005465228755011158,-0.03705220147972211,0.013679726950028174
0.65,0.00048765540000101005,-0.7855286600000031,0.00035562617000099207,-2.355017399999996,0.003162434000009644,1.573486700000008,0.7877026000000054,0.03999995,0.03999998,-9.829993000000014,0.035662472248169805,0.03552666000013813,0.0055126003000114795,-0.03725919872527353,0.013799341000029034
0.6525,0.0004919267040010139,-0.7855417850000032,0.00035982116450099575,-2.355001289999996,0.0032032171400096805,1.573520165000008,0.7877252350000054,0.03999994955,0.03999998,-9.830050600000014,0.036053628288302206,0.03611074950013864,0.0055611452050115225,-0.03747075796132337,0.013922116600029143
0.655,0.0004961980080010178,-0.7855549100000031,0.0003640161590009997,-2.354985179999996,0.0032440002800097185,1.573553630000008,0.7877478700000055,0.0399999491,0.03999998,-9.830108200000014,0.03644478432843463,0.03669483900013919,0.005609690110011568,-0.03768231719737322,0.014044892200029257
0.6575,0.0005004693120010216,-0.7855680350000032,0.0003682111535010034,-2.354969069999996,0.0032847834200097547,1.573587095000008,0.7877705050000054,0.03999994865,0.03999998,-9.830165800000014,0.03683594036856703,0.0372789285001397,0.005658235015011611,-0.03789387643342307,0.014167667800029366
0.66,0.0005047406160010256,-0.7855811600000031,0.0003724061480010073,-2.354952959999996,0.0033255665600097927,1.573620560000008,0.7877931400000054,0.0399999482,0.03999998,-9.830223400000014,0.037227096408699444,0.03786301800014025,0.005706779920011657,-0.03810543566947292,0.014290443400029482
0.6625,0.0005090119200010294,-0.7855942850000032,0.000376601142501011,-2.354936849999996,0.003366349700009829,1.5736540250000082,0.7878157750000054,0.03999994775,0.03999998,-9.830281000000014,0.03761825244883185,0.03844710750014077,0.0057553248250117,-0.03831699490552276,0.01441321900002959
0.665,0.0005132832240010333,-0.7856074100000032,0.00038079613700101495,-2.354920739999996,0.003407132840009867,1.5736874900000082,0.7878384100000054,0.0399999473,0.03999998,-9.830338600000013,0.038009408488964266,0.039031197000141314,0.005803869730011744,-0.038528554141572614,0.014535994600029705
0.6675,0.0005176360270010965,-0.7856208120000034,0.0003850710660010769,-2.3549042599999956,0.0034486925500104688,1.5737216100000087,0.7878614700000058,0.039999947,0.03999998,-9.830395400000013,0.03840755876163713,0.039627216750150525,0.005852838600012096,-0.03874158877884624,0.01465989130003063
0.67,0.0005221518280011007,-0.7856347680000034,0.000389505864001081,-2.3548870399999955,0.0034918054000105093,1.5737570400000087,0.7878853800000059,0.039999947,0.03999998,-9.830450600000013,0.038819697499375645,0.040247097000151104,0.005902655400012143,-0.03895757421856421,0.014786030200030748
0.6725,0.0005266676290011048,-0.7856487240000034,0.000393940662001085,-2.354869819999996,0.0035349182500105476,1.5737924700000088,0.7879092900000059,0.039999947,0.03999998,-9.830505800000013,0.03923183623711415,0.04086697725015165,0.005952472200012188,-0.03917355965828217,0.01491216910003086
0.675,0.000531183430001109,-0.7856626800000034,0.0003983754600010891,-2.3548525999999956,0.0035780311000105877,1.5738279000000088,0.7879332000000059,0.039999947,0.03999998,-9.830561000000014,0.03964397497485266,0.04148685750015223,0.006002289000012234,-0.03938954509800014,0.015038308000030977
0.6775,0.000535699231001113,-0.7856766360000035,0.00040281025800109307,-2.3548353799999955,0.003621143950010626,1.5738633300000089,0.7879571100000059,0.039999947,0.03999998,-9.830616200000014,0.040056113712591164,0.04210673775015278,0.006052105800012278,-0.039605530537718106,0.01516444690003109
0.68,0.0005402150320011172,-0.7856905920000035,0.0004072450560010972,-2.3548181599999958,0.003664256800010666,1.5738987600000087,0.7879810200000059,0.039999947,0.03999998,-9.830671400000014,0.040468252450329686,0.04272661800015336,0.0061019226000123255,-0.03982151597743607,0.015290585800031207
0.6825,0.0005447308330011212,-0.7857045480000034,0.00041167985400110115,-2.3548009399999956,0.0037073696500107044,1.5739341900000088,0.7880049300000059,0.039999947,0.03999998,-9.830726600000014,0.04088039118806819,0.04334649825015391,0.006151739400012369,-0.04003750141715404,0.015416724700031319
0.685,0.0005494136200011879,-0.7857190770000037,0.0004162784260011665,-2.3547830699999954,0.003752073140011339,1.5739708900000093,0.7880297300000063,0.0399999466,0.03999998,-9.830777900000012,0.041305581107843214,0.04399098670016369,0.006202355000012714,-0.04025624766951323,0.015544901300032199
0.6875,0.0005541799000011921,-0.7857338925000037,0.00042095888500117063,-2.3547648749999954,0.00379757195001138,1.5740082250000094,0.7880549750000063,0.039999946,0.03999998,-9.830827250000013,0.041737296618629176,0.04464777925016427,0.00625337000001276,-0.040476374328191476,0.015674096750032313
0.6900000000000001,0.0005589461800011965,-0.7857487080000037,0.000425639344001175,-2.3547466799999954,0.0038430707600114224,1.5740455600000094,0.7880802200000063,0.0399999454,0.03999998,-9.830876600000012,0.04216901212941516,0.04530457180016488,0.0063043850000128075,-0.04069650098686974,0.015803292200032435
0.6925,0.0005637124600012008,-0.7857635235000038,0.00043031980300117914,-2.3547284849999954,0.0038885695700114626,1.5740828950000094,0.7881054650000063,0.0399999448,0.03999998,-9.830925950000012,0.04260072764020112,0.045961364350165464,0.006355400000012852,-0.04091662764554799,0.015932487650032547
0.6950000000000001,0.0005684787400012053,-0.7857783390000037,0.0004350002620011835,-2.3547102899999954,0.003934068380011505,1.5741202300000094,0.7881307100000065,0.039999944200000005,0.03999998,-9.830975300000013,0.0430324431509871,0.04661815690016608,0.0064064150000129,-0.04113675430422625,0.01606168310003267
0.6975,0.0005732450200012095,-0.7857931545000038,0.00043968072100118765,-2.3546920949999954,0.003979567190011545,1.5741575650000095,0.7881559550000065,0.039999943600000004,0.03999998,-9.831024650000012,0.04346415866177307,0.047274949450166664,0.0064574300000129455,-0.0413568809629045,0.016190878550032786
0.7000000000000001,0.0005780113000012792,-0.785807970000004,0.00044436118000125603,-2.354673899999995,0.00402506600001221,1.57419490000001,0.7881812000000068,0.039999943,0.03999998,-9.831074000000013,0.043895874172565026,0.04793174200017686,0.0065084450000133,-0.04157700762158395,0.016320074000033737
0.7025,0.0005830338850012837,-0.7858236645000041,0.0004492930090012604,-2.354654684999995,0.0040730063000122526,1.57423427500001,0.7882077800000068,0.039999943600000004,0.0399999806,-9.831130325000014,0.044351049512741055,0.048626154700177476,0.006560666825013346,-0.04180179294204493,0.016452535100033853
0.705,0.0005880564700012881,-0.785839359000004,0.0004542248380012648,-2.354635469999995,0.0041209466000122945,1.57427365000001,0.7882343600000068,0.039999944200000005,0.0399999812,-9.831186650000014,0.04480622485291708,0.04932056740017809,0.006612888650013393,-0.042026578262505915,0.016584996200033973
0.7075,0.0005930790550012928,-0.7858550535000041,0.0004591566670012694,-2.354616254999995,0.00416888690001234,1.5743130250000101,0.7882609400000069,0.0399999448,0.0399999818,-9.831242975000015,0.04526140019309313,0.05001498010017874,0.006665110475013441,-0.04225136358296691,0.016717457300034096
0.71,0.0005981016400012973,-0.785870748000004,0.0004640884960012738,-2.354597039999995,0.004216827200012382,1.5743524000000102,0.7882875200000069,0.0399999454,0.0399999824,-9.831299300000014,0.04571657553326916,0.05070939280017936,0.0067173323000134875,-0.04247614890342789,0.016849918400034213
0.7125,0.000603124225001302,-0.7858864425000041,0.0004690203250012784,-2.354577824999995,0.004264767500012427,1.5743917750000103,0.7883141000000069,0.039999946,0.039999983,-9.831355625000015,0.046171750873445216,0.051403805500180005,0.0067695541250135365,-0.04270093422388889,0.016982379500034336
0.715,0.0006081468100013064,-0.785902137000004,0.0004739521540012828,-2.354558609999995,0.004312707800012469,1.5744311500000103,0.7883406800000069,0.0399999466,0.039999983600000004,-9.831411950000014,0.046626926213621245,0.052098218200180624,0.006821775950013583,-0.04292571954434987,0.017114840600034455
0.7175,0.0006132567370013795,-0.7859181300000043,0.00047896963000135446,-2.3545390649999947,0.004361480000013166,1.574471205000011,0.7883677215000073,0.039999947,0.039999984200000005,-9.831470875000017,0.0470889421181132,0.05280553950019138,0.00687439092501394,-0.04315201658761517,0.01724828790003535
0.72,0.0006185413480013842,-0.7859347200000043,0.00048415840000135907,-2.3545188599999944,0.004411916000013211,1.5745126200000108,0.7883956860000073,0.039999947,0.0399999848,-9.831535000000017,0.047564639151220896,0.053538678000192026,0.006927792200013987,-0.043381337076485525,0.01738370760003547
0.7225,0.0006238259590013891,-0.7859513100000044,0.0004893471700013639,-2.3544986549999947,0.004462352000013258,1.574554035000011,0.7884236505000074,0.039999947,0.0399999854,-9.831599125000016,0.04804033618432862,0.054271816500192714,0.006981193475014037,-0.043610657565355884,0.017519127300035596
0.725,0.0006291105700013938,-0.7859679000000044,0.0004945359400013686,-2.354478449999995,0.004512788000013302,1.574595450000011,0.7884516150000074,0.039999947,0.039999986,-9.831663250000018,0.04851603321743631,0.05500495500019336,0.007034594750014085,-0.04383997805422623,0.017654547000035718
0.7275,0.0006343951810013988,-0.7859844900000044,0.0004997247100013733,-2.3544582449999947,0.00456322400001335,1.5746368650000109,0.7884795795000074,0.039999947,0.0399999866,-9.831727375000018,0.04899173025054403,0.05573809350019405,0.007087996025014134,-0.04406929854309659,0.017789966700035843
0.73,0.0006396797920014035,-0.7860010800000045,0.000504913480001378,-2.354438039999995,0.004613660000013394,1.574678280000011,0.7885075440000074,0.039999947,0.0399999872,-9.831791500000017,0.04946742728365173,0.056471232000194695,0.007141397300014182,-0.04429861903196694,0.017925386400035964
0.7325,0.0006449644030014084,-0.7860176700000044,0.0005101022500013828,-2.3544178349999947,0.004664096000013441,1.574719695000011,0.7885355085000074,0.039999947,0.0399999878,-9.831855625000017,0.049943124316759444,0.05720437050019538,0.007194798575014231,-0.0445279395208373,0.01806080610003609
0.735,0.0006504273960014846,-0.7860348500000047,0.0005154659560014576,-2.3543969199999943,0.004716231000014167,1.5747625300000117,0.7885644220000079,0.0399999463,0.039999987199999996,-9.831918100000017,0.050434618815913136,0.05796203900020587,0.007248939230014575,-0.044760316982927796,0.018198334200037056
0.7375,0.0006559795800014898,-0.7860523250000047,0.0005209171300014627,-2.3543756499999944,0.004769215500014217,1.5748060750000117,0.7885938100000078,0.03999994525,0.039999986,-9.831979750000016,0.05093401204808037,0.058731972500206585,0.007303449575014626,-0.04499422293162654,0.018336916500037184
0.74,0.0006615317640014947,-0.7860698000000047,0.0005263683040014675,-2.3543543799999944,0.004822200000014263,1.5748496200000117,0.7886231980000079,0.0399999442,0.0399999848,-9.832041400000017,0.05143340528024758,0.05950190600020727,0.0073579599200146745,-0.04522812888032527,0.018475498800037307
0.7425,0.0006670839480014998,-0.7860872750000047,0.0005318194780014726,-2.3543331099999945,0.004875184500014313,1.5748931650000118,0.7886525860000079,0.03999994315,0.0399999836,-9.832103050000017,0.05193279851241481,0.06027183950020799,0.0074124702650147254,-0.045462034829024014,0.018614081100037438
0.745,0.0006726361320015048,-0.7861047500000048,0.0005372706520014774,-2.354311839999994,0.00492816900001436,1.5749367100000118,0.788681974000008,0.0399999421,0.039999982399999995,-9.832164700000018,0.05243219174458202,0.06104177300020867,0.007466980610014774,-0.045695940777722745,0.018752663400037558
0.7475,0.00067818831600151,-0.7861222250000047,0.0005427218260014825,-2.354290569999994,0.0049811535000144095,1.5749802550000118,0.788711362000008,0.03999994105,0.0399999812,-9.832226350000017,0.05293158497674925,0.06181170650020939,0.007521490955014825,-0.04592984672642149,0.01889124570003769
0.75,0.0006837405000015895,-0.786139700000005,0.0005481730000015604,-2.3542692999999937,0.005034138000015166,1.5750238000000125,0.7887407500000084,0.03999994,0.03999998,-9.832288000000014,0.05343097820892242,0.06258164000022055,0.0075760013000151566,-0.04616375267512137,0.01902982800003859
0.7525000000000001,0.0006895656660015949,-0.7861580945000051,0.0005538919300015657,-2.3542469499999936,0.005089723350015218,1.5750694300000125,0.7887715825000085,0.0399999394,0.03999998,-9.832342450000015,0.05395221244558052,0.0633900095002213,0.007631549705015208,-0.04640186633921223,0.019171265550038723
0.755,0.0006953908320016,-0.786176489000005,0.0005596108600015708,-2.3542245999999936,0.0051453087000152675,1.5751150600000126,0.7888024150000085,0.039999938799999996,0.03999998,-9.832396900000015,0.05447344668223861,0.06419837900022203,0.007687098110015257,-0.04663998000330307,0.01931270310003885
0.7575000000000001,0.0007012159980016054,-0.7861948835000051,0.0005653297900015761,-2.354202249999994,0.005200894050015319,1.5751606900000126,0.7888332475000085,0.0399999382,0.03999998,-9.832451350000015,0.05499468091889671,0.06500674850022278,0.007742646515015309,-0.04687809366739393,0.01945414065003898
0.76,0.0007070411640016106,-0.7862132780000051,0.0005710487200015812,-2.354179899999994,0.005256479400015369,1.5752063200000126,0.7888640800000085,0.0399999376,0.03999998,-9.832505800000016,0.0555159151555548,0.06581511800022351,0.007798194920015359,-0.04711620733148478,0.019595578200039106
0.7625000000000001,0.000712866330001616,-0.7862316725000051,0.0005767676500015866,-2.354157549999994,0.0053120647500154205,1.5752519500000128,0.7888949125000085,0.039999937,0.03999998,-9.832560250000016,0.0560371493922129,0.06662348750022426,0.00785374332501541,-0.047354320995575634,0.01973701575003924
0.765,0.0007186914960016212,-0.7862500670000051,0.0005824865800015917,-2.3541351999999938,0.00536765010001547,1.5752975800000129,0.7889257450000086,0.0399999364,0.03999998,-9.832614700000015,0.05655838362887099,0.06743185700022497,0.007909291730015458,-0.04759243465966648,0.019878453300039362
0.7675000000000001,0.0007246094530017044,-0.7862687685000054,0.0005882965150016732,-2.3541124799999933,0.005424119235016262,1.5753439300000134,0.7889570650000091,0.039999936,0.03999998,-9.832668000000014,0.057088009268197924,0.06825401150023729,0.007965204150015816,-0.047831973806091235,0.02002091005004035
0.77,0.0007307129920017097,-0.7862880840000054,0.0005942884600016786,-2.3540890199999933,0.0054823559400163134,1.5753917200000134,0.7889893600000091,0.039999936,0.03999998,-9.832719000000015,0.057634417712841425,0.06910373600023803,0.008021844600015867,-0.0480743639171802,0.020165405200040478
0.7725,0.0007368165310017152,-0.7863073995000054,0.0006002804050016839,-2.3540655599999933,0.005540592645016365,1.5754395100000134,0.7890216550000091,0.039999936,0.03999998,-9.832770000000014,0.05818082615748493,0.06995346050023879,0.008078485050015917,-0.04831675402826917,0.020309900350040606
0.775,0.0007429200700017209,-0.7863267150000055,0.0006062723500016895,-2.3540420999999934,0.00559882935001642,1.5754873000000136,0.7890539500000091,0.039999936,0.03999998,-9.832821000000015,0.05872723460212846,0.07080318500023958,0.00813512550001597,-0.04855914413935814,0.02045439550004074
0.7775,0.0007490236090017264,-0.7863460305000055,0.0006122642950016948,-2.3540186399999934,0.005657066055016472,1.5755350900000136,0.7890862450000091,0.039999936,0.03999998,-9.832872000000014,0.05927364304677197,0.07165290950024034,0.008191765950016021,-0.04880153425044711,0.02059889065004087
0.78,0.000755127148001732,-0.7863653460000055,0.0006182562400017004,-2.3539951799999934,0.005715302760016526,1.5755828800000136,0.7891185400000091,0.039999936,0.03999998,-9.832923000000015,0.0598200514914155,0.07250263400024112,0.008248406400016072,-0.04904392436153609,0.020743385800041005
0.7825,0.0007612306870017375,-0.7863846615000055,0.0006242481850017057,-2.3539717199999934,0.005773539465016578,1.5756306700000136,0.7891508350000093,0.039999936,0.03999998,-9.832974000000014,0.060366459936059,0.07335235850024188,0.008305046850016123,-0.04928631447262505,0.020887880950041134
0.785,0.0007675232460018242,-0.7864046160000058,0.0006304255300017907,-2.3539474899999933,0.005833576500017403,1.5756799600000142,0.7891841300000096,0.0399999356,0.03999998,-9.833026300000014,0.06092779934422517,0.07422938900025437,0.008362368100016468,-0.049531573802303136,0.021034214400042054
0.7875,0.0007739103150018298,-0.7864248900000058,0.0006366955750017963,-2.353922874999993,0.005894513700017458,1.5757300000000143,0.7892179250000096,0.039999935,0.03999998,-9.833079250000015,0.061496604234143055,0.07512007250025517,0.008420029750016518,-0.049778267741273925,0.021181467000042184
0.79,0.0007802973840018358,-0.7864451640000059,0.0006429656200018021,-2.353898259999993,0.005955450900017514,1.5757800400000144,0.7892517200000098,0.0399999344,0.03999998,-9.833132200000016,0.062065409124060965,0.07601075600025599,0.008477691400016573,-0.05002496168024473,0.02132871960004232
0.7925,0.0007866844530018414,-0.7864654380000059,0.0006492356650018077,-2.353873644999993,0.006016388100017568,1.5758300800000145,0.7892855150000098,0.0399999338,0.03999998,-9.833185150000014,0.06263421401397885,0.07690143950025678,0.008535353050016624,-0.05027165561921552,0.021475972200042454
0.795,0.0007930715220018474,-0.7864857120000059,0.0006555057100018135,-2.353849029999993,0.006077325300017625,1.5758801200000145,0.7893193100000098,0.039999933200000004,0.03999998,-9.833238100000015,0.06320301890389676,0.07779212300025762,0.008593014700016678,-0.050518349558186314,0.02162322480004259
0.7975,0.000799458591001853,-0.7865059860000059,0.0006617757550018191,-2.353824414999993,0.006138262500017679,1.5759301600000146,0.7893531050000098,0.0399999326,0.03999998,-9.833291050000016,0.06377182379381464,0.0786828065002584,0.008650676350016729,-0.0507650434971571,0.02177047740004272
0.8,0.000805845660001943,-0.7865262600000062,0.0006680458000019073,-2.3537997999999924,0.006199199700018536,1.5759802000000154,0.7893869000000103,0.039999932,0.03999998,-9.83334400000001,0.06434062868373806,0.07957349000027084,0.008708338000017083,-0.051011737436128995,0.02191773000004368
0.8025,0.000812521371001949,-0.7865474760000062,0.0006745988350019131,-2.3537740599999926,0.006262885755018592,1.5760325050000152,0.7894222400000103,0.039999932,0.0399999806,-9.83337460000001,0.06492834314721095,0.08050401425027166,0.008767032850017136,-0.05126217920340454,0.022067802000043813
0.805,0.0008191970820019552,-0.7865686920000062,0.0006811518700019192,-2.3537483199999927,0.0063265718100186516,1.5760848100000153,0.7894575800000103,0.039999932,0.0399999812,-9.833405200000009,0.06551605761068387,0.08143453850027253,0.00882572770001719,-0.0515126209706801,0.022217874000043953
0.8075,0.000825872793001961,-0.7865899080000063,0.000687704905001925,-2.3537225799999923,0.0063902578650187085,1.5761371150000154,0.7894929200000104,0.039999932,0.0399999818,-9.833435800000009,0.06610377207415674,0.08236506275027336,0.008884422550017243,-0.05176306273795565,0.022367946000044086
0.81,0.0008325485040019673,-0.7866111240000062,0.0006942579400019311,-2.3536968399999925,0.006453943920018768,1.5761894200000155,0.7895282600000104,0.039999932,0.0399999824,-9.83346640000001,0.06669148653762966,0.08329558700027422,0.008943117400017297,-0.052013504505231206,0.022518018000044226
0.8125,0.0008392242150019732,-0.7866323400000063,0.000700810975001937,-2.3536710999999926,0.006517629975018824,1.5762417250000156,0.7895636000000105,0.039999932,0.039999983,-9.83349700000001,0.06727920100110255,0.08422611125027504,0.00900181225001735,-0.05226394627250675,0.02266809000004436
0.8150000000000001,0.0008458999260019794,-0.7866535560000063,0.0007073640100019431,-2.3536453599999927,0.0065813160300188835,1.5762940300000154,0.7895989400000105,0.039999932,0.039999983600000004,-9.833527600000009,0.06786691546457546,0.08515663550027591,0.009060507100017405,-0.05251438803978231,0.022818162000044502
0.8175,0.0008526734715020726,-0.7866751000000066,0.0007140130120020346,-2.353619234999992,0.006645934055019772,1.5763471000000162,0.789634787000011,0.0399999319,0.0399999838,-9.833567400000017,0.0684676636012272,0.08610138995028944,0.009119510175017732,-0.05276612136520549,0.0229692040000455
0.8200000000000001,0.0008596426860020791,-0.7866973000000066,0.0007208539480020409,-2.353592339999992,0.006712416020019834,1.5764017000000163,0.789671648000011,0.039999931600000004,0.0399999832,-9.833625600000017,0.06909447908420184,0.08707460480029035,0.009179129700017788,-0.05302043780692049,0.02312218600004564
0.8225,0.0008666119005020853,-0.7867195000000067,0.000727694884002047,-2.353565444999992,0.006778897985019893,1.5764563000000165,0.789708509000011,0.0399999313,0.0399999826,-9.833683800000017,0.06972129456717646,0.08804781965029121,0.00923874922501784,-0.05327475424863549,0.023275168000045778
0.8250000000000001,0.0008735811150020918,-0.7867417000000066,0.0007345358200020534,-2.353538549999992,0.006845379950019955,1.5765109000000164,0.7897453700000111,0.039999931,0.039999981999999996,-9.833742000000017,0.0703481100501511,0.08902103450029211,0.009298368750017896,-0.05352907069035049,0.02342815000004592
0.8275,0.000880550329502098,-0.7867639000000066,0.0007413767560020594,-2.353511654999992,0.006911861915020014,1.5765655000000165,0.7897822310000111,0.039999930700000005,0.0399999814,-9.833800200000017,0.0709749255331257,0.08999424935029299,0.009357988275017949,-0.05378338713206548,0.023581132000046055
0.8300000000000001,0.0008875195440021046,-0.7867861000000067,0.0007482176920020658,-2.353484759999992,0.006978343880020076,1.5766201000000166,0.7898190920000111,0.0399999304,0.0399999808,-9.833858400000016,0.07160174101610034,0.09096746420029389,0.009417607800018003,-0.05403770357378048,0.023734114000046196
0.8325,0.0008944887585021108,-0.7868083000000067,0.000755058628002072,-2.3534578649999918,0.007044825845020135,1.5766747000000165,0.7898559530000112,0.039999930100000004,0.0399999802,-9.833916600000018,0.07222855649907496,0.09194067905029475,0.009477227325018057,-0.05429202001549547,0.02388709600004633
0.835,0.0009016568620022076,-0.7868311600000071,0.0007620946230021668,-2.3534301599999914,0.007113202150021057,1.5767308500000174,0.7898938700000117,0.0399999295,0.03999998,-9.833963000000011,0.07286726683397797,0.09294234760030859,0.009537525450018418,-0.05454874634750564,0.024041805800047254
0.8375,0.0009089244100022143,-0.786854350000007,0.0007692281475021735,-2.3534020499999913,0.007182525625021122,1.5767877750000174,0.7899323150000117,0.039999928750000004,0.03999998,-9.834003500000012,0.07351192459483712,0.09395824300030953,0.009598162875018475,-0.054806677624661765,0.0241973795000474
0.84,0.0009161919580022209,-0.7868775400000071,0.0007763616720021799,-2.3533739399999916,0.0072518491000211835,1.5768447000000174,0.7899707600000118,0.039999928000000004,0.03999998,-9.834044000000013,0.07415658235569624,0.09497413840031044,0.00965880030001853,-0.05506460890181788,0.024352953200047538
0.8425,0.0009234595060022276,-0.7869007300000072,0.0007834951965021865,-2.3533458299999914,0.007321172575021248,1.5769016250000174,0.7900092050000118,0.03999992725,0.03999998,-9.834084500000012,0.07480124011655537,0.09599003380031138,0.009719437725018586,-0.055322540178974006,0.024508526900047685
