rsonawane2002/My_IMU/logs_2/traj_480/clean_480.csv
time,j1,j2,j3,j4,j5,j6,j7,gripper1,gripper2,imu_ax,imu_ay,imu_az,imu_gx,imu_gy,imu_gz,quat_x,quat_y,quat_z,quat_w
2531.4833333379556,0.00016700293,-0.785875,4.0107683e-05,-2.3551247,9.29385e-05,1.570997,0.786,0.04,0.04,0.0,-0.0,0.0,2.875329272945135e-08,-0.0011641195053377316,4.421952117202833e-08,0.9999995971961153,0.00020320632366974898,0.0008736418299892524,3.263050917662294e-05
2531.5000000046225,0.00016700139,-0.78576016,4.010489e-05,-2.3552213,9.296623e-05,1.5709941,0.786,0.04,0.04,-0.2919984595969094,-1.3133304215879509e-05,0.020128413539932666,1.0362127698369293e-06,-0.002238666804586476,2.9376776789523983e-08,0.9999996850576475,0.00020321283067963858,0.0007665025192526733,3.260428565913845e-05
2531.5166666712894,0.0001669686,-0.78565425,4.0034425e-05,-2.35531,9.294705e-05,1.5709913,0.786,0.04,0.039999995,0.023262853506111902,0.00014933579581082848,-0.001636540632410366,8.400391986506345e-06,-0.0032321754265194082,4.525501038790602e-07,0.999999755855486,0.00020325852110713682,0.0006677674539300135,3.258173544113061e-05
2531.5333333379563,0.00016685047,-0.7855569,3.978572e-05,-2.355391,9.2770075e-05,1.5709884,0.786,0.04,0.04,0.022460751594022277,0.0004225324591519957,-0.0015248243719678811,2.841331483112394e-05,-0.0041555349876501065,-1.2998297492486686e-06,0.9999998122381243,0.0002034095855739294,0.0005771386233926299,3.254636726323641e-05
2531.550000004623,0.00016656693,-0.78546727,3.9199917e-05,-2.3554652,9.231617e-05,1.5709856,0.786,0.04,0.04,0.02025545802826212,0.0007876479840215281,-0.0013235308483183772,6.58891747611369e-05,-0.005012423497396633,-3.7209110992648112e-06,0.999999856787676,0.00020376228020570325,0.0004938113732172213,3.2494433205716075e-05
2531.56666667129,0.00016601475,-0.7853847,3.8074395e-05,-2.355532,9.1429945e-05,1.5709862,0.786,0.04,0.04,0.021503295310165704,0.0012565313959854235,0.001814227224850029,0.00012666572898300857,-0.0058168114302032505,-6.070357114534722e-06,0.9999998906055089,0.00020443992585244243,0.0004194546428901399,3.2420510025707273e-05
2531.583333337957,0.0001650701,-0.78530866,3.6167723e-05,-2.3555956,8.991408e-05,1.570987,0.7860019,0.04,0.04,0.012527138302886875,0.0018267612226518918,-0.0021543982374083726,0.0002151666805325956,-0.006554529558293788,-1.0385185917159275e-05,0.9999999168925482,0.00020654358282588833,0.00035001529932604416,3.230998934241365e-05
2531.600000004624,0.00016359045,-0.78523856,3.3203552e-05,-2.3556538,8.7547414e-05,1.5709879,0.7860038,0.04,0.04,0.01594801619704267,0.00247536111237417,-0.0008660244899205694,0.00032757112912794496,-0.007267048079278276,-1.6258098305496155e-05,0.9999999365820043,0.00020928848251181942,0.00028635765305769684,3.214985485874755e-05
2531.6166666712907,0.0001614168,-0.7851741,2.8874345e-05,-2.3557053,8.407189e-05,1.5709922,0.7860066,0.039999995,0.04,0.01859871177987138,0.003206313112144696,0.0022753245447759696,0.00047624385641233395,-0.00794874552258178,-2.4672464149707083e-05,0.9999999501729447,0.00021330991204712284,0.000230508261639482,3.192069705216914e-05
2531.6333333379575,0.00015837525,-0.7851148,2.2844664e-05,-2.3557549,7.9223406e-05,1.570997,0.78601044,0.039999988,0.039999988,0.009191265317243236,0.0039926388426335824,-0.0017822814412316035,0.0006612344076422606,-0.00858463049571763,-3.323107601907764e-05,0.999999959621352,0.00021887309861414725,0.00017847362169671354,3.160739512938368e-05
2531.6500000046244,0.00015427884,-0.78506005,1.47544715e-05,-2.3557985,7.271737e-05,1.5710052,0.78601617,0.039999984,0.03999998,0.016167131850663985,0.004835981311520542,0.0026967876527894674,0.0008859292931659129,-0.009213993942305407,-4.3825133606702356e-05,0.9999999649337368,0.0002266457783889538,0.00013338296864124486,3.119615429470604e-05
2531.6666666712913,0.00014892936,-0.7850097,4.2222846e-06,-2.3558404,6.4246226e-05,1.5710138,0.7860233,0.039999977,0.039999973,0.00782490232329458,0.00573583419062863,-0.0014973900347658997,0.0011491261929968768,-0.009812237077963581,-5.744430457379162e-05,0.9999999673473033,0.0002366235285334379,9.151102155322612e-05,3.066644366618202e-05
2531.683333337958,0.00014211812,-0.78496325,-9.152702e-06,-2.3558772,5.348946e-05,1.5710262,0.786032,0.039999973,0.039999966,0.01447040794309018,0.006678386065047518,0.0029544050561991497,0.0014565580936246707,-0.010414641454084446,-7.247915069319465e-05,0.9999999669459603,0.00024911196598508727,5.6136026140529214e-05,3.000088812109469e-05
2531.700000004625,0.00013362791,-0.7849204,-2.5787689e-05,-2.355912,4.0111212e-05,1.5710424,0.786043,0.03999997,0.03999996,0.008402106031324408,0.00766211445998474,0.0016634533934301032,0.0018107634608539262,-0.010995441035404688,-9.07563312342295e-05,0.9999999642118568,0.0002647248330058996,2.5410208874709533e-05,2.9178230584178278e-05
2531.716666671292,0.00012323401,-0.7848808,-4.6114226e-05,-2.355944,2.376592e-05,1.5710624,0.78605634,0.03999997,0.03999996,0.00969257483154351,0.008678097513213823,0.002261485001864294,0.0022105592555712863,-0.011573412503566909,-0.00011150884023709688,0.999999959335519,0.00028378659716002587,-3.386411677631584e-07,2.8178235716825555e-05
2531.733333337959,0.000110705005,-0.7848442,-7.057627e-05,-2.3559718,4.0983073e-06,1.5710863,0.78607184,0.039999973,0.03999996,0.011388144743418316,0.009723682044893439,0.0029663260503909328,0.0026587306537060656,-0.012148924764745052,-0.00013395785913558438,0.9999999524665291,0.00030645069064018154,-2.066354119754604e-05,2.6980218003515416e-05
2531.7500000046257,9.580413e-05,-0.7848103,-9.962781e-05,-2.3559988,-1.9257413e-05,1.571115,0.7860907,0.039999977,0.039999966,0.006131088981309318,0.010794752718434079,0.0025445921435940377,0.003158196087834916,-0.012719869210126359,-0.00015989134347099915,0.9999999433570766,0.00033359197748166283,-3.6726878306290734e-05,2.556114779367257e-05
2531.7666666712926,7.829001e-05,-0.78477895,-0.00013373187,-2.3560236,-4.667141e-05,1.5711497,0.7861126,0.039999973,0.039999958,0.008364099815150183,0.011885257797059597,0.003946115459396715,0.003706279021270265,-0.013299959908717709,-0.0001876542909338794,0.9999999318387097,0.0003653755807969847,-4.745587749884816e-05,2.3899800099812703e-05
2531.7833333379594,5.7917616e-05,-0.78474975,-0.00017335809,-2.3560448,-7.8520374e-05,1.5711892,0.7861381,0.039999977,0.03999996,0.009955346785939234,0.012993028505643486,0.003935098542018345,0.004305914378820848,-0.013883391155012973,-0.0002190241548135185,0.999999917423154,0.0004023284666686637,-5.294010133166494e-05,2.1973525801382507e-05
2531.8000000046263,3.4438977e-05,-0.7847227,-0.00021898202,-2.3560648,-0.00011518523,1.5712355,0.7861675,0.039999977,0.039999958,0.006582826685752607,0.014113879794775977,0.004462212795863785,0.004956689739278305,-0.014471014647236668,-0.00025232511558507,0.9999998994201033,0.0004448916295715682,-5.3298957217401646e-05,1.975962201873925e-05
2531.816666671293,7.6039246e-06,-0.7846974,-0.00027108323,-2.3560839,-0.00015705141,1.5712883,0.786201,0.03999998,0.03999996,0.005630411010626446,0.01524565666666174,0.004199256975345733,0.005659726937756466,-0.015067099031848302,-0.00028932864071957044,0.9999998768869405,0.0004934787750105771,-4.906913705536146e-05,1.723433494021524e-05
2531.83333333796,-2.2839473e-05,-0.78467375,-0.00033014445,-2.3561003,-0.0002045046,1.5713484,0.78623897,0.03999998,0.039999958,0.008532081956746929,0.016384680142799597,0.005667866510727926,0.006414928199136037,-0.01567938832755776,-0.00032842234517565854,0.9999998486706977,0.0005485654073346611,-3.908866331955506e-05,1.437539756837243e-05
2531.850000004627,-5.714384e-05,-0.78465146,-0.00039665023,-2.3561146,-0.00025793476,1.5714161,0.7862818,0.039999984,0.039999966,0.007570488621988503,0.017529689396621622,0.005850257223261046,0.007222693730994344,-0.016299627429317648,-0.00037291439568312235,0.9999998132093334,0.0006106576852668816,-2.3536732929297802e-05,1.1158493892867219e-05
2531.866666671294,-9.556256e-05,-0.7846306,-0.00047108592,-2.356127,-0.0003177289,1.5714918,0.78632975,0.039999988,0.03999997,0.007343448073826586,0.01867484361672809,0.005969748373635397,0.008082517969196703,-0.01693308119224825,-0.0004186912408137575,0.9999997686712805,0.0006801432290992523,-2.324400924847289e-06,7.5611306829309735e-06
2531.8833333379607,-0.00013834873,-0.78461105,-0.00055393664,-2.356139,-0.00038427307,1.571576,0.7863831,0.039999988,0.039999995,0.004930425930527171,0.019818179341243598,0.005742287018684067,0.008994550825039081,-0.017578047924574597,-0.0004723644462614378,0.9999997128032937,0.0007574985844251524,2.4011337248860837e-05,3.560933575641395e-06
2531.9000000046276,-0.00018575526,-0.78459233,-0.00064568734,-2.3561504,-0.00045795637,1.5716696,0.78644216,0.039999988,0.039999995,0.004703726527477414,0.020965076713088827,0.006713341280284446,0.009959488857009476,-0.018244106718354015,-0.00052402141340205,0.9999996429796195,0.0008431704898307221,5.5708245885544384e-05,-8.6602747345076e-07
2531.9166666712945,-0.00023803362,-0.7845748,-0.00074682,-2.3561602,-0.00053917576,1.5717726,0.78650725,0.03999999,0.039999995,0.007123545402554221,0.02211446276143716,0.007035498328522571,0.010976274529751709,-0.01893013721454785,-0.0005777537032253845,0.9999995560576533,0.0009376042027350345,9.354041908831276e-05,-5.748514848049513e-06
2531.9333333379614,-0.00029543447,-0.78455794,-0.0008578153,-2.356168,-0.00062831043,1.571886,0.78657866,0.039999995,0.039999977,0.007236027398871414,0.023249088778253598,0.008143780314506799,0.01204506564055921,-0.01963121583253428,-0.0006320492693528438,0.9999994483444212,0.001041243991940674,0.00013783478942436353,-1.1107358315522105e-05
2531.9500000046282,-0.00035820657,-0.7845417,-0.0009791502,-2.3561742,-0.000725737,1.5720097,0.7866568,0.04,0.039999977,0.006828926127977475,0.024375129598767937,0.008021664633739434,0.013165771435977847,-0.020347196980055444,-0.000691809467718703,0.9999993155546175,0.0011545913441126567,0.00018847111890588734,-1.6963547827088384e-05
2531.966666671295,-0.00042659682,-0.7845262,-0.0011112981,-2.3561792,-0.0008318382,1.5721446,0.7867418,0.039999984,0.039999947,0.006346793603873024,0.02550057176162435,0.00837818835748294,0.014337152031054625,-0.0210790414160816,-0.000750149775775923,0.9999991529160961,0.001277996454915538,0.0002456568438026074,-2.33423790444693e-05
2531.983333337962,-0.00050085015,-0.78451127,-0.0012547283,-2.3561835,-0.0009469873,1.5722913,0.78683406,0.039999977,0.039999925,0.005487209528753922,0.026612473621940528,0.008600625517374283,0.01555926070797993,-0.021830345341369607,-0.0008134044425967971,0.9999989548980238,0.0014119559373796896,0.0003093012160539478,-3.0266297728498937e-05
2532.000000004629,-0.00058120827,-0.78449667,-0.0014099051,-2.3561873,-0.0010715597,1.5724498,0.7869339,0.039999977,0.03999992,0.004956796663124763,0.027717600553199464,0.008749903880844734,0.01683185975257931,-0.022599958568180305,-0.0008822356843350785,0.9999987153727267,0.001556903479880645,0.0003793133106910311,-3.7760602425919565e-05
2532.0166666712958,-0.0006679105,-0.78448236,-0.0015772876,-2.3561912,-0.0012059243,1.5726207,0.78704166,0.03999998,0.03999992,0.00422810614399971,0.028809352679307915,0.00889945601612041,0.01815382791741086,-0.02339285502391064,-0.0009550838917063587,0.9999984274368078,0.0017132992245644297,0.00045566161856869355,-4.584940643598763e-05
2532.0333333379626,-0.00076119375,-0.78446853,-0.0017573297,-2.3561938,-0.0013504414,1.5728046,0.78715754,0.039999984,0.03999992,0.006600381349675111,0.029892116317898326,0.00966067385688163,0.01952435297594312,-0.024211545964784954,-0.0010300450448843413,0.9999980830614388,0.001881511940896058,0.0005392680959090271,-5.4554420952347314e-05
2532.0500000046295,-0.0008612912,-0.7844549,-0.0019504788,-2.3561947,-0.001505472,1.5730019,0.7872819,0.03999999,0.039999932,0.00726689670997871,0.03096424452229728,0.010455793456443097,0.020943364701783918,-0.025047078893464463,-0.0011107183106022697,0.9999976732668764,0.0020619952785776185,0.0006305180425300196,-6.390072637727584e-05
2532.0666666712964,-0.0009684334,-0.7844413,-0.0021571766,-2.3561947,-0.0016713681,1.5732127,0.78741485,0.03999999,0.039999932,0.005952469967529517,0.032017280386700125,0.010255680931892108,0.022409513830714285,-0.025898840407598135,-0.0011934928145718362,0.9999971887473335,0.0022551094386323908,0.0007290514622657319,-7.391086002334056e-05
2532.0833333379633,-0.0010828468,-0.78442776,-0.002377858,-2.356194,-0.0018484766,1.5734383,0.7875568,0.03999999,0.03999992,0.005883308280352217,0.03305782281123361,0.010908859162594986,0.02392317265892059,-0.026772923516950195,-0.001275046934045945,0.9999966185683742,0.002461299601009732,0.0008352829771460935,-8.460756341694958e-05
2532.10000000463,-0.0012047542,-0.78441423,-0.002612951,-2.3561919,-0.0020371424,1.5736785,0.7877081,0.03999999,0.039999917,0.007028735844549772,0.034089465004590036,0.011220959783342366,0.025483026469453707,-0.02766429182698535,-0.0013622271826367865,0.9999959507501751,0.002680977950610615,0.0009495375370254617,-9.601534963538878e-05
2532.116666671297,-0.0013343751,-0.78440064,-0.0028628765,-2.3561893,-0.0022377006,1.5739337,0.787869,0.039999988,0.0399999,0.005448847721023498,0.03509624763078072,0.011045954340205277,0.027087715875621324,-0.028574324101439973,-0.0014499051580727368,0.9999951727973874,0.002914550699988209,0.0010714841665333942,-0.00010815646680546504
2532.133333337964,-0.0014719244,-0.78438705,-0.003128047,-2.356186,-0.002450483,1.5742044,0.78803957,0.039999988,0.039999895,0.0060658952095282714,0.036092854470574365,0.011423101815455361,0.028736974147785734,-0.02950623828864303,-0.0015423353126358553,0.9999942706799383,0.003162330520314336,0.0012015068428885918,-0.00012105488562299711
2532.150000004631,-0.0016176138,-0.7843733,-0.003408869,-2.3561823,-0.002675816,1.5744915,0.7882203,0.03999999,0.039999895,0.005315593827703857,0.03707451445649216,0.011875755290557954,0.030430017651152587,-0.030457974458718715,-0.0016388044129472847,0.9999932289740311,0.0034247744574551165,0.0013396912295710664,-0.00013473461366588036
2532.1666666712977,-0.0017716513,-0.7843593,-0.0037057404,-2.3561785,-0.0029140175,1.5747948,0.78841126,0.04,0.0399999,0.005203960120225837,0.03803702260577243,0.011760273212657602,0.03216602528787279,-0.031429137182723416,-0.001739322487544907,0.9999920317297128,0.0037021860921537626,0.0014859438374094178,-0.00014921840433437892
2532.1833333379645,-0.0019342398,-0.78434503,-0.004019052,-2.3561747,-0.0031654015,1.5751148,0.78861284,0.04,0.039999895,0.0049799457865429275,0.038984467103285285,0.012031504981102614,0.033944088509476424,-0.03242391076433364,-0.0018395371515314025,0.9999906609582376,0.003994982580362644,0.0016404390770951797,-0.0001645300096404824
2532.2000000046314,-0.0021055778,-0.78433055,-0.0043491866,-2.356169,-0.0034302738,1.5754521,0.7888252,0.04,0.0399999,0.008331667180971891,0.03993035890928996,0.013082379265894062,0.03576315435788353,-0.033441407142034876,-0.0019450692061492476,0.9999890958430455,0.004303490411044141,0.0018043046623732086,-0.00018069304221439046
2532.2166666712983,-0.002285862,-0.7843157,-0.0046965186,-2.3561623,-0.0037089288,1.5758069,0.7890486,0.03999999,0.03999987,0.006681797024676861,0.04083755435173742,0.012911795564329864,0.03762222102128039,-0.034470780364242844,-0.002051839269283975,0.999987316298147,0.004628057281386352,0.001977177840502719,-0.0001977281391005582
2532.233333337965,-0.0024752808,-0.7843007,-0.005061412,-2.356155,-0.004001663,1.5761797,0.7892833,0.03999999,0.03999986,0.006655110402964404,0.04173297173059795,0.01306498803843592,0.03952106122414151,-0.03551905381186346,-0.0021636505790186677,0.9999852997026181,0.0049690240926236005,0.0021593213234374943,-0.0002156609707125119
2532.250000004632,-0.002674022,-0.78428525,-0.0054442263,-2.356147,-0.0043087634,1.576571,0.7895296,0.03999999,0.039999854,0.006050486199660199,0.042616100946565004,0.013182651953647095,0.041458531019630665,-0.036582368180933356,-0.0022779654767549687,0.9999830221728188,0.005326819081733688,0.0023506100200652437,-0.00023451464751679716
2532.266666671299,-0.0028822669,-0.7842694,-0.0058453092,-2.3561382,-0.0046305093,1.5769807,0.78978765,0.03999999,0.039999846,0.006889321098801915,0.04348149997705143,0.013391126838802059,0.043432349412388244,-0.03766395795155572,-0.0023954478600234884,0.9999804583743117,0.005701655971335574,0.002551335617042556,-0.00025431330140361256
2532.283333337966,-0.0031001926,-0.7842531,-0.0062650023,-2.356129,-0.004967174,1.5774096,0.7900576,0.04,0.03999985,0.006294404389106667,0.044326329260307024,0.01360910918857261,0.04544338821998834,-0.038763862583319805,-0.0025171315061198463,0.9999775810957154,0.006093861140487932,0.002761610592284198,-0.00027508053173139663
2532.3000000046327,-0.0033279718,-0.7842364,-0.0067036385,-2.3561187,-0.0053190216,1.5778577,0.79033977,0.039999995,0.039999835,0.007027754015531684,0.04515819227808443,0.013749775560323307,0.047490324990694305,-0.03987992078356394,-0.002640679351758931,0.999974360910518,0.006503787560846657,0.002981636402195203,-0.00029683889478170555
2532.3166666712996,-0.0035657734,-0.7842192,-0.0071615414,-2.356108,-0.0056863124,1.5783254,0.7906343,0.039999995,0.03999983,0.006382683508121545,0.0459663264949204,0.01365490845934847,0.04957147058687826,-0.04101182874997534,-0.0027681461062653845,0.9999707678572318,0.0069316913906406685,0.003211375617042702,-0.0003196124674043223
2532.3333333379665,-0.0038137622,-0.7842016,-0.007639024,-2.356097,-0.006069298,1.5788131,0.79094136,0.03999999,0.03999982,0.0061149661892079266,0.0467560330494228,0.01378245214256335,0.05168649632574867,-0.04216091513892395,-0.0028989197439377896,0.9999667694093564,0.007377882722681922,0.0034509393785253405,-0.00034342532124499183
2532.3500000046333,-0.0040720967,-0.78418344,-0.0081363935,-2.356086,-0.006468224,1.5793209,0.7912612,0.039999988,0.039999813,0.005532308060263169,0.047527997252327925,0.013738803025442614,0.05383447428904356,-0.04332716232719501,-0.0030336051449567566,0.9999623323657846,0.007842636342054342,0.0037001701251701694,-0.0003683012777812268
2532.3666666713,-0.004340932,-0.7841647,-0.008653947,-2.3560748,-0.006883327,1.5798497,0.7915941,0.039999988,0.039999805,0.006257150744937157,0.04829111830510213,0.01429726222572647,0.05601451372811303,-0.04451160685752881,-0.003169396537280867,0.9999574185657761,0.008326282497513257,0.003959625083870133,-0.0003942641705745742
2532.383333337967,-0.0046204184,-0.78414536,-0.009191972,-2.3560622,-0.007314842,1.5803994,0.7919401,0.039999995,0.039999805,0.008102218330452438,0.04904989532979534,0.014667391870859525,0.05822505647451552,-0.04571170069688979,-0.0033097926845660833,0.9999519887129205,0.008829030113841648,0.004229771517383928,-0.00042134218278778307
2532.400000004634,-0.0049107014,-0.7841255,-0.009750754,-2.3560486,-0.0077629904,1.58097,0.7922996,0.04,0.039999798,0.007508841700221147,0.04976827704313638,0.014291450299785957,0.06046584308493769,-0.046922850985715525,-0.003453998767147217,0.9999460021300226,0.009351257880521867,0.004510510028732751,-0.00044955479937798217
2532.416666671301,-0.0052119237,-0.78410506,-0.010330561,-2.3560338,-0.008227995,1.5815622,0.7926725,0.04,0.039999794,0.007918726113831376,0.05048545612525157,0.014662190208958314,0.0627348641457594,-0.04814713676392951,-0.003601046700066824,0.9999394171203144,0.009893042000297083,0.0048021279921032336,-0.0004789319509850913
2532.4333333379677,-0.0055242185,-0.78408384,-0.010931658,-2.3560188,-0.008710054,1.5821762,0.7930591,0.04,0.039999783,0.006226933856146033,0.05115044182955643,0.014526770936162947,0.06503229645790326,-0.04938179846472215,-0.0037515028051718115,0.9999321905007867,0.010454715572117624,0.005104286564961233,-0.0005094911845022539
2532.4500000046346,-0.0058477223,-0.78406215,-0.011554296,-2.356003,-0.009209379,1.5828122,0.79345953,0.04,0.039999776,0.007351925468812581,0.05183481837947798,0.014396988257159293,0.0673567818081446,-0.050631090220979696,-0.003905518430451272,0.999924274638759,0.01103649481888386,0.005417361519645515,-0.0005412618865808094
2532.4666666713015,-0.0061825593,-0.78403974,-0.012198723,-2.3559866,-0.009726166,1.5834703,0.79387385,0.039999988,0.03999976,0.007142003584537093,0.05248825861822112,0.014528139451464028,0.06970750458176567,-0.05189007886982655,-0.0040634556340750985,0.9999156220536707,0.011638556393610716,0.0057413406495974454,-0.0005742696567429294
2532.4833333379684,-0.006528856,-0.7840166,-0.0128651755,-2.3559697,-0.010260602,1.5841509,0.7943024,0.039999984,0.03999975,0.00678935704037098,0.053123500820904945,0.014409021333494643,0.07208405257785902,-0.053163435544708385,-0.004222744924692486,0.9999061814791208,0.012261222545798506,0.0060762112852219075,-0.0006085375446705766
2532.5000000046352,-0.0068867295,-0.78399295,-0.013553882,-2.3559518,-0.010812874,1.5848544,0.7947452,0.039999995,0.039999753,0.007935126383773472,0.05375605420638238,0.014675158686050516,0.07448431865407272,-0.05444832007711739,-0.004386817664263028,0.9998958979748747,0.012904631428777964,0.006422526299635177,-0.000644093655358054
2532.516666671302,-0.007256295,-0.78396857,-0.014265058,-2.3559337,-0.011383154,1.5855805,0.7952025,0.04,0.03999975,0.006410921643351664,0.054333196392162414,0.014075178178973857,0.07690804142906746,-0.05574058586305344,-0.004555738413180507,0.9998847200131633,0.013569029635133527,0.006779705653467181,-0.0006809627090278975
2532.533333337969,-0.00763766,-0.78394353,-0.014998918,-2.3559153,-0.011971614,1.5863299,0.7956744,0.04,0.039999742,0.006684524154998428,0.05492766272571503,0.014356185566533064,0.07935390689179611,-0.05704719644212891,-0.004727009397913991,0.999872588603257,0.014254602812215812,0.007148122301280842,-0.0007191703928948848
2532.550000004636,-0.0080309305,-0.7839178,-0.01575567,-2.355897,-0.012578413,1.5871028,0.7961609,0.04,0.03999974,0.006182746927030358,0.055489172572821543,0.014060347388578087,0.08182136893804852,-0.05836305677659916,-0.0049021086231544435,0.9998594469921419,0.014961471492132667,0.00752761215984005,-0.0007587400932769316
2532.5666666713028,-0.008436209,-0.78389114,-0.0165355,-2.3558779,-0.013203707,1.5878992,0.7966623,0.039999995,0.039999723,0.0072560570570034955,0.05605467485566007,0.0144245130348164,0.08430957886432368,-0.05969165191406244,-0.005080700409211471,0.9998452300599512,0.015689901654470782,0.007918547074218353,-0.0007997028634343003
2532.5833333379696,-0.00885359,-0.783864,-0.017338593,-2.3558578,-0.013847645,1.5887194,0.7971787,0.04,0.039999723,0.00814104287363282,0.056593355137328494,0.014138905192839779,0.08681703104010594,-0.061030087511365606,-0.005263770784202308,0.9998298711261878,0.016440063616048314,0.008321298218728488,-0.0008420855336477399
2532.6000000046365,-0.009283168,-0.783836,-0.018165132,-2.3558369,-0.014510366,1.5895635,0.7977101,0.04,0.039999716,0.007723191160802223,0.057122004328351295,0.014302134302268676,0.08934261151140845,-0.062372816753307664,-0.00544957848509231,0.999813305819612,0.017212064801832443,0.008735759297422123,-0.0008859124187960962
2532.6166666713034,-0.0097250305,-0.7838073,-0.019015284,-2.3558147,-0.015192007,1.5904317,0.7982567,0.04,0.039999705,0.008340441318388514,0.05762931127482121,0.014133978925046087,0.09188649854054226,-0.06372292680744468,-0.005638635671403512,0.9997954635438062,0.018006064461894802,0.009162181059441218,-0.0009312132160823998
2532.6333333379703,-0.01017926,-0.78377783,-0.019889208,-2.3557916,-0.015892697,1.5913241,0.7988186,0.04,0.0399997,0.007940126980710005,0.05810573889452053,0.013847143562983888,0.09444690401508121,-0.0650764634067334,-0.005831884177558873,0.9997762736328993,0.018822243106119164,0.009600485886983623,-0.0009780163095725416
2532.650000004637,-0.0106459325,-0.7837475,-0.020787055,-2.3557677,-0.01661255,1.5922409,0.7993959,0.03999999,0.039999682,0.0073770923246119224,0.05855922491375676,0.013741956413992895,0.09702305526580074,-0.06643626355883611,-0.006028892238475962,0.999755664064986,0.01966074552492974,0.01005056576016908,-0.0010263446221944132
2532.666666671304,-0.011125126,-0.78371644,-0.021708969,-2.3557436,-0.017351694,1.5931824,0.7999887,0.039999995,0.039999682,0.006804701102192112,0.05900632579537435,0.01331727310847075,0.09961397970763755,-0.06780157093464456,-0.00623026516236945,0.9997335612990607,0.020521651526696216,0.010512371536803674,-0.001076232124806153
2532.683333337971,-0.011616915,-0.7836846,-0.022655087,-2.3557189,-0.018110236,1.5941488,0.80059695,0.039999988,0.039999664,0.007559525315725679,0.05946220889048587,0.013353747853095399,0.1022189289076148,-0.06917448260936834,-0.006434505774736157,0.9997098856916717,0.021405074201953898,0.010986151468636315,-0.0011277077021460788
2532.700000004638,-0.012121357,-0.78365207,-0.02362554,-2.355693,-0.018888263,1.59514,0.8012209,0.04,0.039999675,0.008039029318429591,0.05987330260529902,0.013207661549841099,0.10483753574850391,-0.07055082787697217,-0.006642772029129593,0.9996845544153105,0.022311173485429082,0.011472093688996017,-0.0011807910722129926
2532.7166666713047,-0.0126385195,-0.7836187,-0.024620444,-2.3556674,-0.019685885,1.5961562,0.8018606,0.04,0.039999668,0.006270675210084953,0.06024966980334376,0.0126273264108967,0.10746799015242636,-0.07192940877315691,-0.006855346661673582,0.9996574915216819,0.02324003908739876,0.01196970028915681,-0.0012355172124331839
2532.7333333379715,-0.013168462,-0.78358454,-0.025639916,-2.3556416,-0.020503191,1.5971974,0.80251604,0.04,0.03999966,0.0062573855649006305,0.060633955325347516,0.01218165633405377,0.1101095512005243,-0.07331538006898075,-0.0070723359147185985,0.9996286140793892,0.024191763897608017,0.012478919685136316,-0.0012919120457809752
2532.7500000046384,-0.013711232,-0.78354955,-0.02668405,-2.3556151,-0.021340258,1.5982636,0.8031874,0.04,0.039999645,0.007418169140360753,0.061009499733787054,0.012287175043423915,0.11276187350654034,-0.07470648328879487,-0.007292022739091512,0.9995978316626646,0.025166433478700383,0.013000116892283687,-0.0013500081660508664
2532.7666666713053,-0.014266886,-0.7835137,-0.027752945,-2.3555877,-0.022197163,1.5993551,0.80387455,0.04,0.039999638,0.007866909503229103,0.06138939386103048,0.012224536202110059,0.11542362637875675,-0.07610298502335189,-0.007516625859724756,0.9995650534715534,0.02616410566760881,0.013533507198318495,-0.0014098354292844638
2532.783333337972,-0.014835467,-0.7834771,-0.028846687,-2.3555596,-0.023073973,1.600472,0.80457777,0.04,0.03999964,0.007522850479557697,0.06170618212041762,0.011821637612619007,0.1180944004552077,-0.07750028833309758,-0.0077454152112162375,0.9995301877803618,0.027184910148196295,0.014079037304807562,-0.0014714226309951776
2532.800000004639,-0.015417015,-0.7834398,-0.029965358,-2.3555307,-0.023970762,1.6016141,0.8052968,0.04,0.039999627,0.00750670061711034,0.062030479730408594,0.011338429601215338,0.12077258018621731,-0.07889795759099787,-0.007977076432107648,0.9994931462310598,0.028228769122772553,0.014636652897365314,-0.001534803867762519
2532.816666671306,-0.016011568,-0.7834016,-0.031109033,-2.3555012,-0.024887571,1.6027819,0.80603206,0.04,0.039999627,0.007381682486862218,0.06233145315731464,0.011334574391663743,0.12345889503563695,-0.08029796738413017,-0.008212968368029275,0.9994538267482769,0.029295955755923316,0.015206418898257313,-0.0015999996447160331
2532.833333337973,-0.016619163,-0.7833625,-0.032277778,-2.3554707,-0.02582447,1.6039752,0.80678326,0.04,0.039999615,0.0077066987633545025,0.06264711365963904,0.010971482254706899,0.12615028607850337,-0.08169773204148022,-0.008453562667098465,0.9994121369612661,0.030386326391166417,0.015788368997725094,-0.001667053495478148
2532.8500000046397,-0.017239826,-0.78332263,-0.03347164,-2.3554397,-0.026781492,1.6051942,0.80755067,0.04,0.039999604,0.007055272553380121,0.06287061916956382,0.010482318346527464,0.12884814059818078,-0.08309758016126556,-0.008695599102040784,0.9993679752481973,0.031500044070888716,0.016382417911649794,-0.0017359882541686613
2532.8666666713066,-0.017873578,-0.783282,-0.034690678,-2.3554077,-0.027758677,1.6064389,0.80833447,0.04,0.039999604,0.007788866552926876,0.06315274135209187,0.01020644608529242,0.1315497533296841,-0.08449748894014569,-0.008943428914573663,0.9993212348609807,0.03263722381526191,0.016988717771320324,-0.0018068331532755432
2532.8833333379735,-0.018520452,-0.7832404,-0.035934925,-2.3553748,-0.028756062,1.6077094,0.80913436,0.04,0.039999597,0.007620702848365468,0.06340571103645443,0.010077819739318095,0.13425439961717933,-0.08589531305883316,-0.009196262686650934,0.9992718169772474,0.03379773366659991,0.017607270840846127,-0.0018796296255242158
2532.9000000046403,-0.019180458,-0.783198,-0.037204433,-2.355342,-0.029773679,1.6090057,0.8099504,0.04,0.039999586,0.006086774432878528,0.06357478819780105,0.00905654366860631,0.13696206218022505,-0.08729113380520961,-0.009453244882947999,0.9992196243589312,0.03498160207372015,0.01823760240605396,-0.001954397817970176
2532.916666671307,-0.019853607,-0.7831549,-0.03849922,-2.3553088,-0.030811537,1.6103276,0.81078273,0.04,0.039999574,0.006473146283192399,0.06376276886761872,0.008618251170511293,0.13967220439749709,-0.08868630755115677,-0.009717683017872847,0.9991645473598195,0.036188890775976736,0.018879773624761273,-0.002031165066893296
2532.933333337974,-0.020539917,-0.7831109,-0.039819285,-2.3552742,-0.031869665,1.6116754,0.8116313,0.04,0.03999957,0.008360742482338424,0.06402992763454018,0.00898418181489724,0.1423833982112563,-0.09008301479447654,-0.009983111044792853,0.9991064651287687,0.03741961050038381,0.01953438102738493,-0.002109987149986607
2532.950000004641,-0.021239392,-0.78306615,-0.04116466,-2.355239,-0.03294805,1.613049,0.81249624,0.04,0.03999956,0.007208166283256823,0.06416039545829727,0.008163649187453714,0.1450944727901631,-0.09147449031973193,-0.01024972333502043,0.9990452714305088,0.03867378151775378,0.020201097275801078,-0.0021908729565314226
2532.966666671308,-0.021952039,-0.78302044,-0.042535342,-2.3552032,-0.03404672,1.6144485,0.8133774,0.04,0.03999956,0.006539691939178027,0.0643129403299067,0.007715359860793747,0.14780505149076947,-0.09285957696674435,-0.010526377896967483,0.9989808605259327,0.03995132836227938,0.020879683542818907,-0.0022738689733722427
2532.9833333379747,-0.022677848,-0.782974,-0.043931335,-2.355167,-0.03516567,1.6158739,0.8142747,0.04,0.03999955,0.0067558074080986685,0.06444047496437233,0.0071228036129245,0.15051445260530233,-0.09424469690943199,-0.0108016618972799,0.9989131161953362,0.04125223197538687,0.02157022834930604,-0.002359003800447095
2533.0000000046416,-0.023416815,-0.7829267,-0.045352627,-2.3551297,-0.036304887,1.6173258,0.8151884,0.04,0.03999954,0.007531025745421971,0.06461535089192366,0.007404380377629138,0.1532221330176673,-0.09562532159834577,-0.011083977422426575,0.998841909939055,0.04257653575224422,0.02227314748007372,-0.0024463143644517286
2533.0166666713085,-0.024168937,-0.78287846,-0.04679922,-2.355092,-0.03746435,1.6188018,0.81611824,0.04,0.03999953,0.005855612757477147,0.06462035960330681,0.005073672155009312,0.1559268862082976,-0.09699704526484809,-0.011370476546573374,0.9987671583542184,0.0439241292131177,0.02298703858488776,-0.0025358081563221883
2533.0333333379754,-0.024934199,-0.7828294,-0.04827108,-2.355054,-0.03864406,1.6203041,0.8170644,0.04,0.039999526,0.006574545032589363,0.06478031668099016,0.006039977066696345,0.15862804058481977,-0.0983721226988642,-0.011660912894420908,0.9986887159000912,0.04529506087256596,0.02371291242153164,-0.0026275423623664798
2533.0500000046422,-0.025712587,-0.78277946,-0.04976816,-2.3550143,-0.039843984,1.6218331,0.8180267,0.04,0.039999526,0.008272732444480901,0.0649379072067316,0.006346378135013708,0.16132455005718568,-0.09974139275998184,-0.011957219525477361,0.9986064480507529,0.04668921735477372,0.02445142106004529,-0.00272156249269946
2533.066666671309,-0.026504088,-0.7827288,-0.05129045,-2.3549743,-0.041064087,1.6233872,0.8190052,0.04,0.03999952,0.006218509672994976,0.06487324305086417,0.004208461966914712,0.16401603705194961,-0.10109722384160129,-0.012256406017698299,0.9985202602364919,0.04810655309985587,0.025201369631289557,-0.0028178741644122036
2533.083333337976,-0.027308667,-0.7826772,-0.052837886,-2.3549342,-0.042304337,1.6249676,0.8199999,0.04,0.039999515,0.005437565659338617,0.06488872136169721,0.0044265233472673415,0.16670218962542455,-0.1024488873454223,-0.012562418430574568,0.9984300243176167,0.04954702898096905,0.025962903662258886,-0.002916520822248256
2533.100000004643,-0.028126303,-0.782625,-0.054410424,-2.3548932,-0.04356468,1.6265731,0.82101077,0.04,0.039999504,0.007129703019970179,0.06494290665719771,0.0033065560983258635,0.16938112486882284,-0.10379544057139015,-0.012869792382202067,0.9983356100966643,0.051010617546727866,0.0267361377016624,-0.00301752402150498
2533.1166666713098,-0.028956966,-0.7825717,-0.05600802,-2.3548515,-0.044845086,1.6282043,0.8220377,0.04,0.039999492,0.006114723244943221,0.06498910422044757,0.003504206910243113,0.17205246372709676,-0.10513442031381541,-0.013182663917865309,0.9982368994993461,0.05249717128072734,0.027520887948165495,-0.0031209312710871323
2533.1333333379766,-0.029800627,-0.7825178,-0.05763059,-2.354809,-0.0461455,1.6298609,0.8230806,0.04,0.039999492,0.006635126382725787,0.06493053618027989,0.002258767086171787,0.17471577405904892,-0.10646583657831163,-0.013497078123084191,0.9981337641174933,0.054006597469530515,0.02831720880301973,-0.003226769904185337
2533.1500000046435,-0.030657247,-0.7824628,-0.059278075,-2.3547661,-0.047465883,1.6315428,0.8241394,0.04,0.039999485,0.0055158777167774176,0.06490880171964863,0.002065746392942991,0.17737076436995788,-0.1077903823358635,-0.013817200918985806,0.9980260873193763,0.05553879398171168,0.029124707358841553,-0.0033350883489743945
2533.1666666713104,-0.031526793,-0.78240716,-0.060950395,-2.3547225,-0.04880615,1.6332502,0.82521445,0.04,0.03999948,0.00652608392925913,0.0648770038902291,0.0014102140962979348,0.1800168654347234,-0.10910766575762897,-0.014144628506854592,0.9979137173560462,0.05709384933357746,0.029943795214100035,-0.003445897428559602
2533.1833333379773,-0.032409213,-0.7823506,-0.06264748,-2.3546782,-0.050166246,1.634983,0.82630545,0.04,0.03999947,0.0059653107577606335,0.06482158541729344,0.0009098543146901505,0.18265125817918176,-0.11041311737717585,-0.014473882086621342,0.9977965380826542,0.05867156753928594,0.030774137861166076,-0.0035592403199837595
2533.200000004644,-0.033304464,-0.78229326,-0.06436924,-2.3546333,-0.0515461,1.6367408,0.827412,0.04,0.03999946,0.005646905854517215,0.06471947100047115,7.645267778855214e-05,0.1852743686750732,-0.11171121971851815,-0.014807461546999329,0.9976744327246116,0.06027165876657553,0.031615608773756104,-0.003675148842539147
2533.216666671311,-0.034212496,-0.7822352,-0.06611556,-2.354588,-0.052945632,1.6385237,0.8285345,0.04,0.03999946,0.005609019094787726,0.06457938826046339,-0.0005862217367536005,0.187886908085252,-0.11300019453337778,-0.015143244099770983,0.9975472595445888,0.0618942072194046,0.03246814237121177,-0.0037936550614098992
2533.233333337978,-0.03513326,-0.78217614,-0.06788637,-2.3545418,-0.054364778,1.6403313,0.8296726,0.04,0.039999455,0.005898589460273662,0.06456913507900952,-0.001025026230694337,0.19048661687604534,-0.11427947883075086,-0.015485343641996593,0.9974148953258793,0.06353900098547788,0.033331610824914155,-0.003914799566897354
2533.250000004645,-0.036066715,-0.78211653,-0.06968156,-2.3544953,-0.055803433,1.6421642,0.8308264,0.04,0.039999455,0.005394719303475348,0.06439224465287774,-0.0016457184495166644,0.19307377467059553,-0.11554965515648241,-0.0158307564330393,0.997277194624238,0.06520599383887268,0.03420621571205393,-0.004038595864297376
2533.2666666713117,-0.037012774,-0.78205603,-0.07150099,-2.354448,-0.05726151,1.6440216,0.83199584,0.04,0.039999444,0.005402927701037008,0.06418032913142191,-0.0024717386797323826,0.19564709504922673,-0.11680738331238831,-0.016183223227906843,0.9971340409127057,0.06689501389426643,0.035091502437065616,-0.0041650961445913
2533.2833333379785,-0.037971392,-0.7819948,-0.07334455,-2.3543997,-0.05873892,1.6459037,0.83318084,0.04,0.03999943,0.006462363325665521,0.06414515693893841,-0.002775155380296823,0.198205693217642,-0.11805564750741866,-0.01653663897788525,0.996985282647278,0.0686059581257542,0.03598787880780489,-0.00429433036563032
2533.3000000046454,-0.03894249,-0.7819327,-0.07521215,-2.3543508,-0.06023556,1.6478105,0.8343811,0.04,0.039999425,0.004935510403170085,0.06389304756323766,-0.0035354416668242905,0.20074878548785507,-0.11928820319548626,-0.01689404958889286,0.9968308106088353,0.07033855282026859,0.03689485964340447,-0.004426323528183117
2533.3166666713123,-0.03992601,-0.7818698,-0.0771036,-2.3543012,-0.061751317,1.6497415,0.83559686,0.04,0.03999942,0.005296366736384783,0.06364492153056733,-0.004325013894423968,0.20327680361495226,-0.12051054542074283,-0.017257968762142403,0.9966704804112428,0.0720927980232677,0.03781240761978423,-0.004561116090805926
2533.333333337979,-0.04092189,-0.7818063,-0.079018794,-2.354251,-0.06328609,1.6516969,0.8368278,0.04,0.039999425,0.005364455834144799,0.06347918781758888,-0.004972352541710023,0.20578805476320491,-0.12172092171833276,-0.01762105573949771,0.9965041622803421,0.07386844258163977,0.03874054254393679,-0.004698735140228794
2533.350000004646,-0.041930057,-0.78174174,-0.080957614,-2.3542004,-0.06483976,1.6536764,0.838074,0.04,0.039999433,0.003953068691586736,0.0632121634198457,-0.005707281864308911,0.2082822298297033,-0.12291693078128119,-0.017991290118230197,0.9963317378738,0.07566539369242954,0.0396786900964396,-0.004839199827839893
2533.366666671313,-0.04295042,-0.7816765,-0.08291987,-2.354149,-0.06641223,1.6556796,0.83933526,0.04,0.03999943,0.004936931605525885,0.06295164717649293,-0.006509098864904139,0.21075866273893346,-0.12410226284943454,-0.01836847756888471,0.9961530716538944,0.07748339933925988,0.04062701903354205,-0.004982568192421805
2533.38333333798,-0.04398291,-0.7816106,-0.084905475,-2.3540976,-0.06800336,1.6577064,0.84061134,0.04,0.039999418,0.0041179670337676555,0.06266271794800049,-0.007444917960719444,0.21321686990618122,-0.12527585166373142,-0.01874409335901664,0.995968042710824,0.07932225314931249,0.04158525179436581,-0.005128829036540699
2533.4000000046467,-0.04502743,-0.7815437,-0.08691419,-2.3540456,-0.069613,1.659757,0.84190243,0.04,0.039999418,0.004009709451469057,0.06233889376980328,-0.007457849710790221,0.21565672207609665,-0.1264372364819573,-0.019126549797378017,0.9957765094146425,0.08118188132460928,0.04255335068413199,-0.005278047758477512
2533.4166666713136,-0.04608391,-0.78147614,-0.08894589,-2.3539925,-0.071241066,1.6618313,0.8432082,0.04,0.039999414,0.0056624475472499824,0.062205494500697234,-0.008208418730326628,0.21807651214122561,-0.12758513822388212,-0.019512570334390383,0.9955783249970859,0.0830620116959193,0.04353175004678073,-0.0054302621380878345
2533.4333333379805,-0.047152255,-0.7814079,-0.09100044,-2.353939,-0.07288741,1.6639285,0.84452856,0.04,0.039999418,0.003546433459500342,0.06174793339561724,-0.009536006027821564,0.2204767622732695,-0.12871611463252802,-0.019903020336239183,0.995373392547761,0.08496245705975043,0.0445195775511332,-0.005585473390822353
2533.4500000046473,-0.048232377,-0.7813389,-0.09307759,-2.353885,-0.07455188,1.6660491,0.8458636,0.04,0.039999403,0.004392270564856915,0.061410939373229834,-0.009617124395444598,0.222856528830709,-0.12983466499132348,-0.020297794642691325,0.9951615571798382,0.0868830868663862,0.04551718190977757,-0.0057437338865754155
2533.466666671314,-0.049324185,-0.78126925,-0.09517722,-2.3538296,-0.076234326,1.6681927,0.847213,0.04,0.039999396,0.005233918006597449,0.06117459918173751,-0.010374116097766617,0.2252142411892932,-0.130937209499393,-0.020692205276759815,0.9949426850104635,0.08882363876549537,0.046524670361601864,-0.005905064637307343
2533.483333337981,-0.050427582,-0.78119856,-0.097299136,-2.3537738,-0.077934615,1.6703589,0.8485768,0.04,0.039999392,0.00316242039415382,0.060687002170295434,-0.011298480793153765,0.2275503723505275,-0.13202147362073618,-0.02109205443152623,0.9947166780817813,0.09078396704080582,0.047541171271687006,-0.006069489961741221
2533.500000004648,-0.051542476,-0.78112745,-0.09944314,-2.3537176,-0.079652615,1.6725477,0.8499548,0.04,0.03999939,0.003910928953088089,0.060289203673402625,-0.012179483014529424,0.2298637235640495,-0.1330929534438012,-0.021498010393281683,0.9944833945117075,0.09276378999159901,0.04856703152389081,-0.006237047043544737
2533.516666671315,-0.05266875,-0.7810556,-0.101609044,-2.353661,-0.081388116,1.674759,0.8513468,0.04,0.039999392,0.0030244869998474755,0.05981234864363971,-0.01275236534830082,0.2321541160990286,-0.1341479588295171,-0.021904688798418212,0.9942427252332928,0.09476284732625066,0.04960188511711837,-0.0064077359593778796
2533.5333333379817,-0.053806305,-0.7809829,-0.10379664,-2.3536038,-0.08314099,1.6769918,0.85275286,0.04,0.039999384,0.003174012938678139,0.05940015909174923,-0.013785429943768968,0.23442099577897477,-0.13518694016944172,-0.022313872040137808,0.9939945523527142,0.09678101801082759,0.050645305661297976,-0.006581600138957245
2533.5500000046486,-0.054955028,-0.7809098,-0.106005706,-2.3535461,-0.08491107,1.6792467,0.85417247,0.04,0.039999384,0.003479485494528589,0.058932140140355305,-0.014310043117871096,0.23666316423824846,-0.1362138507426518,-0.022727960380688764,0.9937387505184239,0.09881784757695287,0.05169766967960914,-0.006758673541290893
2533.5666666713155,-0.05611485,-0.7808355,-0.108236074,-2.353488,-0.0866982,1.6815236,0.85560584,0.04,0.03999937,0.0025667599064194135,0.05860443079364619,-0.014470804243482682,0.2388823220381906,-0.1372221418842025,-0.023146637154648403,0.9934751922866187,0.10087331098786707,0.05275858148554516,-0.006938985591868986
2533.5833333379824,-0.057285618,-0.7807608,-0.11048751,-2.3534293,-0.08850218,1.6838219,0.8570532,0.04,0.039999373,0.0031120592870692576,0.05798454044754209,-0.01586678140474973,0.24107577322682044,-0.13821664192496863,-0.023565888538990748,0.9932037338162136,0.10294732792600304,0.05382806346038332,-0.007122526976633524
2533.6000000046492,-0.05846725,-0.7806855,-0.11275982,-2.3533704,-0.09032288,1.6861415,0.85851383,0.04,0.039999355,0.0022462780409737704,0.05751063107249932,-0.016559462315579587,0.24324110390056852,-0.1391917718019797,-0.023990101477940035,0.9929243033491923,0.10503934243156192,0.05490571739285047,-0.007309347278818935
2533.616666671316,-0.059659597,-0.78060913,-0.115052745,-2.3533108,-0.0921601,1.688482,0.8599875,0.04,0.039999355,0.002514472592740624,0.05700481198148699,-0.016866052777197993,0.24538114669924102,-0.14015270840723537,-0.024415727203657034,0.9926367875960844,0.1071490719121039,0.055991445275689236,-0.007499490332033842
2533.633333337983,-0.06086259,-0.7805325,-0.11736608,-2.3532507,-0.09401364,1.6908436,0.8614741,0.04,0.039999355,0.00286978838412999,0.056499560882627975,-0.017959241655418623,0.24749566073228624,-0.14109668584099594,-0.024846173088926823,0.9923410510086197,0.10927629582359877,0.057085446485658865,-0.007692948310923956
2533.65000000465,-0.062076055,-0.780455,-0.11969958,-2.35319,-0.095883325,1.6932256,0.862974,0.04,0.039999347,0.0024096817207608368,0.05590179984845678,-0.018407539134557283,0.24958328661764706,-0.14202251601211266,-0.02527756435611432,0.9920369733159616,0.11142097505003648,0.058187298520724885,-0.00788975182532891
2533.6666666713168,-0.06329989,-0.78037685,-0.12205306,-2.3531282,-0.09776898,1.6956282,0.8644863,0.04,0.039999347,0.0029772543722383915,0.055488374890039216,-0.01898527844135245,0.25164212262310753,-0.14292950522369036,-0.02571178346051145,0.9917244641171498,0.11358250815909719,0.059297166969018156,-0.00808993827474054
2533.6833333379836,-0.06453398,-0.7802982,-0.12442621,-2.353066,-0.09967042,1.6980506,0.8660114,0.04,0.03999934,0.001979232372795181,0.054715562787177596,-0.020185337041644935,0.2536741375785686,-0.14381624075240135,-0.026148312633201845,0.9914034096674981,0.11576087359819498,0.06041454271935577,-0.008293519847000903
2533.7000000046505,-0.06577818,-0.7802188,-0.12681884,-2.353003,-0.10158741,1.7004931,0.86754894,0.04,0.039999332,0.0021730382477436194,0.0542015330955159,-0.020434828063087274,0.2556768110195483,-0.14468537053495045,-0.026587169350026515,0.9910737033372085,0.1179557070887716,0.061539476558413124,-0.008500502548400518
2533.7166666713174,-0.06703237,-0.78013873,-0.12923062,-2.3529398,-0.10351977,1.7029551,0.86909896,0.04,0.03999932,0.0011536906709963546,0.05337223492902776,-0.021491082320945765,0.2576506658901187,-0.1455353489146892,-0.027029258187103652,0.990735259499227,0.12016675893976543,0.06267148890557156,-0.008710918968202364
2533.7333333379843,-0.06829641,-0.78005815,-0.13166136,-2.352876,-0.10546732,1.7054363,0.87066126,0.04,0.039999317,0.0019345639742152088,0.05290475561801622,-0.022163485410553463,0.2595946245074861,-0.14636884964203503,-0.027473347281685365,0.9903879601287162,0.12239377560137507,0.0638106596498198,-0.008924788018532514
2533.750000004651,-0.06957021,-0.77997696,-0.13411085,-2.3528118,-0.107429825,1.7079369,0.87223554,0.04,0.039999317,0.0009936780426489378,0.05227763749328651,-0.0227587155533282,0.26150772280858,-0.14718200315872387,-0.02791837176424114,0.9900317201332087,0.12463641755065658,0.06495674462664314,-0.009142093727783736
2533.766666671318,-0.070853606,-0.77989507,-0.1365788,-2.3527474,-0.109407105,1.7104563,0.8738217,0.04,0.039999317,0.0006091793369744636,0.0514920104223382,-0.02349475516798538,0.2633902608725257,-0.14797695024774682,-0.02836627275819792,0.9896664588601647,0.12689437438060408,0.06610941242499625,-0.009362881317131535
2533.783333337985,-0.072146446,-0.7798126,-0.13906491,-2.3526824,-0.11139892,1.7129941,0.8754194,0.04,0.039999306,0.0014058825164031674,0.05084782316664982,-0.024119139381917343,0.2652422475880054,-0.14875485861078624,-0.02881719041823594,0.9892920758640928,0.1291672969659399,0.06726874613565484,-0.009587169569964346
2533.800000004652,-0.073448606,-0.7797296,-0.14156887,-2.352617,-0.11340507,1.7155503,0.8770286,0.04,0.039999302,0.000602172295227632,0.050001718260361816,-0.024926619764875646,0.2670633193518188,-0.14951161439989608,-0.029269704751264322,0.988908487820479,0.1314549022926017,0.06843447635074991,-0.009814979697107271
2533.8166666713187,-0.074759915,-0.77964604,-0.14409053,-2.3525515,-0.11542534,1.7181244,0.8786492,0.04,0.039999295,0.0001876477581319591,0.04937362629392483,-0.025678605105072805,0.268852836482874,-0.15025042247968678,-0.029723032905022914,0.9885156144625206,0.13375694137838168,0.06960626988507014,-0.01004628237569717
2533.8333333379856,-0.07608027,-0.7795618,-0.1466295,-2.3524854,-0.117459506,1.7207159,0.880281,0.04,0.039999295,0.0003174989751109081,0.048549569841799256,-0.02632296197773165,0.2706101556770114,-0.1509714344773546,-0.0301787820358293,0.9881133773120178,0.13607308560296377,0.07078394744767841,-0.010281134920373938
2533.8500000046524,-0.07740952,-0.7794771,-0.14918558,-2.3524191,-0.119507335,1.723325,0.8819238,0.04,0.039999284,0.00013697563923109612,0.04789664459203258,-0.026835357855459208,0.27233470405308735,-0.15167415945081905,-0.030635417561359096,0.9877016797835086,0.13840303949089644,0.07196756410136784,-0.010519511862824142
2533.8666666713193,-0.07874751,-0.7793917,-0.15175843,-2.352352,-0.121568635,1.7259514,0.8835772,0.04,0.039999284,0.0009549927089125276,0.04722484790710135,-0.027101600511181267,0.27402631207577405,-0.15235762690508922,-0.031094610978846332,0.9872804474942156,0.1407463686887205,0.07315714504148134,-0.010761497383720535
2533.883333337986,-0.080094084,-0.77930605,-0.15434779,-2.352284,-0.123643145,1.7285947,0.88524127,0.04,0.039999276,0.000850011003183937,0.04634030318783067,-0.028239861961476542,0.2756851543948008,-0.153019138520827,-0.031553183220850156,0.9868495939543245,0.14310284231406217,0.07435254149878637,-0.011007043494637521
2533.900000004653,-0.08144911,-0.77921975,-0.1569534,-2.3522158,-0.12573065,1.7312543,0.88691574,0.04,0.039999276,-0.0007063908274318464,0.04547387743413789,-0.028835476175226304,0.27731035735532744,-0.15365812419489747,-0.03201319970462746,0.9864090874774099,0.145472128086136,0.07555310037390985,-0.011256159023596562
2533.91666667132,-0.08281242,-0.77913266,-0.15957496,-2.3521469,-0.12783091,1.7339303,0.88860047,0.04,0.03999927,-8.539407541086064e-05,0.04481140937492856,-0.029086511512343982,0.2789011787760799,-0.1542790487179293,-0.03247297335361869,0.9859588392007989,0.14785392550195192,0.07675890889723881,-0.011508867032944022
2533.933333337987,-0.084183894,-0.77904534,-0.16221213,-2.3520777,-0.1299437,1.7366222,0.8902952,0.04,0.03999927,-0.0005293109294868259,0.043765543646656635,-0.030296313526512186,0.28045779990466607,-0.15487839878178428,-0.03293489307751089,0.9854988006794977,0.15024784734256516,0.0779697322822521,-0.011765163663580989
2533.9500000046537,-0.085563324,-0.7789574,-0.16486469,-2.3520083,-0.1320687,1.7393298,0.8919998,0.04,0.039999265,-0.0010618172900933587,0.04291387282898684,-0.030531973494452025,0.2819799071144947,-0.15545940888968907,-0.03339706242556763,0.9850289211689247,0.15265356550051004,0.07918530593993177,-0.012025004114979193
2533.9666666713206,-0.086950585,-0.7788691,-0.16753224,-2.3519387,-0.13420574,1.7420528,0.89371413,0.04,0.03999926,-0.0010147597929943686,0.042016383165649485,-0.031249774231500993,0.2834671984271828,-0.15601973377849368,-0.03386041055262186,0.9845491345299043,0.15507078660758297,0.08040551425837869,-0.012288454506875284
2533.9833333379875,-0.08834552,-0.7787802,-0.17021455,-2.3518684,-0.13635463,1.7447908,0.89543796,0.04,0.039999258,-0.0005011276953403865,0.0413896589106566,-0.031643704400985406,0.28491884373782106,-0.1565596113272958,-0.03432432958505609,0.984059377420184,0.15749917634909216,0.08163032526063532,-0.012555523031728072
2534.0000000046543,-0.089747965,-0.77869105,-0.17291129,-2.3517978,-0.13851507,1.7475437,0.89717114,0.04,0.03999925,-0.0011466528862413838,0.04030355174839961,-0.03236203223280221,0.2863342251378034,-0.15707835567605963,-0.03478732264417217,0.9835596056893644,0.15993838713546657,0.08285953905238592,-0.012826190576851542
2534.016666671321,-0.091157764,-0.7786012,-0.17562215,-2.351727,-0.14068678,1.7503109,0.8989133,0.04,0.039999243,-0.001869837514423267,0.039360558616818864,-0.03287139197698519,0.287713929921025,-0.15757634497588174,-0.03525093265241212,0.983049815185212,0.16238800585642768,0.08409265636036381,-0.013100441387645068
2534.033333337988,-0.092574745,-0.7785109,-0.17834684,-2.351656,-0.14286952,1.7530922,0.90066427,0.04,0.039999247,-0.0017865471394262755,0.03845180281505933,-0.03345828777854276,0.2890575306070592,-0.158055043175217,-0.035715311801696306,0.9825299610726568,0.16484766576936014,0.08532962263791177,-0.013378272886602862
2534.050000004655,-0.09399872,-0.7784202,-0.18108496,-2.3515844,-0.14506304,1.755887,0.902424,0.04,0.03999925,-0.0014940250652628606,0.03743387233565154,-0.033995276040998945,0.2903649259983291,-0.15851380783938762,-0.03617953442537587,0.9819999913315576,0.1673170868927409,0.08657032858481199,-0.013659709633277345
2534.066666671322,-0.09542957,-0.7783294,-0.18383625,-2.3515127,-0.14726712,1.7586955,0.9041921,0.04,0.039999243,-0.0015977183280391216,0.036575338992483886,-0.03458543134122749,0.29163510503425655,-0.15895143297393316,-0.03664164924432885,0.9814598680671428,0.16979586674965044,0.08781477905585264,-0.013944733333180588
2534.0833333379887,-0.0968671,-0.77823794,-0.18660042,-2.3514407,-0.14948145,1.7615172,0.90596855,0.04,0.039999254,-0.0023577291607068673,0.03561230183746211,-0.03479365243279631,0.2928683305682447,-0.15936757531950063,-0.037103430455401654,0.9809095757183934,0.1722837218419838,0.08906253989321838,-0.014233321467741903
2534.1000000046556,-0.09831113,-0.7781459,-0.18937713,-2.3513684,-0.15170582,1.7643514,0.90775305,0.04,0.03999926,-0.0026892195238659156,0.03459270241576995,-0.035520925588294894,0.29406447541339464,-0.15976428549162272,-0.03756532644914559,0.9803491193062118,0.17478024569494116,0.09031323375057443,-0.014525487938964951
2534.1166666713225,-0.099761516,-0.77805346,-0.19216603,-2.3512957,-0.15393993,1.7671982,0.9095453,0.04,0.03999925,-0.0019899205635276473,0.033686137968858,-0.03570174037343943,0.29522319848415274,-0.16014184086554412,-0.03802860061786392,0.9797784493466957,0.17728504126992203,0.09156710829582507,-0.014821235307729571
2534.1333333379894,-0.10121809,-0.7779609,-0.19496681,-2.351223,-0.15618357,1.7700572,0.9113453,0.04,0.039999258,-0.0027174362863924273,0.03254965230038431,-0.03659098178294684,0.29634434203031546,-0.1604976736646891,-0.03848879427203514,0.9791975522677465,0.17979783462378562,0.09282382191324079,-0.01512052852484399
2534.1500000046562,-0.102680676,-0.777868,-0.19777909,-2.351149,-0.15843646,1.7729276,0.9131527,0.04,0.039999258,-0.0011557758806013396,0.03182849320204628,-0.03672392016784709,0.2974267928573392,-0.16083095495947497,-0.03894887037111272,0.9786063936947282,0.18231825226516113,0.0940834699986044,-0.015423416735512943
2534.166666671323,-0.104149096,-0.77777463,-0.20060267,-2.3510747,-0.16069826,1.7758096,0.9149673,0.04,0.039999258,-0.002510422941526258,0.030744537538218708,-0.03705781525082941,0.2984712693731737,-0.1611433426426766,-0.039406874025024075,0.9780049819672603,0.18484594560479967,0.09534571317355642,-0.015729800383748067
2534.18333333799,-0.10562318,-0.7776809,-0.20343706,-2.3510003,-0.16296881,1.7787029,0.9167888,0.04,0.039999258,-0.0035015332873200578,0.029433676397983,-0.03757029076545404,0.29947667168762154,-0.1614319443925154,-0.039863124283829834,0.9773933641301205,0.1873804197172049,0.09661012623227735,-0.01603974969858917
2534.200000004657,-0.10710273,-0.77758664,-0.20628199,-2.3509252,-0.1652478,1.7816069,0.918617,0.04,0.039999265,-0.0024438942257898333,0.02865664567102133,-0.03770481525100511,0.3004441535620412,-0.16170167128713175,-0.04031826144381846,0.9767715054675304,0.1899213574749043,0.09787683875148541,-0.01635324180703796
2534.2166666713238,-0.10858756,-0.77749234,-0.2091371,-2.35085,-0.16753492,1.7845216,0.9204518,0.04,0.039999258,-0.0033333666766832692,0.02728796179498616,-0.03845165299345421,0.3013728097892904,-0.1619475811497196,-0.040770460283942114,0.9761394210424306,0.19246841076474744,0.09914557891934363,-0.016670204719471646
2534.2333333379906,-0.11007758,-0.77739775,-0.21200208,-2.3507745,-0.16982989,1.7874457,0.92229295,0.04,0.039999254,-0.003303572802115795,0.02641304754203988,-0.03910591388671669,0.30226303947408023,-0.16217312238302067,-0.041221127148727804,0.9754971441355549,0.19502127200771893,0.10041585670003916,-0.016990614205052344
2534.2500000046575,-0.11157254,-0.7773027,-0.2148766,-2.3506987,-0.1721325,1.7903799,0.9241402,0.04,0.039999258,-0.003615883082153104,0.025398142276211733,-0.038675880314764655,0.3031131665378093,-0.16237952015297347,-0.04166958249193675,0.9748446691889379,0.19757952280646723,0.10168781082572388,-0.017314509838593378
2534.2666666713244,-0.11307225,-0.7772073,-0.21776026,-2.350623,-0.17444244,1.7933229,0.9259935,0.04,0.039999254,-0.00440585572785146,0.023932580857488617,-0.0397365283723472,0.30392443139089925,-0.1625626554985959,-0.04211681879327252,0.9741820682808898,0.20014281529283448,0.1029607585428318,-0.0176418118942165
2534.2833333379913,-0.11457656,-0.77711153,-0.22065276,-2.350547,-0.17675942,1.7962761,0.92785233,0.04,0.03999925,-0.003938066604014523,0.023240231548904422,-0.03892221350141334,0.30469557011004644,-0.1627293305895305,-0.04256169536978063,0.9735093110909868,0.20271066752378178,0.10423527980731756,-0.01797256060513237
2534.300000004658,-0.116085306,-0.7770157,-0.22355373,-2.3504713,-0.17908321,1.7992371,0.92971665,0.04,0.039999247,-0.004524207482248244,0.02180020706844532,-0.04063573329766701,0.3054281222606642,-0.16287259619374428,-0.04300360863746937,0.9728264923973392,0.20528281034429513,0.10551042229176333,-0.01830667241340106
2534.316666671325,-0.11759824,-0.77691984,-0.22646281,-2.350395,-0.18141349,1.8022062,0.931586,0.04,0.039999247,-0.0034911908376233924,0.020825257433021438,-0.0404312585113642,0.3061207996823068,-0.16299788491758307,-0.04344415732384835,0.9721336164520323,0.20785877452274798,0.10678650405375713,-0.01864414572382572
2534.333333337992,-0.11911524,-0.77682376,-0.22937965,-2.3503184,-0.18374991,1.8051828,0.9334608,0.04,0.039999247,-0.004361985193046536,0.019672707673090706,-0.04059909619391622,0.30677383855087226,-0.1631007582403247,-0.043880708750342834,0.9714306938807139,0.21043845527448124,0.10806311542429128,-0.01898490486995742
2534.350000004659,-0.120636106,-0.77672714,-0.23230393,-2.350242,-0.1860923,1.8081675,0.93534005,0.04,0.039999247,-0.004970410227800315,0.018675541816703944,-0.040251353308429216,0.30738566848264814,-0.16318506739523778,-0.04431538869039707,0.9707178307651595,0.2130211535081338,0.10934015840065908,-0.019329018432555915
2534.3666666713257,-0.122160636,-0.7766302,-0.23523526,-2.3501651,-0.18844035,1.8111594,0.93722373,0.04,0.039999243,-0.004528225655242579,0.017487634640478422,-0.04071955883038214,0.3079587201983737,-0.16324880035821948,-0.044747423758237134,0.9699950604606692,0.21560655301448953,0.11061751471570018,-0.019676443205889828
2534.3833333379926,-0.12368866,-0.7765328,-0.23817328,-2.3500884,-0.19079378,1.8141588,0.9391119,0.04,0.039999235,-0.005029901102826528,0.016389766020263874,-0.040467174615854695,0.30849207948523066,-0.16329155207620838,-0.04517475484903459,0.9692624021588531,0.21819439764771806,0.11189510123620637,-0.0200271544593419
2534.4000000046594,-0.12522002,-0.7764354,-0.24111766,-2.3500113,-0.19315225,1.8171641,0.9410043,0.04,0.03999924,-0.004834665343667055,0.015105690725270016,-0.04165082041442947,0.308984851886191,-0.16331338156213188,-0.04559923675462774,0.968519940971493,0.22078437841861667,0.11317241576019207,-0.020381032797260907
2534.4166666713263,-0.12675445,-0.77633804,-0.24406804,-2.3499343,-0.1955155,1.8201759,0.94290054,0.04,0.03999923,-0.0046618256271280245,0.013979873243230578,-0.04123647341951475,0.30943642115747044,-0.16331774542232075,-0.04601915299737219,0.9677677125241915,0.22337598995296465,0.11444978665245474,-0.02073808196132632
2534.433333337993,-0.12829183,-0.77624065,-0.247024,-2.349857,-0.19788326,1.8231932,0.9448002,0.04,0.039999235,-0.004879895808640455,0.01279965100309255,-0.04161680387424482,0.3098480727431589,-0.1632971151976461,-0.04643709952646087,0.9670058443190817,0.22596877206825294,0.11572671379186893,-0.02109831314681295
2534.45000000466,-0.129832,-0.77614313,-0.2499853,-2.34978,-0.20025522,1.8262165,0.9467034,0.04,0.039999235,-0.00558503008241118,0.011758931543282003,-0.041324753971183625,0.31022008122879374,-0.16325710905501992,-0.046849474632941354,0.966234352558541,0.22856253172911387,0.11700317797160731,-0.021461625518569692
2534.466666671327,-0.1313747,-0.77604544,-0.25295147,-2.3497026,-0.20263109,1.8292443,0.94860965,0.04,0.03999923,-0.00494171593126147,0.010533875846996388,-0.041755545935284744,0.31055163493156357,-0.16319576403998995,-0.04725823141553767,0.9654533591149344,0.2311568182233785,0.11827879792161038,-0.021828026130462395
2534.483333337994,-0.13291976,-0.77594745,-0.25592217,-2.349625,-0.20501061,1.8322766,0.9505188,0.04,0.03999923,-0.005900676315562237,0.00925660314918808,-0.04161555096127145,0.31084211479073265,-0.16311506548354598,-0.04766215719708694,0.9646629729829411,0.23375121497285625,0.11955329179013513,-0.022197488068918324
2534.5000000046607,-0.13446704,-0.7758493,-0.25889707,-2.3495474,-0.2073935,1.835313,0.95243067,0.04,0.03999923,-0.005493801337452808,0.0082915808731987,-0.04178107563543865,0.31109332737577533,-0.16301587320502753,-0.0480621712354221,0.9638632395221426,0.23634547505090667,0.12082660666007233,-0.022569958880204927
2534.5166666713276,-0.13601631,-0.7757509,-0.26187584,-2.3494692,-0.2097794,1.8383533,0.95434505,0.04,0.039999224,-0.005126841278313421,0.007244723097132866,-0.041517734509533,0.3113033698483366,-0.16289920636633803,-0.04845789774274893,0.9630542219075583,0.2389392446426416,0.12209878253739244,-0.022945377279918903
2534.5333333379945,-0.13756734,-0.7756523,-0.2648581,-2.349391,-0.21216802,1.8413972,0.9562616,0.04,0.03999923,-0.006023585392878061,0.005783563511507772,-0.041597681070904,0.31147242222410076,-0.16276009651970466,-0.04884907999945921,0.9622360743103958,0.2415320280666627,0.1233694539015153,-0.023323690912144236
2534.5500000046613,-0.13912003,-0.77555376,-0.2678433,-2.3493128,-0.21455917,1.8444445,0.95818007,0.04,0.03999922,-0.0056433030568570075,0.004569152581890279,-0.04153013465124644,0.3116012482548148,-0.16260169907391567,-0.04923540767803969,0.9614088677051531,0.24412345116086387,0.12463869840347726,-0.023704947827235395
2534.566666671328,-0.14067414,-0.77545524,-0.27083144,-2.3492343,-0.21695247,1.847495,0.9601003,0.04,0.039999224,-0.005485544272021414,0.0038578821679235986,-0.041513703070550356,0.3116906107789026,-0.16242261972859276,-0.04961544276228769,0.9605726659822051,0.24671328594613162,0.12590642837193042,-0.02408898503725369
2534.583333337995,-0.14222947,-0.7753567,-0.2738219,-2.349156,-0.21934763,1.8505476,0.9620221,0.04,0.039999217,-0.006228046818268496,0.0021210572326513244,-0.0416869551800092,0.3117381874230601,-0.16222057914983065,-0.049989475867113914,0.9597276435291504,0.24930111694854426,0.1271720878013332,-0.024475772070403787
2534.600000004662,-0.14378577,-0.77525824,-0.27681416,-2.3490775,-0.2217444,1.8536023,0.96394527,0.04,0.039999217,-0.006008805446411358,0.0008382017828822974,-0.04130025527910863,0.3117456879407408,-0.16200149324672702,-0.05035944124416221,0.9588739145426013,0.25188647027800676,0.1284357289148263,-0.024865350163473982
2534.616666671329,-0.14534298,-0.7751598,-0.2798081,-2.348999,-0.22414242,1.8566585,0.9658693,0.04,0.03999922,-0.006422212723222742,-6.245147319283717e-05,-0.041511118169257344,0.31171358105746144,-0.16176214015185172,-0.05072282172351619,0.9580116137557331,0.2544690486594559,0.12969697945728598,-0.025257567245163967
2534.6333333379957,-0.14690083,-0.7750614,-0.2828033,-2.3489203,-0.22654143,1.8597164,0.9677943,0.04,0.039999213,-0.005532681795106242,-0.0010755987629562647,-0.040894461061879994,0.31164112772088237,-0.16150369236097517,-0.05108062040321419,0.9571407644444341,0.2570485934632532,0.1309562161069606,-0.02565242873948486
2534.6500000046626,-0.14845915,-0.7749631,-0.28579932,-2.3488414,-0.22894119,1.862775,0.96971977,0.04,0.03999922,-0.006151929533793066,-0.0024411322230633026,-0.04112236262070468,0.3115281536183285,-0.16122437111437832,-0.0514321296749988,0.9562615884706337,0.25962463085711573,0.1322128122464062,-0.026049908748848088
2534.6666666713295,-0.15001774,-0.7748645,-0.28879592,-2.3487625,-0.23134132,1.8658338,0.9716456,0.04,0.039999213,-0.007001738404266433,-0.0036218656427000617,-0.04085522400367747,0.3113750944619058,-0.16092662090732623,-0.05177528257307945,0.955374230556574,0.26219688739882574,0.13346638409523987,-0.026449879836089606
2534.6833333379964,-0.1515764,-0.7747659,-0.2917927,-2.3486836,-0.23374152,1.8688927,0.9735715,0.04,0.039999213,-0.006645730949950135,-0.004791617150856631,-0.04062226856313966,0.311181988153796,-0.16061095976237577,-0.05211498198844633,0.9544788057713303,0.2647649694019564,0.1347170170594998,-0.026852292742088307
2534.7000000046633,-0.15313496,-0.7746674,-0.29478917,-2.348605,-0.23614156,1.8719515,0.97549725,0.04,0.039999217,-0.006974306933171803,-0.00614220783194952,-0.04034377052011262,0.3109493611804673,-0.16027738019341572,-0.05244983865301031,0.9535754662505825,0.2673284917248689,0.13596454004235625,-0.027257137196729904
2534.71666667133,-0.1546932,-0.77456886,-0.29778507,-2.3485262,-0.23854114,1.8750098,0.97742254,0.04,0.039999213,-0.006703777918382059,-0.00707810981456225,-0.04003683641478073,0.31067716165296233,-0.15992655546344123,-0.05277730061204122,0.9526643471522124,0.26988710093831314,0.1372088849265145,-0.027664350875889206
2534.733333337997,-0.15625101,-0.7744703,-0.30078015,-2.3484473,-0.24093993,1.8780675,0.9793474,0.04,0.039999217,-0.006234758027456877,-0.007876750593271975,-0.039672440101057305,0.31036586416768475,-0.1595562682700178,-0.05309753471463481,0.9517454978144151,0.272440684102267,0.13845013724474406,-0.028073840720346147
2534.750000004664,-0.15780811,-0.77437186,-0.30377388,-2.3483682,-0.24333766,1.8811234,0.98127127,0.04,0.039999217,-0.006583765985990198,-0.009472359445816814,-0.039751187252656806,0.31001224671626676,-0.1591659935882357,-0.053409279282377514,0.9508191937042264,0.27498865179431353,0.13968777261078238,-0.028485583213780176
2534.7666666713308,-0.15936428,-0.77427334,-0.30676582,-2.3482893,-0.24573402,1.8841779,0.9831941,0.04,0.039999224,-0.007271117717921882,-0.010824085587335386,-0.03893971887836134,0.30962104220734643,-0.15875783712135405,-0.05371773229538884,0.9498855761600087,0.2775306788362572,0.14092172301145314,-0.028899524067672867
2534.7833333379976,-0.16091944,-0.7741749,-0.3097558,-2.3482103,-0.2481287,1.8872299,0.9851156,0.04,0.039999217,-0.007094346464686652,-0.01167656391896088,-0.03926969132952429,0.30918971570056225,-0.1583318962433903,-0.05401502407100395,0.9489448002155477,0.2800665360351869,0.14215168447674092,-0.029315527243268493
2534.8000000046645,-0.16247335,-0.7740767,-0.3127433,-2.3481314,-0.25052145,1.89028,0.98703563,0.04,0.03999922,-0.006512521941726135,-0.012813932115585125,-0.03826626852467818,0.30872022568992047,-0.15789100159265196,-0.05430939346560537,0.9479969570967672,0.2825958653443465,0.1433780248753125,-0.02973362084247741
2534.8166666713314,-0.1640258,-0.7739786,-0.31572798,-2.3480527,-0.25291196,1.8933269,0.98895377,0.04,0.03999922,-0.007566564279937182,-0.014295669900155072,-0.03841663959907038,0.30821068342983204,-0.15742785322698677,-0.05459325225546044,0.9470423407533334,0.285118225759756,0.1445999909658655,-0.030153685889582234
2534.8333333379983,-0.1655766,-0.7738806,-0.31870955,-2.3479743,-0.25529996,1.8963702,0.99087,0.04,0.039999217,-0.007644282764784904,-0.015266661870083631,-0.03808100939624026,0.30766287422655547,-0.1569519374116019,-0.054871108060210935,0.9460810785368606,0.28763344196398527,0.145817442651845,-0.030575632731920682
2534.850000004665,-0.16712555,-0.77378273,-0.3216876,-2.3478959,-0.25768507,1.8994098,0.99278396,0.04,0.039999224,-0.007089663779646926,-0.01636741472005321,-0.03738986411963019,0.3070753174209113,-0.1564586171693419,-0.0551424704694508,0.9451133297820978,0.29014111843459495,0.1470304819914252,-0.0309993972052242
2534.866666671332,-0.16867249,-0.77368504,-0.3246617,-2.3478174,-0.26006708,1.9024456,0.99469537,0.04,0.039999224,-0.006882225700932665,-0.01744184352927558,-0.03683735440664915,0.30645007085972886,-0.15595026475335907,-0.0554062068289118,0.9441392639729266,0.29264087732519245,0.1482391209113282,-0.03142499283116761
2534.883333337999,-0.1702172,-0.77358764,-0.32763156,-2.3477392,-0.26244563,1.905477,0.996604,0.04,0.03999922,-0.00730762410503516,-0.018648719787006662,-0.03657858683168147,0.30578643032886366,-0.15542289526113331,-0.05566125279874706,0.943159069612227,0.2951324435532581,0.1494431123215961,-0.031852258163526964
2534.900000004666,-0.17175958,-0.77349025,-0.33059686,-2.347661,-0.26482052,1.9085042,0.99850965,0.04,0.03999922,-0.007082817802261943,-0.01933769322440826,-0.03576304586732082,0.30508480789474024,-0.1548788436972997,-0.0559093013958786,0.9421729000342352,0.29761552133265307,0.15064246050644295,-0.03228121738003304
2534.9166666713327,-0.17329937,-0.7733932,-0.3335572,-2.3475828,-0.26719138,1.9115267,1.0004121,0.04,0.03999922,-0.006692946350739248,-0.020650598578342283,-0.035461696709893076,0.30434548569850217,-0.15431794441683988,-0.05614764683144685,0.9411809171462392,0.3000898190444953,0.15183716116971457,-0.03271174396953146
2534.9333333379996,-0.17483637,-0.7732962,-0.33651218,-2.347505,-0.269558,1.9145428,1.0023111,0.04,0.039999224,-0.008678255016603131,-0.022207444159894063,-0.035443554606473526,0.3035675177566024,-0.15373822311294055,-0.05637663940395157,0.9401834912555148,0.3025549693242528,0.15302609424295613,-0.033143744334908666
2534.9500000046664,-0.17637041,-0.77319944,-0.3394614,-2.3474271,-0.27192006,1.9175538,1.0042063,0.04,0.039999228,-0.006123148885928131,-0.022675200827293462,-0.034069142642834116,0.30275245463847655,-0.15314738774084607,-0.05659953366832271,0.9391806261564328,0.3050106169461163,0.15421038578220778,-0.033577253006507164
2534.9666666713333,-0.17790128,-0.77310306,-0.3424045,-2.3473494,-0.27427718,1.920558,1.0060974,0.04,0.03999922,-0.007673295801158275,-0.02428453989320456,-0.03435267613671744,0.3019018445496792,-0.15253610638237183,-0.056814324922556725,0.9381726586237432,0.3074564683914539,0.15538906782638517,-0.03401206043684055
2534.983333338,-0.17942889,-0.7730069,-0.34534135,-2.347272,-0.2766292,1.9235559,1.0079849,0.04,0.03999922,-0.007451663855562174,-0.024779615839642943,-0.03343886391582451,0.30101404520140174,-0.15191115234939456,-0.057019292220193765,0.937159618105792,0.30989256916064434,0.15656236233176152,-0.03444811274830242
2535.000000004667,-0.18095294,-0.77291095,-0.3482713,-2.3471947,-0.27897578,1.9265473,1.0098679,0.04,0.039999228,-0.0072937647753512636,-0.02621860311068369,-0.03239158096925987,0.3000877177936925,-0.15127166717007204,-0.05721740324236353,0.9361418096053343,0.31231825047814155,0.15773024632337793,-0.03488541417110078
2535.016666671334,-0.18247329,-0.77281517,-0.3511942,-2.347118,-0.28131664,1.9295312,1.0117468,0.04,0.039999224,-0.008204299913838753,-0.027261813573498106,-0.03237925680976694,0.2991247129470025,-0.1506152730243321,-0.05740340735465149,0.9351194170570275,0.314733535566521,0.15889213064391186,-0.03532376327857192
2535.033333338001,-0.18398978,-0.77271956,-0.35410962,-2.3470411,-0.28365156,1.9325073,1.0136204,0.04,0.039999228,-0.007279347097499667,-0.02803001257420945,-0.03169099304658474,0.2981248078289147,-0.14994332711739414,-0.05758582706845608,0.9340927313528185,0.317137767786849,0.16004810509740383,-0.03576324274637918
2535.0500000046677,-0.18550216,-0.77262425,-0.35701725,-2.3469644,-0.28598014,1.9354757,1.015489,0.04,0.039999235,-0.006832295052117132,-0.0289904795887308,-0.030739131673862552,0.297089185920066,-0.1492608336193607,-0.05775636009638302,0.933061836672521,0.31953086569930866,0.1611984143083398,-0.03620367433326365
2535.0666666713346,-0.1870102,-0.7725291,-0.35991657,-2.3468876,-0.28830218,1.9384363,1.0173523,0.04,0.039999235,-0.006817023828231683,-0.030158756187093072,-0.029797043669854695,0.2960180528023187,-0.14856034415779995,-0.05791738879680057,0.9320269764251616,0.3219124408092062,0.1623429473940852,-0.03664509652643531
2535.0833333380015,-0.18851393,-0.77243423,-0.36280742,-2.346811,-0.29061738,1.9413866,1.0192102,0.04,0.03999924,-0.008374182924697493,-0.031307229600763264,-0.03063105880081185,0.29491245628611623,-0.14784208239458776,-0.058068524458011056,0.9309884838690413,0.3242824481508932,0.1634804966679137,-0.037087247588616326
2535.1000000046683,-0.19001296,-0.7723395,-0.36568934,-2.3467348,-0.29292545,1.9443283,1.0210625,0.04,0.039999243,-0.007276136906586572,-0.032189640587443336,-0.028491007361153287,0.2937702091271831,-0.1471161415628947,-0.05821390589791023,0.9299464625989238,0.32664043998108894,0.16461192575773634,-0.03753016875846267
2535.116666671335,-0.19150719,-0.77224547,-0.368562,-2.3466587,-0.29522604,1.947261,1.0229087,0.04,0.039999243,-0.006750778129305246,-0.03311510477073121,-0.028258070095876775,0.2925940876041761,-0.14637484533693107,-0.05835092243932312,0.9289011185005468,0.32898610884813556,0.16573728934904988,-0.03797371660273906
2535.133333338002,-0.1929965,-0.7721517,-0.37142515,-2.3465824,-0.29751903,1.9501836,1.0247488,0.04,0.039999243,-0.006629195984952929,-0.03367541266960927,-0.027738862462189928,0.29138333473342154,-0.1456173567998845,-0.058476295677691664,0.9278526410406772,0.3313193969025324,0.16685622277851675,-0.03841789518008788
2535.150000004669,-0.19448061,-0.77205837,-0.37427825,-2.3465064,-0.2998041,1.9530959,1.0265826,0.04,0.039999243,-0.0072754094672777825,-0.03524369524940951,-0.026890184499883674,0.29013646111876457,-0.14484712376724942,-0.05859039462342988,0.9268013377869021,0.33363988732281297,0.16796846396928908,-0.038862590951027134
2535.166666671336,-0.19595937,-0.7719655,-0.3771211,-2.3464305,-0.30208087,1.9559977,1.02841,0.04,0.03999923,-0.007114269361219172,-0.03596301449577677,-0.026161174343242166,0.2888560063614174,-0.14406232270719602,-0.05869630615555138,0.9257473701520784,0.3359474403749404,0.16907404562442577,-0.039307646307380255
2535.1833333380027,-0.19743265,-0.77187306,-0.3799534,-2.3463547,-0.30434918,1.9588897,1.0302302,0.04,0.039999217,-0.006156926442679733,-0.03627717003555908,-0.024895834087668156,0.2875415176986036,-0.14326464967689356,-0.05879182186886338,0.9246909259249965,0.3382415981280266,0.1701734451179017,-0.03975313049906684
2535.2000000046696,-0.19890028,-0.77178085,-0.3827748,-2.3462794,-0.3066086,1.9617704,1.0320435,0.04,0.03999921,-0.007869363593160372,-0.03789493939103661,-0.02459988915011202,0.28619541030942636,-0.14244732689999826,-0.0588780329931794,0.9236323257707463,0.3405223205082753,0.17126568416363272,-0.040198774296539744
2535.2166666713365,-0.200362,-0.7716889,-0.38558486,-2.3462043,-0.308859,1.9646388,1.0338494,0.04,0.03999921,-0.007691733773107501,-0.03885249583357453,-0.02404242197548978,0.2848146200419823,-0.1416203604073332,-0.0589535677130012,0.9225718875471126,0.34278921509379034,0.1723504653125093,-0.04064459902253442
2535.2333333380034,-0.20181772,-0.7715972,-0.38838336,-2.3461294,-0.31110018,1.9674953,1.0356477,0.04,0.039999217,-0.007237423354222727,-0.03929802109865488,-0.023091918807316425,0.2834035509360433,-0.1407836467522813,-0.059023023327734056,0.9215097384489607,0.34504214102537595,0.17342805129997627,-0.04109055709826299
2535.2500000046703,-0.20326722,-0.7715061,-0.39116988,-2.3460555,-0.3133318,1.9703399,1.0374385,0.04,0.03999921,-0.008009839342193459,-0.04075006161028405,-0.022129385573999016,0.2819589501059947,-0.13993619808867067,-0.05908073999790209,0.9204461565188189,0.3472807720598468,0.17449830916739156,-0.041536470781375553
2535.266666671337,-0.2047103,-0.77141535,-0.3939442,-2.3459818,-0.3155536,1.9731722,1.0392215,0.04,0.039999217,-0.006839616957199368,-0.04100207027242231,-0.021299542280317496,0.2804833898665665,-0.13907767466221438,-0.059131120127901546,0.9193812636605753,0.34950504115577796,0.17556140331639988,-0.04198228081176677
2535.283333338004,-0.20614685,-0.77132523,-0.39670587,-2.3459082,-0.31776533,1.9759912,1.0409962,0.04,0.039999217,-0.006383246467800419,-0.041980151065379445,-0.020828098797665007,0.2789754377675564,-0.13820509047745178,-0.05916902109304678,0.9183153738872288,0.35171455604406626,0.17661713599035833,-0.04242796747014345
2535.300000004671,-0.20757669,-0.77123564,-0.3994546,-2.345835,-0.31996667,1.9787973,1.0427631,0.04,0.03999922,-0.0070132043292758794,-0.042868873820767206,-0.01970485899229768,0.27743739677600376,-0.13732294978585524,-0.059198129201425254,0.9172485918983663,0.3539094258465627,0.17766546064200783,-0.042873337312180196
2535.3166666713378,-0.20899968,-0.77114636,-0.40219024,-2.345762,-0.32215747,1.9815899,1.0445216,0.04,0.039999228,-0.0069786024874840535,-0.04324380113276405,-0.018956446115825365,0.2758656324629031,-0.13642705847797315,-0.059217101235257474,0.9161812194498264,0.3560893024696856,0.1787061838334118,-0.043318375474852636
2535.3333333380046,-0.21041559,-0.7710574,-0.40491217,-2.3456893,-0.32433733,1.9843686,1.0462708,0.04,0.039999228,-0.006768951054070271,-0.044553301422967095,-0.017874952715390968,0.2742623892056695,-0.13551995664336144,-0.059225314462861986,0.9151136331672733,0.3582536198653667,0.17973919427527277,-0.043763047037769086
2535.3500000046715,-0.2118243,-0.77096874,-0.40762034,-2.3456175,-0.32650614,1.9871331,1.0480115,0.04,0.039999228,-0.00822218153322396,-0.045261271494534405,-0.01712776731523924,0.27263225707936833,-0.13460380740734973,-0.05922546178520313,0.9140459803875431,0.36040256646387114,0.1807641099856183,-0.04420715286848148
2535.3666666713384,-0.21322565,-0.7708807,-0.41031426,-2.3455467,-0.3286636,1.9898831,1.0497429,0.04,0.03999924,-0.007704313792933348,-0.04634906466587374,-0.016507633527917953,0.27097108806747294,-0.133678627706001,-0.05921627382691952,0.9129785929473758,0.3625356631317545,0.1817809209788149,-0.04465062760525023
2535.3833333380053,-0.21461943,-0.77079344,-0.41299373,-2.345476,-0.33080938,1.9926182,1.0514652,0.04,0.039999235,-0.005634473578508548,-0.04638522913908982,-0.015610948017474868,0.2692820346452164,-0.13274709564181897,-0.05919766812529757,0.9119114847824629,0.3646529757341739,0.18279014596012563,-0.04509338920431945
2535.400000004672,-0.21600552,-0.7707067,-0.41565844,-2.3454056,-0.33294335,1.9953384,1.0531778,0.04,0.039999235,-0.0066535636756182015,-0.04721732880126339,-0.014543865561278402,0.26756298948677326,-0.13180037537812572,-0.059169361402951814,0.910844984335538,0.36675419953092986,0.18379145770852304,-0.04553538965021225
2535.416666671339,-0.21738377,-0.77062047,-0.41830793,-2.3453357,-0.3350652,1.9980432,1.0548807,0.04,0.03999925,-0.00672250373288108,-0.04818899805811849,-0.013608404503862026,0.26581587094278936,-0.1308443150243892,-0.059130892659901596,0.9097793826062317,0.3688390872641682,0.18478462774777366,-0.045976559667682874
2535.433333338006,-0.21875401,-0.77053434,-0.420942,-2.345266,-0.33717474,2.0007324,1.0565736,0.04,0.039999247,-0.006532878687615096,-0.04840573108464419,-0.012429102028588268,0.2640405208404787,-0.12988081341315622,-0.05908182264020233,0.9087148895593036,0.37090747709784017,0.18576965434601161,-0.04641689832702443
2535.450000004673,-0.22011606,-0.77044886,-0.42356044,-2.345197,-0.3392717,2.003406,1.0582566,0.04,0.039999247,-0.006161943018634375,-0.04921507036244055,-0.011788778489796314,0.26223865109832467,-0.12890639462990114,-0.05902140983609991,0.9076516393822457,0.37295933356569816,0.18674671498619216,-0.046856178619453175
2535.4666666713397,-0.2214698,-0.77036434,-0.42616284,-2.3451278,-0.34135583,2.0060627,1.0599291,0.04,0.039999254,-0.0053343358738189295,-0.04991952298867286,-0.011542607420267359,0.2604091618889196,-0.12792032551660015,-0.05895325123796116,0.9065899386645035,0.37499437072954334,0.1877156061001439,-0.04729435759053249
2535.4833333380066,-0.22281508,-0.7702801,-0.428749,-2.345059,-0.34342694,2.0087025,1.0615913,0.04,0.039999254,-0.006397030847837826,-0.050403772919427325,-0.010139178681844996,0.2585526665260124,-0.12692607324932087,-0.05887329982538356,0.9055300248238181,0.3770125545282667,0.18867597849141124,-0.04773136296979763
2535.5000000046734,-0.22415176,-0.77019644,-0.43131852,-2.3449903,-0.34548467,2.0113256,1.0632426,0.04,0.039999265,-0.005654266234822458,-0.0510564875497721,-0.009002013672487763,0.2566676677219406,-0.12592299465357706,-0.05878302375266077,0.9044721231336511,0.37901355120186,0.1896281497927029,-0.04816711830343103
2535.5166666713403,-0.22547962,-0.77011317,-0.4338712,-2.3449223,-0.34752893,2.0139318,1.064883,0.04,0.039999265,-0.006623814688344609,-0.05183889898061622,-0.007989697169863419,0.2547587575440737,-0.12490992759584812,-0.05868296510109386,0.9034165165633509,0.38099721566895833,0.19057179866382565,-0.048601530912885944
2535.533333338007,-0.2267986,-0.7700306,-0.43640673,-2.3448544,-0.3495594,2.0165198,1.0665125,0.04,0.03999927,-0.005309619024451706,-0.05222528605695054,-0.0077612834715079515,0.252825084485254,-0.12389078103731843,-0.058574101597717185,0.9023633542842073,0.38296357903548267,0.19150690380051297,-0.04903447536202175
2535.550000004674,-0.22810851,-0.7699488,-0.43892488,-2.3447866,-0.35157597,2.0190907,1.0681312,0.04,0.03999927,-0.004989064057081549,-0.05249407873306744,-0.006269710587303301,0.25086436747060087,-0.1228626850584319,-0.058454295448849475,0.9013127169016527,0.38491259316946475,0.1924338965361564,-0.049465921954728306
2535.566666671341,-0.22940919,-0.76986766,-0.44142532,-2.34472,-0.35357842,2.0216432,1.0697385,0.04,0.03999928,-0.00674300913465764,-0.05384365040268513,-0.005678759878735562,0.2488777316888225,-0.12182287365231026,-0.058323954366107086,0.9002651335135413,0.38684380913869765,0.19335194330288633,-0.049895718572897166
2535.583333338008,-0.23070054,-0.7697868,-0.4439078,-2.3446536,-0.35556647,2.0241773,1.0713341,0.04,0.039999284,-0.006184420904187249,-0.053865525460450314,-0.004371848910289522,0.24686595243121023,-0.12077948157646834,-0.05818353824392797,0.8992207873745955,0.38875712710258675,0.19426111135025798,-0.05032387402931269
2535.6000000046747,-0.23198242,-0.7697066,-0.446372,-2.3445878,-0.35753992,2.0266929,1.0729178,0.04,0.039999288,-0.005453284876066888,-0.0544500599828357,-0.0037085213094423253,0.2448325048133728,-0.11972856160435474,-0.05803521751255458,0.8981798722080072,0.39065237429075633,0.19516159458597135,-0.05075028689636808
2535.6166666713416,-0.23325469,-0.76962715,-0.4488177,-2.3445225,-0.35949847,2.0291898,1.07449,0.04,0.039999295,-0.005213738930587297,-0.05489292330205231,-0.002615964010610483,0.2427767910965674,-0.11867031280723776,-0.05787799284543074,0.8971424859939904,0.3925296543067256,0.19605349037886674,-0.051174790909478414
2535.6333333380085,-0.23451716,-0.7695484,-0.45124474,-2.344458,-0.361442,2.0316675,1.0760502,0.04,0.039999306,-0.006339971833124736,-0.05565209506090962,-0.0019732469924038654,0.24069644781989702,-0.11760338145675786,-0.05770980786731729,0.896108994953559,0.39438875132143003,0.19693629625436032,-0.05159725973402259
2535.6500000046753,-0.23576976,-0.7694703,-0.45365268,-2.3443947,-0.36337042,2.0341253,1.0775983,0.04,0.03999931,-0.006395684584736827,-0.056250179607797435,-0.000992922014808606,0.2385926222645248,-0.11653263616318005,-0.05753160242435085,0.8950796650118189,0.3962295156123055,0.19780981092365976,-0.05201771758077936
2535.666666671342,-0.23701234,-0.76939255,-0.45604125,-2.3443315,-0.36528337,2.0365639,1.0791332,0.04,0.039999314,-0.004726186998160742,-0.056092811218078076,0.00045651616527031535,0.2364682009153511,-0.11545794879024815,-0.057347579083444025,0.8940547942938467,0.3980513538008529,0.19867456610537904,-0.052436259595198174
2535.683333338009,-0.23824476,-0.7693157,-0.45841038,-2.344269,-0.36718073,2.0389824,1.0806551,0.04,0.039999306,-0.005310077827846982,-0.05676938480123628,0.0006942836397794139,0.23432672441008312,-0.11437592666899293,-0.05715269097819664,0.8930345202588603,0.39985447931846374,0.19953030382204978,-0.05285261442604247
2535.700000004676,-0.23946692,-0.7692395,-0.46075982,-2.3442068,-0.3690623,2.0413804,1.082165,0.04,0.039999317,-0.004793707024530747,-0.0568495066162189,0.0016396159240317232,0.23216479812075164,-0.1132907848049252,-0.05694629706848056,0.8920188350600874,0.4016393017337643,0.20037697197248738,-0.053266671606135164
2535.716666671343,-0.24067865,-0.76916385,-0.46308914,-2.3441448,-0.37092772,2.0437584,1.0836624,0.04,0.039999325,-0.004156611664063448,-0.05736112201606414,0.003178685789984037,0.2299786093776351,-0.11219851190537003,-0.05673142427051424,0.8910079832079276,0.4034054636905335,0.20121489954914906,-0.05367839345391349
2535.7333333380097,-0.24187985,-0.7690889,-0.46539837,-2.3440833,-0.37277693,2.0461156,1.0851461,0.04,0.039999332,-0.004788330018490328,-0.057642672548952056,0.003499123860661868,0.2277723278566567,-0.11109797785629458,-0.05650752576116655,0.8900024186481262,0.4051525031752842,0.20204370944951264,-0.05408773838096579
2535.7500000046766,-0.24307044,-0.76901484,-0.467687,-2.344022,-0.37460974,2.0484521,1.0866168,0.04,0.039999343,-0.003769750946203132,-0.05804396539250689,0.004628207805201789,0.2255482672928061,-0.10999234054366996,-0.05627391488729118,0.8890021387271769,0.4068806383024388,0.20286368874770372,-0.054494653873383064
2535.7666666713435,-0.24425028,-0.76894146,-0.46995503,-2.3439615,-0.37642607,2.0507677,1.0880746,0.04,0.039999347,-0.00483107230340174,-0.0584262713010375,0.005455673304122222,0.22330530418770128,-0.10887985625145861,-0.05602951870269138,0.8880073654938235,0.4085899072559243,0.20367451362473976,-0.054898989216920976
2535.7833333380104,-0.24541916,-0.76886845,-0.47220212,-2.3439012,-0.37822562,2.0530615,1.0895185,0.04,0.039999355,-0.004507525843777671,-0.0587246340087777,0.006531949710320006,0.2210420912221056,-0.1077613886061882,-0.055778766127478355,0.8870185049855589,0.41027988321246656,0.2044759530904644,-0.05530075815117574
2535.8000000046773,-0.2465771,-0.7687963,-0.474428,-2.3438408,-0.3800082,2.0553334,1.0909493,0.04,0.03999935,-0.003238033383023975,-0.05890134864989793,0.006969850508742326,0.2187613683182487,-0.10664266922189262,-0.05551581546772927,0.886035498631694,0.41195087974901407,0.20526835883953218,-0.05569980877726315
2535.816666671344,-0.24772398,-0.76872504,-0.4766326,-2.3437817,-0.3817737,2.0575838,1.0923662,0.04,0.03999936,-0.005133589431949304,-0.05958813932742668,0.008185516996617181,0.2164613404610723,-0.10551689723972732,-0.05524553115562514,0.8850587623600351,0.41360249432715784,0.20605144310994555,-0.0560960484204096
2535.833333338011,-0.24885952,-0.76865435,-0.47881567,-2.3437233,-0.3835219,2.0598123,1.0937693,0.04,0.039999377,-0.004554479458374061,-0.05979719153517138,0.009307669017122322,0.21414541153500727,-0.10438687524380968,-0.05496639398354576,0.8840884775653599,0.4152347069643546,0.20682516938700754,-0.056489390830725364
2535.850000004678,-0.24998383,-0.7685844,-0.4809769,-2.343666,-0.38525274,2.0620189,1.0951586,0.04,0.039999373,-0.004987432702829864,-0.06022529919409436,0.010105340404864549,0.2118143964916283,-0.10325172564191859,-0.054680091395565636,0.8831248404504061,0.4168474784538481,0.2075894593788253,-0.0568798052116962
2535.866666671345,-0.2510967,-0.7685153,-0.4831163,-2.343609,-0.38696605,2.0642028,1.0965334,0.04,0.03999938,-0.003278615015878117,-0.059822804824261056,0.010434723096386378,0.20946642686982214,-0.10211805471541985,-0.05438379176764123,0.8821680080590676,0.4184407050369447,0.2083445265738068,-0.057267269639978656
2535.8833333380117,-0.252198,-0.7684468,-0.48523346,-2.3435528,-0.38866144,2.0663638,1.0978936,0.04,0.039999384,-0.004342568641479971,-0.06064747614549226,0.01177840556108034,0.20710479871132842,-0.10097802414101474,-0.05408177779008133,0.881218328951525,0.4200141846040088,0.20909000415850112,-0.05765164015281258
2535.9000000046785,-0.25328776,-0.76837885,-0.48732835,-2.343497,-0.39033908,2.068502,1.0992405,0.04,0.03999939,-0.003827376217957479,-0.06021998988650079,0.01238765166464706,0.20473017589923365,-0.09983818016632452,-0.053770498144021586,0.8802755887883701,0.4215686240417529,0.20982605214035632,-0.05803284285664464
2535.9166666713454,-0.25436577,-0.7683119,-0.48940068,-2.343442,-0.39199862,2.0706174,1.1005725,0.04,0.039999392,-0.0032475401356091282,-0.06080954670506511,0.013420323328228179,0.20233519828760937,-0.09869424142718485,-0.05345215131858397,0.8793402987102087,0.4231031317961792,0.21055295836556248,-0.05841087785691768
2535.9333333380123,-0.25543195,-0.7682457,-0.49145034,-2.3433871,-0.39363998,2.0727098,1.1018897,0.04,0.039999377,-0.002811411174263867,-0.06056865809020984,0.014158898154725819,0.1999299688105219,-0.09754701988235635,-0.05312457447065602,0.8784125148532583,0.4246179597768971,0.21127063892367248,-0.058785705004385555
2535.950000004679,-0.2564863,-0.7681801,-0.49347717,-2.343333,-0.395263,2.0747788,1.1031921,0.04,0.03999939,-0.003798950210009977,-0.06094727635814756,0.014967396678056133,0.19751117556163036,-0.09639570389392906,-0.05278756110523562,0.8774925167597029,0.42611302010504715,0.21197877568902512,-0.05915721245173929
2535.966666671346,-0.25752857,-0.7681154,-0.4954809,-2.3432794,-0.3968676,2.0768244,1.1044798,0.04,0.039999377,-0.0026171088456372615,-0.06113104304281691,0.015852703409979796,0.19508022413431955,-0.0952435028270924,-0.052444465591935316,0.8765803644367313,0.42758832715222017,0.21267773279064492,-0.05952536553574714
2535.983333338013,-0.25855884,-0.7680514,-0.4974613,-2.3432262,-0.3984537,2.0788462,1.1057523,0.04,0.03999938,-0.0030064263015106008,-0.06121973383932389,0.01659169563918983,0.19263564852674642,-0.0940883918285644,-0.05208963136921589,0.8756763526185778,0.42904373826040976,0.21336719792776582,-0.05989019095487035
2536.00000000468,-0.25957692,-0.7679881,-0.4994184,-2.3431733,-0.4000211,2.0808446,1.10701,0.04,0.039999392,-0.002124884891641088,-0.06086050456379777,0.017524605139440652,0.19018312486178832,-0.09293033043108717,-0.05173051045034943,0.8747804556712518,0.4304794161582151,0.214047604717925,-0.06025155229700088
2536.0166666713467,-0.26058277,-0.76792574,-0.50135213,-2.3431213,-0.40156952,2.0828183,1.1082524,0.04,0.039999392,-0.0038673271537170706,-0.06181977566075414,0.01761794351846646,0.18771593923407076,-0.0917690862234854,-0.05135937170818365,0.8738930839735473,0.43189528142715683,0.21471812632499068,-0.06060915683001467
2536.0333333380136,-0.2615762,-0.7678641,-0.50326204,-2.3430703,-0.40309906,2.0847678,1.1094799,0.04,0.0399994,-0.0033370420155165448,-0.06194059484101455,0.019308429220687984,0.1852392717156036,-0.09060969418049557,-0.05098433597829065,0.8730143322878249,0.4332912640452255,0.21537908693310479,-0.060963144882757385
2536.0500000046804,-0.26255745,-0.7678033,-0.5051482,-2.3430207,-0.40460965,2.0866935,1.110692,0.04,0.03999942,-0.003857508948668098,-0.06175496748652698,0.01967599046412971,0.18275338719844847,-0.08944944786083964,-0.05060507703339959,0.8721443839920651,0.43466730497477607,0.2160304770892051,-0.06131346039554916
2536.0666666713473,-0.26352614,-0.7677433,-0.50701046,-2.342971,-0.40610084,2.088595,1.1118889,0.04,0.039999418,-0.0013757132345304512,-0.06116915906475562,0.02044036611710265,0.18025884576252416,-0.08829023976142461,-0.050216799071256084,0.8712831747051984,0.4360236110006716,0.21667276821309078,-0.061659967891996806
2536.083333338014,-0.2644824,-0.7676841,-0.5088488,-2.342922,-0.40757284,2.0904715,1.1130701,0.04,0.039999418,-0.0022991483009437985,-0.06132564669580898,0.020713889490253656,0.17775300618437098,-0.08712731291225508,-0.04982118829448027,0.8704309956537413,0.4373600705349824,0.21730557425754268,-0.062002724968114015
2536.100000004681,-0.26542595,-0.76762545,-0.5106627,-2.3428736,-0.40902546,2.0923233,1.1142359,0.04,0.039999425,-0.00269272041384383,-0.062061313059436074,0.022391148638223335,0.1752394927988571,-0.08596340953498743,-0.04941968340676234,0.8695881161787645,0.43867650497769384,0.21792876217557205,-0.062341693896187135
2536.116666671348,-0.26635677,-0.7675678,-0.5124521,-2.342826,-0.41045865,2.0941503,1.1153864,0.04,0.039999437,-0.0019969265792951774,-0.06189784863803727,0.02264022577174174,0.17271933165552292,-0.08480167791906754,-0.049012377961543445,0.8687545159601883,0.4399731143683463,0.21854261674377848,-0.06267674447974124
2536.133333338015,-0.26727498,-0.76751095,-0.5142173,-2.3427787,-0.41187227,2.0959518,1.1165208,0.04,0.039999444,-0.0022945444400512827,-0.06136526073026172,0.022653418332585495,0.1701911327418315,-0.08363919182075377,-0.048596463817690144,0.8679304555247525,0.4412498376655981,0.2191467937181878,-0.06300784027180328
2536.1500000046817,-0.26818043,-0.76745486,-0.5159581,-2.342732,-0.41326624,2.0977287,1.1176394,0.04,0.039999444,-0.001486025885544251,-0.061191885894174014,0.02398741810962779,0.1676568257295257,-0.08247828785529696,-0.048177181694432886,0.867115910664792,0.442506728255493,0.2197418332440048,-0.06333497961751938
2536.1666666713486,-0.2690731,-0.7673997,-0.5176741,-2.342686,-0.4146404,2.0994804,1.1187425,0.04,0.039999455,-0.0018507957294744415,-0.06175341375798116,0.02450039712229568,0.16511560352141272,-0.08131707146966458,-0.04774913312449758,0.8663110713381202,0.4437438397146475,0.22032745992124933,-0.06365801439685251
2536.1833333380155,-0.2699529,-0.7673454,-0.5193654,-2.3426404,-0.4159948,2.101207,1.1198294,0.04,0.03999946,-0.001293041981487164,-0.06128289478579685,0.025236592210786668,0.16256903201799267,-0.08015459484280935,-0.047317730019200324,0.8655160986467813,0.4449610140973711,0.22090386288715833,-0.06397704493195806
2536.2000000046824,-0.27081972,-0.76729167,-0.5210319,-2.3425953,-0.4173293,2.1029086,1.1209002,0.04,0.039999474,-0.0015587510650227898,-0.06109058297032455,0.0260641583559984,0.1600179920750046,-0.07899159063152211,-0.046877981485962485,0.8647311485475206,0.4461582620117934,0.22147095053595975,-0.06429202158122066
2536.2166666713492,-0.27167362,-0.7672389,-0.52267355,-2.3425512,-0.41864392,2.104584,1.1219549,0.04,0.039999474,-0.0023826097654833234,-0.061768223917479936,0.025967787689151756,0.15746339509875537,-0.0778315388716062,-0.04643141773426001,0.8639564105476143,0.4473357461961388,0.22202823473338507,-0.06460273856426518
2536.233333338016,-0.27251446,-0.76718694,-0.52429,-2.3425086,-0.41993853,2.1062343,1.1229943,0.04,0.03999949,-0.002581828831127453,-0.06188186450721833,0.027659794473433585,0.15490605968070817,-0.07667472280477156,-0.04598331579833484,0.8631918909211819,0.4484935427257176,0.22257606202672922,-0.06490915339089676
2536.250000004683,-0.27334234,-0.7671357,-0.52588135,-2.3424664,-0.42121303,2.1078587,1.124017,0.04,0.0399995,-0.0013387880060555801,-0.06113679555048712,0.02747489051588836,0.1523445658504503,-0.07551975536665935,-0.0455305651969586,0.8624378612873547,0.44963139153865755,0.22311436694848744,-0.06521139794759623
2536.26666667135,-0.27415723,-0.76708543,-0.5274475,-2.3424244,-0.42246744,2.1094577,1.1250235,0.04,0.039999507,1.9254438443638833e-05,-0.060563310149319705,0.028048866806584805,0.14978269253964815,-0.07436891383728222,-0.04507372793855077,0.8616941542161276,0.4507495416033823,0.22364379429474607,-0.06550945433708456
2536.2833333380167,-0.274959,-0.767036,-0.5289889,-2.342383,-0.42370173,2.1110306,1.1260141,0.04,0.039999515,-0.0013925806539916152,-0.06044018668029949,0.02802455160613171,0.14721826191906018,-0.07321737007949036,-0.04460745894311137,0.8609608839702722,0.4518483590444225,0.22416372018288727,-0.06580306418213792
2536.3000000046836,-0.27574754,-0.7669873,-0.53050506,-2.3423424,-0.42491585,2.112578,1.1269886,0.04,0.039999526,-0.0016150648838308967,-0.060893457860689004,0.02957892711703547,0.14465043371090233,-0.0720676139836561,-0.04413920464137952,0.8602383002250501,0.452927513829266,0.22467430355333562,-0.06609229429502697
2536.3166666713505,-0.27652293,-0.7669395,-0.5319959,-2.3423023,-0.42610973,2.1141,1.1279466,0.04,0.03999952,-0.00016823365260876244,-0.0603165471560807,0.02993831151267834,0.1420837209359118,-0.07092136748285388,-0.043670296605487526,0.8595264487284681,0.4539869159262037,0.22517598783136178,-0.06637724465667905
2536.3333333380174,-0.27728528,-0.7668924,-0.5334615,-2.3422627,-0.4272833,2.115596,1.1288886,0.04,0.039999533,-0.0008948621072146778,-0.06003923552881929,0.029983696540014648,0.13951601598616362,-0.06977556705998311,-0.043190862880818685,0.8588253150172303,0.4550270461592498,0.22566836615340136,-0.0666577382364403
2536.3500000046843,-0.2780344,-0.76684636,-0.53490174,-2.3422241,-0.42843655,2.1170652,1.1298144,0.04,0.03999953,-0.0015851591183668745,-0.060832570018320986,0.030211671947666385,0.13694939655434027,-0.06863219976549206,-0.04271076785531294,0.8581352144736725,0.4560477430050295,0.22615104981098555,-0.06693364213631238
2536.366666671351,-0.2787703,-0.7668011,-0.53631663,-2.342186,-0.4295696,2.1185098,1.1307234,0.04,0.039999552,0.00040781623038554926,-0.059365683492274,0.031666200018154456,0.13438284415788396,-0.06749696161343169,-0.0422293205186855,0.8574560676765127,0.45704873612477537,0.22662522621966277,-0.06720529482387248
2536.383333338018,-0.279493,-0.7667566,-0.5377062,-2.3421485,-0.4306823,2.1199276,1.1316165,0.04,0.03999955,-0.0013612215818525897,-0.0599392540405308,0.03126487085465257,0.13182032833728927,-0.06636080368992435,-0.04173827890083266,0.8567879685845076,0.4580306539730929,0.22708981170375733,-0.0674723226972796
2536.400000004685,-0.28020254,-0.7667129,-0.5390703,-2.3421118,-0.43177474,2.1213205,1.1324931,0.04,0.039999556,-4.281489962565388e-06,-0.059310081534635906,0.03238332443979974,0.12925993714731446,-0.06522890736932663,-0.04124971961915358,0.8561309624933883,0.45899315121036155,0.2275456845513736,-0.06773495142224273
2536.416666671352,-0.28089887,-0.7666701,-0.54040897,-2.3420765,-0.43284672,2.1226866,1.1333535,0.04,0.03999957,-0.002240015681742591,-0.06017011532022387,0.03226601772116089,0.1267028003268092,-0.0640993026730251,-0.04075325392997966,0.855485365185233,0.45993640343151576,0.22799181546300223,-0.06799284399298897
2536.4333333380187,-0.2815819,-0.76662785,-0.5417224,-2.3420413,-0.43389842,2.1240275,1.1341975,0.04,0.039999582,0.0008381868954909777,-0.05816206602977658,0.03298304273852137,0.12415018124542976,-0.06298125273404516,-0.04025737705949953,0.8548508705368252,0.4608605708771455,0.2284293449647539,-0.06824630182066277
2536.4500000046855,-0.2822518,-0.7665868,-0.54301065,-2.3420064,-0.43492988,2.125342,1.1350251,0.04,0.03999958,8.002527440709173e-05,-0.05857731759970619,0.03232012510893112,0.12160341536813965,-0.061860183143168955,-0.039760045886011675,0.8542276308452866,0.4617658118514631,0.22885782876812877,-0.06849513790880213
2536.4666666713524,-0.28290856,-0.7665463,-0.54427326,-2.3419724,-0.435941,2.126631,1.1358366,0.04,0.039999597,2.0610216333594167e-05,-0.05855426370131589,0.03411064895532112,0.11906019168358209,-0.06074565258438033,-0.039257956465761065,0.8536157414186629,0.46265198425593196,0.2292775377836368,-0.06873949471874405
2536.4833333380193,-0.28355214,-0.7665066,-0.5455107,-2.341939,-0.43693188,2.1278937,1.1366317,0.039999995,0.039999593,-0.0007636595603877083,-0.05818342233010476,0.033343694341203545,0.11652276397446089,-0.059635066994818395,-0.03875252887518925,0.8530153110604687,0.46351935506441583,0.22968796337385153,-0.06897917119139596
2536.500000004686,-0.2841825,-0.76646805,-0.54672277,-2.3419065,-0.43790257,2.1291308,1.1374108,0.04,0.039999604,6.853497289682764e-05,-0.05820312482613943,0.034254038707293155,0.11399165996765431,-0.0585317180660096,-0.03824689018219752,0.8524263089299003,0.4643678667163782,0.230089688421576,-0.06921421449014577
2536.516666671353,-0.2847997,-0.76642996,-0.5479098,-2.3418746,-0.4388529,2.130342,1.138173,0.03999999,0.039999604,-0.0003139122541906403,-0.05724016867252324,0.03422237219737889,0.11146898385308124,-0.05743213038087961,-0.037738671325519536,0.8518488993058199,0.4651975688019677,0.23048236154471236,-0.06944462361460561
2536.53333333802,-0.2854038,-0.76639295,-0.5490715,-2.3418431,-0.43978313,2.1315277,1.1389196,0.03999999,0.03999961,0.0010085983308538715,-0.057196747110377366,0.03460253169805805,0.10895528678761503,-0.05634089963909063,-0.03723041514080691,0.8512827972685463,0.4660088608452218,0.23086657491926152,-0.06967040457343998
2536.550000004687,-0.28599492,-0.76635665,-0.55020815,-2.3418124,-0.44069326,2.1326878,1.1396499,0.04,0.039999634,-2.0123617172629338e-05,-0.056633166327735296,0.034671464905600136,0.10644865667752429,-0.05525210592165697,-0.036719141204594456,0.8507282248991433,0.46680164906835725,0.23124202458246607,-0.06989158643225035
2536.5666666713537,-0.28657293,-0.76632106,-0.55131954,-2.3417823,-0.44158325,2.1338224,1.140364,0.039999995,0.039999634,0.00022287635816908846,-0.05682495923429176,0.03546494788122523,0.10395094402879801,-0.05416845502806291,-0.03620637921223277,0.8501852471555673,0.46757594786499335,0.23160878093550166,-0.07010813854860722
2536.5833333380206,-0.287138,-0.76628655,-0.55240613,-2.3417532,-0.44245324,2.1349313,1.1410624,0.04,0.039999645,-0.00021391712201612734,-0.05623741485354383,0.034738162012937224,0.10146482050064368,-0.05309228859158108,-0.035692896312095615,0.8496537755667918,0.46833213734712337,0.23196676980242112,-0.07031990116888509
2536.6000000046874,-0.28769007,-0.7662528,-0.55346775,-2.3417253,-0.44330323,2.1360147,1.1417445,0.04,0.039999653,-0.000681253802170545,-0.05628011772378372,0.035583638918423866,0.09898743984671074,-0.05202324774713353,-0.03518112056370547,0.8491340287816332,0.4690700099435703,0.23231589453470522,-0.07052695997383515
