rsonawane2002/My_IMU/logs_2/traj_313/imu_313.csv
time,j1,j2,j3,j4,j5,j6,j7,gripper1,gripper2,imu_ax,imu_ay,imu_az,imu_gx,imu_gy,imu_gz
686.133333333038,0.00016700293,-0.785875,4.0107683e-05,-2.3551247,9.29385e-05,1.570997,0.786,0.04,0.04,-9.506511,-0.018532833084464073,0.09456433,2.1571071e-07,-0.0011641274904832244,3.7762845e-07
686.1499999997046,0.00016699974,-0.78576016,4.0110404e-05,-2.3552213,9.298207e-05,1.5709941,0.786,0.04,0.04,-9.834445,0.0006320744869299233,0.009086471,-8.894061e-08,-0.002240083646029234,1.6281801e-06
686.1666666663713,0.0001669548,-0.7856543,4.008353e-05,-2.35531,9.307811e-05,1.5709913,0.786,0.04,0.04,-9.8326025,0.0005657575675286353,0.0075624073,6.4405464e-07,-0.0032389843836426735,6.4419896e-06
686.1833333330379,0.00016679768,-0.78555703,3.9979037e-05,-2.355391,9.3317125e-05,1.5709884,0.786,0.04,0.04,-9.831089,0.0004525136901065707,0.00619056,2.1074688e-06,-0.0041776313446462154,1.839956e-05
686.1999999997046,0.00016642644,-0.78546774,3.972785e-05,-2.3554647,9.382553e-05,1.5709856,0.786,0.04,0.04,-9.829775,0.0002942568971775472,0.0049363505,4.7824446e-06,-0.005067034158855677,3.9756924e-05
686.2166666663712,0.00016571056,-0.7853861,3.9241982e-05,-2.3555315,9.4773226e-05,1.5709862,0.7859991,0.04,0.04,-9.8286,0.00010633055353537202,0.0038014227,8.3385385e-06,-0.005919350776821375,7.586279e-05
686.2333333330379,0.00016449376,-0.7853116,3.841633e-05,-2.3555918,9.636392e-05,1.570987,0.7859972,0.04,0.039999995,-9.827662,-0.0001212927745655179,0.0026644752,1.6850192e-05,-0.006729648914188147,0.0001274024
686.2499999997045,0.00016259747,-0.78524405,3.7131005e-05,-2.355649,9.879986e-05,1.5709879,0.7859953,0.04,0.04,-9.827021,-0.00038779614260420203,0.0017447001,2.9782805e-05,-0.007526741363108158,0.00019515862
686.2666666663712,0.00015982198,-0.785183,3.5252033e-05,-2.3556993,0.00010234117,1.5709924,0.7859915,0.04,0.04,-9.826933,-0.000660823832731694,0.0009237649,4.2553496e-05,-0.008335140533745289,0.00028353464
686.2833333330378,0.00015594973,-0.7851282,3.263357e-05,-2.355743,0.00010725938,1.5709971,0.7859868,0.04,0.04,-9.826385,-0.00094683124916628,9.703869e-05,6.244412e-05,-0.009129072539508343,0.00039346732
686.2999999997045,0.00015074691,-0.78507984,2.9118972e-05,-2.355782,0.000113845985,1.5710056,0.78598106,0.04,0.04,-9.826153,-0.0012408324982970953,-0.00054458575,8.423215e-05,-0.009935707785189152,0.000526549
686.3166666663711,0.0001439658,-0.78503776,2.4542345e-05,-2.3558164,0.0001224011,1.5710144,0.78597313,0.04,0.04,-9.826184,-0.0015395102091133595,-0.0011050876,0.00010718668,-0.010754766874015331,0.0006833437
686.3333333330378,0.00013534582,-0.78500164,1.87294e-05,-2.355844,0.000133257,1.5710268,0.78596246,0.039999995,0.04,-9.826373,-0.0018175520235672593,-0.0014911192,0.00013563651,-0.011607379652559757,0.0008667448
686.3499999997044,0.00012461588,-0.7849716,1.1498508e-05,-2.3558664,0.00014675064,1.571043,0.7859491,0.03999999,0.03999999,-9.826432,-0.002081874758005142,-0.001843329,0.00017076361,-0.012481460347771645,0.0010777834
686.3666666663711,0.000111495494,-0.7849477,2.6618795e-06,-2.3558853,0.00016322974,1.571063,0.78593326,0.039999988,0.039999988,-9.826728,-0.0023328037932515144,-0.0020662977,0.00021115315,-0.01338642742484808,0.0013156667
686.3833333330377,9.569605e-05,-0.78493,-7.9734e-06,-2.3558972,0.00018305355,1.5710887,0.7859142,0.039999984,0.03999998,-9.827346,-0.0025488482788205147,-0.0021286677,0.00025445866,-0.01433755923062563,0.0015828689
686.3999999997044,7.6922304e-05,-0.78491855,-2.060493e-05,-2.3559022,0.00020658801,1.5711198,0.78589135,0.03999998,0.039999977,-9.827581,-0.0027361498214304447,-0.0021105988,0.00030233146,-0.015316210687160492,0.0018783066
686.416666666371,5.4873264e-05,-0.7849134,-3.543417e-05,-2.3559022,0.00023420734,1.5711553,0.78586453,0.039999973,0.03999997,-9.827946,-0.002876330865547061,-0.0018965605,0.00035578778,-0.016331398859620094,0.0022033593
686.4333333330377,2.9243438e-05,-0.784915,-5.266545e-05,-2.3558962,0.00026629152,1.5711975,0.78583336,0.039999966,0.039999958,-9.828683,-0.002963858423754573,-0.0014889907,0.000414375,-0.017402637749910355,0.0025593168
686.4499999997043,-2.7628738e-07,-0.78492314,-7.250562e-05,-2.3558848,0.00030322315,1.5712458,0.7857978,0.03999996,0.039999954,-9.829257,-0.003005668055266142,-0.00096041686,0.00047784377,-0.018517637625336647,0.002944746
686.466666666371,-3.399787e-05,-0.78493816,-9.516349e-05,-2.3558657,0.0003453897,1.5713009,0.7857569,0.03999996,0.039999954,-9.830021,-0.0029579258989542723,-0.00021976326,0.00054503686,-0.019691258668899536,0.003360763
686.4833333330376,-7.223518e-05,-0.7849602,-0.00012084893,-2.3558402,0.00039318157,1.5713636,0.78571063,0.03999996,0.03999995,-9.83065,-0.002879999577999115,0.0006769183,0.00061830605,-0.020912902429699898,0.003808334
686.4999999997043,-0.00011530316,-0.78498966,-0.00014977274,-2.3558078,0.00044698868,1.5714346,0.78565866,0.03999996,0.03999995,-9.831407,-0.0027194018475711346,0.0017755982,0.0006960975,-0.02218869887292385,0.0042858073
686.516666666371,-0.00016351747,-0.7850266,-0.00018214602,-2.3557687,0.0005072033,1.5715139,0.7856004,0.03999996,0.03999995,-9.832223,-0.0024689026176929474,0.0030903553,0.00077870995,-0.023520292714238167,0.0047940104
686.5333333330376,-0.00021719359,-0.7850712,-0.00021818007,-2.3557222,0.00057421695,1.5716019,0.78553563,0.03999996,0.03999995,-9.833047,-0.0021285726688802242,0.004627879,0.00086612307,-0.024910463020205498,0.005332871
686.5499999997043,-0.00027664658,-0.7851237,-0.0002580857,-2.3556683,0.000648421,1.5716997,0.7854639,0.03999996,0.039999947,-9.83395,-0.0016928557306528091,0.0063888044,0.000958825,-0.02636314183473587,0.005903089
686.5666666663709,-0.00034219015,-0.7851844,-0.0003020728,-2.355606,0.000730204,1.5718073,0.78538483,0.039999966,0.03999995,-9.834813,-0.0011681392788887024,0.008378736,0.001055882,-0.027873996645212173,0.006502745
686.5833333330376,-0.00041413645,-0.78525364,-0.00035035016,-2.355536,0.0008199537,1.5719255,0.7852981,0.039999966,0.03999995,-9.835634,-0.0005344981327652931,0.010628697,0.0011582472,-0.029444178566336632,0.0071324036
686.5999999997042,-0.0004927957,-0.78533155,-0.00040312545,-2.3554575,0.0009180548,1.5720547,0.7852032,0.03999997,0.039999954,-9.836561,0.0002140626311302185,0.013133639,0.0012648967,-0.03107484243810177,0.0077917613
686.6166666663709,-0.00057847553,-0.7854183,-0.00046060473,-2.3553708,0.0010248898,1.5721953,0.7851,0.03999997,0.03999995,-9.837461,0.0010837679728865623,0.015915377,0.0013769886,-0.03276770934462547,0.008481309
686.6333333330375,-0.0006714807,-0.7855143,-0.000522992,-2.3552744,0.0011408358,1.5723482,0.78498787,0.03999997,0.03999995,-9.838459,0.0020620916038751602,0.018954962,0.0014931847,-0.0345253050327301,0.009198907
686.6499999997042,-0.00077211333,-0.7856201,-0.0005904895,-2.3551688,0.0012662685,1.5725137,0.7848667,0.03999997,0.039999947,-9.839273,0.0031869085505604744,0.022301972,0.0016142934,-0.036339037120342255,0.009945821
686.6666666663708,-0.00088067143,-0.7857356,-0.0006632965,-2.3550537,0.0014015584,1.5726922,0.7847359,0.03999997,0.039999947,-9.840146,0.004429426044225693,0.025976157,0.0017394832,-0.038212504237890244,0.010719825
686.6833333330375,-0.0009974503,-0.78586125,-0.000741611,-2.354929,0.0015470708,1.5728841,0.7845952,0.039999973,0.03999995,-9.841063,0.005819556303322315,0.02995089,0.0018692573,-0.040146537125110626,0.011521251
686.6999999997041,-0.0011227407,-0.7859973,-0.0008256274,-2.3547945,0.0017031666,1.5730901,0.78444433,0.039999977,0.03999995,-9.84202,0.007351914420723915,0.03425423,0.0020040723,-0.042143452912569046,0.012350371
686.7166666663708,-0.0012568295,-0.7861439,-0.0009155378,-2.3546488,0.0018702019,1.5733105,0.7842828,0.039999977,0.03999995,-9.842832,0.009078490547835827,0.038904548,0.0021427353,-0.04420072212815285,0.0132049015
686.7333333330374,-0.001399999,-0.78630143,-0.0010115313,-2.3544936,0.0020485271,1.5735458,0.7841104,0.03999998,0.039999954,-9.843741,0.010862399823963642,0.043876342,0.0022860197,-0.046314336359500885,0.014084998
686.7499999997041,-0.0015525273,-0.7864701,-0.0011137944,-2.3543267,0.002238488,1.5737965,0.78392684,0.039999984,0.039999954,-9.844795,0.01285972073674202,0.04922141,0.002432915,-0.04849309101700783,0.014990947
686.7666666663707,-0.0017146878,-0.7866503,-0.00122251,-2.354149,0.002440423,1.5740628,0.7837316,0.039999988,0.039999958,-9.845541,0.01501766312867403,0.054923575,0.0025838648,-0.05072591081261635,0.015920265
686.7833333330374,-0.0018867485,-0.78684235,-0.0013378577,-2.35396,0.0026546651,1.5743456,0.78352445,0.039999988,0.039999958,-9.846492,0.017339635640382767,0.06101836,0.002739546,-0.053020693361759186,0.0168731
686.799999999704,-0.002068974,-0.7870464,-0.0014600145,-2.3537595,0.0028815432,1.574645,0.7833051,0.03999999,0.039999958,-9.847317,0.019842803478240967,0.067500375,0.0028987075,-0.05537061393260956,0.017849602
686.8166666663707,-0.0022616228,-0.78726274,-0.0015891532,-2.3535461,0.0031213763,1.5749617,0.7830732,0.03999999,0.039999958,-9.848185,0.02250978909432888,0.074376285,0.003061455,-0.05777856335043907,0.018847264
686.8333333330373,-0.002464948,-0.78749156,-0.001725444,-2.3533201,0.0033744809,1.5752956,0.7828286,0.039999995,0.039999958,-9.848909,0.025367697700858116,0.08166152,0.0032284376,-0.06023890897631645,0.019866977
686.849999999704,-0.0026791978,-0.7877332,-0.0018690525,-2.3530824,0.0036411635,1.5756475,0.7825708,0.04,0.03999996,-9.8496275,0.02840312011539936,0.08936959,0.0033981025,-0.06275282800197601,0.020906297
686.8666666663706,-0.0029046156,-0.7879877,-0.0020201425,-2.3528311,0.0039217267,1.5760174,0.7822995,0.04,0.03999996,-9.850514,0.0316292867064476,0.09750586,0.0035721925,-0.06532464176416397,0.021965818
686.8833333330373,-0.0031414393,-0.7882556,-0.002178873,-2.3525672,0.004216466,1.5764064,0.78201467,0.04,0.03999996,-9.851187,0.03504713624715805,0.106072284,0.003749365,-0.06794863194227219,0.02304369
686.8999999997039,-0.0033899003,-0.78853697,-0.0023453983,-2.3522906,0.0045256675,1.5768144,0.7817158,0.04,0.039999958,-9.851924,0.03865755349397659,0.115076095,0.003929461,-0.07062401622533798,0.024139911
686.9166666663706,-0.003650226,-0.78883225,-0.0025198718,-2.3520007,0.0048496136,1.577242,0.7814026,0.04,0.039999954,-9.8527,0.042469993233680725,0.124548465,0.0041127824,-0.07335419207811356,0.025252713
686.9333333330372,-0.003922636,-0.7891414,-0.0027024413,-2.351696,0.0051885806,1.5776894,0.7810749,0.04,0.03999995,-9.853367,0.046486712992191315,0.13448144,0.0042996844,-0.07613454759120941,0.0263821
686.9499999997039,-0.004207348,-0.78946495,-0.0028932514,-2.3513775,0.005542833,1.578157,0.78073245,0.04,0.039999947,-9.853885,0.05069933831691742,0.14488119,0.0044894493,-0.07896114140748978,0.027526598
686.9666666663705,-0.00450457,-0.789803,-0.003092443,-2.3510451,0.0059126327,1.5786453,0.7803748,0.04,0.039999947,-9.854304,0.05519554018974304,0.15579097,0.0046817847,-0.08183575421571732,0.028685074
686.9833333330372,-0.0048145093,-0.79015577,-0.003300153,-2.3506987,0.006298235,1.5791543,0.78000194,0.04,0.039999947,-9.855095,0.059761710464954376,0.16715801,0.0048776446,-0.08475872129201889,0.029857287
686.9999999997038,-0.0051373625,-0.79052335,-0.0035165139,-2.3503375,0.0066998843,1.5796843,0.7796136,0.04,0.039999943,-9.855626,0.06460601091384888,0.17903419,0.005076142,-0.08773063868284225,0.031041501
687.0166666663705,-0.005473322,-0.79090613,-0.0037416555,-2.3499615,0.0071178228,1.580236,0.7792096,0.039999995,0.039999936,-9.856143,0.06967160105705261,0.19142208,0.005276599,-0.09074988961219788,0.032237608
687.0333333330371,-0.005822577,-0.7913043,-0.0039757034,-2.3495703,0.0075522824,1.5808096,0.77878964,0.04,0.039999936,-9.85655,0.07495541870594025,0.20430648,0.005479559,-0.09381169080734253,0.033444677
687.0499999997038,-0.0061853095,-0.7917179,-0.0042187804,-2.349164,0.008003485,1.5814055,0.7783534,0.04,0.039999943,-9.856883,0.08044381439685822,0.21772814,0.0056845597,-0.09691499918699265,0.03465991
687.0666666663705,-0.0065616956,-0.792147,-0.004471006,-2.3487415,0.0084716575,1.5820235,0.7779008,0.04,0.039999932,-9.857257,0.08617262542247772,0.2316614,0.0058921413,-0.10006169974803925,0.035884716
687.0833333330371,-0.0069519044,-0.7925924,-0.0047324905,-2.3483038,0.008957005,1.582664,0.77743167,0.04,0.039999932,-9.85748,0.09211337566375732,0.2461297,0.006101576,-0.10324935615062714,0.037116904
687.0999999997038,-0.0073561016,-0.79305345,-0.0050033457,-2.3478506,0.009459737,1.5833275,0.7769457,0.04,0.039999936,-9.857699,0.09827569127082825,0.26118186,0.0063129007,-0.10647669434547424,0.038355365
687.1166666663704,-0.0077744457,-0.79353106,-0.00528368,-2.3473816,0.009980048,1.5840145,0.77644265,0.04,0.03999993,-9.857971,0.10467538237571716,0.27672496,0.0065257894,-0.10974829643964767,0.03959982
687.1333333330371,-0.008207092,-0.7940252,-0.005573595,-2.346897,0.010518127,1.5847248,0.7759225,0.04,0.03999993,-9.858052,0.11129246652126312,0.29286334,0.00674124,-0.11305505782365799,0.04084889
687.1499999997037,-0.00865419,-0.79453576,-0.005873191,-2.3463957,0.011074157,1.5854583,0.7753849,0.04,0.039999925,-9.858175,0.11813913285732269,0.30956474,0.0069575123,-0.11640312522649765,0.042101048
687.1666666663704,-0.009115876,-0.79506296,-0.0061825663,-2.3458781,0.011648319,1.5862164,0.7748298,0.04,0.03999992,-9.858141,0.12521550059318542,0.32680878,0.007175792,-0.1197895035147667,0.043356203
687.183333333037,-0.009592296,-0.79560715,-0.0065018074,-2.3453434,0.012240784,1.5869983,0.77425694,0.04,0.039999925,-9.858046,0.13252265751361847,0.34460792,0.0073953387,-0.12320839613676071,0.044612683
687.1999999997037,-0.010083576,-0.79616845,-0.006831006,-2.3447921,0.012851709,1.5878048,0.7736663,0.04,0.039999925,-9.857792,0.14005501568317413,0.363028,0.0076164408,-0.12666021287441254,0.045869973
687.2166666663703,-0.010589841,-0.7967469,-0.0071702437,-2.3442242,0.013481255,1.588636,0.7730577,0.04,0.03999992,-9.857381,0.14789403975009918,0.38204238,0.007838053,-0.13014623522758484,0.047126524
687.233333333037,-0.01111121,-0.7973428,-0.0075196037,-2.343639,0.014129571,1.589492,0.77243084,0.04,0.039999917,-9.857252,0.15580932796001434,0.40161377,0.008061004,-0.13366423547267914,0.048381153
687.2499999997036,-0.011647802,-0.79795617,-0.00787916,-2.3430364,0.014796798,1.5903727,0.77178574,0.04,0.039999913,-9.856775,0.16403907537460327,0.42179933,0.008284883,-0.13721153140068054,0.049634535
687.2666666663703,-0.012199724,-0.79858714,-0.008248992,-2.342417,0.015483071,1.5912786,0.7711222,0.04,0.039999913,-9.85624,0.17248794436454773,0.44259536,0.008509358,-0.14078910648822784,0.050883573
687.2833333330369,-0.012767081,-0.79923564,-0.00862916,-2.341781,0.016188521,1.5922098,0.7704402,0.04,0.039999902,-9.855696,0.18117240071296692,0.46398458,0.008734384,-0.14439815282821655,0.052127816
687.2999999997036,-0.013349972,-0.79990184,-0.009019738,-2.3411262,0.016913267,1.5931667,0.7697395,0.04,0.03999991,-9.855059,0.1900906264781952,0.48597813,0.008959599,-0.14803870022296906,0.053367224
687.3166666663702,-0.013948485,-0.8005861,-0.009420789,-2.3404548,0.017657435,1.5941491,0.7690195,0.04,0.039999902,-9.854107,0.19922877848148346,0.5085783,0.0091856,-0.15170155465602875,0.054600418
687.3333333330369,-0.014562715,-0.8012883,-0.009832365,-2.339765,0.018421115,1.5951574,0.7682806,0.04,0.039999906,-9.853279,0.20859384536743164,0.5318225,0.009413969,-0.1553940325975418,0.055825178
687.3499999997035,-0.015192742,-0.8020086,-0.010254528,-2.3390577,0.01920443,1.5961915,0.7675235,0.04,0.039999906,-9.85215,0.2181849479675293,0.5556823,0.009642063,-0.15910954773426056,0.057041246
687.3666666663702,-0.015838644,-0.8027471,-0.010687327,-2.338333,0.020007463,1.5972517,0.7667471,0.04,0.0399999,-9.850955,0.22800546884536743,0.5801698,0.009866976,-0.16284818947315216,0.058248557
687.3833333330368,-0.016500488,-0.8035038,-0.011130811,-2.3375897,0.020830302,1.5983379,0.7659514,0.04,0.039999895,-9.849749,0.2380504608154297,0.60528105,0.01009241,-0.16661393642425537,0.05944529
687.3999999997035,-0.017178347,-0.8042788,-0.011585025,-2.3368292,0.021673037,1.5994506,0.76513666,0.04,0.03999989,-9.848249,0.24830761551856995,0.63103783,0.010318254,-0.17039963603019714,0.060630083
687.4166666663701,-0.017872285,-0.8050722,-0.012050011,-2.3360503,0.02253574,1.6005896,0.76430255,0.04,0.039999887,-9.846755,0.2587932050228119,0.6574129,0.010542331,-0.1742088347673416,0.061802432
687.4333333330368,-0.018582352,-0.80588424,-0.01252581,-2.3352532,0.023418488,1.6017553,0.763449,0.04,0.039999895,-9.8449955,0.269497275352478,0.6844401,0.010766093,-0.17803706228733063,0.06296187
687.4499999997034,-0.019308602,-0.80671483,-0.013012453,-2.3344386,0.024321342,1.6029472,0.762576,0.04,0.039999895,-9.843107,0.2804132103919983,0.7121157,0.010989253,-0.18188317120075226,0.06410695
687.4666666663701,-0.020051084,-0.80756384,-0.013509971,-2.3336048,0.025244359,1.6041658,0.7616835,0.04,0.03999988,-9.84091,0.2916252613067627,0.74045366,0.011211582,-0.18575085699558258,0.0652367
687.4833333330367,-0.020809839,-0.80843145,-0.014018392,-2.3327532,0.026187591,1.6054109,0.7607715,0.04,0.03999988,-9.838858,0.3028784394264221,0.7693914,0.011432413,-0.1896325647830963,0.0663498
687.4999999997034,-0.021584895,-0.8093179,-0.01453774,-2.3318832,0.027151082,1.6066833,0.7598399,0.04,0.039999876,-9.836562,0.3144323527812958,0.7989922,0.011651874,-0.19353361427783966,0.06744621
687.51666666637,-0.022376295,-0.81022304,-0.015068036,-2.3309948,0.02813487,1.6079823,0.7588887,0.04,0.039999872,-9.833999,0.3261881172657013,0.8292634,0.011869938,-0.1974472552537918,0.06852451
687.5333333330367,-0.023184063,-0.811147,-0.0156093,-2.330088,0.029138993,1.6093079,0.75791776,0.04,0.03999987,-9.831246,0.33814167976379395,0.8601859,0.012086057,-0.20137478411197662,0.06958354
687.5499999997033,-0.024008216,-0.8120896,-0.01616155,-2.3291626,0.030163474,1.6106604,0.7569271,0.039999995,0.039999858,-9.82833,0.3502960801124573,0.8917617,0.012300672,-0.20531663298606873,0.07062296
687.56666666637,-0.024848782,-0.8130508,-0.016724791,-2.3282187,0.031208342,1.6120402,0.7559167,0.04,0.03999986,-9.825184,0.36264413595199585,0.92399114,0.012513647,-0.20926985144615173,0.071642
687.5833333330366,-0.025705762,-0.81403106,-0.017299041,-2.3272567,0.0322736,1.6134466,0.7548867,0.04,0.039999858,-9.821879,0.3751906454563141,0.9568528,0.012724268,-0.2132343202829361,0.07263905
687.5999999997033,-0.026579171,-0.8150298,-0.017884297,-2.3262763,0.03335928,1.61488,0.75383687,0.04,0.03999986,-9.818372,0.3879203200340271,0.990418,0.012932004,-0.2172105759382248,0.07361342
687.61666666637,-0.027469007,-0.8160475,-0.018480562,-2.3252773,0.034465346,1.6163399,0.7527674,0.04,0.039999858,-9.814667,0.40083983540534973,1.0245996,0.013137666,-0.22119870781898499,0.07456473
687.6333333330366,-0.02837527,-0.81708395,-0.019087838,-2.32426,0.035591826,1.6178266,0.7516781,0.04,0.03999985,-9.81062,0.413936972618103,1.0594591,0.013340006,-0.2251945585012436,0.07549231
687.6499999997033,-0.02929795,-0.81813926,-0.019706123,-2.3232238,0.036738712,1.6193405,0.75056905,0.04,0.039999854,-9.806446,0.42720869183540344,1.094974,0.013539839,-0.22920028865337372,0.07639434
687.6666666663699,-0.03023705,-0.81921345,-0.020335404,-2.3221698,0.03790599,1.620882,0.7494403,0.04,0.039999846,-9.801922,0.44064971804618835,1.1311325,0.013736921,-0.2332088202238083,0.077271305
687.6833333330366,-0.031192547,-0.8203064,-0.020975683,-2.3210974,0.03909363,1.6224505,0.7482919,0.04,0.039999854,-9.797237,0.45426860451698303,1.1679529,0.013930647,-0.23722165822982788,0.07812138
687.6999999997032,-0.032164425,-0.82141834,-0.021626927,-2.3200066,0.040301614,1.6240454,0.7471238,0.04,0.03999985,-9.792265,0.46804457902908325,1.2054437,0.014120451,-0.24123930931091309,0.078944564
687.7166666663699,-0.03315265,-0.82254875,-0.02228913,-2.318897,0.041529905,1.6256672,0.74593604,0.04,0.039999846,-9.786758,0.48205065727233887,1.2436209,0.014307183,-0.24526140093803406,0.07973938
687.7333333330365,-0.034157205,-0.82369775,-0.022962281,-2.317769,0.042778473,1.627316,0.7447286,0.04,0.039999843,-9.781437,0.49606969952583313,1.2823815,0.014489896,-0.249284565448761,0.080506496
687.7499999997032,-0.035178047,-0.82486546,-0.02364635,-2.3166225,0.044047296,1.6289915,0.7435016,0.04,0.039999846,-9.775647,0.510307788848877,1.3218204,0.014668506,-0.2533091902732849,0.081244215
687.7666666663698,-0.03621515,-0.82605183,-0.024341308,-2.315458,0.0453363,1.6306936,0.74225515,0.04,0.03999984,-9.769493,0.5246782302856445,1.3619215,0.014843452,-0.25733307003974915,0.08195098
687.7833333330365,-0.037268456,-0.82725674,-0.02504714,-2.3142757,0.046645444,1.6324222,0.7409892,0.04,0.03999984,-9.763109,0.539199709892273,1.4026849,0.015013402,-0.2613573670387268,0.08262819
687.7999999997031,-0.03833793,-0.8284801,-0.02576381,-2.3130746,0.04797467,1.6341776,0.7397038,0.04,0.039999828,-9.756453,0.5538589358329773,1.4440708,0.015178781,-0.2653825283050537,0.08327379
687.8166666663698,-0.039423537,-0.8297219,-0.026491288,-2.3118558,0.049323924,1.6359591,0.738399,0.04,0.03999983,-9.74931,0.5686240196228027,1.4861048,0.015339831,-0.2694016993045807,0.083887264
687.8333333330364,-0.04052521,-0.83098227,-0.027229533,-2.310619,0.05069314,1.637767,0.737075,0.04,0.03999983,-9.742025,0.5835224986076355,1.5287917,0.015495284,-0.27342167496681213,0.08446867
687.8499999997031,-0.041642882,-0.8322609,-0.027978502,-2.309364,0.052082237,1.6396012,0.7357316,0.04,0.03999982,-9.734305,0.5985374450683594,1.5721171,0.015645605,-0.2774360775947571,0.085017234
687.8666666663697,-0.04277651,-0.8335578,-0.028738163,-2.3080912,0.053491134,1.6414617,0.73436916,0.04,0.039999817,-9.726247,0.6136536002159119,1.616059,0.015791088,-0.2814449071884155,0.085531116
687.8833333330364,-0.043926008,-0.8348729,-0.02950847,-2.3068004,0.054919768,1.6433482,0.7329877,0.04,0.039999824,-9.717797,0.6288852095603943,1.660644,0.015930578,-0.28544601798057556,0.08601234
687.899999999703,-0.045091324,-0.8362063,-0.030289378,-2.3054922,0.05636804,1.6452606,0.73158693,0.04,0.039999813,-9.709021,0.6441946029663086,1.7058581,0.016064053,-0.2894397974014282,0.08645757
687.9166666663697,-0.04627237,-0.83755755,-0.03108083,-2.3041658,0.05783587,1.6471988,0.7301673,0.04,0.03999981,-9.699927,0.6596185564994812,1.7517121,0.016192598,-0.29342779517173767,0.08686904
687.9333333330363,-0.04746908,-0.8389266,-0.03188278,-2.302822,0.05932314,1.6491625,0.72872895,0.04,0.03999981,-9.690332,0.6751025915145874,1.7981374,0.016315054,-0.2974039614200592,0.08724423
687.949999999703,-0.048681386,-0.8403135,-0.032695185,-2.3014607,0.06082976,1.651152,0.72727174,0.04,0.03999981,-9.680459,0.6906853318214417,1.8452101,0.016430495,-0.3013727366924286,0.08758346
687.9666666663696,-0.049909174,-0.8417183,-0.03351797,-2.300083,0.06235563,1.6531669,0.72579616,0.04,0.03999981,-9.669857,0.706389844417572,1.8928714,0.016539846,-0.3053285777568817,0.087887295
687.9833333330363,-0.05115237,-0.8431408,-0.03435108,-2.2986867,0.063900635,1.6552073,0.72430205,0.04,0.0399998,-9.659507,0.7220460772514343,1.9411803,0.016641272,-0.3092770576477051,0.088153966
687.9999999997029,-0.052410882,-0.84458077,-0.035194453,-2.297274,0.065464675,1.6572728,0.72278947,0.04,0.039999805,-9.648166,0.7377889752388,1.990031,0.01673598,-0.31320473551750183,0.08838255
688.0166666663696,-0.053684615,-0.8460381,-0.03604804,-2.2958434,0.06704762,1.6593632,0.7212585,0.04,0.039999798,-9.636694,0.7536245584487915,2.03952,0.01682365,-0.31712231040000916,0.088575244
688.0333333330362,-0.05497346,-0.8475128,-0.036911763,-2.2943962,0.06864933,1.6614783,0.7197096,0.04,0.039999794,-9.624596,0.7694680690765381,2.0895622,0.016904486,-0.32102280855178833,0.088729106
688.0499999997029,-0.05627733,-0.8490047,-0.037785556,-2.292932,0.07026968,1.6636181,0.7181424,0.04,0.039999794,-9.612157,0.7853677272796631,2.1401963,0.016976813,-0.32490792870521545,0.08884559
688.0666666663695,-0.057596117,-0.85051376,-0.038669355,-2.2914515,0.07190858,1.6657823,0.7165573,0.04,0.03999979,-9.59924,0.8012984991073608,2.1914177,0.017041918,-0.32877635955810547,0.08892372
688.0833333330362,-0.058929704,-0.8520398,-0.039563056,-2.2899537,0.07356588,1.6679709,0.71495456,0.04,0.039999787,-9.585885,0.8172502517700195,2.2432113,0.017099062,-0.33262768387794495,0.08896351
688.0999999997028,-0.060277976,-0.8535825,-0.040466607,-2.2884395,0.075241394,1.670184,0.7133341,0.04,0.03999979,-9.571949,0.8331934809684753,2.2955418,0.017147973,-0.3364572525024414,0.08896398
688.1166666663695,-0.061640825,-0.8551421,-0.04137992,-2.2869089,0.076935016,1.6724205,0.711696,0.03999999,0.039999776,-9.55761,0.849172055721283,2.3484154,0.017188355,-0.34026557207107544,0.08892721
688.1333333330361,-0.06301812,-0.85671824,-0.042302933,-2.2853622,0.07864658,1.6746807,0.7100406,0.03999999,0.039999776,-9.542767,0.8651351928710938,2.401872,0.017220754,-0.34405428171157837,0.0888503
688.1499999997028,-0.064409725,-0.8583108,-0.04323555,-2.2837996,0.08037594,1.6769646,0.7083679,0.04,0.039999783,-9.527474,0.8811053037643433,2.4558442,0.01724426,-0.3478223979473114,0.08873504
688.1666666663695,-0.06581554,-0.8599196,-0.044177692,-2.2822213,0.08212291,1.6792716,0.70667803,0.03999999,0.039999772,-9.511639,0.8970414996147156,2.5103397,0.017259348,-0.35156747698783875,0.0885794
688.1833333330361,-0.06723543,-0.86154443,-0.04512927,-2.2806265,0.08388738,1.6816022,0.7049714,0.039999995,0.039999776,-9.495319,0.9129738807678223,2.5653567,0.01726539,-0.3552907407283783,0.08838556
688.1999999997028,-0.068669274,-0.86318535,-0.04609018,-2.2790158,0.08566918,1.6839556,0.70324796,0.04,0.039999776,-9.478354,0.9288778901100159,2.620865,0.01726191,-0.3589843213558197,0.0881539
688.2166666663694,-0.07011694,-0.86484206,-0.04706036,-2.2773895,0.08746814,1.6863315,0.701508,0.04,0.039999772,-9.460606,0.9447421431541443,2.6768832,0.017249247,-0.3626500070095062,0.08788069
688.2333333330361,-0.07157827,-0.8665145,-0.048039705,-2.2757483,0.08928406,1.6887299,0.6997516,0.04,0.039999772,-9.442946,0.9605451822280884,2.7334385,0.017226318,-0.366290807723999,0.08757053
688.2499999997027,-0.07305312,-0.86820245,-0.049028106,-2.2740917,0.09111679,1.6911503,0.697979,0.03999999,0.03999976,-9.42447,0.9762991070747375,2.7904482,0.017193405,-0.3699047863483429,0.087219484
688.2666666663694,-0.07454135,-0.8699058,-0.05002548,-2.2724202,0.09296613,1.6935929,0.6961902,0.04,0.039999772,-9.405347,0.991990864276886,2.8479254,0.017150953,-0.37348881363868713,0.08683041
688.283333333036,-0.07604282,-0.8716243,-0.05103174,-2.2707338,0.094831906,1.6960571,0.69438547,0.03999999,0.039999757,-9.385768,1.0076320171356201,2.9058733,0.017098393,-0.3770439326763153,0.086401284
688.2999999997027,-0.07755737,-0.87335795,-0.05204677,-2.2690325,0.09671393,1.698543,0.69256496,0.039999988,0.039999753,-9.3655615,1.0231752395629883,2.9642684,0.017035875,-0.3805691599845886,0.08593266
688.3166666663693,-0.07908484,-0.87510645,-0.05307048,-2.2673163,0.098612025,1.7010499,0.6907289,0.039999988,0.03999975,-9.344689,1.038678526878357,3.0231028,0.016963067,-0.3840596377849579,0.08542893
688.333333333036,-0.080625094,-0.8768695,-0.05410274,-2.2655864,0.100525975,1.7035778,0.6888776,0.039999984,0.039999746,-9.323305,1.0540368556976318,3.0823774,0.01688036,-0.3875170350074768,0.08488383
688.3499999997026,-0.082177974,-0.87864697,-0.05514347,-2.2638426,0.102455586,1.7061265,0.68701124,0.03999998,0.03999974,-9.301397,1.0693397521972656,3.1420603,0.016786013,-0.3909437954425812,0.08430161
688.3666666663693,-0.083743304,-0.88043875,-0.056192555,-2.2620845,0.104400665,1.7086955,0.68512976,0.039999973,0.03999973,-9.278876,1.084523320198059,3.2021527,0.016680017,-0.39433753490448,0.08368065
688.3833333330359,-0.085320935,-0.88224465,-0.05724987,-2.2603123,0.10636101,1.7112848,0.68323344,0.039999966,0.039999723,-9.255676,1.0996012687683105,3.26264,0.016563797,-0.39769554138183594,0.08302154
688.3999999997026,-0.08691067,-0.8840643,-0.05831532,-2.2585266,0.108336456,1.7138938,0.68132263,0.03999996,0.039999712,-9.231807,1.1145542860031128,3.3235025,0.01643719,-0.4010152816772461,0.08232718
688.4166666663692,-0.08851238,-0.8858978,-0.05938881,-2.2567275,0.11032675,1.7165225,0.6793974,0.039999954,0.039999705,-9.207439,1.1293694972991943,3.3847415,0.016298926,-0.40429988503456116,0.081593186
688.4333333330359,-0.090125866,-0.88774484,-0.060470175,-2.254915,0.11233167,1.7191708,0.6774579,0.03999994,0.03999969,-9.182374,1.1440627574920654,3.4463444,0.016149245,-0.40754544734954834,0.08082271
688.4499999997025,-0.09175097,-0.88960534,-0.061559334,-2.2530894,0.114351004,1.7218379,0.67550457,0.03999992,0.03999967,-9.156665,1.1586171388626099,3.50827,0.015988788,-0.4107498228549957,0.08001589
688.4666666663692,-0.093387514,-0.89147884,-0.06265615,-2.2512507,0.11638455,1.7245239,0.6735375,0.039999913,0.03999966,-9.130108,1.173030138015747,3.5705397,0.015816811,-0.4139157235622406,0.079173885
688.4833333330358,-0.09503529,-0.8933653,-0.06376053,-2.2493992,0.118432045,1.7272284,0.6715568,0.039999895,0.03999964,-9.103345,1.1872501373291016,3.6331568,0.01563315,-0.417039155960083,0.07829562
688.4999999997025,-0.09669418,-0.89526457,-0.06487233,-2.247536,0.12049331,1.7299513,0.6695628,0.039999884,0.039999627,-9.075711,1.2013347148895264,3.696066,0.015438843,-0.42012059688568115,0.07738313
688.5166666663691,-0.09836397,-0.89717615,-0.06599142,-2.2456608,0.1225681,1.7326919,0.6675557,0.039999865,0.039999608,-9.047514,1.2152637243270874,3.759272,0.01523151,-0.42316123843193054,0.07643512
688.5333333330358,-0.100044444,-0.8991002,-0.06711769,-2.243772,0.12465618,1.73545,0.66553557,0.03999985,0.039999593,-9.018672,1.229007601737976,3.8227427,0.015012641,-0.4261619746685028,0.07545245
688.5499999997024,-0.10173543,-0.9010364,-0.06825103,-2.2418725,0.12675731,1.7382255,0.663503,0.039999835,0.03999958,-8.988839,1.2425304651260376,3.8864613,0.014783648,-0.42911040782928467,0.07443661
688.5666666663691,-0.10343675,-0.9029845,-0.06939129,-2.2399611,0.12887129,1.741018,0.661458,0.03999982,0.039999563,-8.958697,1.2559162378311157,3.950476,0.014541456,-0.43201786279678345,0.073387675
688.5833333330357,-0.10514821,-0.9049441,-0.07053834,-2.238038,0.13099787,1.7438271,0.65940064,0.0399998,0.03999954,-8.927723,1.2690858840942383,4.0146985,0.014287576,-0.4348773658275604,0.07230712
688.5999999997024,-0.106869616,-0.9069152,-0.07169207,-2.236104,0.13313681,1.7466526,0.6573314,0.039999787,0.03999953,-8.896118,1.2820438146591187,4.0791383,0.014022423,-0.43769142031669617,0.071192354
688.616666666369,-0.10860076,-0.90889746,-0.07285236,-2.2341583,0.13528785,1.7494942,0.65525043,0.039999764,0.039999507,-8.86382,1.2948061227798462,4.143786,0.013745368,-0.44045668840408325,0.07004738
688.6333333330357,-0.110341474,-0.9108907,-0.07401904,-2.232202,0.13745078,1.7523516,0.653158,0.03999974,0.039999478,-8.830767,1.307353138923645,4.208608,0.013456317,-0.4431709349155426,0.06887276
688.6499999997023,-0.11209153,-0.9128948,-0.075191975,-2.2302356,0.13962527,1.7552243,0.6510544,0.039999723,0.039999463,-8.797161,1.3196778297424316,4.2736506,0.013155583,-0.4458368122577667,0.06766707
688.666666666369,-0.11385073,-0.9149093,-0.07637109,-2.2282586,0.14181118,1.7581121,0.64893967,0.039999712,0.03999945,-8.762813,1.331780195236206,4.3388443,0.012842542,-0.4484536051750183,0.06643202
688.6833333330356,-0.1156189,-0.9169343,-0.07755617,-2.2262716,0.1440082,1.7610146,0.6468141,0.039999705,0.039999444,-8.727776,1.343651294708252,4.404164,0.012517672,-0.4510190486907959,0.065168016
688.6999999997023,-0.11739581,-0.9189694,-0.07874713,-2.2242749,0.14621606,1.7639308,0.6446781,0.039999694,0.03999943,-8.69204,1.355284333229065,4.469645,0.012181764,-0.45353272557258606,0.06387681
688.716666666369,-0.11918124,-0.92101425,-0.07994379,-2.2222686,0.14843449,1.7668612,0.64253175,0.039999694,0.03999943,-8.65544,1.3666609525680542,4.535183,0.011833366,-0.4559973180294037,0.062557235
688.7333333330356,-0.120975,-0.92306864,-0.081146024,-2.220252,0.15066329,1.7698061,0.6403754,0.039999694,0.03999943,-8.618546,1.3778129816055298,4.600896,0.011474279,-0.45840856432914734,0.061211523
688.7499999997023,-0.12277689,-0.9251324,-0.08235372,-2.218227,0.15290217,1.772763,0.6382094,0.039999686,0.03999942,-8.580622,1.3886839151382446,4.666623,0.0111039225,-0.4607587158679962,0.05984033
688.7666666663689,-0.124586694,-0.9272052,-0.08356674,-2.216193,0.15515092,1.7757347,0.63603395,0.039999682,0.039999418,-8.542229,1.3993291854858398,4.7324886,0.010720423,-0.46306318044662476,0.058443073
688.7833333330356,-0.12640417,-0.92928696,-0.084784895,-2.2141502,0.15740924,1.7787182,0.6338492,0.039999675,0.03999941,-8.502993,1.4097034931182861,4.798329,0.010325603,-0.46530473232269287,0.057022788
688.7999999997022,-0.12822913,-0.93137735,-0.086008064,-2.2120996,0.15967683,1.7817135,0.6316554,0.03999966,0.039999396,-8.463105,1.4198013544082642,4.864254,0.009919629,-0.4674934148788452,0.0555783
688.8166666663689,-0.13006134,-0.933476,-0.087236114,-2.2100403,0.16195343,1.7847211,0.62945276,0.039999664,0.039999403,-8.42263,1.4296427965164185,4.9302197,0.009502167,-0.46963101625442505,0.05410965
688.8333333330355,-0.13190062,-0.9355826,-0.08846888,-2.2079732,0.16423875,1.7877403,0.6272416,0.039999664,0.039999403,-8.381305,1.4391961097717285,4.996104,0.009074262,-0.47170785069465637,0.052621014
688.8499999997022,-0.13374673,-0.9376972,-0.08970622,-2.205898,0.16653255,1.790771,0.6250223,0.03999966,0.0399994,-8.339395,1.4484870433807373,5.062025,0.008635318,-0.4737294614315033,0.051111158
688.8666666663688,-0.13559942,-0.93981963,-0.090947986,-2.2038155,0.16883458,1.7938129,0.622795,0.03999966,0.0399994,-8.296661,1.4574717283248901,5.1279025,0.008185554,-0.47568872570991516,0.049581714
688.8833333330355,-0.13745846,-0.94194937,-0.09219404,-2.2017257,0.17114452,1.796864,0.6205598,0.03999966,0.0399994,-8.253271,1.466170072555542,5.1937447,0.0077257636,-0.477586030960083,0.048033398
688.8999999997021,-0.1393237,-0.9440864,-0.093444236,-2.199629,0.17346212,1.799926,0.6183172,0.039999656,0.039999396,-8.209316,1.4746001958847046,5.2595477,0.0072559486,-0.4794303774833679,0.04646598
688.9166666663688,-0.14119488,-0.94623,-0.09469839,-2.1975253,0.17578714,1.8029976,0.6160682,0.039999664,0.039999407,-8.164593,1.4827179908752441,5.3252378,0.0067757964,-0.48121121525764465,0.044880547
688.9333333330354,-0.14307182,-0.9483802,-0.0959564,-2.195415,0.17811926,1.8060787,0.6138116,0.039999664,0.039999407,-8.11921,1.490555763244629,5.3908286,0.006281955,-0.48293253779411316,0.04327959
688.9499999997021,-0.14495425,-0.9505369,-0.09721808,-2.1932988,0.18045819,1.8091688,0.6115489,0.03999967,0.039999414,-8.073132,1.498092770576477,5.456303,0.0057811057,-0.48459142446517944,0.041663192
688.9666666663687,-0.14684187,-0.9526996,-0.09848327,-2.1911762,0.18280365,1.8122674,0.6092796,0.039999675,0.039999418,-8.026247,1.505297064781189,5.521608,0.0052682613,-0.48618900775909424,0.04003233
688.9833333330354,-0.14873457,-0.95486814,-0.09975185,-2.1890478,0.18515538,1.8153743,0.6070039,0.039999682,0.039999425,-7.9789853,1.5122487545013428,5.5868855,0.004747651,-0.4877236485481262,0.038387593
688.999999999702,-0.15063207,-0.9570424,-0.10102365,-2.186914,0.18751307,1.8184888,0.60472274,0.03999969,0.039999433,-7.9309444,1.518875241279602,5.6519527,0.0042187865,-0.4891969561576843,0.036729645
689.0166666663687,-0.15253414,-0.959222,-0.10229851,-2.1847754,0.18987644,1.821611,0.602436,0.039999697,0.039999444,-7.882181,1.5251866579055786,5.7168345,0.0036795856,-0.49060553312301636,0.03505925
689.0333333330353,-0.15444061,-0.96140665,-0.10357629,-2.1826315,0.19224523,1.8247404,0.60014427,0.039999716,0.039999463,-7.832899,1.5312083959579468,5.7815433,0.0031312737,-0.4919534921646118,0.033378657
689.049999999702,-0.15635109,-0.96359605,-0.10485681,-2.1804833,0.19461915,1.8278769,0.5978474,0.039999735,0.03999948,-7.782826,1.5369088649749756,5.846002,0.002573534,-0.49323564767837524,0.031688496
689.0666666663686,-0.15826546,-0.9657899,-0.106139936,-2.1783302,0.19699785,1.8310198,0.5955459,0.039999753,0.0399995,-7.732225,1.542297601699829,5.9102597,0.00200823,-0.4944535493850708,0.029989205
689.0833333330353,-0.16018353,-0.967988,-0.10742552,-2.1761732,0.19938113,1.8341686,0.5932397,0.039999772,0.03999952,-7.680849,1.5473641157150269,5.9742403,0.0014352133,-0.4956035912036896,0.028282205
689.0999999997019,-0.16210498,-0.97019017,-0.10871337,-2.1740122,0.2017686,1.837323,0.5909297,0.0399998,0.039999552,-7.6290097,1.5521348714828491,6.0380154,0.0008545392,-0.4966915249824524,0.026566602
689.1166666663686,-0.1640296,-0.97239614,-0.11000334,-2.1718473,0.20416005,1.8404825,0.5886158,0.039999835,0.039999586,-7.5764394,1.5565812587738037,6.1015034,0.0002659725,-0.4977131187915802,0.02484725
689.1333333330352,-0.16595718,-0.97460544,-0.111295275,-2.1696792,0.20655513,1.8436469,0.5862982,0.03999987,0.03999962,-7.5232863,1.560718297958374,6.1647077,-0.00032962146,-0.49866917729377747,0.023122123
689.1499999997019,-0.16788745,-0.97681785,-0.112589024,-2.1675076,0.20895368,1.8468158,0.5839774,0.039999895,0.039999638,-7.469535,1.5645323991775513,6.227576,-0.0009316235,-0.4995586574077606,0.021393389
689.1666666663685,-0.16982017,-0.9790334,-0.11388444,-2.165334,0.21135527,1.8499888,0.5816538,0.03999993,0.03999967,-7.415156,1.5680378675460815,6.2901545,-0.0015405588,-0.5003810524940491,0.019660398
689.1833333330352,-0.17175518,-0.9812515,-0.11518136,-2.163157,0.21375962,1.8531656,0.5793273,0.03999997,0.039999716,-7.36031,1.5712308883666992,6.352435,-0.0021566,-0.5011395812034607,0.017923754
689.1999999997018,-0.17369214,-0.98347193,-0.116479605,-2.1609776,0.21616645,1.8563457,0.5769985,0.04,0.03999975,-7.304709,1.5741093158721924,6.4143023,-0.0027776773,-0.5018277764320374,0.016187446
689.2166666663685,-0.17563082,-0.9856943,-0.11777903,-2.1587965,0.21857543,1.8595283,0.5746676,0.04,0.039999757,-7.248519,1.5766164064407349,6.4757404,-0.0034046809,-0.5024489760398865,0.014449794
689.2333333330351,-0.17757104,-0.9879184,-0.11907945,-2.156614,0.22098638,1.8627136,0.5723349,0.04,0.039999772,-7.192036,1.5789434909820557,6.5370026,-0.0040374086,-0.5030062198638916,0.012714153
689.2499999997018,-0.17951256,-0.99014425,-0.12038071,-2.1544297,0.22339892,1.8659012,0.5700005,0.04,0.03999978,-7.134921,1.580889105796814,6.597765,-0.0046757436,-0.5034982562065125,0.010978061
689.2666666663685,-0.1814551,-0.9923713,-0.12168268,-2.1522439,0.22581282,1.8690904,0.56766504,0.04,0.03999978,-7.0771236,1.5825235843658447,6.658113,-0.0053175967,-0.5039194822311401,0.009245885
689.2833333330351,-0.18339849,-0.99459934,-0.1229852,-2.1500568,0.22822769,1.8722808,0.5653285,0.04,0.039999794,-7.018832,1.5838439464569092,6.7180486,-0.0059643984,-0.5042729377746582,0.0075156367
689.2999999997018,-0.18534243,-0.996828,-0.12428813,-2.147869,0.23064333,1.8754725,0.56299126,0.04,0.039999798,-6.960042,1.5848727226257324,6.77756,-0.0066146827,-0.5045586824417114,0.0057907305
689.3166666663684,-0.18728669,-0.9990571,-0.12559125,-2.1456811,0.2330593,1.8786649,0.56065357,0.04,0.039999813,-6.9007635,1.5855931043624878,6.836619,-0.0072687957,-0.5047751665115356,0.0040682745
689.3333333330351,-0.18923102,-1.0012866,-0.12689447,-2.1434927,0.23547544,1.8818573,0.55831575,0.04,0.03999983,-6.8410063,1.5860234498977661,6.8952293,-0.007925373,-0.504925012588501,0.0023544503
689.3499999997017,-0.19117524,-1.0035161,-0.1281975,-2.1413043,0.23789136,1.8850495,0.5559781,0.04,0.039999843,-6.7806845,1.5861517190933228,6.9533706,-0.008584876,-0.505005419254303,0.0006491152
689.3666666663684,-0.19311908,-1.0057448,-0.1295003,-2.1391165,0.24030688,1.8882408,0.5536409,0.04,0.039999876,-6.719882,1.585873007774353,7.0110097,-0.009245944,-0.5050137639045715,-0.0010642644
689.383333333035,-0.19506228,-1.0079731,-0.13080269,-2.1369298,0.24272168,1.8914311,0.5513045,0.04,0.039999895,-6.658815,1.5855509042739868,7.0681815,-0.009910145,-0.5049620270729065,-0.0027470149
689.3999999997017,-0.19700462,-1.0102006,-0.13210446,-2.1347442,0.24513546,1.8946201,0.54896915,0.04,0.03999991,-6.5972004,1.5847262144088745,7.1248517,-0.010576946,-0.5048422813415527,-0.0044360207
689.4166666663683,-0.19894582,-1.012427,-0.13340549,-2.1325593,0.24754785,1.8978072,0.5466351,0.04,0.039999913,-6.5351305,1.5837095975875854,7.181001,-0.011244118,-0.5046551823616028,-0.006106665
689.433333333035,-0.20088571,-1.0146518,-0.13470563,-2.1303759,0.2499587,1.9009922,0.54430264,0.04,0.039999906,-6.4725475,1.5823873281478882,7.2365756,-0.011911867,-0.5043983459472656,-0.0077612796
689.4499999997016,-0.20282404,-1.0168748,-0.1360048,-2.128194,0.25236753,1.9041746,0.54197216,0.04,0.039999902,-6.409696,1.5807846784591675,7.2916484,-0.0125805205,-0.5040757656097412,-0.009406617
689.4666666663683,-0.20476054,-1.0190957,-0.13730274,-2.1260145,0.25477406,1.9073539,0.5396439,0.04,0.039999906,-6.346306,1.5788356065750122,7.3460464,-0.013249692,-0.5036832690238953,-0.01103927
689.4833333330349,-0.20669493,-1.0213143,-0.1385992,-2.1238372,0.25717816,1.91053,0.537318,0.04,0.039999895,-6.282704,1.5767666101455688,7.400099,-0.013918724,-0.503226637840271,-0.012655878
689.4999999997016,-0.20862707,-1.0235307,-0.13989416,-2.1216621,0.25957948,1.9137024,0.53499454,0.04,0.039999895,-6.218688,1.5743354558944702,7.4534793,-0.014586721,-0.5027023553848267,-0.014259259
689.5166666663682,-0.21055669,-1.0257442,-0.14118741,-2.1194906,0.26197773,1.9168705,0.5326745,0.04,0.039999887,-6.154151,1.571606993675232,7.5062785,-0.015251206,-0.5021073222160339,-0.015847934
689.5333333330349,-0.21248354,-1.0279545,-0.14247887,-2.1173213,0.2643726,1.920034,0.53035766,0.04,0.039999895,-6.089534,1.5686758756637573,7.558516,-0.015916714,-0.5014503598213196,-0.01742146
689.5499999997015,-0.21440735,-1.0301615,-0.14376822,-2.1151557,0.26676366,1.923193,0.5280443,0.04,0.03999988,-6.024356,1.5654747486114502,7.610079,-0.01657975,-0.5007227659225464,-0.018975679
689.5666666663682,-0.21632798,-1.0323645,-0.1450554,-2.112993,0.2691507,1.9263465,0.5257348,0.04,0.039999884,-5.9589925,1.5619964599609375,7.661103,-0.017239027,-0.4999287724494934,-0.020513978
689.5833333330348,-0.21824518,-1.0345638,-0.14634031,-2.110835,0.27153364,1.9294944,0.5234294,0.04,0.039999876,-5.8933,1.558304786682129,7.7114344,-0.017895237,-0.4990687072277069,-0.022028245
689.5999999997015,-0.2201586,-1.036759,-0.14762266,-2.108681,0.27391195,1.932636,0.5211286,0.04,0.03999987,-5.8273826,1.554364800453186,7.7612505,-0.018549306,-0.49814456701278687,-0.02352758
689.6166666663681,-0.22206807,-1.03895,-0.14890239,-2.1065307,0.2762854,1.9357712,0.5188325,0.04,0.039999865,-5.7611346,1.55015230178833,7.810379,-0.019199505,-0.49715331196784973,-0.025008142
689.6333333330348,-0.2239734,-1.041136,-0.15017934,-2.1043851,0.2786538,1.9388999,0.5165414,0.04,0.03999986,-5.694545,1.5457011461257935,7.8588405,-0.019844573,-0.4960930645465851,-0.026469002
689.6499999997014,-0.22587435,-1.0433174,-0.15145339,-2.1022444,0.28101674,1.9420215,0.51425546,0.04,0.039999858,-5.627886,1.541076898574829,7.906696,-0.020486185,-0.49496906995773315,-0.027908444
689.6666666663681,-0.22777064,-1.0454932,-0.15272431,-2.1001086,0.28337392,1.9451354,0.5119752,0.04,0.039999846,-5.5608706,1.5362114906311035,7.9539037,-0.02112188,-0.49377644062042236,-0.029324275
689.6833333330347,-0.22966208,-1.0476631,-0.15399194,-2.0979779,0.2857251,1.9482415,0.50970083,0.04,0.039999846,-5.4937515,1.5311180353164673,8.000424,-0.021752642,-0.49252158403396606,-0.030718796
689.6999999997014,-0.23154838,-1.0498278,-0.15525615,-2.095853,0.28806996,1.9513388,0.50743246,0.04,0.03999985,-5.4264226,1.5258214473724365,8.046274,-0.022377959,-0.49120083451271057,-0.032090753
689.716666666368,-0.2334294,-1.0519866,-0.15651679,-2.0937347,0.29040822,1.9544272,0.5051703,0.04,0.039999854,-5.358932,1.520230770111084,8.09146,-0.022996332,-0.4898170530796051,-0.03344013
689.7333333330347,-0.23530497,-1.0541388,-0.15777372,-2.0916224,0.2927397,1.9575068,0.5029153,0.04,0.039999835,-5.291266,1.5146212577819824,8.13612,-0.023607867,-0.488373339176178,-0.03476217
689.7499999997013,-0.23717467,-1.0562847,-0.15902676,-2.0895157,0.295064,1.9605768,0.5006666,0.04,0.03999983,-5.223453,1.5087127685546875,8.179948,-0.024215218,-0.4868645668029785,-0.036060706
689.766666666368,-0.23903833,-1.0584238,-0.16027577,-2.087416,0.29738095,1.9636369,0.49842548,0.04,0.039999828,-5.155459,1.5025938749313354,8.2231245,-0.024811389,-0.4852907657623291,-0.03733651
689.7833333330346,-0.24089582,-1.0605553,-0.16152062,-2.0853233,0.29969016,1.9666872,0.49619186,0.04,0.039999828,-5.0873713,1.4963159561157227,8.265631,-0.025401207,-0.4836544096469879,-0.038584955
689.7999999997013,-0.24274684,-1.0626798,-0.16276115,-2.083238,0.30199146,1.9697264,0.49396592,0.04,0.039999813,-5.019338,1.4898961782455444,8.307447,-0.025984282,-0.4819575250148773,-0.039806504
689.816666666368,-0.24459119,-1.0647968,-0.1639972,-2.0811598,0.30428454,1.9727547,0.49174798,0.04,0.039999805,-4.9511385,1.4832714796066284,8.348594,-0.026558748,-0.4802016615867615,-0.041002754
689.8333333330346,-0.2464287,-1.0669061,-0.16522866,-2.079089,0.30656913,1.9757718,0.48953837,0.04,0.039999805,-4.882828,1.4764683246612549,8.389043,-0.027124008,-0.47838374972343445,-0.04217233
689.8499999997013,-0.24825908,-1.0690072,-0.16645536,-2.0770268,0.30884495,1.978777,0.48733732,0.04,0.039999794,-4.8144007,1.4694944620132446,8.428755,-0.027680086,-0.4765012860298157,-0.043316174
689.8666666663679,-0.25008214,-1.0711001,-0.16767713,-2.0749726,0.31111172,1.9817702,0.48514494,0.04,0.039999794,-4.7462163,1.4624276161193848,8.467862,-0.028228113,-0.4745655655860901,-0.044433042
689.8833333330346,-0.2518977,-1.0731844,-0.16889384,-2.072927,0.31336904,1.984751,0.4829617,0.04,0.039999805,-4.6777606,1.455148696899414,8.506189,-0.028764766,-0.47256678342819214,-0.045521785
689.8999999997012,-0.2537055,-1.0752598,-0.17010535,-2.07089,0.3156169,1.9877197,0.48078778,0.04,0.039999794,-4.609449,1.4477698802947998,8.543856,-0.029291933,-0.47051122784614563,-0.046580072
689.9166666663679,-0.25550526,-1.0773262,-0.17131151,-2.0688617,0.31785485,1.9906754,0.4786234,0.04,0.039999798,-4.5411406,1.4402519464492798,8.580815,-0.02980931,-0.4683961868286133,-0.047611006
689.9333333330345,-0.25729695,-1.0793829,-0.17251223,-2.0668426,0.32008266,1.9936173,0.47646883,0.04,0.039999794,-4.472761,1.4325783252716064,8.617057,-0.030314848,-0.46621936559677124,-0.0486122
689.9499999997012,-0.2590803,-1.0814309,-0.1737073,-2.064833,0.3223001,1.9965456,0.47432432,0.04,0.039999794,-4.4045625,1.4248182773590088,8.652629,-0.030810127,-0.4639897346496582,-0.049584243
689.9666666663678,-0.260855,-1.0834687,-0.17489664,-2.0628326,0.32450688,1.9994601,0.47219005,0.04,0.039999794,-4.3364286,1.4168331623077393,8.687469,-0.031293396,-0.46170076727867126,-0.050524227
689.9833333330345,-0.26262084,-1.0854963,-0.17608005,-2.060842,0.32670274,2.0023596,0.4700664,0.04,0.039999787,-4.2681937,1.4088718891143799,8.72167,-0.031764146,-0.4593532979488373,-0.051435884
689.9999999997011,-0.2643777,-1.0875138,-0.17725742,-2.0588622,0.3288875,2.005244,0.46795353,0.04,0.03999979,-4.2002254,1.4007554054260254,8.755159,-0.03222328,-0.4569549560546875,-0.0523182
690.0166666663678,-0.26612538,-1.0895208,-0.17842864,-2.056892,0.33106086,2.0081136,0.46585178,0.04,0.039999798,-4.132402,1.3925426006317139,8.787989,-0.032670505,-0.45450377464294434,-0.0531706
690.0333333330344,-0.26786366,-1.0915171,-0.17959352,-2.0549326,0.3332225,2.0109682,0.46376133,0.04,0.03999979,-4.064562,1.3842291831970215,8.820054,-0.033105217,-0.4519951641559601,-0.05399218
690.0499999997011,-0.26959234,-1.0935024,-0.18075198,-2.0529835,0.33537227,2.013807,0.4616824,0.04,0.039999787,-3.996963,1.3758244514465332,8.851469,-0.033526886,-0.4494321644306183,-0.0547813
690.0666666663677,-0.27131128,-1.0954767,-0.1819039,-2.0510457,0.3375099,2.0166304,0.45961532,0.04,0.039999783,-3.929483,1.3673399686813354,8.882183,-0.033935472,-0.44681528210639954,-0.05554025
690.0833333330344,-0.27302012,-1.0974395,-0.18304908,-2.0491195,0.3396352,2.019437,0.4575602,0.04,0.039999787,-3.862164,1.3587791919708252,8.912241,-0.034330968,-0.4441431164741516,-0.05626807
690.099999999701,-0.2747188,-1.0993905,-0.18418741,-2.0472043,0.34174785,2.022226,0.4555174,0.04,0.039999783,-3.795161,1.3501631021499634,8.941628,-0.034713395,-0.4414232671260834,-0.056963168
690.1166666663677,-0.27640712,-1.1013294,-0.18531878,-2.0453007,0.34384763,2.0249984,0.4534871,0.04,0.039999794,-3.7282784,1.341454029083252,8.970326,-0.035082173,-0.43865451216697693,-0.05763142
690.1333333330343,-0.27808484,-1.1032565,-0.18644309,-2.0434096,0.34593433,2.0277538,0.45146945,0.04,0.039999787,-3.6616726,1.3327125310897827,8.9983425,-0.03543732,-0.4358369708061218,-0.058265395
690.149999999701,-0.27975184,-1.1051713,-0.1875602,-2.0415297,0.3480077,2.0304916,0.44946468,0.04,0.03999979,-3.5952897,1.323927879333496,9.025721,-0.035779,-0.43296903371810913,-0.05886725
690.1666666663676,-0.28140777,-1.1070737,-0.18866995,-2.0396624,0.3500675,2.033211,0.44747302,0.04,0.039999783,-3.5289764,1.3150413036346436,9.052374,-0.036104653,-0.4300476014614105,-0.059437547
690.1833333330343,-0.28305265,-1.1089633,-0.18977222,-2.0378072,0.35211352,2.035912,0.44549492,0.04,0.03999979,-3.4631677,1.3061444759368896,9.0784445,-0.036416292,-0.42708173394203186,-0.059980415
690.1999999997009,-0.28468627,-1.1108398,-0.19086693,-2.0359652,0.35414553,2.038595,0.44353032,0.04,0.03999978,-3.3975177,1.2972110509872437,9.103826,-0.036713675,-0.4240688979625702,-0.060487453
690.2166666663676,-0.2863084,-1.1127036,-0.19195394,-2.0341365,0.35616335,2.0412586,0.44157952,0.04,0.039999787,-3.3324494,1.288196086883545,9.128548,-0.03699664,-0.4210088551044464,-0.06096674
690.2333333330342,-0.28791887,-1.1145539,-0.19303314,-2.0323207,0.35816664,2.0439034,0.43964282,0.04,0.039999787,-3.2672446,1.2792596817016602,9.1527405,-0.037265077,-0.4179059863090515,-0.061413944
690.2499999997009,-0.28951743,-1.1163906,-0.19410443,-2.0305178,0.36015537,2.0465288,0.4377203,0.04,0.03999979,-3.2025585,1.2702585458755493,9.176186,-0.03751841,-0.4147573411464691,-0.061828043
690.2666666663675,-0.29110402,-1.1182135,-0.19516762,-2.0287278,0.36212918,2.0491343,0.43581223,0.04,0.039999787,-3.13816,1.2612180709838867,9.199004,-0.03775633,-0.4115616977214813,-0.062211946
690.2833333330342,-0.29267848,-1.1200228,-0.19622266,-2.026952,0.36408788,2.0517201,0.43391886,0.04,0.039999798,-3.0740967,1.2521342039108276,9.22121,-0.037977967,-0.4083215892314911,-0.062566616
690.2999999997008,-0.29424056,-1.121818,-0.19726938,-2.0251904,0.36603123,2.0542855,0.4320404,0.04,0.039999794,-3.0105135,1.243127465248108,9.242867,-0.038185593,-0.4050402045249939,-0.062887855
690.3166666663675,-0.29579026,-1.1235988,-0.19830778,-2.0234425,0.36795902,2.0568302,0.4301767,0.04,0.039999794,-2.9472282,1.2340701818466187,9.26388,-0.038377523,-0.4017178416252136,-0.06317835
690.3333333330341,-0.29732716,-1.1253651,-0.19933768,-2.021709,0.36987123,2.0593543,0.42832828,0.04,0.039999794,-2.8843703,1.2250254154205322,9.2843075,-0.038553327,-0.39835596084594727,-0.06343825
690.3499999997008,-0.29885125,-1.1271169,-0.20035902,-2.0199897,0.37176752,2.0618572,0.4264953,0.04,0.039999794,-2.821872,1.2159733772277832,9.304101,-0.038713183,-0.39495164155960083,-0.06366871
690.3666666663675,-0.30036253,-1.1288537,-0.2013716,-2.0182853,0.37364766,2.0643392,0.42467794,0.04,0.03999979,-2.7597783,1.2069509029388428,9.323344,-0.038857866,-0.39150792360305786,-0.06386805
690.3833333330341,-0.30186045,-1.1305752,-0.20237543,-2.0165951,0.3755114,2.0667996,0.42287636,0.04,0.039999794,-2.6982064,1.197972059249878,9.342013,-0.038987353,-0.38802778720855713,-0.064034596
690.3999999997008,-0.30334514,-1.1322815,-0.20337035,-2.0149202,0.37735882,2.069238,0.42109078,0.04,0.0399998,-2.636983,1.1889644861221313,9.360062,-0.039100453,-0.38450703024864197,-0.064175084
690.4166666663674,-0.30481648,-1.1339729,-0.20435624,-2.0132606,0.37918952,2.0716538,0.41932136,0.04,0.039999798,-2.5762756,1.180016040802002,9.377634,-0.039198868,-0.38095322251319885,-0.06428436
690.433333333034,-0.30627415,-1.1356485,-0.2053331,-2.0116162,0.38100344,2.0740476,0.4175682,0.04,0.039999813,-2.5159314,1.1710704565048218,9.394632,-0.039281018,-0.37736403942108154,-0.06436487
690.4499999997007,-0.30771813,-1.1373082,-0.20630075,-2.009987,0.3828003,2.0764194,0.41583163,0.04,0.039999835,-2.4561841,1.1621743440628052,9.411066,-0.03934802,-0.3737400472164154,-0.064421095
690.4666666663674,-0.30914825,-1.1389525,-0.20725906,-2.0083733,0.38458,2.0787683,0.4141117,0.04,0.039999828,-2.3971026,1.1532964706420898,9.426947,-0.03939975,-0.37007978558540344,-0.06444359
690.483333333034,-0.31056437,-1.1405807,-0.20820805,-2.0067751,0.38634238,2.0810938,0.41240862,0.04,0.03999984,-2.3378942,1.1444884538650513,9.442314,-0.039434187,-0.3663840889930725,-0.06443604
690.4999999997007,-0.3119664,-1.1421927,-0.20914754,-2.0051935,0.38808727,2.0833962,0.41072246,0.04,0.03999984,-2.279595,1.1357320547103882,9.457186,-0.039453898,-0.3626592457294464,-0.06440043
690.5166666663673,-0.3133542,-1.1437886,-0.21007748,-2.0036275,0.38981444,2.085675,0.40905347,0.04,0.039999846,-2.2218196,1.1270116567611694,9.4715805,-0.03945853,-0.3589032292366028,-0.0643386
690.533333333034,-0.31472763,-1.1453676,-0.21099778,-2.0020776,0.3915237,2.0879304,0.4074017,0.04,0.039999843,-2.1645021,1.118344783782959,9.485425,-0.03944721,-0.35511744022369385,-0.064246915
690.5499999997006,-0.31608653,-1.1469302,-0.21190837,-2.0005445,0.39321503,2.0901623,0.40576744,0.04,0.039999846,-2.107764,1.1097341775894165,9.498781,-0.03942009,-0.3513019382953644,-0.06412811
690.5666666663673,-0.31743085,-1.1484762,-0.21280919,-1.9990282,0.3948882,2.0923698,0.4041507,0.04,0.039999846,-2.0515954,1.1011906862258911,9.511713,-0.03937899,-0.3474596440792084,-0.063981935
690.5833333330339,-0.31876042,-1.1500049,-0.21370012,-1.9975278,0.3965431,2.0945532,0.40255168,0.04,0.039999843,-1.9959456,1.0927019119262695,9.524147,-0.03932235,-0.34359005093574524,-0.06380996
690.5999999997006,-0.3200752,-1.151517,-0.21458113,-1.9960448,0.3981796,2.0967124,0.40097052,0.04,0.03999985,-1.9408554,1.0842868089675903,9.53606,-0.039250657,-0.339692622423172,-0.06361061
690.6166666663672,-0.32137504,-1.1530114,-0.21545213,-1.9945773,0.3997975,2.0988472,0.3994074,0.04,0.039999846,-1.8863013,1.0759203433990479,9.547618,-0.03916408,-0.33576956391334534,-0.0633857
690.6333333330339,-0.32265976,-1.1544895,-0.21631302,-1.993128,0.4013966,2.1009567,0.3978623,0.04,0.03999986,-1.8323308,1.0676378011703491,9.5585985,-0.039062377,-0.33181890845298767,-0.06313494
690.6499999997005,-0.32392934,-1.1559497,-0.21716373,-1.9916945,0.40297693,2.103042,0.39633557,0.04,0.039999858,-1.7789478,1.0593984127044678,9.569341,-0.038945206,-0.32784780859947205,-0.062858745
690.6666666663672,-0.3251837,-1.1573919,-0.21800426,-1.9902791,0.4045383,2.1051018,0.394827,0.04,0.039999872,-1.7261022,1.0512535572052002,9.579455,-0.038813215,-0.32384738326072693,-0.062558435
690.6833333330338,-0.32642257,-1.1588173,-0.2188345,-1.9888802,0.4060806,2.1071367,0.3933369,0.04,0.039999865,-1.6741595,1.0432642698287964,9.589334,-0.03866839,-0.3198338449001312,-0.06223175
690.6999999997005,-0.3276461,-1.1602248,-0.21965437,-1.9874991,0.40760368,2.1091466,0.39186552,0.04,0.03999987,-1.6223488,1.035207748413086,9.598678,-0.038506366,-0.31579071283340454,-0.061881673
690.7166666663671,-0.32885405,-1.1616143,-0.22046381,-1.9861354,0.40910763,2.1111302,0.3904128,0.04,0.039999865,-1.5717695,1.0273154973983765,9.607753,-0.038332038,-0.3117285370826721,-0.061506905
690.7333333330338,-0.33004642,-1.1629856,-0.22126278,-1.9847895,0.4105922,2.1130886,0.38897884,0.04,0.039999872,-1.521216,1.0195475816726685,9.616349,-0.038144257,-0.3076513409614563,-0.061110895
690.7499999997004,-0.33122316,-1.1643392,-0.22205123,-1.9834615,0.41205713,2.1150212,0.3875638,0.04,0.039999872,-1.4715945,1.0118426084518433,9.624632,-0.037943065,-0.3035573661327362,-0.060692087
690.7666666663671,-0.33238393,-1.1656747,-0.22282909,-1.9821508,0.41350245,2.1169283,0.38616768,0.04,0.039999872,-1.4225045,1.004215121269226,9.632531,-0.03772835,-0.2994444966316223,-0.060249936
690.7833333330337,-0.33352897,-1.1669918,-0.22359632,-1.9808584,0.41492808,2.1188087,0.38479066,0.04,0.03999987,-1.374057,0.9966602921485901,9.640039,-0.037499294,-0.2953133285045624,-0.059786007
690.7999999997004,-0.3346579,-1.168291,-0.22435293,-1.9795834,0.41633394,2.1206634,0.38343278,0.04,0.03999987,-1.3264098,0.9892424941062927,9.647291,-0.037258316,-0.2911738157272339,-0.0593009
690.816666666367,-0.335771,-1.1695714,-0.2250988,-1.9783266,0.4177199,2.1224911,0.38209414,0.04,0.039999884,-1.2791536,0.9818549752235413,9.654103,-0.037002895,-0.2870129346847534,-0.058796577
690.8333333330337,-0.33686802,-1.1708335,-0.22583397,-1.977088,0.4190859,2.1242929,0.3807749,0.04,0.039999884,-1.2328488,0.9746221303939819,9.66068,-0.036735963,-0.2828460931777954,-0.058272645
690.8499999997003,-0.33794895,-1.1720773,-0.22655834,-1.9758675,0.42043188,2.126068,0.3794749,0.04,0.039999887,-1.1870544,0.9674853086471558,9.666922,-0.03645732,-0.2786661386489868,-0.057728544
690.866666666367,-0.3390138,-1.1733027,-0.22727188,-1.9746654,0.4217578,2.1278164,0.37819436,0.04,0.039999887,-1.1419239,0.9604329466819763,9.672846,-0.036165897,-0.2744753956794739,-0.057163153
690.8833333330336,-0.34006235,-1.1745094,-0.22797458,-1.9734814,0.42306346,2.129539,0.3769333,0.04,0.039999895,-1.097491,0.9534619450569153,9.678496,-0.0358626,-0.27027538418769836,-0.056581598
690.8999999997003,-0.3410947,-1.1756974,-0.22866638,-1.9723158,0.424349,2.1312344,0.37569177,0.04,0.039999887,-1.0536985,0.9466320276260376,9.683815,-0.03554733,-0.26606395840644836,-0.055977985
690.916666666367,-0.3421107,-1.176867,-0.22934724,-1.9711686,0.4256144,2.1329029,0.37446988,0.04,0.039999895,-1.0106678,0.939877986907959,9.6889105,-0.035221167,-0.261848121881485,-0.055360056
690.9333333330336,-0.34311044,-1.1780176,-0.23001717,-1.9700398,0.42685944,2.1345453,0.37326756,0.04,0.039999895,-0.968263,0.9332326650619507,9.693721,-0.034884017,-0.2576262652873993,-0.054722987
690.9499999997003,-0.34409377,-1.1791492,-0.23067617,-1.9689293,0.42808416,2.1361601,0.37208498,0.04,0.03999989,-0.92654884,0.9267086982727051,9.698252,-0.034536164,-0.2533959448337555,-0.054068338
690.9666666663669,-0.34506074,-1.180262,-0.23132414,-1.9678373,0.42928845,2.1377485,0.3709221,0.04,0.03999991,-0.88589215,0.9202390313148499,9.702607,-0.034177974,-0.2491641789674759,-0.053402733
690.9833333330336,-0.34601125,-1.1813558,-0.23196113,-1.9667639,0.4304723,2.1393096,0.36977896,0.04,0.039999902,-0.84524685,0.9139565825462341,9.706592,-0.033809636,-0.2449275404214859,-0.052717526
690.9999999997002,-0.34694538,-1.1824311,-0.2325871,-1.965709,0.43163568,2.1408432,0.36865547,0.04,0.039999902,-0.80567515,0.9077463150024414,9.71045,-0.03343165,-0.24069266021251678,-0.05201852
691.0166666663669,-0.34786305,-1.1834877,-0.23320207,-1.9646726,0.43277863,2.1423507,0.36755192,0.04,0.039999906,-0.76669323,0.9016084671020508,9.714055,-0.033042826,-0.23645639419555664,-0.051305704
691.0333333330335,-0.3487642,-1.1845251,-0.233806,-1.9636546,0.43390107,2.143832,0.36646807,0.04,0.03999991,-0.7284533,0.8956201076507568,9.717443,-0.032645915,-0.2322174608707428,-0.05057779
691.0499999997002,-0.349649,-1.1855437,-0.23439893,-1.9626551,0.43500316,2.1452851,0.36540398,0.04,0.039999902,-0.6908885,0.8897340893745422,9.720599,-0.032239042,-0.22797651588916779,-0.049833965
691.0666666663668,-0.35051724,-1.1865433,-0.23498087,-1.9616742,0.4360848,2.146711,0.36435974,0.04,0.03999991,-0.6540837,0.8839438557624817,9.723602,-0.031823814,-0.22374141216278076,-0.049080092
691.0833333330335,-0.35136905,-1.1875237,-0.23555176,-1.9607123,0.4371459,2.14811,0.36333525,0.04,0.039999917,-0.6179657,0.8782671689987183,9.726421,-0.03140103,-0.21951064467430115,-0.048315324
691.0999999997001,-0.35220444,-1.1884855,-0.23611158,-1.9597685,0.43818656,2.1494815,0.36233056,0.04,0.039999913,-0.5826981,0.8727417588233948,9.72908,-0.03097111,-0.21528947353363037,-0.047538754
691.1166666663668,-0.3530233,-1.1894286,-0.2366604,-1.9588435,0.43920672,2.150827,0.36134574,0.04,0.03999992,-0.5478924,0.8672448396682739,9.731503,-0.030532392,-0.21107147634029388,-0.04675158
691.1333333330334,-0.35382584,-1.1903529,-0.23719823,-1.957937,0.44020644,2.152145,0.36038062,0.04,0.03999991,-0.51389873,0.8619115352630615,9.733802,-0.030087097,-0.20685921609401703,-0.04595375
691.1499999997001,-0.3546119,-1.1912584,-0.23772506,-1.9570489,0.44118586,2.153436,0.35943523,0.04,0.039999913,-0.48058066,0.856671154499054,9.735938,-0.029634586,-0.20265556871891022,-0.045145795
691.1666666663667,-0.35538155,-1.192145,-0.23824091,-1.9561794,0.4421448,2.1547,0.35850954,0.04,0.039999913,-0.44797722,0.8515368103981018,9.737912,-0.029175533,-0.1984613835811615,-0.044329908
691.1833333330334,-0.35613498,-1.1930127,-0.2387458,-1.9553283,0.4430835,2.1559372,0.35760346,0.04,0.039999917,-0.41616255,0.8465215563774109,9.739768,-0.028710417,-0.19427965581417084,-0.043506347
691.1999999997,-0.35687202,-1.1938616,-0.23923984,-1.9544957,0.44400185,2.157148,0.35671705,0.04,0.03999992,-0.38498238,0.8416250944137573,9.741483,-0.028239533,-0.1901102215051651,-0.042673584
691.2166666663667,-0.35759282,-1.1946918,-0.23972294,-1.9536815,0.4449,2.1583316,0.35585016,0.04,0.039999943,-0.3548566,0.8368178606033325,9.74314,-0.027764248,-0.18595315515995026,-0.04183742
691.2333333330333,-0.35829744,-1.1955034,-0.24019516,-1.9528853,0.4457779,2.159489,0.35500276,0.04,0.03999995,-0.32480037,0.8321507573127747,9.744527,-0.027283447,-0.181812584400177,-0.040991966
691.2499999997,-0.35898596,-1.1962963,-0.24065655,-1.9521075,0.4466357,2.16062,0.35417482,0.04,0.039999947,-0.2957067,0.8275740146636963,9.745858,-0.026797451,-0.17768704891204834,-0.040137805
691.2666666663666,-0.35965833,-1.1970708,-0.2411072,-1.9513482,0.44747347,2.161724,0.35336623,0.04,0.03999995,-0.26737297,0.8231139183044434,9.747101,-0.026307665,-0.173577219247818,-0.03927916
691.2833333330333,-0.36031458,-1.1978273,-0.2415471,-1.9506067,0.44829133,2.162802,0.35257688,0.04,0.039999954,-0.23975116,0.8187577128410339,9.748281,-0.025814593,-0.16948944330215454,-0.038416285
691.2999999996999,-0.36095488,-1.1985652,-0.24197626,-1.9498832,0.44908926,2.163854,0.3518068,0.04,0.039999954,-0.2126826,0.81447434425354,9.7493,-0.025316793,-0.16541741788387299,-0.03754926
691.3166666663666,-0.36157936,-1.1992843,-0.2423948,-1.9491775,0.4498674,2.1648793,0.3510557,0.04,0.039999958,-0.18641847,0.8103251457214355,9.750245,-0.024815876,-0.16136591136455536,-0.036679022
691.3333333330332,-0.36218798,-1.1999857,-0.24280268,-1.9484899,0.45062584,2.1658788,0.3503238,0.04,0.039999966,-0.16094732,0.8063141107559204,9.751126,-0.02431263,-0.157340869307518,-0.035804525
691.3499999996999,-0.36278078,-1.2006687,-0.24320005,-1.94782,0.45136458,2.1668522,0.34961075,0.04,0.039999966,-0.13600056,0.8023486137390137,9.751942,-0.023807026,-0.15333795547485352,-0.03492749
691.3666666663665,-0.36335796,-1.201334,-0.24358703,-1.9471678,0.4520839,2.1678002,0.3489165,0.04,0.039999966,-0.111848734,0.7985332608222961,9.752652,-0.023299184,-0.1493610292673111,-0.03404933
691.3833333330332,-0.36391956,-1.2019815,-0.24396355,-1.9465328,0.4527839,2.1687226,0.34824094,0.04,0.03999998,-0.088279076,0.7948007583618164,9.753323,-0.02278992,-0.145408496260643,-0.03317011
691.3999999996998,-0.3644657,-1.2026112,-0.24432969,-1.9459155,0.45346472,2.16962,0.34758407,0.04,0.03999998,-0.06537203,0.7911525964736938,9.753905,-0.022279,-0.1414812207221985,-0.032290377
691.4166666663665,-0.36499655,-1.2032231,-0.2446855,-1.9453156,0.45412636,2.1704924,0.34694567,0.04,0.03999998,-0.04324373,0.787638783454895,9.754443,-0.021767804,-0.13758283853530884,-0.031410042
691.4333333330331,-0.36551216,-1.2038175,-0.24503112,-1.9447328,0.45476905,2.1713395,0.3463255,0.039999995,0.039999973,-0.021750316,0.784220278263092,9.754944,-0.021256268,-0.13371506333351135,-0.030529222
691.4499999996998,-0.36601266,-1.2043947,-0.24536662,-1.944167,0.4553929,2.1721616,0.34572357,0.04,0.03999998,-0.0009218976,0.7808940410614014,9.755386,-0.020744275,-0.1298791617155075,-0.029650712
691.4666666663665,-0.36649808,-1.2049545,-0.24569209,-1.9436184,0.45599803,2.172959,0.34513965,0.039999995,0.03999998,0.018986098,0.7776504158973694,9.755885,-0.020232767,-0.12607569992542267,-0.02877446
691.4833333330331,-0.36696872,-1.2054969,-0.24600756,-1.9430863,0.4565847,2.1737325,0.3445736,0.03999999,0.03999998,0.038736857,0.7745446562767029,9.7561865,-0.019722411,-0.12230898439884186,-0.0279016
691.4999999996998,-0.3674246,-1.2060227,-0.24631318,-1.9425708,0.457153,2.174482,0.34402522,0.039999995,0.039999988,0.057616897,0.7715156078338623,9.756483,-0.01921276,-0.11857500672340393,-0.027031027
691.5166666663664,-0.3678659,-1.2065314,-0.24660905,-1.9420719,0.45770317,2.175207,0.3434945,0.039999995,0.039999988,0.075918384,0.7685742974281311,9.756775,-0.018703999,-0.11487556993961334,-0.026161762
691.533333333033,-0.36829275,-1.2070236,-0.24689521,-1.9415892,0.4582353,2.175908,0.34298113,0.03999999,0.039999988,0.0933737,0.765765368938446,9.7570915,-0.018198987,-0.11122066527605057,-0.025299562
691.5499999996997,-0.36870527,-1.2074994,-0.24717182,-1.9411229,0.45874962,2.176586,0.34248492,0.039999988,0.039999988,0.11040184,0.7629904747009277,9.757334,-0.017694999,-0.1076032966375351,-0.024442095
691.5666666663664,-0.3691036,-1.2079592,-0.24743892,-1.9406723,0.45924634,2.1772408,0.34200564,0.039999988,0.039999988,0.12667544,0.7603675723075867,9.757575,-0.017194265,-0.10402735322713852,-0.023588452
691.583333333033,-0.36948806,-1.2084025,-0.24769667,-1.9402374,0.45972568,2.1778727,0.34154323,0.039999977,0.03999998,0.14244983,0.7577725052833557,9.757778,-0.016695386,-0.10049159824848175,-0.022742493
691.5999999996997,-0.3698587,-1.20883,-0.24794517,-1.9398183,0.4601877,2.178482,0.34109744,0.039999995,0.04,0.15748933,0.755309522151947,9.757979,-0.016200697,-0.09700040519237518,-0.021903375
691.6166666663663,-0.37021568,-1.2092419,-0.24818455,-1.9394145,0.46063292,2.1790688,0.34066805,0.039999973,0.03999998,0.1719749,0.7529513835906982,9.758194,-0.015709981,-0.09355592727661133,-0.021068344
691.633333333033,-0.37055913,-1.2096381,-0.24841492,-1.939026,0.46106127,2.1796339,0.3402548,0.039999984,0.039999995,0.18581994,0.7506442666053772,9.758394,-0.015223886,-0.09015950560569763,-0.020244554
691.6499999996996,-0.37088937,-1.2100194,-0.24863647,-1.9386524,0.46147317,2.180177,0.3398575,0.039999988,0.04,0.19910733,0.7484568357467651,9.758576,-0.014742331,-0.08681011199951172,-0.019427396
691.6666666663663,-0.37120646,-1.2103857,-0.24884915,-1.9382937,0.46186882,2.1806984,0.33947593,0.039999984,0.04,0.21183118,0.7463281154632568,9.758758,-0.014265771,-0.08350995928049088,-0.018620325
691.6833333330329,-0.3715108,-1.2107371,-0.24905322,-1.9379494,0.46224838,2.1811981,0.33910987,0.039999977,0.03999999,0.22396362,0.7442591190338135,9.758959,-0.01379434,-0.0802629366517067,-0.017823627
691.6999999996996,-0.37180242,-1.2110739,-0.24924883,-1.9376193,0.46261188,2.1816769,0.3387591,0.03999998,0.04,0.23549366,0.7422962784767151,9.759162,-0.0133289145,-0.0770706832408905,-0.017039621
691.7166666663662,-0.3720816,-1.2113962,-0.24943608,-1.9373033,0.46296018,2.1821353,0.33842316,0.039999977,0.039999995,0.24621283,0.7404153347015381,9.759434,-0.012868909,-0.07393623888492584,-0.016263323
691.7333333330329,-0.3723486,-1.2117043,-0.24961516,-1.9370015,0.46329322,2.1825745,0.338102,0.03999998,0.04,0.25688934,0.7386191487312317,9.759541,-0.0124158235,-0.07085498422384262,-0.015501598
691.7499999996995,-0.37260357,-1.2119985,-0.24978621,-1.9367129,0.46361127,2.1829934,0.33779523,0.039999973,0.04,0.26671812,0.7369341850280762,9.759774,-0.011970761,-0.06783179938793182,-0.014749881
691.7666666663662,-0.3728468,-1.2122794,-0.24994935,-1.9364376,0.46391457,2.183393,0.33750263,0.039999977,0.04,0.27606857,0.7352896332740784,9.759993,-0.0115327425,-0.06487007439136505,-0.0140106
691.7833333330328,-0.3730784,-1.2125466,-0.25010473,-1.9361753,0.46420357,2.1837738,0.33722383,0.039999977,0.04,0.28497937,0.7336857914924622,9.760205,-0.011101101,-0.06196645647287369,-0.013283671
691.7999999996995,-0.37329873,-1.2128015,-0.25025257,-1.9359261,0.46447852,2.184136,0.3369586,0.039999977,0.04,0.2931773,0.7322095632553101,9.760466,-0.0106782885,-0.05912904068827629,-0.01257188
691.8166666663661,-0.37350804,-1.2130433,-0.250393,-1.9356893,0.4647398,2.1844802,0.33670673,0.03999997,0.04,0.30110988,0.7307506203651428,9.760721,-0.010263087,-0.056352052837610245,-0.01187432
691.8333333330328,-0.37370652,-1.2132727,-0.25052625,-1.9354645,0.46498758,2.1848068,0.33646777,0.03999996,0.03999999,0.30835882,0.7294086217880249,9.761015,-0.009857952,-0.05364253371953964,-0.011191938
691.8499999996994,-0.3738946,-1.2134899,-0.25065243,-1.9352514,0.46522218,2.1851156,0.33624148,0.039999966,0.04,0.31520602,0.7281181216239929,9.7612705,-0.009461252,-0.050998423248529434,-0.010526431
691.8666666663661,-0.37407243,-1.2136954,-0.2507718,-1.9350498,0.46544412,2.1854079,0.3360275,0.039999966,0.04,0.32155645,0.7268807291984558,9.761579,-0.009073709,-0.04842593893408775,-0.009875368
691.8833333330327,-0.37424022,-1.2138895,-0.25088447,-1.9348596,0.4656537,2.185684,0.33582547,0.03999996,0.039999995,0.32749376,0.7257199287414551,9.761902,-0.008696242,-0.04592275992035866,-0.0092397835
691.8999999996994,-0.37439832,-1.2140723,-0.25099066,-1.9346805,0.46585113,2.1859436,0.33563516,0.03999996,0.039999995,0.33294457,0.7246009707450867,9.762247,-0.008328801,-0.043490633368492126,-0.008623856
691.916666666366,-0.3745471,-1.2142446,-0.25109053,-1.9345117,0.46603695,2.1861882,0.335456,0.03999996,0.039999995,0.33788365,0.7235757112503052,9.762637,-0.007972683,-0.04113736376166344,-0.008024873
691.9333333330327,-0.37468672,-1.2144063,-0.2511843,-1.9343535,0.46621135,2.1864178,0.3352878,0.039999966,0.04,0.34256107,0.7225486040115356,9.762974,-0.0076258597,-0.03885439410805702,-0.0074464153
691.9499999996993,-0.3748177,-1.2145578,-0.25127226,-1.934205,0.46637484,2.186633,0.33513018,0.039999966,0.04,0.34664458,0.7216455936431885,9.763427,-0.0072911233,-0.036652907729148865,-0.0068852673
691.966666666366,-0.37494022,-1.2146996,-0.25135452,-1.9340662,0.46652776,2.1868346,0.33498272,0.03999996,0.04,0.3502882,0.7207520604133606,9.763871,-0.006967791,-0.034527599811553955,-0.006344587
691.9833333330326,-0.37505445,-1.2148318,-0.25143135,-1.9339365,0.46667057,2.1870222,0.33484507,0.039999958,0.04,0.3538301,0.7199378609657288,9.764265,-0.006656152,-0.03248416632413864,-0.0058217794
691.9999999996993,-0.375161,-1.2149551,-0.2515029,-1.9338158,0.46680367,2.1871977,0.3347168,0.039999958,0.04,0.356789,0.7191675305366516,9.764733,-0.00635723,-0.03052557073533535,-0.0053212536
692.016666666366,-0.37526003,-1.2150698,-0.2515695,-1.9337034,0.4669274,2.1873608,0.33459753,0.03999996,0.04,0.35941887,0.7184502482414246,9.765215,-0.0060710795,-0.028649453073740005,-0.0048399456
692.0333333330326,-0.37535185,-1.2151761,-0.2516313,-1.933599,0.46704227,2.1875114,0.3344868,0.03999996,0.04,0.36175808,0.7177587151527405,9.765715,-0.0057976004,-0.02685820497572422,-0.0043816506
692.0499999996993,-0.37543696,-1.2152748,-0.25168848,-1.9335023,0.46714872,2.1876514,0.3343843,0.03999996,0.04,0.36365935,0.7171123027801514,9.766244,-0.005537045,-0.025158923119306564,-0.0039449967
692.0666666663659,-0.37551555,-1.215366,-0.2517414,-1.9334127,0.46724707,2.1877813,0.33428943,0.03999996,0.04,0.36534902,0.7164950966835022,9.766776,-0.0052897492,-0.02354631945490837,-0.0035303226
692.0833333330326,-0.37558818,-1.2154504,-0.25179031,-1.93333,0.46733785,2.1879005,0.3342019,0.039999958,0.04,0.36669815,0.7159378528594971,9.767313,-0.005055885,-0.02202177420258522,-0.0031405354
692.0999999996992,-0.37565514,-1.2155281,-0.25183532,-1.9332545,0.4674216,2.1880107,0.33412114,0.03999996,0.04,0.36775565,0.7154022455215454,9.767933,-0.004836234,-0.02059454657137394,-0.002773181
692.1166666663659,-0.37571672,-1.215599,-0.2518767,-1.9331841,0.46749866,2.1881123,0.33404678,0.039999958,0.04,0.36841252,0.7149304151535034,9.768577,-0.004631875,-0.019263753667473793,-0.0024308693
692.1333333330325,-0.3757734,-1.2156651,-0.25191486,-1.93312,0.46756968,2.1882055,0.33397844,0.03999996,0.04,0.36890253,0.714466392993927,9.76914,-0.004441585,-0.018028412014245987,-0.002113238
692.1499999996992,-0.37582546,-1.2157255,-0.2519501,-1.9330605,0.46763504,2.1882913,0.33391556,0.039999958,0.04,0.36927658,0.7140161395072937,9.769823,-0.0042668246,-0.016889818012714386,-0.0018211155
692.1666666663658,-0.37587336,-1.2157805,-0.25198245,-1.9330058,0.46769497,2.1883707,0.33385766,0.039999958,0.04,0.36949977,0.7136467695236206,9.77038,-0.0041062674,-0.01584189012646675,-0.001551936
692.1833333330325,-0.37591735,-1.2158315,-0.252012,-1.9329557,0.46775022,2.1884441,0.33380434,0.039999958,0.04,0.3696126,0.7133139371871948,9.770925,-0.0039583957,-0.014879541471600533,-0.0013015084
692.1999999996991,-0.37595782,-1.2158786,-0.25203946,-1.9329101,0.46780106,2.1885114,0.33375534,0.039999958,0.04,0.36985257,0.7129220366477966,9.771438,-0.003821395,-0.01399131491780281,-0.0010736048
692.2166666663658,-0.3759951,-1.2159219,-0.25206468,-1.932868,0.46784782,2.188572,0.3337103,0.039999958,0.04,0.36996225,0.7126555442810059,9.771966,-0.0036971208,-0.013176722452044487,-0.00086259295
692.2333333330324,-0.37602943,-1.2159615,-0.25208777,-1.9328287,0.46789083,2.1886296,0.33366877,0.039999954,0.04,0.3701511,0.7123557925224304,9.7724,-0.0035826892,-0.012432700954377651,-0.00067063567
692.2499999996991,-0.37606105,-1.2159972,-0.2521091,-1.9327925,0.46793047,2.1886816,0.33363053,0.039999958,0.04,0.3703887,0.7120789885520935,9.77268,-0.0034756449,-0.011737409979104996,-0.0004933391
692.2666666663657,-0.37608996,-1.2160316,-0.25212884,-1.9327594,0.4679669,2.1887295,0.33359542,0.039999954,0.04,0.37040472,0.7118884921073914,9.77309,-0.003378514,-0.011106783524155617,-0.00032641983
692.2833333330324,-0.3761167,-1.2160631,-0.25214678,-1.9327291,0.46800035,2.1887739,0.33356312,0.039999954,0.04,0.37076217,0.7115934491157532,9.773415,-0.0032881896,-0.010518626309931278,-0.00017960937
692.299999999699,-0.37614128,-1.2160913,-0.25216356,-1.932701,0.46803126,2.1888146,0.3335333,0.039999954,0.04,0.37085634,0.7113802433013916,9.773731,-0.0032042435,-0.0099789472296834,-3.979227e-05
692.3166666663657,-0.37616387,-1.2161185,-0.2521788,-1.9326751,0.46805972,2.1888514,0.33350593,0.039999954,0.04,0.37085527,0.7112703323364258,9.774003,-0.0031287086,-0.009484437294304371,8.838586e-05
692.3333333330323,-0.37618476,-1.2161425,-0.2521928,-1.9326516,0.46808586,2.1888876,0.33348072,0.039999954,0.04,0.37113914,0.7109811902046204,9.774268,-0.0030571544,-0.009027051739394665,0.00020273232
692.349999999699,-0.3762038,-1.2161652,-0.2522058,-1.9326297,0.46810973,2.1889179,0.3334575,0.039999954,0.04,0.3711141,0.710921585559845,9.774478,-0.0029927047,-0.008602258749306202,0.00031546524
692.3666666663656,-0.37622127,-1.2161855,-0.2522178,-1.9326097,0.4681317,2.1889467,0.33343613,0.039999954,0.04,0.37123576,0.7107106447219849,9.774753,-0.0029321238,-0.008219964802265167,0.0004112279
692.3833333330323,-0.3762374,-1.216205,-0.25222886,-1.932591,0.46815202,2.1889753,0.33341646,0.039999954,0.04,0.37122327,0.7106348276138306,9.774945,-0.0028775514,-0.007867720909416676,0.0005021288
692.3999999996989,-0.37625235,-1.2162217,-0.25223896,-1.9325738,0.46817082,2.1889982,0.33339855,0.039999954,0.04,0.37155616,0.7104772925376892,9.775045,-0.0028259868,-0.007529649883508682,0.0005896575
692.4166666663656,-0.37626594,-1.2162378,-0.25224823,-1.9325587,0.46818805,2.1890197,0.33338183,0.039999958,0.04,0.37129107,0.7103769779205322,9.775325,-0.002781165,-0.007238584570586681,0.0006638871
692.4333333330322,-0.3762783,-1.2162528,-0.25225672,-1.9325441,0.46820396,2.189041,0.3333665,0.039999958,0.04,0.37139362,0.7102634310722351,9.775518,-0.0027386404,-0.006969080306589603,0.00073269714
692.4499999996989,-0.37628973,-1.2162657,-0.25226447,-1.9325306,0.46821854,2.1890616,0.33335254,0.039999954,0.04,0.3715977,0.7101438641548157,9.775562,-0.002698572,-0.006710992660373449,0.0007964374
692.4666666663655,-0.3763002,-1.2162782,-0.2522717,-1.9325188,0.46823198,2.1890802,0.33333963,0.039999954,0.04,0.37152076,0.7101103663444519,9.775673,-0.002662826,-0.006473026238381863,0.00086021924
692.4833333330322,-0.37631005,-1.2162901,-0.25227833,-1.9325076,0.4682443,2.1890943,0.33332774,0.039999954,0.04,0.37163383,0.71002197265625,9.775854,-0.002630474,-0.006254951469600201,0.0009151739
692.4999999996988,-0.3763191,-1.2163006,-0.25228435,-1.932497,0.46825567,2.1891081,0.3333168,0.039999954,0.04,0.37169772,0.709862470626831,9.7760105,-0.0025991003,-0.00606382405385375,0.00096177746
692.5166666663655,-0.3763274,-1.2163097,-0.25228995,-1.9324872,0.4682661,2.1891217,0.33330676,0.039999954,0.04,0.37170526,0.7098137736320496,9.776068,-0.0025701956,-0.005885360296815634,0.0010065953
692.5333333330321,-0.3763349,-1.2163185,-0.2522951,-1.9324787,0.46827576,2.189135,0.3332976,0.039999954,0.04,0.37166652,0.7098044157028198,9.776145,-0.0025446478,-0.0057200170122087,0.0010498102
692.5499999996988,-0.37634197,-1.2163268,-0.25229985,-1.9324712,0.46828464,2.1891482,0.3332889,0.039999954,0.04,0.48609546,0.6177423000335693,9.685085,0.0,-0.0,0.0
692.5666666663654,-0.37634197,-1.2163268,-0.25229985,-1.9324712,0.46828464,2.1891482,0.3332889,0.039999954,0.04,0.36849093,0.7096033096313477,9.777361,0.0,-0.0,0.0
692.5833333330321,-0.37634197,-1.2163268,-0.25229985,-1.9324712,0.46828464,2.1891482,0.3332889,0.039999954,0.04,0.36849093,0.7096033096313477,9.777361,0.0,-0.0,0.0
692.5999999996988,-0.37634197,-1.2163268,-0.25229985,-1.9324712,0.46828464,2.1891482,0.3332889,0.039999954,0.04,0.36849093,0.7096033096313477,9.777361,0.0,-0.0,0.0
692.6166666663654,-0.37634197,-1.2163268,-0.25229985,-1.9324712,0.46828464,2.1891482,0.3332889,0.039999954,0.04,0.36849093,0.7096033096313477,9.777361,0.0,-0.0,0.0
692.633333333032,-0.37634197,-1.2163268,-0.25229985,-1.9324712,0.46828464,2.1891482,0.3332889,0.039999954,0.04,0.36849093,0.7096033096313477,9.777361,0.0,-0.0,0.0
692.6499999996987,-0.37634197,-1.2163268,-0.25229985,-1.9324712,0.46828464,2.1891482,0.3332889,0.039999954,0.04,0.36849093,0.7096033096313477,9.777361,0.0,-0.0,0.0
692.6666666663654,-0.37634197,-1.2163268,-0.25229985,-1.9324712,0.46828464,2.1891482,0.3332889,0.039999954,0.04,0.36849093,0.7096033096313477,9.777361,0.0,-0.0,0.0
692.683333333032,-0.37634197,-1.2163268,-0.25229985,-1.9324712,0.46828464,2.1891482,0.3332889,0.039999954,0.04,0.36849093,0.7096033096313477,9.777361,0.0,-0.0,0.0
692.6999999996987,-0.37634197,-1.2163268,-0.25229985,-1.9324712,0.46828464,2.1891482,0.3332889,0.039999954,0.04,0.36849093,0.7096033096313477,9.777361,0.0,-0.0,0.0
692.7166666663653,-0.37634197,-1.2163268,-0.25229985,-1.9324712,0.46828464,2.1891482,0.3332889,0.039999954,0.04,0.36849093,0.7096033096313477,9.777361,0.0,-0.0,0.0
692.733333333032,-0.37634197,-1.2163268,-0.25229985,-1.9324712,0.46828464,2.1891482,0.3332889,0.039999954,0.04,0.36849093,0.7096033096313477,9.777361,0.0,-0.0,0.0
692.7499999996986,-0.37634197,-1.2163268,-0.25229985,-1.9324712,0.46828464,2.1891482,0.3332889,0.039999954,0.04,0.36849093,0.7096033096313477,9.777361,0.0,-0.0,0.0
692.7666666663653,-0.37634197,-1.2163268,-0.25229985,-1.9324712,0.46828464,2.1891482,0.3332889,0.039999954,0.04,0.36849093,0.7096033096313477,9.777361,0.0,-0.0,0.0
692.7833333330319,-0.37634197,-1.2163268,-0.25229985,-1.9324712,0.46828464,2.1891482,0.3332889,0.039999954,0.04,0.36849093,0.7096033096313477,9.777361,0.0,-0.0,0.0
692.7999999996986,-0.37634197,-1.2163268,-0.25229985,-1.9324712,0.46828464,2.1891482,0.3332889,0.039999954,0.04,0.36849093,0.7096033096313477,9.777361,0.0,-0.0,0.0
692.8166666663652,-0.37634197,-1.2163268,-0.25229985,-1.9324712,0.46828464,2.1891482,0.3332889,0.039999954,0.04,0.36849093,0.7096033096313477,9.777361,0.0,-0.0,0.0
692.8333333330319,-0.37634197,-1.2163268,-0.25229985,-1.9324712,0.46828464,2.1891482,0.3332889,0.039999954,0.04,0.36849093,0.7096033096313477,9.777361,0.0,-0.0,0.0
692.8499999996985,-0.37634197,-1.2163268,-0.25229985,-1.9324712,0.46828464,2.1891482,0.3332889,0.039999954,0.04,0.36849093,0.7096033096313477,9.777361,0.0,-0.0,0.0
692.8666666663652,-0.37634197,-1.2163268,-0.25229985,-1.9324712,0.46828464,2.1891482,0.3332889,0.039999954,0.04,0.36849093,0.7096033096313477,9.777361,0.0,-0.0,0.0
692.8833333330318,-0.37634197,-1.2163268,-0.25229985,-1.9324712,0.46828464,2.1891482,0.3332889,0.039999954,0.04,0.36849093,0.7096033096313477,9.777361,0.0,-0.0,0.0
692.8999999996985,-0.37634197,-1.2163268,-0.25229985,-1.9324712,0.46828464,2.1891482,0.3332889,0.039999954,0.04,0.36849093,0.7096033096313477,9.777361,0.0,-0.0,0.0
692.9166666663651,-0.37634197,-1.2163268,-0.25229985,-1.9324712,0.46828464,2.1891482,0.3332889,0.039999954,0.04,0.36849093,0.7096033096313477,9.777361,0.0,-0.0,0.0
692.9333333330318,-0.37634197,-1.2163268,-0.25229985,-1.9324712,0.46828464,2.1891482,0.3332889,0.039999954,0.04,0.36849093,0.7096033096313477,9.777361,0.0,-0.0,0.0
692.9499999996984,-0.37634197,-1.2163268,-0.25229985,-1.9324712,0.46828464,2.1891482,0.3332889,0.039999954,0.04,0.36849093,0.7096033096313477,9.777361,0.0,-0.0,0.0
692.9666666663651,-0.37634197,-1.2163268,-0.25229985,-1.9324712,0.46828464,2.1891482,0.3332889,0.039999954,0.04,0.36849093,0.7096033096313477,9.777361,0.0,-0.0,0.0
692.9833333330317,-0.37634197,-1.2163268,-0.25229985,-1.9324712,0.46828464,2.1891482,0.3332889,0.039999954,0.04,0.36849093,0.7096033096313477,9.777361,0.0,-0.0,0.0
692.9999999996984,-0.37634197,-1.2163268,-0.25229985,-1.9324712,0.46828464,2.1891482,0.3332889,0.039999954,0.04,0.36849093,0.7096033096313477,9.777361,0.0,-0.0,0.0
693.016666666365,-0.37634197,-1.2163268,-0.25229985,-1.9324712,0.46828464,2.1891482,0.3332889,0.039999954,0.04,0.36849093,0.7096033096313477,9.777361,0.0,-0.0,0.0
693.0333333330317,-0.37634197,-1.2163268,-0.25229985,-1.9324712,0.46828464,2.1891482,0.3332889,0.039999954,0.04,0.36849093,0.7096033096313477,9.777361,0.0,-0.0,0.0
693.0499999996983,-0.37634197,-1.2163268,-0.25229985,-1.9324712,0.46828464,2.1891482,0.3332889,0.039999954,0.04,0.36849093,0.7096033096313477,9.777361,0.0,-0.0,0.0
693.066666666365,-0.37634197,-1.2163268,-0.25229985,-1.9324712,0.46828464,2.1891482,0.3332889,0.039999954,0.04,0.36849093,0.7096033096313477,9.777361,0.0,-0.0,0.0
693.0833333330316,-0.37634197,-1.2163268,-0.25229985,-1.9324712,0.46828464,2.1891482,0.3332889,0.039999954,0.04,0.36849093,0.7096033096313477,9.777361,0.0,-0.0,0.0
693.0999999996983,-0.37634197,-1.2163268,-0.25229985,-1.9324712,0.46828464,2.1891482,0.3332889,0.039999954,0.04,0.36849093,0.7096033096313477,9.777361,0.0,-0.0,0.0
693.116666666365,-0.37634197,-1.2163268,-0.25229985,-1.9324712,0.46828464,2.1891482,0.3332889,0.039999954,0.04,0.36849093,0.7096033096313477,9.777361,0.0,-0.0,0.0
693.1333333330316,-0.37634197,-1.2163268,-0.25229985,-1.9324712,0.46828464,2.1891482,0.3332889,0.039999954,0.04,0.36849093,0.7096033096313477,9.777361,0.0,-0.0,0.0
693.1499999996983,-0.37634197,-1.2163268,-0.25229985,-1.9324712,0.46828464,2.1891482,0.3332889,0.039999954,0.04,0.36849093,0.7096033096313477,9.777361,0.0,-0.0,0.0
693.1666666663649,-0.37634197,-1.2163268,-0.25229985,-1.9324712,0.46828464,2.1891482,0.3332889,0.039999954,0.04,0.36849093,0.7096033096313477,9.777361,0.0,-0.0,0.0
693.1833333330316,-0.37634197,-1.2163268,-0.25229985,-1.9324712,0.46828464,2.1891482,0.3332889,0.039999954,0.04,0.36849093,0.7096033096313477,9.777361,0.0,-0.0,0.0
693.1999999996982,-0.37634197,-1.2163268,-0.25229985,-1.9324712,0.46828464,2.1891482,0.3332889,0.039999954,0.04,0.36849093,0.7096033096313477,9.777361,0.0,-0.0,0.0
693.2166666663649,-0.37634197,-1.2163268,-0.25229985,-1.9324712,0.46828464,2.1891482,0.3332889,0.039999954,0.04,0.36849093,0.7096033096313477,9.777361,0.0,-0.0,0.0
693.2333333330315,-0.37634197,-1.2163268,-0.25229985,-1.9324712,0.46828464,2.1891482,0.3332889,0.039999954,0.04,0.36849093,0.7096033096313477,9.777361,0.0,-0.0,0.0
693.2499999996982,-0.37634197,-1.2163268,-0.25229985,-1.9324712,0.46828464,2.1891482,0.3332889,0.039999954,0.04,0.36849093,0.7096033096313477,9.777361,0.0,-0.0,0.0
693.2666666663648,-0.37634197,-1.2163268,-0.25229985,-1.9324712,0.46828464,2.1891482,0.3332889,0.039999954,0.04,0.36849093,0.7096033096313477,9.777361,0.0,-0.0,0.0
693.2833333330315,-0.37634197,-1.2163268,-0.25229985,-1.9324712,0.46828464,2.1891482,0.3332889,0.039999954,0.04,0.36849093,0.7096033096313477,9.777361,0.0,-0.0,0.0
693.2999999996981,-0.37634197,-1.2163268,-0.25229985,-1.9324712,0.46828464,2.1891482,0.3332889,0.039999954,0.04,0.36849093,0.7096033096313477,9.777361,0.0,-0.0,0.0
693.3166666663648,-0.37634197,-1.2163268,-0.25229985,-1.9324712,0.46828464,2.1891482,0.3332889,0.039999954,0.04,0.36849093,0.7096033096313477,9.777361,0.0,-0.0,0.0
693.3333333330314,-0.37634197,-1.2163268,-0.25229985,-1.9324712,0.46828464,2.1891482,0.3332889,0.039999954,0.04,0.36849093,0.7096033096313477,9.777361,0.0,-0.0,0.0
693.3499999996981,-0.37634197,-1.2163268,-0.25229985,-1.9324712,0.46828464,2.1891482,0.3332889,0.039999954,0.04,0.36849093,0.7096033096313477,9.777361,0.0,-0.0,0.0
693.3666666663647,-0.37634197,-1.2163268,-0.25229985,-1.9324712,0.46828464,2.1891482,0.3332889,0.039999954,0.04,0.36849093,0.7096033096313477,9.777361,0.0,-0.0,0.0
693.3833333330314,-0.37634197,-1.2163268,-0.25229985,-1.9324712,0.46828464,2.1891482,0.3332889,0.039999954,0.04,0.36849093,0.7096033096313477,9.777361,0.0,-0.0,0.0
693.399999999698,-0.37634197,-1.2163268,-0.25229985,-1.9324712,0.46828464,2.1891482,0.3332889,0.039999954,0.04,0.36849093,0.7096033096313477,9.777361,0.0,-0.0,0.0
693.4166666663647,-0.37634197,-1.2163268,-0.25229985,-1.9324712,0.46828464,2.1891482,0.3332889,0.039999954,0.04,0.36849093,0.7096033096313477,9.777361,0.0,-0.0,0.0
693.4333333330313,-0.37634197,-1.2163268,-0.25229985,-1.9324712,0.46828464,2.1891482,0.3332889,0.039999954,0.04,0.36849093,0.7096033096313477,9.777361,0.0,-0.0,0.0
693.449999999698,-0.37634197,-1.2163268,-0.25229985,-1.9324712,0.46828464,2.1891482,0.3332889,0.039999954,0.04,0.36849093,0.7096033096313477,9.777361,0.0,-0.0,0.0
693.4666666663646,-0.37634197,-1.2163268,-0.25229985,-1.9324712,0.46828464,2.1891482,0.3332889,0.039999954,0.04,0.36849093,0.7096033096313477,9.777361,0.0,-0.0,0.0
693.4833333330313,-0.37634197,-1.2163268,-0.25229985,-1.9324712,0.46828464,2.1891482,0.3332889,0.039999954,0.04,0.36849093,0.7096033096313477,9.777361,0.0,-0.0,0.0
693.4999999996979,-0.37634197,-1.2163268,-0.25229985,-1.9324712,0.46828464,2.1891482,0.3332889,0.039999954,0.04,0.36849093,0.7096033096313477,9.777361,0.0,-0.0,0.0
693.5166666663646,-0.37634197,-1.2163268,-0.25229985,-1.9324712,0.46828464,2.1891482,0.3332889,0.039999954,0.04,0.36849093,0.7096033096313477,9.777361,0.0,-0.0,0.0
693.5333333330312,-0.37634197,-1.2163268,-0.25229985,-1.9324712,0.46828464,2.1891482,0.3332889,0.039999954,0.04,0.36849093,0.7096033096313477,9.777361,0.0,-0.0,0.0
693.5499999996979,-0.37634197,-1.2163268,-0.25229985,-1.9324712,0.46828464,2.1891482,0.3332889,0.039999954,0.04,0.36849093,0.7096033096313477,9.777361,0.0,-0.0,0.0
693.5666666663645,-0.37634197,-1.2163268,-0.25229985,-1.9324712,0.46828464,2.1891482,0.3332889,0.039999954,0.04,0.36849093,0.7096033096313477,9.777361,0.0,-0.0,0.0
693.5833333330312,-0.37634197,-1.2163268,-0.25229985,-1.9324712,0.46828464,2.1891482,0.3332889,0.039999954,0.04,0.36849093,0.7096033096313477,9.777361,0.0,-0.0,0.0
693.5999999996978,-0.37634197,-1.2163268,-0.25229985,-1.9324712,0.46828464,2.1891482,0.3332889,0.039999954,0.04,0.36849093,0.7096033096313477,9.777361,0.0,-0.0,0.0
693.6166666663645,-0.37634197,-1.2163268,-0.25229985,-1.9324712,0.46828464,2.1891482,0.3332889,0.039999954,0.04,0.36849093,0.7096033096313477,9.777361,0.0,-0.0,0.0
693.6333333330311,-0.37634197,-1.2163268,-0.25229985,-1.9324712,0.46828464,2.1891482,0.3332889,0.039999954,0.04,0.36849093,0.7096033096313477,9.777361,0.0,-0.0,0.0
693.6499999996978,-0.37634197,-1.2163268,-0.25229985,-1.9324712,0.46828464,2.1891482,0.3332889,0.039999954,0.04,0.36849093,0.7096033096313477,9.777361,0.0,-0.0,0.0
693.6666666663644,-0.37634197,-1.2163268,-0.25229985,-1.9324712,0.46828464,2.1891482,0.3332889,0.039999954,0.04,0.36849093,0.7096033096313477,9.777361,0.0,-0.0,0.0
693.6833333330311,-0.37634197,-1.2163268,-0.25229985,-1.9324712,0.46828464,2.1891482,0.3332889,0.039999954,0.04,0.36849093,0.7096033096313477,9.777361,0.0,-0.0,0.0
693.6999999996978,-0.37634197,-1.2163268,-0.25229985,-1.9324712,0.46828464,2.1891482,0.3332889,0.039999954,0.04,0.36849093,0.7096033096313477,9.777361,0.0,-0.0,0.0
693.7166666663644,-0.37634197,-1.2163268,-0.25229985,-1.9324712,0.46828464,2.1891482,0.3332889,0.039999954,0.04,0.36849093,0.7096033096313477,9.777361,0.0,-0.0,0.0
693.733333333031,-0.37634197,-1.2163268,-0.25229985,-1.9324712,0.46828464,2.1891482,0.3332889,0.039999954,0.04,0.36849093,0.7096033096313477,9.777361,0.0,-0.0,0.0
693.7499999996977,-0.37634197,-1.2163268,-0.25229985,-1.9324712,0.46828464,2.1891482,0.3332889,0.039999954,0.04,0.36849093,0.7096033096313477,9.777361,0.0,-0.0,0.0
693.7666666663644,-0.37634197,-1.2163268,-0.25229985,-1.9324712,0.46828464,2.1891482,0.3332889,0.039999954,0.04,0.36849093,0.7096033096313477,9.777361,0.0,-0.0,0.0
693.783333333031,-0.37634197,-1.2163268,-0.25229985,-1.9324712,0.46828464,2.1891482,0.3332889,0.039999954,0.04,0.36849093,0.7096033096313477,9.777361,0.0,-0.0,0.0
693.7999999996977,-0.37634197,-1.2163268,-0.25229985,-1.9324712,0.46828464,2.1891482,0.3332889,0.039999954,0.04,0.36849093,0.7096033096313477,9.777361,0.0,-0.0,0.0
693.8166666663643,-0.37634197,-1.2163268,-0.25229985,-1.9324712,0.46828464,2.1891482,0.3332889,0.039999954,0.04,0.36849093,0.7096033096313477,9.777361,0.0,-0.0,0.0
693.833333333031,-0.37634197,-1.2163268,-0.25229985,-1.9324712,0.46828464,2.1891482,0.3332889,0.039999954,0.04,0.36849093,0.7096033096313477,9.777361,0.0,-0.0,0.0
693.8499999996976,-0.37634197,-1.2163268,-0.25229985,-1.9324712,0.46828464,2.1891482,0.3332889,0.039999954,0.04,0.36849093,0.7096033096313477,9.777361,0.0,-0.0,0.0
693.8666666663643,-0.37634197,-1.2163268,-0.25229985,-1.9324712,0.46828464,2.1891482,0.3332889,0.039999954,0.04,0.36849093,0.7096033096313477,9.777361,0.0,-0.0,0.0
693.8833333330309,-0.37634197,-1.2163268,-0.25229985,-1.9324712,0.46828464,2.1891482,0.3332889,0.039999954,0.04,0.36849093,0.7096033096313477,9.777361,0.0,-0.0,0.0
693.8999999996976,-0.37634197,-1.2163268,-0.25229985,-1.9324712,0.46828464,2.1891482,0.3332889,0.039999954,0.04,0.36849093,0.7096033096313477,9.777361,0.0,-0.0,0.0
693.9166666663642,-0.37634197,-1.2163268,-0.25229985,-1.9324712,0.46828464,2.1891482,0.3332889,0.039999954,0.04,0.36849093,0.7096033096313477,9.777361,0.0,-0.0,0.0
693.9333333330309,-0.37634197,-1.2163268,-0.25229985,-1.9324712,0.46828464,2.1891482,0.3332889,0.039999954,0.04,0.36849093,0.7096033096313477,9.777361,0.0,-0.0,0.0
693.9499999996975,-0.37634197,-1.2163268,-0.25229985,-1.9324712,0.46828464,2.1891482,0.3332889,0.039999954,0.04,0.36849093,0.7096033096313477,9.777361,0.0,-0.0,0.0
693.9666666663642,-0.37634197,-1.2163268,-0.25229985,-1.9324712,0.46828464,2.1891482,0.3332889,0.039999954,0.04,0.36849093,0.7096033096313477,9.777361,0.0,-0.0,0.0
693.9833333330308,-0.37634197,-1.2163268,-0.25229985,-1.9324712,0.46828464,2.1891482,0.3332889,0.039999954,0.04,0.36849093,0.7096033096313477,9.777361,0.0,-0.0,0.0
693.9999999996975,-0.37634197,-1.2163268,-0.25229985,-1.9324712,0.46828464,2.1891482,0.3332889,0.039999954,0.04,0.36849093,0.7096033096313477,9.777361,0.0,-0.0,0.0
694.0166666663641,-0.37634197,-1.2163268,-0.25229985,-1.9324712,0.46828464,2.1891482,0.3332889,0.039999954,0.04,0.36849093,0.7096033096313477,9.777361,0.0,-0.0,0.0
694.0333333330308,-0.37634197,-1.2163268,-0.25229985,-1.9324712,0.46828464,2.1891482,0.3332889,0.039999954,0.04,0.36849093,0.7096033096313477,9.777361,0.0,-0.0,0.0
694.0499999996974,-0.37634197,-1.2163268,-0.25229985,-1.9324712,0.46828464,2.1891482,0.3332889,0.039999954,0.04,0.36849093,0.7096033096313477,9.777361,0.0,-0.0,0.0
694.0666666663641,-0.37634197,-1.2163268,-0.25229985,-1.9324712,0.46828464,2.1891482,0.3332889,0.039999954,0.04,0.36849093,0.7096033096313477,9.777361,0.0,-0.0,0.0
694.0833333330307,-0.37634197,-1.2163268,-0.25229985,-1.9324712,0.46828464,2.1891482,0.3332889,0.039999954,0.04,0.36849093,0.7096033096313477,9.777361,0.0,-0.0,0.0
694.0999999996974,-0.37634197,-1.2163268,-0.25229985,-1.9324712,0.46828464,2.1891482,0.3332889,0.039999954,0.04,0.36849093,0.7096033096313477,9.777361,0.0,-0.0,0.0
694.116666666364,-0.37634197,-1.2163268,-0.25229985,-1.9324712,0.46828464,2.1891482,0.3332889,0.039999954,0.04,0.36849093,0.7096033096313477,9.777361,0.0,-0.0,0.0
694.1333333330307,-0.37634197,-1.2163268,-0.25229985,-1.9324712,0.46828464,2.1891482,0.3332889,0.039999954,0.04,0.36849093,0.7096033096313477,9.777361,0.0,-0.0,0.0
694.1499999996973,-0.37634197,-1.2163268,-0.25229985,-1.9324712,0.46828464,2.1891482,0.3332889,0.039999954,0.04,0.36849093,0.7096033096313477,9.777361,0.0,-0.0,0.0
