rsonawane2002/My_IMU/logs_2/traj_1601/clean_1601.csv
time,j1,j2,j3,j4,j5,j6,j7,gripper1,gripper2,imu_ax,imu_ay,imu_az,imu_gx,imu_gy,imu_gz,quat_x,quat_y,quat_z,quat_w
1.0333333333333345,0.00016703313,-0.78463066,4.018289e-05,-2.3561552,9.3351664e-05,1.5709763,0.7860001,1.2118691e-05,1.21186895e-05,0.0,-0.0,0.0,2.972376988594288e-08,-0.012697867464917412,3.1608473627626904e-07,0.9999999412467147,0.00020324559723577538,-0.00027413488670171,3.237064284739225e-05
1.0500000000000012,0.0001666462,-0.7846152,3.9608287e-05,-2.3561676,0.0001611793,1.5709764,0.7859992,0.0031457974,0.0031474044,-0.03808566670857605,-0.04943431908848721,0.003237226333796528,-1.7272431364972057e-06,-0.012836478773380913,-0.0007128228601400915,0.9999999356686576,0.00020321177809802182,-0.00028800650436823917,6.648238453188998e-05
1.0666666666666678,0.00016665159,-0.7846009,3.9760187e-05,-2.3561795,0.00015016977,1.5709764,0.7859992,0.006093799,0.00609527,0.0020182485420905394,0.05745279339135324,-0.0005049271211143846,4.446351987375211e-06,-0.01296679718904981,-0.0006282577402226547,0.9999999321728982,0.00020315374528078402,-0.00030111731836029066,6.091892568347156e-05
1.0833333333333344,0.00016651767,-0.784588,4.0028914e-05,-2.356191,0.0001406556,1.5709764,0.7859992,0.008805982,0.008807335,0.002325839400074692,-0.0010982519571225166,-0.0005619915303123335,1.598810689544706e-05,-0.013091924062455252,-0.0005483377371289088,0.9999999287189214,0.0002031242066982908,-0.0003133045404772816,5.6062230515809626e-05
1.100000000000001,0.0001661299,-0.78457636,4.0530245e-05,-2.3562024,0.00013261868,1.5709764,0.7859992,0.011301215,0.01130246,0.0014497732734319868,-0.0010949041285497054,-0.0007424547890488853,3.734545784547182e-05,-0.01321200040777456,-0.00047348023361211855,0.9999999252629812,0.00020313953387601089,-0.000324836372536663,5.186224917297712e-05
1.1166666666666676,0.00016534227,-0.784566,4.141127e-05,-2.3562129,0.00012609988,1.5709764,0.7860011,0.013596852,0.013597998,0.0030041019088322685,-0.0011378790643288292,-0.0002798739831888497,7.150358287506409e-05,-0.013332517198887367,-0.0004023356677531984,0.999999921788989,0.00020417439509326637,-0.00033526581440349094,4.828732966772459e-05
1.1333333333333342,0.00016398064,-0.7845569,4.284651e-05,-2.356222,0.000121185774,1.5709765,0.786003,0.01570886,0.015709914,0.003917757952454082,-0.0012162013739203212,-1.0109480452769048e-05,0.00011292333286082396,-0.013449112341255053,-0.0003331546326573282,0.9999999186397335,0.00020530047920073644,-0.00034426498308623,4.531954303685978e-05
1.1500000000000008,0.00016184604,-0.7845496,4.5035773e-05,-2.3562305,0.00011800295,1.5709767,0.7860049,0.017651927,0.017652895,0.0027586700955595234,-0.001326481858353101,-0.0006745541887065443,0.000173232547996406,-0.013560313746619666,-0.00026499545812253954,0.9999999157588659,0.00020654669985174163,-0.00035210210037476034,4.2951513596407966e-05
1.1666666666666674,0.00015871704,-0.7845439,4.820103e-05,-2.3562388,0.000116715586,1.5709771,0.7860087,0.019439563,0.019440455,0.0022217960177650653,-0.0014663209548530537,-0.0007142371212465193,0.00025501724321236373,-0.013670990029467202,-0.0001961079053352647,0.9999999129077211,0.0002088990008028025,-0.00035895602555489247,4.11865235963212e-05
1.183333333333334,0.00015435225,-0.78453994,5.2584066e-05,-2.356247,0.00011751926,1.5709776,0.78601414,0.021084204,0.021085026,0.0024194137995037224,-0.0016308746655363656,-0.0008152055316790197,0.00035285627763487134,-0.013781877943159212,-0.00012605715651013453,0.9999999101581682,0.00021224361964258562,-0.0003647373531863246,4.003703887052165e-05
1.2000000000000006,0.00014849305,-0.784538,5.8444308e-05,-2.3562553,0.00012063949,1.570978,0.7860202,0.022597292,0.022598049,0.001769212088031935,-0.0018194605394359123,-0.0012194717593727589,0.0004703617324472852,-0.01389433825766816,-5.3539546134264646e-05,0.99999990753807,0.00021614136194328436,-0.00036965469723743827,3.9524271551171804e-05
1.2166666666666672,0.00014086488,-0.78453815,6.605663e-05,-2.3562639,0.00012632727,1.5709785,0.78602856,0.023989348,0.023990044,0.0019668093597768888,-0.0020277398314149917,-0.001320456378639534,0.0006143691219336645,-0.014011865434461323,2.223067543078404e-05,0.9999999049002389,0.00022143703530088808,-0.0003736187077027865,3.967636331998423e-05
1.2333333333333338,0.00013117983,-0.78454053,7.570956e-05,-2.3562734,0.00013485631,1.5709791,0.78603965,0.025270049,0.02527069,0.0008551449042881742,-0.002254221394992702,-0.0015868619476444579,0.0007804671059877717,-0.014134214627127741,0.00010222414887630006,0.9999999020670022,0.00022841109032886836,-0.00037689764973853447,4.0528034449238854e-05
1.2500000000000004,0.000119137985,-0.7845457,8.770329e-05,-2.3562844,0.00014652137,1.5709797,0.786053,0.026448306,0.026448894,0.0006660817919224016,-0.0024968613351848256,-0.0022269664506469056,0.0009685644557876409,-0.014264868830469095,0.00018715277700261345,0.9999998990525325,0.00023686900835411881,-0.0003794915614084833,4.212068988775662e-05
1.266666666666667,0.000104429266,-0.7845537,0.00010234844,-2.3562958,0.00016163354,1.5709803,0.78606933,0.027532313,0.027532855,0.002286114403182715,-0.002753054289921284,-0.0017979293172265542,0.0011832415171901104,-0.014404816286204497,0.00027707827658652955,0.9999998959011367,0.0002472136696267783,-0.0003809236825038745,4.450017383140991e-05
1.2833333333333337,8.673484e-05,-0.78456485,0.00011996429,-2.3563073,0.0001805201,1.5709811,0.7860889,0.02852961,0.02853011,0.0035666852513438485,-0.003021861383279513,-0.0016076915356988408,0.001423549863957237,-0.01455276735713398,0.00037319878531135266,0.99999989271249,0.0002596108579476278,-0.00038065765727112783,4.771748858797291e-05
1.3000000000000003,6.5728425e-05,-0.7845794,0.00014087748,-2.3563192,0.00020352134,1.570982,0.7861122,0.029447135,0.029447595,0.0029444048413429513,-0.003300578424708,-0.002134417547905443,0.0016904296306995575,-0.014702276886929695,0.00047515890258040846,0.9999998892209869,0.00027437654454650213,-0.0003789320196308508,5.1827118322429806e-05
1.3166666666666669,4.107766e-05,-0.7845976,0.00016542093,-2.3563316,0.00023098839,1.5709828,0.78613955,0.030291269,0.030291693,0.0032075294532418752,-0.003588231446287929,-0.0022689265922082313,0.001983995394692996,-0.014857781828893387,0.0005832822983153653,0.9999998852869835,0.00029170829279257524,-0.0003756276974198506,5.688694697056736e-05
1.3333333333333335,1.2445007e-05,-0.78461975,0.0001939324,-2.356346,0.00026328306,1.5709838,0.7861712,0.031067878,0.03106827,0.001209675875868399,-0.0038834769976717493,-0.0030252338392378064,0.002304632653141668,-0.015018719453984468,0.0006990314859693409,0.9999998805135651,0.0003117748796819128,-0.000371221694708571,6.295818626691803e-05
1.35,-2.0510937e-05,-0.78464603,0.00022675378,-2.3563623,0.00030077487,1.5709847,0.7862078,0.031782366,0.031782724,0.0008980055263396736,-0.0041853016671226095,-0.0032882840454551143,0.0026535222492935495,-0.015189763997511615,0.0008231391442531921,0.9999998745284896,0.0003349541190588564,-0.0003658334381504884,7.010448351693979e-05
1.3666666666666667,-5.8134567e-05,-0.78467673,0.00026422995,-2.3563814,0.00034383842,1.5709857,0.78624946,0.0324397,0.032440037,0.0004164504275427916,-0.004491023898402366,-0.0036706262599439654,0.00302953674507585,-0.01537566554233583,0.0009524975038598825,0.9999998669992706,0.0003613561029720689,-0.0003595525787408014,7.839101432084361e-05
1.3833333333333333,-0.00010077249,-0.7847123,0.00030670787,-2.3564012,0.00039285587,1.5709866,0.7862967,0.03304445,0.033044755,0.004182904934224574,-0.004803357327805399,-0.0030818007503929934,0.0034342097411772174,-0.015575843901695542,0.0010917036949714871,0.9999998579140086,0.00039129960324241144,-0.00035118733290727963,8.788651968681094e-05
1.4,-0.00014877264,-0.784753,0.0003545358,-2.3564224,0.0004482116,1.5709908,0.7863499,0.033600837,0.03360112,0.004248032778142452,-0.005116623676685553,-0.0011382918433833211,0.003866937632554333,-0.015781456609062085,0.0012377676525684432,0.9999998472419457,0.0004249848488729311,-0.0003393671516205046,9.866052915645305e-05
1.4166666666666665,-0.00020248342,-0.7847991,0.0004080627,-2.3564475,0.00051029335,1.5709952,0.7864093,0.034112718,0.03411298,-0.0004831038047603542,-0.005431580635921712,-0.0045657067308857435,0.004327778459533232,-0.015978645595385893,0.001392184797282489,0.9999998334929646,0.00046264199856757945,-0.00032665545850896823,0.00011078192746246664
1.4333333333333331,-0.00026225336,-0.7848507,0.00046763732,-2.3564746,0.00057949044,1.5709996,0.78647554,0.03458365,0.034583896,0.0024727594408080478,-0.005749213352471637,-0.004093023449569522,0.004817250179785974,-0.016194536041148625,0.0015536064413229282,0.9999998162169078,0.000504590227229692,-0.00031224809925712384,0.0001243220730045262
1.4499999999999997,-0.00032843012,-0.7849084,0.00053360796,-2.3565025,0.00065619475,1.5710043,0.786549,0.035016913,0.035017133,0.005569386182435743,-0.006069670818092542,-0.003574316550736256,0.005334584326160724,-0.016421376263087907,0.0017252073946371635,0.9999997949156685,0.0005510887057738846,-0.00029504297513961264,0.00013935387380820133
1.4666666666666663,-0.00040136045,-0.78497255,0.0006063214,-2.356535,0.00074079644,1.5710089,0.78662986,0.03541551,0.03541572,-0.000594406359133437,-0.006384605980504199,-0.005667518380203518,0.005879713680868262,-0.016650114189438854,0.0019038667517483668,0.9999997681185891,0.0006023086424711919,-0.0002768884947576368,0.00015594816092276482
1.483333333333333,-0.0004813889,-0.7850432,0.0006861227,-2.3565698,0.0008336856,1.5710137,0.78671855,0.03578222,0.035782415,0.0031519569176685636,-0.006703702004037821,-0.004646149320675086,0.006452646967797276,-0.016898734045728787,0.0020910594229621845,0.9999997351059831,0.0006584789643709607,-0.0002566231399089785,0.00017417801621979632
1.4999999999999996,-0.0005688579,-0.7851208,0.00077335496,-2.3566062,0.00093525153,1.5710185,0.7868156,0.0361196,0.036119778,0.004853162569218306,-0.00702174978969104,-0.004681363903125124,0.007053904005443261,-0.017156572358978227,0.0022869191723216948,0.9999996947080484,0.0007199178240588464,-0.00023371136821678708,0.00019411628749524791
1.5166666666666662,-0.0006641075,-0.78520554,0.0008683581,-2.3566482,0.0010458801,1.5710232,0.78692114,0.036429998,0.03643016,-0.0014343988598897184,-0.007331835635967826,-0.006494234585097125,0.007682363348403727,-0.017419264097675486,0.0024910820916598806,0.9999996451630689,0.0007867663512552732,-0.00020997210795849913,0.00021583363690866623
1.5333333333333328,-0.000767474,-0.78529763,0.00097146933,-2.3566916,0.0011659564,1.5710313,0.78703576,0.036715563,0.03671572,0.006701935835495831,-0.007648804031926831,-0.002284097081073355,0.008338471191595793,-0.017705772757673252,0.002702270402121088,0.9999995856158129,0.0008593410227439027,-0.00018162161975520595,0.0002394050879589706
1.5499999999999994,-0.00087929115,-0.78539765,0.0010830227,-2.3567402,0.0012958613,1.5710396,0.78715974,0.036978293,0.03697844,-0.00014439442821423398,-0.007955443055205399,-0.00673076721338095,0.009021434712849533,-0.01798096634874717,0.0029226299128934105,0.9999995136069616,0.0009378414835096436,-0.00015187982467128943,0.0002648994351090799
1.566666666666666,-0.0009998885,-0.7855057,0.0012033477,-2.3567908,0.0014359728,1.571048,0.7872935,0.037219997,0.037220135,0.005691054068601709,-0.008266250195062413,-0.005207135818330322,0.00973116513816192,-0.018275431316000033,0.0031504626251462504,0.9999994274010542,0.0010225236569758847,-0.00011896002412857429,0.00029238920544624725
1.5833333333333326,-0.0011295915,-0.7856221,0.0013327705,-2.356846,0.001586665,1.5710566,0.7874374,0.03744237,0.037442498,0.0011152134831604599,-0.008567704160729784,-0.006745635496585578,0.010467345061925823,-0.018574366791538306,0.0033873587275659554,0.9999993245604561,0.0011136159249772435,-8.42049191030349e-05,0.0003219436825333723
1.5999999999999992,-0.0012687222,-0.7857471,0.0014716132,-2.3569043,0.0017483064,1.5710652,0.78759176,0.037646953,0.037647072,0.004575011524621253,-0.00887001649209052,-0.006109127993481067,0.011229641655917885,-0.018889312210017585,0.003631485127177471,0.9999992027089091,0.001211343844850043,-4.660300470734003e-05,0.00035363228862979367
1.6166666666666658,-0.0014175962,-0.785881,0.0016201925,-2.3569677,0.0019212619,1.5710738,0.78775686,0.037835177,0.037835293,0.000845419596129382,-0.009164152924590998,-0.007343198409737184,0.012017443945531255,-0.019212079510998733,0.0038827317079289858,0.9999990591234487,0.0013158748359876596,-7.199299322902971e-06,0.00038752264905739887
1.6333333333333324,-0.0015765267,-0.7860241,0.0017788216,-2.357034,0.0021058917,1.5710858,0.7879332,0.038008347,0.03800845,0.006378822625308089,-0.009459540988107648,-0.0038947573784087197,0.012831203688343595,-0.01955175814065647,0.0041427081567408305,0.9999988906881566,0.001427493072116844,3.710345480714118e-05,0.0004236854009328281
1.649999999999999,-0.0017458197,-0.7861767,0.0019478069,-2.3571067,0.0023025493,1.5710981,0.7881211,0.03816765,0.038167752,-0.00046361401258021573,-0.00974164692246044,-0.008026826712304036,0.013669542435395775,-0.01988377480095203,0.0044103729523678825,0.9999986939840283,0.001546455255049669,8.30246198747795e-05,0.0004621831829669002
1.6666666666666656,-0.0019257782,-0.78633887,0.0021274514,-2.357181,0.0025115844,1.5711104,0.78832084,0.03831422,0.038314313,0.007685643503418937,-0.010036036585529253,-0.006128028041407774,0.014532056376232692,-0.020235063204459013,0.004685526783164355,0.9999984653388571,0.0016728919858456093,0.0001328862145639487,0.0005030840766717035
1.6833333333333322,-0.002116699,-0.78651136,0.0023180516,-2.3572621,0.0027333396,1.5711228,0.7885327,0.03844907,0.038449164,-6.231520899291354e-06,-0.010303928768384167,-0.008681832639600984,0.015418957276417178,-0.0205871530205301,0.004966479982868582,0.9999982010294525,0.0018070015637941948,0.00018459927175057807,0.000546448822852825
1.6999999999999988,-0.0023188721,-0.78669393,0.0025199002,-2.357345,0.0029681514,1.5711352,0.788757,0.03857313,0.03857322,0.007784417914069586,-0.010592135802225651,-0.00649226853257634,0.016330162198834916,-0.020959542792021803,0.005255479838150565,0.9999978963149582,0.0019490305316965527,0.00024036606577627364,0.0005923426366394931
1.7166666666666655,-0.0025325853,-0.78688717,0.0027332832,-2.3574345,0.0032163507,1.5711505,0.7889941,0.038687266,0.038687352,0.0016763781900630548,-0.010845950084703874,-0.006630980607202908,0.01726430497647937,-0.02133173396060528,0.005551533909757109,0.9999975466075716,0.0020991181854302476,0.0002997064856156367,0.0006408257983563298
1.733333333333332,-0.0027581167,-0.7870911,0.0029584805,-2.3575304,0.0034782635,1.5711666,0.78924435,0.03879228,0.03879236,0.0009441090335515767,-0.011113070933729948,-0.008309571897369139,0.018222059951796772,-0.021709242874717694,0.005854481649792744,0.9999971469368502,0.0022575743793383334,0.0003614843847870137,0.0006919574561666577
1.7499999999999987,-0.0029957413,-0.78730595,0.003195767,-2.3576286,0.0037542065,1.5711828,0.78950804,0.03888888,0.03888896,0.00795766989962754,-0.011384773203679905,-0.007099658940945552,0.019201946531971624,-0.022102162030760257,0.006163304573534879,0.9999966913180037,0.002424524594349376,0.0004275734703105948,0.0007457978708168803
1.7666666666666653,-0.0032457274,-0.78753203,0.0034454113,-2.3577332,0.0040444923,1.571199,0.78978544,0.03897776,0.038977835,0.0012778349334663375,-0.011626608585781836,-0.009127462906088901,0.020203698315488586,-0.022494835913639846,0.0064803273270884875,0.9999961746321083,0.002600164370606053,0.0004960026416059752,0.0008024012558691433
1.7833333333333319,-0.0035083387,-0.78776973,0.003707677,-2.3578446,0.004349424,1.5712167,0.7900769,0.03905954,0.03905961,0.0017694661538003587,-0.011870322455670521,-0.008393555322383506,0.021226919709895507,-0.022904711720751786,0.006801956013252701,0.9999955902347577,0.002784714463650541,0.0005675720781456376,0.0008618226793379566
1.7999999999999985,-0.003783831,-0.7880191,0.003982821,-2.357958,0.004669301,1.5712366,0.7903827,0.03913476,0.03913483,0.009782181370932008,-0.01213301572948737,-0.005770852593189879,0.022271179226369266,-0.02332537085160391,0.007130671600779771,0.9999949297697049,0.0029783255305474835,0.0006449890162237371,0.0009241217917454945
1.816666666666665,-0.0040724543,-0.7882804,0.0042710938,-2.3580782,0.005004412,1.5712566,0.79070306,0.039203968,0.03920404,0.0016436374869144288,-0.012352269054452959,-0.009516704991852087,0.02333623338560896,-0.023732633774966636,0.007464471118893043,0.9999941877564532,0.0031811923791542217,0.0007250297264231394,0.0009893433447503124
1.8333333333333317,-0.004374456,-0.78855395,0.0045727403,-2.3582056,0.005355043,1.5712767,0.7910383,0.03926765,0.03926772,0.0011020170274322894,-0.012580516981499246,-0.009973467554424964,0.024421189275060755,-0.024156327291644145,0.007804846029091119,0.9999933568889481,0.0033934748071703428,0.0008075397934988682,0.0010575377950531662
1.8499999999999983,-0.00469007,-0.78883976,0.004887998,-2.3583353,0.005721469,1.5712976,0.7913886,0.03932623,0.039326295,0.009554784711829356,-0.012831460671220221,-0.007156462423663079,0.025525800785443135,-0.024597776728613727,0.00814995260508771,0.9999924267866915,0.0036153176465201567,0.0008954042642889727,0.0011287598422760122
1.866666666666665,-0.00501953,-0.78913826,0.005217101,-2.3584719,0.0061039617,1.5713209,0.79175407,0.039380115,0.03938018,0.002706988331491189,-0.013028943182102643,-0.008423345470731647,0.026649879619371833,-0.025031990400383727,0.008500438595487748,0.9999913899547176,0.0038468276262120216,0.000987216423263451,0.001203053357002343
1.8833333333333315,-0.0053630644,-0.7894495,0.005560274,-2.3586156,0.006502782,1.5713447,0.79213536,0.039429702,0.03942977,0.001810688662007287,-0.013238021931239862,-0.009790051763669538,0.027793336928669664,-0.02547044828845722,0.008856080271027215,0.9999902374871025,0.0040883404003616095,0.0010820457360803393,0.0012804609655525541
1.8999999999999981,-0.005720891,-0.78977376,0.005917738,-2.358766,0.006918187,1.5713686,0.79253256,0.039475307,0.039475378,0.0026668945821706203,-0.013454732694077789,-0.010139538724240893,0.02895436830085632,-0.02592300393488258,0.009215737984548332,0.9999889600331474,0.004339948168614285,0.0011799450266479332,0.0013610258822589533
1.9166666666666647,-0.0060932245,-0.79011124,0.006289709,-2.3589206,0.0073504257,1.5713937,0.79294586,0.039517283,0.03951735,0.007778064283447961,-0.013674102527252291,-0.008114656723368086,0.030132855821770152,-0.02638964896122755,0.009581905372177584,0.9999875450348039,0.0046017680524394694,0.0012829932416757418,0.0014447956255073315
1.9333333333333313,-0.006480271,-0.7904622,0.0066763926,-2.3590808,0.007799738,1.5714209,0.79337543,0.0395559,0.039555967,0.005401116616554624,-0.013859227204835855,-0.008443125833079712,0.031328798381892266,-0.026849949634517117,0.009951806818734237,0.9999859819009661,0.00487392747945351,0.00139082520223947,0.001531808650748347
1.949999999999998,-0.0068822303,-0.7908266,0.007077991,-2.359248,0.0082663605,1.5714486,0.7938217,0.039591428,0.039591495,0.0028481641133559776,-0.014048782243333488,-0.0101075713734744,0.03254186299316749,-0.0273084244121336,0.01032602727321616,0.9999842605540591,0.005156669837533025,0.0015020618701291472,0.0016221006370066738
1.9666666666666646,-0.0072993,-0.7912047,0.0074946973,-2.3594222,0.008750518,1.5714762,0.7942847,0.039624106,0.039624173,0.002453477256558756,-0.014226926302497028,-0.010648870536766886,0.033770576120256066,-0.027779308774482873,0.01070430059260944,0.9999823700275404,0.005450059696537157,0.0016164267613483208,0.0017157062489418736
1.9833333333333312,-0.0077316673,-0.79159665,0.0079267025,-2.3596032,0.009252429,1.5715058,0.7947648,0.039654173,0.03965424,0.004100207420987267,-0.014408471601939834,-0.0091314611314397,0.03501539800714822,-0.028264647937988285,0.011086460722918308,0.9999802954138801,0.005754306250191941,0.0017352222317879172,0.0018126630559286835
1.9999999999999978,-0.008179515,-0.7920027,0.008374188,-2.3597891,0.009772302,1.571537,0.79526204,0.039681833,0.0396819,0.007023184967591689,-0.014593598004660618,-0.008649082483613846,0.03627508325766318,-0.0287503277855022,0.011472399105926373,0.9999780225575743,0.0060694338251124575,0.0018592438846135341,0.001913004721305633
2.0166666666666644,-0.00864302,-0.79242295,0.008837328,-2.3599813,0.010310345,1.5715685,0.79577655,0.03970728,0.03970735,0.004696728501318859,-0.014755747669650994,-0.010320992576184906,0.03754987233242575,-0.029232575434905084,0.011861033740364974,0.9999755398048873,0.00639556603519591,0.0019872602448896665,0.0020167607029108626
2.033333333333331,-0.009122352,-0.7928577,0.009316297,-2.3601806,0.01086676,1.5716008,0.7963087,0.0397307,0.03973077,0.003486225447923985,-0.01491567831476883,-0.010410660274451367,0.03883947583065009,-0.029720676463750127,0.012254503588230818,0.9999728324608684,0.006732913356427886,0.00211920149781933,0.002123959259138373
2.0499999999999976,-0.009617672,-0.7933069,0.009811258,-2.3603866,0.01144173,1.571635,0.79685855,0.039752237,0.03975231,0.00453278895558018,-0.015068552945840183,-0.00934230640787792,0.04014270269782677,-0.030215440563658,0.012649424727820154,0.9999698843913294,0.007081532623161241,0.0022558023447267336,0.0022346279064198
2.066666666666664,-0.010129141,-0.7937707,0.010322365,-2.3606,0.012035451,1.5716703,0.79742634,0.03977206,0.03977213,0.0032013950278741987,-0.015217316184997116,-0.010353694065901031,0.04145992711231782,-0.03071061633143067,0.013047209412617666,0.9999666812106167,0.007441575839674851,0.002396366362390647,0.0023487966928760285
2.083333333333331,-0.010656911,-0.7942493,0.010849777,-2.3608205,0.012648086,1.5717058,0.79801226,0.03979029,0.039790366,0.0035550257080130265,-0.015363450275786283,-0.010976070963719664,0.042789831219783234,-0.03121350818681086,0.013448396474585147,0.9999632072713872,0.007813156395187744,0.0025407034029973617,0.002466478640279888
2.0999999999999974,-0.011201122,-0.79474276,0.0113936355,-2.3610473,0.0132798115,1.5717432,0.79861647,0.039807066,0.03980714,0.005664740421340575,-0.015515837150222554,-0.009285865406205573,0.044132216584912835,-0.03172476397043631,0.013852080921720085,0.999959442346064,0.008196385174558628,0.0026901128977040076,0.002587706632603952
2.116666666666664,-0.01176192,-0.7952514,0.011954078,-2.361281,0.013930787,1.5717821,0.79923904,0.0398225,0.039822575,0.004637802071982833,-0.015632304914483565,-0.010129251868473688,0.04548654113957466,-0.03223274885763967,0.014257998505551438,0.9999553701126137,0.00859132478896207,0.0028441655567836674,0.0027124976685694966
2.1333333333333306,-0.012339432,-0.7957752,0.012531238,-2.3615217,0.01460117,1.5718212,0.79988015,0.039836705,0.039836783,0.0036663284330495927,-0.015766388200902717,-0.011021184875525947,0.046852667154984276,-0.03274164546398917,0.014665066250462301,0.9999509745212855,0.008998087389486634,0.0030020738414821913,0.002840867809859134
2.1499999999999972,-0.012933787,-0.7963143,0.013125243,-2.3617692,0.015291104,1.571862,0.80054003,0.039849762,0.03984984,0.005210219807194605,-0.01588852664916266,-0.009885285659638754,0.048230038990648316,-0.033258344728560166,0.015074766997020896,0.9999462330900355,0.00941681536602306,0.0031649271641693193,0.002972835928220528
2.166666666666664,-0.013545105,-0.7968688,0.0137362145,-2.3620236,0.016000733,1.5719042,0.80121875,0.039861783,0.039861865,0.004672070554234686,-0.016004800656010433,-0.010133913260346183,0.04961773970079366,-0.03377227053290567,0.01548532619096028,0.9999411272004582,0.009847562947870548,0.003332473664580492,0.003108417015076596
2.1833333333333305,-0.014173506,-0.7974389,0.0143642705,-2.362285,0.01673019,1.5719471,0.8019165,0.03987284,0.039872922,0.004645244682310867,-0.016117718512959588,-0.010766272092643803,0.051015693793966775,-0.034286640412716334,0.01589808127786428,0.9999356371829241,0.010290442460083295,0.0035044608625938536,0.0032476206086951443
2.199999999999997,-0.014819095,-0.7980247,0.015009516,-2.3625536,0.017479599,1.5719912,0.8026331,0.039883018,0.0398831,0.003991860725571783,-0.01620979926240211,-0.010618425200514814,0.05242330303094896,-0.03480358651991098,0.01631202655988474,0.9999297433696376,0.010745420558981122,0.00368090456037267,0.003390457691664388
2.2166666666666637,-0.015481975,-0.7986262,0.015672056,-2.3628297,0.01824909,1.5720367,0.8033686,0.039892375,0.03989246,0.004006386526533845,-0.01631731491246475,-0.010403355396149117,0.05384097560958301,-0.03532296794966761,0.016726135640664126,0.9999234246267507,0.01121251870854754,0.003861909300542113,0.003536942673502536
2.2333333333333303,-0.016162243,-0.79924345,0.016351989,-2.3631127,0.01903877,1.5720835,0.80412376,0.03990099,0.039901074,0.004807767905190552,-0.01641485629013499,-0.010401212437138874,0.05526898508126342,-0.03584264857195098,0.01714182718915997,0.9999166548270733,0.01169211134742563,0.004047637533897167,0.003687080426197075
2.249999999999997,-0.016859991,-0.7998765,0.017049406,-2.363403,0.01984875,1.572131,0.8048984,0.039908912,0.039908998,0.0038138002887766476,-0.016500439214426135,-0.010834609389465122,0.056704186125171106,-0.036362533289389154,0.017558215806320398,0.9999094139486521,0.012184162955620139,0.004237656654752807,0.0038408769845546284
2.2666666666666635,-0.01757531,-0.80052555,0.017764391,-2.3637006,0.020679118,1.5721802,0.8056926,0.03991621,0.0399163,0.0045779760658337665,-0.016567220804899335,-0.01025988205713979,0.05814687467851549,-0.036885259063422444,0.01797323335978273,0.9999016759803532,0.012688754794514616,0.004432516689483685,0.00399833330815035
2.28333333333333,-0.018308274,-0.80119056,0.01849703,-2.3640056,0.021529973,1.5722303,0.8065065,0.03992293,0.039923023,0.003947059862152713,-0.01665793253748417,-0.010674823533918243,0.05959660793089468,-0.03740640407648077,0.018390162634259574,0.999893418481004,0.01320593302004509,0.004631843417387999,0.004159451646369722
2.2999999999999967,-0.019058958,-0.80187166,0.01924739,-2.364318,0.022401404,1.5722814,0.80734,0.039929092,0.039929185,0.003927267336134577,-0.016729365380665356,-0.010875178741742708,0.06105306655649173,-0.03792865115003581,0.0188070332677948,0.9998846179699,0.01373568723721548,0.004835560492302141,0.004324233808859348
2.3166666666666633,-0.019827431,-0.8025688,0.020015545,-2.3646376,0.02329349,1.572334,0.8081933,0.03993476,0.03993486,0.004057424141867827,-0.01678723680524595,-0.010176062619549064,0.0625168405519185,-0.038452646826589214,0.019222891768057637,0.9998752465100288,0.014278127258437523,0.005044037656021238,0.0044926810064570685
2.33333333333333,-0.020613752,-0.8032823,0.020801554,-2.3649647,0.024206305,1.5723879,0.8090665,0.03993998,0.039940078,0.004216580320903773,-0.016856966367866794,-0.010687045655033423,0.06398635677372715,-0.03897451157804747,0.01963922008771935,0.9998652783788873,0.014833297221750447,0.0052571974457242,0.0046647894762947536
2.3499999999999965,-0.021417985,-0.80401194,0.02160547,-2.3652995,0.025139913,1.5724427,0.8099595,0.039944794,0.039944895,0.0032893879867934572,-0.016892191736345152,-0.01083640124792673,0.06546186903206713,-0.03949470201073431,0.02005406605956156,0.9998546896884977,0.015401220500522521,0.005474574782559256,0.004840552237321038
2.366666666666663,-0.022240179,-0.80475795,0.022427354,-2.3656416,0.026094379,1.572499,0.8108724,0.039949223,0.03994932,0.004210319666109186,-0.016960402806968228,-0.010234673653175541,0.06694278839118317,-0.04001832188548356,0.020468922697860034,0.9998434495724356,0.01598193803669562,0.0056968363155061805,0.005019966103254962
2.3833333333333298,-0.023080384,-0.80552024,0.023267247,-2.3659914,0.02706975,1.5725565,0.81180537,0.039953303,0.039953407,0.003396800453714377,-0.01698306406386109,-0.0106598734845198,0.06842895276949668,-0.04053799729508274,0.0208821468446609,0.9998315316518747,0.01657556096766784,0.005923485934903869,0.005203019090148793
2.3999999999999964,-0.023938628,-0.8062991,0.024125192,-2.3663485,0.028066076,1.572615,0.8127584,0.03995705,0.039957155,0.004041981860414268,-0.01705548619131865,-0.010675015069505633,0.06991907527204705,-0.04105836950777838,0.021294983483265167,0.9998189069065041,0.017182062573729066,0.006154772534409266,0.005389702500654412
2.416666666666663,-0.024814961,-0.8070943,0.025001222,-2.3667133,0.029083405,1.5726752,0.8137314,0.039960496,0.039960604,0.0034822978882464994,-0.017053948002111394,-0.01014477270309122,0.07141389852385459,-0.04157646085757455,0.02170571973442563,0.9998055464074884,0.017801442225820852,0.006390736209991254,0.005580010591261136
2.4333333333333296,-0.025709404,-0.807906,0.025895372,-2.367086,0.030121759,1.5727364,0.8147247,0.03996367,0.039963778,0.0029468476826721712,-0.017093939743767148,-0.010823644298030288,0.07291264586415729,-0.042092363486216706,0.02211570379451938,0.9997914202321145,0.01843388589052154,0.006630968485753579,0.005773918787766542
2.449999999999996,-0.02662199,-0.808734,0.026807662,-2.367466,0.031181185,1.5727988,0.8157379,0.03996659,0.039966702,0.0035902216177996493,-0.017120445506236398,-0.01019428017940971,0.07441380430319616,-0.04260814502343575,0.022524004184192245,0.9997764999387473,0.019079201101395247,0.006875777732108147,0.00597142664186119
2.466666666666663,-0.027552728,-0.80957854,0.027738113,-2.3678536,0.03226169,1.5728627,0.8167713,0.039969277,0.03996939,0.003322922489168434,-0.01713383381110739,-0.010252253804510225,0.07591909379464756,-0.043122422578102775,0.022929697495235345,0.9997607520418454,0.019737546225419778,0.007125172122394918,0.006172509048116301
2.4833333333333294,-0.028501641,-0.81043965,0.028686743,-2.368249,0.0333633,1.5729276,0.81782496,0.039971747,0.039971862,0.0031350814216679623,-0.017156920869765974,-0.010579057567960959,0.07742660530496508,-0.04363274973350614,0.02333244048984945,0.999744146672023,0.020408935540129333,0.00737892175319794,0.006377151316028328
2.499999999999996,-0.029468732,-0.8113172,0.029653553,-2.3686514,0.034486026,1.572994,0.81889874,0.039974038,0.039974157,0.003916317290464377,-0.01716221783572558,-0.009805448963784436,0.07893649422026412,-0.044143291238481604,0.02373470217096013,0.999726649096122,0.021093346200236156,0.007637482007586498,0.006585339907732635
2.5166666666666626,-0.030454006,-0.8122113,0.030638544,-2.3690617,0.03562986,1.5730617,0.8199928,0.03997612,0.03997624,0.002582446055798826,-0.017136790327638984,-0.010257572806748882,0.08044796946431737,-0.04464662713788614,0.02413453536271093,0.9997082286973789,0.021790859548436656,0.007900383780116304,0.006797047227768106
2.533333333333329,-0.03145746,-0.8131219,0.03164172,-2.3694794,0.03679481,1.5731304,0.821107,0.039978057,0.039978176,0.0032403433492422806,-0.01716674235241189,-0.010289616819592062,0.08196059145161397,-0.045149361223914705,0.024531940378450807,0.9996888532867306,0.022501415858720168,0.008167694475337975,0.007012251105890649
2.549999999999996,-0.032479085,-0.81404907,0.032663085,-2.3699045,0.037980866,1.5732002,0.8222414,0.03997984,0.03997997,0.003149211990183254,-0.01716509465146121,-0.010013960000421207,0.08347459906899865,-0.04564897115911053,0.02492488981337604,0.9996684872983148,0.023225080651232438,0.008439480492711206,0.007230926666477022
2.5666666666666624,-0.033518884,-0.8149927,0.03370261,-2.3703372,0.039188016,1.5732718,0.82339597,0.039981466,0.039981592,0.0027937282921053352,-0.01710655942959785,-0.009694441411234322,0.08498879246352659,-0.046144365437562104,0.025316835816636414,0.9996470970073564,0.023961793207690207,0.008715838966564578,0.007453057234830621
2.583333333333329,-0.034576815,-0.81595284,0.034760296,-2.3707776,0.040416237,1.5733441,0.8245707,0.03998296,0.039983086,0.00234458672616622,-0.017145379437093905,-0.01020970743548233,0.08650359866368452,-0.04663500884640983,0.025705689259224125,0.9996246508541656,0.024711598468967415,0.00899629919526186,0.007678600561645849
2.5999999999999956,-0.035652887,-0.8169295,0.035836097,-2.3712256,0.04166551,1.5734177,0.8257656,0.039984327,0.039984457,0.002482481757559718,-0.017053386356403327,-0.009942200035650828,0.08801811310769418,-0.047124228365158415,0.026090576559318013,0.9996011114760692,0.025474502873056037,0.009281076645629821,0.007907544212690576
2.6166666666666623,-0.036747057,-0.8179227,0.036929995,-2.3716807,0.04293581,1.573493,0.8269806,0.039985616,0.03998575,0.0033167473383777235,-0.017074544726159574,-0.009197018698614556,0.08953204048244469,-0.047609737947266056,0.026472153218032375,0.9995764393987182,0.026250465639593733,0.0095706540908158,0.008139866888285042
2.633333333333329,-0.037859295,-0.81893224,0.038041975,-2.3721435,0.044227093,1.573569,0.8282156,0.039986823,0.03998695,0.001839198909170392,-0.017040710813918947,-0.010014727935536705,0.09104513713669818,-0.048087629230055114,0.02685281270461895,0.9995506074196012,0.027039464179320023,0.00986414386780513,0.008375514895017524
2.6499999999999955,-0.03898957,-0.8199582,0.039171994,-2.372614,0.04553931,1.5736463,0.82947063,0.039987914,0.039988045,0.0020099336818901747,-0.016976523014992917,-0.009656262319746034,0.09255724435707992,-0.04856270145076542,0.02722734859144251,0.9995235758474309,0.02784151292221011,0.010161819952607763,0.008614458695610578
2.666666666666662,-0.040137835,-0.8210003,0.040319994,-2.373092,0.046872422,1.5737255,0.8307457,0.0399889,0.03998904,0.001745327325064494,-0.016915275095356896,-0.008846596278133667,0.09406784993985509,-0.049035230907179116,0.02759725774073711,0.9994953052080519,0.02865662431954145,0.010463836707375615,0.008856685104107002
2.6833333333333287,-0.041304052,-0.8220587,0.041485965,-2.3735776,0.04822638,1.5738053,0.8320407,0.03998984,0.039989978,0.0014850601426585897,-0.01691704954124712,-0.009786783154086542,0.09557605022774517,-0.049501085873732434,0.027964844339101687,0.9994657641674664,0.029484760976934435,0.010769692914328196,0.0091021339150023
2.6999999999999953,-0.042488173,-0.8231334,0.042669825,-2.3740702,0.049601126,1.5738863,0.8333556,0.03999069,0.039990827,0.0027065743270604514,-0.01685860450525503,-0.009147593354197348,0.09708184788185256,-0.049966259048916106,0.028328722699586688,0.999434910466247,0.030325867455704775,0.011079900588420564,0.009350791802539891
2.716666666666662,-0.04369013,-0.8242246,0.043871522,-2.3745704,0.050996594,1.5739691,0.83469015,0.03999146,0.039991606,0.0017677435995011592,-0.01676877932650367,-0.008818932134357915,0.09858526902295893,-0.050423768159735094,0.028686658693002486,0.9994027064307269,0.0311798692519622,0.011394555079106443,0.009602616670362833
2.7333333333333285,-0.044909876,-0.8253317,0.04509101,-2.375078,0.052412722,1.5740526,0.83604455,0.039992183,0.039992325,0.00103551646197797,-0.016736311760386785,-0.009297038132949353,0.10008614094380362,-0.050872293200140334,0.029042898551870686,0.9993691196955025,0.03204685235437123,0.011712825761940182,0.009857563891951363
2.749999999999995,-0.04614734,-0.826455,0.04632821,-2.3755932,0.053849444,1.5741371,0.8374187,0.03999283,0.03999298,0.0009824912521549933,-0.016648559346220393,-0.00913302446010622,0.10158346813716612,-0.05132054370848779,0.029392021043803396,0.999334109422119,0.032926769400757804,0.012034956285186369,0.010115603271344985
2.7666666666666617,-0.04740244,-0.82759416,0.047583092,-2.3761158,0.055306647,1.5742235,0.83881253,0.039993454,0.039993603,0.0011548678709338844,-0.016599648851690907,-0.00813114341118304,0.10307700478955381,-0.05176418899279326,0.029738228212862726,0.9992976321965651,0.03381960519188315,0.012361278582830744,0.010376674939557233
2.7833333333333283,-0.04867514,-0.8287494,0.04885554,-2.3766456,0.056784265,1.5743107,0.84022564,0.039994042,0.039994188,0.00129367763981314,-0.016491118653974568,-0.008963391405503174,0.10456564226167878,-0.05219914357531423,0.030080942861877902,0.9992596594810789,0.03472514152163583,0.012691412423460167,0.010640748599513325
2.799999999999995,-0.04996534,-0.8299205,0.050145492,-2.3771827,0.05828221,1.5743988,0.84165853,0.03999455,0.0399947,0.0005145258415328868,-0.01642106343300656,-0.008628065058213785,0.10605140293007231,-0.052630314326383924,0.030416222468536917,0.9992201437009779,0.03564364448517191,0.013025180337877794,0.01090778195498944
2.8166666666666615,-0.051272973,-0.8311074,0.051452875,-2.3777273,0.059800386,1.5744885,0.84311044,0.03999504,0.03999519,0.000686704628560797,-0.016318995681968013,-0.008048377354774594,0.10753105106981474,-0.053057648817853506,0.030749208533007805,0.9991790524849702,0.03657473318052197,0.013362948240334988,0.011177727064879501
2.833333333333328,-0.052597936,-0.83231014,0.05277759,-2.378279,0.061338708,1.5745794,0.84458154,0.039995503,0.03999565,0.0007624715594900522,-0.016264336464996698,-0.008302588189756932,0.10900693524280955,-0.053478098457186055,0.03107640703174456,0.9991363442681135,0.03751848679801866,0.013704510553758355,0.011450550267065115
2.8499999999999948,-0.053940143,-0.8335284,0.054119553,-2.3788376,0.06289705,1.5746711,0.84607184,0.039995894,0.039996054,0.0006124438532317811,-0.01616772509051498,-0.007998185529078938,0.11047778449819345,-0.05389131806662452,0.03139600491175178,0.9990919796526053,0.03847489930116503,0.014049722410209211,0.011726193662024377
2.8666666666666614,-0.055299517,-0.83476216,0.055478673,-2.3794034,0.06447531,1.5747645,0.8475814,0.03999627,0.039996427,0.0002714809075543556,-0.016031001450786397,-0.00756540063635569,0.11194309626351759,-0.054299468703447706,0.0317139077808211,0.9990459122854966,0.03944401841749576,0.01439873656795994,0.012004621691944854
2.883333333333328,-0.056675944,-0.8360116,0.056854855,-2.3799765,0.06607339,1.574859,0.8491099,0.03999663,0.039996788,-0.00020335755079869955,-0.015945424243659495,-0.00793735676625218,0.1134014354147214,-0.05469917277521614,0.032025621724542055,0.9989981090432202,0.04042568978117999,0.01475132054003601,0.012285775356536757
2.8999999999999946,-0.058069326,-0.83727646,0.058248,-2.3805568,0.06769117,1.5749545,0.85065717,0.03999697,0.039997127,-0.0002681020557560032,-0.015858995596576553,-0.007785405263471823,0.11485338540898157,-0.055093686920012284,0.032331898882861504,0.998948533286667,0.04141981731559194,0.015107330249886532,0.012569612192935599
2.916666666666661,-0.05947956,-0.8385567,0.059657976,-2.381144,0.06932854,1.5750513,0.85222316,0.03999725,0.039997417,6.12145836020872e-05,-0.015725593046039127,-0.007298417792522827,0.11629906302969681,-0.05548213276888204,0.032630265208948336,0.9988971393807464,0.04242637524682287,0.015467008547481969,0.012856098434973403
2.933333333333328,-0.060906537,-0.83985204,0.061084703,-2.3817387,0.070985325,1.5751493,0.85380775,0.03999751,0.03999768,-0.0012547603444268418,-0.015564403062909293,-0.007310369257540472,0.11773773353635703,-0.055863028145590486,0.03292539633712388,0.998843894235315,0.04344530838103627,0.015829884407330564,0.013145146943191166
2.9499999999999944,-0.06235015,-0.8411627,0.06252805,-2.3823397,0.072661445,1.5752482,0.8554107,0.039997768,0.039997935,0.00041230951892679,-0.015534600171679402,-0.007146501593702226,0.11916908625004169,-0.056238733454861294,0.033215083481711774,0.9987887532865163,0.04447647301192354,0.01619640934473407,0.01343673997381468
2.966666666666661,-0.06381027,-0.84248817,0.063987896,-2.3829477,0.07435671,1.5753481,0.8570321,0.03999801,0.039998177,-0.001051659635176172,-0.01532932836160461,-0.006965792853130814,0.12059375470469513,-0.05660523601417533,0.03349897271930642,0.9987316783089235,0.04551993781363722,0.016566081518693442,0.013730802846147697
2.9833333333333276,-0.06528678,-0.8438284,0.065464154,-2.3835628,0.07607107,1.5754495,0.85867167,0.03999825,0.039998416,-0.0015667478082903585,-0.015255968067190429,-0.006542172226753351,0.12200957405270313,-0.05696701000158855,0.03377710987635667,0.9986726327913021,0.04657552505753915,0.016938936428601205,0.014027309505798153
2.9999999999999942,-0.066779554,-0.84518343,0.06695668,-2.3841848,0.07780428,1.575552,0.8603293,0.03999847,0.03999864,-0.0012547238921856163,-0.015061714071538945,-0.006594709047047509,0.12341809689451898,-0.057321752405060156,0.03404932571102416,0.9986115746319757,0.047643197726827666,0.017315010104877106,0.014326169986301051
3.016666666666661,-0.068288475,-0.84655327,0.06846532,-2.3848128,0.07955622,1.5756551,0.862005,0.03999868,0.03999885,-2.9468609752392183e-05,-0.014996205418824071,-0.006522548794074545,0.12481791781317225,-0.0576697561475516,0.034314724655705495,0.9985484573422387,0.0487229553317463,0.017694425094558923,0.014627347119319407
3.0333333333333274,-0.06981338,-0.8479373,0.06998999,-2.3854477,0.08132676,1.5757598,0.86369824,0.03999884,0.03999902,-0.0021110941704760577,-0.014824190745219012,-0.005755639057158923,0.12620848660212416,-0.0580081090690127,0.034573443077327334,0.998483256187873,0.04981451134009231,0.01807686285912858,0.014930793735850214
3.049999999999994,-0.07135416,-0.84933597,0.0715305,-2.386089,0.08311572,1.5758655,0.8654092,0.039998993,0.039999176,-0.0010938847983421596,-0.014650106710019373,-0.006093331712797578,0.12759118064696276,-0.058340451397448166,0.034826909442261564,0.99841591898086,0.050917954613671566,0.01846253636948591,0.01523644887662953
3.0666666666666607,-0.072910644,-0.85074896,0.07308673,-2.3867369,0.084922954,1.5759722,0.86713755,0.039999146,0.03999933,-0.0016570294378626116,-0.01455184347363414,-0.005874747764655908,0.12896443974946814,-0.05866332019739607,0.035075231255565054,0.9983464148837949,0.05203311156187025,0.01885118445061181,0.015544260505809083
3.0833333333333273,-0.074482754,-0.852176,0.07465858,-2.3873918,0.08674829,1.57608,0.86888325,0.039999284,0.039999466,-0.003241685408705841,-0.014291286415130111,-0.005821644939718595,0.1303284256795239,-0.05897786758163946,0.035317212297747855,0.9982747080359972,0.053159991876728215,0.01924236744645036,0.015854143129373843
3.099999999999994,-0.0760703,-0.85361725,0.07624583,-2.3880532,0.08859154,1.5761888,0.870646,0.039999425,0.039999608,-0.0020264886816612204,-0.014152693986746456,-0.005512387046224809,0.13168220321101975,-0.059288826315822676,0.03555307014077659,0.9982007557605529,0.05429841737600113,0.019636480696760286,0.01616606616862233
3.1166666666666605,-0.07767315,-0.8550724,0.07784836,-2.3887208,0.09045255,1.5762988,0.87242585,0.03999956,0.039999746,-0.002036463105947739,-0.014025258031970245,-0.005056753515320089,0.13302627994430666,-0.05959174525671396,0.03578170226858511,0.9981245126570346,0.05544840209527322,0.020033528974242903,0.01647997739914159
3.133333333333327,-0.07929115,-0.8565413,0.079466045,-2.389394,0.09233115,1.5764095,0.8742225,0.039999686,0.039999872,-0.0016973554100241373,-0.013946847029903953,-0.00513869909104514,0.1343593810006888,-0.059884311133732035,0.03600500367772114,0.9980459477331826,0.05660975653921132,0.020433371143288824,0.016795803692152916
3.1499999999999937,-0.08092411,-0.8580238,0.081098706,-2.3900735,0.094227165,1.5765215,0.87603587,0.03999981,0.039999995,-0.0024907994996548055,-0.013723711359325819,-0.00454250677532908,0.1356819367697449,-0.060168828909863206,0.036222037785582695,0.9979650171090256,0.05778242964466035,0.020836104560684764,0.017113509215772146
3.1666666666666603,-0.082571894,-0.85951984,0.082746185,-2.3907595,0.09614038,1.5766345,0.8778657,0.039999917,0.04,-0.0033972883156652145,-0.013478606119383951,-0.004773379928924015,0.13699377585539513,-0.060442598483054735,0.03643267957249158,0.9978816929614143,0.058966312890599684,0.021241262996917296,0.017433001544358152
3.183333333333327,-0.084234335,-0.861029,0.0844083,-2.3914514,0.09807061,1.5767486,0.8797117,0.04,0.04,-0.002988779092216731,-0.013316702357474286,-0.004227027616932055,0.1382943537731061,-0.060710338176115236,0.036637803548033115,0.9977959364458172,0.06016126595583394,0.021648974443581683,0.017754244460051125
3.1999999999999935,-0.085911244,-0.86255133,0.08608493,-2.39215,0.10001771,1.5768634,0.8815738,0.04,0.04,-0.004551012799813847,-0.013190255622991254,-0.004622087416805698,0.13958441892366036,-0.060967799168845434,0.03681734638383587,0.9977077210182604,0.06136721799720205,0.0220586515418989,0.018077164268379017
3.21666666666666,-0.08760248,-0.8640867,0.087775856,-2.3928537,0.10198146,1.5769794,0.88345176,0.04,0.04,-0.0021262483322015413,-0.013004306051950243,-0.0035911315081627038,0.1408619913808784,-0.06122417971538553,0.03700914076095545,0.9976169916612864,0.06258401873270462,0.02247119727365074,0.018401734729043214
3.2333333333333267,-0.08930791,-0.86563486,0.089480944,-2.3935635,0.103961594,1.5770963,0.8853454,0.04,0.04,-0.0038340000444447853,-0.012703870978568454,-0.003792288878123884,0.1421284970797354,-0.06146672520992144,0.037191997224496495,0.9975237234500861,0.06381160200972703,0.02288599847299457,0.018727831618271178
3.2499999999999933,-0.0910273,-0.86719584,0.09120001,-2.3942788,0.10595797,1.5772142,0.88725466,0.04,0.04,-0.003152902493286369,-0.012660081603355078,-0.003513486258732712,0.14338251508827604,-0.0617030481606312,0.037368687774681886,0.9974278728070047,0.0650498768162117,0.023303270724877777,0.019055436164318373
3.26666666666666,-0.092760496,-0.86876935,0.09293285,-2.3950005,0.10797038,1.577333,0.8891792,0.04,0.04,-0.005278372088213246,-0.012281859153945307,-0.00367600998421036,0.14462398422695505,-0.061928116554373386,0.037541215485606974,0.9973294186735223,0.06629875251917822,0.023722314235554567,0.019384474974688284
3.2833333333333266,-0.0945073,-0.87035507,0.094679296,-2.395728,0.10999864,1.5774529,0.89111894,0.04,0.04,-0.004781656704588855,-0.012163482639279688,-0.002959617342401799,0.14585266021258156,-0.06214738945377154,0.03770606913686686,0.9972283204916914,0.06755809579883489,0.024143376965677962,0.019714914406334032
3.299999999999993,-0.096267544,-0.87195325,0.09643916,-2.3964605,0.11204247,1.5775735,0.8930736,0.04,0.04,-0.002795017333179217,-0.01204069246688727,-0.0028998997165574636,0.14706789485447175,-0.06236090475600797,0.0378641840974651,0.9971245350130966,0.06882775346920404,0.02456691692431702,0.02004666107191474
3.3166666666666598,-0.098041035,-0.87356335,0.09821231,-2.3971987,0.11410172,1.577695,0.8950431,0.04,0.04,-0.0050880911891759695,-0.01181444054976083,-0.0027512061924639397,0.14827040702579958,-0.06256195187341429,0.038017632886273106,0.9970180414749737,0.07010765135050082,0.02499223167463707,0.0203796602387132
3.3333333333333264,-0.09982758,-0.8751853,0.09999849,-2.3979428,0.11617612,1.5778173,0.8970269,0.04,0.04,-0.005686390616577164,-0.011460027528617522,-0.0027006472702151285,0.1494592022725146,-0.06275678755157148,0.038162674831798124,0.9969088153226734,0.0713975993289898,0.025419160980727516,0.020713835884180885
3.349999999999993,-0.10162699,-0.8768191,0.1017975,-2.3986917,0.11826545,1.5779408,0.89902496,0.04,0.04,-0.0037052503739198883,-0.011357715759285902,-0.0018641806210695222,0.1506348654921808,-0.06294482510613696,0.038292777706095404,0.9967968041221046,0.07269747456769554,0.02584842988486452,0.021049160456542815
3.3666666666666596,-0.10343911,-0.8784642,0.1036092,-2.399446,0.12036949,1.5780652,0.9010372,0.04,0.04,-0.005630868337602735,-0.011071270704347824,-0.00203910676803698,0.15179673815648223,-0.063120290579112,0.038424451628291834,0.9966819868553625,0.07400726611978664,0.026279278455911874,0.021385536312163316
3.383333333333326,-0.10526367,-0.8801207,0.105433345,-2.4002056,0.122488014,1.5781901,0.9030633,0.04,0.04,-0.005491313031091849,-0.010904735458366899,-0.001992702498809784,0.15294370800796075,-0.06329002843705633,0.03855975690890276,0.9965643392728597,0.07532675183718818,0.026711663355689155,0.021722918498198802
3.399999999999993,-0.10710052,-0.8817884,0.10726979,-2.40097,0.12462081,1.5783159,0.9051029,0.04,0.04,-0.004845308658096847,-0.010748757722402191,-0.0014739052148771137,0.15407712145407845,-0.06345092513142156,0.03867348688801604,0.996443826905,0.07665574506985334,0.027145867390275597,0.022061243263549045
3.4166666666666594,-0.10894943,-0.883467,0.109118275,-2.4017396,0.12676764,1.5784428,0.907156,0.04,0.04,-0.005901326280843833,-0.010386221608447987,-0.001148179486087919,0.15519612364229968,-0.06360364930707563,0.03879262765604863,0.9963204140812916,0.07799424093408612,0.027581699023744286,0.022400463052423786
3.433333333333326,-0.11081022,-0.88515645,0.11097864,-2.4025145,0.12892823,1.5785705,0.9092222,0.04,0.04,-0.006386613237863159,-0.010167965165541748,-0.001289061498943589,0.15630007417249447,-0.06374657423974987,0.038898166336627335,0.9961940863085412,0.07934203680117856,0.02801882002010452,0.022740477673354072
3.4499999999999926,-0.11268268,-0.88685644,0.11285065,-2.403294,0.1311024,1.5786989,0.9113013,0.04,0.04,-0.005928965675416897,-0.009989669555852954,-0.000877713181535178,0.15738930936644271,-0.06388228306128652,0.03899374524496657,0.996064809689428,0.0806990091932369,0.028457335248815968,0.02308126695243843
3.4666666666666592,-0.114566565,-0.88856685,0.114734076,-2.4040782,0.13328986,1.5788277,0.9133932,0.04,0.04,-0.005845508892932116,-0.009763807939580649,-0.0008020585060108942,0.15846357538926145,-0.06400986420711778,0.03908523015667936,0.9959325574333293,0.08206502864775095,0.02889717383226271,0.023422755214958253
3.483333333333326,-0.11646173,-0.89028746,0.116628736,-2.4048674,0.13549036,1.5789573,0.91549754,0.04,0.04,-0.0069476334635387715,-0.009397640234273807,-0.0005570084065986691,0.15952233972428984,-0.06412820009042011,0.039165265845929595,0.9957973075828603,0.08343998007130442,0.029338089811543854,0.02376485688230582
3.4999999999999925,-0.11836791,-0.89201814,0.11853442,-2.4056609,0.13770366,1.5790881,0.91761416,0.04,0.04,-0.005784517346518747,-0.009295050322383203,0.00020140795811141032,0.16056496491140027,-0.06424184758337337,0.03924948044340676,0.9956590197284315,0.08482369107059179,0.029780605323628598,0.024107538512626394
3.516666666666659,-0.1202849,-0.89375865,0.12045093,-2.4064589,0.1399295,1.5792198,0.9197428,0.04,0.04,-0.006638286570836982,-0.008999562533858196,0.0001788734412588866,0.16159200855715714,-0.06434274542824032,0.03932357485482171,0.9955176767090448,0.08621604173044183,0.030224355211606314,0.02445072310184183
3.5333333333333257,-0.12221248,-0.8955087,0.122378,-2.4072611,0.14216766,1.579352,0.9218832,0.04,0.04,-0.0068083818451025735,-0.008762387033418861,0.00018574313407349052,0.16260250700151593,-0.0644354355555507,0.03938765778195155,0.9953732639514647,0.08761685613696195,0.030669063849162126,0.02479436334933417
3.5499999999999923,-0.124150425,-0.89726835,0.12431541,-2.4080677,0.14441782,1.5794847,0.92403495,0.04,0.04,-0.006858500972350967,-0.008476651023603399,0.00024176545785348225,0.1635969312106089,-0.06452024541592634,0.039454706867725425,0.9952257643910818,0.08902590733810568,0.03111475708002468,0.02513836921251483
3.566666666666659,-0.12609851,-0.89903724,0.12626295,-2.4088788,0.14667977,1.579618,0.926198,0.04,0.04,-0.007694228749333121,-0.008196123055573268,0.0005447932962754365,0.16457526263691263,-0.06459733399402655,0.03951723850046783,0.995075149668746,0.09044318737415742,0.03156118713977561,0.025482696789269527
3.5833333333333255,-0.12805654,-0.90081507,0.12822044,-2.4096935,0.14895327,1.5797526,0.9283721,0.04,0.04,-0.006207506875521851,-0.00808138183090168,0.001657641257057918,0.1655380147503045,-0.06466588740056702,0.0395502213386939,0.9949213817311024,0.09186847164053374,0.03200902809866888,0.025827315247329598
3.599999999999992,-0.13002424,-0.90260166,0.13018759,-2.4105124,0.15123802,1.5798876,0.93055725,0.04,0.04,-0.008009614299209211,-0.007674081593039839,0.000993889744305143,0.16648275227256035,-0.06472310556798304,0.039597580911300875,0.9947644485774999,0.09330180741745196,0.03245741292001729,0.026172140254070938
3.6166666666666587,-0.1320014,-0.9043967,0.13216417,-2.4113357,0.15353377,1.5800232,0.9327525,0.04,0.04,-0.008407787574160608,-0.007380534806436523,0.0012579067449669523,0.16740938619274037,-0.06477444504921763,0.03963954500318086,0.9946043685439446,0.09474268003383976,0.03290619871658935,0.026517102770304786
3.6333333333333253,-0.13398786,-0.90620023,0.13415004,-2.4121623,0.15584026,1.5801592,0.9349584,0.04,0.04,-0.00688170517570974,-0.007317608674980991,0.001676152147878085,0.16832084110399081,-0.0648190500818258,0.03965732468486438,0.9944410725054215,0.09619130112524493,0.03335584151101374,0.026862143235263432
3.649999999999992,-0.13598329,-0.90801203,0.13614485,-2.4129932,0.15815718,1.5802957,0.9371741,0.04,0.04,-0.008766385919978248,-0.006793574099722699,0.001525785668810009,0.1692128261090593,-0.06485511127200644,0.03968308573121329,0.9942745841523254,0.09764726419013067,0.033805789256258434,0.027207199739492715
3.6666666666666585,-0.1379875,-0.9098318,0.13814844,-2.4138272,0.16048431,1.5804327,0.93939954,0.04,0.04,-0.007122483669452784,-0.006802946649683839,0.0021910531013524803,0.17008792585638255,-0.06488517671358411,0.03970003115312466,0.994104866729936,0.09911045556058135,0.03425647497492681,0.027552231574273608
3.683333333333325,-0.14000024,-0.91165936,0.14016058,-2.4146647,0.16282134,1.5805709,0.94163454,0.04,0.04,-0.007955882004195836,-0.006346316298652677,0.0028443225990493204,0.17094566526238947,-0.06490503018084177,0.03970693510677592,0.993931894909619,0.1005807796953455,0.034707960317575635,0.027897177775610793
3.6999999999999917,-0.14202125,-0.9134943,0.14218093,-2.4155056,0.16516794,1.5807097,0.94387877,0.04,0.04,-0.008276337273716017,-0.006047425725860811,0.0026050846400060834,0.17178489568629185,-0.06491367177232853,0.03971123841696232,0.9937556719958272,0.10205805057179167,0.035159771558592894,0.028241975029296606
3.7166666666666583,-0.14405034,-0.9153366,0.14420938,-2.4163504,0.16752401,1.5808488,0.94613165,0.04,0.04,-0.009235166602250544,-0.005878547197049611,0.002443283978337263,0.17260582712788622,-0.06491494045830881,0.039708674751322545,0.993576208639376,0.10354196405659537,0.03561161311840517,0.02858657580423049
3.733333333333325,-0.14608723,-0.9171861,0.14624561,-2.4171984,0.16988912,1.5809883,0.9483935,0.04,0.04,-0.008716693278176812,-0.005526687811421849,0.002805939651828737,0.17340970086391827,-0.06491084324090653,0.039702579049042716,0.9933934584251676,0.10503264404865702,0.03606359989034637,0.02893090398142035
3.7499999999999916,-0.14813171,-0.91904235,0.14828937,-2.418049,0.17226303,1.5811282,0.9506637,0.04,0.04,-0.007864251855727034,-0.0053007366963536695,0.003414693228975807,0.17419275988483435,-0.06490198519980192,0.03969619858223891,0.993207424050073,0.10652968840710253,0.036515975489634415,0.029274935247486738
3.766666666666658,-0.15018357,-0.9209053,0.15034048,-2.4189034,0.17464548,1.5812685,0.9529418,0.04,0.04,-0.009750192112689682,-0.004940108873224824,0.003152678281037602,0.17495948930839678,-0.06488060516907686,0.03966943299662162,0.9930181160603359,0.10803294499623955,0.036968152209457525,0.02961857008093043
3.7833333333333248,-0.15224245,-0.9227749,0.15239863,-2.4197598,0.17703614,1.5814093,0.95522785,0.04,0.04,-0.007292976626005476,-0.004890304644808441,0.0037567641331781587,0.1757060463049496,-0.06485631989419391,0.039652104529812035,0.9928254915092586,0.10954227891159864,0.03742089787540233,0.02996179137587409
3.7999999999999914,-0.15430821,-0.9246505,0.15446368,-2.4206195,0.17943469,1.5815512,0.95752174,0.04,0.04,-0.009912725747640572,-0.004283321305667553,0.004284400662246668,0.17643460939906236,-0.0648194264432673,0.03962082385009512,0.9926295471985626,0.1110577005664143,0.03787356764239669,0.030304488897095392
3.816666666666658,-0.15638056,-0.9265321,0.1565353,-2.421482,0.18184093,1.5816936,0.9598227,0.04,0.04,-0.009243730575181353,-0.004140159198598448,0.004120598224233163,0.1771428327442962,-0.06477590781588888,0.03958453938554535,0.9924303011296828,0.11257878060160617,0.03832620087147353,0.030646661884488217
3.8333333333333246,-0.15845932,-0.92841953,0.15861318,-2.4223475,0.18425453,1.5818363,0.96213067,0.04,0.04,-0.009590695215999645,-0.0036867277946245336,0.004035954117909135,0.1778324242423754,-0.06472378130244404,0.039541470776111864,0.9922277420442511,0.1141054828938297,0.03877853918061582,0.030988249230157507
3.849999999999991,-0.16054407,-0.9303125,0.16069715,-2.4232152,0.18667519,1.5819793,0.9644454,0.04,0.04,-0.008721864116134626,-0.0037713355631657786,0.004468688720260516,0.17850231944774814,-0.064665385415507,0.039491979051664974,0.9920218697792882,0.1156375254621376,0.03923078848941128,0.03132918478188474
3.866666666666658,-0.16263466,-0.9322107,0.16278695,-2.4240851,0.18910271,1.5821224,0.96676683,0.04,0.04,-0.00951744924551079,-0.003341731141054405,0.004668569802346312,0.17915300035016074,-0.06459952810343068,0.03944087383692621,0.9918126717065068,0.11717489572122443,0.03968265880190975,0.03166945919229623
3.8833333333333244,-0.16473086,-0.9341139,0.16488235,-2.4249573,0.19153665,1.582266,0.9690942,0.04,0.04,-0.009230605513943502,-0.002981488073552918,0.004945683416801572,0.1797830832740705,-0.0645276351044955,0.03938161901220144,0.9916001684026018,0.11871719710797231,0.040134288429600096,0.03200893667412463
3.899999999999991,-0.16683245,-0.93602204,0.16698304,-2.4258316,0.19397679,1.5824099,0.97142756,0.04,0.04,-0.009421097698969483,-0.002647501666122598,0.005099848856016109,0.1803941217815819,-0.06444724240790389,0.03931868641562855,0.991384339774144,0.12026442309339913,0.040585594302986576,0.03234762624474892
3.9166666666666576,-0.1689391,-0.93793494,0.16908883,-2.426709,0.1964228,1.582554,0.97376657,0.04,0.04,-0.011269327570317955,-0.002247542349606557,0.004813063232167458,0.18098493841829044,-0.06436011797059993,0.03924959463424943,0.991165208109671,0.1218164255813786,0.04103599911924436,0.03268540144734936
3.9333333333333242,-0.17105055,-0.93985236,0.1711994,-2.4275885,0.19887446,1.5826983,0.9761108,0.04,0.04,-0.009869152727648434,-0.0021349970612427605,0.005296486426842328,0.18155514946074314,-0.06426935262431627,0.039174924129439084,0.9909427727254567,0.12337289858840794,0.041485867351641954,0.03302229379010866
3.949999999999991,-0.17316657,-0.9417738,0.17331459,-2.4284692,0.20133144,1.5828434,0.97846025,0.04,0.04,-0.008615663519417893,-0.002009635719060765,0.0062857958648132595,0.1821047894122455,-0.06417278615481391,0.039094125326391005,0.9907170126207477,0.1249336992169744,0.04193564652594097,0.03335825616298202
3.9666666666666575,-0.17528692,-0.9436991,0.17543404,-2.4293509,0.20379338,1.5829889,0.98081446,0.04,0.04,-0.00839067156674922,-0.001635445114483991,0.00616795764742939,0.18263409428441452,-0.06406473487670464,0.03900952764842991,0.9904879409810616,0.12649859168832459,0.04238526712669136,0.03369323674814634
3.983333333333324,-0.17741132,-0.9456282,0.1775575,-2.4302347,0.20626003,1.5831347,0.9831732,0.04,0.04,-0.010623237782847461,-0.0011090580421535545,0.0059269263676942074,0.18314338621934967,-0.06394460446239066,0.0389170491964166,0.9902555753249233,0.12806752079797223,0.04283406710473584,0.03402717075857667
3.9999999999999907,-0.17953949,-0.9475607,0.17968479,-2.4311202,0.2087311,1.5832808,0.98553616,0.04,0.04,-0.010176529213912211,-0.0010038925828126377,0.0063046843407965625,0.1836310544738196,-0.06382082564177344,0.03882600781890641,0.9900199287112,0.12964023051778634,0.04328211556594343,0.0343600037558476
4.016666666666658,-0.18167123,-0.9494965,0.18181553,-2.4320073,0.21120623,1.583427,0.98790306,0.04,0.04,-0.010401845416807554,-0.0004789098251967161,0.006150984736752463,0.1840976709961296,-0.06369006720343373,0.038726961308380284,0.9897810101016614,0.1312166017576959,0.043729199508737444,0.03469167876627386
4.033333333333324,-0.18380626,-0.95143515,0.18394957,-2.432896,0.21368521,1.5835735,0.99027354,0.04,0.04,-0.010275325439512706,-0.00039007246308009336,0.006736374334948003,0.18454292904134906,-0.06355517894822693,0.038622097203581424,0.9895388347087425,0.1327963607092856,0.044175418048473566,0.035022187622645584
4.049999999999991,-0.18594426,-0.95337653,0.1860866,-2.4337852,0.21616767,1.5837201,0.99264735,0.04,0.04,-0.009233279219600377,-0.00018690542296362356,0.006859007204806922,0.18496741536886915,-0.06341242931519298,0.038512574263296684,0.9892934100954185,0.13437928189894197,0.044620965677762435,0.035351474652223644
4.0666666666666575,-0.18808506,-0.9553203,0.18822634,-2.4346764,0.21865334,1.5838668,0.99502426,0.04,0.04,-0.011611910886832888,0.00048059226623320406,0.006729128554572306,0.1853710511848365,-0.06326255720872355,0.03839978459169888,0.9890447572460148,0.13596536427119016,0.04506509889748654,0.035679472307393385
4.083333333333324,-0.19022833,-0.95726633,0.19036861,-2.4355686,0.22114184,1.5840137,0.997404,0.04,0.04,-0.010087899191391081,0.00046474934003726265,0.00707883111048524,0.1857524748890167,-0.06311022291451988,0.03827935835899848,0.9887928901434888,0.13755427876376528,0.045508245473839457,0.03600611599936419
4.099999999999991,-0.19237383,-0.9592146,0.1925131,-2.4364614,0.22363298,1.5841608,0.9997861,0.04,0.04,-0.009596637222886173,0.0007250253081902969,0.007248281126903677,0.18611167196565886,-0.06295276159724765,0.038158233331710464,0.988537819568003,0.13914578460788515,0.045950604095146154,0.03633141743567912
4.116666666666657,-0.19452131,-0.9611646,0.19465955,-2.4373548,0.22612636,1.5843079,1.0021704,0.04,0.04,-0.009826324870387815,0.0010577808492867602,0.007492891683713587,0.18645002101695687,-0.06278551793100834,0.038031099180185046,0.9882795643505218,0.140739770531072,0.046391897204360565,0.03665530727990261
4.133333333333324,-0.1966705,-0.9631163,0.19680765,-2.4382489,0.22862181,1.5844551,1.0045565,0.04,0.04,-0.010079974315635454,0.0013652257317392502,0.007471073137144124,0.18676637878536084,-0.062611396033992,0.03789780086737146,0.9880181516590737,0.1423359619821455,0.0468321216369705,0.03697780823392571
4.149999999999991,-0.19882111,-0.9650692,0.19895713,-2.4391437,0.23111893,1.5846025,1.0069441,0.04,0.04,-0.010549852207031307,0.0017779951878044153,0.007762062474570008,0.18706151727267192,-0.0624323740703996,0.03776296279000779,0.9877536125927632,0.14393417196026584,0.04727103807012681,0.037298845985242475
4.166666666666657,-0.2009729,-0.9670232,0.2011078,-2.4400387,0.23361735,1.5847498,1.0093329,0.04,0.04,-0.009821376981689056,0.0019317560246173704,0.007840925508673102,0.18733503849371141,-0.062246922580343096,0.037623380023411895,0.9874859575528523,0.14553423885396857,0.0477088125459807,0.03761832216586603
4.183333333333324,-0.20312561,-0.9689781,0.20325936,-2.4409342,0.23611683,1.5848972,1.0117228,0.04,0.04,-0.010395528224238504,0.0023090612985166015,0.007896465554635412,0.18758642808901507,-0.0620561117630178,0.03747917777373945,0.987215205985352,0.14713604443561823,0.04814523323960687,0.037936236179185456
4.19999999999999,-0.20527898,-0.97093344,0.20541157,-2.44183,0.23861706,1.5850445,1.0141137,0.04,0.04,-0.010386429762254679,0.00257279046294856,0.008220423815852307,0.18781593467935445,-0.06185834427948711,0.037330138878112984,0.9869413742119898,0.1487394669490742,0.04858020144574665,0.03825256681250598
4.216666666666657,-0.20743272,-0.9728892,0.20756409,-2.4427257,0.24111773,1.5851918,1.0165048,0.04,0.04,-0.009900667725859513,0.0028615478662868954,0.008260284521388606,0.18802175029961818,-0.06165762531838105,0.03717542279980146,0.9866645117620837,0.15034409343339236,0.04901387149516356,0.03856728147064859
4.233333333333324,-0.20958659,-0.97484505,0.2097168,-2.4436214,0.24361846,1.5853393,1.0188961,0.04,0.04,-0.010122630166287117,0.0031182415116515205,0.00848659354530934,0.18820542085040137,-0.06145005236867554,0.037022341507047946,0.9863846315729675,0.15194985829099725,0.04944617492718626,0.03888026423620562
4.24999999999999,-0.21174031,-0.9768007,0.21186934,-2.4445171,0.24611913,1.5854868,1.0212872,0.04,0.04,-0.010397187508548456,0.003381314119524359,0.00858142096622494,0.18836703528843451,-0.06123531759973084,0.036859355120495554,0.9861017765425651,0.15355650176093133,0.04987690198870373,0.039191602602488114
4.266666666666657,-0.21389367,-0.97875607,0.2140214,-2.4454129,0.24861921,1.5856342,1.023678,0.04,0.04,-0.010315002433203269,0.003933718447229895,0.00854151461400221,0.18850560414299433,-0.061018664330202005,0.03669931569220368,0.9858159560570823,0.15516396231821092,0.05030609084488795,0.039501174727841495
4.2833333333333234,-0.21604632,-0.980711,0.21617277,-2.4463086,0.2511186,1.5857816,1.0260679,0.04,0.04,-0.01052158212475618,0.003966635070407065,0.0085502257224368,0.18862117859558214,-0.060795698221845836,0.03653157700054485,0.9855272273369553,0.1567719068542359,0.05073358633489355,0.03980900170087066
4.29999999999999,-0.218198,-0.982665,0.2183232,-2.447204,0.2536169,1.5859289,1.0284567,0.04,0.04,-0.010380275753352208,0.004290992464750509,0.008891308065805958,0.1887141599229864,-0.06056811808053804,0.0363599471583214,0.9852356209006543,0.15838015373988223,0.051159389051423705,0.04011502364100675
4.316666666666657,-0.22034852,-0.98461777,0.22047238,-2.4480991,0.25611377,1.5860763,1.0308442,0.04,0.04,-0.010201178131219457,0.004698614512091415,0.009126410527504625,0.1887842895623372,-0.060336832345311675,0.03618566461537549,0.9849411603915114,0.15998857033568417,0.05158347239803938,0.040419219486866546
4.333333333333323,-0.22249757,-0.98656917,0.22262011,-2.4489937,0.2586089,1.5862236,1.0332302,0.04,0.04,-0.010243019626088312,0.00486873883432104,0.0091297932841794,0.18883088760219374,-0.06010118428543096,0.03600684071918653,0.9846438843967735,0.16159694951521011,0.052005804786008226,0.04072153111035656
4.34999999999999,-0.22464481,-0.98851895,0.22476606,-2.4498875,0.261102,1.5863708,1.035614,0.04,0.04,-0.009978791570453005,0.005133287920058849,0.009176591203718942,0.18885442519472084,-0.05986091454783751,0.03582512738914302,0.9843438579759131,0.1632049187293554,0.05242636609903953,0.04102194419197374
4.3666666666666565,-0.22679004,-0.99046713,0.22691005,-2.4507804,0.26359275,1.5865179,1.037996,0.04,0.04,-0.009502755341217473,0.0052635684567925445,0.009192308899663715,0.18885678500989633,-0.059615489585645234,0.03563806817559652,0.9840410628192782,0.16481257479145514,0.05284528861723217,0.041320422881159224
4.383333333333323,-0.22893308,-0.9924134,0.22905174,-2.4516718,0.26608095,1.5866649,1.0403751,0.04,0.04,-0.008818391371123724,0.005562018670959845,0.009449135685302146,0.18883302039651167,-0.05936548905383993,0.03545184530242035,0.9837355972914491,0.1664193003189908,0.05326271048970965,0.04161700102437497
4.39999999999999,-0.23107363,-0.99435717,0.23119089,-2.4525623,0.2685662,1.5868117,1.0427514,0.04,0.04,-0.010137132440468655,0.006032050497720154,0.00948832186760118,0.188788853123324,-0.059107330697800775,0.035260099373278786,0.9834274826807511,0.16802520437671326,0.05367807017192559,0.04191159487519816
4.416666666666656,-0.23321138,-0.99629855,0.23332725,-2.4534516,0.27104816,1.5869584,1.0451248,0.04,0.04,-0.009413367842614484,0.006191846990583061,0.009564386772775713,0.18872186671260827,-0.05884588254668113,0.035060675019389684,0.9831167467013648,0.16963006444771767,0.054091695548840996,0.042204171161616955
4.433333333333323,-0.23534608,-0.99823695,0.23546055,-2.4543395,0.2735266,1.5871049,1.0474948,0.04,0.04,-0.009513444940623117,0.006427726722729732,0.009727184326613347,0.18862988200808573,-0.0585804341855755,0.0348693347386653,0.982803450479915,0.17123364658263493,0.054503322797947756,0.042494750343650335
4.4499999999999895,-0.23747747,-1.0001724,0.23759054,-2.4552264,0.2760012,1.5872512,1.049861,0.04,0.04,-0.010215095803634,0.006869035785248001,0.009509658130557597,0.18851479847117697,-0.058310850003938985,0.0346698076500932,0.9824876571204416,0.1728357211295608,0.054912764133956536,0.04278323787160761
4.466666666666656,-0.2396053,-1.0021048,0.23971693,-2.456112,0.27847165,1.5873975,1.0522231,0.04,0.04,-0.009216801719635903,0.006994943944546583,0.009757237831098386,0.18837686607350665,-0.058038725842295254,0.034466895214493615,0.9821693922319995,0.17443607575384723,0.05532037399129153,0.043069672156710655
4.483333333333323,-0.24172927,-1.0040337,0.2418395,-2.4569955,0.28093767,1.5875434,1.0545812,0.04,0.04,-0.008799854692331799,0.007102715763065981,0.009773573146198977,0.18821610793407245,-0.05776057833551034,0.034260696583514355,0.9818486959426048,0.17603458948703593,0.05572602934075145,0.04335402211849566
4.499999999999989,-0.24384919,-1.0059589,0.24395797,-2.4578774,0.28339887,1.5876887,1.0569345,0.04,0.04,-0.009382938660440487,0.007555985933138665,0.009582347752878917,0.188031519063512,-0.05747660729385046,0.0340518219982064,0.9815256637659521,0.17763091293891964,0.05612943100957086,0.04363619039094658
4.516666666666656,-0.24596475,-1.0078802,0.24607201,-2.4587572,0.28585503,1.5878334,1.0592833,0.04,0.04,-0.008609316418972668,0.007664445735752756,0.009743787203886356,0.18782396033873788,-0.05719272362383951,0.03384160252943198,0.9812002941394002,0.17922506240629263,0.05653071638175595,0.043916259990808046
4.533333333333323,-0.24807575,-1.0097973,0.24818146,-2.4596353,0.28830582,1.5879779,1.0616268,0.04,0.04,-0.009385740851719504,0.008113420190941634,0.009902544839723859,0.18759220292108034,-0.056903350081973156,0.03362727187443168,0.9808726727222139,0.18081670298547606,0.056929762272153926,0.04419413983639452
4.549999999999989,-0.25018188,-1.0117095,0.25028607,-2.4605114,0.290751,1.588122,1.063965,0.04,0.04,-0.009622311605905765,0.00829151368479386,0.010235549612480632,0.18733832607014628,-0.056610081508775764,0.033404230379639493,0.9805428593284661,0.18240568547441666,0.05732624188726132,0.04446986527579339
4.566666666666656,-0.25228286,-1.0136173,0.2523855,-2.4613853,0.29319033,1.5882657,1.0662973,0.04,0.04,-0.008021300637706119,0.008301738599109099,0.009755888186502304,0.1870587466721635,-0.056320734948307104,0.03319172022613956,0.9802109032729294,0.18399164951935207,0.05772072821996346,0.04474344137159303
4.583333333333322,-0.2543786,-1.0155203,0.25447953,-2.4622571,0.29562342,1.5884091,1.0686238,0.04,0.04,-0.009029033493868077,0.008958484094395702,0.009980409038812255,0.18675803318012374,-0.056021666011798366,0.03296876969024046,0.9798768248986808,0.185574688709793,0.05811291245861059,0.04501480136934231
4.599999999999989,-0.2564686,-1.0174184,0.256568,-2.4631271,0.2980499,1.5885522,1.070944,0.04,0.04,-0.009125729651149328,0.008980549199388843,0.009935405119820828,0.18643313866628775,-0.055720447189395464,0.032738348077685345,0.9795407298892593,0.18715438711787588,0.058502717582083384,0.0452838371393185
4.616666666666656,-0.25855273,-1.0193113,0.25865054,-2.4639938,0.30046946,1.5886952,1.0732576,0.04,0.04,-0.006558362463504608,0.009004870389750508,0.010274678568156226,0.18608358795608768,-0.05541932215773621,0.032517530453751026,0.9792026416637188,0.18873048574786508,0.05889082246904757,0.0455506458471087
4.633333333333322,-0.2606307,-1.0211985,0.260727,-2.464858,0.30288205,1.5888377,1.0755643,0.04,0.04,-0.008633010295433508,0.009296698550786964,0.01014894035531455,0.18571292447853627,-0.05510639226869454,0.03228355476147153,0.9788626567658862,0.19030282950165206,0.0592764391224709,0.045815238053031025
4.649999999999989,-0.26270235,-1.0230798,0.26279703,-2.4657202,0.30528718,1.5889801,1.0778638,0.04,0.04,-0.009004477436480585,0.009973859636741578,0.0101808645871726,0.1853178630516092,-0.05479469542743978,0.032057560763242704,0.9785208178393647,0.19187136390773332,0.05965945037866416,0.04607752974805116
4.666666666666655,-0.26476735,-1.0249552,0.26486054,-2.466579,0.30768463,1.5891217,1.0801562,0.04,0.04,-0.0069334192805081685,0.009467263268536641,0.009939639886757945,0.18490017533227648,-0.05448012526685929,0.03182003300050762,0.9781771807067127,0.19343578849028212,0.06004027819243453,0.04633749961300404
4.683333333333322,-0.26682547,-1.0268244,0.2669171,-2.4674351,0.31007412,1.5892626,1.082441,0.04,0.04,-0.008215037296621652,0.01016013986808173,0.009815153456993464,0.18445793666695215,-0.05416213910962602,0.03159181785776882,0.9778318211991762,0.194995971565691,0.06041845574082397,0.04659517925009685
4.699999999999989,-0.26887652,-1.0286869,0.26896647,-2.4682882,0.31245533,1.589403,1.0847179,0.04,0.04,-0.0075317156815302155,0.010418423439012559,0.010237145100822076,0.1839927555670258,-0.05384225829844322,0.0313526701511492,0.9774847884006166,0.1965517337801815,0.06079414033836502,0.046850580507881254
4.716666666666655,-0.27092022,-1.0305429,0.27100846,-2.4691384,0.31482798,1.589543,1.0869868,0.04,0.04,-0.0076817486619695785,0.010543136623991645,0.009948101918433316,0.18350335952490343,-0.0535205352620018,0.031114738350372956,0.9771361384611019,0.19810293750965444,0.06116731142800016,0.04710364185540411
4.733333333333322,-0.27295628,-1.0323918,0.27304283,-2.4699845,0.3171918,1.5896823,1.0892469,0.04,0.04,-0.005916430154595531,0.010359652883640269,0.010276730123082167,0.18299175919173316,-0.053193113957321674,0.030861833181621084,0.9767860004713358,0.19964896050027942,0.06153830036702455,0.04735440256520229
4.7499999999999885,-0.27498445,-1.0342335,0.2750694,-2.4708285,0.31954643,1.5898213,1.0914984,0.04,0.04,-0.009108987545847214,0.011330164012002264,0.009917362976641364,0.1824565135685835,-0.05286599128677257,0.03062830120037087,0.9764344004057384,0.20119011285094104,0.06190622918219665,0.047602720339839595
4.766666666666655,-0.27700445,-1.0360678,0.27708778,-2.471668,0.32189167,1.58996,1.0937407,0.04,0.04,-0.004796568557940972,0.010648127962664677,0.010360642668194586,0.18189855092676177,-0.05253565298352961,0.030372784579081713,0.976081419262117,0.20272572801766692,0.06227228935061614,0.04784876330681101
4.783333333333322,-0.2790162,-1.0378948,0.27909777,-2.4725049,0.3242272,1.590098,1.0959736,0.04,0.04,-0.008040680251819587,0.011724071226948407,0.00965197116051808,0.1813182053885361,-0.052200838878393954,0.030131283780540447,0.9757271226223639,0.20425597629066636,0.06263544096016806,0.048092409633480895
4.799999999999988,-0.28101942,-1.0397142,0.28109932,-2.4733377,0.32655275,1.5902352,1.0981975,0.04,0.04,-0.0058054921242334245,0.011190016344581055,0.00980427883998658,0.18071454081737864,-0.05186505127826802,0.029886607097910786,0.9753715433950174,0.20578070744590504,0.06299615354391282,0.04833360546200053
4.816666666666655,-0.2830138,-1.0415255,0.28309202,-2.4741676,0.32886812,1.5903718,1.1004113,0.04,0.04,-0.00785037195409899,0.011936802165612992,0.009747512629254551,0.1800871834533069,-0.05152609194264337,0.029636582747505386,0.9750148178501512,0.2072995899980746,0.06335380064195234,0.04857242945834865
4.8333333333333215,-0.2849991,-1.0433289,0.2850756,-2.4749932,0.33117303,1.5905077,1.1026151,0.04,0.04,-0.005038277476021591,0.011591946949329746,0.009722715799664883,0.17943716862632458,-0.051187382764398215,0.02937930818443457,0.9746569776760267,0.2088123739013421,0.0637091663598184,0.04880891818977738
4.849999999999988,-0.28697518,-1.0451236,0.28705007,-2.4758155,0.33346716,1.5906432,1.1048087,0.04,0.04,-0.007175312415430568,0.012176414969911065,0.009944669351402702,0.1787645062793007,-0.05084484162880677,0.029127780177643697,0.9742981163026447,0.21031902124797816,0.06406153883247201,0.0490429313237533
4.866666666666655,-0.28894177,-1.0469098,0.28901494,-2.4766333,0.3357502,1.5907781,1.1069915,0.04,0.04,-0.004619866329891309,0.012095039324189205,0.00992271698267988,0.17806846503050427,-0.05050154169569732,0.028870642203109448,0.973938300148945,0.21181912299753955,0.06441166733850326,0.049274575048504334
4.883333333333321,-0.29089853,-1.0486867,0.29097003,-2.4774473,0.33802184,1.5909121,1.1091639,0.04,0.04,-0.00655506505835568,0.012487234858937768,0.009657731067469477,0.17735008294042445,-0.050154942383234966,0.02861695801551639,0.9735776051728677,0.21331278969595974,0.0647585903908463,0.04950379206264288
4.899999999999988,-0.29284537,-1.050455,0.29291517,-2.4782565,0.3402819,1.5910455,1.1113254,0.04,0.04,-0.004074456180847008,0.012256560663242988,0.009665686856896727,0.17660829363776503,-0.04981049787177856,0.028360370556589923,0.973216072931796,0.21479968595263582,0.06510328109004511,0.04973060519612447
4.9166666666666545,-0.294782,-1.0522138,0.2948501,-2.479062,0.3425302,1.5911783,1.1134754,0.04,0.04,-0.00647412148970794,0.012932277254973368,0.009571833670674046,0.17584349854374343,-0.049458615801093814,0.028105838359476457,0.9728538329393814,0.21627964744686656,0.06544486696899704,0.04995501198902284
4.933333333333321,-0.29670826,-1.0539634,0.29677457,-2.479863,0.34476632,1.5913104,1.1156135,0.04,0.04,-0.004047209838664578,0.012732091138789592,0.009454197269653797,0.1750565805357983,-0.04910797932462509,0.027842906905089476,0.9724909884407568,0.217752169344952,0.06578403874515477,0.05017699067763164
4.949999999999988,-0.29862386,-1.0557033,0.29868844,-2.4806597,0.34699023,1.5914416,1.1177398,0.04,0.04,-0.005639913953459086,0.012980102020621054,0.009342784672905502,0.17424822731372963,-0.04875552951444399,0.02759276187144513,0.9721275771064016,0.21921744748365196,0.06612011524027081,0.050396576357951084
4.966666666666654,-0.30052868,-1.0574334,0.3005916,-2.4814515,0.3492016,1.5915722,1.1198542,0.04,0.04,-0.003784948185070469,0.012801674132856267,0.009475104305756155,0.17341858705638824,-0.04840170382636165,0.027324894490849697,0.9717636670992151,0.22067518341772882,0.06645365551038697,0.05061373725328267
4.983333333333321,-0.30242237,-1.0591533,0.30248362,-2.4822392,0.3514001,1.5917019,1.1219561,0.04,0.04,-0.005443978302754893,0.013482436216760707,0.009123700705737647,0.17256662626734826,-0.04804358388215135,0.02706127691947023,0.9713993844035655,0.22212518062009878,0.06678403319496094,0.05082846668036276
4.999999999999988,-0.30430484,-1.060863,0.30436426,-2.483022,0.35358548,1.5918308,1.1240455,0.04,0.04,-0.0036259731055698907,0.013434432842784894,0.009321902462944287,0.1716932701062091,-0.04768731059944418,0.026797588203184508,0.9710347625764749,0.2235673031719153,0.06711174682896716,0.05104080973153323
5.016666666666654,-0.3061757,-1.0625622,0.30623353,-2.4837997,0.35575742,1.591959,1.1261224,0.04,0.04,-0.0037501556042540685,0.013290158828099807,0.009126080810450965,0.17079844016519274,-0.047328517863650374,0.026530412812086013,0.9706698969922258,0.22500137725841152,0.06743664743135404,0.05125065744104034
5.033333333333321,-0.3080349,-1.064251,0.308091,-2.4845731,0.35791585,1.5920866,1.1281862,0.04,0.04,-0.004525922289344564,0.013906789699963396,0.008958834622951883,0.16988136579894803,-0.04696825234330028,0.026264504229946195,0.970304849521844,0.22642733033526166,0.0677585673885229,0.05145813460564607
5.049999999999987,-0.30988228,-1.0659289,0.30993655,-2.485341,0.36006036,1.5922129,1.1302367,0.04,0.04,-0.0027531934718050266,0.013680947655747566,0.008771815012154072,0.16894221906990098,-0.04660783442057275,0.025997715834898544,0.9699397384462095,0.22784478688475326,0.06807771572146203,0.05166315412833176
5.066666666666654,-0.31171757,-1.0675957,0.31177,-2.486104,0.36219078,1.5923387,1.1322738,0.04,0.04,-0.0034955089588839527,0.01397000815298588,0.009094523200126048,0.16798325974666195,-0.0462414408879154,0.02572116850285311,0.9695746304611874,0.22925367209518904,0.06839395908780302,0.051865751293308
5.083333333333321,-0.31354046,-1.0692513,0.31359106,-2.486862,0.36430708,1.5924635,1.1342973,0.04,0.04,-0.0033616543628767204,0.013866905663539875,0.008630272063592237,0.16700086416035737,-0.04588093794483881,0.02545909152259955,0.9692096082119342,0.23065383332105058,0.06870715127025201,0.052066033921365884
5.099999999999987,-0.3153509,-1.0708957,0.3153997,-2.4876146,0.36640874,1.5925876,1.1363065,0.04,0.04,-0.0027078407154546014,0.014106824399917617,0.008658729446042734,0.16599888324519757,-0.04551570726859068,0.025188347181713797,0.9688447842759341,0.2320449328035253,0.06901758966381816,0.05226380639144987
5.116666666666654,-0.31714863,-1.0725284,0.31719562,-2.4883618,0.36849564,1.5927111,1.1383018,0.04,0.04,-0.0023579390522110444,0.014179570197053737,0.00883642394136075,0.16497688585407289,-0.04514994305183917,0.024915439512038548,0.9684801864410894,0.2334270139551084,0.06932523829572293,0.05245921236804685
5.13333333333332,-0.31893343,-1.0741494,0.3189786,-2.4891043,0.37056753,1.5928333,1.1402828,0.04,0.04,-0.0036213558204156726,0.014522968104013767,0.007952146230305601,0.16393377208615945,-0.04478137906129408,0.024644768802110445,0.9681159560057597,0.23479988344918154,0.06962945960610985,0.05265214918942786
5.149999999999987,-0.32070512,-1.0757586,0.3207485,-2.4898407,0.37262422,1.5929546,1.1422492,0.04,0.04,-0.001289431416240383,0.014101760532142515,0.008415459646937684,0.16286945186517776,-0.04441637775294287,0.024372162206213133,0.9677521360235901,0.23616329767523025,0.06993102484744838,0.05284270826447885
5.166666666666654,-0.3224635,-1.0773556,0.3225051,-2.4905715,0.37466547,1.593075,1.1442009,0.04,0.04,-0.0017754291021354618,0.01441926272702787,0.008254774654226082,0.16178569084677458,-0.04404741603443203,0.024099391560121308,0.9673888315064367,0.23751709814439292,0.07022963607982319,0.05303088705436841
5.18333333333332,-0.32420838,-1.0789405,0.32424816,-2.491297,0.37669104,1.5931947,1.1461378,0.04,0.04,-0.0022412580349628897,0.01471248494928079,0.008072875615794395,0.16068247601081492,-0.043677945054233704,0.023824169171370604,0.9670260927824562,0.23886128782935095,0.07052522447067029,0.05321666813848892
5.199999999999987,-0.32593963,-1.080513,0.32597762,-2.492017,0.37870076,1.593313,1.1480595,0.04,0.04,-0.0021317628100758768,0.014654672836533766,0.007585780972974021,0.15955758289402636,-0.04330725144162922,0.023549989063433197,0.9666640632640497,0.24019557321782464,0.0708174774226234,0.0534000027330898
5.2166666666666535,-0.32765704,-1.082073,0.3276932,-2.4927309,0.38069448,1.5934306,1.1499656,0.04,0.04,-0.00038352493620941175,0.014532494302693655,0.00816051299314946,0.1584137230082205,-0.042940225604859,0.02327473939695543,0.966302793377172,0.24151968877968893,0.07110712703486614,0.05358104075215616
5.23333333333332,-0.32936043,-1.0836202,0.3293947,-2.4934394,0.3826718,1.5935475,1.1518563,0.04,0.04,-0.002055520705046554,0.01516880810414345,0.007662058551627382,0.1572511753789423,-0.042568237585160935,0.022999298966039652,0.9659423571967614,0.24283374043638145,0.07139353698191231,0.05375964988774094
5.249999999999987,-0.3310496,-1.0851542,0.33108214,-2.4941413,0.38463256,1.5936635,1.1537311,0.04,0.04,0.00010591711447904828,0.014474139348275017,0.008032190436768616,0.15606795921518757,-0.04219949615586968,0.02272410232162861,0.9655828900497206,0.2441372346421382,0.07167717639109236,0.05393584604990276
5.266666666666653,-0.33272442,-1.0866758,0.33275518,-2.4948375,0.38657668,1.5937779,1.1555899,0.04,0.04,-0.0007876249306759675,0.014840871633464703,0.0066922049661855,0.15486800135009754,-0.04182607089313542,0.022448578110289025,0.9652244460401915,0.24543024475147834,0.07195769909741978,0.054109641176413315
5.28333333333332,-0.33438468,-1.0881836,0.33441365,-2.4955277,0.38850394,1.5938916,1.1574328,0.04,0.04,-0.0008652280823806535,0.015102474258976706,0.007763797102611214,0.15364926567267811,-0.04145193533018859,0.022171393531969147,0.9648670887347504,0.24671271000911765,0.07223501543648664,0.05428114167346486
5.2999999999999865,-0.3360303,-1.089678,0.3360574,-2.496212,0.39041433,1.5940045,1.1592593,0.04,0.04,-0.00047751363123627044,0.015050209402234227,0.007387811513348552,0.15241097784882268,-0.04108045256806271,0.021893677228833022,0.9645109039587588,0.24798443950708557,0.07250922016856423,0.054450407689577714
5.316666666666653,-0.33766094,-1.0911593,0.33768633,-2.49689,0.39230728,1.594116,1.1610693,0.04,0.04,0.00013101362854595067,0.014869480941037683,0.006543564912320221,0.15115444497500996,-0.04070912035092243,0.02161609006475733,0.9641560339278367,0.24924510831512003,0.07278036313891306,0.05461718560028777
5.33333333333332,-0.33927658,-1.0926272,0.33930027,-2.4975612,0.3941828,1.5942266,1.1628622,0.04,0.04,0.00154940173191509,0.014745698906515337,0.007145039214484505,0.14988027531512776,-0.04033865450967435,0.02133963732267115,0.9638025601068613,0.2504944103304432,0.07304893652442909,0.05478164288622344
5.349999999999986,-0.34087712,-1.0940801,0.340899,-2.4982264,0.39604065,1.5943365,1.1646386,0.04,0.04,-0.0008847407742429425,0.015682319571891368,0.007544883551924286,0.14859095035509862,-0.03996225433460548,0.021063567319672655,0.9634504787898985,0.25173284658648587,0.07331387111809415,0.05494383651201959
5.366666666666653,-0.3424622,-1.0955204,0.34248245,-2.4988859,0.3978807,1.5944452,1.1663978,0.04,0.04,0.0005218007510077172,0.01503836720036511,0.0057213685517254476,0.14728238796985582,-0.03958938522024663,0.020780357305679037,0.9630999463748526,0.25295980303238996,0.07357598631534178,0.05510358954092819
5.3833333333333195,-0.34403187,-1.0969467,0.34405038,-2.4995387,0.39970273,1.5945525,1.1681399,0.04,0.04,0.0012412091462632446,0.015120427860382257,0.0062866216946178,0.14595688437088006,-0.03921576194268625,0.02050390112298099,0.9627510133996846,0.25417533163841827,0.07383499899313906,0.055261016169300695
5.399999999999986,-0.34558585,-1.0983579,0.34560272,-2.500185,0.40150654,1.594659,1.1698649,0.04,0.04,0.0003175852514969435,0.015403775669298181,0.00701521488679635,0.14461427056766424,-0.03884236515574568,0.020225306807816437,0.9624037746257488,0.25537935934825623,0.07409053103216881,0.05541615844098536
5.416666666666653,-0.34712413,-1.0997543,0.3471392,-2.5008242,0.40329212,1.5947645,1.171572,0.04,0.04,0.002060165070538744,0.015117110952084234,0.006737803722156599,0.14325442852921258,-0.0384722888552017,0.019944254428698877,0.9620583539321842,0.2565714352283937,0.07434308650632233,0.05556912580607931
5.433333333333319,-0.34864643,-1.101137,0.34865987,-2.501457,0.40505913,1.5948687,1.1732613,0.04,0.04,0.001696264532236036,0.015089456060457529,0.00551407503917023,0.1418803119197096,-0.038099595603402175,0.01966356772083372,0.9617148118220278,0.2577515565340793,0.07459271516074666,0.055719679390038905
5.449999999999986,-0.35015264,-1.1025053,0.35016447,-2.5020833,0.40680754,1.5949718,1.1749328,0.04,0.04,0.0015112547701257029,0.015288478519570603,0.0058509222413016815,0.14049107860647383,-0.037727658408954964,0.019385845206028457,0.9613732002517024,0.2589197394668846,0.07483920917312763,0.05586797940271
5.466666666666653,-0.35164264,-1.103859,0.35165277,-2.5027025,0.40853712,1.595074,1.1765865,0.04,0.04,0.002892814855659509,0.015186853269555378,0.006078865919434406,0.1390854443528212,-0.03735568203942178,0.019107221448099204,0.9610335841789247,0.26007580214527026,0.0750829452828477,0.05601409239072386
5.483333333333319,-0.35311642,-1.1051977,0.35312486,-2.5033147,0.4102478,1.5951753,1.1782222,0.04,0.04,0.002305035998673155,0.015192817012404936,0.005834579260932671,0.13766472603276314,-0.036980980327866154,0.01883002623981686,0.9606960537695997,0.2612197010328468,0.07532359703169816,0.05615795396945208
5.499999999999986,-0.35457373,-1.1065214,0.3545805,-2.5039203,0.41193947,1.5952749,1.1798396,0.04,0.04,0.0018884667319918336,0.015225285743958317,0.005270256150891051,0.13622808462026548,-0.03660551185337053,0.018555395173695755,0.9603607277022416,0.2623512805970602,0.07556079598510118,0.05629959472679431
5.516666666666652,-0.35601452,-1.1078303,0.35601953,-2.504519,0.41361186,1.5953736,1.1814387,0.04,0.04,0.002956917534224779,0.015342395859063718,0.0054120733698592716,0.13477652050237357,-0.03623664382423646,0.018283502691192652,0.9600276354147483,0.2634704525965099,0.07579510994007412,0.05643900386903978
5.533333333333319,-0.35743845,-1.1091238,0.35744193,-2.5051105,0.41526484,1.5954714,1.183019,0.04,0.04,0.003043301697847056,0.01500781033113019,0.005498159102601541,0.13331151675520592,-0.03586342832507704,0.01800467595995571,0.959696938846706,0.2645768493253598,0.0760263799868245,0.056576195660601535
5.549999999999986,-0.35884562,-1.1104023,0.35884744,-2.505695,0.41689834,1.5955676,1.1845807,0.04,0.04,0.0029729393067334797,0.015309493798187912,0.004731993139328594,0.13183426151540728,-0.03548874347704456,0.01772646240876885,0.9593686649921411,0.26567060203023274,0.07625441887283883,0.0567111933436102
5.566666666666652,-0.3602359,-1.1116654,0.36023614,-2.506273,0.4185122,1.5956626,1.1861237,0.04,0.04,0.0024447234286961717,0.01536240562116098,0.004957710757724776,0.1303447083900782,-0.03511487537776622,0.01744770168572561,0.9590428719416348,0.26675173263590796,0.07647907079188447,0.05684394993745712
5.583333333333319,-0.36160916,-1.1129127,0.36160785,-2.5068436,0.42010632,1.595757,1.1876479,0.04,0.04,0.0039544673809510655,0.01512901454444604,0.0054381478929999005,0.1288394193968817,-0.03474686791065352,0.017171380982558923,0.9587196287674484,0.2678199842515997,0.07670087711921018,0.056974598731563485
5.599999999999985,-0.3629653,-1.1141449,0.36296242,-2.5074074,0.4216806,1.5958498,1.1891531,0.04,0.04,0.0030929729831319364,0.015231531719794855,0.003992826664900306,0.12732246140562126,-0.034373900189394575,0.016893333678909425,0.9583990438920058,0.2688753016767283,0.07691936786620904,0.05710302673414536
5.616666666666652,-0.3643043,-1.1153616,0.36429992,-2.507964,0.42323485,1.5959414,1.190639,0.04,0.04,0.004172636861232704,0.015060401424060732,0.004704386518938897,0.12579315429661242,-0.03400476133882236,0.016615058135410393,0.9580811842014275,0.269917517443093,0.07713490060733351,0.05722923522854978
5.633333333333319,-0.36562598,-1.1165622,0.3656201,-2.508513,0.42476887,1.5960323,1.1921059,0.04,0.04,0.004265585418483653,0.015196096738995246,0.00479600400933311,0.12425285898920116,-0.03363278163170073,0.016336914498307903,0.9577660940576211,0.2709466397817326,0.07734744722448982,0.05735328998802838
5.649999999999985,-0.36693028,-1.1177471,0.36692286,-2.5090551,0.42628285,1.5961217,1.1935534,0.04,0.04,0.0035389039107158737,0.015174482532070988,0.004093603090704612,0.12269974273414225,-0.033263241328907886,0.016063884822544686,0.9574538634568566,0.2719626245292249,0.07755656702777104,0.057475291400581795
5.666666666666652,-0.36821714,-1.1189162,0.36820808,-2.5095897,0.42777652,1.5962096,1.1949818,0.04,0.04,0.004998136594402958,0.014910789291028292,0.003995872589412919,0.12113520465475243,-0.03289597061529456,0.015786545062348084,0.9571445356131841,0.2729653777542187,0.07776268290098032,0.05759518765800233
5.6833333333333185,-0.36948633,-1.1200695,0.36947575,-2.510117,0.4292498,1.5962968,1.1963902,0.04,0.04,0.004623109104540113,0.014986052915361148,0.004063975665591357,0.11956024087204065,-0.03252700187469117,0.015509427312057747,0.9568382696265354,0.27395447723476574,0.07796590696606635,0.057712975422191774
5.699999999999985,-0.37073794,-1.1212062,0.37072584,-2.510637,0.43070263,1.5963827,1.1977789,0.04,0.04,0.0042707018463650215,0.015056757625797612,0.004241689369743895,0.11797634470343718,-0.03215731034199901,0.01523298097621173,0.9565350800198418,0.2749301794105977,0.07816570891546507,0.05782870472727331
5.716666666666652,-0.37197185,-1.122327,0.37195823,-2.51115,0.43213484,1.596467,1.1991483,0.04,0.04,0.004520104529270874,0.014979133304976466,0.003247278382789709,0.11638352829336526,-0.031791895306509305,0.014958550976343965,0.9562350036217058,0.2758925106278079,0.07836218330086675,0.0579422872900509
5.733333333333318,-0.37318802,-1.1234319,0.37317282,-2.5116553,0.43354648,1.5965505,1.2004979,0.04,0.04,0.005475606352134399,0.014872393110942905,0.0037128754694748523,0.11477977257489538,-0.031428122484135394,0.014683380731746742,0.9559380958464302,0.2768412543505626,0.07855587576971908,0.058053864480850106
5.749999999999985,-0.3743863,-1.1245203,0.37436962,-2.5121531,0.43493736,1.596633,1.2018275,0.04,0.04,0.00538267069076781,0.014778296295953064,0.003839861728982541,0.1131665578394851,-0.031063672652460773,0.014408462923177712,0.955644472195861,0.2777762589606591,0.0787465093961854,0.058163390351936094
5.7666666666666515,-0.37556672,-1.1255925,0.37554872,-2.5126438,0.4363074,1.5967135,1.2031374,0.04,0.04,0.004532379952149057,0.014706272511316731,0.0027806715899858503,0.1115459076002,-0.030698085094144976,0.014134625967691494,0.9553542021180429,0.27869761674328264,0.07893358164447313,0.05827071825357121
5.783333333333318,-0.37672907,-1.1266483,0.37670964,-2.5131269,0.43765667,1.5967932,1.2044276,0.04,0.04,0.00606832918015332,0.014702348936251886,0.003377295300022176,0.10991703410298542,-0.030338670874102212,0.013861006956255306,0.9550672579099678,0.2796053170801138,0.07911774873925613,0.05837620545475584
5.799999999999985,-0.37787345,-1.1276878,0.37785262,-2.5136027,0.4389851,1.5968719,1.2056978,0.04,0.04,0.005265256101916194,0.014790660891050855,0.003173206381856808,0.10827953326629965,-0.029978484620207704,0.013587226682818726,0.9547837397178709,0.2804992587049232,0.07929880943047025,0.058479697838270304
5.816666666666651,-0.37899965,-1.1287112,0.37897757,-2.5140712,0.44029245,1.5969487,1.2069477,0.04,0.04,0.00564343977549342,0.014473104046330842,0.002319394230476668,0.10663534180529127,-0.029618894739431054,0.013314290808001755,0.9545037887629871,0.2813791813071629,0.07947661638577824,0.058581063594660386
5.833333333333318,-0.38010788,-1.1297178,0.3800844,-2.514532,0.44157887,1.5970247,1.2081776,0.04,0.04,0.006042857723809192,0.014653085418186995,0.003241336791171001,0.10498522519363843,-0.029262458875389454,0.013042810954523587,0.9542273586571882,0.28224529251564867,0.07965134029670534,0.058680549007488175
5.8499999999999845,-0.3811979,-1.1307085,0.38117313,-2.5149853,0.44284418,1.5970995,1.2093873,0.04,0.04,0.006732756589844513,0.014248429666530171,0.0025207679563710172,0.103327314492374,-0.028908345582986158,0.012772491904932168,0.9539545339295153,0.28309737277591257,0.07982335498359934,0.058778029244431436
5.866666666666651,-0.38226983,-1.1316823,0.38224375,-2.5154307,0.44408837,1.5971727,1.2105769,0.04,0.04,0.0063575617816225005,0.014267221211350378,0.0025032655662338144,0.10166534123855947,-0.028550670508468934,0.012503067358844266,0.953685394234679,0.2839354570880346,0.07999208125950479,0.05887352518260373
5.883333333333318,-0.38332352,-1.1326396,0.38329622,-2.5158684,0.44531146,1.597245,1.2117462,0.04,0.04,0.006696245350812369,0.014194253354943287,0.0025779357948341186,0.09999814413390398,-0.028197125053748096,0.012235878844593776,0.9534199700095584,0.28475945043086376,0.08015795022312096,0.058967102636241046
5.899999999999984,-0.3843591,-1.1335802,0.38433048,-2.5162983,0.44651335,1.597316,1.2128954,0.04,0.04,0.006858466332260171,0.014237535384004074,0.002555449895691453,0.09832692298370072,-0.027843026187978872,0.011966419983095403,0.9531582908516674,0.2855694374357638,0.08032079679774307,0.05905877229612348
5.916666666666651,-0.38537633,-1.1345048,0.38534653,-2.5167205,0.44769415,1.5973855,1.2140243,0.04,0.04,0.007073742645236081,0.013794325740518198,0.001671389534174672,0.09665162395265968,-0.027489115580863848,0.011700044824389827,0.9529004362705283,0.28636525509525956,0.080480751521411,0.05914852377035941
5.933333333333318,-0.38637537,-1.1354123,0.3863443,-2.5171354,0.4488538,1.5974538,1.215133,0.04,0.04,0.006158607174833186,0.014314317197361426,0.0023048642720402412,0.09497332085361447,-0.027135926261211418,0.01143490795295933,0.952646432378303,0.287147061287765,0.08063737223718048,0.05923642687885758
5.949999999999984,-0.38735622,-1.1363037,0.38732383,-2.5175428,0.44999218,1.5975212,1.2162213,0.04,0.04,0.007013348246553974,0.014184676883977065,0.0019338107847044483,0.09329080687381817,-0.02678816562297265,0.011171814182190654,0.952396283507944,0.2879148299077889,0.08079120761492935,0.05932242958229475
5.966666666666651,-0.38831875,-1.1371783,0.38828525,-2.5179427,0.4511095,1.597587,1.2172894,0.04,0.04,0.006790574063253452,0.013546484416604443,0.0016898846466162354,0.09160572287978971,-0.026438293817435853,0.010908299688931124,0.952150112837781,0.28866840012655265,0.0809418203741442,0.059406557768460655
5.983333333333317,-0.38926306,-1.1380364,0.3892284,-2.5183349,0.4522057,1.5976517,1.2183374,0.04,0.04,0.0073064118503385345,0.013813848834609566,0.0018624040455827995,0.08991953981339001,-0.026092077666903225,0.01064651673651422,0.9519078823326534,0.28940791718948417,0.08108952850406682,0.059488901385014996
5.999999999999984,-0.3901893,-1.1388777,0.39015338,-2.5187197,0.45328066,1.5977153,1.2193649,0.04,0.04,0.006814728816850746,0.01397495349776956,0.0017160517483016946,0.08823152986391071,-0.025745743052269367,0.010384929205250859,0.9516696801328289,0.2901332924255367,0.08123413099425579,0.059569358766106265
6.016666666666651,-0.39109716,-1.1397024,0.39106005,-2.5190969,0.4543345,1.5977774,1.2203726,0.04,0.04,0.007286460728983535,0.013497427629471925,0.0014164318811848986,0.08654132766588135,-0.025404404140573725,0.010124716141052023,0.9514354828471856,0.290844702269186,0.08137559968408975,0.05964807555442156
6.033333333333317,-0.3919868,-1.140511,0.39194864,-2.5194666,0.45536712,1.5978384,1.2213596,0.04,0.04,0.007473925485701471,0.013482607985060291,0.0012431422123704294,0.08485050474466774,-0.025064070644378898,0.009864571118571877,0.9512054162433988,0.2915417793967181,0.08151432998689309,0.059724877414739176
6.049999999999984,-0.39285836,-1.1413028,0.39281902,-2.5198288,0.45637873,1.5978981,1.2223266,0.04,0.04,0.00740205878491107,0.013497765467279654,0.001465011894996593,0.08316154455037134,-0.024724360682376434,0.009607258054615,0.9509794248736829,0.29222488274295905,0.0816499474460895,0.05979997871934395
6.06666666666665,-0.39371172,-1.1420783,0.39367127,-2.5201836,0.45736924,1.5979565,1.2232733,0.04,0.04,0.0074090975271001724,0.013301819996480724,0.0010223356033733921,0.08147183677495629,-0.024388656365268484,0.009350731619109848,0.9507576118425143,0.29289377315064935,0.08178259618002612,0.05987326728306952
6.083333333333317,-0.39454705,-1.1428372,0.3945056,-2.520531,0.45833874,1.5980139,1.2242001,0.04,0.04,0.0073223308850289826,0.013262055220558677,0.0012783532990168212,0.07978494523604723,-0.02405360535331008,0.009096347715676335,0.9505399101966333,0.29354878018087077,0.08191225563145049,0.059944767537016316
6.099999999999984,-0.39536422,-1.1435798,0.39532167,-2.5208707,0.45928723,1.5980699,1.225107,0.04,0.04,0.008159439554811243,0.013075649697591452,0.0008466358458303347,0.07809811718671886,-0.023722377810409992,0.008841591810485966,0.9503263841449355,0.29418972518929926,0.08203912213343552,0.06001459514678364
6.11666666666665,-0.39616343,-1.144306,0.3961199,-2.521203,0.46021485,1.5981245,1.2259939,0.04,0.04,0.007300717458580408,0.012929757464397174,0.0008935139384380619,0.0764131173291456,-0.02339167265450936,0.008589560438373993,0.950117071149219,0.29481671292443334,0.08216282959517215,0.06008266242583669
6.133333333333317,-0.39694464,-1.1450157,0.39690012,-2.5215275,0.4611216,1.5981783,1.2268605,0.039999995,0.04,0.00870857003809622,0.01273257775643577,0.0011623790242332177,0.07473150175261649,-0.023064382071643623,0.008337700012094197,0.9499120206579311,0.29542948384969037,0.08228403403993845,0.06014907168016819
6.1499999999999835,-0.39770785,-1.1457094,0.39766246,-2.5218446,0.46200758,1.5982306,1.2277075,0.039999995,0.04,0.00786238683838647,0.012592686973128542,0.00048208744436450957,0.07305523045585732,-0.022736754210929428,0.008089373560335004,0.9497112008235566,0.296028361921493,0.08240231609048035,0.060213804657073336
6.16666666666665,-0.3984532,-1.1463866,0.39840698,-2.522154,0.46287277,1.5982814,1.2285348,0.03999999,0.04,0.00797072096465623,0.012573472007409991,0.0005900739169284464,0.07138292473294378,-0.022410759099023014,0.007840399579625242,0.9495146482556793,0.2966133652613432,0.08251756075622889,0.06027683189316184
6.183333333333317,-0.3991808,-1.147048,0.3991337,-2.522456,0.46371737,1.5983315,1.2293421,0.039999988,0.04,0.008869062143901374,0.0124113749595256,0.000822262325428369,0.0697145822387406,-0.022089909579629995,0.007594166735952222,0.9493223761411016,0.2971843264724574,0.08263047826193984,0.06033826579483059
6.199999999999983,-0.39989072,-1.1476933,0.39984283,-2.5227504,0.4645414,1.5983801,1.2301298,0.039999988,0.04,0.007946492423882567,0.012341306304047839,0.00037536080643718606,0.06805285609184572,-0.02176730293660038,0.007353049849746281,0.9491343851801348,0.29774151902062446,0.08274047331846673,0.06039801979415198
6.21666666666665,-0.4005831,-1.1483225,0.40053433,-2.5230377,0.46534505,1.598427,1.230898,0.039999984,0.04,0.007537580549921152,0.012365786518453437,0.00014875903089350828,0.06639680532611181,-0.02144819953782253,0.007111416191400065,0.9489506910780494,0.2982850325013808,0.08284731818293463,0.060456158975229816
