rsonawane2002/My_IMU/logs_2/traj_1601/imu_1601.csv
time,j1,j2,j3,j4,j5,j6,j7,gripper1,gripper2,imu_ax,imu_ay,imu_az,imu_gx,imu_gy,imu_gz
1.0333333333333345,0.00016703313,-0.78463066,4.018289e-05,-2.3561552,9.3351664e-05,1.5709763,0.7860001,1.2118691e-05,1.21186895e-05,-9.809999,0.000632327632047236,-0.0050887167,0.0,-0.0,0.0
1.0500000000000012,0.0001666462,-0.7846152,3.9608287e-05,-2.3561676,0.0001611793,1.5709764,0.7859992,0.0031457974,0.0031474044,-9.985510707760861,-0.7764545082727594,-0.32400385782435026,-0.0017476720746519541,-0.014182046127698602,0.0014331944877354489
1.0666666666666678,0.00016665159,-0.7846009,3.9760187e-05,-2.3561795,0.00015016977,1.5709764,0.7859992,0.006093799,0.00609527,-10.215512714018306,-0.7134816353099543,-0.9222340877813897,0.003479320559031822,-0.01306609240646124,0.0014771332238771816
1.0833333333333344,0.00016651767,-0.784588,4.0028914e-05,-2.356191,0.0001406556,1.5709764,0.7859992,0.008805982,0.008807335,-9.137036210191644,-0.9231274940506559,0.48962030746478824,0.0024909755209469413,-0.012255318170549107,0.0005608084157997439
1.100000000000001,0.0001661299,-0.78457636,4.0530245e-05,-2.3562024,0.00013261868,1.5709764,0.7859992,0.011301215,0.01130246,-11.11573856503286,-0.7340828170410973,-0.7452919183197088,0.0010957054455678474,-0.01289273378645878,-0.0026070214374748486
1.1166666666666676,0.00016534227,-0.784566,4.141127e-05,-2.3562129,0.00012609988,1.5709764,0.7860011,0.013596852,0.013597998,-9.906452764389607,-0.8563321585139207,-0.7643642006699124,-0.000995842386529336,-0.01113201694381917,-0.003093484590247428
1.1333333333333342,0.00016398064,-0.7845569,4.284651e-05,-2.356222,0.000121185774,1.5709765,0.786003,0.01570886,0.015709914,-9.77933059633726,-0.015204473309145844,0.008958020477647077,-0.0022215388899679135,-0.011886923436456302,-0.0017165016292842268
1.1500000000000008,0.00016184604,-0.7845496,4.5035773e-05,-2.3562305,0.00011800295,1.5709767,0.7860049,0.017651927,0.017652895,-10.088486980363106,0.1915720156429222,-0.3431220586070997,0.0018257875698469222,-0.017347273026240714,-0.003241461397846863
1.1666666666666674,0.00015871704,-0.7845439,4.820103e-05,-2.3562388,0.000116715586,1.5709771,0.7860087,0.019439563,0.019440455,-8.90056411190017,-0.5698616548272137,0.20992089483603255,-0.00018668098178220376,-0.013608345712395015,0.0049865361338874
1.183333333333334,0.00015435225,-0.78453994,5.2584066e-05,-2.356247,0.00011751926,1.5709776,0.78601414,0.021084204,0.021085026,-9.947804196378414,-0.9831717494125716,0.47941765442558043,-0.0015525228930957965,-0.013470220350395681,-0.001096546887894221
1.2000000000000006,0.00014849305,-0.784538,5.8444308e-05,-2.3562553,0.00012063949,1.570978,0.7860202,0.022597292,0.022598049,-9.901150148024016,-0.2866036859896206,0.0816822554008233,-7.149957301969017e-05,-0.010993829331997227,0.0034763064090591747
1.2166666666666672,0.00014086488,-0.78453815,6.605663e-05,-2.3562639,0.00012632727,1.5709785,0.78602856,0.023989348,0.023990044,-10.642002346180101,0.1806749644154727,0.9856149205199014,3.299387416651778e-06,-0.014913555055125961,-0.000693747827603867
1.2333333333333338,0.00013117983,-0.78454053,7.570956e-05,-2.3562734,0.00013485631,1.5709791,0.78603965,0.025270049,0.02527069,-11.448788690956846,0.22901672678713914,-1.0207454577519601,-0.0013164014743546665,-0.016930575791047505,-0.0015178528385870831
1.2500000000000004,0.000119137985,-0.7845457,8.770329e-05,-2.3562844,0.00014652137,1.5709797,0.786053,0.026448306,0.026448894,-9.659684963045969,-0.4826136254305779,-0.1633595477458554,0.0013602121921024758,-0.015212469122493846,-0.00028314774646157997
1.266666666666667,0.000104429266,-0.7845537,0.00010234844,-2.3562958,0.00016163354,1.5709803,0.78606933,0.027532313,0.027532855,-8.780133567075925,0.4263404735764553,0.8382177630103169,0.003228735066285976,-0.01475247148214051,3.689403802067858e-05
1.2833333333333337,8.673484e-05,-0.78456485,0.00011996429,-2.3563073,0.0001805201,1.5709811,0.7860889,0.02852961,0.02853011,-10.197389985031558,-0.077633700674358,0.19826491053565387,0.0017871620378731702,-0.017022634835564394,0.0013507809686453586
1.3000000000000003,6.5728425e-05,-0.7845794,0.00014087748,-2.3563192,0.00020352134,1.570982,0.7861122,0.029447135,0.029447595,-9.526165125875398,0.6223325836842049,-0.3466254273400321,0.0011193041094404944,-0.01360630914462827,-0.0020155253886334195
1.3166666666666669,4.107766e-05,-0.7845976,0.00016542093,-2.3563316,0.00023098839,1.5709828,0.78613955,0.030291269,0.030291693,-9.8787626494082,0.46913866424792017,-0.13464219926954663,0.0018505112282398441,-0.016433869929008627,0.002319751473061961
1.3333333333333335,1.2445007e-05,-0.78461975,0.0001939324,-2.356346,0.00026328306,1.5709838,0.7861712,0.031067878,0.03106827,-10.040327143120512,-0.2388171978322166,-0.4345725915547981,9.970761042214569e-05,-0.017228334578280408,0.002254775898017955
1.35,-2.0510937e-05,-0.78464603,0.00022675378,-2.3563623,0.00030077487,1.5709847,0.7862078,0.031782366,0.031782724,-10.262405094001348,-0.12340639630647553,0.027261433054969073,0.0047799981732810125,-0.01282042263176135,-0.004115695145315129
1.3666666666666667,-5.8134567e-05,-0.78467673,0.00026422995,-2.3563814,0.00034383842,1.5709857,0.78624946,0.0324397,0.032440037,-10.356561189051947,-0.5047376947378792,0.4101704401126469,0.002646380447478257,-0.015778517890288484,0.0012980552484828602
1.3833333333333333,-0.00010077249,-0.7847123,0.00030670787,-2.3564012,0.00039285587,1.5709866,0.7862967,0.03304445,0.033044755,-9.307677325636549,0.25261275955448936,-0.4969134469466347,0.005968355249893178,-0.02023916237332185,0.005830019161129637
1.4,-0.00014877264,-0.784753,0.0003545358,-2.3564224,0.0004482116,1.5709908,0.7863499,0.033600837,0.03360112,-9.39268768773888,-0.1347492234740275,0.26047062986930974,0.003947146157267042,-0.01678981914114804,0.004186806662805689
1.4166666666666665,-0.00020248342,-0.7847991,0.0004080627,-2.3564475,0.00051029335,1.5709952,0.7864093,0.034112718,0.03411298,-8.879293111376185,-0.42335825437248203,-0.2863392500089539,0.006749367395592727,-0.015675604432843968,0.0062516913238870936
1.4333333333333331,-0.00026225336,-0.7848507,0.00046763732,-2.3564746,0.00057949044,1.5709996,0.78647554,0.03458365,0.034583896,-10.293419730596263,1.357518179026263,-1.722422987068761,0.0068894738467556085,-0.01785418279411551,0.006829052209304744
1.4499999999999997,-0.00032843012,-0.7849084,0.00053360796,-2.3565025,0.00065619475,1.5710043,0.786549,0.035016913,0.035017133,-9.161606989789899,0.4977379016012677,0.6961366430920295,0.006135123169458011,-0.01755680249708527,0.0012050045582002534
1.4666666666666663,-0.00040136045,-0.78497255,0.0006063214,-2.356535,0.00074079644,1.5710089,0.78662986,0.03541551,0.03541572,-9.354245870997067,-0.5289733686940581,-1.6706139270292273,0.009892773213495023,-0.015296798667772421,0.002390085808134333
1.483333333333333,-0.0004813889,-0.7850432,0.0006861227,-2.3565698,0.0008336856,1.5710137,0.78671855,0.03578222,0.035782415,-9.801561302880183,-1.2584315070423868,-0.29109623998067635,0.0036644293876700587,-0.017695873729353256,0.0004357023676506245
1.4999999999999996,-0.0005688579,-0.7851208,0.00077335496,-2.3566062,0.00093525153,1.5710185,0.7868156,0.0361196,0.036119778,-9.771713303094225,-0.060838671094595946,0.1896201137470384,0.004818809473771634,-0.01737413528662347,0.0007320399995935203
1.5166666666666662,-0.0006641075,-0.78520554,0.0008683581,-2.3566482,0.0010458801,1.5710232,0.78692114,0.036429998,0.03643016,-10.85968882545969,0.23785408645713607,0.4572773890707355,0.0024973378237285767,-0.015133015737644506,0.0013096139152303338
1.5333333333333328,-0.000767474,-0.78529763,0.00097146933,-2.3566916,0.0011659564,1.5710313,0.78703576,0.036715563,0.03671572,-9.74777364247827,-0.24499287561434413,0.5755048255519905,0.008970929159655928,-0.01957160564940644,0.00015611191998470025
1.5499999999999994,-0.00087929115,-0.78539765,0.0010830227,-2.3567402,0.0012958613,1.5710396,0.78715974,0.036978293,0.03697844,-9.556113328438505,-0.031540022722420985,-0.06813262419396025,0.0052735098598369395,-0.02076387744018811,0.0025610671637804343
1.566666666666666,-0.0009998885,-0.7855057,0.0012033477,-2.3567908,0.0014359728,1.571048,0.7872935,0.037219997,0.037220135,-9.335046095914436,-1.0451117667671086,0.17970706152570418,0.00966395930095586,-0.017032855178836393,0.004236147081699727
1.5833333333333326,-0.0011295915,-0.7856221,0.0013327705,-2.356846,0.001586665,1.5710566,0.7874374,0.03744237,0.037442498,-9.579761021379827,0.0019808047868339704,0.04565012039309274,0.012808338335583433,-0.013239827363365729,-0.0012706545480314455
1.5999999999999992,-0.0012687222,-0.7857471,0.0014716132,-2.3569043,0.0017483064,1.5710652,0.78759176,0.037646953,0.037647072,-9.321805076346816,0.20053291574553458,-1.1877747081839245,0.009312209391981414,-0.017870107891611337,0.0021451956817472684
1.6166666666666658,-0.0014175962,-0.785881,0.0016201925,-2.3569677,0.0019212619,1.5710738,0.78775686,0.037835177,0.037835293,-10.601288296733024,-1.2024588128101497,-0.4732236914547371,0.011752183148125787,-0.017891318324147885,0.006818915610508927
1.6333333333333324,-0.0015765267,-0.7860241,0.0017788216,-2.357034,0.0021058917,1.5710858,0.7879332,0.038008347,0.03800845,-8.685962482055006,-0.8047808033773887,0.7062208200895241,0.012390409240411605,-0.021255220466695594,0.00606953061550593
1.649999999999999,-0.0017458197,-0.7861767,0.0019478069,-2.3571067,0.0023025493,1.5710981,0.7881211,0.03816765,0.038167752,-10.626694742666391,-0.32808030319665415,0.004526089356106665,0.017891451437291747,-0.021651600846124584,0.010448669374030212
1.6666666666666656,-0.0019257782,-0.78633887,0.0021274514,-2.357181,0.0025115844,1.5711104,0.78832084,0.03831422,0.038314313,-9.086230530402515,0.0588827047053998,0.12072353944116865,0.01447113981341473,-0.020552841520592707,0.0012005128055381153
1.6833333333333322,-0.002116699,-0.78651136,0.0023180516,-2.3572621,0.0027333396,1.5711228,0.7885327,0.03844907,0.038449164,-9.912731681417817,0.8817913988009738,0.5851370514527185,0.010971923133491338,-0.020957847739016492,0.005467986445507246
1.6999999999999988,-0.0023188721,-0.78669393,0.0025199002,-2.357345,0.0029681514,1.5711352,0.788757,0.03857313,0.03857322,-9.322414128346939,1.3065152858234117,-0.03547213846103526,0.015586334174043726,-0.023893796981768894,0.007940140139456094
1.7166666666666655,-0.0025325853,-0.78688717,0.0027332832,-2.3574345,0.0032163507,1.5711505,0.7889941,0.038687266,0.038687352,-10.018310355411108,0.3721848555633446,-0.4569582548694179,0.019644660407458367,-0.02155801435830079,0.004615271220582057
1.733333333333332,-0.0027581167,-0.7870911,0.0029584805,-2.3575304,0.0034782635,1.5711666,0.78924435,0.03879228,0.03879236,-9.484757303906639,0.18510449817656663,-0.24301573399878224,0.016455396343954022,-0.021892530979712405,0.007732640290674508
1.7499999999999987,-0.0029957413,-0.78730595,0.003195767,-2.3576286,0.0037542065,1.5711828,0.78950804,0.03888888,0.03888896,-10.082676950765498,0.09120466726829228,-0.32623170704098886,0.021335416385577857,-0.024084159196474636,0.005546396683788708
1.7666666666666653,-0.0032457274,-0.78753203,0.0034454113,-2.3577332,0.0040444923,1.571199,0.78978544,0.03897776,0.038977835,-9.981430828243997,-0.48117806968639953,-0.08948373239200917,0.024400014133534126,-0.020263753665121217,0.0033286535536393687
1.7833333333333319,-0.0035083387,-0.78776973,0.003707677,-2.3578446,0.004349424,1.5712167,0.7900769,0.03905954,0.03905961,-10.759722655555713,-0.1503349006044472,0.05711645397183664,0.01982508452281451,-0.02274553774071066,0.002901891752054197
1.7999999999999985,-0.003783831,-0.7880191,0.003982821,-2.357958,0.004669301,1.5712366,0.7903827,0.03913476,0.03913483,-9.9812049249515,-0.12071012134469514,-0.927292614818755,0.02505316508963373,-0.02415893705006669,0.011292931908250753
1.816666666666665,-0.0040724543,-0.7882804,0.0042710938,-2.3580782,0.005004412,1.5712566,0.79070306,0.039203968,0.03920404,-9.668789246153242,-0.20081521766993893,-1.0160072393482529,0.025170354141496865,-0.022738790314317348,0.006438317392684304
1.8333333333333317,-0.004374456,-0.78855395,0.0045727403,-2.3582056,0.005355043,1.5712767,0.7910383,0.03926765,0.03926772,-10.147932152632805,-0.8945359386976978,-1.2528373619146371,0.026004972804875504,-0.026234081035182346,0.007831408135587019
1.8499999999999983,-0.00469007,-0.78883976,0.004887998,-2.3583353,0.005721469,1.5712976,0.7913886,0.03932623,0.039326295,-10.467199278522378,-0.008472098662007717,-0.0807497709579371,0.02861358395106306,-0.02270288511569319,0.006717559478268567
1.866666666666665,-0.00501953,-0.78913826,0.005217101,-2.3584719,0.0061039617,1.5713209,0.79175407,0.039380115,0.03938018,-10.104208055612613,-1.0694192159601934,-0.7602466551390434,0.02657073704103753,-0.023546889855941763,0.008046764268004993
1.8833333333333315,-0.0053630644,-0.7894495,0.005560274,-2.3586156,0.006502782,1.5713447,0.79213536,0.039429702,0.03942977,-9.232173997985962,-0.40864963892148337,0.16041751133036625,0.025466870144179355,-0.026456493725068007,0.010583891055543684
1.8999999999999981,-0.005720891,-0.78977376,0.005917738,-2.358766,0.006918187,1.5713686,0.79253256,0.039475307,0.039475378,-9.776999490452159,0.05471081509944732,-1.385507652311452,0.028886492234994978,-0.025103902158782127,0.0030833522458329037
1.9166666666666647,-0.0060932245,-0.79011124,0.006289709,-2.3589206,0.0073504257,1.5713937,0.79294586,0.039517283,0.03951735,-10.16175944957493,0.693542586390786,-0.25468962129706146,0.025806262248597625,-0.027531635983494566,0.00666552380678242
1.9333333333333313,-0.006480271,-0.7904622,0.0066763926,-2.3590808,0.007799738,1.5714209,0.79337543,0.0395559,0.039555967,-10.765903838396563,-0.09827711922875554,0.12443294304465286,0.02921409749674146,-0.025352752960993336,0.009411794076009878
1.949999999999998,-0.0068822303,-0.7908266,0.007077991,-2.359248,0.0082663605,1.5714486,0.7938217,0.039591428,0.039591495,-9.730652052347816,0.020363748884849323,0.7056100309596746,0.029538032005501647,-0.026676851351234307,0.011915863336041423
1.9666666666666646,-0.0072993,-0.7912047,0.0074946973,-2.3594222,0.008750518,1.5714762,0.7942847,0.039624106,0.039624173,-9.596840648093293,0.9574237484163736,-0.6224643166817725,0.038846069436420834,-0.029574810262381786,0.0160239561764688
1.9833333333333312,-0.0077316673,-0.79159665,0.0079267025,-2.3596032,0.009252429,1.5715058,0.7947648,0.039654173,0.03965424,-9.201703946796364,-0.38305388347863223,0.6637226738223492,0.04017409544649446,-0.03160235714045592,0.012029587166696793
1.9999999999999978,-0.008179515,-0.7920027,0.008374188,-2.3597891,0.009772302,1.571537,0.79526204,0.039681833,0.0396819,-10.301696303749438,0.6657197620432782,-0.3820280010461944,0.04165408368343367,-0.029929927480580706,0.01596243301209353
2.0166666666666644,-0.00864302,-0.79242295,0.008837328,-2.3599813,0.010310345,1.5715685,0.79577655,0.03970728,0.03970735,-9.157080634410113,-0.9056182606009883,-0.29973437723752583,0.04089448565639646,-0.030339388945548315,0.015990622225738098
2.033333333333331,-0.009122352,-0.7928577,0.009316297,-2.3601806,0.01086676,1.5716008,0.7963087,0.0397307,0.03973077,-10.050659553665803,-0.40000291551678785,0.6658610698696329,0.04356572139153405,-0.026301214856603413,0.012307898505728993
2.0499999999999976,-0.009617672,-0.7933069,0.009811258,-2.3603866,0.01144173,1.571635,0.79685855,0.039752237,0.03975231,-8.687245213319313,-0.6861920431374443,0.5132709395124112,0.04076297863520536,-0.029250721489971706,0.01295724044096818
2.066666666666664,-0.010129141,-0.7937707,0.010322365,-2.3606,0.012035451,1.5716703,0.79742634,0.03977206,0.03977213,-10.014868979053334,-0.18636678162897302,-0.2774825089632396,0.04463857175103364,-0.029577253313615166,0.01862918928281338
2.083333333333331,-0.010656911,-0.7942493,0.010849777,-2.3608205,0.012648086,1.5717058,0.79801226,0.03979029,0.039790366,-9.58586019711172,0.4154926484643567,0.039709574682862514,0.03824106242104354,-0.02426886069834082,0.014695673876231028
2.0999999999999974,-0.011201122,-0.79474276,0.0113936355,-2.3610473,0.0132798115,1.5717432,0.79861647,0.039807066,0.03980714,-9.490415162753697,0.28910782250795597,0.9394026233905797,0.04522119961939558,-0.03037425926019231,0.014540249240269712
2.116666666666664,-0.01176192,-0.7952514,0.011954078,-2.361281,0.013930787,1.5717821,0.79923904,0.0398225,0.039822575,-10.64516532949881,0.5216470544661753,0.8987555134321678,0.044689602898335845,-0.02642342871664088,0.015268112931929772
2.1333333333333306,-0.012339432,-0.7957752,0.012531238,-2.3615217,0.01460117,1.5718212,0.79988015,0.039836705,0.039836783,-9.576499647415503,0.0705998528831552,-0.031207783488051644,0.05003070982570879,-0.028891831099616225,0.016874185303937406
2.1499999999999972,-0.012933787,-0.7963143,0.013125243,-2.3617692,0.015291104,1.571862,0.80054003,0.039849762,0.03984984,-9.05917028696775,1.2028310680212382,-0.48278364858830247,0.04374152006214901,-0.0305761573267608,0.011949841868419627
2.166666666666664,-0.013545105,-0.7968688,0.0137362145,-2.3620236,0.016000733,1.5719042,0.80121875,0.039861783,0.039861865,-10.460396072403205,-0.1545664277006881,-0.6531221578081963,0.048563695332293925,-0.03674580379450671,0.016668415164208788
2.1833333333333305,-0.014173506,-0.7974389,0.0143642705,-2.362285,0.01673019,1.5719471,0.8019165,0.03987284,0.039872922,-9.778132757172722,-0.47401131986920775,-1.2278858480966974,0.05517277618278949,-0.03756546443465941,0.01572733016204027
2.199999999999997,-0.014819095,-0.7980247,0.015009516,-2.3625536,0.017479599,1.5719912,0.8026331,0.039883018,0.0398831,-9.554525820981594,0.08708399851493068,0.1619458363023738,0.051478617998800213,-0.03940399487648716,0.01940758739519877
2.2166666666666637,-0.015481975,-0.7986262,0.015672056,-2.3628297,0.01824909,1.5720367,0.8033686,0.039892375,0.03989246,-9.91623898789523,-0.3574754083642794,-0.5282375069588134,0.05825323836592635,-0.03545254760127202,0.019538602216843243
2.2333333333333303,-0.016162243,-0.79924345,0.016351989,-2.3631127,0.01903877,1.5720835,0.80412376,0.03990099,0.039901074,-10.243084524446772,0.982909654815157,-1.3413693861530156,0.052547105307898606,-0.04204732186879665,0.02265332970622601
2.249999999999997,-0.016859991,-0.7998765,0.017049406,-2.363403,0.01984875,1.572131,0.8048984,0.039908912,0.039908998,-10.527146408473707,0.5637915813808803,0.2820084286650607,0.057844065891211896,-0.031063682690202682,0.015864334388453978
2.2666666666666635,-0.01757531,-0.80052555,0.017764391,-2.3637006,0.020679118,1.5721802,0.8056926,0.03991621,0.0399163,-9.014185477428425,-0.7124740812628375,-0.17220808965365475,0.060392171522820365,-0.03618635884323002,0.015917403356520834
2.28333333333333,-0.018308274,-0.80119056,0.01849703,-2.3640056,0.021529973,1.5722303,0.8065065,0.03992293,0.039923023,-9.790364643776163,-0.18372926943338636,-0.45781040004314666,0.06158900108865653,-0.034773979926135276,0.020341535706594388
2.2999999999999967,-0.019058958,-0.80187166,0.01924739,-2.364318,0.022401404,1.5722814,0.80734,0.039929092,0.039929185,-9.91794963622375,0.6704010801436315,0.9454196894664227,0.06128830831422455,-0.03968480378228379,0.023569109466254432
2.3166666666666633,-0.019827431,-0.8025688,0.020015545,-2.3646376,0.02329349,1.572334,0.8081933,0.03993476,0.03993486,-10.781958598544009,-1.211919620103315,-0.5923976389331287,0.06124333619741338,-0.03881733137937773,0.019375001883722074
2.33333333333333,-0.020613752,-0.8032823,0.020801554,-2.3649647,0.024206305,1.5723879,0.8090665,0.03993998,0.039940078,-9.762056177820993,-0.13919440164556462,0.0984268205444538,0.06804509498820889,-0.039741822273864295,0.019415403122020506
2.3499999999999965,-0.021417985,-0.80401194,0.02160547,-2.3652995,0.025139913,1.5724427,0.8099595,0.039944794,0.039944895,-9.988420496392994,-0.18890339741079534,0.36130388977485395,0.06655213588698597,-0.038845328940641,0.016095101154448947
2.366666666666663,-0.022240179,-0.80475795,0.022427354,-2.3656416,0.026094379,1.572499,0.8108724,0.039949223,0.03994932,-9.79706455180836,0.23826200687312343,0.6040679922615273,0.06710847497900577,-0.039635823788629246,0.017312832445399818
2.3833333333333298,-0.023080384,-0.80552024,0.023267247,-2.3659914,0.02706975,1.5725565,0.81180537,0.039953303,0.039953407,-8.931923314364216,0.19347065145667428,1.131585446138986,0.0709168052027799,-0.03980950695011444,0.016467291108132595
2.3999999999999964,-0.023938628,-0.8062991,0.024125192,-2.3663485,0.028066076,1.572615,0.8127584,0.03995705,0.039957155,-9.484901731030261,0.9556378162245643,-1.314792480159363,0.06759545078000231,-0.04231017567536197,0.018732711496263103
2.416666666666663,-0.024814961,-0.8070943,0.025001222,-2.3667133,0.029083405,1.5726752,0.8137314,0.039960496,0.039960604,-9.296739560478198,0.10816268559608386,0.4545902677046846,0.06910264261737945,-0.04360982668624892,0.023050126047819225
2.4333333333333296,-0.025709404,-0.807906,0.025895372,-2.367086,0.030121759,1.5727364,0.8147247,0.03996367,0.039963778,-9.06594515589919,-0.1263851869541716,-1.2218620299984433,0.07254579152605806,-0.041049153237130126,0.022291519757660944
2.449999999999996,-0.02662199,-0.808734,0.026807662,-2.367466,0.031181185,1.5727988,0.8157379,0.03996659,0.039966702,-9.349892719748617,0.20705069240597757,0.36244671198129463,0.07769103253859966,-0.04021424819352552,0.024874263414743723
2.466666666666663,-0.027552728,-0.80957854,0.027738113,-2.3678536,0.03226169,1.5728627,0.8167713,0.039969277,0.03996939,-9.777374233557326,-0.2639444686111855,-0.31599698203969834,0.07487443421325508,-0.04255378505396815,0.027523676279586184
2.4833333333333294,-0.028501641,-0.81043965,0.028686743,-2.368249,0.0333633,1.5729276,0.81782496,0.039971747,0.039971862,-9.744709226776095,-1.4012982587020173,-0.6280747058673105,0.08139637897778235,-0.043350056593834785,0.023805753568143996
2.499999999999996,-0.029468732,-0.8113172,0.029653553,-2.3686514,0.034486026,1.572994,0.81889874,0.039974038,0.039974157,-10.210139762585635,-0.6593087960454461,0.8835392523775214,0.07877962862376608,-0.0439376484376163,0.021951435970779448
2.5166666666666626,-0.030454006,-0.8122113,0.030638544,-2.3690617,0.03562986,1.5730617,0.8199928,0.03997612,0.03997624,-9.562736417069745,-0.29495305739145317,-0.521899976141,0.0795753700451279,-0.041863455654989286,0.027684239932977753
2.533333333333329,-0.03145746,-0.8131219,0.03164172,-2.3694794,0.03679481,1.5731304,0.821107,0.039978057,0.039978176,-9.877998029879834,0.5160281764739955,0.5794747152203068,0.08361040400566504,-0.05105674123930546,0.02600247315126497
2.549999999999996,-0.032479085,-0.81404907,0.032663085,-2.3699045,0.037980866,1.5732002,0.8222414,0.03997984,0.03997997,-8.33182552399607,-0.5073718329757513,0.582873071202048,0.08133131691313508,-0.04623603667557376,0.029030563638041615
2.5666666666666624,-0.033518884,-0.8149927,0.03370261,-2.3703372,0.039188016,1.5732718,0.82339597,0.039981466,0.039981592,-9.847029126102404,0.13746956566926738,0.3450072953101454,0.08010370312195625,-0.0408528809375403,0.027767808923653776
2.583333333333329,-0.034576815,-0.81595284,0.034760296,-2.3707776,0.040416237,1.5733441,0.8245707,0.03998296,0.039983086,-9.878276383382897,-0.15876414044760784,0.18338716804158958,0.08714755579794656,-0.04409962380387788,0.02546745953116391
2.5999999999999956,-0.035652887,-0.8169295,0.035836097,-2.3712256,0.04166551,1.5734177,0.8257656,0.039984327,0.039984457,-9.58348773938703,-0.5792153103267063,-0.351383209201272,0.08688902221843696,-0.045198409491156735,0.02881999101578206
2.6166666666666623,-0.036747057,-0.8179227,0.036929995,-2.3716807,0.04293581,1.573493,0.8269806,0.039985616,0.03998575,-9.674880958635333,-0.5692759954863909,0.8710248417129697,0.0910773183079769,-0.04888801605084608,0.026233932299110467
2.633333333333329,-0.037859295,-0.81893224,0.038041975,-2.3721435,0.044227093,1.573569,0.8282156,0.039986823,0.03998695,-10.755100266390016,0.1513583887587377,-0.8345176262737569,0.09634222893877868,-0.04768487589550074,0.028345758381542015
2.6499999999999955,-0.03898957,-0.8199582,0.039171994,-2.372614,0.04553931,1.5736463,0.82947063,0.039987914,0.039988045,-9.564046333724097,-0.9092429677685757,0.5933615009729684,0.09234376731454338,-0.050230326593259,0.030252600685291953
2.666666666666662,-0.040137835,-0.8210003,0.040319994,-2.373092,0.046872422,1.5737255,0.8307457,0.0399889,0.03998904,-9.850660409559547,0.3598502108923855,0.7090227731381054,0.09499192103444035,-0.04699567401019964,0.02772397759645966
2.6833333333333287,-0.041304052,-0.8220587,0.041485965,-2.3735776,0.04822638,1.5738053,0.8320407,0.03998984,0.039989978,-10.07327624491509,0.05474639086433408,0.44227853505350095,0.09384001857049071,-0.054678120695675445,0.028668665820022525
2.6999999999999953,-0.042488173,-0.8231334,0.042669825,-2.3740702,0.049601126,1.5738863,0.8333556,0.03999069,0.039990827,-9.669564939699288,0.4854063640625502,0.9335102576469185,0.09622426695482297,-0.0463653549850306,0.028033808659574458
2.716666666666662,-0.04369013,-0.8242246,0.043871522,-2.3745704,0.050996594,1.5739691,0.83469015,0.03999146,0.039991606,-9.332945816851575,0.08627368156936556,-0.8295363336250638,0.09718703985996183,-0.047623810677775644,0.03199402818455135
2.7333333333333285,-0.044909876,-0.8253317,0.04509101,-2.375078,0.052412722,1.5740526,0.83604455,0.039992183,0.039992325,-10.016683582265902,0.3113541078075654,0.9760205777806706,0.1051807992558345,-0.05550320198010442,0.03342081256005853
2.749999999999995,-0.04614734,-0.826455,0.04632821,-2.3755932,0.053849444,1.5741371,0.8374187,0.03999283,0.03999298,-8.959888653362905,0.5836904981327445,0.08419012254912633,0.1024640814982183,-0.053236317478298024,0.03146774628742401
2.7666666666666617,-0.04740244,-0.82759416,0.047583092,-2.3761158,0.055306647,1.5742235,0.83881253,0.039993454,0.039993603,-10.24355866704737,0.33461443945362473,-0.0427656745834647,0.1018671728988308,-0.05725638010536588,0.030741557448287233
2.7833333333333283,-0.04867514,-0.8287494,0.04885554,-2.3766456,0.056784265,1.5743107,0.84022564,0.039994042,0.039994188,-9.556163713177382,0.010119995638386808,0.763205785254691,0.10633118932812713,-0.05022867955760018,0.02637081371851211
2.799999999999995,-0.04996534,-0.8299205,0.050145492,-2.3771827,0.05828221,1.5743988,0.84165853,0.03999455,0.0399947,-10.085243060893996,-0.5937872704037183,0.9532300151901176,0.10329179788613052,-0.04976437093431452,0.030029587038718785
2.8166666666666615,-0.051272973,-0.8311074,0.051452875,-2.3777273,0.059800386,1.5744885,0.84311044,0.03999504,0.03999519,-9.052861913098791,0.7659863154022684,0.013035279033207614,0.10340567013499932,-0.05190055532856168,0.032507271945813376
2.833333333333328,-0.052597936,-0.83231014,0.05277759,-2.378279,0.061338708,1.5745794,0.84458154,0.039995503,0.03999565,-8.859718929552018,0.27962865871985715,1.0837363484407434,0.10834827505679465,-0.05050091445621139,0.034561333440894654
2.8499999999999948,-0.053940143,-0.8335284,0.054119553,-2.3788376,0.06289705,1.5746711,0.84607184,0.039995894,0.039996054,-9.92059972415373,0.02270262620417665,0.9339463644678564,0.10908096789862344,-0.059054424977188054,0.02961831934847076
2.8666666666666614,-0.055299517,-0.83476216,0.055478673,-2.3794034,0.06447531,1.5747645,0.8475814,0.03999627,0.039996427,-9.463882715879407,0.6003183087317691,0.7653855943226657,0.11059738327678355,-0.05554941816748086,0.03848129458631929
2.883333333333328,-0.056675944,-0.8360116,0.056854855,-2.3799765,0.06607339,1.574859,0.8491099,0.03999663,0.039996788,-11.121748144113942,0.8941820859090358,0.4416587917061843,0.11105701746027352,-0.054328734783223025,0.03273205661421051
2.8999999999999946,-0.058069326,-0.83727646,0.058248,-2.3805568,0.06769117,1.5749545,0.85065717,0.03999697,0.039997127,-11.110581526806355,-0.27516380137970803,-0.032958702674411144,0.11409500472291031,-0.05488346118428639,0.032299016542395975
2.916666666666661,-0.05947956,-0.8385567,0.059657976,-2.381144,0.06932854,1.5750513,0.85222316,0.03999725,0.039997417,-10.728767679005907,0.8207080073145208,0.29710257587062383,0.11830016780827816,-0.05376339458141641,0.02978993616558862
2.933333333333328,-0.060906537,-0.83985204,0.061084703,-2.3817387,0.070985325,1.5751493,0.85380775,0.03999751,0.03999768,-9.51901538270739,-0.20772421921158085,0.5008268090310628,0.11313783594257956,-0.05536898564654287,0.03030314537688042
2.9499999999999944,-0.06235015,-0.8411627,0.06252805,-2.3823397,0.072661445,1.5752482,0.8554107,0.039997768,0.039997935,-10.49907800147318,-0.24519286220238395,1.027250173067281,0.11633921590973562,-0.059264101035641135,0.03403581561668589
2.966666666666661,-0.06381027,-0.84248817,0.063987896,-2.3829477,0.07435671,1.5753481,0.8570321,0.03999801,0.039998177,-10.12356637886,-0.0006216713992867051,0.34850185278045936,0.11909550525515694,-0.056729914259545,0.03276005711431492
2.9833333333333276,-0.06528678,-0.8438284,0.065464154,-2.3835628,0.07607107,1.5754495,0.85867167,0.03999825,0.039998416,-10.298772853853242,-0.5796311334104395,-0.5454585855364038,0.12041434021307829,-0.06056909628988803,0.03499882591863449
2.9999999999999942,-0.066779554,-0.84518343,0.06695668,-2.3841848,0.07780428,1.575552,0.8603293,0.03999847,0.03999864,-10.304617960652077,0.2520337265707576,-0.5544509453754167,0.12423311045093194,-0.058924118851662786,0.035615925283250784
3.016666666666661,-0.068288475,-0.84655327,0.06846532,-2.3848128,0.07955622,1.5756551,0.862005,0.03999868,0.03999885,-9.633284573874054,0.945476535257188,1.021682212874086,0.1258569153467442,-0.05388327321354262,0.03708742337109362
3.0333333333333274,-0.06981338,-0.8479373,0.06998999,-2.3854477,0.08132676,1.5757598,0.86369824,0.03999884,0.03999902,-9.897716341025138,-0.19927843281412905,0.41751965569480115,0.1259300407223825,-0.054320539849260295,0.037147342288535154
3.049999999999994,-0.07135416,-0.84933597,0.0715305,-2.386089,0.08311572,1.5758655,0.8654092,0.039998993,0.039999176,-10.032849516153716,-0.7957925012058995,0.07441040870636573,0.12654273526262896,-0.053003140633036384,0.03279341093140977
3.0666666666666607,-0.072910644,-0.85074896,0.07308673,-2.3867369,0.084922954,1.5759722,0.86713755,0.039999146,0.03999933,-10.050498661851517,1.072531902526022,-0.21782337190203038,0.12725986842307072,-0.05894243651463972,0.033525235778185336
3.0833333333333273,-0.074482754,-0.852176,0.07465858,-2.3873918,0.08674829,1.57608,0.86888325,0.039999284,0.039999466,-10.730623043383495,-0.04971405629147191,1.8857025998074213,0.12962552952428313,-0.06333192043509991,0.032985233807860816
3.099999999999994,-0.0760703,-0.85361725,0.07624583,-2.3880532,0.08859154,1.5761888,0.870646,0.039999425,0.039999608,-9.969115906356732,0.6416481235097855,-0.37390498984094167,0.12975690793719957,-0.061928088710907825,0.03645516918917059
3.1166666666666605,-0.07767315,-0.8550724,0.07784836,-2.3887208,0.09045255,1.5762988,0.87242585,0.03999956,0.039999746,-10.27305986634626,-0.15692429060557783,0.607319923329515,0.13498389101367447,-0.056989572624086736,0.03666582902473936
3.133333333333327,-0.07929115,-0.8565413,0.079466045,-2.389394,0.09233115,1.5764095,0.8742225,0.039999686,0.039999872,-9.668996658124291,0.9575693938905313,0.935974151660057,0.13616080462951893,-0.06240396703517722,0.04180008145927437
3.1499999999999937,-0.08092411,-0.8580238,0.081098706,-2.3900735,0.094227165,1.5765215,0.87603587,0.03999981,0.039999995,-9.932238499087209,0.19569176827663762,-0.7472344937729671,0.1409612636220456,-0.06116521765265053,0.042537779876633666
3.1666666666666603,-0.082571894,-0.85951984,0.082746185,-2.3907595,0.09614038,1.5766345,0.8778657,0.039999917,0.04,-10.098557760168438,0.8240018728814911,-0.11694422874099003,0.13907718613910475,-0.06171518775096122,0.040864890670718176
3.183333333333327,-0.084234335,-0.861029,0.0844083,-2.3914514,0.09807061,1.5767486,0.8797117,0.04,0.04,-9.446128296419003,0.39602972687034216,-0.04322840658462662,0.13369888721205184,-0.06196971302173532,0.03629785901875987
3.1999999999999935,-0.085911244,-0.86255133,0.08608493,-2.39215,0.10001771,1.5768634,0.8815738,0.04,0.04,-8.951417722452376,1.0413342384788082,0.9821678920650085,0.13995476051215075,-0.060092239152270625,0.033695010732900814
3.21666666666666,-0.08760248,-0.8640867,0.087775856,-2.3928537,0.10198146,1.5769794,0.88345176,0.04,0.04,-9.837418232174171,0.3147602340568064,0.1235623384897655,0.13819609072925107,-0.05881837783630409,0.03742298815461382
3.2333333333333267,-0.08930791,-0.86563486,0.089480944,-2.3935635,0.103961594,1.5770963,0.8853454,0.04,0.04,-11.222499158838229,-0.8993596330759799,1.7398554808328102,0.1407068216180015,-0.061191446955100204,0.03687352213886306
3.2499999999999933,-0.0910273,-0.86719584,0.09120001,-2.3942788,0.10595797,1.5772142,0.88725466,0.04,0.04,-9.812765354839913,1.0925944059296573,-0.5753929040693447,0.1410321793517178,-0.06797907291079713,0.040231886059552836
3.26666666666666,-0.092760496,-0.86876935,0.09293285,-2.3950005,0.10797038,1.577333,0.8891792,0.04,0.04,-10.236520475517674,0.883764452866086,0.32357807902760544,0.14527926377028894,-0.05980239423455019,0.036627704115386704
3.2833333333333266,-0.0945073,-0.87035507,0.094679296,-2.395728,0.10999864,1.5774529,0.89111894,0.04,0.04,-9.899348500310808,0.5110289841501333,0.302045643881747,0.14858880345751338,-0.060665349719301535,0.039249797757386407
3.299999999999993,-0.096267544,-0.87195325,0.09643916,-2.3964605,0.11204247,1.5775735,0.8930736,0.04,0.04,-9.503202884233046,0.06155441072865464,0.4521952229053792,0.14126221226795907,-0.06288031480149886,0.04310485030918843
3.3166666666666598,-0.098041035,-0.87356335,0.09821231,-2.3971987,0.11410172,1.577695,0.8950431,0.04,0.04,-10.520710226451605,0.46379616479208263,0.9472722822331765,0.14850371206507454,-0.07007336862521435,0.0417732566010813
3.3333333333333264,-0.09982758,-0.8751853,0.09999849,-2.3979428,0.11617612,1.5778173,0.8970269,0.04,0.04,-10.092575944388523,0.7671553664773996,0.2799953588766211,0.15013346498645866,-0.06070751727050266,0.04051282477580841
3.349999999999993,-0.10162699,-0.8768191,0.1017975,-2.3986917,0.11826545,1.5779408,0.89902496,0.04,0.04,-9.366685980330502,-0.07335497114695433,0.6647819485390025,0.14385274752968025,-0.06685022101444449,0.041015971183991105
3.3666666666666596,-0.10343911,-0.8784642,0.1036092,-2.399446,0.12036949,1.5780652,0.9010372,0.04,0.04,-9.407120561290487,0.7796081643817727,0.6306243829335244,0.15086945493400486,-0.06330636197468972,0.04586643334021706
3.383333333333326,-0.10526367,-0.8801207,0.105433345,-2.4002056,0.122488014,1.5781901,0.9030633,0.04,0.04,-9.724123472367701,1.8995358865528027,0.1561339092606876,0.150221572157542,-0.06226177871448321,0.040702632453893495
3.399999999999993,-0.10710052,-0.8817884,0.10726979,-2.40097,0.12462081,1.5783159,0.9051029,0.04,0.04,-9.235725934705883,1.983173379369082,0.36508960315340666,0.15308370671415258,-0.062309760539940466,0.040378247713183144
3.4166666666666594,-0.10894943,-0.883467,0.109118275,-2.4017396,0.12676764,1.5784428,0.907156,0.04,0.04,-8.722408556740879,0.8991229404866901,0.4606623579876705,0.15378599121925457,-0.06742112078999492,0.039248314949538655
3.433333333333326,-0.11081022,-0.88515645,0.11097864,-2.4025145,0.12892823,1.5785705,0.9092222,0.04,0.04,-9.416903531387135,-0.2761611211706361,1.2820892026016515,0.15894402827277992,-0.0689384223780826,0.0406456718401183
3.4499999999999926,-0.11268268,-0.88685644,0.11285065,-2.403294,0.1311024,1.5786989,0.9113013,0.04,0.04,-9.826228011103085,-0.6303514931023164,0.2515069958554856,0.15742579167590323,-0.06346504409311618,0.03894121116813239
3.4666666666666592,-0.114566565,-0.88856685,0.114734076,-2.4040782,0.13328986,1.5788277,0.9133932,0.04,0.04,-9.298658766803554,0.033156288285073166,1.0279494817653316,0.15852340155973066,-0.06293727961911022,0.036493673254905566
3.483333333333326,-0.11646173,-0.89028746,0.116628736,-2.4048674,0.13549036,1.5789573,0.91549754,0.04,0.04,-10.689896378841294,-0.5401264451603576,-0.6377774490390558,0.1569444400658771,-0.06737774437675946,0.041315423723178625
3.4999999999999925,-0.11836791,-0.89201814,0.11853442,-2.4056609,0.13770366,1.5790881,0.91761416,0.04,0.04,-10.987251181202588,0.2788004121754978,0.13573483459418506,0.1582162076523497,-0.06805976446548387,0.042954134191361244
3.516666666666659,-0.1202849,-0.89375865,0.12045093,-2.4064589,0.1399295,1.5792198,0.9197428,0.04,0.04,-10.579062152445875,1.554768336589443,0.49241388316698115,0.15985140294286557,-0.06367641833225474,0.04032302092602523
3.5333333333333257,-0.12221248,-0.8955087,0.122378,-2.4072611,0.14216766,1.579352,0.9218832,0.04,0.04,-10.486358909559597,0.9419180593013932,0.46919739157225965,0.16223547652447864,-0.06934569632926861,0.04180394283649825
3.5499999999999923,-0.124150425,-0.89726835,0.12431541,-2.4080677,0.14441782,1.5794847,0.92403495,0.04,0.04,-9.783561134364907,0.5646029810893661,0.6877008169939456,0.16402097032444712,-0.06697756118683229,0.04055125229445193
3.566666666666659,-0.12609851,-0.89903724,0.12626295,-2.4088788,0.14667977,1.579618,0.926198,0.04,0.04,-9.275740964978018,-0.004279331452748947,0.7573667452242965,0.1649385849664753,-0.06659572383944884,0.041241054184109414
3.5833333333333255,-0.12805654,-0.90081507,0.12822044,-2.4096935,0.14895327,1.5797526,0.9283721,0.04,0.04,-10.782925479931782,-1.1140549307281007,0.738036633412605,0.15981123641656633,-0.06612971898625565,0.035992873334236106
3.599999999999992,-0.13002424,-0.90260166,0.13018759,-2.4105124,0.15123802,1.5798876,0.93055725,0.04,0.04,-9.654384671679454,-0.16398673516834494,0.016949211154685395,0.1666643175506377,-0.06298578688344286,0.04259971582554837
3.6166666666666587,-0.1320014,-0.9043967,0.13216417,-2.4113357,0.15353377,1.5800232,0.9327525,0.04,0.04,-9.8750339693663,0.4780767789216222,1.2355791250977695,0.1654238021623413,-0.06146408209129889,0.04135079257309817
3.6333333333333253,-0.13398786,-0.90620023,0.13415004,-2.4121623,0.15584026,1.5801592,0.9349584,0.04,0.04,-9.289718901342818,-0.610937040712334,0.7391512841816447,0.1635693720542526,-0.06639133595758434,0.04625766458143134
3.649999999999992,-0.13598329,-0.90801203,0.13614485,-2.4129932,0.15815718,1.5802957,0.9371741,0.04,0.04,-10.173737302039573,1.390180785858303,1.1950843048852144,0.16606491314215402,-0.06054906818721041,0.04209314589563651
3.6666666666666585,-0.1379875,-0.9098318,0.13814844,-2.4138272,0.16048431,1.5804327,0.93939954,0.04,0.04,-9.590286853844983,1.1500359866399417,0.4017828773265396,0.16591746093608023,-0.06821768432912312,0.040480797184082984
3.683333333333325,-0.14000024,-0.91165936,0.14016058,-2.4146647,0.16282134,1.5805709,0.94163454,0.04,0.04,-10.134556899525599,0.28876964398464466,0.9922731323048464,0.17227047752486804,-0.06609705833716094,0.0360843439018327
3.6999999999999917,-0.14202125,-0.9134943,0.14218093,-2.4155056,0.16516794,1.5807097,0.94387877,0.04,0.04,-9.634317939198866,0.27578618046186293,-0.11225794820165169,0.17057551845588656,-0.06642456581906092,0.04136590240698692
3.7166666666666583,-0.14405034,-0.9153366,0.14420938,-2.4163504,0.16752401,1.5808488,0.94613165,0.04,0.04,-9.019478183133002,-0.40876530194005045,1.5334126390117344,0.1718095616610708,-0.06896909218486887,0.039944536692566625
3.733333333333325,-0.14608723,-0.9171861,0.14624561,-2.4171984,0.16988912,1.5809883,0.9483935,0.04,0.04,-9.286085283087944,0.06175659801531508,1.076141455395877,0.17310330959228498,-0.0719919021520514,0.047725742599436904
3.7499999999999916,-0.14813171,-0.91904235,0.14828937,-2.418049,0.17226303,1.5811282,0.9506637,0.04,0.04,-9.822582207999167,1.0004916270205582,0.22979303518838434,0.16976804693218314,-0.07012823431003624,0.04908600452260507
3.766666666666658,-0.15018357,-0.9209053,0.15034048,-2.4189034,0.17464548,1.5812685,0.9529418,0.04,0.04,-8.719487434739865,-0.16549281246931968,1.4536941689190552,0.1777030179435308,-0.06863197171266172,0.042561541390520166
3.7833333333333248,-0.15224245,-0.9227749,0.15239863,-2.4197598,0.17703614,1.5814093,0.95522785,0.04,0.04,-10.288441793369733,-0.3710653663265522,-0.30468199865623513,0.17145440385311406,-0.06641515552042494,0.04458028507548279
3.7999999999999914,-0.15430821,-0.9246505,0.15446368,-2.4206195,0.17943469,1.5815512,0.95752174,0.04,0.04,-8.70725758136205,0.6952303406586002,0.74136728298144,0.17772073306897038,-0.0706827618822318,0.03758739611281994
3.816666666666658,-0.15638056,-0.9265321,0.1565353,-2.421482,0.18184093,1.5816936,0.9598227,0.04,0.04,-10.613803426329275,0.7101461447226902,1.651120897141627,0.17725692328603296,-0.0655275132249991,0.039635462624408785
3.8333333333333246,-0.15845932,-0.92841953,0.15861318,-2.4223475,0.18425453,1.5818363,0.96213067,0.04,0.04,-10.351889315711377,0.51241125810645,1.8351155366418186,0.17992707887812237,-0.06989418236463225,0.03903716629818675
3.849999999999991,-0.16054407,-0.9303125,0.16069715,-2.4232152,0.18667519,1.5819793,0.9644454,0.04,0.04,-9.339054900527907,0.6906355155465118,1.6340946320361214,0.17661618659048045,-0.060214697160744075,0.036033218697082606
3.866666666666658,-0.16263466,-0.9322107,0.16278695,-2.4240851,0.18910271,1.5821224,0.96676683,0.04,0.04,-9.962019781719567,0.431532224017459,0.8214440459592924,0.1803641337624628,-0.06513057055021092,0.036312513673833105
3.8833333333333244,-0.16473086,-0.9341139,0.16488235,-2.4249573,0.19153665,1.582266,0.9690942,0.04,0.04,-9.558971547762654,0.8185206662843785,1.6538851811203834,0.1774566306939893,-0.06428647743239843,0.037402851593861995
3.899999999999991,-0.16683245,-0.93602204,0.16698304,-2.4258316,0.19397679,1.5824099,0.97142756,0.04,0.04,-9.526483815488469,0.016211589570606533,-0.1862889077132568,0.17522776765177872,-0.06742674361516057,0.03896565419522226
3.9166666666666576,-0.1689391,-0.93793494,0.16908883,-2.426709,0.1964228,1.582554,0.97376657,0.04,0.04,-9.57674585527307,1.3600905163952615,0.010569967858739648,0.179908057721915,-0.06314052120699591,0.03811282922999421
3.9333333333333242,-0.17105055,-0.93985236,0.1711994,-2.4275885,0.19887446,1.5826983,0.9761108,0.04,0.04,-9.827183897085483,-0.10248790738182434,0.6704332095207602,0.17989786032232688,-0.06244206043486973,0.0429248622740398
3.949999999999991,-0.17316657,-0.9417738,0.17331459,-2.4284692,0.20133144,1.5828434,0.97846025,0.04,0.04,-9.779366718298638,1.2099150718994522,0.3878347986966711,0.18353611279785365,-0.06440243812380353,0.03839146691740869
3.9666666666666575,-0.17528692,-0.9436991,0.17543404,-2.4293509,0.20379338,1.5829889,0.98081446,0.04,0.04,-9.838569047548862,1.6539467988787595,-0.27701059915445025,0.18492661104866054,-0.06275861091033166,0.040817719023838656
3.983333333333324,-0.17741132,-0.9456282,0.1775575,-2.4302347,0.20626003,1.5831347,0.9831732,0.04,0.04,-9.642977627031728,0.5859301941166559,0.9215200179800186,0.18594363354725055,-0.064099150064168,0.03557405735754912
3.9999999999999907,-0.17953949,-0.9475607,0.17968479,-2.4311202,0.2087311,1.5832808,0.98553616,0.04,0.04,-8.600495641595492,0.460443231487394,1.1968987877448642,0.18030735962982025,-0.06695538931207937,0.04083523165290369
4.016666666666658,-0.18167123,-0.9494965,0.18181553,-2.4320073,0.21120623,1.583427,0.98790306,0.04,0.04,-9.78672436822647,0.5076302259204322,1.0117434223305146,0.18565547450238298,-0.06911832291976841,0.043954885688212465
4.033333333333324,-0.18380626,-0.95143515,0.18394957,-2.432896,0.21368521,1.5835735,0.99027354,0.04,0.04,-9.992201729124178,0.05950642286483343,-0.052789018291402034,0.18314657423120678,-0.06691221972711305,0.03958885132331795
4.049999999999991,-0.18594426,-0.95337653,0.1860866,-2.4337852,0.21616767,1.5837201,0.99264735,0.04,0.04,-9.41814540063119,0.4426215111601853,0.5165091003996869,0.1851331561843124,-0.06722683708511838,0.03819173275732761
4.0666666666666575,-0.18808506,-0.9553203,0.18822634,-2.4346764,0.21865334,1.5838668,0.99502426,0.04,0.04,-10.65186747712556,0.6196569593740209,-0.5836472330375582,0.1785406754898013,-0.06257631734894699,0.03976346153574743
4.083333333333324,-0.19022833,-0.95726633,0.19036861,-2.4355686,0.22114184,1.5840137,0.997404,0.04,0.04,-8.922975989829023,-0.04112910395302194,0.9011705448959177,0.18315106968041703,-0.06259822180802142,0.0424569401142966
4.099999999999991,-0.19237383,-0.9592146,0.1925131,-2.4364614,0.22363298,1.5841608,0.9997861,0.04,0.04,-10.397508628740951,0.8061785091043405,1.0854529192126758,0.186180213694276,-0.06266262815807275,0.04208723929867067
4.116666666666657,-0.19452131,-0.9611646,0.19465955,-2.4373548,0.22612636,1.5843079,1.0021704,0.04,0.04,-10.12755778975358,0.8788406659918351,1.617782167294684,0.1891730285072493,-0.06380544836050855,0.03588192128958733
4.133333333333324,-0.1966705,-0.9631163,0.19680765,-2.4382489,0.22862181,1.5844551,1.0045565,0.04,0.04,-10.004359491343028,0.9031581696528289,0.8434045086760484,0.1815598795808806,-0.06596521955227529,0.038859024442442616
4.149999999999991,-0.19882111,-0.9650692,0.19895713,-2.4391437,0.23111893,1.5846025,1.0069441,0.04,0.04,-9.83196113717046,1.9807933493131595,0.013666597015053461,0.18217690203326736,-0.06393839429761755,0.03944427425973878
4.166666666666657,-0.2009729,-0.9670232,0.2011078,-2.4400387,0.23361735,1.5847498,1.0093329,0.04,0.04,-9.820895140045812,0.7102058608417038,0.6035995534776458,0.18833570209963765,-0.06629265186543898,0.04016322771060726
4.183333333333324,-0.20312561,-0.9689781,0.20325936,-2.4409342,0.23611683,1.5848972,1.0117228,0.04,0.04,-9.051549947473054,2.017410497451227,0.5535179038421993,0.18790168374974145,-0.0629911494006519,0.03911017026368531
4.19999999999999,-0.20527898,-0.97093344,0.20541157,-2.44183,0.23861706,1.5850445,1.0141137,0.04,0.04,-10.067448747545528,0.1993851360263199,1.0957974102149737,0.18639178472003842,-0.06154569973828193,0.038159324661875056
4.216666666666657,-0.20743272,-0.9728892,0.20756409,-2.4427257,0.24111773,1.5851918,1.0165048,0.04,0.04,-9.187109391195744,0.27087370520127096,0.7952862513431933,0.1866153640790068,-0.06699967597851365,0.03810563998304997
4.233333333333324,-0.20958659,-0.97484505,0.2097168,-2.4436214,0.24361846,1.5853393,1.0188961,0.04,0.04,-10.315188337823956,0.5535141349887147,-0.4559277249776047,0.18850228328372265,-0.06942062632821755,0.03898011719218447
4.24999999999999,-0.21174031,-0.9768007,0.21186934,-2.4445171,0.24611913,1.5854868,1.0212872,0.04,0.04,-9.43358382659396,0.7388051181741787,1.575444752313739,0.18372860910514202,-0.06302116716498561,0.03323408538899499
4.266666666666657,-0.21389367,-0.97875607,0.2140214,-2.4454129,0.24861921,1.5856342,1.023678,0.04,0.04,-9.93225904901467,0.7347376690281304,0.4202507598121161,0.1846326198085322,-0.06619897954878437,0.03368300653294966
4.2833333333333234,-0.21604632,-0.980711,0.21617277,-2.4463086,0.2511186,1.5857816,1.0260679,0.04,0.04,-10.311282752983876,0.004512866896114742,0.9288815762002539,0.18682604576178657,-0.060552317809826034,0.03583814686396835
4.29999999999999,-0.218198,-0.982665,0.2183232,-2.447204,0.2536169,1.5859289,1.0284567,0.04,0.04,-10.067886851647652,0.39213646626748166,1.7353045626838437,0.18900120517464644,-0.06385981301151285,0.033124036353169684
4.316666666666657,-0.22034852,-0.98461777,0.22047238,-2.4480991,0.25611377,1.5860763,1.0308442,0.04,0.04,-10.186194578130502,1.6613385638547888,0.8090523814191375,0.1871404541732745,-0.06549214108992182,0.03890197785482564
4.333333333333323,-0.22249757,-0.98656917,0.22262011,-2.4489937,0.2586089,1.5862236,1.0332302,0.04,0.04,-8.598882277964092,1.2082606100484898,0.7043544573296701,0.18586303367583412,-0.06579978667952462,0.041557210705525933
4.34999999999999,-0.22464481,-0.98851895,0.22476606,-2.4498875,0.261102,1.5863708,1.035614,0.04,0.04,-8.85999461060088,1.7442823590182894,1.960493790588208,0.19077900895252733,-0.06212206186161779,0.03853584121194793
4.3666666666666565,-0.22679004,-0.99046713,0.22691005,-2.4507804,0.26359275,1.5865179,1.037996,0.04,0.04,-9.414874902112983,0.9154072240641707,0.3157330226174171,0.18736825454035325,-0.06148251911558588,0.03915419085991656
4.383333333333323,-0.22893308,-0.9924134,0.22905174,-2.4516718,0.26608095,1.5866649,1.0403751,0.04,0.04,-10.126643495976843,1.315038934959161,1.7950816878010736,0.18722282278278388,-0.062494978391831275,0.03327074656308996
4.39999999999999,-0.23107363,-0.99435717,0.23119089,-2.4525623,0.2685662,1.5868117,1.0427514,0.04,0.04,-9.718200064983,0.42035391705670144,0.4837780782700402,0.1809059872017355,-0.06354397900327946,0.03593602169533948
4.416666666666656,-0.23321138,-0.99629855,0.23332725,-2.4534516,0.27104816,1.5869584,1.0451248,0.04,0.04,-9.355134175589068,0.5130992328054931,0.8549287789772028,0.18852505259563077,-0.05915133600684822,0.03750997624194178
4.433333333333323,-0.23534608,-0.99823695,0.23546055,-2.4543395,0.2735266,1.5871049,1.0474948,0.04,0.04,-10.478952600996356,1.0537203484814575,1.2163596560517371,0.18689913493914134,-0.0631648608554993,0.04054964406420902
4.4499999999999895,-0.23747747,-1.0001724,0.23759054,-2.4552264,0.2760012,1.5872512,1.049861,0.04,0.04,-8.311065456949853,-0.06430717864254087,0.7895361903781979,0.18836331041374227,-0.05953245075771857,0.033256694088073135
4.466666666666656,-0.2396053,-1.0021048,0.23971693,-2.456112,0.27847165,1.5873975,1.0522231,0.04,0.04,-10.240377536653773,1.4563229379834817,1.7305198795360033,0.1890410142094696,-0.06524385349157359,0.03899705113982965
4.483333333333323,-0.24172927,-1.0040337,0.2418395,-2.4569955,0.28093767,1.5875434,1.0545812,0.04,0.04,-10.429240088531964,0.69804829872142,1.6406434780069314,0.18937141711873834,-0.06361792547837737,0.03208435557142128
4.499999999999989,-0.24384919,-1.0059589,0.24395797,-2.4578774,0.28339887,1.5876887,1.0569345,0.04,0.04,-9.337049954961271,0.7199893113456513,1.2685263518348315,0.185372301006751,-0.06211689876252387,0.03314456797306885
4.516666666666656,-0.24596475,-1.0078802,0.24607201,-2.4587572,0.28585503,1.5878334,1.0592833,0.04,0.04,-8.720528996298846,1.651839395113678,1.4084060953510587,0.1842109412591887,-0.05925664708579167,0.03665469532488284
4.533333333333323,-0.24807575,-1.0097973,0.24818146,-2.4596353,0.28830582,1.5879779,1.0616268,0.04,0.04,-9.959133538989025,0.2806613576133711,0.8085686262972206,0.1890237089322289,-0.06330281339853015,0.0326257812279377
4.549999999999989,-0.25018188,-1.0117095,0.25028607,-2.4605114,0.290751,1.588122,1.063965,0.04,0.04,-10.051473060939179,-0.484637146520176,0.4154711574755551,0.18760907645805605,-0.05892018854754962,0.03519970344198238
4.566666666666656,-0.25228286,-1.0136173,0.2523855,-2.4613853,0.29319033,1.5882657,1.0662973,0.04,0.04,-8.655312075789356,2.0224368192644646,1.0040380806475364,0.19030255112894803,-0.05788627464528544,0.032201134658298956
4.583333333333322,-0.2543786,-1.0155203,0.25447953,-2.4622571,0.29562342,1.5884091,1.0686238,0.04,0.04,-11.307598814915073,1.7103789581223539,1.0784479551064152,0.18449552223856325,-0.06518741670180093,0.03268769452343279
4.599999999999989,-0.2564686,-1.0174184,0.256568,-2.4631271,0.2980499,1.5885522,1.070944,0.04,0.04,-9.395039235869614,1.037379919273984,1.1748667828782005,0.1834085675164523,-0.061982685746303,0.03457949736477687
4.616666666666656,-0.25855273,-1.0193113,0.25865054,-2.4639938,0.30046946,1.5886952,1.0732576,0.04,0.04,-11.583735721483261,1.2449967374886597,0.956209067429067,0.1866676528695434,-0.05347862227810378,0.034172083237611714
4.633333333333322,-0.2606307,-1.0211985,0.260727,-2.464858,0.30288205,1.5888377,1.0755643,0.04,0.04,-9.753719267661477,1.2302529023753888,1.7935522322202928,0.1907605662537352,-0.06075114767079773,0.03610081210769385
4.649999999999989,-0.26270235,-1.0230798,0.26279703,-2.4657202,0.30528718,1.5889801,1.0778638,0.04,0.04,-10.839988326532712,2.063148823549076,0.6972192306700469,0.18356367854849767,-0.05752991264806246,0.03298434684116419
4.666666666666655,-0.26476735,-1.0249552,0.26486054,-2.466579,0.30768463,1.5891217,1.0801562,0.04,0.04,-9.186351553896912,1.6956167310884744,0.6298753768212505,0.18426188479987202,-0.06213046180392794,0.030225153017733937
4.683333333333322,-0.26682547,-1.0268244,0.2669171,-2.4674351,0.31007412,1.5892626,1.082441,0.04,0.04,-9.635079427580848,0.8928527754679758,1.1337253094960165,0.18616401156186685,-0.05822093613118525,0.03218305256046087
4.699999999999989,-0.26887652,-1.0286869,0.26896647,-2.4682882,0.31245533,1.589403,1.0847179,0.04,0.04,-10.429680080704411,1.0120058690023597,1.2735691523955162,0.17952893024807798,-0.060392332797681664,0.03123148627291937
4.716666666666655,-0.27092022,-1.0305429,0.27100846,-2.4691384,0.31482798,1.589543,1.0869868,0.04,0.04,-9.73609148460555,1.1050085751491878,0.13952074396277014,0.1862042393176348,-0.06090285552760736,0.036983582596920736
4.733333333333322,-0.27295628,-1.0323918,0.27304283,-2.4699845,0.3171918,1.5896823,1.0892469,0.04,0.04,-10.010847571541142,1.078283473900892,0.3644403769650948,0.1809893833783309,-0.06334109081264114,0.03255961224448568
4.7499999999999885,-0.27498445,-1.0342335,0.2750694,-2.4708285,0.31954643,1.5898213,1.0914984,0.04,0.04,-9.387329842426144,0.8009862227267874,0.6688537928240346,0.18529315541060115,-0.0633185095635592,0.028939184688355695
4.766666666666655,-0.27700445,-1.0360678,0.27708778,-2.471668,0.32189167,1.58996,1.0937407,0.04,0.04,-9.63630314478027,0.4884618169914895,0.3955098195435227,0.18111701177384215,-0.063831077629502,0.03326342746309437
4.783333333333322,-0.2790162,-1.0378948,0.27909777,-2.4725049,0.3242272,1.590098,1.0959736,0.04,0.04,-10.53546284679183,1.5334576124692874,-0.07386224921008666,0.1816012482608985,-0.05398705929835383,0.02791752482189136
4.799999999999988,-0.28101942,-1.0397142,0.28109932,-2.4733377,0.32655275,1.5902352,1.0981975,0.04,0.04,-10.167234673840824,1.7146056455528949,1.0462453708519974,0.17756007451437292,-0.05642016712386855,0.02930054913358138
4.816666666666655,-0.2830138,-1.0415255,0.28309202,-2.4741676,0.32886812,1.5903718,1.1004113,0.04,0.04,-9.244095424722591,0.9040626533674712,0.8204038691334018,0.17737781787152151,-0.05663897747313184,0.024756278587118073
4.8333333333333215,-0.2849991,-1.0433289,0.2850756,-2.4749932,0.33117303,1.5905077,1.1026151,0.04,0.04,-9.324532973726244,0.8296536731162658,1.630764814368479,0.17788305199762727,-0.05620263924124693,0.026240212623317456
4.849999999999988,-0.28697518,-1.0451236,0.28705007,-2.4758155,0.33346716,1.5906432,1.1048087,0.04,0.04,-10.53314753924634,1.5408585189984196,0.22786773785417402,0.17859263704692901,-0.05815640143459941,0.02553595164884267
4.866666666666655,-0.28894177,-1.0469098,0.28901494,-2.4766333,0.3357502,1.5907781,1.1069915,0.04,0.04,-9.33170895056066,0.7712402487721772,1.379918718520775,0.17941904023014574,-0.054319304721955,0.029201911357906216
4.883333333333321,-0.29089853,-1.0486867,0.29097003,-2.4774473,0.33802184,1.5909121,1.1091639,0.04,0.04,-8.832894975510413,1.7619022952371806,1.1965706554779612,0.17484560208247524,-0.05365608216754203,0.027071872825890332
4.899999999999988,-0.29284537,-1.050455,0.29291517,-2.4782565,0.3402819,1.5910455,1.1113254,0.04,0.04,-9.820716251131383,1.371529913077307,0.3429655250702537,0.17691367601887456,-0.05644358918570192,0.025616717899826297
4.9166666666666545,-0.294782,-1.0522138,0.2948501,-2.479062,0.3425302,1.5911783,1.1134754,0.04,0.04,-8.582609161271677,2.4698777902091216,0.21293255256872679,0.17478968208633136,-0.05731203808279661,0.027239911057162572
4.933333333333321,-0.29670826,-1.0539634,0.29677457,-2.479863,0.34476632,1.5913104,1.1156135,0.04,0.04,-10.201014910939204,0.7876893126801102,0.973761795751116,0.17316602021823274,-0.05282371737874145,0.0239422605432619
4.949999999999988,-0.29862386,-1.0557033,0.29868844,-2.4806597,0.34699023,1.5914416,1.1177398,0.04,0.04,-10.419940420807317,2.8930387765541603,0.742904127652199,0.16992764706775038,-0.055389349043214006,0.02669788656266966
4.966666666666654,-0.30052868,-1.0574334,0.3005916,-2.4814515,0.3492016,1.5915722,1.1198542,0.04,0.04,-9.41988621901904,1.3714370605671242,0.9064006173378263,0.16904239260330314,-0.054646792022531324,0.025492928529864737
4.983333333333321,-0.30242237,-1.0591533,0.30248362,-2.4822392,0.3514001,1.5917019,1.1219561,0.04,0.04,-9.471763179399325,1.6897577737049438,1.3295785616327156,0.17167440497146827,-0.05292761658658233,0.02772659388022843
4.999999999999988,-0.30430484,-1.060863,0.30436426,-2.483022,0.35358548,1.5918308,1.1240455,0.04,0.04,-9.75817006515026,0.9621380814449036,1.223373829230182,0.16353109743532518,-0.05278837982113389,0.02591095727961464
5.016666666666654,-0.3061757,-1.0625622,0.30623353,-2.4837997,0.35575742,1.591959,1.1261224,0.04,0.04,-9.656656746473177,0.6097523508576488,1.4762413548252085,0.16454927982274226,-0.05397855736442887,0.024071280626940694
5.033333333333321,-0.3080349,-1.064251,0.308091,-2.4845731,0.35791585,1.5920866,1.1281862,0.04,0.04,-10.26437300327873,0.7716935762391852,1.0840095126811775,0.1649797178183041,-0.05171245723726592,0.021768567850275807
5.049999999999987,-0.30988228,-1.0659289,0.30993655,-2.485341,0.36006036,1.5922129,1.1302367,0.04,0.04,-8.40018892058593,1.8395151802489287,0.5201819627174844,0.16667372000571043,-0.050821646034537406,0.029541695762452583
5.066666666666654,-0.31171757,-1.0675957,0.31177,-2.486104,0.36219078,1.5923387,1.1322738,0.04,0.04,-8.758110844401422,0.5254524269198494,1.3471619970081412,0.16637169614668681,-0.05352529527426025,0.02591303766761822
5.083333333333321,-0.31354046,-1.0692513,0.31359106,-2.486862,0.36430708,1.5924635,1.1342973,0.04,0.04,-9.66576746632473,0.7104400773035311,1.3009546414881872,0.1653891288991303,-0.05374915256119196,0.024569317533692965
5.099999999999987,-0.3153509,-1.0708957,0.3153997,-2.4876146,0.36640874,1.5925876,1.1363065,0.04,0.04,-10.188115568550026,0.9399370763043972,0.41464236943322963,0.16273172907527245,-0.049843097802931696,0.025733000480009212
5.116666666666654,-0.31714863,-1.0725284,0.31719562,-2.4883618,0.36849564,1.5927111,1.1383018,0.04,0.04,-10.537544747083441,2.4947209240338517,-0.0554254205269189,0.1606249340001373,-0.051227834980739045,0.02674038499078403
5.13333333333332,-0.31893343,-1.0741494,0.3189786,-2.4891043,0.37056753,1.5928333,1.1402828,0.04,0.04,-9.824693998550279,2.1878961689128538,1.5321902942134251,0.16079704919627666,-0.052567726248605014,0.020151534062089
5.149999999999987,-0.32070512,-1.0757586,0.3207485,-2.4898407,0.37262422,1.5929546,1.1422492,0.04,0.04,-9.452177675647999,0.20705150280503926,0.229044392596771,0.16132446776433784,-0.05382288999193724,0.021753987698709034
5.166666666666654,-0.3224635,-1.0773556,0.3225051,-2.4905715,0.37466547,1.593075,1.1442009,0.04,0.04,-9.180856218251902,1.1351455455719783,1.4140825586752375,0.15991479163568248,-0.04920856925309167,0.02366210478273208
5.18333333333332,-0.32420838,-1.0789405,0.32424816,-2.491297,0.37669104,1.5931947,1.1461378,0.04,0.04,-8.703495638132445,1.2812409642158056,0.49149464585584457,0.155037384089474,-0.045377758113080834,0.019657197976197204
5.199999999999987,-0.32593963,-1.080513,0.32597762,-2.492017,0.37870076,1.593313,1.1480595,0.04,0.04,-9.025681455682847,1.7186799341572778,1.3013888091306771,0.15400809954869726,-0.047019502689828144,0.022893883849042503
5.2166666666666535,-0.32765704,-1.082073,0.3276932,-2.4927309,0.38069448,1.5934306,1.1499656,0.04,0.04,-10.047374682777367,1.2304444291800525,1.1453722687059917,0.1582780247809845,-0.04686068950173828,0.021125311939211366
5.23333333333332,-0.32936043,-1.0836202,0.3293947,-2.4934394,0.3826718,1.5935475,1.1518563,0.04,0.04,-9.70918083025054,1.3661133982605074,1.5641472674712684,0.15444851945486626,-0.049248625928324484,0.023644629641910733
5.249999999999987,-0.3310496,-1.0851542,0.33108214,-2.4941413,0.38463256,1.5936635,1.1537311,0.04,0.04,-8.95397713905071,0.6482872999315346,0.3336628178916424,0.15184309333398002,-0.045289547964468886,0.020928511310015573
5.266666666666653,-0.33272442,-1.0866758,0.33275518,-2.4948375,0.38657668,1.5937779,1.1555899,0.04,0.04,-9.487299345734495,2.0742002191362388,1.6741218288913413,0.15507733441550517,-0.048064509130375306,0.022535267906590873
5.28333333333332,-0.33438468,-1.0881836,0.33441365,-2.4955277,0.38850394,1.5938916,1.1574328,0.04,0.04,-9.799124881830867,3.0691041726712998,1.0404689861939067,0.15001809525293197,-0.046580430251256154,0.026809557671724327
5.2999999999999865,-0.3360303,-1.089678,0.3360574,-2.496212,0.39041433,1.5940045,1.1592593,0.04,0.04,-9.920540000525301,2.1222004274424693,0.8322957039286285,0.14973334375688768,-0.04732562809112232,0.022831105541374762
5.316666666666653,-0.33766094,-1.0911593,0.33768633,-2.49689,0.39230728,1.594116,1.1610693,0.04,0.04,-10.172728205932973,0.855171236249177,1.6910404330138706,0.14747443201175495,-0.04568542978887497,0.02160830011330468
5.33333333333332,-0.33927658,-1.0926272,0.33930027,-2.4975612,0.3941828,1.5942266,1.1628622,0.04,0.04,-9.366841304906128,1.883714670396813,1.0724017052614785,0.14754586786007684,-0.04982553629983664,0.023254945985497242
5.349999999999986,-0.34087712,-1.0940801,0.340899,-2.4982264,0.39604065,1.5943365,1.1646386,0.04,0.04,-9.652880504555142,2.023097246323521,1.3547794243251197,0.14636962545942833,-0.04507281413159487,0.022188930662366577
5.366666666666653,-0.3424622,-1.0955204,0.34248245,-2.4988859,0.3978807,1.5944452,1.1663978,0.04,0.04,-10.4003091853409,1.4925993541569569,1.1816495050118014,0.1478727210459425,-0.046398628978603106,0.021079555281504705
5.3833333333333195,-0.34403187,-1.0969467,0.34405038,-2.4995387,0.39970273,1.5945525,1.1681399,0.04,0.04,-8.949272443014856,1.740930752810105,2.0145937845866113,0.14744763031392705,-0.044204343417021646,0.022050635976466587
5.399999999999986,-0.34558585,-1.0983579,0.34560272,-2.500185,0.40150654,1.594659,1.1698649,0.04,0.04,-9.392873369677723,0.15667495163439593,1.0797219298541647,0.1408269945376367,-0.040474358987414916,0.01992682287534852
5.416666666666653,-0.34712413,-1.0997543,0.3471392,-2.5008242,0.40329212,1.5947645,1.171572,0.04,0.04,-9.918564550537164,0.8105230970782347,1.816962369551547,0.14363316888668576,-0.04001876581259714,0.018413074542895175
5.433333333333319,-0.34864643,-1.101137,0.34865987,-2.501457,0.40505913,1.5948687,1.1732613,0.04,0.04,-10.580524497982776,2.385359933577023,1.727087787023784,0.1408081883181939,-0.04476440559933564,0.022486405258868053
5.449999999999986,-0.35015264,-1.1025053,0.35016447,-2.5020833,0.40680754,1.5949718,1.1749328,0.04,0.04,-10.128767024575577,0.37892609100130303,0.8559205521042202,0.13689893843436854,-0.04478076283859039,0.014364402216308787
5.466666666666653,-0.35164264,-1.103859,0.35165277,-2.5027025,0.40853712,1.595074,1.1765865,0.04,0.04,-8.78837938197009,1.3988324051725738,0.7015176136122986,0.1356743550089209,-0.04383957898112836,0.016514612084161318
5.483333333333319,-0.35311642,-1.1051977,0.35312486,-2.5033147,0.4102478,1.5951753,1.1782222,0.04,0.04,-9.832325167664466,2.507832775003627,0.23091933150446353,0.13394441180949146,-0.04498599983176206,0.01935983155080787
5.499999999999986,-0.35457373,-1.1065214,0.3545805,-2.5039203,0.41193947,1.5952749,1.1798396,0.04,0.04,-9.689380651423583,1.5064127547530053,1.284104384549302,0.13679003864993247,-0.038353773541030624,0.016514121050100035
5.516666666666652,-0.35601452,-1.1078303,0.35601953,-2.504519,0.41361186,1.5953736,1.1814387,0.04,0.04,-9.81536367540741,1.302977769962243,1.5866882974005831,0.137563484584443,-0.04624852410057038,0.02219740035108246
5.533333333333319,-0.35743845,-1.1091238,0.35744193,-2.5051105,0.41526484,1.5954714,1.183019,0.04,0.04,-9.143439822359841,1.8123848611950242,2.6699488814030126,0.13136446714059835,-0.04446807258089856,0.02026240136917037
5.549999999999986,-0.35884562,-1.1104023,0.35884744,-2.505695,0.41689834,1.5955676,1.1845807,0.04,0.04,-9.292109951704726,2.722149401626412,1.9126753335221944,0.12508238516114656,-0.03908529899890956,0.020030116114076197
5.566666666666652,-0.3602359,-1.1116654,0.36023614,-2.506273,0.4185122,1.5956626,1.1861237,0.04,0.04,-10.006616197339065,1.5414682293368103,2.8938483536726682,0.12702872095607418,-0.04070635996190376,0.014480025187302856
5.583333333333319,-0.36160916,-1.1129127,0.36160785,-2.5068436,0.42010632,1.595757,1.1876479,0.04,0.04,-9.0672590027039,1.2722092509744543,1.6298257090369024,0.12886624969717053,-0.039840885059096436,0.017181594524254946
5.599999999999985,-0.3629653,-1.1141449,0.36296242,-2.5074074,0.4216806,1.5958498,1.1891531,0.04,0.04,-8.847753179677724,2.5801331147478255,1.009106279532296,0.12101753851266357,-0.03903612115692714,0.015515866016838227
5.616666666666652,-0.3643043,-1.1153616,0.36429992,-2.507964,0.42323485,1.5959414,1.190639,0.04,0.04,-9.46219621058266,1.9713966323703964,1.1736034149662478,0.12364739276233305,-0.03679242498973398,0.01706929396070675
5.633333333333319,-0.36562598,-1.1165622,0.3656201,-2.508513,0.42476887,1.5960323,1.1921059,0.04,0.04,-9.55401263591685,1.8406918822119092,1.599520524976087,0.12044459397908398,-0.038970105081512,0.018648872374080423
5.649999999999985,-0.36693028,-1.1177471,0.36692286,-2.5090551,0.42628285,1.5961217,1.1935534,0.04,0.04,-9.889393320769171,1.9091993043396385,0.5295333733089611,0.12544308050102398,-0.038156782248685024,0.022371581724103015
5.666666666666652,-0.36821714,-1.1189162,0.36820808,-2.5095897,0.42777652,1.5962096,1.1949818,0.04,0.04,-10.23219931031623,1.5870354519465986,0.4801001133753826,0.11962070364464931,-0.034540182868942754,0.01844157847777475
5.6833333333333185,-0.36948633,-1.1200695,0.36947575,-2.510117,0.4292498,1.5962968,1.1963902,0.04,0.04,-8.865066037122194,0.29884808072615865,0.20733712565578,0.11396247808829406,-0.03823525141683097,0.02196379886704507
5.699999999999985,-0.37073794,-1.1212062,0.37072584,-2.510637,0.43070263,1.5963827,1.1977789,0.04,0.04,-10.178822283417096,2.1217980685856785,1.3664451863105567,0.11595783118545427,-0.037384939687962616,0.015473847746782997
5.716666666666652,-0.37197185,-1.122327,0.37195823,-2.51115,0.43213484,1.596467,1.1991483,0.04,0.04,-9.54532213393961,0.9122157244559533,1.4502363880917675,0.11395243266818408,-0.034541119181269515,0.016132395840716438
5.733333333333318,-0.37318802,-1.1234319,0.37317282,-2.5116553,0.43354648,1.5965505,1.2004979,0.04,0.04,-9.753942840338318,1.5406714767831793,0.9680580032702991,0.10845132962941634,-0.03265062298484786,0.01281630823581464
5.749999999999985,-0.3743863,-1.1245203,0.37436962,-2.5121531,0.43493736,1.596633,1.2018275,0.04,0.04,-10.620655618893661,1.2004272061402608,1.4125613749122827,0.10853608326639692,-0.03037521267806741,0.015249309201787933
5.7666666666666515,-0.37556672,-1.1255925,0.37554872,-2.5126438,0.4363074,1.5967135,1.2031374,0.04,0.04,-9.397493918752843,0.5540993306458163,2.3025923647433926,0.11004385988210313,-0.03829985818883939,0.013772393596578175
5.783333333333318,-0.37672907,-1.1266483,0.37670964,-2.5131269,0.43765667,1.5967932,1.2044276,0.04,0.04,-8.760674288904479,1.8790015101978261,1.7266665766957532,0.11206618409441872,-0.03545269125344793,0.013631139132384895
5.799999999999985,-0.37787345,-1.1276878,0.37785262,-2.5136027,0.4389851,1.5968719,1.2056978,0.04,0.04,-9.448634999017505,1.7729951483908328,1.6157264579785333,0.11263114852066941,-0.03499605646688342,0.019139997661852055
5.816666666666651,-0.37899965,-1.1287112,0.37897757,-2.5140712,0.44029245,1.5969487,1.2069477,0.04,0.04,-9.415520295626965,1.5004598025048859,1.585903727919433,0.10697558115463313,-0.03359303901851088,0.01812297807373652
5.833333333333318,-0.38010788,-1.1297178,0.3800844,-2.514532,0.44157887,1.5970247,1.2081776,0.04,0.04,-9.354249894003118,1.3054204468816264,1.3733850328493498,0.10698070416223461,-0.03930776722834363,0.01608211753557852
5.8499999999999845,-0.3811979,-1.1307085,0.38117313,-2.5149853,0.44284418,1.5970995,1.2093873,0.04,0.04,-10.039704709728465,1.8401242309576407,-0.08586111252813855,0.10229845394605658,-0.032396067701709545,0.01979190941714997
5.866666666666651,-0.38226983,-1.1316823,0.38224375,-2.5154307,0.44408837,1.5971727,1.2105769,0.04,0.04,-10.078805010234655,1.6447311916315082,0.586894474127802,0.09950613723594205,-0.030861653343750753,0.013449610853393615
5.883333333333318,-0.38332352,-1.1326396,0.38329622,-2.5158684,0.44531146,1.597245,1.2117462,0.04,0.04,-10.123115584624525,1.4234333126168521,1.8411939670642234,0.10224013659483308,-0.03325552446147417,0.017181480833806547
5.899999999999984,-0.3843591,-1.1335802,0.38433048,-2.5162983,0.44651335,1.597316,1.2128954,0.04,0.04,-8.528403668301975,2.038596244002232,0.8395754707111662,0.09331332402275239,-0.03576882710603179,0.017099762110929072
5.916666666666651,-0.38537633,-1.1345048,0.38534653,-2.5167205,0.44769415,1.5973855,1.2140243,0.04,0.04,-10.237088681351409,1.4669297623452053,1.3241585869070753,0.09810755044077235,-0.033177223509298255,0.011829155310775854
5.933333333333318,-0.38637537,-1.1354123,0.3863443,-2.5171354,0.4488538,1.5974538,1.215133,0.04,0.04,-10.782353779182934,2.336113409340576,1.0560224058563976,0.09197084330686814,-0.03332564959822838,0.016541454196844226
5.949999999999984,-0.38735622,-1.1363037,0.38732383,-2.5175428,0.44999218,1.5975212,1.2162213,0.04,0.04,-10.100963212168402,0.7808822272127135,0.6127566599077442,0.09182337000375669,-0.03355043304579646,0.012426101328977202
5.966666666666651,-0.38831875,-1.1371783,0.38828525,-2.5179427,0.4511095,1.597587,1.2172894,0.04,0.04,-9.821452654320076,1.4791537913448232,1.391958304906501,0.09186833133149688,-0.029506136208024832,0.012320287964263661
5.983333333333317,-0.38926306,-1.1380364,0.3892284,-2.5183349,0.4522057,1.5976517,1.2183374,0.04,0.04,-9.069905020144521,1.9442297428654456,1.6111748062737634,0.08742234490733511,-0.02902874889617635,0.016755727977412822
5.999999999999984,-0.3901893,-1.1388777,0.39015338,-2.5187197,0.45328066,1.5977153,1.2193649,0.04,0.04,-10.05072570378963,2.641670157568678,1.1601317779592295,0.08978536306733255,-0.03298526113179719,0.015584027407496962
6.016666666666651,-0.39109716,-1.1397024,0.39106005,-2.5190969,0.4543345,1.5977774,1.2203726,0.04,0.04,-9.669859042049652,1.6129522514362666,0.7286439577068655,0.08538180903075228,-0.02928668248548481,0.012234870249767042
6.033333333333317,-0.3919868,-1.140511,0.39194864,-2.5194666,0.45536712,1.5978384,1.2213596,0.04,0.04,-10.534266745702505,1.4156083435677087,1.102348302378136,0.08496291386415326,-0.031142227792821324,0.0112433937086208
6.049999999999984,-0.39285836,-1.1413028,0.39281902,-2.5198288,0.45637873,1.5978981,1.2223266,0.04,0.04,-8.626645465063744,1.3263453231315663,0.8172891681714693,0.08056775632141819,-0.03265657275248521,0.009220867961408998
6.06666666666665,-0.39371172,-1.1420783,0.39367127,-2.5201836,0.45736924,1.5979565,1.2232733,0.04,0.04,-9.945189623683042,0.33906734026430874,1.9520181808958899,0.0776420861080524,-0.03087197300798799,0.010522512611298164
6.083333333333317,-0.39454705,-1.1428372,0.3945056,-2.520531,0.45833874,1.5980139,1.2242001,0.04,0.04,-8.434408130483124,2.6133282479614564,1.1991444379613432,0.07763397499839378,-0.028645957755791592,0.009694205688084526
6.099999999999984,-0.39536422,-1.1435798,0.39532167,-2.5208707,0.45928723,1.5980699,1.225107,0.04,0.04,-9.502811574973249,1.4738330421118107,2.3104144504211046,0.07779604644999202,-0.022743374706552837,0.009612161691404893
6.11666666666665,-0.39616343,-1.144306,0.3961199,-2.521203,0.46021485,1.5981245,1.2259939,0.04,0.04,-9.613072750014348,1.9846269986085687,1.0999078598975622,0.07532094014309994,-0.027615502238871607,0.016002635878403868
6.133333333333317,-0.39694464,-1.1450157,0.39690012,-2.5215275,0.4611216,1.5981783,1.2268605,0.039999995,0.04,-9.729771770006522,2.3214307134099568,1.2907715621371207,0.07304503911460973,-0.024764084263167323,0.008939796365695227
6.1499999999999835,-0.39770785,-1.1457094,0.39766246,-2.5218446,0.46200758,1.5982306,1.2277075,0.039999995,0.04,-10.070951027587327,1.7055131964442285,1.0649725162930805,0.07028906139194897,-0.02970642283442904,0.016224108105106508
6.16666666666665,-0.3984532,-1.1463866,0.39840698,-2.522154,0.46287277,1.5982814,1.2285348,0.03999999,0.04,-8.303253941541168,1.9436312488368483,1.7952150076736744,0.06410696058186917,-0.025173662401867105,0.012712453472311832
6.183333333333317,-0.3991808,-1.147048,0.3991337,-2.522456,0.46371737,1.5983315,1.2293421,0.039999988,0.04,-10.018934996978862,2.5114834693593213,1.5292225499592225,0.07245503955193477,-0.026945642276365863,0.012256480078871706
6.199999999999983,-0.39989072,-1.1476933,0.39984283,-2.5227504,0.4645414,1.5983801,1.2301298,0.039999988,0.04,-9.968154416119917,1.8965702459090266,1.8509775079599264,0.06567328502799666,-0.024677687159006888,0.012040034881432455
6.21666666666665,-0.4005831,-1.1483225,0.40053433,-2.5230377,0.46534505,1.598427,1.230898,0.039999984,0.04,-10.088135287581602,1.452861499157842,0.7305390422574757,0.06395592349232729,-0.025782072128142645,0.006147794046127291
6.2333333333333165,-0.40125784,-1.1489354,0.40120825,-2.5233176,0.46612823,1.5984737,1.2316465,0.03999998,0.04,-9.2334601822905,0.971040041919665,1.3408677705653937,0.06477004590114219,-0.02402913908336809,0.012390791131500108
6.249999999999983,-0.4019152,-1.1495328,0.4018648,-2.52359,0.46689123,1.5985187,1.2323756,0.039999973,0.04,-8.72851430880878,1.7525742780000626,2.81772101645855,0.0606829414436052,-0.023080155736623174,0.012137255194709061
6.26666666666665,-0.40255523,-1.1501147,0.402504,-2.5238554,0.4676341,1.5985621,1.2330858,0.03999997,0.04,-10.532667553102664,2.1517966532763264,0.9923301453908558,0.05721095357654385,-0.024442864869463912,0.010179673768363531
6.283333333333316,-0.40317798,-1.1506808,0.4031259,-2.5241141,0.46835688,1.598605,1.2337769,0.03999997,0.04,-9.418297964553133,1.6772075042775805,0.8750555678972318,0.06391724520527797,-0.024745994693131882,0.00989949415092859
6.299999999999983,-0.4037836,-1.1512314,0.40373084,-2.5243657,0.46905982,1.5986468,1.234449,0.039999966,0.04,-8.563998033396096,2.603521235185353,1.4090967901852567,0.05631022790124002,-0.0225864260993238,0.011826847908798172
6.3166666666666496,-0.4043722,-1.1517665,0.40431866,-2.5246103,0.46974307,1.5986865,1.2351023,0.03999996,0.04,-9.932794019847842,2.1280619661826092,0.888100989962159,0.0569671029884783,-0.022357151395680674,0.008158030177994248
6.333333333333316,-0.40494382,-1.152286,0.40488967,-2.5248475,0.47040665,1.5987257,1.2357367,0.03999996,0.04,-10.107557800246624,2.4998928815233232,1.1952663352986728,0.050407040357992254,-0.021524494260095183,0.005466233678267794
6.349999999999983,-0.4054987,-1.1527905,0.40544394,-2.525078,0.4710508,1.5987642,1.2363524,0.039999966,0.04,-9.657107743276697,2.222280288165024,0.2599029138908505,0.04706545888094574,-0.0235217344554663,0.007434269350770684
6.366666666666649,-0.406037,-1.1532799,0.4059816,-2.5253015,0.47167566,1.5988007,1.2369499,0.03999996,0.04,-9.235650162407428,1.761426966542872,1.5963140290121083,0.050553171796231894,-0.021460068551657288,0.01097847014636089
6.383333333333316,-0.4065589,-1.1537542,0.40650278,-2.5255182,0.4722815,1.5988361,1.2375292,0.039999958,0.04,-9.821424850286938,2.015893332544962,1.0441085671900903,0.04759686575378949,-0.017194941805781187,0.004391349771702761
6.399999999999983,-0.40706447,-1.1542137,0.40700766,-2.5257285,0.47286823,1.5988712,1.2380902,0.039999958,0.04,-9.202109317150407,1.3555940239854798,1.8292363480937324,0.04885203698565692,-0.022202750723832827,0.012028298710317215
6.416666666666649,-0.40755385,-1.1546587,0.40749642,-2.5259328,0.47343624,1.5989051,1.2386332,0.039999958,0.04,-10.347112469932018,1.5114790878589328,1.2906353150413452,0.04617153182699086,-0.0240387681732744,0.007865528390043031
6.433333333333316,-0.4080272,-1.155089,0.4079692,-2.5261302,0.4739857,1.5989367,1.2391584,0.039999958,0.04,-10.787059269311202,2.5008613690036245,1.6466336837176987,0.04849228103941867,-0.019151672710469192,0.010047914617683023
6.449999999999982,-0.40848473,-1.1555047,0.4084261,-2.5263202,0.47451672,1.598968,1.239666,0.039999958,0.04,-9.887294628475518,0.28220982049458887,1.1081998997179994,0.03844643706415376,-0.015123958795838058,0.011985504041444009
6.466666666666649,-0.40892658,-1.1559064,0.40886733,-2.5265028,0.47502953,1.598999,1.240156,0.039999958,0.04,-9.488697594381602,0.9712257683717044,1.9294750929858946,0.042259630572471764,-0.01681057996046543,0.010095438114598817
6.483333333333316,-0.40935296,-1.1562939,0.40929303,-2.5266788,0.47552437,1.5990276,1.2406291,0.039999958,0.04,-10.099600697750647,0.6262152237932381,0.7206302217072833,0.035676482663333314,-0.018827867509080914,0.005061053362609994
6.499999999999982,-0.40976393,-1.1566676,0.40970352,-2.5268495,0.47600147,1.5990553,1.2410853,0.039999958,0.04,-8.917914898017363,1.1586535540668694,2.6250141508328433,0.03549629754528691,-0.016891654540691844,0.004179161697592465
6.516666666666649,-0.4101598,-1.1570277,0.41009897,-2.5270152,0.4764611,1.5990828,1.2415247,0.03999995,0.04,-9.200301742454656,1.4309317466789389,1.6188247418420567,0.03403457137222031,-0.015519438385852303,0.006576011716700729
6.5333333333333155,-0.41054076,-1.157374,0.4104795,-2.527174,0.47690338,1.5991096,1.2419475,0.03999995,0.04,-9.538410431371016,2.5712061576290246,1.277161938611183,0.03639222503615915,-0.014585784408713961,0.007615250179441638
6.549999999999982,-0.410907,-1.1577072,0.4108454,-2.5273256,0.47732848,1.5991338,1.2423539,0.039999954,0.04,-9.844561713795594,0.746288205739248,1.7198258880033657,0.034200076103044895,-0.016110488240793922,0.0090792739463991
6.566666666666649,-0.4112587,-1.158027,0.4111968,-2.5274706,0.477737,1.5991577,1.2427443,0.039999954,0.04,-11.170803000386133,0.9771435255973477,1.0461656264820873,0.03437035592937888,-0.013968097631139105,0.011454455055881009
6.583333333333315,-0.4115964,-1.1583344,0.41153398,-2.527612,0.4781288,1.5991813,1.2431191,0.03999995,0.04,-9.580020408784986,1.7010906547266098,1.2817977458908458,0.03387441049584338,-0.018379215354144388,0.00862388360833137
6.599999999999982,-0.4119199,-1.1586285,0.41185716,-2.527747,0.47850433,1.5992038,1.243478,0.039999947,0.04,-9.307458115656484,1.8168657899494216,1.1656399832421953,0.032171709533132954,-0.017523663059851133,0.011044912644965882
6.6166666666666485,-0.41222972,-1.1589102,0.41216657,-2.527875,0.47886384,1.599224,1.2438217,0.039999943,0.04,-10.304413797821082,1.7962509357310623,1.10243654264572,0.03436437432832663,-0.015576711754367997,0.009953361249894394
6.633333333333315,-0.41252583,-1.1591798,0.41246235,-2.5279965,0.47920755,1.599244,1.2441504,0.039999947,0.04,-9.672196043828075,2.2608892134505147,0.6003005498392459,0.032280506961408856,-0.02009344749100374,0.009161249988071196
6.649999999999982,-0.41280875,-1.1594367,0.4127449,-2.5281153,0.47953597,1.5992638,1.2444644,0.039999947,0.04,-9.264945691517969,1.9624886667494623,1.0494572825768516,0.024507235552709925,-0.015375710916247698,0.008702305622646402
6.666666666666648,-0.4130786,-1.159682,0.4130144,-2.528227,0.47984922,1.5992833,1.244764,0.039999943,0.04,-9.605883325658862,0.785000886521729,1.9708515760234917,0.022775394687528254,-0.016246528053218,0.006730231158974711
6.683333333333315,-0.41333568,-1.1599158,0.41327116,-2.5283325,0.4801476,1.5993001,1.2450491,0.039999943,0.04,-8.678803298331573,1.1976201986941342,1.0543015419547064,0.020291680510361437,-0.011140444175499753,0.0029871102521613047
6.6999999999999815,-0.41358027,-1.1601382,0.41351542,-2.528436,0.4804314,1.5993164,1.2453203,0.039999943,0.04,-9.965234420258186,2.639050932858668,-0.06272039703982712,0.021301640101496735,-0.010771130294052751,0.005057577369728662
6.716666666666648,-0.41381252,-1.1603495,0.4137474,-2.528532,0.48070106,1.5993325,1.2455779,0.039999943,0.04,-9.669729207812019,2.502735222528808,1.2503980283092797,0.018146460205479407,-0.012566714691363948,0.00688137079082707
6.733333333333315,-0.41403294,-1.1605499,0.41396752,-2.528622,0.48095685,1.5993484,1.2458225,0.039999943,0.04,-8.539543589838015,1.6221919939418439,1.9155444661694876,0.019961502383337052,-0.015563837561416114,0.001342045783386836
6.749999999999981,-0.41424164,-1.1607395,0.41417605,-2.52871,0.4811991,1.599363,1.2460539,0.03999994,0.04,-9.926544753419382,1.4968160708728937,0.9698512132368406,0.018253744825740697,-0.015385811197579058,0.009432261183384794
6.766666666666648,-0.414439,-1.1609193,0.4143732,-2.528791,0.4814283,1.5993754,1.2462729,0.039999943,0.04,-9.868032971808022,1.2636593054753218,0.931381553653398,0.017780468276644316,-0.010576724919268117,0.009607806866418834
6.783333333333315,-0.41462532,-1.1610892,0.41455933,-2.5288684,0.48164454,1.5993878,1.2464796,0.039999936,0.04,-8.647135627895922,1.8006925583730327,1.7445109496538027,0.016801109636804493,-0.013609040893665615,0.0066208945673916055
6.799999999999981,-0.4148009,-1.1612488,0.41473472,-2.5289416,0.4818484,1.5993999,1.2466743,0.039999943,0.04,-10.1239974976,1.528124953113755,0.49572821947199086,0.012736991668814744,-0.010868260858781622,0.008189856301534041
6.816666666666648,-0.41496608,-1.1613994,0.41489983,-2.5290086,0.48204014,1.599412,1.2468572,0.039999943,0.04,-9.624437381689708,1.68814821113613,1.6248458287167309,0.009298939216225752,-0.01313120817781678,0.005912565739782664
6.833333333333314,-0.4151211,-1.1615405,0.4150548,-2.5290737,0.48222026,1.5994233,1.2470291,0.039999947,0.04,-10.010317629642172,1.0024672632098381,-0.0452270627089606,0.014761873815152772,-0.012966060877411098,0.00304276970874301
6.849999999999981,-0.41526657,-1.161673,0.41520005,-2.5291326,0.48238903,1.599432,1.2471902,0.039999947,0.04,-9.861099081047477,0.987953963276355,1.2657823704736144,0.005955338272138312,-0.011943802582476999,0.007675199778934573
6.866666666666648,-0.4154026,-1.1617968,0.4153359,-2.52919,0.48254696,1.5994406,1.2473412,0.039999943,0.04,-9.821740253876053,0.3068639354285867,1.2286669257364335,0.014782872235448339,-0.019439844885105258,0.005855330030327901
6.883333333333314,-0.4155296,-1.1619126,0.41546273,-2.529241,0.48269442,1.599449,1.2474824,0.039999947,0.04,-10.007984536563074,1.5361080503346878,0.5224574130632995,0.009084869886050484,-0.015542004757173966,0.007238332785754731
6.899999999999981,-0.41564792,-1.1620203,0.41558093,-2.529291,0.48283175,1.5994574,1.2476134,0.039999943,0.04,-9.860005688051817,1.4808088352739368,1.691420900765927,0.01274066782005536,-0.016591682473789324,0.009369988108943971
6.916666666666647,-0.41575792,-1.1621206,0.41569093,-2.5293362,0.48295945,1.5994656,1.2477356,0.039999947,0.04,-9.634837087398761,0.8639670974280491,1.9345226605132881,0.01176842893939633,-0.014079001336475607,0.013739385572122785
6.933333333333314,-0.4158601,-1.1622136,0.41579297,-2.5293784,0.48307806,1.5994734,1.247849,0.039999947,0.04,-10.848248723617687,1.1765024007044826,2.274130256159987,0.010374905410833794,-0.012564602391698668,0.0063040827269539015
6.949999999999981,-0.41595468,-1.1622999,0.41588748,-2.529419,0.4831879,1.5994804,1.2479539,0.039999947,0.04,-9.44928323481494,3.445118155183871,2.5776128212040597,0.005442631499849843,-0.012367366210320677,0.009919784617743024
6.966666666666647,-0.4160422,-1.1623795,0.41597486,-2.529454,0.48328954,1.5994852,1.248051,0.03999995,0.04,-10.148556042542001,1.6586336532054187,2.242047045866986,0.007852084578218387,-0.006398552749190536,0.0005130667831319168
6.983333333333314,-0.416123,-1.1624529,0.41605547,-2.529488,0.48338333,1.5994899,1.2481409,0.039999947,0.04,-10.24382114749824,1.5323200617754127,0.8202060534808876,0.0028125686710054132,-0.005572242723848368,0.0034413250611807704
6.9999999999999805,-0.41619748,-1.1625209,0.41612992,-2.529519,0.4834698,1.5994946,1.2482234,0.039999943,0.04,-10.216967812507407,1.7344793843498119,1.7084098771585006,0.007076405404257619,-0.009710268175176423,0.006002757689862553
7.016666666666647,-0.41626605,-1.1625835,0.41619834,-2.5295463,0.48354942,1.5994992,1.248299,0.039999943,0.04,-10.018082513408517,1.2461139095892266,1.5128298239043176,0.006632842469175594,-0.011049767841304611,0.007820389279851972
7.033333333333314,-0.41632912,-1.1626408,0.4162616,-2.5295727,0.48362264,1.5995038,1.2483692,0.03999994,0.04,-9.429153221431799,1.4156430420390909,1.0299492231158185,0.001938697923796306,-0.016253701387058405,0.005943190924520388
7.04999999999998,-0.41638723,-1.1626937,0.41631925,-2.5295978,0.48368996,1.5995082,1.2484335,0.03999994,0.04,-9.549479032739873,1.5202828880204609,0.6850152250558406,0.00619240939256849,-0.011053295289326338,0.004798680744577046
7.066666666666647,-0.4164407,-1.1627424,0.41637272,-2.529619,0.483752,1.5995125,1.2484927,0.03999994,0.04,-9.47184341854252,1.7420823325317585,0.4264492999337185,0.0025302597083196386,-0.0029667672948526336,0.0017360373326208815
7.0833333333333135,-0.41648987,-1.1627872,0.41642165,-2.5296385,0.483809,1.5995164,1.2485473,0.03999994,0.04,-9.263362674275305,0.414341739371727,0.8958814455850326,0.004558398057406931,-0.003732864248596498,0.009556535379898106
7.09999999999998,-0.4165351,-1.1628283,0.4164668,-2.5296574,0.4838615,1.5995201,1.2485974,0.03999994,0.04,-8.579581645393343,1.9720976236375032,2.0442055011911564,0.0010533276983082387,-0.01285113674183232,0.004806572853225838
7.116666666666647,-0.41657674,-1.1628661,0.4165084,-2.5296762,0.48390985,1.5995237,1.2486434,0.039999943,0.04,-8.506886084771628,1.9892048947819148,0.8539336346804682,0.006844168171760626,-0.007720719660743787,-0.0016547331609640078
7.133333333333313,-0.4166151,-1.162901,0.41654667,-2.5296924,0.4839543,1.5995266,1.2486856,0.03999994,0.04,-9.63379993714487,1.2825460035072604,2.2834652669826747,0.0001916569773480831,-0.008352137946153007,0.0002822871572258757
7.14999999999998,-0.41665035,-1.1629332,0.41658187,-2.5297062,0.48399502,1.5995276,1.2487245,0.03999994,0.04,-10.790304463686649,1.6966057136359969,1.9025799717625227,0.0012711936096751187,-0.006321880255345001,0.0040690945347692355
7.1666666666666465,-0.4166828,-1.1629629,0.41661432,-2.5297189,0.48403266,1.5995286,1.2487602,0.039999943,0.04,-10.224392256251685,2.024445347687296,2.0014241999389766,-0.002373688077162923,-0.009583489214770018,0.004228796879783648
7.183333333333313,-0.4167127,-1.1629901,0.41664416,-2.5297306,0.48406735,1.5995295,1.2487937,0.039999943,0.04,-9.496215437900746,0.9652305417121789,0.8448127271564475,-0.005654255870372007,-0.00973806736318766,0.002159176000666639
7.19999999999998,-0.41674015,-1.1630152,0.41667157,-2.5297418,0.4840992,1.5995305,1.2488244,0.039999947,0.04,-9.29467641857308,0.9232395824055498,0.9807741342194671,0.0038512124792963484,-0.008957353592599228,0.003548435609307015
7.216666666666646,-0.41676545,-1.1630384,0.4166968,-2.529753,0.48412856,1.5995314,1.2488519,0.039999947,0.04,-10.165581230764182,1.8967889521322785,1.0021224569497984,0.004125480239545837,-0.007697421633672984,0.006810276696029386
7.233333333333313,-0.41678867,-1.1630597,0.41672,-2.529764,0.4841556,1.5995324,1.2488786,0.039999943,0.04,-10.858937412944803,1.2846680623313869,1.109562486966577,0.006088395308378852,-0.00918107870291388,0.0037884801748256564
7.24999999999998,-0.41681,-1.1630791,0.41674137,-2.5297737,0.48418042,1.5995333,1.2489017,0.039999947,0.04,-9.176108140182608,1.8071721634613473,1.037265879062843,0.007511635612069316,-0.013267777585517846,0.009084443644656107
7.266666666666646,-0.41682974,-1.1630971,0.4167611,-2.529782,0.4842033,1.5995343,1.2489246,0.039999943,0.04,-10.274894952050898,2.228817472904428,1.9641394615416645,0.005748510510442568,-0.009096251267770625,0.007303488046922847
7.283333333333313,-0.41684788,-1.1631137,0.41677922,-2.529789,0.48422432,1.5995352,1.2489439,0.039999943,0.04,-9.277859240186302,2.238603741807353,0.7744173551797271,-0.0019973764709196574,-0.009205807571822853,0.003875215035650324
7.299999999999979,-0.41686454,-1.1631289,0.41679585,-2.5297952,0.48424375,1.5995362,1.248963,0.039999943,0.04,-10.27267535820625,1.691650398574127,0.96386276420508,-0.0033384608907473306,-0.010848437619556344,-0.0005829599463381108
7.316666666666646,-0.41687995,-1.1631429,0.41681117,-2.529801,0.4842616,1.599537,1.2489793,0.039999943,0.04,-8.918738128703488,1.222399058648207,1.8524931652192427,-0.00155288873210866,-0.014016850201590835,0.0013801939208295158
7.333333333333313,-0.41689408,-1.1631559,0.4168253,-2.5298061,0.484278,1.5995378,1.2489947,0.039999943,0.04,-9.743420219955306,2.0063206289066846,1.74363222732604,0.004801279105189491,-0.006975707647771247,0.0012892313551649685
7.349999999999979,-0.41690707,-1.1631676,0.41683826,-2.529811,0.4842931,1.5995387,1.24901,0.039999943,0.04,-9.461640989756146,3.805186657255991,1.349513007440647,0.002276619131071614,-0.0037859244976743366,0.002443860680185292
7.366666666666646,-0.41691905,-1.1631788,0.41685018,-2.5298152,0.48430702,1.5995395,1.2490226,0.039999943,0.04,-9.872990643832978,1.8639333176722992,1.067904981399825,0.003782317273525026,-0.012092666400505572,0.004808866189302397
7.383333333333312,-0.41693005,-1.163189,0.41686112,-2.5298193,0.4843198,1.5995404,1.2490342,0.039999947,0.04,-9.223637228150356,2.1179777177250276,2.4893897531181994,-0.004414667760609749,-0.012297174299689918,0.005548642655765335
7.399999999999979,-0.41694018,-1.1631984,0.41687125,-2.5298233,0.48433158,1.5995412,1.2490456,0.039999947,0.04,-9.902585987743171,2.382875405875283,1.5921356915774836,-1.4048351587526527e-06,-0.007314330425718326,0.004114850463082891
7.416666666666646,-0.41694942,-1.1632066,0.41688055,-2.5298269,0.4843424,1.599542,1.2490569,0.03999995,0.04,-9.810605746026495,2.537999705814706,0.7202903299961186,-0.0008975137083936464,-0.009642053068628113,0.004573583785668921
7.433333333333312,-0.416958,-1.1632143,0.41688916,-2.5298305,0.48435235,1.5995427,1.2490659,0.039999947,0.04,-8.621886494223174,1.6789832090491716,1.690513077352779,-0.0007920500728847066,-0.008523669813095965,0.003398695897079965
7.449999999999979,-0.416966,-1.1632218,0.41689703,-2.529834,0.4843615,1.5995435,1.2490736,0.039999943,0.04,-9.622686221113398,1.1905104731351968,1.5016108207940866,0.0035873063669171696,-0.0008839130485681066,-0.001597492316904857
7.4666666666666455,-0.416966,-1.1632218,0.41689703,-2.529834,0.4843615,1.5995435,1.2490736,0.039999943,0.04,-8.973902380949479,0.4203862579355495,0.6478781478011844,-0.0021380314040909294,0.0047195220652538755,0.0004995044807590343
7.483333333333312,-0.416966,-1.1632218,0.41689703,-2.529834,0.4843615,1.5995435,1.2490736,0.039999943,0.04,-9.336896329961036,1.951205970573774,1.3386733334567142,0.0008976426145151736,0.001761909486684216,0.002049467787239934
7.499999999999979,-0.416966,-1.1632218,0.41689703,-2.529834,0.4843615,1.5995435,1.2490736,0.039999943,0.04,-9.923905776917547,2.1637020043130697,0.9060140060846278,-0.002069242813746138,0.002505070829092647,0.007832662407276309
7.516666666666645,-0.416966,-1.1632218,0.41689703,-2.529834,0.4843615,1.5995435,1.2490736,0.039999943,0.04,-10.313361492728353,1.6413531232623846,1.4167218622720132,-0.000770959106896363,-0.00400858480440213,0.0006350873962569403
7.533333333333312,-0.416966,-1.1632218,0.41689703,-2.529834,0.4843615,1.5995435,1.2490736,0.039999943,0.04,-9.447465697604436,1.8577756731137254,0.9721589913345954,-0.003736908522421401,-0.0029391827130371886,0.0013680537796315992
7.5499999999999785,-0.416966,-1.1632218,0.41689703,-2.529834,0.4843615,1.5995435,1.2490736,0.039999943,0.04,-9.462141564565062,1.3824857319376451,0.605018633487746,0.002748051603705986,0.0065061368748558605,0.0020853752722592217
7.566666666666645,-0.416966,-1.1632218,0.41689703,-2.529834,0.4843615,1.5995435,1.2490736,0.039999943,0.04,-9.34594409468874,1.851898038759722,1.049316155219368,-0.007161983659854225,-0.0021138400990574143,-0.0004437538446705076
7.583333333333312,-0.416966,-1.1632218,0.41689703,-2.529834,0.4843615,1.5995435,1.2490736,0.039999943,0.04,-9.55653275295294,2.3449598985556643,1.8411366734073644,-0.0011641770708828514,-0.002638813573434988,0.0006895771797849985
7.599999999999978,-0.416966,-1.1632218,0.41689703,-2.529834,0.4843615,1.5995435,1.2490736,0.039999943,0.04,-8.829903832985385,1.2157559831454345,1.4863833433979012,0.0017788189260020918,0.0034080603500518726,0.0035418906507273524
7.616666666666645,-0.416966,-1.1632218,0.41689703,-2.529834,0.4843615,1.5995435,1.2490736,0.039999943,0.04,-8.97665758445247,1.8514918066664958,2.0908252540292254,0.0005287427426336792,-0.0034686480203124496,0.0012128469041571828
7.6333333333333115,-0.416966,-1.1632218,0.41689703,-2.529834,0.4843615,1.5995435,1.2490736,0.039999943,0.04,-10.085686178700378,1.8618168466938285,0.2260730785302314,0.005272201338952582,0.0008101157616847565,-0.00014637321659561025
7.649999999999978,-0.416966,-1.1632218,0.41689703,-2.529834,0.4843615,1.5995435,1.2490736,0.039999943,0.04,-9.367734964373634,1.4245971168942662,1.6295103209602013,0.00407648170571709,-0.0037744478246412127,0.006114406082532073
7.666666666666645,-0.416966,-1.1632218,0.41689703,-2.529834,0.4843615,1.5995435,1.2490736,0.039999943,0.04,-10.538130603728593,2.8401290946906177,1.4847718862467842,-0.0034248720369952756,-0.002167829636653301,-0.0010805235104599585
7.683333333333311,-0.416966,-1.1632218,0.41689703,-2.529834,0.4843615,1.5995435,1.2490736,0.039999943,0.04,-9.24391435669377,0.5656839397403599,1.9670236261482337,-0.00040355603976287426,0.005161220266887996,0.0018610124281729216
7.699999999999978,-0.416966,-1.1632218,0.41689703,-2.529834,0.4843615,1.5995435,1.2490736,0.039999943,0.04,-10.793643544215465,2.2778949993570023,1.7652750891588984,0.00308515370119295,-0.003646087551674411,0.0019426475486240629
7.716666666666645,-0.416966,-1.1632218,0.41689703,-2.529834,0.4843615,1.5995435,1.2490736,0.039999943,0.04,-10.380641919222278,0.4565118560830077,2.0664194067318586,0.0006857111181686888,-0.00012300684906077573,-0.0006970952898872059
7.733333333333311,-0.416966,-1.1632218,0.41689703,-2.529834,0.4843615,1.5995435,1.2490736,0.039999943,0.04,-10.868970172833262,2.7425973209701877,2.474002979190505,0.00013616275217007387,0.0015215943746424549,-0.0036163278605240434
7.749999999999978,-0.416966,-1.1632218,0.41689703,-2.529834,0.4843615,1.5995435,1.2490736,0.039999943,0.04,-9.497484545667538,2.367146592952679,0.02430728376231528,-0.00031856523452564834,0.0013256642177183367,-0.0022526669737687457
7.766666666666644,-0.416966,-1.1632218,0.41689703,-2.529834,0.4843615,1.5995435,1.2490736,0.039999943,0.04,-9.633661829495102,1.4706042242820434,2.9225516614072653,0.0021013939939382013,-0.0017969472822811168,-0.0012026115445420997
7.783333333333311,-0.416966,-1.1632218,0.41689703,-2.529834,0.4843615,1.5995435,1.2490736,0.039999943,0.04,-10.343279596315927,2.039139491767264,2.46808850355598,-0.0018013436525275677,-0.0021043103290930036,-0.001999171129663182
7.799999999999978,-0.416966,-1.1632218,0.41689703,-2.529834,0.4843615,1.5995435,1.2490736,0.039999943,0.04,-9.165776489880294,1.348293033851072,1.1740926282015485,-0.0009296036590467395,-0.00222036472635847,-0.003836326927003876
7.816666666666644,-0.416966,-1.1632218,0.41689703,-2.529834,0.4843615,1.5995435,1.2490736,0.039999943,0.04,-9.292951932122152,0.9520026119543487,0.741103187769483,0.0022034505196059056,-0.0009338889631828082,-0.0005565551194384762
7.833333333333311,-0.416966,-1.1632218,0.41689703,-2.529834,0.4843615,1.5995435,1.2490736,0.039999943,0.04,-10.191753166300764,2.2073518177284326,1.474826433637694,9.606434893991115e-05,-0.0015953172498263733,0.0021534235637661954
7.849999999999977,-0.416966,-1.1632218,0.41689703,-2.529834,0.4843615,1.5995435,1.2490736,0.039999943,0.04,-10.47756627929287,1.43036643604022,0.9254854054199626,-0.0024293589097758718,0.001398101833276286,-0.0020855040257333085
7.866666666666644,-0.416966,-1.1632218,0.41689703,-2.529834,0.4843615,1.5995435,1.2490736,0.039999943,0.04,-10.192036653601846,1.9266782051451077,1.5370141380415325,0.0019883029507472977,0.001695641402143222,0.00338098964925696
7.883333333333311,-0.416966,-1.1632218,0.41689703,-2.529834,0.4843615,1.5995435,1.2490736,0.039999943,0.04,-9.580921097345753,1.508080789861941,1.740220299928443,0.004052894655235217,0.005087410079768865,0.003296561652095805
7.899999999999977,-0.416966,-1.1632218,0.41689703,-2.529834,0.4843615,1.5995435,1.2490736,0.039999943,0.04,-8.792675207950484,2.720562775326945,1.3547801413422,0.0020017546342879482,-0.003544273143392717,0.002610753215541755
7.916666666666644,-0.416966,-1.1632218,0.41689703,-2.529834,0.4843615,1.5995435,1.2490736,0.039999943,0.04,-9.59352898618225,2.2762779148080665,2.135653963898,-0.0022640597161672407,0.00025122134125791454,-0.0007523612262313656
7.9333333333333105,-0.416966,-1.1632218,0.41689703,-2.529834,0.4843615,1.5995435,1.2490736,0.039999943,0.04,-9.407751651152495,2.2844145662716935,1.5812090544649176,-0.004138930858398042,0.0005891402773640471,-0.002384406571787195
7.949999999999977,-0.416966,-1.1632218,0.41689703,-2.529834,0.4843615,1.5995435,1.2490736,0.039999943,0.04,-10.029123316621142,1.1970408413261744,1.5648840043116383,-0.0022932012414640206,0.0033012243016068313,-0.0037311470767294034
7.966666666666644,-0.416966,-1.1632218,0.41689703,-2.529834,0.4843615,1.5995435,1.2490736,0.039999943,0.04,-9.154069620033669,2.482776142256364,2.229439200874703,-0.0038488022432591256,0.004088770497134411,-0.0004337874867160697
7.98333333333331,-0.416966,-1.1632218,0.41689703,-2.529834,0.4843615,1.5995435,1.2490736,0.039999943,0.04,-9.931786355082659,1.4981496661307971,0.6241070201082591,0.0017362644206863267,-0.0028280457247068943,0.006282848687548799
7.999999999999977,-0.416966,-1.1632218,0.41689703,-2.529834,0.4843615,1.5995435,1.2490736,0.039999943,0.04,-9.459044885991155,2.4109128705038354,0.19709567510001702,0.0033492432415410957,-1.5847965414262218e-05,0.0019383024814443746
8.016666666666644,-0.416966,-1.1632218,0.41689703,-2.529834,0.4843615,1.5995435,1.2490736,0.039999943,0.04,-9.128548719153633,2.410176098763698,0.7701419328855934,0.0027256671867000133,0.004297244556892608,0.000874737277097937
8.033333333333312,-0.416966,-1.1632218,0.41689703,-2.529834,0.4843615,1.5995435,1.2490736,0.039999943,0.04,-9.89993207926071,1.109210905745193,1.2269548350393715,0.0020912333091953027,-0.0009551774810898633,0.004223608392488049
8.04999999999998,-0.416966,-1.1632218,0.41689703,-2.529834,0.4843615,1.5995435,1.2490736,0.039999943,0.04,-9.38987740261784,1.2734251433183037,0.9114909485058229,0.001884318395273539,-0.00028290845199876725,0.0005195648176333302
8.066666666666647,-0.416966,-1.1632218,0.41689703,-2.529834,0.4843615,1.5995435,1.2490736,0.039999943,0.04,-9.861349287239893,1.812895774286223,-0.25526636629943744,0.002810555072543338,0.0017161975935100582,-0.003929920398542441
8.083333333333314,-0.416966,-1.1632218,0.41689703,-2.529834,0.4843615,1.5995435,1.2490736,0.039999943,0.04,-9.468655482641768,1.518543951390519,1.2323187518546967,0.0006518238991746899,-0.00027902428227464897,-0.004493429152952749
8.099999999999982,-0.416966,-1.1632218,0.41689703,-2.529834,0.4843615,1.5995435,1.2490736,0.039999943,0.04,-10.585422972207096,0.9531599779763342,2.092407332143475,0.00056736290918275,0.002248830750873053,-0.0033408400173062847
8.11666666666665,-0.416966,-1.1632218,0.41689703,-2.529834,0.4843615,1.5995435,1.2490736,0.039999943,0.04,-8.815264521373852,2.701708964547432,1.477441827879347,-0.0017384937567225453,-0.0008209222893161278,-0.002594983009281469
8.133333333333317,-0.416966,-1.1632218,0.41689703,-2.529834,0.4843615,1.5995435,1.2490736,0.039999943,0.04,-8.894033494734884,1.485309225201086,1.1876607625577529,0.004131464765276378,-0.0018823001144414498,0.0037882788185703968
8.149999999999984,-0.416966,-1.1632218,0.41689703,-2.529834,0.4843615,1.5995435,1.2490736,0.039999943,0.04,-9.627506248773155,1.1952070758400861,1.3822331493968951,0.003959575851357658,-0.0021107007115908584,0.006540229599114788
8.166666666666652,-0.416966,-1.1632218,0.41689703,-2.529834,0.4843615,1.5995435,1.2490736,0.039999943,0.04,-9.209049829656047,1.3866936466710669,2.3593376792049385,-0.000624457341401202,-0.003334698865277237,0.0028623082350723982
8.18333333333332,-0.416966,-1.1632218,0.41689703,-2.529834,0.4843615,1.5995435,1.2490736,0.039999943,0.04,-10.64618169847756,1.663790374273985,1.4602789282181114,-0.0032043103252305657,0.0013901926655827596,0.0012630426963033269
8.199999999999987,-0.416966,-1.1632218,0.41689703,-2.529834,0.4843615,1.5995435,1.2490736,0.039999943,0.04,-9.357103767429871,1.7041154333294382,1.8862338529645217,-0.003211753802465319,0.0014949214607654832,0.0008602535301837296
