rsonawane2002/My_IMU/logs_2/traj_462/imu_400hz_462.csv
time,j1,j2,j3,j4,j5,j6,j7,gripper1,gripper2,imu_ax,imu_ay,imu_az,imu_gx,imu_gy,imu_gz
0.0,0.00016700293,-0.785875,4.0107683e-05,-2.3551247,9.29385e-05,1.570997,0.786,0.04,0.04,-9.539691,0.0022732825018465,0.0925497,-4.4686618e-07,-0.0011641272576525,7.8282153e-07
0.0025,0.0001670022355,-0.7858577740000002,4.010840404999999e-05,-2.35513919,9.294497549999992e-05,1.570996565,0.786,0.04,0.04,-9.583913999999437,0.002025504678025215,0.08002497165015948,-3.12252034001714e-07,-0.0013254031946395666,8.932748504985936e-07
0.005,0.00016700154100000002,-0.7858405480000005,4.0109125099999985e-05,-2.35515368,9.295145099999984e-05,1.57099613,0.786,0.04,0.04,-9.628136999998873,0.0017777268542039297,0.06750024330031895,-1.7763788800342806e-07,-0.001486679131626633,1.0037281709971873e-06
0.0075,0.00016700084650000003,-0.7858233220000007,4.010984614999997e-05,-2.35516817,9.295792649999975e-05,1.5709956950000001,0.786,0.04,0.04,-9.67235999999831,0.0015299490303826448,0.05497551495047843,-4.302374200514212e-08,-0.0016479550686136994,1.1141814914957808e-06
0.01,0.00016700015200000004,-0.785806096000001,4.011056719999996e-05,-2.3551826599999997,9.296440199999967e-05,1.5709952600000001,0.786,0.04,0.04,-9.716582999997748,0.0012821712065613597,0.042450786600637905,9.159040399314388e-08,-0.001809231005600766,1.2246348119943744e-06
0.0125,0.00016699945750000005,-0.7857888700000011,4.0111288249999955e-05,-2.355197149999999,9.29708774999996e-05,1.570994825,0.786,0.04,0.04,-9.760805999997183,0.0010343933827400746,0.029926058250797374,2.2620454999142992e-07,-0.0019705069425878323,1.335088132492968e-06
0.015,0.00016699876300000006,-0.7857716440000013,4.011200929999994e-05,-2.355211639999999,9.297735299999951e-05,1.57099439,0.786,0.04,0.04,-9.80502899999662,0.0007866155589187896,0.017401329900956858,3.6081869598971575e-07,-0.0021317828795748986,1.4455414529915617e-06
0.0175,0.00016699549400000076,-0.7857548705000015,4.0111972500000135e-05,-2.355225734999999,9.298631549999876e-05,1.57099396,0.786,0.04,0.04,-9.83439435000003,0.0006191447231691062,0.008979092700019365,6.212341619543639e-07,-0.002288857405060649,1.722266424945696e-06
0.02,0.00016698707600000087,-0.7857390020000017,4.011042000000016e-05,-2.355239039999999,9.300025199999858e-05,1.5709935400000001,0.786,0.04,0.04,-9.834044400000035,0.0006122878636239784,0.00876183780002213,1.133252267947844e-06,-0.002437529107540556,2.331534699937938e-06
0.0225,0.00016697865800000098,-0.7857231335000019,4.0108867500000175e-05,-2.3552523449999985,9.301418849999841e-05,1.57099312,0.786,0.04,0.04,-9.83369445000004,0.0006054310040788508,0.008544582900024897,1.6452703739413242e-06,-0.002586200810020463,2.94080297493018e-06
0.025,0.00016697024000000108,-0.7857072650000021,4.01073150000002e-05,-2.3552656499999984,9.302812499999823e-05,1.5709927000000001,0.786,0.04,0.04,-9.833344500000045,0.000598574144533723,0.008327328000027664,2.1572884799348054e-06,-0.0027348725125003696,3.5500712499224226e-06
0.0275,0.00016696182200000116,-0.7856913965000023,4.0105762500000216e-05,-2.355278954999998,9.304206149999804e-05,1.57099228,0.786,0.04,0.04,-9.832994550000048,0.0005917172849885954,0.008110073100030429,2.6693065859282855e-06,-0.0028835442149802767,4.159339524914665e-06
0.03,0.00016695340400000127,-0.7856755280000025,4.010421000000024e-05,-2.355292259999998,9.305599799999786e-05,1.5709918600000001,0.786,0.04,0.04,-9.832644600000053,0.0005848604254434677,0.007892818200033196,3.1813246919217656e-06,-0.0030322159174601838,4.768607799906907e-06
0.0325,0.00016694498600000138,-0.7856596595000027,4.0102657500000256e-05,-2.3553055649999974,9.306993449999769e-05,1.57099144,0.786,0.04,0.04,-9.832294650000058,0.0005780035658983399,0.007675563300035962,3.6933427979152466e-06,-0.003180887619940091,5.37787607489915e-06
0.035,0.0001669228110000057,-0.7856446430000029,4.0097162400001466e-05,-2.3553180999999976,9.309745599999325e-05,1.57099101,0.786,0.04,0.04,-9.832030600000044,0.0005660132621443297,0.007449342640045322,4.761905449735414e-06,-0.003322441293830801,6.578343949706099e-06
0.0375,0.00016689375750000686,-0.7856300525000035,4.008969600000177e-05,-2.355330249999997,9.313176999999188e-05,1.5709905750000002,0.786,0.04,0.04,-9.831809500000054,0.0005514562362839172,0.007218639100054555,6.108740374681515e-06,-0.0034604359534241933,8.074411624646226e-06
0.04,0.00016686470400000802,-0.7856154620000041,4.008222960000206e-05,-2.3553423999999965,9.316608399999051e-05,1.5709901400000001,0.786,0.04,0.04,-9.831588400000062,0.0005368992104235048,0.006987935560063787,7.455575299627619e-06,-0.0035984306130175865,9.570479299586357e-06
0.0425,0.0001668356505000092,-0.7856008715000047,4.0074763200002365e-05,-2.355354549999996,9.320039799998913e-05,1.5709897050000001,0.786,0.04,0.04,-9.831367300000071,0.0005223421845630923,0.006757232020073018,8.802410224573723e-06,-0.0037364252726109796,1.1066546974526489e-05
0.045,0.00016680659700001036,-0.7855862810000053,4.006729680000266e-05,-2.355366699999996,9.323471199998776e-05,1.57098927,0.786,0.04,0.04,-9.831146200000079,0.0005077851587026799,0.006526528480082251,1.0149245149519822e-05,-0.003874419932204372,1.2562614649466618e-05
0.0475,0.00016677754350001152,-0.7855716905000057,4.005983040000296e-05,-2.3553788499999952,9.326902599998639e-05,1.5709888350000003,0.786,0.04,0.04,-9.830925100000089,0.0004932281328422674,0.006295824940091483,1.1496080074465928e-05,-0.004012414591797765,1.405868232440675e-05
0.05,0.0001667484900000127,-0.7855571000000063,4.005236400000326e-05,-2.3553909999999947,9.330333999998502e-05,1.5709884000000003,0.786,0.04,0.04,-9.830704000000097,0.0004786711069818549,0.006065121400100714,1.2842914999412032e-05,-0.004150409251391158,1.5554749999346882e-05
0.0525,0.00016668017700002883,-0.7855437200000056,4.0033695900007874e-05,-2.3554021599999952,9.33779580999685e-05,1.5709879800000002,0.786,0.04,0.03999999925,-9.830440150000111,0.00045923845901506066,0.005861679190085854,1.5460538598895346e-05,-0.004278308991288716,1.8437227998783576e-05
0.055,0.00016661186400002785,-0.7855303400000054,4.0015027800007605e-05,-2.3554133199999954,9.34525761999696e-05,1.5709875600000003,0.786,0.04,0.0399999985,-9.830176300000108,0.0004398058110461379,0.005658236980082893,1.807816219893344e-05,-0.004406208731181867,2.1319705998825526e-05
0.0575,0.00016654355100002684,-0.7855169600000053,3.9996359700007337e-05,-2.3554244799999955,9.352719429997069e-05,1.5709871400000002,0.786,0.04,0.03999999775,-9.829912450000103,0.00042037316307721507,0.005454794770079933,2.0695785798971534e-05,-0.004534108471075018,2.4202183998867473e-05
0.06,0.00016647523800002585,-0.7855035800000051,3.997769160000706e-05,-2.3554356399999956,9.360181239997177e-05,1.5709867200000003,0.786,0.04,0.039999997,-9.8296486000001,0.0004009405151082923,0.005251352560076973,2.331340939900962e-05,-0.004662008210968169,2.7084661998909412e-05
0.0625,0.00016640692500002484,-0.7854902000000049,3.995902350000679e-05,-2.3554467999999957,9.367643049997286e-05,1.5709863000000002,0.786,0.04,0.03999999625,-9.829384750000095,0.00038150786713936954,0.0050479103500740115,2.5931032999047715e-05,-0.00478990795086132,2.9967139998951362e-05
0.065,0.00016633861200002385,-0.7854768200000046,3.9940355400006523e-05,-2.355457959999996,9.375104859997394e-05,1.57098588,0.786,0.04,0.0399999955,-9.829120900000092,0.0003620752191704467,0.004844468140071051,2.854865659908581e-05,-0.004917807690754472,3.284961799899331e-05
0.0675,0.00016624929300004395,-0.7854638270000041,3.991573180001223e-05,-2.3554688099999965,9.38464152999542e-05,1.5709856,0.786,0.04,0.039999995,-9.82886510000008,0.00034020849999235296,0.004645061610064038,3.166738564862075e-05,-0.005042847222608529,3.623157549853374e-05
0.07,0.00016611796200004204,-0.7854516080000039,3.98791972000117e-05,-2.3554790399999965,9.398327919995619e-05,1.5709856,0.786,0.04,0.039999995,-9.828625400000076,0.0003134736383884789,0.004453726440061254,3.5788325598680725e-05,-0.005162166338375661,4.06124919985975e-05
0.0725,0.00016598663100004013,-0.7854393890000038,3.9842662600011163e-05,-2.355489269999997,9.412014309995818e-05,1.5709856,0.786,0.04,0.039999995,-9.828385700000073,0.000286738776784605,0.00426239127005847,3.990926554874067e-05,-0.005281485454142792,4.499340849866123e-05
0.075,0.00016585530000003823,-0.7854271700000036,3.9806128000010634e-05,-2.355499499999997,9.425700699996017e-05,1.5709856,0.786,0.04,0.039999995,-9.82814600000007,0.00026000391518073086,0.004071056100055686,4.4030205498800644e-05,-0.0054008045699099234,4.937432499872498e-05
0.0775,0.0001657239690000363,-0.7854149510000034,3.9769593400010104e-05,-2.355509729999997,9.439387089996216e-05,1.5709856,0.786,0.04,0.039999995,-9.827906300000066,0.00023326905357685685,0.0038797209300529016,4.815114544886062e-05,-0.005520123685677055,5.3755241498788736e-05
0.08,0.0001655926380000344,-0.7854027320000032,3.9733058800009574e-05,-2.355519959999997,9.453073479996415e-05,1.5709856,0.786,0.04,0.039999995,-9.827666600000063,0.00020653419197298278,0.003688385760050117,5.227208539892059e-05,-0.005639442801444187,5.8136157998852486e-05
0.0825,0.00016546130700003249,-0.7853905130000031,3.969652420000904e-05,-2.3555301899999974,9.466759869996614e-05,1.5709856,0.786,0.04,0.039999995,-9.82742690000006,0.00017979933036910872,0.003497050590047333,5.639302534898056e-05,-0.0057587619172113184,6.251707449891624e-05
0.085,0.00016526902000005996,-0.785379049000003,3.96427446000168e-05,-2.3555401399999973,9.486342699993934e-05,1.57098566,0.786,0.04,0.0399999955,-9.827164400000074,0.00015144908394044068,0.003314567920047934,6.175604579838904e-05,-0.005871606431871873,6.810961159833135e-05
0.08750000000000001,0.00016504625500006888,-0.7853679625000034,3.9580342500019296e-05,-2.355549949999997,9.508873749993033e-05,1.57098575,0.786,0.04,0.03999999625,-9.826890500000085,0.0001222911450984942,0.0031365115000550592,6.774010649814957e-05,-0.005981213645975607,7.430795899808332e-05
0.09,0.00016482349000007782,-0.7853568760000039,3.951794040002179e-05,-2.3555597599999967,9.531404799992131e-05,1.57098584,0.786,0.04,0.039999997,-9.826616600000095,9.313320625654788e-05,0.0029584550800621856,7.372416719791009e-05,-0.0060908208600793405,8.050630639783525e-05
0.0925,0.00016460072500008673,-0.7853457895000043,3.9455538300024294e-05,-2.355569569999996,9.55393584999123e-05,1.57098593,0.786,0.04,0.03999999775,-9.826342700000106,6.39752674146014e-05,0.0027803986600693107,7.970822789767061e-05,-0.006200428074183074,8.670465379758721e-05
0.095,0.00016437796000009564,-0.7853347030000047,3.939313620002679e-05,-2.355579379999996,9.576466899990329e-05,1.57098602,0.786,0.04,0.0399999985,-9.826068800000117,3.4817328572654926e-05,0.002602342240076436,8.569228859743116e-05,-0.006310035288286808,9.290300119733917e-05
0.0975,0.00016415519500010455,-0.7853236165000053,3.9330734100029284e-05,-2.3555891899999954,9.598997949989427e-05,1.57098611,0.786,0.04,0.03999999925,-9.825794900000128,5.659389730708434e-06,0.0024242858200835614,9.167634929719168e-05,-0.006419642502390541,9.910134859709113e-05
0.1,0.00016393243000011347,-0.7853125300000057,3.926833200003178e-05,-2.3555989999999953,9.621528999988526e-05,1.5709862,0.786,0.04,0.04,-9.82552100000014,-2.3498549111238058e-05,0.002246229400090687,9.766040999695222e-05,-0.006529249716494275,0.0001052996959968431
0.10250000000000001,0.00016358569450018102,-0.7853025355000053,3.917089845005087e-05,-2.3556078499999957,9.656274639981862e-05,1.57098632,0.786,0.04,0.04,-9.825386450000071,-5.795367176707814e-05,0.002065199575094506,0.00010575152399577606,-0.006633297074531822,0.00011383166209554593
0.105,0.00016323895900018543,-0.7852925410000053,3.9073464900052107e-05,-2.3556166999999952,9.691020279981419e-05,1.57098644,0.786,0.04,0.04,-9.825251900000072,-9.240879442561598e-05,0.001884169750096812,0.000113842637995673,-0.0067373444325665366,0.00012236362819543725
0.1075,0.00016289222350018983,-0.7852825465000055,3.8976031350053346e-05,-2.355625549999995,9.725765919980976e-05,1.57098656,0.786,0.04,0.04,-9.825117350000074,-0.00012686391708415401,0.0017031399250991169,0.00012193375199557,-0.0068413917906012525,0.00013089559429532862
0.11,0.00016254548800019426,-0.7852725520000057,3.8878597800054585e-05,-2.355634399999995,9.760511559980535e-05,1.5709866799999999,0.786,0.04,0.04,-9.824982800000075,-0.000161319039742692,0.0015221101001014216,0.00013002486599546697,-0.0069454391486359675,0.00013942756039522
0.1125,0.00016219875250019866,-0.7852625575000057,3.878116425005583e-05,-2.355643249999995,9.795257199980092e-05,1.5709867999999998,0.786,0.04,0.04,-9.824848250000077,-0.00019577416240123004,0.0013410802751037266,0.00013811597999536395,-0.007049486506670683,0.00014795952649511137
0.115,0.0001618520170002031,-0.7852525630000059,3.868373070005707e-05,-2.355652099999995,9.830002839979649e-05,1.57098692,0.786,0.04,0.04,-9.824713700000078,-0.00023022928505976806,0.0011600504501060316,0.00014620709399526093,-0.0071535338647053985,0.00015649149259500271
0.11750000000000001,0.00016145187100030339,-0.7852429225000054,3.857121475008539e-05,-2.355660899999995,9.870007094969766e-05,1.5709870449999999,0.786,0.04,0.04,-9.824550250000133,-0.0002650570415212765,0.000986395534495096,0.00015507159849376944,-0.007255398645007357,0.00016584330649342219
0.12,0.00016094490400030985,-0.7852339900000055,3.84285340000872e-05,-2.355669599999995,9.920528579969123e-05,1.57098718,0.786,0.04,0.04,-9.824329000000136,-0.00030063006559071843,0.00082749043769712,0.0001654828839936368,-0.00735289826983213,0.00017683481599328218
0.1225,0.0001604379370003163,-0.7852250575000056,3.828585325008902e-05,-2.355678299999995,9.971050064968479e-05,1.5709873149999998,0.786,0.04,0.04,-9.824107750000138,-0.00033620308966016046,0.0006685853408991431,0.00017589416949350425,-0.007450397894656903,0.00018782632549314225
0.125,0.00015993097000032276,-0.7852161250000057,3.814317250009084e-05,-2.3556869999999948,0.00010021571549967836,1.5709874499999998,0.786,0.04,0.04,-9.82388650000014,-0.00037177611372960254,0.0005096802441011663,0.0001863054549933717,-0.007547897519481677,0.0001988178349930023
0.1275,0.0001594240030003292,-0.7852071925000058,3.8000491750092654e-05,-2.3556956999999943,0.00010072093034967192,1.570987585,0.786,0.04,0.04,-9.823665250000143,-0.00040734913779904463,0.0003507751473031895,0.00019671674049323915,-0.00764539714430645,0.00020980934449286236
0.13,0.00015891703600033567,-0.7851982600000059,3.785781100009447e-05,-2.3557043999999943,0.00010122614519966549,1.57098772,0.786,0.04,0.04,-9.823444000000148,-0.0004429221618684867,0.00019187005050521266,0.0002071280259931066,-0.007742896769131225,0.0002208008539927224
0.1325,0.0001584100690003421,-0.785189327500006,3.771513025009629e-05,-2.3557130999999942,0.00010173136004965907,1.5709878549999998,0.786,0.04,0.04,-9.82322275000015,-0.0004784951859379288,3.296495370723571e-05,0.00021753931149297404,-0.007840396393955998,0.00023179236349258248
0.135,0.00015776992100048593,-0.7851810750000054,3.753486530013687e-05,-2.3557214299999947,0.00010236704049951808,1.5709879999999998,0.786,0.04,0.04,-9.823066000000086,-0.0005160592612545174,-0.00011997060069689765,0.00022962076399111892,-0.007936024572635132,0.0002444896899906832
0.1375,0.00015706318250049492,-0.7851731625000056,3.7335808250139405e-05,-2.3557295749999945,0.00010306795374950915,1.5709881499999998,0.786,0.04,0.04,-9.822941500000088,-0.0005546188621977214,-0.0002699213838949885,0.00024253729999095447,-0.008030717028238587,0.0002580399249905107
0.14,0.00015635644400050394,-0.7851652500000057,3.713675120014194e-05,-2.3557377199999943,0.00010376886699950023,1.5709882999999998,0.786,0.04,0.04,-9.82281700000009,-0.0005931784631409255,-0.00041987216709307924,0.00025545383599079004,-0.008125409483842041,0.0002715901599903382
0.14250000000000002,0.00015564970550051294,-0.7851573375000057,3.693769415014447e-05,-2.355745864999994,0.0001044697802494913,1.5709884499999998,0.786,0.04,0.04,-9.822692500000091,-0.0006317380640841296,-0.0005698229502911701,0.00026837037199062557,-0.008220101939445494,0.00028514039499016565
0.145,0.00015494296700052193,-0.7851494250000058,3.6738637100147005e-05,-2.3557540099999943,0.00010517069349948237,1.5709885999999997,0.786,0.04,0.04,-9.822568000000093,-0.0006702976650273333,-0.0007197737334892592,0.000281286907990461,-0.008314794395048949,0.00029869062998999295
0.1475,0.00015423622850053095,-0.785141512500006,3.653958005014954e-05,-2.355762154999994,0.00010587160674947345,1.5709887499999997,0.786,0.04,0.04,-9.822443500000094,-0.0007088572659705373,-0.0008697245166873499,0.0002942034439902965,-0.008409486850652402,0.0003122408649898204
0.15,0.00015352949000053994,-0.785133600000006,3.634052300015207e-05,-2.355770299999994,0.00010657251999946452,1.5709888999999997,0.786,0.04,0.04,-9.822319000000096,-0.0007474168669137414,-0.001019675299885441,0.000307119979990132,-0.008504179306255856,0.00032579109998964793
0.1525,0.00015258053000073707,-0.7851267450000053,3.6073142600207675e-05,-2.355777994999994,0.00010751143974927074,1.5709895899999993,0.786,0.04,0.04,-9.822118000000156,-0.0007814743992374722,-0.0011530577448964005,0.00032274156348786653,-0.008594816178012936,0.00034234935998713904
0.155,0.00015163157000074915,-0.7851198900000054,3.580576220021108e-05,-2.355785689999994,0.00010845035949925878,1.5709902799999993,0.786,0.04,0.04,-9.821917000000159,-0.0008155319315577636,-0.0012864401898947022,0.00033836314698766764,-0.008685453049766917,0.0003589076199869282
0.1575,0.00015068261000076124,-0.7851130350000055,3.553838180021449e-05,-2.355793384999994,0.00010938927924924682,1.5709909699999993,0.786,0.04,0.04,-9.821716000000162,-0.000849589463878055,-0.0014198226348930041,0.00035398473048746875,-0.008776089921520899,0.0003754658799867174
0.16,0.00014973365000077332,-0.7851061800000055,3.527100140021789e-05,-2.3558010799999938,0.00011032819899923487,1.5709916599999993,0.786,0.04,0.04,-9.821515000000163,-0.0008836469961983463,-0.0015532050798913058,0.00036960631398726986,-0.00886672679327488,0.0003920241399865066
0.1625,0.0001487846900007854,-0.7850993250000057,3.5003621000221295e-05,-2.3558087749999936,0.00011126711874922292,1.5709923499999994,0.786,0.04,0.04,-9.821314000000166,-0.0009177045285186377,-0.0016865875248896077,0.00038522789748707097,-0.008957363665028861,0.0004085823999862957
0.165,0.0001478357300007975,-0.7850924700000057,3.47362406002247e-05,-2.3558164699999935,0.00011220603849921096,1.5709930399999994,0.786,0.04,0.04,-9.82111300000017,-0.000951762060838929,-0.0018199699698879094,0.0004008494809868721,-0.009048000536782841,0.00042514065998608495
0.1675,0.00014679102600105462,-0.785085960000005,3.444185540029722e-05,-2.3558241299999936,0.00011323926949895763,1.5709937399999994,0.786,0.04,0.04,-9.820929350000126,-0.000988322761223504,-0.0019608051248671374,0.0004174176014842507,-0.009136754041465123,0.00044275750198316484
0.17,0.00014555483400107035,-0.785080140000005,3.4093460600301654e-05,-2.3558317199999936,0.00011446112299894207,1.5709944599999994,0.786,0.04,0.04,-9.820780400000128,-0.0010298897977557698,-0.0021165456998651546,0.0004358787959840157,-0.009221740811989615,0.0004624915079829136
0.17250000000000001,0.00014431864200108608,-0.7850743200000051,3.374506580030609e-05,-2.3558393099999932,0.00011568297649892653,1.5709951799999993,0.786,0.04,0.04,-9.82063145000013,-0.0010714568342880355,-0.002272286274863172,0.0004543399904837806,-0.009306727582514109,0.00048222551398266234
0.17500000000000002,0.0001430824500011018,-0.7850685000000052,3.339667100031053e-05,-2.3558468999999933,0.00011690482999891097,1.5709958999999993,0.786,0.04,0.04,-9.820482500000132,-0.0011130238708203014,-0.002428026849861189,0.0004728011849835456,-0.0093917143530386,0.000501959519982411
0.1775,0.00014184625800111756,-0.7850626800000052,3.3048276200314965e-05,-2.355854489999993,0.0001181266834988954,1.5709966199999994,0.786,0.04,0.04,-9.820333550000134,-0.0011545909073525666,-0.002583767424859204,0.0004912623794833103,-0.009476701123563093,0.0005216935259821596
0.18,0.0001406100660011333,-0.7850568600000054,3.26998814003194e-05,-2.355862079999993,0.00011934853699887983,1.5709973399999995,0.786,0.04,0.04,-9.820184600000136,-0.0011961579438848325,-0.0027395079998572213,0.0005097235739830753,-0.009561687894087586,0.0005414275319819083
0.1825,0.00013937387400114905,-0.7850510400000055,3.235148660032384e-05,-2.355869669999993,0.00012057039049886429,1.5709980599999993,0.786,0.04,0.04,-9.820035650000138,-0.0012377249804170981,-0.0028952485748552385,0.0005281847684828402,-0.00964667466461208,0.0005611615379816571
0.185,0.00013791467900147995,-0.7850459150000045,3.1940217800417136e-05,-2.3558772499999927,0.0001220110314985395,1.570999149999999,0.7859998400000002,0.04,0.04,-9.81990210000012,-0.0012771251843880366,-0.0030284662198850885,0.0005486145599798229,-0.009730598330419145,0.0005829465419785071
0.1875,0.00013634398250149995,-0.7850411375000046,3.149751200042277e-05,-2.3558848249999924,0.00012356106624851978,1.571000424999999,0.7859996000000002,0.04,0.04,-9.81977625000012,-0.0013154419720737586,-0.0031504223998835355,0.0005700286499795502,-0.009813990443865262,0.0006057570449782166
0.19,0.00013477328600151994,-0.7850363600000047,3.105480620042841e-05,-2.3558923999999926,0.00012511110099850002,1.5710016999999987,0.7859993600000003,0.04,0.04,-9.819650400000121,-0.0013537587597594809,-0.003272378579881983,0.0005914427399792776,-0.00989738255731138,0.0006285675479779262
0.1925,0.00013320258950153997,-0.7850315825000047,3.0612100400434044e-05,-2.3558999749999923,0.0001266611357484803,1.5710029749999987,0.7859991200000003,0.04,0.04,-9.819524550000123,-0.0013920755474452029,-0.00339433475988043,0.000612856829979005,-0.0099807746707575,0.0006513780509776358
0.195,0.00013163189300155996,-0.7850268050000048,3.016939460043968e-05,-2.3559075499999924,0.00012821117049846055,1.5710042499999988,0.7859988800000003,0.04,0.04,-9.819398700000125,-0.0014303923351309251,-0.003516290939878877,0.0006342709199787323,-0.010064166784203618,0.0006741885539773454
0.1975,0.00013006119650157995,-0.7850220275000048,2.9726688800445317e-05,-2.355915124999992,0.00012976120524844082,1.5710055249999986,0.7859986400000002,0.04,0.04,-9.819272850000125,-0.0014687091228166472,-0.0036382471198773245,0.0006556850099784597,-0.010147558897649735,0.0006969990569770549
0.2,0.00012849050000159995,-0.7850172500000049,2.9283983000450953e-05,-2.3559226999999923,0.0001313112399984211,1.5710067999999986,0.7859984000000002,0.04,0.04,-9.819147000000127,-0.0015070259105023694,-0.003760203299875772,0.000677099099978187,-0.010230951011095854,0.0007198095599767646
0.2025,0.00012653607650201572,-0.7850135585000038,2.873311025056815e-05,-2.355930274999992,0.0001332376089980132,1.5710080899999985,0.7859981150000003,0.04,0.04,-9.819014250000137,-0.0015370149630743754,-0.0038738149648828253,0.0007027521449735425,-0.010311541752806557,0.0007459543049730353
0.20500000000000002,0.0001245816530020406,-0.7850098670000039,2.8182237500575164e-05,-2.355937849999992,0.00013516397799798869,1.5710093799999987,0.7859978300000002,0.04,0.04,-9.818881500000138,-0.0015670040156378986,-0.0039874266298813785,0.0007284051899732159,-0.010392132494514405,0.0007720990499727025
0.20750000000000002,0.00012262722950206548,-0.785006175500004,2.7631364750582176e-05,-2.355945424999992,0.00013709034699796417,1.5710106699999986,0.7859975450000003,0.04,0.04,-9.81874875000014,-0.0015969930682014218,-0.0041010382948799325,0.0007540582349728892,-0.010472723236222253,0.0007982437949723695
0.21,0.00012067280600209039,-0.7850024840000039,2.7080492000589197e-05,-2.355952999999992,0.00013901671599793962,1.5710119599999985,0.7859972600000003,0.04,0.04,-9.818616000000143,-0.0016269821207649446,-0.004214649959878484,0.0007797112799725623,-0.010553313977930101,0.0008243885399720364
0.2125,0.00011871838250211527,-0.784998792500004,2.652961925059621e-05,-2.355960574999992,0.00014094308499791507,1.5710132499999987,0.7859969750000003,0.04,0.04,-9.818483250000144,-0.0016569711733284678,-0.004328261624877038,0.0008053643249722357,-0.010633904719637951,0.0008505332849717036
0.215,0.00011676395900214016,-0.784995101000004,2.5978746500603226e-05,-2.355968149999992,0.00014286945399789055,1.5710145399999986,0.7859966900000003,0.04,0.04,-9.818350500000147,-0.001686960225891991,-0.004441873289875591,0.0008310173699719091,-0.0107144954613458,0.0008766780299713706
0.2175,0.00011466464830266828,-0.7849917730000029,2.5387043700752055e-05,-2.355975729999992,0.0001449378344973727,1.571016019999998,0.7859964050000003,0.04,0.04,-9.818231350000103,-0.0017200395348043124,-0.004555727959872297,0.0008577788749676351,-0.01079495381554938,0.000903973341966945
0.22,0.00011227556320276388,-0.7849891720000031,2.4713680800778998e-05,-2.3559833199999916,0.00014729023799727855,1.5710178799999979,0.7859961200000003,0.04,0.04,-9.818139400000106,-0.0017592993564449213,-0.004670068639867722,0.0008867572999664755,-0.010875147394743106,0.0009335697879657605
0.2225,0.00010988647810285948,-0.7849865710000031,2.4040317900805944e-05,-2.355990909999991,0.0001496426414971844,1.5710197399999979,0.7859958350000004,0.04,0.04,-9.81804745000011,-0.0017985591780855302,-0.004784409319863146,0.0009157357249653158,-0.010955340973936831,0.0009631662339645762
0.225,0.00010749739300295508,-0.7849839700000032,2.336695500083289e-05,-2.355998499999991,0.0001519950449970903,1.5710215999999977,0.7859955500000003,0.04,0.04,-9.817955500000114,-0.001837818999726139,-0.004898749999858571,0.0009447141499641563,-0.011035534553130558,0.000992762679963392
0.2275,0.00010510830790305068,-0.7849813690000034,2.2693592100859835e-05,-2.3560060899999904,0.00015434744849699615,1.5710234599999977,0.7859952650000004,0.04,0.04,-9.817863550000117,-0.0018770788213667482,-0.005013090679853996,0.0009736925749629967,-0.011115728132324284,0.0010223591259622075
0.23,0.0001027192228031463,-0.7849787680000034,2.202022920088678e-05,-2.35601367999999,0.000156699851996902,1.5710253199999975,0.7859949800000003,0.04,0.04,-9.817771600000121,-0.001916338643007357,-0.005127431359849419,0.001002670999961837,-0.011195921711518009,0.0010519555719610233
0.2325,0.0001003301377032419,-0.7849761670000036,2.1346866300913727e-05,-2.3560212699999896,0.00015905225549680787,1.5710271799999975,0.7859946950000004,0.04,0.04,-9.817679650000125,-0.001955598464647966,-0.005241772039844844,0.0010316494249606773,-0.011276115290711736,0.0010815520179598389
0.23500000000000001,9.761637540391322e-05,-0.784974316000002,2.0581991901102942e-05,-2.3560289199999898,0.00016172283299614997,1.5710293999999967,0.7859944100000004,0.04,0.04,-9.817562800000175,-0.0019887045956738622,-0.00535136898985411,0.0010628287299560802,-0.011354497540636705,0.0011135135399549044
0.23750000000000002,9.474027450387137e-05,-0.784972840000002,1.9771361751091143e-05,-2.3560365999999897,0.00016455249749619113,1.5710317999999968,0.7859941250000003,0.04,0.04,-9.817433500000174,-0.0020187338813734295,-0.00545859407485567,0.00109510847495655,-0.011431974125921713,0.0011466575999553867
0.24,9.186417360382954e-05,-0.784971364000002,1.8960731601079358e-05,-2.3560442799999897,0.00016738216199623228,1.5710341999999968,0.7859938400000004,0.04,0.04,-9.817304200000171,-0.002048763167072996,-0.0055658191598572295,0.0011273882199570194,-0.01150945071120672,0.0011798016599558687
0.2425,8.898807270378767e-05,-0.784969888000002,1.815010145106756e-05,-2.35605195999999,0.00017021182649627347,1.571036599999997,0.7859935550000003,0.04,0.04,-9.81717490000017,-0.0020787924527725632,-0.00567304424485879,0.0011596679649574892,-0.011586927296491727,0.001212945719956351
0.245,8.611197180374582e-05,-0.7849684120000019,1.7339471301055763e-05,-2.35605963999999,0.00017304149099631465,1.571038999999997,0.7859932700000004,0.04,0.04,-9.817045600000169,-0.00210882173847213,-0.00578026932986035,0.001191947709957959,-0.011664403881776735,0.0012460897799568334
0.2475,8.323587090370397e-05,-0.7849669360000019,1.6528841151043968e-05,-2.3560673199999904,0.00017587115549635583,1.5710413999999968,0.7859929850000004,0.04,0.04,-9.816916300000166,-0.002138851024171697,-0.0058874944148619105,0.0012242274549584288,-0.011741880467061741,0.0012792338399573158
0.25,8.035977000366212e-05,-0.7849654600000019,1.5718211001032172e-05,-2.3560749999999904,0.00017870081999639702,1.5710437999999969,0.7859927000000003,0.04,0.04,-9.816787000000165,-0.0021688803098712643,-0.005994719499863471,0.0012565071999588984,-0.01181935705234675,0.001312377899957798
0.2525,7.694305995439397e-05,-0.7849651360000004,1.4755261101238378e-05,-2.35608305499999,0.00018205839449568208,1.5710464699999966,0.7859924150000004,0.03999999925,0.04,-9.816668950000151,-0.0021946394350047735,-0.006088707774879128,0.001292047734954294,-0.011894753808058682,0.0013490314799528627
0.255,7.352634990443747e-05,-0.7849648120000005,1.3792311201250639e-05,-2.3560911099999897,0.00018541596899563934,1.5710491399999964,0.7859921300000003,0.0399999985,0.04,-9.816550900000154,-0.0022203985601328452,-0.006182696049877932,0.0013275882699538416,-0.011970150563767967,0.001385685059952396
0.2575,7.010963985448098e-05,-0.7849644880000004,1.2829361301262898e-05,-2.3560991649999896,0.00018877354349559658,1.5710518099999964,0.7859918450000004,0.03999999775,0.04,-9.816432850000155,-0.0022461576852609174,-0.006276684324876735,0.001363128804953389,-0.012045547319477252,0.0014223386399519293
0.26,6.669292980452448e-05,-0.7849641640000005,1.186641140127516e-05,-2.3561072199999895,0.00019213111799555385,1.5710544799999964,0.7859915600000004,0.039999997,0.04,-9.816314800000157,-0.0022719168103889895,-0.006370672599875539,0.0013986693399529366,-0.012120944075186537,0.0014589922199514627
0.2625,6.327621975456797e-05,-0.7849638400000004,1.0903461501287418e-05,-2.3561152749999894,0.00019548869249551108,1.5710571499999963,0.7859912750000003,0.03999999625,0.04,-9.816196750000158,-0.0022976759355170613,-0.006464660874874342,0.001434209874952484,-0.012196340830895823,0.001495645799950996
0.265,5.985950970461148e-05,-0.7849635160000005,9.94051160129968e-06,-2.3561233299999893,0.00019884626699546835,1.5710598199999963,0.7859909900000004,0.0399999955,0.04,-9.81607870000016,-0.0023234350606451334,-0.006558649149873146,0.0014697504099520317,-0.012271737586605108,0.0015322993799505294
0.2675,5.624438635546595e-05,-0.7849635924999988,8.921664301540407e-06,-2.3561315849999884,0.00020239815299463138,1.5710626149999958,0.7859907035000003,0.039999994750000004,0.0399999995,-9.815971250000118,-0.0023437051102392355,-0.006642290249914241,0.0015064146049469864,-0.012347493553429949,0.0015702727549446684
0.27,5.223243640551703e-05,-0.7849644699999988,7.791022201554802e-06,-2.3561402399999882,0.00020633866199458122,1.5710656599999957,0.7859904140000004,0.039999994000000004,0.039999998,-9.815885000000119,-0.0023529970086983024,-0.006705236999913439,0.001545326119946491,-0.012423967942490295,0.0016108857199441512
0.2725,4.822048645556811e-05,-0.7849653474999988,6.660380101569197e-06,-2.356148894999988,0.00021027917099453105,1.5710687049999958,0.7859901245000004,0.039999993250000004,0.0399999965,-9.81579875000012,-0.002362288907157369,-0.006768183749912638,0.0015842376349459954,-0.012500442331550642,0.001651498684943634
0.275,4.420853650561919e-05,-0.7849662249999988,5.529738001583592e-06,-2.356157549999988,0.00021421967999448087,1.5710717499999958,0.7859898350000004,0.039999992500000005,0.039999995,-9.81571250000012,-0.0023715808056164354,-0.006831130499911836,0.0016231491499455,-0.012576916720610988,0.001692111649943117
0.2775,4.0196586555670265e-05,-0.7849671024999988,4.399095901597988e-06,-2.3561662049999876,0.00021816018899443069,1.5710747949999957,0.7859895455000003,0.039999991750000005,0.039999993500000004,-9.815626250000122,-0.0023808727040755024,-0.006894077249911035,0.0016620606649450046,-0.012653391109671334,0.0017327246149425998
0.28,3.618463660572135e-05,-0.7849679799999988,3.2684538016123825e-06,-2.3561748599999874,0.00022210069799438053,1.5710778399999956,0.7859892560000004,0.039999991,0.039999992000000005,-9.815540000000123,-0.002390164602534569,-0.006957023999910233,0.0017009721799445092,-0.012729865498731681,0.001773337579942083
0.28250000000000003,3.2172686655772426e-05,-0.7849688574999988,2.137811701626778e-06,-2.3561835149999877,0.00022604120699433035,1.5710808849999955,0.7859889665000004,0.03999999025,0.0399999905,-9.815453750000124,-0.002399456500993636,-0.007019970749909432,0.0017398836949440136,-0.012806339887792027,0.0018139505449415658
0.28500000000000003,2.7726960512767974e-05,-0.784970544999997,8.849518019072797e-07,-2.356192289999987,0.00023040651299335526,1.5710843099999947,0.7859886790000004,0.039999989799999996,0.0399999894,-9.815392000000072,-0.0024180764099244324,-0.007096601999878834,0.0017810510799386066,-0.012883591093010183,0.001857067819935596
0.28750000000000003,2.306434627182734e-05,-0.7849726374999969,-4.29016998075991e-07,-2.356201124999987,0.00023498421749329698,1.5710879249999947,0.7859883925000004,0.0399999895,0.0399999885,-9.815342500000073,-0.002441360324121381,-0.007180075499877772,0.001823346399938068,-0.012961230706309763,0.0019014372499350312
0.29,1.8401732030886807e-05,-0.784974729999997,-1.742985798059232e-06,-2.356209959999987,0.0002395619219932386,1.5710915399999947,0.7859881060000004,0.0399999892,0.0399999876,-9.815293000000073,-0.002464644238318329,-0.007263548999876707,0.0018656417199375286,-0.013038870319609343,0.0019458066799344653
0.2925,1.3739117789946174e-05,-0.7849768224999969,-3.056954598042503e-06,-2.356218794999987,0.00024413962649318032,1.5710951549999945,0.7859878195000004,0.0399999889,0.039999986700000004,-9.815243500000074,-0.0024879281525152777,-0.007347022499875644,0.00190793703993699,-0.013116509932908926,0.0019901761099339003
0.295,9.076503549005538e-06,-0.7849789149999968,-4.370923398025773e-06,-2.3562276299999865,0.00024871733099312204,1.5710987699999945,0.7859875330000005,0.0399999886,0.039999985800000006,-9.815194000000075,-0.002511212066712226,-0.007430495999874581,0.0019502323599364514,-0.013194149546208506,0.0020345455399333355
0.2975,4.413889308064902e-06,-0.7849810074999969,-5.684892198009043e-06,-2.3562364649999865,0.00025329503549306374,1.5711023849999943,0.7859872465000004,0.0399999883,0.0399999849,-9.815144500000075,-0.0025344959809091745,-0.007513969499873519,0.001992527679935913,-0.013271789159508088,0.0020789149699327707
0.3,-2.487249328757339e-07,-0.7849830999999968,-6.998860997992313e-06,-2.3562452999999866,0.0002578727399930055,1.5711059999999943,0.7859869600000005,0.039999988,0.039999984,-9.815095000000076,-0.0025577798951061234,-0.007597442999872456,0.0020348229999353745,-0.01334942877280767,0.0021232843999322054
0.3025,-5.6180890907274874e-06,-0.7849864974999948,-8.511919397668849e-06,-2.3562550199999848,0.00026314217399188146,1.5711101999999935,0.7859866735000004,0.0399999874,0.0399999834,-9.814981900000173,-0.002566864690729368,-0.007663546799898155,0.0020805494799295498,-0.013426053896428279,0.00217132146492599
0.305,-1.0987453249659123e-05,-0.7849898949999947,-1.0024977797649585e-05,-2.3562647399999848,0.00026841160799181437,1.5711143999999935,0.7859863870000005,0.039999986800000005,0.0399999828,-9.814868800000175,-0.0025759494863309175,-0.007729650599897313,0.0021262759599289674,-0.013502679020047339,0.002219358529925378
0.3075,-1.6356817408590763e-05,-0.7849932924999947,-1.153803619763032e-05,-2.3562744599999847,0.0002736810419917473,1.5711185999999935,0.7859861005000004,0.039999986200000004,0.0399999822,-9.814755700000177,-0.002585034281932467,-0.007795754399896471,0.002172002439928385,-0.013579304143666399,0.0022673955949247667
0.31,-2.17261815675224e-05,-0.7849966899999946,-1.3051094597611056e-05,-2.3562841799999847,0.0002789504759916802,1.5711227999999933,0.7859858140000004,0.0399999856,0.0399999816,-9.814642600000179,-0.0025941190775340163,-0.007861858199895629,0.002217728919927803,-0.013655929267285458,0.002315432659924155
0.3125,-2.7095545726454034e-05,-0.7850000874999946,-1.4564152997591792e-05,-2.3562938999999843,0.0002842199099916131,1.5711269999999933,0.7859855275000004,0.039999985,0.039999981,-9.81452950000018,-0.0026032038731355653,-0.007927961999894787,0.002263455399927221,-0.013732554390904516,0.0023634697249235435
0.315,-3.246490988538567e-05,-0.7850034849999945,-1.6077211397572528e-05,-2.3563036199999843,0.000289489343991546,1.5711311999999933,0.7859852410000004,0.0399999844,0.039999980399999996,-9.814416400000182,-0.0026122886687371147,-0.007994065799893946,0.0023091818799266385,-0.013809179514523576,0.0024115067899229316
0.3175,-3.80887266900829e-05,-0.7850073354999922,-1.76619548972055e-05,-2.3563134249999838,0.0002950078329902707,1.571135649999992,0.7859848595000009,0.03999998365,0.0399999795,-9.814329700000055,-0.0026180107379348127,-0.008055332899916568,0.0023560347199205922,-0.013886424666143678,0.0024608652549159096
0.32,-4.4221448790004815e-05,-0.7850120919999922,-1.9390068597183498e-05,-2.3563233999999835,0.00030102443199019405,1.571140599999992,0.7859842880000009,0.039999982600000004,0.039999978,-9.814295800000055,-0.0026170073542759954,-0.008106926599915912,0.002405140279919967,-0.013964909873774864,0.0025128665199152475
0.3225,-5.0354170889926734e-05,-0.7850168484999921,-2.1118182297161497e-05,-2.3563333749999837,0.00030704103099011746,1.5711455499999918,0.7859837165000009,0.03999998155,0.0399999765,-9.814261900000055,-0.002616003970617178,-0.008158520299915255,0.002454245839919342,-0.01404339508140605,0.0025648677849145858
0.325,-5.648689298984865e-05,-0.7850216049999921,-2.2846295997139496e-05,-2.3563433499999835,0.00031305762999004087,1.571150499999992,0.785983145000001,0.039999980500000004,0.039999975,-9.814228000000057,-0.002615000586958361,-0.008210113999914599,0.0025033513999187166,-0.014121880289037235,0.0026168690499139237
0.3275,-6.261961508977057e-05,-0.785026361499992,-2.457440969711749e-05,-2.3563533249999833,0.0003190742289899643,1.5711554499999918,0.785982573500001,0.03999997945,0.0399999735,-9.814194100000057,-0.0026139972032995437,-0.008261707699913941,0.0025524569599180915,-0.014200365496668421,0.0026688703149132615
0.33,-6.875233718969249e-05,-0.7850311179999919,-2.630252339709549e-05,-2.356363299999983,0.0003250908279898877,1.5711603999999917,0.785982002000001,0.039999978400000004,0.039999972,-9.814160200000057,-0.0026129938196407265,-0.008313301399913285,0.0026015625199174663,-0.014278850704299607,0.0027208715799125994
0.3325,-7.488505928961441e-05,-0.7850358744999919,-2.803063709707349e-05,-2.356373274999983,0.00033110742698981105,1.5711653499999916,0.785981430500001,0.03999997735,0.0399999705,-9.814126300000057,-0.0026119904359819092,-0.008364895099912627,0.002650668079916841,-0.014357335911930794,0.0027728728449119373
0.335,-8.156465198813672e-05,-0.7850415189999895,-2.9912811496657195e-05,-2.356383919999981,0.0003376590939883651,1.5711707799999903,0.785980856000001,0.039999976300000004,0.039999969,-9.81402140000024,-0.0025973748416073497,-0.008401555399950189,0.0027029480399080917,-0.014434483460951482,0.0028273532599049304
0.3375,-8.851767998804819e-05,-0.7850476074999895,-3.187201624663225e-05,-2.356394899999981,0.0003444782949882782,1.5711764499999903,0.785980280000001,0.03999997525,0.039999967500000004,-9.81388100000024,-0.0025759531418229225,-0.008430748999949817,0.002756815199907406,-0.014510962180661814,0.002883073249904221
0.34,-9.547070798795966e-05,-0.7850536959999894,-3.383122099660731e-05,-2.356405879999981,0.0003512974959881914,1.5711821199999902,0.7859797040000011,0.0399999742,0.039999966000000005,-9.813740600000243,-0.0025545314420384953,-0.008459942599949446,0.00281068235990672,-0.014587440900372145,0.0029387932399035114
0.3425,-0.00010242373598787114,-0.7850597844999894,-3.579042574658236e-05,-2.356416859999981,0.0003581166969881046,1.5711877899999902,0.785979128000001,0.03999997315,0.039999964500000006,-9.813600200000245,-0.002533109742254068,-0.008489136199949074,0.002864549519906034,-0.014663919620082476,0.002994513229902802
0.34500000000000003,-0.00010937676398778261,-0.7850658729999893,-3.7749630496557416e-05,-2.3564278399999807,0.00036493589798801775,1.5711934599999902,0.7859785520000011,0.0399999721,0.039999963000000006,-9.813459800000246,-0.002511688042469641,-0.008518329799948703,0.0029184166799053482,-0.014740398339792807,0.0030502332199020925
0.34750000000000003,-0.0001163297919876941,-0.7850719614999891,-3.970883524653247e-05,-2.3564388199999806,0.00037175509898793095,1.5711991299999901,0.7859779760000011,0.039999971050000006,0.03999996150000001,-9.813319400000248,-0.0024902663426852136,-0.008547523399948331,0.0029722838399046624,-0.014816877059503138,0.003105953209901383
0.35000000000000003,-0.00012328281998760557,-0.7850780499999891,-4.1668039996507525e-05,-2.3564497999999805,0.00037857429998784415,1.5712047999999899,0.785977400000001,0.03999997,0.03999996,-9.81317900000025,-0.002468844642900786,-0.00857671699994796,0.0030261509999039765,-0.01489335577921347,0.0031616731999006735
0.3525,-0.0001311133269859415,-0.7850855964999864,-4.387442674603876e-05,-2.3564612899999795,0.00038625198998621583,1.5712112049999885,0.7859768300000011,0.0399999694,0.039999959700000004,-9.813164150000027,-0.002464231697385027,-0.00862512469991309,0.003083435699897154,-0.01497224667095384,0.0032212645098930125
0.355,-0.0001389438339858418,-0.7850931429999863,-4.6080813496010666e-05,-2.3564727799999794,0.0003939296799861181,1.5712176099999884,0.7859762600000011,0.0399999688,0.0399999594,-9.813149300000026,-0.0024596187518992306,-0.008673532399912474,0.0031407203998964246,-0.015051137562698508,0.003280855819892254
0.3575,-0.0001467743409857421,-0.7851006894999862,-4.828720024598258e-05,-2.356484269999979,0.00040160736998602034,1.5712240149999883,0.7859756900000011,0.0399999682,0.0399999591,-9.813134450000026,-0.0024550058064134344,-0.00872194009991186,0.003198005099895695,-0.01513002845444318,0.003340447129891495
0.36,-0.0001546048479856424,-0.7851082359999861,-5.049358699595449e-05,-2.3564957599999787,0.0004092850599859226,1.5712304199999882,0.7859751200000011,0.0399999676,0.0399999588,-9.813119600000027,-0.0024503928609276382,-0.008770347799911243,0.0032552897998949656,-0.015208919346187849,0.0034000384398907364
0.3625,-0.0001624353549855427,-0.785115782499986,-5.269997374592639e-05,-2.3565072499999786,0.00041696274998582485,1.5712368249999882,0.785974550000001,0.039999967,0.0399999585,-9.813104750000027,-0.002445779915441842,-0.008818755499910626,0.0033125744998942362,-0.01528781023793252,0.003459629749889978
0.365,-0.000170265861985443,-0.7851233289999859,-5.49063604958983e-05,-2.3565187399999785,0.0004246404399857271,1.5712432299999881,0.7859739800000011,0.039999966399999996,0.039999958200000005,-9.813089900000026,-0.0024411669699560454,-0.00886716319991001,0.003369859199893507,-0.01536670112967719,0.003519221059889219
0.3675,-0.00017840794798359373,-0.785131384499983,-5.720051444537738e-05,-2.3565304999999768,0.0004326229229839179,1.5712498499999867,0.7859734100000011,0.0399999657,0.039999957800000006,-9.813044450000199,-0.0024285851279807016,-0.008904723499970305,0.0034282710648864483,-0.015445422474148108,0.003580103339881211
0.37,-0.00018717319198348212,-0.7851404579999829,-5.9670202795345935e-05,-2.3565427999999766,0.00044121499198380846,1.5712568999999867,0.7859728400000011,0.0399999648,0.039999957200000005,-9.812937800000201,-0.0024000654928923244,-0.008920588999970102,0.003488937259885676,-0.01552380472406867,0.0036435675598804032
0.3725,-0.00019593843598337052,-0.7851495314999828,-6.213989114531449e-05,-2.3565550999999765,0.0004498070609836991,1.5712639499999865,0.7859722700000011,0.0399999639,0.039999956600000004,-9.812831150000202,-0.0023715458578039477,-0.0089364544999699,0.0035496034548849037,-0.015602186973989232,0.0037070317798795953
0.375,-0.00020470367998325892,-0.7851586049999827,-6.460957949528304e-05,-2.3565673999999763,0.00045839912998358966,1.5712709999999865,0.7859717000000012,0.039999963,0.039999956,-9.812724500000204,-0.002343026222715571,-0.0089523199999697,0.003610269649884131,-0.015680569223909795,0.0037704959998787874
0.3775,-0.00021346892398314731,-0.7851676784999826,-6.707926784525159e-05,-2.356579699999976,0.0004669911989834803,1.5712780499999865,0.7859711300000012,0.0399999621,0.0399999554,-9.812617850000205,-0.002314506587627194,-0.008968185499969496,0.0036709358448833588,-0.015758951473830357,0.0038339602198779795
0.38,-0.0002222341679830357,-0.7851767519999825,-6.954895619522015e-05,-2.356591999999976,0.0004755832679833709,1.5712850999999863,0.7859705600000012,0.0399999612,0.0399999548,-9.812511200000207,-0.002285986952538817,-0.008984050999969295,0.0037316020398825865,-0.01583733372375092,0.0038974244398771716
0.3825,-0.00023099941198292414,-0.7851858254999824,-7.20186445451887e-05,-2.356604299999976,0.0004841753369832615,1.5712921499999863,0.7859699900000011,0.039999960300000005,0.0399999542,-9.812404550000208,-0.00225746731745044,-0.008999916499969092,0.003792268234881814,-0.01591571597367148,0.003960888659876364
0.385,-0.00024042599698086733,-0.7851959249999793,-7.467462809460932e-05,-2.3566173399999735,0.0004934143239812493,1.5712997999999845,0.7859692300000017,0.0399999598,0.0399999533,-9.812322700000136,-0.0022213960998541346,-0.00900382840000405,0.003855188469874412,-0.015994919463835928,0.004027020459867709
0.3875,-0.0002501832524807431,-0.785206537499979,-7.742375924457431e-05,-2.3566307499999732,0.0005029767699811276,1.5713077499999843,0.7859683750000017,0.0399999595,0.03999995225,-9.812253250000138,-0.002181549090970692,-0.009001763500004076,0.003919235724873596,-0.016074533574125922,0.00409448604986685
0.39,-0.00025994050798061884,-0.7852171499999789,-8.017289039453931e-05,-2.3566441599999735,0.0005125392159810059,1.5713156999999842,0.7859675200000017,0.039999959200000004,0.0399999512,-9.812183800000138,-0.0021417020820872494,-0.008999698600004102,0.003983282979872781,-0.01615414768441592,0.0041619516398659915
0.3925,-0.00026969776348049465,-0.7852277624999788,-8.292202154450432e-05,-2.3566575699999732,0.000522101661980884,1.571323649999984,0.7859666650000018,0.0399999589,0.039999950150000005,-9.812114350000138,-0.002101855073203807,-0.008997633700004129,0.004047330234871966,-0.016233761794705915,0.004229417229865132
0.395,-0.0002794550189803704,-0.7852383749999786,-8.56711526944693e-05,-2.356670979999973,0.0005316641079807623,1.571331599999984,0.7859658100000018,0.0399999586,0.0399999491,-9.81204490000014,-0.0020620080643203643,-0.008995568800004154,0.00411137748987115,-0.016313375904995913,0.004296882819864273
0.3975,-0.00028921227448024616,-0.7852489874999785,-8.842028384443431e-05,-2.3566843899999728,0.0005412265539806406,1.5713395499999838,0.7859649550000017,0.0399999583,0.039999948050000005,-9.81197545000014,-0.0020221610554369213,-0.00899350390000418,0.004175424744870335,-0.016392990015285908,0.004364348409863415
0.4,-0.0002989695299801219,-0.7852595999999783,-9.116941499439931e-05,-2.3566977999999725,0.0005507889999805188,1.5713474999999837,0.7859641000000018,0.039999958,0.039999947,-9.811906000000143,-0.0019823140465534787,-0.008991439000004207,0.0042394719998695195,-0.016472604125575906,0.004431813999862555
0.4025,-0.000309775912477847,-0.7852718399999749,-9.421407584375847e-05,-2.3567123499999703,0.0005613774039782938,1.5713562749999819,0.7859632375000019,0.0399999583,0.03999994745,-9.81186745000008,-0.0019160239492970492,-0.008968624600046769,0.004308164439859181,-0.016554149426352652,0.00450300954985405
0.405,-0.00032058229497770944,-0.7852840799999747,-9.725873669371971e-05,-2.35672689999997,0.000571965807978159,1.5713650499999818,0.7859623750000019,0.0399999586,0.0399999479,-9.81182890000008,-0.0018497338519867482,-0.00894581020004706,0.004376856879858306,-0.016635694727133332,0.004574205099853144
0.40750000000000003,-0.0003313886774775718,-0.7852963199999745,-0.00010030339754368095,-2.3567414499999697,0.0005825542119780242,1.5713738249999818,0.7859615125000018,0.0399999589,0.03999994835,-9.81179035000008,-0.0017834437546764472,-0.00892299580004735,0.004445549319857432,-0.016717240027914016,0.004645400649852237
0.41000000000000003,-0.00034219505997743426,-0.7853085599999744,-0.00010334805839364218,-2.3567559999999697,0.0005931426159778894,1.5713825999999818,0.7859606500000018,0.039999959200000004,0.0399999488,-9.81175180000008,-0.0017171536573661462,-0.008900181400047641,0.0045142417598565574,-0.016798785328694697,0.004716596199851331
0.41250000000000003,-0.00035300144247729664,-0.7853207999999743,-0.00010639271924360342,-2.356770549999969,0.0006037310199777546,1.5713913749999815,0.7859597875000018,0.0399999595,0.03999994925,-9.81171325000008,-0.0016508635600558453,-0.008877367000047931,0.004582934199855683,-0.01688033062947538,0.0047877917498504235
0.41500000000000004,-0.0003638078249771591,-0.7853330399999741,-0.00010943738009356466,-2.356785099999969,0.0006143194239776198,1.5714001499999815,0.7859589250000019,0.0399999598,0.039999949699999995,-9.811674700000081,-0.0015845734627455443,-0.008854552600048221,0.004651626639854808,-0.01696187593025606,0.004858987299849517
0.4175,-0.00037498290097466927,-0.7853458299999704,-0.0001125858947928633,-2.3568000349999663,0.0006252683819751847,1.5714092249999796,0.7859580625000019,0.0399999603,0.039999950199999995,-9.811635300000086,-0.0015247503296537356,-0.008837727150010308,0.004721437319846798,-0.017044035158874014,0.004931465649840426
0.42,-0.0003868953639745176,-0.7853597199999702,-0.00011594211719282057,-2.3568157399999663,0.0006369384479750361,1.5714188999999794,0.7859572000000019,0.039999961199999996,0.039999950799999996,-9.811594200000087,-0.0014778611251224224,-0.00883287960001037,0.004793484479845881,-0.01712742224317824,0.005006509599839471
0.4225,-0.00039880782697436593,-0.7853736099999701,-0.00011929833959277784,-2.356831444999966,0.0006486085139748876,1.5714285749999792,0.7859563375000018,0.0399999621,0.0399999514,-9.811553100000088,-0.0014309719205911095,-0.008828032050010431,0.004865531639844964,-0.017210809327482472,0.005081553549838515
0.425,-0.0004107202899742143,-0.7853874999999699,-0.00012265456199273513,-2.356847149999966,0.000660278579974739,1.571438249999979,0.7859554750000018,0.039999963,0.039999952,-9.81151200000009,-0.0013840827160597965,-0.008823184500010493,0.004937578799844046,-0.0172941964117867,0.00515659749983756
0.4275,-0.0004226327529740626,-0.7854013899999697,-0.00012601078439269237,-2.3568628549999655,0.0006719486459745903,1.5714479249999789,0.7859546125000019,0.0399999639,0.0399999526,-9.811470900000089,-0.0013371935115284836,-0.008818336950010556,0.005009625959843129,-0.017377583496090927,0.005231641449836604
0.43,-0.0004345452159739109,-0.7854152799999695,-0.00012936700679264964,-2.3568785599999655,0.0006836187119744418,1.571457599999979,0.7859537500000019,0.039999964799999996,0.039999953199999994,-9.81142980000009,-0.0012903043069971707,-0.008813489400010617,0.005081673119842212,-0.017460970580395155,0.005306685399835648
0.4325,-0.00044645767897375925,-0.7854291699999694,-0.0001327232291926069,-2.356894264999965,0.0006952887779742932,1.5714672749999787,0.7859528875000019,0.039999965699999994,0.039999953799999995,-9.81138870000009,-0.0012434151024658575,-0.008808641850010679,0.005153720279841294,-0.017544357664699386,0.005381729349834693
0.435,-0.0004591452799710316,-0.7854442339999653,-0.00013629779799183856,-2.3569107299999628,0.0007077168429716256,1.5714776199999763,0.7859519500000022,0.039999966,0.0399999536,-9.811345800000097,-0.001176687004214405,-0.008785675400070955,0.005227936459833169,-0.017629037610997395,0.00545941166982497
0.4375,-0.0004722204499708651,-0.7854598849999651,-0.00013998153999179167,-2.3569275749999625,0.0007205239074714625,1.5714882999999762,0.7859509750000022,0.039999966,0.039999953,-9.811302000000097,-0.001100039459004366,-0.008753649500071363,0.00530323714983221,-0.01771436398829872,0.005538413174823963
0.44,-0.00048529561997069865,-0.7854755359999649,-0.00014366528199174475,-2.3569444199999623,0.0007333309719712995,1.5714989799999761,0.7859500000000021,0.039999966,0.0399999524,-9.811258200000099,-0.0010233919137943267,-0.008721623600071771,0.0053785378398312515,-0.017799690365600043,0.005617414679822958
0.4425,-0.0004983707899705322,-0.7854911869999647,-0.00014734902399169786,-2.356961264999962,0.0007461380364711364,1.571509659999976,0.7859490250000022,0.039999966,0.0399999518,-9.811214400000098,-0.0009467443685842877,-0.008689597700072178,0.005453838529830292,-0.01788501674290137,0.005696416184821952
0.445,-0.0005114459599703657,-0.7855068379999645,-0.00015103276599165097,-2.356978109999962,0.0007589451009709734,1.5715203399999758,0.7859480500000022,0.039999966,0.0399999512,-9.8111706000001,-0.0008700968233742484,-0.008657571800072586,0.005529139219829334,-0.01797034312020269,0.005775417689820947
0.4475,-0.0005245211299701992,-0.7855224889999644,-0.00015471650799160405,-2.3569949549999616,0.0007717521654708103,1.5715310199999757,0.7859470750000022,0.039999966,0.0399999506,-9.8111268000001,-0.0007934492781642093,-0.008625545900072994,0.005604439909828375,-0.018055669497504017,0.00585441919481994
0.45,-0.0005375962999700327,-0.7855381399999641,-0.00015840024999155716,-2.3570117999999614,0.0007845592299706472,1.5715416999999756,0.7859461000000022,0.039999966,0.03999995,-9.811083000000101,-0.0007168017329541702,-0.008593520000073402,0.005679740599827417,-0.01814099587480534,0.005933420699818935
0.4525,-0.0005518904749666669,-0.7855555639999594,-0.00016242735699060904,-2.3570299349999577,0.0007985580804673555,1.571553279999973,0.7859449510000026,0.0399999651,0.039999949550000004,-9.811025325000134,-0.0006081184840501166,-0.008525077850159603,0.0057588442098155355,-0.018227452970839532,0.006016086104807229
0.455,-0.0005661846499660949,-0.7855729879999587,-0.00016645446399044789,-2.357048069999957,0.0008125569309667954,1.5715648599999725,0.7859438020000027,0.0399999642,0.0399999491,-9.810967650000137,-0.0004994352350726396,-0.008456635700162342,0.00583794781981237,-0.01831391006687632,0.006098751509803921
0.4575,-0.0005804788249655228,-0.7855904119999579,-0.00017048157099028673,-2.3570662049999562,0.0008265557814662351,1.571576439999972,0.7859426530000028,0.039999963300000003,0.03999994865,-9.81090997500014,-0.0003907519860951628,-0.00838819355016508,0.005917051429809204,-0.018400367162913104,0.006181416914800613
0.46,-0.0005947729999649508,-0.7856078359999573,-0.00017450867799012558,-2.3570843399999557,0.000840554631965675,1.5715880199999717,0.7859415040000028,0.039999962400000005,0.0399999482,-9.810852300000143,-0.00028206873711768586,-0.00831975140016782,0.005996155039806039,-0.018486824258949888,0.006264082319797306
0.4625,-0.0006090671749643788,-0.7856252599999566,-0.00017853578498996443,-2.3571024749999547,0.0008545534824651148,1.5715995999999712,0.7859403550000029,0.0399999615,0.03999994775,-9.810794625000144,-0.00017338548814020889,-0.008251309250170558,0.006075258649802874,-0.018573281354986673,0.006346747724793997
0.465,-0.0006233613499638069,-0.785642683999956,-0.00018256289198980325,-2.357120609999954,0.0008685523329645546,1.5716111799999708,0.7859392060000029,0.0399999606,0.039999947300000005,-9.810736950000146,-6.470223916273197e-05,-0.008182867100173297,0.006154362259799708,-0.018659738451023457,0.006429413129790689
0.4675,-0.0006380804664602391,-0.7856607299999507,-0.00018670969848879829,-2.3571391649999507,0.0008829666549610659,1.5716231149999678,0.7859380580000029,0.0399999603,0.03999994715,-9.8106854250001,3.6452663842498214e-05,-0.008122842500110299,0.006234777014787936,-0.018746983259689397,0.0065133345647792615
0.47000000000000003,-0.0006536494659604657,-0.7856800199999511,-0.0001910959039888621,-2.357158559999951,0.0008982119199612877,1.571635759999968,0.7859369120000029,0.039999961199999996,0.0399999476,-9.8106462000001,0.0001225508747298701,-0.00807965300010967,0.006317814059789145,-0.01883580349363178,0.00659976805978052
0.47250000000000003,-0.0006692184654606923,-0.7856993099999513,-0.00019548210948892595,-2.357177954999951,0.0009134571849615095,1.5716484049999682,0.7859357660000029,0.039999962099999994,0.03999994805,-9.8106069750001,0.00020864908561724202,-0.008036463500109042,0.0064008511047903525,-0.018924623727574162,0.006686201554781778
0.47500000000000003,-0.0006847874649609188,-0.7857185999999515,-0.00019986831498898977,-2.3571973499999515,0.0009287024499617315,1.5716610499999684,0.7859346200000029,0.039999963,0.0399999485,-9.810567750000098,0.00029474729650461393,-0.007993274000108413,0.006483888149791561,-0.019013443961516545,0.006772635049783035
0.47750000000000004,-0.0007003564644611454,-0.7857378899999519,-0.00020425452048905362,-2.3572167449999517,0.0009439477149619533,1.5716736949999683,0.7859334740000029,0.0399999639,0.039999948949999996,-9.810528525000098,0.00038084550739198584,-0.007950084500107785,0.006566925194792769,-0.019102264195458928,0.0068590685447842935
0.48,-0.0007159254639613716,-0.7857571799999521,-0.00020864072598911736,-2.357236139999952,0.0009591929799621749,1.5716863399999685,0.7859323280000029,0.039999964799999996,0.0399999494,-9.810489300000098,0.0004669437182793558,-0.007906895000107158,0.006649962239793976,-0.019191084429401307,0.006945502039785549
0.4825,-0.0007314944634615982,-0.7857764699999523,-0.00021302693148918117,-2.357255534999952,0.0009744382449623967,1.5716989849999687,0.7859311820000029,0.039999965699999994,0.03999994985,-9.810450075000096,0.0005530419291667277,-0.00786370550010653,0.006732999284795184,-0.01927990466334369,0.007031935534786807
0.485,-0.0007479502109582559,-0.7857970499999475,-0.00021766292998823966,-2.3572759599999484,0.0009905504799591288,1.571712369999966,0.7859299400000033,0.039999966399999996,0.03999995,-9.810402100000129,0.000662045180500011,-0.007797392300192367,0.006818115469787178,-0.01936968173809406,0.00712094179977696
0.4875,-0.0007648493324580407,-0.7858182749999473,-0.00022242382498817906,-2.357296899999948,0.0010070961999589182,1.571726124999966,0.7859286500000032,0.039999967,0.03999995,-9.81034975000013,0.0007825009521831174,-0.007719517250193359,0.006904271224786081,-0.01945993723325373,0.007211234449775811
0.49,-0.0007817484539578255,-0.785839499999947,-0.00022718471998811845,-2.357317839999948,0.0010236419199587076,1.5717398799999656,0.7859273600000033,0.0399999676,0.03999995,-9.810297400000131,0.0009029567238662238,-0.0076416422001943495,0.006990426979784985,-0.019550192728413393,0.007301527099774661
0.4925,-0.0007986475754576104,-0.7858607249999467,-0.00023194561498805782,-2.3573387799999477,0.001040187639958497,1.5717536349999655,0.7859260700000033,0.0399999682,0.03999995,-9.810245050000132,0.00102341249554933,-0.007563767150195341,0.007076582734783888,-0.01964044822357306,0.0073918197497735115
0.495,-0.0008155466969573952,-0.7858819499999464,-0.00023670650998799722,-2.3573597199999474,0.001056733359958286,1.5717673899999653,0.7859247800000033,0.0399999688,0.03999995,-9.810192700000131,0.0011438682672324364,-0.007485892100196333,0.007162738489782791,-0.019730703718732725,0.007482112399772362
0.4975,-0.0008324458184571801,-0.7859031749999462,-0.00024146740498793662,-2.357380659999947,0.0010732790799580754,1.5717811449999652,0.7859234900000033,0.0399999694,0.03999995,-9.810140350000133,0.001264324038915543,-0.007408017050197324,0.007248894244781694,-0.019820959213892392,0.007572405049771212
0.5,-0.0008493449399569649,-0.7859243999999459,-0.000246228299987876,-2.357401599999947,0.0010898247999578648,1.571794899999965,0.7859222000000033,0.03999997,0.03999995,-9.810088000000134,0.001384779810598649,-0.007330142000198316,0.0073350499997805975,-0.019911214709052057,0.007662697699770063
0.5025000000000001,-0.0008676290189532056,-0.7859475974999406,-0.000251379323986817,-2.3574242049999423,0.0011077242999541898,1.5718097649999618,0.7859207750000037,0.03999997045,0.0399999506,-9.810061150000069,0.001520855538198732,-0.007236107660240662,0.0074249023997700414,-0.02000387050187713,0.007756549444759806
0.505,-0.0008859130979529724,-0.7859707949999403,-0.0002565303479867513,-2.357446809999942,0.0011256237999539617,1.5718246299999616,0.7859193500000037,0.0399999709,0.039999951199999995,-9.81003430000007,0.0016569312658385865,-0.007142073320241861,0.007514754799768895,-0.020096526294708313,0.007850401189758608
0.5075000000000001,-0.00090419717695274,-0.7859939924999401,-0.00026168137198668586,-2.3574694149999416,0.0011435232999537342,1.5718394949999615,0.7859179250000037,0.03999997135,0.039999951799999996,-9.81000745000007,0.0017930069934784468,-0.007048038980243056,0.007604607199767753,-0.020189182087539503,0.007944252934757416
0.51,-0.0009224812559525069,-0.7860171899999397,-0.00026683239598662017,-2.3574920199999414,0.0011614227999535058,1.5718543599999613,0.7859165000000037,0.0399999718,0.0399999524,-9.809980600000069,0.0019290827211183013,-0.006954004640244256,0.007694459599766607,-0.020281837880370683,0.008038104679756219
0.5125,-0.0009407653349522737,-0.7860403874999394,-0.00027198341998655443,-2.3575146249999412,0.0011793222999532775,1.571869224999961,0.7859150750000038,0.03999997225,0.039999953,-9.80995375000007,0.0020651584487581557,-0.006859970300245454,0.007784311999765461,-0.020374493673201866,0.008131956424755022
0.515,-0.0009590494139520413,-0.7860635849999391,-0.00027713444398648897,-2.3575372299999406,0.00119722179995305,1.5718840899999609,0.7859136500000038,0.0399999727,0.0399999536,-9.80992690000007,0.0022012341763980162,-0.006765935960246649,0.00787416439976432,-0.020467149466033056,0.008225808169753828
0.5175,-0.000977813189948015,-0.7860874689999334,-0.0002824205919853548,-2.357560284999937,0.0012155902399491139,1.5718993499999576,0.7859122230000037,0.039999973,0.039999954,-9.809904500000036,0.0023505293293880724,-0.006660343350339243,0.007965247799753439,-0.02056075092379903,0.008320875299743022
0.52,-0.0009975363599477643,-0.7861127259999331,-0.0002879769879852842,-2.3575842399999365,0.0012348965599488684,1.5719153999999573,0.7859107920000038,0.039999973,0.039999954,-9.809891000000036,0.002526263333391619,-0.006531634200340878,0.008058793199752251,-0.020656243711456992,0.008418373199741782
0.5225,-0.0010172595299475127,-0.7861379829999328,-0.0002935333839852133,-2.357608194999936,0.0012542028799486223,1.5719314499999573,0.7859093610000039,0.039999973,0.039999954,-9.809877500000034,0.002701997337395157,-0.00640292505034252,0.008152338599751058,-0.020751736499114947,0.008515871099740538
0.525,-0.0010369826999472621,-0.7861632399999324,-0.0002990897799851427,-2.3576321499999358,0.0012735091999483768,1.571947499999957,0.7859079300000038,0.039999973,0.039999954,-9.809864000000035,0.0028777313413987037,-0.006274215900344156,0.008245883999749869,-0.02084722928677291,0.0086133689997393
0.5275,-0.0010567058699470105,-0.7861884969999321,-0.00030464617598507184,-2.3576561049999354,0.0012928155199481307,1.571963549999957,0.7859064990000039,0.039999973,0.039999954,-9.809850500000035,0.0030534653454022424,-0.006145506750345798,0.008339429399748676,-0.020942722074430868,0.008710866899738056
0.53,-0.00107642903994676,-0.7862137539999318,-0.00031020257198500123,-2.357680059999935,0.0013121218399478852,1.5719795999999566,0.7859050680000039,0.039999973,0.039999954,-9.809837000000035,0.003229199349405789,-0.006016797600347434,0.008432974799747486,-0.021038214862088827,0.008808364799736818
0.5325,-0.0010961522099465083,-0.7862390109999314,-0.00031575896798493035,-2.3577040149999346,0.001331428159947639,1.5719956499999566,0.7859036370000039,0.039999973,0.039999954,-9.809823500000036,0.0034049333534093276,-0.005888088450349075,0.008526520199746293,-0.021133707649746786,0.008905862699735574
0.535,-0.0011168704499421906,-0.7862656769999254,-0.0003215956639837141,-2.3577291699999297,0.0013517071299434182,1.5720125399999527,0.7859020390000047,0.039999973,0.0399999536,-9.809778900000163,0.003562637604367826,-0.0057767309602797905,0.008622059299736955,-0.021230019815002537,0.009005843199724188
0.5375,-0.00113808622494192,-0.786293047499925,-0.0003275725099836379,-2.3577549249999294,0.0013724724249431532,1.5720298499999525,0.7859003575000046,0.039999973,0.039999953,-9.809718750000163,0.0037113269786935997,-0.0056740493002811,0.008718595249735724,-0.02132674166906219,0.009107064999722896
0.54,-0.0011593019999416503,-0.7863204179999247,-0.0003335493559835619,-2.357780679999929,0.0013932377199428892,1.5720471599999524,0.7858986760000046,0.039999973,0.0399999524,-9.809658600000166,0.0038600163530193798,-0.005571367640282405,0.008815131199734498,-0.021423463523121845,0.00920828679972161
0.5425,-0.0011805177749413798,-0.7863477884999244,-0.00033952620198348564,-2.3578064349999286,0.0014140030149426244,1.5720644699999522,0.7858969945000047,0.039999973,0.0399999518,-9.809598450000166,0.004008705727345153,-0.0054686859802837145,0.008911667149733266,-0.021520185377181495,0.00930950859972032
0.545,-0.00120173354994111,-0.786375158999924,-0.0003455030479834097,-2.3578321899999284,0.0014347683099423605,1.572081779999952,0.7858953130000047,0.039999973,0.0399999512,-9.809538300000167,0.004157395101670933,-0.00536600432028502,0.00900820309973204,-0.021616907231241152,0.009410730399719033
0.5475,-0.0012229493249408395,-0.7864025294999237,-0.00035147989398333346,-2.357857944999928,0.0014555336049420955,1.5720990899999518,0.7858936315000047,0.039999973,0.0399999506,-9.809478150000169,0.004306084475996707,-0.005263322660286329,0.009104739049730809,-0.021713629085300803,0.009511952199717741
0.55,-0.00124416509994057,-0.7864298999999233,-0.00035745673998325753,-2.357883699999928,0.0014762988999418316,1.5721163999999517,0.7858919500000047,0.039999973,0.03999995,-9.80941800000017,0.004454773850322487,-0.005160641000287634,0.009201274999729581,-0.02181035093936046,0.009613173999716455
0.5525,-0.001266926129935951,-0.7864594499999169,-0.00036386888898195635,-2.357911044999923,0.0014985746799373162,1.572134954999948,0.7858902325000048,0.039999972550000006,0.039999949550000004,-9.809397600000057,0.0046422592824637045,-0.005021349350391963,0.009301780099717182,-0.021909518353361926,0.009717810099705557
0.555,-0.0012896871599356616,-0.7864889999999165,-0.00037028103798187483,-2.3579383899999224,0.0015208504599370331,1.5721535099999475,0.7858885150000049,0.0399999721,0.0399999491,-9.809377200000059,0.004829744714713606,-0.004882057700393734,0.009402285199715903,-0.022008685767370244,0.009822446199704226
0.5575,-0.0013124481899353714,-0.7865185499999161,-0.00037669318698179305,-2.3579657349999223,0.001543126239936749,1.5721720649999473,0.7858867975000049,0.03999997165,0.03999994865,-9.809356800000058,0.0050172301469635005,-0.0047427660503955105,0.009502790299714622,-0.022107853181378558,0.009927082299702891
0.56,-0.001335209219935082,-0.7865480999999157,-0.00038310533598171154,-2.357993079999922,0.001565402019936466,1.5721906199999471,0.7858850800000049,0.039999971200000005,0.0399999482,-9.809336400000058,0.0052047155792134025,-0.004603474400397281,0.009603295399713344,-0.02220702059538688,0.010031718399701562
0.5625,-0.0013579702499347916,-0.7865776499999153,-0.00038951748498162976,-2.3580204249999217,0.0015876777999361818,1.5722091749999467,0.7858833625000049,0.03999997075,0.03999994775,-9.809316000000058,0.005392201011463296,-0.004464182750399058,0.009703800499712062,-0.022306188009395194,0.010136354499700228
0.5650000000000001,-0.0013807312799345023,-0.786607199999915,-0.0003959296339815483,-2.358047769999921,0.0016099535799358987,1.5722277299999465,0.7858816450000049,0.03999997030000001,0.039999947300000005,-9.809295600000059,0.0055796864437131985,-0.004324891100400828,0.009804305599710786,-0.022405355423403512,0.010240990599698897
0.5675,-0.0014040247899295949,-0.7866374934999082,-0.0004024917749801659,-2.3580757649999153,0.0016327497849311018,1.5722467149999426,0.7858798800000053,0.03999997015,0.03999994715,-9.809267950000121,0.005773794790130529,-0.004179015785459692,0.009905829249700671,-0.022505125123715605,0.010346790949687467
0.5700000000000001,-0.0014283832599292852,-0.7866692739999077,-0.0004093538999800787,-2.358105059999915,0.001656586839930799,1.5722665599999424,0.7858780200000054,0.039999970600000004,0.0399999476,-9.809225800000123,0.0059811489650547734,-0.004019973140461714,0.010009389999699355,-0.022606099396650904,0.010454919799686093
0.5725,-0.0014527417299289747,-0.7867010544999073,-0.0004162160249799912,-2.3581343549999145,0.001680423894930495,1.572286404999942,0.7858761600000054,0.03999997105,0.03999994805,-9.809183650000122,0.006188503139979009,-0.0038609304954637423,0.010112950749698034,-0.022707073669586193,0.010563048649684714
0.5750000000000001,-0.001477100199928665,-0.786732834999907,-0.00042307814997990395,-2.358163649999914,0.001704260949930192,1.5723062499999418,0.7858743000000055,0.0399999715,0.0399999485,-9.809141500000123,0.006395857314903253,-0.003701887850465764,0.010216511499696717,-0.022808047942521493,0.01067117749968334
0.5775,-0.0015014586699283543,-0.7867646154999065,-0.00042994027497981644,-2.3581929449999137,0.001728098004929888,1.5723260949999416,0.7858724400000054,0.03999997195,0.039999948949999996,-9.809099350000125,0.006603211489827489,-0.0035428452054677923,0.010320072249695396,-0.022909022215456782,0.010779306349681961
0.58,-0.0015258171399280436,-0.7867963959999061,-0.00043680239997972894,-2.3582222399999138,0.0017519350599295841,1.5723459399999413,0.7858705800000054,0.0399999724,0.0399999494,-9.809057200000124,0.006810565664751724,-0.0033838025604698207,0.010423632999694076,-0.023009996488392075,0.010887435199680582
0.5825,-0.0015501756099277342,-0.7868281764999058,-0.0004436645249796417,-2.3582515349999134,0.001775772114929281,1.572365784999941,0.7858687200000055,0.03999997285,0.03999994985,-9.809015050000125,0.007017919839675969,-0.003224759915471842,0.01052719374969276,-0.02311097076132737,0.010995564049679208
0.585,-0.0015756331899225112,-0.7868614729998985,-0.0004508362699781704,-2.358281969999908,0.0018006834799241757,1.5723865299999367,0.7858667660000059,0.039999973,0.0399999497,-9.808995200000027,0.007256066519011604,-0.0030367860706031723,0.010632999749681404,-0.023213873244512528,0.011106069399667207
0.5875,-0.0016016403249221806,-0.7868955274998981,-0.0004581628249780773,-2.358312974999907,0.0018261319999238522,1.5724077249999364,0.7858647650000059,0.039999973,0.03999994925,-9.808986500000026,0.007509609450758791,-0.002834346625605745,0.010739928374680045,-0.023317739832835506,0.011217762999665787
0.59,-0.001627647459921849,-0.7869295819998977,-0.00046548937997798384,-2.3583439799999066,0.0018515805199235276,1.5724289199999362,0.785862764000006,0.039999973,0.039999948800000004,-9.808977800000026,0.007763152382505968,-0.002631907180608327,0.010846856999678682,-0.02342160642115848,0.011329456599664363
0.5925,-0.0016536545949215184,-0.7869636364998973,-0.0004728159349778907,-2.3583749849999065,0.0018770290399232042,1.572450114999936,0.785860763000006,0.039999973,0.03999994835,-9.808969100000025,0.008016695314253156,-0.0024294677356109,0.010953785624677323,-0.023525473009481462,0.011441150199662943
0.595,-0.0016796617299211867,-0.7869976909998968,-0.0004801424899777973,-2.358405989999906,0.0019024775599228796,1.5724713099999357,0.785858762000006,0.039999973,0.0399999479,-9.808960400000027,0.00827023824600033,-0.002227028290613482,0.011060714249675958,-0.023629339597804437,0.011552843799661518
0.5975,-0.001705668864920856,-0.7870317454998964,-0.00048746904497770416,-2.3584369949999053,0.0019279260799225564,1.5724925049999354,0.7858567610000061,0.039999973,0.039999947450000004,-9.808951700000026,0.00852378117774752,-0.002024588845616055,0.0111676428746746,-0.02373320618612742,0.0116645373996601
0.6,-0.0017316759999205244,-0.787065799999896,-0.0004947955999776107,-2.358467999999905,0.0019533745999222316,1.5725136999999352,0.7858547600000061,0.039999973,0.039999947,-9.808943000000026,0.008777324109494694,-0.001822149400618637,0.011274571499673236,-0.023837072774450394,0.011776230999658674
0.6025,-0.0017593823349149797,-0.7871022244998882,-0.0005026007959760488,-2.3585010599998983,0.0019804837399168126,1.5725362899999307,0.7858526660000064,0.0399999736,0.03999994745,-9.80890025000013,0.008997566298837094,-0.001656474376508394,0.011384813924661709,-0.02394283059951985,0.011891172099647289
0.605,-0.0017870886699146264,-0.7871386489998877,-0.0005104059919759493,-2.358534119999898,0.002007592879916467,1.5725588799999304,0.7858505720000064,0.039999974199999996,0.0399999479,-9.808857500000132,0.009217808488077722,-0.001490799352510507,0.011495056349660302,-0.02404858842459508,0.012006113199645823
0.6075,-0.0018147950049142742,-0.7871750734998872,-0.00051821118797585,-2.3585671799998975,0.0020347020199161223,1.57258146999993,0.7858484780000065,0.0399999748,0.03999994835,-9.808814750000131,0.009438050677318358,-0.0013251243285126125,0.011605298774658901,-0.024154346249670316,0.012121054299644362
0.61,-0.0018425013399139209,-0.7872114979998868,-0.0005260163839757505,-2.3586002399998973,0.0020618111599157766,1.5726040599999298,0.7858463840000065,0.0399999754,0.0399999488,-9.808772000000133,0.009658292866558983,-0.0011594493045147258,0.011715541199657495,-0.024260104074745548,0.012235995399642896
0.6125,-0.0018702076749135686,-0.7872479224998864,-0.0005338215799756514,-2.358633299999897,0.002088920299915432,1.5726266499999295,0.7858442900000066,0.039999976,0.03999994925,-9.808729250000132,0.00987853505579962,-0.0009937742805168313,0.011825783624656094,-0.024365861899820783,0.012350936499641436
0.615,-0.0018979140099132153,-0.7872843469998859,-0.0005416267759755517,-2.3586663599998965,0.0021160294399150863,1.5726492399999292,0.7858421960000066,0.0399999766,0.039999949699999995,-9.808686500000134,0.010098777245040245,-0.0008280992565189444,0.011936026049654687,-0.024471619724896015,0.01246587759963997
0.6175,-0.0019262032099073639,-0.7873215849998777,-0.0005495961779739033,-2.35870005499989,0.002143708219909367,1.5726722899999246,0.7858400375000072,0.03999997715,0.039999950199999995,-9.808653500000043,0.010334823885090735,-0.0006466539151698437,0.012047284199643703,-0.02457824731211548,0.012581923249628087
0.62,-0.001955658139906988,-0.7873604499998772,-0.0005578939919737974,-2.3587350199998895,0.0021725262799089993,1.5726962599999244,0.7858377500000072,0.0399999776,0.039999950799999996,-9.808640000000041,0.010602479427207667,-0.0004336679386725602,0.012160573799642258,-0.02468661442364798,0.01270017799962658
0.6225,-0.0019851130699066136,-0.7873993149998768,-0.0005661918059736919,-2.3587699849998893,0.002201344339908633,1.5727202299999241,0.7858354625000072,0.039999978049999996,0.0399999514,-9.808626500000042,0.01087013496932461,-0.00022068196217526722,0.012273863399640818,-0.024794981535180487,0.012818432749625077
0.625,-0.002014567999906238,-0.7874381799998763,-0.0005744896199735861,-2.3588049499998887,0.0022301623999082657,1.5727441999999237,0.7858331750000073,0.0399999785,0.039999952,-9.808613000000042,0.01113779051144154,-7.695985677983624e-06,0.012387152999639373,-0.02490334864671299,0.012936687499623569
0.6275000000000001,-0.0020440229299058636,-0.7874770449998758,-0.0005827874339734806,-2.3588399149998884,0.0022589804599078994,1.5727681699999234,0.7858308875000073,0.039999978949999994,0.0399999526,-9.808599500000042,0.011405446053558484,0.0002052899908193094,0.012500442599637934,-0.025011715758245498,0.013054942249622064
0.63,-0.002073477859905488,-0.7875159099998753,-0.0005910852479733748,-2.3588748799998878,0.0022877985199075317,1.5727921399999232,0.7858286000000073,0.039999979399999996,0.039999953199999994,-9.808586000000043,0.011673101595675415,0.000418275967316593,0.012613732199636489,-0.025120082869778,0.013173196999620556
0.6325000000000001,-0.0021029327899051136,-0.7875547749998748,-0.0005993830619732694,-2.3589098449998875,0.0023166165799071653,1.572816109999923,0.7858263125000073,0.03999997985,0.039999953799999995,-9.808572500000043,0.011940757137792359,0.0006312619438138859,0.012727021799635049,-0.02522844998131051,0.013291451749619054
0.635,-0.002133586119898356,-0.7875952969998655,-0.0006080184569713657,-2.35894614999988,0.0023466057599005603,1.5728410899999172,0.7858239750000077,0.039999980399999996,0.039999954,-9.808549000000092,0.012222980334413222,0.0008577718422413184,0.012842608699620336,-0.025338325649140042,0.013411961899604391
0.6375000000000001,-0.002164838649897106,-0.7876366474998638,-0.0006168226424710136,-2.3589831249998783,0.002377180499899337,1.5728665749999162,0.7858216125000078,0.039999981,0.039999954,-9.808520500000093,0.012512487358391793,0.0010910437017319888,0.012959344249615668,-0.025448955595129042,0.013533599749599527
0.64,-0.0021960911798958546,-0.7876779979998622,-0.0006256268279706611,-2.359020099999877,0.0024077552398981132,1.5728920599999152,0.7858192500000079,0.0399999816,0.039999954,-9.808492000000093,0.012801994382370351,0.0013243155612226486,0.013076079799610993,-0.02555958554111804,0.013655237599594656
0.6425,-0.0022273437098946033,-0.7877193484998606,-0.0006344310134703086,-2.359057074999875,0.002438329979896889,1.572917544999914,0.785816887500008,0.0399999822,0.039999954,-9.808463500000096,0.01309150140634891,0.0015575874207133086,0.01319281534960632,-0.025670215487107035,0.013776875449589786
0.645,-0.0022585962398933533,-0.7877606989998589,-0.0006432351989699564,-2.359094049999874,0.002468904719895666,1.572943029999913,0.785814525000008,0.0399999828,0.039999954,-9.808435000000097,0.013381008430327482,0.001790859280203979,0.01330955089960165,-0.025780845433096035,0.01389851329958492
0.6475,-0.002289848769892102,-0.7878020494998572,-0.0006520393844696039,-2.3591310249998725,0.002499479459894442,1.572968514999912,0.7858121625000082,0.0399999834,0.039999954,-9.808406500000098,0.013670515454306038,0.002024131139694639,0.013426286449596975,-0.025891475379085028,0.014020151149580051
0.65,-0.002321101299890852,-0.7878433999998555,-0.0006608435699692519,-2.3591679999998707,0.002530054199893219,1.572993999999911,0.7858098000000082,0.039999984,0.039999954,-9.808378000000099,0.01396002247828461,0.0022574029991853095,0.013543021999592307,-0.02600210532507403,0.014141788999575185
0.6525,-0.0023541990548848887,-0.7878872899998474,-0.0006701675894675718,-2.3592070599998642,0.0025624322698873914,1.5730209699999063,0.7858072455000089,0.039999984599999996,0.0399999546,-9.808352950000087,0.014299047271473258,0.002533047049041332,0.013662519649584396,-0.0261146290223857,0.014266483174566323
0.655,-0.002387296809885371,-0.787931179999848,-0.0006794916089677077,-2.359246119999865,0.0025948103398878634,1.5730479399999067,0.7858046910000088,0.0399999852,0.0399999552,-9.808327900000087,0.01463807206483486,0.0028086910990453495,0.01378201729958614,-0.02622715271970399,0.014391177349568142
0.6575,-0.002420394564885852,-0.7879750699998486,-0.0006888156284678432,-2.359285179999865,0.002627188409888334,1.573074909999907,0.7858021365000089,0.0399999858,0.0399999558,-9.808302850000086,0.014977096858196447,0.003084335149049355,0.013901514949587876,-0.026339676417022277,0.014515871524569953
0.66,-0.0024534923198863343,-0.7880189599998493,-0.000698139647967979,-2.3593242399998657,0.002659566479888806,1.5731018799999072,0.7857995820000088,0.0399999864,0.0399999564,-9.808277800000086,0.015316121651558047,0.0033599791990533727,0.014021012599589617,-0.026452200114340567,0.01464056569957177
0.6625,-0.0024865900748868154,-0.7880628499998499,-0.0007074636674681146,-2.3593632999998664,0.0026919445498892764,1.5731288499999077,0.7857970275000088,0.039999987,0.039999956999999996,-9.808252750000085,0.015655146444919634,0.003635623249057378,0.014140510249591353,-0.026564723811658853,0.014765259874573581
0.665,-0.002519687829887298,-0.7881067399998505,-0.0007167876869682505,-2.359402359999867,0.0027243226198897484,1.573155819999908,0.7857944730000087,0.0399999876,0.0399999576,-9.808227700000085,0.015994171238281236,0.003911267299061395,0.014260007899593094,-0.026677247508977143,0.0148899540495754
0.6675,-0.002553416384881044,-0.7881514974998419,-0.0007262893949664888,-2.3594421449998597,0.0027573171198836373,1.573183304999903,0.7857918865000091,0.0399999881,0.039999958,-9.8082012500001,0.016321816666877858,0.004177011449163864,0.014380597999582603,-0.02679053749850098,0.015015730524565039
0.67,-0.002588406539880599,-0.7881979899998413,-0.0007361464799663636,-2.3594833799998596,0.002791544479883202,1.5732118199999026,0.785789236000009,0.0399999884,0.039999958,-9.8081720000001,0.016626703365596823,0.004422955799160738,0.014503372999581042,-0.02690536007245934,0.015143671599563412
0.6725,-0.002623396694880153,-0.7882444824998407,-0.0007460035649662378,-2.359524614999859,0.0028257718398827657,1.5732403349999022,0.7857865855000091,0.039999988699999996,0.039999958,-9.8081427500001,0.016931590064315775,0.0046689001491576005,0.014626147999579476,-0.027020182646417694,0.015271612674561782
0.675,-0.0026583868498797083,-0.7882909749998401,-0.0007558606499661125,-2.3595658499998584,0.002859999199882331,1.573268849999902,0.7857839350000091,0.039999989,0.039999958,-9.8081135000001,0.01723647676303474,0.0049148444991544745,0.014748922999577916,-0.027135005220376054,0.015399553749560155
0.6775,-0.0026933770048792618,-0.7883374674998396,-0.0007657177349659868,-2.359607084999858,0.002894226559881894,1.5732973649999016,0.7857812845000092,0.0399999893,0.039999958,-9.808084250000102,0.017541363461753688,0.005160788849151337,0.01487169799957635,-0.02724982779433441,0.015527494824558523
0.68,-0.002728367159878817,-0.7883839599998389,-0.0007755748199658616,-2.3596483199998572,0.0029284539198814593,1.5733258799999013,0.7857786340000091,0.0399999896,0.039999958,-9.8080550000001,0.017846250160472654,0.005406733199148212,0.01499447299957479,-0.027364650368292772,0.015655435899556897
0.6825,-0.002763357314878371,-0.7884304524998383,-0.0007854319049657359,-2.3596895549998567,0.002962681279881023,1.5733543949999007,0.7857759835000092,0.0399999899,0.039999958,-9.808025750000102,0.018151136859191605,0.005652677549145075,0.015117247999573223,-0.02747947294225113,0.015783376974555265
0.685,-0.002799639429871165,-0.7884786849998286,-0.0007956530099637055,-2.3597322199998487,0.0029981713998739794,1.5733839099998952,0.7857732130000098,0.03999999,0.039999958,-9.808004900000059,0.018489804490160237,0.005927839958989045,0.015241862899562034,-0.02759590186137778,0.015913269899543427
0.6875,-0.002836567524870694,-0.788527787499828,-0.0008060561249635729,-2.359775599999848,0.0030342928998735186,1.5734139249998949,0.7857703825000099,0.03999999,0.039999958,-9.807988250000058,0.01884536258751822,0.00621761139898535,0.015367397749560432,-0.027713133953101158,0.016044138749541758
0.6900000000000001,-0.002873495619870225,-0.7885768899998274,-0.0008164592399634407,-2.3598189799998477,0.0030704143998730596,1.5734439399998945,0.7857675520000099,0.03999999,0.039999958,-9.807971600000059,0.019200920684876215,0.006507382838981666,0.015492932599558838,-0.02783036604482454,0.016175007599540093
0.6925,-0.0029104237148697538,-0.7886259924998268,-0.000826862354963308,-2.359862359999847,0.003106535899872599,1.5734739549998942,0.78576472150001,0.03999999,0.039999958,-9.80795495000006,0.019556478782234196,0.006797154278977971,0.015618467449557236,-0.027947598136547912,0.016305876449538424
0.6950000000000001,-0.0029473518098692844,-0.7886750949998261,-0.0008372654699631758,-2.3599057399998467,0.00314265739987214,1.5735039699998936,0.78576189100001,0.03999999,0.039999958,-9.807938300000059,0.019912036879592192,0.007086925718974288,0.01574400229955564,-0.028064830228271293,0.01643674529953676
0.6975,-0.002984279904868814,-0.7887241974998256,-0.0008476685849630431,-2.359949119999846,0.003178778899871679,1.5735339849998933,0.7857590605000101,0.03999999,0.039999958,-9.80792165000006,0.020267594976950173,0.007376697158970592,0.01586953714955404,-0.028182062319994667,0.01656761414953509
0.7000000000000001,-0.003021207999868344,-0.7887732999998249,-0.0008580716999629108,-2.3599924999998456,0.0032149003998712196,1.573563999999893,0.7857562300000102,0.03999999,0.039999958,-9.807905000000058,0.02062315307430817,0.007666468598966909,0.015995071999552444,-0.028299294411718048,0.01669848299953343
0.7025,-0.003060119469860777,-0.7888251474998145,-0.000869033549960779,-2.360038129999837,0.003252959899863825,1.5735956799998867,0.7857532705000106,0.03999999075,0.0399999583,-9.807887000000065,0.02103412505092202,0.008004325658791165,0.01612367329953987,-0.028419011178929362,0.016832334299521086
0.705,-0.0030990309398602803,-0.7888769949998138,-0.0008799953999606392,-2.3600837599998363,0.0032910193998633396,1.5736273599998862,0.7857503110000107,0.0399999915,0.0399999586,-9.807869000000064,0.021445097027733433,0.008342182718786856,0.01625227459953823,-0.028538727946149534,0.01696618559951938
0.7075,-0.0031379424098597858,-0.7889288424998132,-0.0008909572499604999,-2.3601293899998357,0.0033290788998628557,1.5736590399998858,0.7857473515000106,0.03999999225,0.0399999589,-9.807851000000065,0.021856069004544863,0.008680039778782563,0.016380875899536598,-0.028658444713369712,0.017100036899517678
0.71,-0.0031768538798592895,-0.7889806899998125,-0.0009019190999603601,-2.360175019999835,0.0033671383998623706,1.5736907199998855,0.7857443920000107,0.039999993,0.0399999592,-9.807833000000066,0.022267040981356276,0.009017896838778253,0.016509477199534956,-0.028778161480589884,0.017233888199515972
0.7125,-0.003215765349858795,-0.7890325374998118,-0.0009128809499602208,-2.3602206499998344,0.003405197899861887,1.573722399999885,0.7857414325000107,0.03999999375,0.0399999595,-9.807815000000065,0.02267801295816771,0.00935575389877396,0.01663807849953332,-0.028897878247810063,0.01736773949951427
0.715,-0.0032546768198582986,-0.7890843849998112,-0.000923842799960081,-2.360266279999834,0.0034432573998614013,1.5737540799998846,0.7857384730000108,0.039999994500000004,0.0399999598,-9.807797000000066,0.023088984934979122,0.00969361095876965,0.01676667979953168,-0.029017595015030234,0.017501590799512565
0.7175,-0.003294264094850395,-0.7891371474998005,-0.0009349950399578544,-2.3603127149998246,0.0034819772998536777,1.5737863049998784,0.7857354550000114,0.039999995,0.0399999599,-9.807774350000118,0.023487297909833876,0.010020728798883091,0.016896186099520125,-0.029137955512406926,0.01763645559949975
0.72,-0.0033352029798498733,-0.7891917399997997,-0.0009465280599577073,-2.360360759999824,0.003522017999853167,1.573819619999878,0.7857323200000115,0.039999995,0.0399999596,-9.807742400000118,0.02386029288035939,0.010326368198879192,0.01702750239951845,-0.029259603470117784,0.017773347399498006
0.7225,-0.0033761418648493528,-0.7892463324997991,-0.0009580610799575607,-2.3604088049998233,0.003562058699852658,1.5738529349998776,0.7857291850000115,0.039999995,0.039999959300000006,-9.807710450000119,0.024233287850884928,0.010632007598875308,0.01715881869951678,-0.029381251427828648,0.017910239199496265
0.725,-0.003417080749848831,-0.7893009249997984,-0.0009695940999574136,-2.3604568499998226,0.0036020993998521476,1.573886249999877,0.7857260500000115,0.039999995,0.039999959,-9.807678500000119,0.024606282821410443,0.01093764699887141,0.017290134999515108,-0.02950289938553951,0.01804713099949452
0.7275,-0.0034580196348483103,-0.7893555174997977,-0.000981127119957267,-2.360504894999822,0.0036421400998516386,1.5739195649998765,0.7857229150000116,0.039999995,0.039999958700000005,-9.807646550000118,0.02497927779193598,0.011243286398867524,0.01742145129951344,-0.029624547343250374,0.01818402279949278
0.73,-0.0034989585198477884,-0.789410109999797,-0.00099266013995712,-2.3605529399998213,0.0036821807998511278,1.573952879999876,0.7857197800000116,0.039999995,0.0399999584,-9.80761460000012,0.025352272762461495,0.011548925798863626,0.017552767599511764,-0.02974619530096123,0.018320914599491034
0.7325,-0.003539897404847268,-0.7894647024997963,-0.0010041931599569735,-2.3606009849998206,0.0037222214998506187,1.5739861949998757,0.7857166450000117,0.039999995,0.0399999581,-9.80758265000012,0.025725267732987032,0.011854565198859742,0.017684083899510095,-0.029867843258672096,0.018457806399489296
0.735,-0.0035822166998389945,-0.789521179999785,-0.0010161150299546429,-2.360650629999811,0.0037636109898425345,1.574020649999869,0.7857134160000122,0.0399999955,0.0399999582,-9.807565500000036,0.026134946009404542,0.012189919698688986,0.017817353399497454,-0.02999117448879486,0.018596506999477392
0.7375,-0.003625226199838448,-0.7895785999997843,-0.0010282313249544888,-2.3607010749998105,0.003805674874842,1.5740556749998684,0.7857101400000123,0.03999999625,0.0399999585,-9.807555750000036,0.02656296593907635,0.012540131748684534,0.017951599499495745,-0.030115347355137732,0.018736111999475617
0.74,-0.0036682356998378996,-0.7896360199997836,-0.0010403476199543342,-2.36075151999981,0.0038477387598414635,1.574090699999868,0.7857068640000123,0.039999997,0.0399999588,-9.807546000000036,0.026990985868748135,0.012890343798680069,0.018085845599494034,-0.0302395202214806,0.018875716999473838
0.7425,-0.003711245199837353,-0.7896934399997828,-0.0010524639149541804,-2.3608019649998093,0.0038898026448409284,1.5741257249998677,0.7857035880000124,0.03999999775,0.0399999591,-9.807536250000037,0.027419005798419938,0.013240555848675617,0.018220091699492326,-0.03036369308782347,0.019015321999472062
0.745,-0.0037542546998368042,-0.7897508599997821,-0.0010645802099540258,-2.3608524099998083,0.003931866529840392,1.574160749999867,0.7857003120000124,0.0399999985,0.0399999594,-9.807526500000037,0.027847025728091723,0.01359076789867115,0.018354337799490614,-0.030487865954166336,0.01915492699947028
0.7475,-0.0037972641998362576,-0.7898082799997814,-0.0010766965049538717,-2.3609028549998077,0.003973930414839857,1.5741957749998667,0.7856970360000125,0.03999999925,0.0399999597,-9.807516750000037,0.02827504565776353,0.0139409799486667,0.01848858389948891,-0.03061203882050921,0.019294531999468508
0.75,-0.0038402736998357093,-0.7898656999997806,-0.0010888127999537172,-2.360953299999807,0.004015994299839321,1.5742307999998661,0.7856937600000126,0.04,0.03999996,-9.807507000000037,0.028703065587435315,0.014291191998662233,0.018622829999487195,-0.030736211686852075,0.019434136999466726
0.7525000000000001,-0.003885395934827065,-0.7899259924997689,-0.001101524324951282,-2.3610061299997973,0.004060122754830873,1.5742675049998593,0.7856903310000132,0.03999999925,0.0399999591,-9.807502200000018,0.029157271700101735,0.014667278448558616,0.01875969374947546,-0.03086308743756064,0.01957657624945409
0.755,-0.00393051816982649,-0.7899862849997682,-0.0011142358499511198,-2.361058959999797,0.004104251209830311,1.5743042099998588,0.7856869020000132,0.0399999985,0.039999958200000005,-9.807497400000019,0.029611477812868162,0.015043364898553818,0.018896557499473714,-0.03098996318827953,0.019719015499452274
0.7575000000000001,-0.003975640404825916,-0.7900465774997674,-0.0011269473749509582,-2.361111789999796,0.00414837966482975,1.5743409149998584,0.7856834730000132,0.03999999775,0.0399999573,-9.807492600000018,0.03006568392563461,0.01541945134854904,0.019033421249471973,-0.03111683893899842,0.019861454749450464
0.76,-0.00402076263982534,-0.7901068699997666,-0.0011396588999507962,-2.3611646199997955,0.0041925081198291875,1.5743776199998578,0.7856800440000132,0.039999997,0.0399999564,-9.807487800000018,0.030519890038401037,0.015795537798544243,0.019170284999470228,-0.031243714689717306,0.020003893999448647
0.7625000000000001,-0.004065884874824767,-0.7901671624997658,-0.0011523704249506346,-2.3612174499997947,0.004236636574828626,1.5744143249998575,0.7856766150000133,0.03999999625,0.0399999555,-9.807483000000019,0.030974096151167484,0.016171624248539462,0.019307148749468487,-0.0313705904404362,0.020146333249446837
0.765,-0.004111007109824191,-0.7902274549997651,-0.0011650819499504726,-2.3612702799997938,0.004280765029828063,1.5744510299998569,0.7856731860000133,0.0399999955,0.0399999546,-9.807478200000018,0.03142830226393391,0.016547710698534668,0.019444012499466742,-0.03149746619115509,0.02028877249944502
0.7675000000000001,-0.004156847269815199,-0.7902887374997527,-0.001177995729947939,-2.361323924999784,0.0043255949498192765,1.5744883399998493,0.7856696980000141,0.03999999525,0.03999995419999999,-9.807465325000114,0.03190210871197909,0.016940922398329058,0.019581754499454703,-0.031624900549147676,0.020432111599432656
0.77,-0.004204123279814596,-0.7903519999997519,-0.001191314019947769,-2.361379199999783,0.004371827799818687,1.5745268599998488,0.7856660920000141,0.039999996,0.039999954799999994,-9.807436300000115,0.03241511583127054,0.017368384598323607,0.019721252999452925,-0.03175345212170729,0.020577250399430806
0.7725,-0.004251399289813993,-0.7904152624997511,-0.0012046323099475992,-2.361434474999782,0.0044180606498180975,1.5745653799998485,0.7856624860000141,0.03999999675,0.039999955399999995,-9.807407275000115,0.03292812295056199,0.017795846798318155,0.019860751499451147,-0.03188200369426691,0.020722389199428953
0.775,-0.004298675299813392,-0.7904785249997502,-0.00121795059994743,-2.3614897499997816,0.00446429349981751,1.574603899999848,0.7856588800000142,0.0399999975,0.039999955999999996,-9.807378250000115,0.033441130069853456,0.01822330899831272,0.02000024999944937,-0.03201055526682653,0.02086752799942711
0.7775,-0.004345951309812789,-0.7905417874997495,-0.0012312688899472602,-2.361545024999781,0.00451052634981692,1.5746424199998474,0.7856552740000142,0.03999999825,0.0399999566,-9.807349225000115,0.0339541371891449,0.01865077119830727,0.020139748499447593,-0.032139106839386145,0.021012666799425258
0.78,-0.004393227319812188,-0.7906050499997487,-0.001244587179947091,-2.3616002999997803,0.004556759199816332,1.574680939999847,0.7856516680000143,0.039999999,0.0399999572,-9.807320200000115,0.03446714430843637,0.019078233398301836,0.02027924699944582,-0.03226765841194577,0.021157805599423415
0.7825,-0.004440503329811585,-0.7906683124997479,-0.0012579054699469211,-2.3616555749997796,0.004602992049815743,1.5747194599998464,0.7856480620000144,0.03999999975,0.0399999578,-9.807291175000115,0.03498015142772782,0.019505695598296385,0.02041874549944404,-0.03239620998450538,0.021302944399421563
0.785,-0.004489241959803113,-0.7907335399997365,-0.0012716358699445339,-2.3617125599997695,0.004650654399807462,1.5747591599998396,0.785644338000015,0.04,0.039999958,-9.80726665000009,0.035465420035631856,0.01990967099843894,0.020559982899434424,-0.032526106759386095,0.021449824399411965
0.7875,-0.004538711899803831,-0.7907997499997375,-0.0012855723249447363,-2.3617703999997706,0.0046990314998081656,1.5747994499998401,0.785640555000015,0.04,0.039999958,-9.807244375000089,0.03593681938759316,0.02030190299844464,0.02070208974943649,-0.03265667613543942,0.02159757499941411
0.79,-0.0045881818398045525,-0.7908659599997384,-0.0012995087799449394,-2.361828239999771,0.004747408599808871,1.5748397399998408,0.7856367720000149,0.04,0.039999958,-9.807222100000088,0.03640821873955448,0.020694134998450357,0.02084419659943856,-0.032787245511492744,0.021745325599416263
0.7925,-0.004637651779805271,-0.7909321699997394,-0.0013134452349451418,-2.3618860799997723,0.0047957856998095735,1.5748800299998413,0.7856329890000149,0.04,0.039999958,-9.807199825000088,0.036879618091515784,0.021086366998456056,0.020986303449440625,-0.03291781488754607,0.02189307619941841
0.795,-0.004687121719805992,-0.7909983799997403,-0.001327381689945345,-2.361943919999773,0.004844162799810279,1.574920319999842,0.7856292060000148,0.04,0.039999958,-9.807177550000088,0.0373510174434771,0.021478598998461773,0.021128410299442697,-0.03304838426359939,0.022040826799420564
0.7975,-0.004736591659806711,-0.7910645899997413,-0.0013413181449455475,-2.362001759999774,0.004892539899810981,1.5749606099998426,0.7856254230000148,0.04,0.039999958,-9.807155275000087,0.0378224167954384,0.021870830998467473,0.02127051714944476,-0.03317895363965272,0.022188577399422708
0.8,-0.004786061599807432,-0.7911307999997423,-0.0013552545999457506,-2.3620595999997747,0.004940916999811687,1.5750008999998433,0.7856216400000148,0.04,0.039999958,-9.807133000000087,0.038293816147399726,0.02226306299847319,0.021412623999446833,-0.03330952301570604,0.022336327999424862
0.8025,-0.0048377645597966696,-0.7912000549997277,-0.0013698201549427187,-2.362120079999762,0.004991475999801169,1.5750430049998345,0.7856177040000155,0.04,0.0399999574,-9.80711815000006,0.038826426861575704,0.02270304734826969,0.021557346399430858,-0.033442465029134005,0.022486601299409024
0.805,-0.004889467519794602,-0.7912693099997249,-0.001384385709942136,-2.3621805599997594,0.005042034999799147,1.5750851099998329,0.7856137680000157,0.04,0.0399999568,-9.80710330000006,0.039359037575989984,0.023143031698252093,0.02170206879942507,-0.033575407042571205,0.022636874599403015
0.8075,-0.004941170479792532,-0.7913385649997221,-0.001398951264941553,-2.3622410399997573,0.005092593999797122,1.575127214999831,0.7856098320000158,0.04,0.0399999562,-9.807088450000059,0.03989164829040424,0.023583016048234477,0.021846791199419274,-0.033708349056008405,0.022787147899397
0.81,-0.004992873439790464,-0.7914078199997193,-0.0014135168199409704,-2.362301519999755,0.0051431529997951,1.5751693199998293,0.785605896000016,0.04,0.039999955600000005,-9.80707360000006,0.04042425900481852,0.02402300039821688,0.021991513599413485,-0.033841291069445605,0.02293742119939099
0.8125,-0.005044576399788394,-0.7914770749997165,-0.0014280823749403871,-2.3623619999997523,0.005193711999793076,1.5752114249998277,0.7856019600000161,0.04,0.039999955000000004,-9.80705875000006,0.04095686971923277,0.024462984748199263,0.02213623599940769,-0.033974233082882804,0.02308769449938497
0.8150000000000001,-0.005096279359786326,-0.7915463299997139,-0.0014426479299398047,-2.3624224799997497,0.005244270999791053,1.575253529999826,0.7855980240000163,0.04,0.0399999544,-9.80704390000006,0.041489480433647044,0.024902969098181665,0.0222809583994019,-0.034107175096320004,0.02323796779937896
0.8175,-0.00514873937477527,-0.7916166119996988,-0.0014574267849366896,-2.3624838099997376,0.005295569799780248,1.575296259999817,0.7855940270000172,0.04,0.039999954,-9.807031150000036,0.04203120656078359,0.02535184964805693,0.02242646324938765,-0.03424090668502731,0.02338908729936374
0.8200000000000001,-0.005202713499774584,-0.7916889479996979,-0.0014726322399364964,-2.3625468399997365,0.005348348199779578,1.5753402399998164,0.7855899080000173,0.04,0.039999954,-9.807022600000035,0.04259116351370597,0.025818522598050998,0.02257353299938578,-0.03437621742430439,0.0235418991993618
0.8225,-0.005256687624773895,-0.791761283999697,-0.0014878376949363024,-2.3626098699997358,0.0054011265997789045,1.5753842199998158,0.7855857890000173,0.04,0.039999954,-9.807014050000035,0.04315112046662832,0.026285195548045048,0.022720602749383905,-0.03451152816358147,0.02369471109935985
0.8250000000000001,-0.005310661749773209,-0.791833619999696,-0.0015030431499361092,-2.362672899999735,0.005453904999778233,1.5754281999998152,0.7855816700000173,0.04,0.039999954,-9.807005500000036,0.0437110774195507,0.026751868498039115,0.022867672499382038,-0.034646838902858544,0.02384752299935791
0.8275,-0.005364635874772521,-0.7919059559996952,-0.0015182486049359152,-2.3627359299997344,0.00550668339977756,1.5754721799998146,0.7855775510000174,0.04,0.039999954,-9.806996950000036,0.04427103437247305,0.027218541448033165,0.02301474224938016,-0.03478214964213562,0.02400033489935596
0.8300000000000001,-0.005418609999771835,-0.7919782919996943,-0.001533454059935722,-2.3627989599997337,0.00555946179977689,1.5755161599998142,0.7855734320000174,0.04,0.039999954,-9.806988400000035,0.044830991325395426,0.027685214398027232,0.023161811999378293,-0.034917460381412704,0.024153146799354017
0.8325,-0.0054725841247711465,-0.7920506279996933,-0.001548659514935528,-2.362861989999733,0.0056122401997762165,1.5755601399998136,0.7855693130000174,0.04,0.039999954,-9.806979850000037,0.04539094827831778,0.02815188734802128,0.02330888174937642,-0.035052771120689774,0.02430595869935207
0.835,-0.00552809721976064,-0.7921250519996791,-0.0015642985099325686,-2.362926739999721,0.005666522199765951,1.575605359999805,0.7855650760000182,0.04,0.039999954,-9.806968100000057,0.04599254056546626,0.02865619109777527,0.023457604499363998,-0.035189366340053554,0.024460321799340223
