rsonawane2002/My_IMU/logs_2/traj_285/imu_400hz_285.csv
time,j1,j2,j3,j4,j5,j6,j7,gripper1,gripper2,imu_ax,imu_ay,imu_az,imu_gx,imu_gy,imu_gz
0.0,0.00016700293,-0.785875,4.0107683e-05,-2.3551247,9.29385e-05,1.570997,0.786,0.04,0.04,-9.486888,0.015211428515613,0.12239351,4.55569e-07,-0.0011641273740679,5.4029067e-07
0.0025,0.0001670030215,-0.785857774,4.01097671e-05,-2.35513919,9.294351690000001e-05,1.570996565,0.786,0.04,0.04,-9.539014050000048,0.013028080883666679,0.10539833404998454,3.0449388999986265e-07,-0.0013250712305308715,5.472502245000063e-07
0.005,0.000167003113,-0.785840548,4.011185120000001e-05,-2.3551536800000004,9.294853380000002e-05,1.57099613,0.786,0.04,0.04,-9.591140100000095,0.010844733251720359,0.08840315809996908,1.5341877999972522e-07,-0.0014860150869938427,5.542097790000126e-07
0.0075,0.0001670032045,-0.7858233219999999,4.0113935300000006e-05,-2.3551681700000002,9.295355070000002e-05,1.570995695,0.786,0.04,0.04,-9.643266150000143,0.008661385619774038,0.07140798214995364,2.343669999587844e-09,-0.0016469589434568142,5.61169333500019e-07
0.01,0.000167003296,-0.785806096,4.011601940000001e-05,-2.35518266,9.295856760000003e-05,1.5709952600000001,0.786,0.04,0.04,-9.69539220000019,0.006478037987827718,0.05441280619993817,-1.4873144000054958e-07,-0.0018079027999197855,5.681288880000253e-07
0.0125,0.0001670033875,-0.78578887,4.011810350000001e-05,-2.3551971500000004,9.296358450000002e-05,1.570994825,0.786,0.04,0.04,-9.747518250000237,0.004294690355881396,0.037417630249922715,-2.9980655000068696e-07,-0.001968846656382757,5.750884425000316e-07
0.015,0.000167003479,-0.785771644,4.012018760000002e-05,-2.3552116400000003,9.296860140000003e-05,1.57099439,0.786,0.04,0.04,-9.799644300000285,0.0021113427239350772,0.020422454299907272,-4.5088166000082433e-07,-0.0021297905128457285,5.820479970000379e-07
0.0175,0.0001670028415,-0.7857548569999999,4.012464855000005e-05,-2.3552257350000003,9.297276220000002e-05,1.57099396,0.786,0.04,0.04,-9.83429865,0.0006571368518052613,0.009018535414998842,-7.275535500027608e-07,-0.0022863699239685635,4.689699149981529e-07
0.02,0.000167000746,-0.785738948,4.013386320000003e-05,-2.3552390400000003,9.297521080000001e-05,1.5709935400000001,0.786,0.04,0.04,-9.8340096,0.0006612144992686711,0.008797130659999396,-1.2554190000014404e-06,-0.0024342204444113636,1.1581655999903629e-07
0.0225,0.0001669986505,-0.7857230390000001,4.0143077850000004e-05,-2.3552523450000002,9.29776594e-05,1.57099312,0.786,0.04,0.04,-9.83372055,0.000665292146732081,0.00857572590499995,-1.78328445000012e-06,-0.0025820709648541637,-2.3733679500008026e-07
0.025,0.00016699655500000002,-0.78570713,4.015229249999998e-05,-2.3552656499999998,9.2980108e-05,1.5709927000000001,0.786,0.04,0.04,-9.833431500000001,0.0006693697941954908,0.008354321150000503,-2.3111498999988e-06,-0.002729921485296964,-5.904901499991973e-07
0.0275,0.00016699445950000001,-0.7856912210000001,4.016150714999996e-05,-2.3552789549999997,9.298255659999999e-05,1.57099228,0.786,0.04,0.04,-9.833142450000002,0.0006734474416589005,0.008132916395001057,-2.8390153499974795e-06,-0.002877772005739764,-9.43643504998314e-07
0.03,0.000166992364,-0.7856753120000002,4.0170721799999934e-05,-2.3552922599999997,9.298500519999998e-05,1.57099186,0.786,0.04,0.04,-9.832853400000003,0.0006775250891223103,0.00791151164000161,-3.3668807999961593e-06,-0.003025622526182564,-1.2967968599974306e-06
0.0325,0.00016699026850000004,-0.7856594030000001,4.017993644999991e-05,-2.3553055649999997,9.298745379999997e-05,1.57099144,0.786,0.04,0.04,-9.832564350000004,0.0006816027365857202,0.007690106885002165,-3.894746249994839e-06,-0.003173473046625364,-1.6499502149965473e-06
0.035,0.00016698448400000006,-0.7856443400000002,4.0201824199999784e-05,-2.3553181,9.298586400000004e-05,1.57099101,0.786,0.04,0.04,-9.832281300000002,0.0006908459821714886,0.007486431570001506,-4.98931695998935e-06,-0.003312607342376178,-2.4646841999919186e-06
0.0375,0.00016697685500000002,-0.7856297000000001,4.023004849999991e-05,-2.3553302499999997,9.298225500000001e-05,1.570990575,0.786,0.04,0.04,-9.832001250000001,0.0007026720268185596,0.007291620975000665,-6.367240299995299e-06,-0.00344738352578079,-3.5102084999964338e-06
0.04,0.000166969226,-0.78561506,4.0258272800000024e-05,-2.3553424,9.2978646e-05,1.57099014,0.786,0.04,0.04,-9.8317212,0.0007144980714656308,0.007096810379999823,-7.745163640001253e-06,-0.0035821597091854024,-4.555732800000952e-06
0.0425,0.00016696159699999998,-0.78560042,4.028649710000015e-05,-2.35535455,9.297503699999998e-05,1.5709897050000001,0.786,0.04,0.04,-9.831441149999998,0.0007263241161127019,0.006901999784998981,-9.123086980007207e-06,-0.003716935892590015,-5.601257100005469e-06
0.045,0.00016695396799999994,-0.7855857799999999,4.031472140000027e-05,-2.3553667000000003,9.297142799999997e-05,1.57098927,0.786,0.04,0.04,-9.831161099999997,0.0007381501607597729,0.006707189189998139,-1.0501010320013158e-05,-0.003851712075994627,-6.646781400009984e-06
0.0475,0.0001669463389999999,-0.7855711399999998,4.0342945700000394e-05,-2.35537885,9.296781899999995e-05,1.570988835,0.786,0.04,0.04,-9.830881049999997,0.0007499762054068441,0.006512378594997298,-1.187893366001911e-05,-0.00398648825939924,-7.6923057000145e-06
0.05,0.00016693870999999968,-0.7855564999999998,4.0371170000001174e-05,-2.355391,9.296420999999973e-05,1.5709884,0.786,0.04,0.04,-9.830600999999994,0.0007618022500540121,0.006317567999996854,-1.3256857000048246e-05,-0.004121264442803618,-8.737830000037005e-06
0.0525,0.00016692095149999973,-0.7855429699999997,4.043543960000101e-05,-2.3554021,9.294959249999977e-05,1.57098798,0.786,0.04,0.04,-9.830341049999996,0.0007789597351804892,0.006144623489997287,-1.5909018250041608e-05,-0.004243204020896898,-1.0772044200031913e-05
0.055,0.00016690319299999976,-0.7855294399999998,4.049970920000085e-05,-2.3554132,9.29349749999998e-05,1.57098756,0.786,0.04,0.04,-9.830081099999996,0.0007961172203069663,0.0059716789799977195,-1.8561179500034977e-05,-0.004365143598990178,-1.2806258400026827e-05
0.0575,0.0001668854344999998,-0.7855159099999999,4.056397880000069e-05,-2.3554243,9.292035749999984e-05,1.57098714,0.786,0.04,0.04,-9.829821149999997,0.0008132747054334433,0.005798734469998151,-2.1213340750028347e-05,-0.004487083177083458,-1.4840472600021741e-05
0.06,0.00016686767599999986,-0.7855023799999998,4.0628248400000525e-05,-2.3554354,9.290573999999988e-05,1.57098672,0.786,0.04,0.04,-9.829561199999997,0.0008304321905599205,0.005625789959998585,-2.3865502000021707e-05,-0.004609022755176738,-1.687468680001665e-05
0.0625,0.0001668499174999999,-0.7854888499999999,4.0692518000000366e-05,-2.3554465,9.289112249999992e-05,1.5709863,0.786,0.04,0.04,-9.829301249999999,0.0008475896756863975,0.005452845449999017,-2.651766325001508e-05,-0.004730962333270018,-1.8908901000011564e-05
0.065,0.00016683215899999994,-0.7854753199999999,4.0756787600000207e-05,-2.3554576000000003,9.287650499999996e-05,1.57098588,0.786,0.04,0.04,-9.829041299999998,0.0008647471608128746,0.0052799009399994495,-2.9169824500008447e-05,-0.004852901911363298,-2.094311520000648e-05
0.0675,0.0001668091039999999,-0.7854621224999999,4.0840303300000365e-05,-2.3554683350000003,9.285613899999991e-05,1.57098545,0.786,0.04,0.04,-9.82878435,0.0008832534076646377,0.005113366519999545,-3.2355859550012585e-05,-0.004970603552647163,-2.3396373750009736e-05
0.07,0.00016677545599999975,-0.7854495899999999,4.096231120000089e-05,-2.3554783400000003,9.282427599999977e-05,1.570985,0.786,0.04,0.04,-9.828533399999998,0.0009044571779669543,0.004959652279998881,-3.660964220003096e-05,-0.005079829320312255,-2.6687721000023957e-05
0.0725,0.0001667418079999996,-0.7854370574999998,4.1084319100001415e-05,-2.355488345,9.279241299999963e-05,1.57098455,0.786,0.04,0.04,-9.828282449999996,0.0009256609482692709,0.0048059380399982175,-4.086342485004932e-05,-0.0051890550879773465,-2.997906825003816e-05
0.075,0.00016670815999999947,-0.7854245249999998,4.1206327000001944e-05,-2.35549835,9.27605499999995e-05,1.5709841,0.786,0.04,0.04,-9.828031499999996,0.0009468647185715875,0.004652223799997553,-4.51172075000677e-05,-0.005298280855642439,-3.3270415500052385e-05
0.0775,0.00016667451199999932,-0.7854119924999997,4.1328334900002466e-05,-2.355508355,9.272868699999935e-05,1.57098365,0.786,0.04,0.04,-9.827780549999995,0.0009680684888739041,0.0044985095599968895,-4.937099015008608e-05,-0.00540750662330753,-3.65617627500666e-05
0.08,0.00016664086399999917,-0.7853994599999997,4.1450342800002995e-05,-2.35551836,9.269682399999921e-05,1.5709832,0.786,0.04,0.04,-9.827529599999993,0.0009892722591762207,0.004344795319996225,-5.3624772800104454e-05,-0.005516732390972622,-3.985311000008082e-05
0.0825,0.00016660721599999904,-0.7853869274999996,4.1572350700003523e-05,-2.355528365,9.266496099999908e-05,1.57098275,0.786,0.04,0.04,-9.827278649999993,0.0010104760294785374,0.004191081079995561,-5.787855545012284e-05,-0.005625958158637714,-4.3144457250095045e-05
0.085,0.00016655845199999825,-0.7853749749999996,4.1750084200006354e-05,-2.35553778,9.261664199999824e-05,1.5709823,0.7859998100000001,0.04,0.04,-9.827038199999993,0.0010339405271231406,0.004047307759995707,-6.349262630019464e-05,-0.005726904887708994,-4.743140870014797e-05
0.08750000000000001,0.00016650212999999822,-0.7853633124999997,4.1955680500006545e-05,-2.3555469,9.256009499999819e-05,1.57098185,0.785999525,0.04,0.04,-9.826802999999993,0.001058535388438733,0.003908504899995581,-6.978684125020037e-05,-0.005823712097483932,-5.221616225015232e-05
0.09,0.00016644580799999816,-0.7853516499999996,4.216127680000673e-05,-2.3555560200000003,9.250354799999814e-05,1.5709814,0.78599924,0.04,0.04,-9.826567799999992,0.0010831302497543252,0.0037697020399954555,-7.608105620020607e-05,-0.005920519307258869,-5.700091580015665e-05
0.0925,0.0001663894859999981,-0.7853399874999997,4.236687310000692e-05,-2.3555651400000004,9.244700099999809e-05,1.57098095,0.785998955,0.04,0.04,-9.826332599999992,0.0011077251110699175,0.0036308991799953293,-8.23752711502118e-05,-0.006017326517033808,-6.178566935016101e-05
0.095,0.00016633316399999805,-0.7853283249999996,4.257246940000711e-05,-2.3555742600000005,9.239045399999804e-05,1.5709805000000001,0.78599867,0.04,0.04,-9.826097399999993,0.00113231997238551,0.0034920963199952027,-8.866948610021753e-05,-0.006114133726808746,-6.657042290016536e-05
0.0975,0.000166276841999998,-0.7853166624999997,4.277806570000729e-05,-2.3555833800000006,9.233390699999799e-05,1.57098005,0.7859983850000001,0.04,0.04,-9.825862199999992,0.0011569148337011023,0.0033532934599950766,-9.496370105022326e-05,-0.006210940936583684,-7.135517645016971e-05
0.1,0.00016622051999999686,-0.7853049999999996,4.2983662000011604e-05,-2.3555925000000006,9.227735999999673e-05,1.5709796,0.7859981,0.04,0.04,-9.825626999999994,0.0011815096950168276,0.0032144905999954964,-0.00010125791600026638,-0.006307748146358189,-7.61399300002364e-05
0.10250000000000001,0.00016613379899999676,-0.7852941099999996,4.330243630001189e-05,-2.3556010800000005,9.218750849999664e-05,1.57097912,0.785997815,0.04,0.04,-9.825411299999992,0.0012097538448880283,0.0030906943549953835,-0.00010858005410027306,-0.006392650678756966,-8.263790000024232e-05
0.105,0.00016604707799999668,-0.7852832199999996,4.362121060001218e-05,-2.3556096600000003,9.209765699999656e-05,1.57097864,0.78599753,0.04,0.04,-9.825195599999992,0.0012379979947592288,0.0029668981099952715,-0.00011590219220027969,-0.006477553211155743,-8.91358700002482e-05
0.1075,0.0001659603569999966,-0.7852723299999996,4.393998490001247e-05,-2.3556182400000005,9.200780549999649e-05,1.57097816,0.785997245,0.04,0.04,-9.824979899999992,0.0012662421446304295,0.0028431018649951586,-0.00012322433030028635,-0.00656245574355452,-9.563384000025411e-05
0.11,0.00016587363599999654,-0.7852614399999996,4.425875920001276e-05,-2.3556268200000003,9.19179539999964e-05,1.57097768,0.78599696,0.04,0.04,-9.824764199999992,0.0012944862945016302,0.002719305619995046,-0.00013054646840029302,-0.0066473582759532975,-0.00010213181000026004
0.1125,0.00016578691499999644,-0.7852505499999995,4.457753350001305e-05,-2.3556354,9.182810249999631e-05,1.5709772,0.785996675,0.04,0.04,-9.824548499999992,0.001322730444372831,0.0025955093749949333,-0.0001378686065002997,-0.006732260808352075,-0.00010862978000026596
0.115,0.00016570019399999637,-0.7852396599999996,4.489630780001334e-05,-2.3556439800000004,9.173825099999624e-05,1.57097672,0.78599639,0.04,0.04,-9.824332799999992,0.0013509745942440318,0.002471713129994821,-0.00014519074460030636,-0.006817163340750852,-0.00011512775000027187
0.11750000000000001,0.00016560048949999462,-0.7852289899999996,4.5263776950019875e-05,-2.35565223,9.163457249999438e-05,1.570976065,0.7859961050000001,0.04,0.03999999975,-9.824141199999994,0.0013801074295783414,0.002351307774995143,-0.00015340539550042748,-0.0068987766047971175,-0.00012222116350035415
0.12,0.00016547481799999452,-0.7852187599999996,4.57286358000203e-05,-2.35565982,9.150323999999427e-05,1.5709750599999999,0.78599582,0.04,0.039999999,-9.823997799999994,0.0014110176358385295,0.00223768419999504,-0.00016340507200043652,-0.006973811332139615,-0.00013050546400036165
0.1225,0.0001653491464999944,-0.7852085299999996,4.619349465002072e-05,-2.35566741,9.137190749999414e-05,1.570974055,0.785995535,0.04,0.03999999825,-9.823854399999995,0.0014419278420987175,0.0021240606249949365,-0.00017340474850044562,-0.007048846059482114,-0.00013878976450036918
0.125,0.0001652234749999943,-0.7851982999999996,4.6658353500021145e-05,-2.355675,9.124057499999403e-05,1.5709730499999999,0.78599525,0.04,0.0399999975,-9.823710999999994,0.0014728380483589056,0.0020104370499948333,-0.00018340442500045472,-0.0071238807868246115,-0.00014707406500037674
0.1275,0.00016509780349999417,-0.7851880699999996,4.712321235002157e-05,-2.3556825900000002,9.11092424999939e-05,1.570972045,0.785994965,0.04,0.03999999675,-9.823567599999993,0.0015037482546190939,0.0018968134749947295,-0.00019340410150046384,-0.00719891551416711,-0.00015535836550038427
0.13,0.00016497213199999407,-0.7851778399999995,4.7588071200021985e-05,-2.3556901800000003,9.09779099999938e-05,1.5709710399999999,0.7859946800000001,0.04,0.039999996,-9.823424199999993,0.001534658460879282,0.0017831898999946263,-0.00020340377800047294,-0.007273950241509609,-0.0001636426660003918
0.1325,0.00016484646049999395,-0.7851676099999995,4.805293005002241e-05,-2.3556977700000004,9.084657749999367e-05,1.570970035,0.785994395,0.04,0.03999999525,-9.823280799999994,0.00156556866713947,0.0016695663249945225,-0.00021340345450048204,-0.007348984968852107,-0.00017192696650039933
0.135,0.00016468863499999106,-0.7851577369999995,4.8639107700033245e-05,-2.3557047100000004,9.068055399999058e-05,1.57096902,0.78599392,0.04,0.039999994500000004,-9.82309944999999,0.0015969322645121434,0.0015689371699951625,-0.00022543182000067026,-0.007417253497991284,-0.0001815963260005325
0.1375,0.00016451473249999031,-0.7851480424999995,4.9285944750036035e-05,-2.3557113250000006,9.049718499998979e-05,1.570968,0.78599335,0.04,0.039999993750000004,-9.822899124999989,0.0016285225574410099,0.001474805224994756,-0.00023847453000072662,-0.00748213892802954,-0.00019195821500057726
0.14,0.00016434082999998957,-0.7851383479999994,4.993278180003883e-05,-2.3557179400000003,9.0313815999989e-05,1.57096698,0.78599278,0.04,0.039999993000000005,-9.822698799999989,0.0016601128503698766,0.0013806732799943491,-0.00025151724000078296,-0.007547024358067795,-0.00020232010400062205
0.14250000000000002,0.00016416692749998883,-0.7851286534999994,5.057961885004163e-05,-2.3557245550000006,9.01304469999882e-05,1.5709659599999999,0.78599221,0.04,0.03999999225,-9.822498474999987,0.001691703143298743,0.0012865413349939423,-0.0002645599500008393,-0.007611909788106051,-0.00021268199300066682
0.145,0.00016399302499998806,-0.7851189589999993,5.1226455900044415e-05,-2.3557311700000003,8.994707799998741e-05,1.5709649399999999,0.78599164,0.04,0.0399999915,-9.822298149999986,0.0017232934362276092,0.0011924093899935368,-0.00027760266000089557,-0.007676795218144305,-0.00022304388200071148
0.1475,0.0001638191224999873,-0.7851092644999993,5.187329295004721e-05,-2.3557377850000005,8.976370899998662e-05,1.57096392,0.78599107,0.04,0.03999999075,-9.822097824999986,0.0017548837291564757,0.00109827744499313,-0.0002906453700009519,-0.0077416806481825605,-0.00023340577100075625
0.15,0.00016364521999998207,-0.7850995699999993,5.252013000006705e-05,-2.3557444000000003,8.958033999998069e-05,1.5709629,0.7859905,0.04,0.03999999,-9.821897499999986,0.0017864740220853075,0.0010041454999924094,-0.0003036880800011597,-0.007806566078219876,-0.0002437676600009911
0.1525,0.00016341319849998265,-0.7850903344999993,5.338749600006488e-05,-2.3557506850000003,8.933058999998133e-05,1.5709617599999999,0.785989924,0.04,0.03999999075,-9.821703474999985,0.0018176161625910647,0.0009059545744926549,-0.0003186898755011222,-0.007859286223542119,-0.00025658830400095904
0.155,0.00016318117699998323,-0.7850810989999993,5.425486200006271e-05,-2.3557569700000003,8.908083999998195e-05,1.57096062,0.785989348,0.04,0.0399999915,-9.821509449999986,0.0018487583030968218,0.0008077636489929004,-0.00033369167100108467,-0.007912006368864362,-0.000269408948000927
0.1575,0.0001629491554999838,-0.7850718634999994,5.512222800006055e-05,-2.3557632550000003,8.883108999998257e-05,1.57095948,0.785988772,0.04,0.03999999225,-9.821315424999986,0.0018799004436025788,0.0007095727234931459,-0.0003486934665010472,-0.007964726514186605,-0.0002822295920008949
0.16,0.0001627171339999844,-0.7850626279999994,5.598959400005838e-05,-2.3557695400000003,8.858133999998319e-05,1.57095834,0.7859881959999999,0.04,0.039999993000000005,-9.821121399999987,0.001911042584108336,0.0006113817979933915,-0.0003636952620010097,-0.008017446659508848,-0.0002950502360008629
0.1625,0.00016248511249998497,-0.7850533924999994,5.685696000005621e-05,-2.3557758250000003,8.833158999998381e-05,1.5709572,0.7859876199999999,0.04,0.039999993750000004,-9.820927374999988,0.0019421847246140931,0.000513190872493637,-0.0003786970575009722,-0.008070166804831093,-0.0003078708800008308
0.165,0.00016225309099998555,-0.7850441569999994,5.772432600005404e-05,-2.3557821100000003,8.808183999998443e-05,1.5709560599999999,0.785987044,0.04,0.039999994500000004,-9.820733349999987,0.0019733268651198504,0.0004149999469938824,-0.0003936988530009347,-0.008122886950153336,-0.00032069152400079876
0.1675,0.00016199818749998134,-0.7850350249999994,5.8678807000070064e-05,-2.3557880650000005,8.780603569997964e-05,1.57095477,0.7859863739999999,0.04,0.03999999525,-9.820569199999992,0.00200485480018152,0.00032120028999472236,-0.00040992205250115876,-0.008172670006754656,-0.0003342941025009415
0.17,0.00016169751999998004,-0.7850260999999994,5.980751800007494e-05,-2.3557933600000003,8.747812279997823e-05,1.57095318,0.7859855159999999,0.04,0.039999996,-9.820464799999993,0.0020371543243548045,0.00023618316999435502,-0.0004285880600012394,-0.008216578885915735,-0.00034946055000100704
0.17250000000000001,0.00016139685249997874,-0.7850171749999993,6.093622900007982e-05,-2.3557986550000005,8.715020989997681e-05,1.57095159,0.785984658,0.04,0.03999999675,-9.820360399999991,0.002069453848528089,0.00015116604999398768,-0.0004472540675013201,-0.008260487765076815,-0.0003646269975010726
0.17500000000000002,0.00016109618499997745,-0.7850082499999993,6.20649400000847e-05,-2.3558039500000003,8.682229699997538e-05,1.5709499999999998,0.7859837999999999,0.04,0.0399999975,-9.820255999999992,0.0021017533727013737,6.614892999362034e-05,-0.0004659200750014007,-0.008304396644237894,-0.00037979344500113806
0.1775,0.00016079551749997615,-0.7849993249999994,6.319365100008956e-05,-2.3558092450000006,8.649438409997397e-05,1.57094841,0.7859829419999999,0.04,0.03999999825,-9.820151599999992,0.002134052896874658,-1.8868190006746078e-05,-0.00048458608250148114,-0.008348305523398974,-0.00039495989250120343
0.18,0.00016049484999997485,-0.7849903999999993,6.432236200009444e-05,-2.3558145400000003,8.616647119997256e-05,1.5709468199999999,0.7859820839999999,0.04,0.039999999,-9.82004719999999,0.0021663524210479425,-0.00010388531000711342,-0.0005032520900015618,-0.008392214402560053,-0.00041012634000126897
0.1825,0.00016019418249997355,-0.7849814749999993,6.545107300009931e-05,-2.3558198350000006,8.583855829997114e-05,1.57094523,0.7859812259999999,0.04,0.03999999975,-9.81994279999999,0.002198651945221227,-0.00018890243000748076,-0.0005219180975016425,-0.008436123281721133,-0.0004252927875013345
0.185,0.00015984037999996662,-0.7849726899999993,6.678257900012576e-05,-2.3558246100000004,8.545239859996355e-05,1.57094334,0.7859801759999998,0.04,0.0399999995,-9.819791899999984,0.0022314712405233235,-0.0002704944930070107,-0.0005422665530018597,-0.008473079372200298,-0.0004419518970015276
0.1875,0.00015946000999996756,-0.7849639749999993,6.821548250012218e-05,-2.3558291250000005,8.503711549996459e-05,1.5709412999999999,0.7859790299999999,0.04,0.03999999875,-9.819617749999985,0.0022645504213897206,-0.00035037402750681093,-0.0005634562325018068,-0.008506559068339905,-0.0004593573375014841
0.19,0.00015907963999996853,-0.7849552599999993,6.96483860001186e-05,-2.3558336400000006,8.462183239996562e-05,1.5709392599999998,0.7859778839999999,0.04,0.039999998,-9.819443599999985,0.002297629602256118,-0.0004302535620066112,-0.0005846459120017538,-0.00854003876447951,-0.00047676277800144055
0.1925,0.00015869926999996948,-0.7849465449999993,7.108128950011501e-05,-2.3558381550000003,8.420654929996666e-05,1.5709372199999998,0.7859767379999999,0.04,0.03999999725,-9.819269449999986,0.002330708783122515,-0.0005101330965064115,-0.0006058355915017008,-0.008573518460619118,-0.000494168218501397
0.195,0.00015831889999997042,-0.7849378299999993,7.251419300011143e-05,-2.3558426700000004,8.37912661999677e-05,1.5709351799999998,0.7859755919999999,0.04,0.0399999965,-9.819095299999987,0.0023637879639889126,-0.0005900126310062118,-0.0006270252710016478,-0.008606998156758723,-0.0005115736590013536
0.1975,0.0001579385299999714,-0.7849291149999993,7.394709650010785e-05,-2.3558471850000005,8.337598309996875e-05,1.5709331399999997,0.7859744459999999,0.04,0.03999999575,-9.818921149999987,0.0023968671448553096,-0.0006698921655060121,-0.0006482149505015949,-0.00864047785289833,-0.00052897909950131
0.2,0.0001575581599999657,-0.7849203999999993,7.538000000012964e-05,-2.3558517000000005,8.296069999996246e-05,1.5709310999999997,0.7859732999999999,0.04,0.039999995,-9.81874699999999,0.0024299463257215505,-0.0007497717000055313,-0.0006694046300017498,-0.008673957549037244,-0.0005463845400014544
0.2025,0.00015708664099996366,-0.7849117974999993,7.716173450013735e-05,-2.355855705,8.244481849996023e-05,1.5709288199999998,0.7859718749999999,0.04,0.039999994250000004,-9.818602249999989,0.0024608709383779188,-0.0008257889850058598,-0.0006934519700018538,-0.008697918476538672,-0.0005663722740015407
0.20500000000000002,0.00015661512199996162,-0.7849031949999993,7.894346900014504e-05,-2.3558597100000003,8.1928936999958e-05,1.5709265399999996,0.7859704499999999,0.04,0.039999993500000004,-9.818457499999989,0.0024917955510342874,-0.0009018062700061883,-0.0007174993100019576,-0.008721879404040102,-0.0005863600080016271
0.20750000000000002,0.0001561436029999596,-0.7848945924999993,8.072520350015275e-05,-2.3558637150000004,8.141305549995577e-05,1.5709242599999997,0.7859690249999999,0.04,0.039999992750000005,-9.818312749999988,0.002522720163690656,-0.0009778235550065167,-0.0007415466500020616,-0.00874584033154153,-0.0006063477420017135
0.21,0.00015567208399995755,-0.7848859899999993,8.250693800016043e-05,-2.3558677200000004,8.089717399995355e-05,1.5709219799999996,0.7859675999999999,0.04,0.039999992,-9.818167999999986,0.0025536447763470243,-0.0010538408400068444,-0.0007655939900021652,-0.008769801259042958,-0.0006263354760017996
0.2125,0.00015520056499995552,-0.7848773874999991,8.428867250016812e-05,-2.3558717250000005,8.038129249995132e-05,1.5709196999999997,0.7859661749999999,0.04,0.03999999125,-9.818023249999985,0.002584569389003393,-0.0011298581250071729,-0.0007896413300022691,-0.008793762186544386,-0.000646323210001886
0.215,0.00015472904599995348,-0.7848687849999991,8.607040700017582e-05,-2.35587573,7.986541099994909e-05,1.5709174199999998,0.7859647499999999,0.04,0.0399999905,-9.817878499999985,0.0026154940016597616,-0.0012058754100075014,-0.0008136886700023729,-0.008817723114045816,-0.0006663109440019723
0.2175,0.00015422320249994215,-0.7848601824999991,8.798381300021926e-05,-2.3558794,7.931095529993638e-05,1.5709149799999997,0.7859632324999998,0.04,0.03999999,-9.81774804999999,0.0026454048696932836,-0.0012827373800079122,-0.0008387700285027346,-0.008838657988236829,-0.0006872256550022934
0.22,0.00015364870999994357,-0.7848515799999992,9.016056200021381e-05,-2.3558824,7.867935119993796e-05,1.5709122199999996,0.7859615299999998,0.04,0.03999999,-9.81764619999999,0.002673288248482039,-0.0013612887200077158,-0.0008659194240026668,-0.008853540755809783,-0.0007099943200022364
0.2225,0.000153074217499945,-0.7848429774999992,9.233731100020837e-05,-2.3558854000000005,7.804774709993954e-05,1.5709094599999998,0.7859598274999998,0.04,0.03999999,-9.81754434999999,0.0027011716272707944,-0.0014398400600075195,-0.0008930688195025988,-0.008868423523382735,-0.0007327629850021795
0.225,0.00015249972499994645,-0.7848343749999992,9.451406000020292e-05,-2.3558884000000004,7.741614299994112e-05,1.5709066999999997,0.7859581249999998,0.04,0.03999999,-9.81744249999999,0.0027290550060595493,-0.001518391400007323,-0.000920218215002531,-0.008883306290955687,-0.0007555316500021226
0.2275,0.0001519252324999479,-0.7848257724999993,9.669080900019749e-05,-2.3558914000000004,7.67845388999427e-05,1.5709039399999998,0.7859564224999999,0.04,0.03999999,-9.81734064999999,0.0027569383848483047,-0.0015969427400071266,-0.0009473676105024631,-0.008898189058528641,-0.0007783003150020657
0.23,0.00015135073999994933,-0.7848171699999993,9.886755800019205e-05,-2.3558944000000004,7.615293479994428e-05,1.57090118,0.7859547199999999,0.04,0.03999999,-9.817238799999991,0.00278482176363706,-0.0016754940800069301,-0.0009745170060023951,-0.008913071826101593,-0.0008010689800020087
0.2325,0.00015077624749995074,-0.7848085674999993,0.0001010443070001866,-2.3558974000000004,7.552133069994586e-05,1.5708984199999998,0.7859530174999999,0.04,0.03999999,-9.817136949999991,0.0028127051424258155,-0.001754045420006734,-0.0010016664015023273,-0.008927954593674545,-0.0008238376450019518
0.23500000000000001,0.00015012499499994261,-0.7847999099999993,0.000103516058000218,-2.3559,7.480269239993657e-05,1.5708952699999998,0.7859511149999998,0.04,0.0399999905,-9.817002599999986,0.0028398465365192882,-0.0018307774000063102,-0.0010311251900025477,-0.008936130721122352,-0.0008485075700021323
0.23750000000000002,0.00014943536249994432,-0.7847912249999993,0.00010613531000021144,-2.3559024,7.404053699993847e-05,1.5708919249999997,0.7859491124999999,0.04,0.03999999125,-9.816851999999987,0.002866616938265261,-0.0019065997000061207,-0.0010617386750024712,-0.008940953528508865,-0.0008741281250020682
0.24,0.00014874572999994606,-0.7847825399999994,0.00010875456200020486,-2.3559048000000002,7.32783815999404e-05,1.5708885799999996,0.7859471099999998,0.04,0.039999992,-9.816701399999987,0.002893387340011234,-0.0019824220000059303,-0.0010923521600023944,-0.008945776335895377,-0.0008997486800020038
0.2425,0.0001480560974999478,-0.7847738549999994,0.0001113738140001983,-2.3559072000000003,7.251622619994229e-05,1.5708852349999998,0.7859451074999999,0.04,0.039999992750000005,-9.816550799999987,0.002920157741757207,-0.0020582443000057406,-0.0011229656450023177,-0.00895059914328189,-0.0009253692350019399
0.245,0.0001473664649999495,-0.7847651699999993,0.00011399306600019175,-2.3559096000000004,7.17540707999442e-05,1.5708818899999997,0.7859431049999999,0.04,0.039999993500000004,-9.816400199999988,0.00294692814350318,-0.002134066600005551,-0.0011535791300022412,-0.008955421950668403,-0.0009509897900018758
0.2475,0.00014667683249995123,-0.7847564849999994,0.00011661231800018521,-2.3559120000000005,7.09919153999461e-05,1.5708785449999998,0.7859411024999998,0.04,0.039999994250000004,-9.816249599999988,0.002973698545249153,-0.002209888900005361,-0.0011841926150021648,-0.008960244758054917,-0.0009766103450018118
0.25,0.00014598719999994424,-0.7847477999999994,0.00011923157000021216,-2.3559144,7.022975999993806e-05,1.5708751999999997,0.7859390999999999,0.04,0.039999995,-9.816098999999992,0.0030004689469947843,-0.0022857112000048804,-0.0012148061000023264,-0.008965067565440863,-0.0010022309000019462
0.2525,0.00014517000599994072,-0.7847388899999993,0.0001223419145002256,-2.3559161100000003,6.932176499993414e-05,1.5708712249999996,0.7859368109999998,0.04,0.03999999575,-9.816001799999992,0.003022229066120128,-0.0023572598950051893,-0.0012489113900024738,-0.008961579017340852,-0.0010307624600020696
0.255,0.0001443528119999372,-0.7847299799999993,0.00012545225900023905,-2.35591782,6.841376999993021e-05,1.5708672499999996,0.7859345219999998,0.04,0.0399999965,-9.815904599999993,0.003043989185245472,-0.0024288085900054986,-0.0012830166800026212,-0.008958090469240843,-0.0010592940200021927
0.2575,0.00014353561799993367,-0.7847210699999992,0.0001285626035002525,-2.3559195300000004,6.750577499992629e-05,1.5708632749999996,0.7859322329999998,0.04,0.03999999725,-9.815807399999992,0.0030657493043708163,-0.002500357285005808,-0.0013171219700027685,-0.008954601921140832,-0.001087825580002316
0.26,0.00014271842399993015,-0.7847121599999992,0.00013167294800026593,-2.3559212400000002,6.659777999992237e-05,1.5708592999999995,0.7859299439999998,0.04,0.039999998,-9.815710199999991,0.0030875094234961604,-0.002571905980006117,-0.0013512272600029159,-0.00895111337304082,-0.0011163571400024394
0.2625,0.0001419012299999266,-0.7847032499999992,0.00013478329250027937,-2.35592295,6.568978499991844e-05,1.5708553249999997,0.7859276549999998,0.04,0.03999999875,-9.81561299999999,0.0031092695426215046,-0.002643454675006426,-0.0013853325500030632,-0.008947624824940811,-0.0011448887000025626
0.265,0.00014108403599992307,-0.7846943399999992,0.0001378936370002928,-2.3559246600000003,6.478178999991451e-05,1.5708513499999996,0.7859253659999998,0.04,0.0399999995,-9.815515799999991,0.0031310296617468487,-0.0027150033700067354,-0.0014194378400032106,-0.0089441362768408,-0.001173420260002686
0.2675,0.0001402200879999079,-0.784685334999999,0.00014118417250035117,-2.3559260600000003,6.382119999989749e-05,1.5708471699999995,0.7859229249999998,0.04,0.04,-9.81541869999999,0.003152529243381818,-0.002789321875007681,-0.0014548107200036463,-0.008937938837333362,-0.0012028200600029948
0.27,0.0001392626319999103,-0.7846761399999991,0.00014483509000034204,-2.35592684,6.275541999990015e-05,1.5708425799999997,0.7859201799999997,0.04,0.04,-9.81532179999999,0.0031735077500362656,-0.0028691800000074812,-0.0014927187800035514,-0.00892632361501343,-0.001233956340002917
0.2725,0.0001383051759999127,-0.7846669449999991,0.0001484860075003329,-2.35592762,6.168963999990282e-05,1.5708379899999996,0.7859174349999998,0.04,0.04,-9.815224899999992,0.0031944862566907132,-0.0029490381250072816,-0.0015306268400034568,-0.0089147083926935,-0.001265092620002839
0.275,0.0001373477199999151,-0.7846577499999992,0.00015213692500032377,-2.3559284000000003,6.062385999990548e-05,1.5708333999999997,0.7859146899999998,0.04,0.04,-9.81512799999999,0.0032154647633451604,-0.003028896250007082,-0.0015685349000033619,-0.00890309317037357,-0.0012962289000027613
0.2775,0.00013639026399991748,-0.7846485549999992,0.00015578784250031466,-2.35592918,5.955807999990815e-05,1.5708288099999996,0.7859119449999998,0.04,0.04,-9.815031099999992,0.003236443269999608,-0.0031087543750068823,-0.001606442960003267,-0.008891477948053639,-0.0013273651800026834
0.28,0.00013543280799991987,-0.7846393599999992,0.00015943876000030553,-2.35592996,5.849229999991081e-05,1.5708242199999998,0.7859091999999998,0.04,0.04,-9.81493419999999,0.0032574217766540557,-0.0031886125000066827,-0.0016443510200031724,-0.008879862725733708,-0.0013585014600026057
0.28250000000000003,0.00013447535199992227,-0.7846301649999993,0.0001630896775002964,-2.3559307400000002,5.742651999991348e-05,1.5708196299999997,0.7859064549999998,0.04,0.04,-9.814837299999992,0.0032784002833085033,-0.003268470625006483,-0.0016822590800030775,-0.008868247503413777,-0.0013896377400025278
0.28500000000000003,0.00013341582199990758,-0.7846207099999992,0.00016713447900035304,-2.35593108,5.6246608199897044e-05,1.5708145199999997,0.7859034159999998,0.04,0.04,-9.81472389999999,0.003295730915853141,-0.0033506572700069373,-0.0017223584300034287,-0.008850377425549633,-0.0014226258900028226
0.28750000000000003,0.00013230525499990277,-0.7846111249999992,0.00017137622250037137,-2.3559312,5.5009630499891705e-05,1.5708091499999997,0.7859002299999998,0.04,0.04,-9.81460224999999,0.003311237611343533,-0.0034340081750072974,-0.0017635534250036067,-0.008829379919914511,-0.0014565399750029692
0.29,0.000131194687999898,-0.7846015399999992,0.0001756179660003896,-2.35593132,5.3772652799886385e-05,1.5708037799999996,0.7858970439999997,0.04,0.04,-9.814480599999989,0.0033267443068339246,-0.0035173590800076557,-0.0018047484200037838,-0.008808382414279392,-0.001490454060003115
0.2925,0.0001300841209998932,-0.7845919549999991,0.00017985970950040793,-2.35593144,5.253567509988104e-05,1.5707984099999996,0.7858938579999997,0.04,0.04,-9.814358949999988,0.0033422510023243166,-0.0036007099850080162,-0.0018459434150039618,-0.00878738490864427,-0.0015243681450032615
0.295,0.0001289735539998884,-0.7845823699999991,0.00018410145300042625,-2.35593156,5.129869739987569e-05,1.5707930399999996,0.7858906719999996,0.04,0.04,-9.814237299999988,0.003357757697814708,-0.0036840608900083763,-0.0018871384100041398,-0.008766387403009149,-0.001558282230003408
0.2975,0.0001278629869998836,-0.784572784999999,0.0001883431965004446,-2.35593168,5.006171969987035e-05,1.5707876699999994,0.7858874859999997,0.04,0.04,-9.814115649999987,0.0033732643933051002,-0.0037674117950087364,-0.0019283334050043178,-0.008745389897374028,-0.0015921963150035546
0.3,0.00012675241999986068,-0.7845631999999989,0.00019258494000053294,-2.3559318,4.882474199984471e-05,1.5707822999999994,0.7858842999999995,0.04,0.04,-9.81399399999999,0.00338877108879478,-0.0038507627000089226,-0.0019695284000048876,-0.008724392391738086,-0.0016261104000040215
0.3025,0.0001254757393998595,-0.7845531349999989,0.0001974683715005374,-2.35593123,4.740180539984341e-05,1.5707760749999995,0.7858806399999996,0.04,0.03999999925,-9.81391224999999,0.0033977532410071985,-0.003932518955008997,-0.0020143125200049283,-0.008695863187309874,-0.0016629593550040551
0.305,0.00012419905879985834,-0.7845430699999989,0.00020235180300054185,-2.35593066,4.597886879984212e-05,1.5707698499999994,0.7858769799999996,0.04,0.0399999985,-9.813830499999991,0.0034067353932196167,-0.004014275210009071,-0.002059096640004969,-0.008667333982881664,-0.0016998083100040885
0.3075,0.00012292237819985717,-0.7845330049999989,0.0002072352345005463,-2.3559300899999998,4.455593219984082e-05,1.5707636249999994,0.7858733199999995,0.04,0.03999999775,-9.813748749999991,0.003415717545432035,-0.004096031465009146,-0.00210388076000501,-0.008638804778453453,-0.0017366572650041221
0.31,0.00012164569759985602,-0.7845229399999989,0.00021211866600055073,-2.35592952,4.313299559983952e-05,1.5707573999999993,0.7858696599999996,0.04,0.039999997,-9.81366699999999,0.003424699697644453,-0.00417778772000922,-0.002148664880005051,-0.008610275574025241,-0.0017735062200041557
0.3125,0.00012036901699985485,-0.7845128749999989,0.00021700209750055518,-2.35592895,4.171005899983823e-05,1.5707511749999994,0.7858659999999995,0.04,0.03999999625,-9.81358524999999,0.003433681849856871,-0.004259543975009295,-0.0021934490000050915,-0.008581746369597031,-0.0018103551750041893
0.315,0.0001190923363998537,-0.7845028099999989,0.00022188552900055962,-2.35592838,4.028712239983693e-05,1.5707449499999993,0.7858623399999995,0.04,0.0399999955,-9.81350349999999,0.0034426640020692894,-0.0043413002300093685,-0.002238233120005132,-0.00855321716516882,-0.0018472041300042227
0.3175,0.00011775591319983183,-0.7844925579999988,0.0002269999505006441,-2.3559275,3.87968235998123e-05,1.5707384699999993,0.7858585049999994,0.04,0.039999995,-9.813424099999992,0.003449659491889449,-0.004426771945010731,-0.0022841897300055793,-0.008522226521741172,-0.0018850772850046113
0.32,0.0001163000047998305,-0.7844819319999988,0.0002325763520006492,-2.3559259999999997,3.7171800399810815e-05,1.5707314799999992,0.7858543199999994,0.04,0.039999995,-9.813349399999991,0.003452681656927152,-0.004519674580010815,-0.0023324913200056235,-0.008486313000317198,-0.0019249988400046477
0.3225,0.00011484409639982919,-0.7844713059999988,0.00023815275350065425,-2.3559245,3.554677719980934e-05,1.5707244899999993,0.7858501349999995,0.04,0.039999995,-9.813274699999992,0.0034557038219648548,-0.0046125772150109,-0.0023807929100056672,-0.008450399478893226,-0.0019649203950046837
0.325,0.00011338818799982786,-0.7844606799999988,0.00024372915500065932,-2.3559229999999998,3.392175399980786e-05,1.570717499999999,0.7858459499999995,0.04,0.039999995,-9.813199999999991,0.003458725987002557,-0.004705479850010985,-0.002429094500005711,-0.008414485957469254,-0.00200484195000472
0.3275,0.00011193227959982653,-0.7844500539999988,0.0002493055565006644,-2.3559215,3.2296730799806375e-05,1.5707105099999992,0.7858417649999995,0.04,0.039999995,-9.81312529999999,0.00346174815204026,-0.004798382485011069,-0.0024773960900057552,-0.00837857243604528,-0.0020447635050047566
0.33,0.00011047637119982521,-0.7844394279999988,0.0002548819580006695,-2.35592,3.06717075998049e-05,1.570703519999999,0.7858375799999995,0.04,0.039999995,-9.813050599999992,0.0034647703170779627,-0.004891285120011154,-0.002525697680005799,-0.008342658914621309,-0.002084685060004793
0.3325,0.00010902046279982388,-0.7844288019999988,0.00026045835950067454,-2.3559184999999996,2.904668439980342e-05,1.570696529999999,0.7858333949999995,0.04,0.039999995,-9.81297589999999,0.0034677924821156655,-0.004984187755011239,-0.002573999270005843,-0.008306745393197337,-0.002124606615004829
0.335,0.00010743628799980286,-0.7844177139999987,0.000266531184000756,-2.3559164699999995,2.7275961199779495e-05,1.570688869999999,0.7858288339999994,0.04,0.0399999955,-9.812880799999988,0.003466095449402415,-0.005082632770012106,-0.0026247334200062136,-0.00826495448126851,-0.0021665827200051434
0.3375,0.00010578797999980697,-0.7844063949999986,0.0002728522200007402,-2.3559141749999997,2.5432387999784106e-05,1.570680874999999,0.7858240849999995,0.04,0.03999999625,-9.812775499999988,0.0034620388178149748,-0.005183848975011853,-0.0026766838500060838,-0.008220224874088862,-0.002209586100005036
0.34,0.00010413967199981109,-0.7843950759999987,0.00027917325600072444,-2.35591188,2.3588814799788714e-05,1.570672879999999,0.7858193359999994,0.04,0.039999997,-9.812670199999987,0.003457982186227535,-0.0052850651800116,-0.002728634280005954,-0.008175495266909213,-0.0022525894800049283
0.3425,0.00010249136399981521,-0.7843837569999987,0.0002854942920007086,-2.3559095849999996,2.1745241599793322e-05,1.5706648849999991,0.7858145869999994,0.04,0.03999999775,-9.812564899999987,0.003453925554640095,-0.005386281385011347,-0.002780584710005824,-0.008130765659729566,-0.0022955928600048208
0.34500000000000003,0.00010084305599981933,-0.7843724379999988,0.0002918153280006928,-2.3559072899999998,1.990166839979793e-05,1.570656889999999,0.7858098379999995,0.04,0.0399999985,-9.812459599999988,0.0034498689230526556,-0.005487497590011094,-0.0028325351400056943,-0.008086036052549917,-0.0023385962400047132
0.34750000000000003,9.919474799982346e-05,-0.7843611189999988,0.000298136364000677,-2.355904995,1.8058095199802542e-05,1.570648894999999,0.7858050889999995,0.04,0.03999999925,-9.812354299999988,0.0034458122914652156,-0.0055887137950108405,-0.0028844855700055645,-0.008041306445370268,-0.0023815996200046057
0.35000000000000003,9.754643999980606e-05,-0.7843497999999988,0.0003044574000007445,-2.3559026999999997,1.621452199978285e-05,1.570640899999999,0.7858003399999994,0.04,0.04,-9.812248999999992,0.0034417556598771164,-0.005689930000011682,-0.0029364360000058037,-0.007996576838189903,-0.002424603000004797
0.3525,9.569245649979809e-05,-0.7843377474999986,0.0003115748640007751,-2.355899655,1.4138625604773925e-05,1.570631959999999,0.7857950014999994,0.04,0.04,-9.812181349999992,0.0034313933225336717,-0.005801601490012162,-0.002991914820006042,-0.007944990275422047,-0.0024704620200049943
0.355,9.383847299979008e-05,-0.7843256949999986,0.00031869232800080585,-2.35589661,1.2062729209764956e-05,1.5706230199999989,0.7857896629999994,0.04,0.04,-9.812113699999992,0.003421030985190227,-0.005913272980012645,-0.0030473936400062817,-0.00789340371265419,-0.0025163210400051925
0.3575,9.198448949978208e-05,-0.7843136424999986,0.00032580979200083664,-2.3558935649999997,9.986832814755986e-06,1.5706140799999988,0.7857843244999994,0.04,0.04,-9.812046049999992,0.0034106686478467822,-0.0060249444700131265,-0.003102872460006521,-0.007841817149886332,-0.0025621800600053907
0.36,9.013050599977406e-05,-0.7843015899999985,0.0003329272560008674,-2.3558905199999995,7.910936419747017e-06,1.5706051399999987,0.7857789859999994,0.04,0.04,-9.811978399999992,0.003400306310503337,-0.006136615960013609,-0.003158351280006761,-0.007790230587118473,-0.0026080390800055885
0.3625,8.827652249976605e-05,-0.7842895374999985,0.00034004472000089816,-2.355887475,5.8350400247380464e-06,1.5705961999999989,0.7857736474999993,0.04,0.04,-9.81191074999999,0.0033899439731598924,-0.006248287450014092,-0.0032138301000070005,-0.007738644024350615,-0.0026538981000057867
0.365,8.642253899975804e-05,-0.7842774849999985,0.0003471621840009289,-2.3558844299999997,3.7591436297290776e-06,1.5705872599999988,0.7857683089999993,0.04,0.04,-9.81184309999999,0.0033795816358164477,-0.006359958940014575,-0.0032693089200072404,-0.007687057461582757,-0.002699757120005985
0.3675,8.449558749972523e-05,-0.7842651524999983,0.0003545624450010559,-2.3558810649999997,1.6003088646918452e-06,1.5705779799999986,0.7857627524999992,0.04,0.04,-9.81177684999999,0.0033670775825134646,-0.006473923850015715,-0.0033260058700078383,-0.007633040123611245,-0.0027466472450064887
0.37,8.242269999973041e-05,-0.7842522599999984,0.000362528300001036,-2.3558770599999996,-7.244026403023425e-07,1.5705680199999987,0.7857567599999993,0.04,0.04,-9.811713399999991,0.003350290097293977,-0.006592475600015419,-0.0033851390800076907,-0.007574161235235342,-0.0027955995800063665
0.3725,8.03498124997356e-05,-0.7842393674999983,0.0003704941550010161,-2.3558730549999995,-3.04911414529653e-06,1.5705580599999986,0.7857507674999993,0.04,0.04,-9.81164994999999,0.0033335026120744887,-0.006711027350015122,-0.0034442722900075427,-0.0075152823468594395,-0.0028445519150062442
0.375,7.827692499974078e-05,-0.7842264749999984,0.0003784600100009962,-2.3558690499999995,-5.3738256502907184e-06,1.5705480999999988,0.7857447749999993,0.04,0.04,-9.811586499999992,0.0033167151268550005,-0.006829579100014826,-0.003503405500007395,-0.007456403458483536,-0.0028935042500061216
0.3775,7.620403749974596e-05,-0.7842135824999985,0.00038642586500097626,-2.355865045,-7.698537155284906e-06,1.5705381399999987,0.7857387824999993,0.04,0.04,-9.811523049999993,0.0032999276416355123,-0.0069481308500145295,-0.003562538710007247,-0.007397524570107634,-0.0029424565850059993
0.38,7.413114999975114e-05,-0.7842006899999985,0.00039439172000095633,-2.3558610399999997,-1.0023248660279093e-05,1.5705281799999988,0.7857327899999993,0.04,0.04,-9.811459599999992,0.0032831401564160246,-0.007066682600014233,-0.003621671920007099,-0.007338645681731731,-0.002991408920005877
0.3825,7.205826249975633e-05,-0.7841877974999986,0.0004023575750009364,-2.3558570349999997,-1.234796016527328e-05,1.570518219999999,0.7857267974999993,0.04,0.04,-9.811396149999993,0.0032663526711965364,-0.007185234350013937,-0.0036808051300069515,-0.007279766793355828,-0.0030403612550057545
0.385,6.98305762997243e-05,-0.7841742699999984,0.0004109236100010604,-2.35585241,-1.4846802700309279e-05,1.5705075099999988,0.7857203499999992,0.04,0.04,-9.811315649999989,0.0032443153671890402,-0.007313690140015956,-0.0037423187500074994,-0.007215526606879526,-0.0030911400100061825
0.3875,6.752549074971435e-05,-0.7841604249999983,0.0004197897350010987,-2.3558474749999996,-1.7432710750320454e-05,1.5704964249999986,0.7857136749999992,0.04,0.04,-9.811226624999989,0.0032196531537889185,-0.007447097950016532,-0.0038050225750077705,-0.007148605771354431,-0.003142831975006406
0.39,6.522040519970439e-05,-0.7841465799999983,0.00042865586000113704,-2.3558425399999994,-2.0018618800331627e-05,1.5704853399999985,0.7857069999999992,0.04,0.04,-9.811137599999988,0.003194990940388797,-0.007580505760017109,-0.003867726400008041,-0.007081684935829337,-0.0031945239400066293
0.3925,6.291531964969443e-05,-0.7841327349999981,0.00043752198500117537,-2.355837604999999,-2.26045268503428e-05,1.5704742549999986,0.7857003249999991,0.04,0.04,-9.811048574999989,0.0031703287269886755,-0.007713913570017685,-0.003930430225008312,-0.007014764100304244,-0.0032462159050068527
0.395,6.0610234099684466e-05,-0.7841188899999981,0.0004463881100012137,-2.3558326699999994,-2.5190434900353974e-05,1.5704631699999985,0.7856936499999991,0.04,0.04,-9.810959549999987,0.0031456665135885537,-0.007847321380018263,-0.003993134050008583,-0.0069478432647791495,-0.003297907870007076
0.3975,5.8305148549674506e-05,-0.784105044999998,0.00045525423500125195,-2.355827734999999,-2.7776342950365148e-05,1.5704520849999983,0.7856869749999991,0.04,0.04,-9.810870524999986,0.0031210043001884324,-0.007980729190018838,-0.004055837875008854,-0.006880922429254055,-0.0033495998350072994
0.4,5.600006299962883e-05,-0.7840911999999979,0.00046412036000142884,-2.355822799999999,-3.0362251000416552e-05,1.5704409999999982,0.7856802999999989,0.04,0.04,-9.81078149999999,0.0030963420867867516,-0.00811413700002111,-0.004118541700009638,-0.006814001593727964,-0.0034012918000079556
0.4025,5.3449551049626505e-05,-0.7840763544999978,0.0004739385560014378,-2.355816979999999,-3.3224596150419156e-05,1.5704286999999981,0.7856729049999989,0.04,0.03999999925,-9.81071767499999,0.0030609661247528596,-0.008259196900021243,-0.0041847711700096985,-0.006740227225225696,-0.003455956690008005
0.405,5.089903909962419e-05,-0.7840615089999978,0.0004837567520014467,-2.355811159999999,-3.6086941300421763e-05,1.5704163999999983,0.7856655099999988,0.04,0.0399999985,-9.81065384999999,0.003025590162718967,-0.008404256800021374,-0.004251000640009758,-0.00666645285672343,-0.003510621580008055
0.40750000000000003,4.8348527149621865e-05,-0.7840466634999977,0.0004935749480014556,-2.355805339999999,-3.894928645042437e-05,1.5704040999999982,0.7856581149999989,0.04,0.03999999775,-9.81059002499999,0.002990214200685075,-0.008549316700021507,-0.004317230110009819,-0.0065926784882211625,-0.0035652864700081045
0.41000000000000003,4.579801519961954e-05,-0.7840318179999978,0.0005033931440014646,-2.355799519999999,-4.181163160042697e-05,1.5703917999999981,0.7856507199999989,0.04,0.039999997,-9.810526199999991,0.002954838238651183,-0.008694376600021638,-0.00438345958000988,-0.006518904119718895,-0.0036199513600081545
0.41250000000000003,4.324750324961722e-05,-0.7840169724999977,0.0005132113400014736,-2.355793699999999,-4.467397675042958e-05,1.5703794999999983,0.7856433249999989,0.04,0.03999999625,-9.810462374999991,0.002919462276617291,-0.00883943650002177,-0.00444968905000994,-0.006445129751216628,-0.003674616250008204
0.41500000000000004,4.0696991299614895e-05,-0.7840021269999977,0.0005230295360014825,-2.355787879999999,-4.7536321900432186e-05,1.5703671999999982,0.7856359299999989,0.04,0.0399999955,-9.810398549999992,0.0028840863145833985,-0.008984496400021903,-0.00451591852001,-0.0063713553827143615,-0.0037292811400082538
0.4175,3.806028124957336e-05,-0.7839869034999976,0.0005331823085016436,-2.355781744999999,-5.049629370047921e-05,1.570354494999998,0.7856282849999987,0.04,0.039999995,-9.810335749999991,0.002845475100905268,-0.009132745300023485,-0.0045833353550106,-0.0062953443499158815,-0.003784969880008769
0.42,3.52511749995708e-05,-0.7839709239999976,0.0005440042340016535,-2.3557749799999987,-5.3651518800482085e-05,1.570340979999998,0.7856201399999987,0.04,0.039999995,-9.810274999999992,0.002800393383943072,-0.009287372200023625,-0.004653126920010664,-0.006214859988528023,-0.0038427063200088215
0.4225,3.2442068749568245e-05,-0.7839549444999975,0.0005548261595016633,-2.355768214999999,-5.680674390048496e-05,1.570327464999998,0.7856119949999988,0.04,0.039999995,-9.81021424999999,0.0027553116669808758,-0.009441999100023765,-0.004722918485010727,-0.0061343756271401645,-0.003900442760008874
0.425,2.963296249956569e-05,-0.7839389649999975,0.0005656480850016732,-2.355761449999999,-5.996196900048783e-05,1.570313949999998,0.7856038499999988,0.04,0.039999995,-9.810153499999991,0.00271022995001868,-0.009596626000023907,-0.004792710050010791,-0.006053891265752306,-0.003958179200008927
0.4275,2.6823856249563132e-05,-0.7839229854999975,0.000576470010501683,-2.355754684999999,-6.31171941004907e-05,1.570300434999998,0.7855957049999988,0.04,0.039999995,-9.81009274999999,0.002665148233056484,-0.009751252900024047,-0.004862501615010854,-0.0059734069043644485,-0.004015915640008979
0.43,2.4014749999560572e-05,-0.7839070059999975,0.0005872919360016929,-2.355747919999999,-6.627241920049358e-05,1.570286919999998,0.7855875599999987,0.04,0.039999995,-9.81003199999999,0.002620066516094288,-0.009905879800024189,-0.0049322931800109176,-0.00589292254297659,-0.004073652080009032
0.4325,2.1205643749558015e-05,-0.7838910264999975,0.0005981138615017027,-2.3557411549999987,-6.942764430049644e-05,1.570273404999998,0.7855794149999987,0.04,0.039999995,-9.80997124999999,0.0025749847991320914,-0.010060506700024329,-0.005002084745010981,-0.0058124381815887315,-0.004131388520009084
0.435,1.8215387305512454e-05,-0.7838742639999973,0.0006096391530018795,-2.3557337699999987,-7.278806340054803e-05,1.5702590399999978,0.7855707459999987,0.04,0.039999995,-9.80991339999999,0.0025238238274965124,-0.010231001200028237,-0.005074272470011613,-0.0057275172322849895,-0.004191079100009601
0.4375,1.513455576450965e-05,-0.7838571099999972,0.0006215161275018904,-2.355726074999999,-7.625107950055119e-05,1.5702442499999978,0.7855618149999986,0.04,0.039999995,-9.80985699999999,0.002469623228526398,-0.010409429500028398,-0.00514765827501168,-0.0056403779890248805,-0.004251746750009657
0.44,1.2053724223506845e-05,-0.7838399559999972,0.0006333931020019012,-2.3557183799999986,-7.971409560055433e-05,1.5702294599999977,0.7855528839999986,0.04,0.039999995,-9.809800599999992,0.002415422629556284,-0.010587857800028562,-0.005221044080011747,-0.005553238745764771,-0.004312414400009712
0.4425,8.97289268250404e-06,-0.7838228019999973,0.000645270076501912,-2.3557106849999987,-8.317711170055749e-05,1.5702146699999977,0.7855439529999986,0.04,0.039999995,-9.809744199999992,0.0023612220305861695,-0.010766286100028723,-0.005294429885011814,-0.0054660995025046615,-0.004373082050009767
0.445,5.892061141501235e-06,-0.7838056479999973,0.0006571470510019228,-2.355702989999999,-8.664012780056063e-05,1.5701998799999977,0.7855350219999986,0.04,0.039999995,-9.809687799999992,0.002307021431616055,-0.010944714400028886,-0.005367815690011881,-0.005378960259244552,-0.004433749700009822
0.4475,2.811229600498428e-06,-0.7837884939999973,0.0006690240255019336,-2.3556952949999985,-9.010314390056379e-05,1.5701850899999976,0.7855260909999986,0.04,0.039999995,-9.809631399999992,0.002252820832645941,-0.011123142700029048,-0.005441201495011948,-0.005291821015984443,-0.0044944173500098775
0.45,-2.6960194055098834e-07,-0.783771339999997,0.0006809010000021255,-2.3556875999999987,-9.356616000061996e-05,1.5701702999999974,0.7855171599999985,0.04,0.039999995,-9.809574999999992,0.0021986202336739262,-0.011301571000031143,-0.005514587300012595,-0.005204681772723274,-0.004555085000010427
0.4525,-3.6351667995540518e-06,-0.783752973999997,0.0006938840850021374,-2.3556788699999984,-9.735300990062341e-05,1.5701540549999973,0.7855073859999985,0.04,0.03999999575,-9.809524449999993,0.002132809441525761,-0.011491798300031315,-0.005591518655012665,-0.005111071839913135,-0.004618775000010485
0.455,-7.000731658557116e-06,-0.783734607999997,0.0007068671700021492,-2.3556701399999986,-0.00010113985980062686,1.5701378099999974,0.7854976119999985,0.04,0.0399999965,-9.809473899999992,0.002066998649377596,-0.011682025600031488,-0.005668450010012735,-0.005017461907102994,-0.004682465000010543
0.4575,-1.0366296517560179e-05,-0.783716241999997,0.000719850255002161,-2.355661409999999,-0.0001049267097006303,1.5701215649999973,0.7854878379999984,0.04,0.03999999725,-9.809423349999992,0.0020011878572294313,-0.011872252900031662,-0.005745381365012805,-0.004923851974292854,-0.004746155000010601
0.46,-1.3731861376563242e-05,-0.783697875999997,0.0007328333400021728,-2.3556526799999986,-0.00010871355960063375,1.5701053199999973,0.7854780639999984,0.04,0.039999998,-9.809372799999991,0.0019353770650812662,-0.012062480200031835,-0.005822312720012875,-0.004830242041482713,-0.004809845000010659
0.4625,-1.7097426235566308e-05,-0.7836795099999969,0.0007458164250021845,-2.355643949999999,-0.0001125004095006372,1.5700890749999974,0.7854682899999984,0.04,0.03999999875,-9.809322249999992,0.0018695662729331015,-0.012252707500032009,-0.005899244075012945,-0.004736632108672574,-0.004873535000010717
0.465,-2.046299109456937e-05,-0.7836611439999969,0.0007587995100021964,-2.3556352199999986,-0.00011628725940064065,1.5700728299999973,0.7854585159999984,0.04,0.0399999995,-9.809271699999991,0.0018037554807849364,-0.012442934800032182,-0.005976175430013015,-0.004643022175862433,-0.004937225000010775
0.4675,-2.392778380062307e-05,-0.7836423149999966,0.000772168181502405,-2.3556261699999985,-0.00012018655520070147,1.5700561249999971,0.7854484499999982,0.04,0.04,-9.80921699999999,0.0017340054269747766,-0.012637074700034352,-0.006054270625013679,-0.004547222703678251,-0.0050018347100113025
0.47000000000000003,-2.7591032200626403e-05,-0.7836225599999966,0.0007863080260024179,-2.3556164799999983,-0.00012431074280070523,1.570038499999997,0.7854377999999982,0.04,0.04,-9.80915399999999,0.0016563768498466457,-0.012839039800034535,-0.006134693500013752,-0.0044470441527493295,-0.005068283840011362
0.47250000000000003,-3.125428060062974e-05,-0.7836028049999966,0.0008004478705024307,-2.355606789999998,-0.00012843493040070897,1.570020874999997,0.7854271499999982,0.04,0.04,-9.80909099999999,0.0015787482727185151,-0.013041004900034719,-0.006215116375013825,-0.004346865601820409,-0.005134732970011423
0.47500000000000003,-3.491752900063308e-05,-0.7835830499999966,0.0008145877150024436,-2.3555970999999984,-0.00013255911800071275,1.570003249999997,0.7854164999999982,0.04,0.04,-9.809027999999989,0.0015011196955903845,-0.013242970000034902,-0.006295539250013899,-0.004246687050891487,-0.005201182100011484
0.47750000000000004,-3.858077740063641e-05,-0.7835632949999966,0.0008287275595024564,-2.3555874099999983,-0.0001366833056007165,1.569985624999997,0.7854058499999982,0.04,0.04,-9.80896499999999,0.0014234911184622537,-0.013444935100035086,-0.006375962125013972,-0.004146508499962566,-0.005267631230011544
0.48,-4.2244025800639664e-05,-0.7835435399999966,0.000842867404002469,-2.355577719999998,-0.00014080749320072015,1.569967999999997,0.7853951999999982,0.04,0.04,-9.80890199999999,0.0013458625413341248,-0.013646900200035266,-0.006456385000014043,-0.004046329949033647,-0.005334080360011603
0.4825,-4.5907274200643005e-05,-0.7835237849999965,0.000857007248502482,-2.355568029999998,-0.0001449316808007239,1.569950374999997,0.7853845499999982,0.04,0.04,-9.80883899999999,0.0012682339642059942,-0.01384886530003545,-0.006536807875014116,-0.0039461513981047264,-0.0054005294900116635
0.485,-4.9777502300701116e-05,-0.7835031549999963,0.0008719517170027078,-2.355557619999998,-0.0001492921650007902,1.5699317299999966,0.7853732999999979,0.04,0.04,-9.808794699999995,0.0011842263862336152,-0.014068818500040395,-0.006619551450014804,-0.0038421372882834898,-0.005469029680012266
0.4875,-5.375122025070473e-05,-0.7834820874999963,0.0008872984975027218,-2.355546849999998,-0.00015377079750079428,1.5699125749999967,0.785361749999998,0.04,0.04,-9.808759749999995,0.0010970293078416359,-0.014297765750040603,-0.00670345537501488,-0.0037362053990176135,-0.00553855540001233
0.49,-5.772493820070835e-05,-0.7834610199999963,0.0009026452780027357,-2.355536079999998,-0.00015824943000079835,1.5698934199999965,0.7853501999999979,0.04,0.04,-9.808724799999995,0.0010098322294496565,-0.014526713000040811,-0.006787359300014956,-0.003630273509751737,-0.005608081120012393
0.4925,-6.169865615071196e-05,-0.7834399524999962,0.0009179920585027497,-2.355525309999998,-0.00016272806250080244,1.5698742649999966,0.7853386499999979,0.04,0.04,-9.808689849999995,0.000922635151057677,-0.01475566025004102,-0.0068712632250150325,-0.0035243416204858605,-0.005677606840012456
0.495,-6.567237410071559e-05,-0.7834188849999962,0.0009333388390027637,-2.355514539999998,-0.0001672066950008065,1.5698551099999964,0.785327099999998,0.04,0.04,-9.808654899999995,0.0008354380726656977,-0.01498460750004123,-0.00695516715001511,-0.003418409731219984,-0.00574713256001252
0.4975,-6.964609205071921e-05,-0.7833978174999962,0.0009486856195027776,-2.355503769999998,-0.00017168532750081058,1.5698359549999965,0.7853155499999979,0.04,0.04,-9.808619949999994,0.0007482409942737183,-0.015213554750041438,-0.007039071075015186,-0.0033124778419541074,-0.005816658280012583
0.5,-7.36198100007816e-05,-0.7833767499999958,0.0009640324000030202,-2.355492999999998,-0.00017616396000088083,1.5698167999999961,0.7853039999999978,0.04,0.04,-9.80858499999999,0.0006610439158797638,-0.015442502000042928,-0.007122975000015885,-0.0032065459526870416,-0.005886184000013073
0.5025000000000001,-7.791673700077096e-05,-0.7833542124999959,0.000980635765002979,-2.355481149999998,-0.00018100642350086884,1.5697961149999962,0.7852915049999978,0.04,0.04,-9.80852289999999,0.0005629881517785622,-0.015678496400042343,-0.007210303350015669,-0.0030940753058328256,-0.005958051145012895
0.505,-8.221366400076012e-05,-0.783331674999996,0.000997239130002937,-2.355469299999998,-0.00018584888700085662,1.5697754299999962,0.7852790099999978,0.04,0.04,-9.80846079999999,0.0004649323876773651,-0.015914490800041748,-0.007297631700015448,-0.002981604658978614,-0.006029918290012713
0.5075000000000001,-8.651059100074948e-05,-0.7833091374999961,0.001013842495002896,-2.355457449999998,-0.00019069135050084462,1.5697547449999962,0.7852665149999978,0.04,0.04,-9.808398699999989,0.00036687662357616355,-0.016150485200041163,-0.007384960050015232,-0.002869134012124398,-0.006101785435012535
0.51,-9.080751800073863e-05,-0.7832865999999962,0.0010304458600028541,-2.355445599999998,-0.0001955338140008324,1.5697340599999965,0.7852540199999979,0.04,0.04,-9.80833659999999,0.00026882085947496637,-0.016386479600040565,-0.007472288400015011,-0.0027566633652701864,-0.006173652580012354
0.5125,-9.51044450007278e-05,-0.7832640624999962,0.0010470492250028122,-2.355433749999998,-0.0002003762775008202,1.5697133749999965,0.7852415249999979,0.04,0.04,-9.808274499999989,0.00017076509537376923,-0.01662247400003997,-0.0075596167500147915,-0.0026441927184159752,-0.006245519725012172
0.515,-9.940137200071714e-05,-0.7832415249999963,0.001063652590002771,-2.3554218999999983,-0.0002052187410008082,1.5696926899999966,0.7852290299999979,0.04,0.04,-9.80821239999999,7.270933127256766e-05,-0.016858468400039385,-0.007646945100014574,-0.0025317220715617593,-0.006317386870011994
0.5175,-0.00010381020050077202,-0.783218452999996,0.0010806911900029846,-2.355409669999998,-0.00021018854250087066,1.5696714499999962,0.7852162049999978,0.04,0.04,-9.808154949999992,-3.081397155344289e-05,-0.01710399320004409,-0.007735397350015115,-0.0024171597789774514,-0.006390297535012498
0.52,-0.00010844283200079214,-0.7831943119999959,0.0010986002600030624,-2.355396679999998,-0.00021541302000089335,1.5696490999999961,0.7852027199999977,0.04,0.04,-9.808106799999992,-0.0001452723518209555,-0.01736857880004524,-0.00782609740001551,-0.0022984141949360555,-0.006465295240012824
0.5225,-0.00011307546350081206,-0.7831701709999959,0.0011165093300031393,-2.355383689999998,-0.0002206374975009158,1.569626749999996,0.7851892349999976,0.04,0.04,-9.80805864999999,-0.00025973073208846305,-0.017633164400046378,-0.0079167974500159,-0.002179668610894665,-0.006540292945013146
0.525,-0.00011770809500083218,-0.7831460299999957,0.001134418400003217,-2.3553706999999977,-0.0002258619750009385,1.569604399999996,0.7851757499999976,0.04,0.04,-9.808010499999991,-0.00037418911235597563,-0.01789775000004753,-0.008007497500016293,-0.0020609230268532693,-0.006615290650013472
0.5275,-0.0001223407265008521,-0.7831218889999956,0.0011523274700032942,-2.3553577099999976,-0.00023108645250096094,1.569582049999996,0.7851622649999975,0.04,0.04,-9.807962349999992,-0.0004886474926234832,-0.018162335600048665,-0.008098197550016683,-0.001942177442811879,-0.006690288355013794
0.53,-0.00012697335800087223,-0.7830977479999955,0.001170236540003372,-2.3553447199999975,-0.00023631093000098363,1.569559699999996,0.7851487799999974,0.04,0.04,-9.80791419999999,-0.0006031058728909958,-0.018426921200049812,-0.008188897600017076,-0.001823431858770483,-0.00676528606001412
0.5325,-0.00013160598950089214,-0.7830736069999954,0.0011881456100034488,-2.355331729999998,-0.00024153540750100608,1.5695373499999958,0.7851352949999975,0.04,0.04,-9.80786604999999,-0.0007175642531585033,-0.018691506800050953,-0.008279597650017467,-0.0017046862747290927,-0.006840283765014442
0.535,-0.00013647070000096946,-0.783048399999995,0.0012069575800037495,-2.3553179599999976,-0.0002470231460010938,1.5695138799999953,0.7851211299999972,0.04,0.04,-9.807826299999993,-0.000839774776274612,-0.018971773200056077,-0.008372559600018314,-0.0015824822708722572,-0.006917022630015106
0.5375,-0.0001414514500009739,-0.783022659999995,0.0012262210000037667,-2.3553037999999975,-0.00025264251500109876,1.5694898499999954,0.7851066249999972,0.04,0.04,-9.807790749999993,-0.0009658613708116291,-0.019259880000056333,-0.008466652500018398,-0.001458549057109217,-0.006994632075015175
0.54,-0.00014643220000097853,-0.782996919999995,0.0012454844200037846,-2.3552896399999974,-0.000258261884001104,1.5694658199999953,0.7850921199999972,0.04,0.04,-9.807755199999994,-0.0010919479653486515,-0.0195479868000566,-0.008560745400018485,-0.0013346158433461715,-0.007072241520015248
0.5425,-0.00015141295000098296,-0.782971179999995,0.0012647478400038019,-2.3552754799999973,-0.000263881253001109,1.5694417899999953,0.7850776149999972,0.04,0.04,-9.807719649999994,-0.0012180345598856686,-0.019836093600056857,-0.008654838300018569,-0.0012106826295831313,-0.007149850965015317
0.545,-0.0001563937000009876,-0.7829454399999949,0.0012840112600038197,-2.355261319999997,-0.00026950062200111423,1.5694177599999952,0.7850631099999971,0.04,0.04,-9.807684099999992,-0.0013441211544226912,-0.020124200400057128,-0.008748931200018658,-0.0010867494158200857,-0.007227460410015389
0.5475,-0.00016137445000099203,-0.7829196999999949,0.0013032746800038368,-2.355247159999997,-0.0002751199910011192,1.5693937299999952,0.7850486049999971,0.04,0.04,-9.807648549999993,-0.0014702077489597081,-0.020412307200057385,-0.008843024100018741,-0.0009628162020570457,-0.007305069855015458
0.55,-0.00016635520000106877,-0.7828939599999946,0.0013225381000041355,-2.355232999999997,-0.0002807393600012057,1.5693696999999949,0.7850340999999968,0.04,0.04,-9.80761299999999,-0.001596294343499235,-0.02070041400006124,-0.008937117000019488,-0.0008388829882927698,-0.007382679300016022
0.5525,-0.00017169631600107352,-0.7828665159999945,0.0013432036150041538,-2.355217609999997,-0.0002867649845012111,1.5693439449999949,0.7850185554999969,0.04,0.03999999925,-9.807559449999989,-0.0017348956782649082,-0.021006452850061513,-0.009034507200019574,-0.0007088012395536239,-0.007462744455016093
0.555,-0.0001770374320010785,-0.7828390719999945,0.001363869130004173,-2.355202219999997,-0.0002927906090012167,1.5693181899999948,0.7850030109999968,0.04,0.0399999985,-9.80750589999999,-0.0018734970130305875,-0.021312491700061796,-0.009131897400019665,-0.0005787194908144723,-0.007542809610016167
0.5575,-0.00018237854800108325,-0.7828116279999945,0.0013845346450041913,-2.355186829999997,-0.0002988162335012221,1.5692924349999948,0.7849874664999968,0.04,0.03999999775,-9.80745234999999,-0.0020120983477962605,-0.02161853055006207,-0.009229287600019752,-0.0004486377420753264,-0.007622874765016239
0.56,-0.00018771966400108823,-0.7827841839999944,0.0014052001600042107,-2.3551714399999972,-0.0003048418580012277,1.5692666799999948,0.7849719219999969,0.04,0.039999997,-9.807398799999989,-0.00215069968256194,-0.021924569400062356,-0.009326677800019842,-0.0003185559933361748,-0.007702939920016313
0.5625,-0.00019306078000109298,-0.7827567399999944,0.001425865675004229,-2.355156049999997,-0.000310867482501233,1.5692409249999948,0.7849563774999968,0.04,0.03999999625,-9.80734524999999,-0.002289301017327613,-0.022230608250062626,-0.00942406800001993,-0.00018847424459702894,-0.0077830050750163846
0.5650000000000001,-0.00019840189600109796,-0.7827292959999944,0.0014465311900042483,-2.355140659999997,-0.00031689310700123866,1.5692151699999948,0.7849408329999968,0.04,0.0399999955,-9.80729169999999,-0.002427902352093292,-0.022536647100062913,-0.00952145820002002,-5.839249585787732e-05,-0.007863070230016459
0.5675,-0.00020386714150117958,-0.7827012679999941,0.0014676798050045658,-2.355124879999997,-0.000323059229501331,1.5691888249999943,0.7849249214999966,0.04,0.039999995,-9.807241299999992,-0.002572096185790739,-0.022850874100068256,-0.009619941550020784,7.358487940183734e-05,-0.007944057675017102
0.5700000000000001,-0.0002095806460011849,-0.782672071999994,0.0014897946200045865,-2.3551083199999967,-0.0003295063480013371,1.5691612999999944,0.7849082759999966,0.04,0.039999995,-9.807197199999992,-0.002727475017341364,-0.023181477400068564,-0.009720611200020877,0.00020935350769917866,-0.008026889700017178
0.5725,-0.00021529415050118998,-0.7826428759999939,0.001511909435004606,-2.3550917599999965,-0.00033595346650134276,1.5691337749999943,0.7848916304999966,0.04,0.039999995,-9.807153099999992,-0.0028828538488919818,-0.023512080700068858,-0.009821280850020967,0.00034512213599651397,-0.008109721725017253
0.5750000000000001,-0.00022100765500119532,-0.7826136799999939,0.0015340242500046267,-2.355075199999997,-0.0003424005850013488,1.5691062499999944,0.7848749849999965,0.04,0.039999995,-9.807108999999992,-0.003038232680442607,-0.023842684000069166,-0.00992195050002106,0.00048089076429385524,-0.00819255375001733
0.5775,-0.00022672115950120037,-0.7825844839999939,0.0015561390650046462,-2.3550586399999967,-0.0003488477035013545,1.5690787249999942,0.7848583394999965,0.04,0.039999995,-9.807064899999991,-0.0031936115119932246,-0.024173287300069457,-0.01002262015002115,0.0006166593925911905,-0.008275385775017404
0.58,-0.00023243466400120548,-0.7825552879999939,0.0015782538800046659,-2.3550420799999965,-0.00035529482200136024,1.569051199999994,0.7848416939999965,0.04,0.039999995,-9.807020799999991,-0.0033489903435438427,-0.02450389060006975,-0.010123289800021239,0.0007524280208885258,-0.008358217800017477
0.5825,-0.0002381481685012108,-0.7825260919999938,0.0016003686950046866,-2.3550255199999968,-0.0003617419405013663,1.5690236749999942,0.7848250484999965,0.04,0.039999995,-9.806976699999991,-0.003504369175094468,-0.02483449390007006,-0.010223959450021334,0.0008881966491858671,-0.008441049825017555
0.585,-0.00024411784300129764,-0.7824956739999934,0.0016234807700050244,-2.3550081999999963,-0.0003684816930014654,1.5689948899999937,0.7848076399999963,0.04,0.0399999955,-9.806939599999993,-0.003670491930133795,-0.02518205870007577,-0.010326774800022108,0.001027562876727581,-0.008525840850018254
0.5875,-0.0002502156025013033,-0.7824646449999934,0.0016470914750050466,-2.3549904999999964,-0.00037536776250147183,1.5689654749999937,0.7847898499999962,0.04,0.03999999625,-9.806905999999993,-0.003841986646912355,-0.0255381042500761,-0.010430663000022204,0.0011687279038897725,-0.008611611375018334
0.59,-0.00025631336200130874,-0.7824336159999934,0.0016707021800050675,-2.354972799999996,-0.00038225383200147795,1.5689360599999937,0.7847720599999962,0.04,0.039999997,-9.806872399999992,-0.004013481363690907,-0.025894149800076417,-0.010534551200022297,0.001309892931051958,-0.00869738190001841
0.5925,-0.0002624111215013144,-0.7824025869999933,0.0016943128850050895,-2.354955099999996,-0.00038913990150148435,1.5689066449999938,0.7847542699999962,0.04,0.03999999775,-9.806838799999992,-0.004184976080469468,-0.02625019535007675,-0.010638439400022395,0.0014510579582141497,-0.00878315242501849
0.595,-0.00026850888100131984,-0.7823715579999933,0.0017179235900051106,-2.3549373999999963,-0.00039602597100149047,1.5688772299999936,0.7847364799999962,0.04,0.0399999985,-9.806805199999992,-0.00435647079724802,-0.026606240900077065,-0.010742327600022486,0.0015922229853763351,-0.008868922950018565
0.5975,-0.0002746066405013255,-0.7823405289999933,0.0017415342950051326,-2.3549196999999964,-0.0004029120405014969,1.5688478149999936,0.7847186899999962,0.04,0.03999999925,-9.806771599999992,-0.00452796551402658,-0.026962286450077397,-0.010846215800022584,0.0017333880125385266,-0.008954693475018646
0.6,-0.00028070440000141735,-0.7823094999999928,0.00176514500000549,-2.354901999999996,-0.0004097981100016014,1.5688183999999932,0.7847008999999959,0.04,0.04,-9.806737999999996,-0.004699460230808367,-0.02731833200008302,-0.010950104000023348,0.0018745530397017089,-0.009040464000019247
0.6025,-0.00028719811450140126,-0.7822765854999929,0.0017902973000054278,-2.354883114999996,-0.00041713498350158323,1.5687870949999934,0.7846819504999959,0.04,0.04,-9.806717899999995,-0.00488577554937744,-0.02769868715008208,-0.011057067500023082,0.002020285034117918,-0.00912864645001903
0.605,-0.0002936918290013849,-0.7822436709999929,0.0018154496000053642,-2.354864229999996,-0.00042447185700156476,1.5687557899999933,0.784663000999996,0.04,0.04,-9.806697799999995,-0.005072090867946505,-0.028079042300081118,-0.011164031000022813,0.00216601702853412,-0.009216828900018806
0.6075,-0.0003001855435013688,-0.782210756499993,0.001840601900005302,-2.354845344999996,-0.00043180873050154657,1.5687244849999935,0.784644051499996,0.04,0.04,-9.806677699999996,-0.005258406186515578,-0.028459397450080175,-0.011270994500022547,0.0023117490229503292,-0.009305011350018589
0.61,-0.0003066792580013524,-0.7821778419999931,0.0018657542000052386,-2.354826459999996,-0.00043914560400152804,1.5686931799999935,0.784625101999996,0.04,0.04,-9.806657599999996,-0.005444721505084644,-0.028839752600079215,-0.011377958000022278,0.0024574810173665315,-0.009393193800018365
0.6125,-0.0003131729725013363,-0.7821449274999932,0.001890906500005176,-2.354807574999996,-0.0004464824775015099,1.5686618749999937,0.7846061524999961,0.04,0.04,-9.806637499999995,-0.005631036823653717,-0.029220107750078272,-0.011484921500022012,0.0026032130117827406,-0.009481376250018148
0.615,-0.00031966668700131995,-0.7821120129999933,0.0019160588000051127,-2.3547886899999964,-0.0004538193510014914,1.5686305699999938,0.7845872029999962,0.04,0.04,-9.806617399999995,-0.005817352142222782,-0.029600462900077312,-0.011591885000021743,0.002748945006198943,-0.009569558700017924
0.6175,-0.00032629622850140135,-0.7820784439999929,0.0019417399700054298,-2.354769329999996,-0.00046130983500158347,1.5685985949999934,0.7845678584999959,0.04,0.04,-9.806593449999994,-0.006006581196600999,-0.029988973650082202,-0.011699881400022349,0.0028963502962447824,-0.009658492150018365
0.62,-0.00033319742400143105,-0.7820435659999927,0.0019684788800055446,-2.354749019999996,-0.00046910754000161696,1.5685652799999932,0.7845477239999958,0.04,0.04,-9.806561799999994,-0.006201637722592208,-0.030393795600083946,-0.011809943600022823,0.0030471021775468404,-0.009748927600018754
0.6225,-0.00034009861950146103,-0.7820086879999926,0.001995217790005661,-2.354728709999996,-0.0004769052450016508,1.5685319649999931,0.7845275894999957,0.04,0.04,-9.806530149999993,-0.006396694248583424,-0.030798617550085703,-0.0119200058000233,0.0031978540588489053,-0.009839363050019147
0.625,-0.0003469998150014907,-0.7819738099999924,0.0020219567000057757,-2.354708399999996,-0.00048470295000168436,1.5684986499999929,0.7845074549999956,0.04,0.04,-9.806498499999993,-0.006591750774574633,-0.031203439500087443,-0.012030068000023774,0.0033486059401509633,-0.009929798500019535
0.6275000000000001,-0.00035390101050152066,-0.7819389319999923,0.002048695610005892,-2.3546880899999953,-0.0004925006550017182,1.5684653349999929,0.7844873204999955,0.04,0.04,-9.806466849999993,-0.006786807300565851,-0.0316082614500892,-0.012140130200024251,0.003499357821453028,-0.010020233950019927
0.63,-0.0003608022060015503,-0.7819040539999922,0.0020754345200060067,-2.3546677799999953,-0.0005002983600017518,1.5684320199999926,0.7844671859999954,0.04,0.04,-9.806435199999992,-0.006981863826557059,-0.032013083400090944,-0.012250192400024725,0.0036501097027550862,-0.010110669400020316
0.6325000000000001,-0.0003677034015015803,-0.7818691759999921,0.002102173430006123,-2.3546474699999953,-0.0005080960650017856,1.5683987049999926,0.7844470514999954,0.04,0.04,-9.806403549999994,-0.007176920352548277,-0.0324179053500927,-0.012360254600025202,0.0038008615840571507,-0.010201104850020709
0.635,-0.000374883765001691,-0.7818329689999914,0.0021299996700065538,-2.354626179999995,-0.0005162102750019111,1.5683640799999918,0.7844261059999951,0.04,0.04,-9.80636259999999,-0.007386732753416365,-0.03284148000010002,-0.012472397200026146,0.003955128486304254,-0.010293241900021483
0.6375000000000001,-0.00038220371250169785,-0.7817960974999915,0.0021583695750065804,-2.354604399999995,-0.0005244827375019187,1.568328799999992,0.7844047549999951,0.04,0.04,-9.80631699999999,-0.007603923091715252,-0.03327443100010043,-0.012585580000026252,0.004111152899022065,-0.01038622975002157
0.64,-0.00038952366000170435,-0.7817592259999914,0.0021867394800066057,-2.354582619999995,-0.0005327552000019261,1.568293519999992,0.7843834039999951,0.04,0.04,-9.80627139999999,-0.00782111343001413,-0.03370738200010081,-0.012698762800026353,0.004267177311739868,-0.010479217600021651
0.6425,-0.00039684360750171085,-0.7817223544999914,0.0022151093850066306,-2.354560839999995,-0.0005410276625019334,1.5682582399999918,0.7843620529999951,0.04,0.04,-9.80622579999999,-0.008038303768313009,-0.03414033300010119,-0.012811945600026454,0.004423201724457672,-0.010572205450021735
0.645,-0.0004041635550017177,-0.7816854829999913,0.002243479290006657,-2.354539059999995,-0.0005493001250019412,1.5682229599999917,0.7843407019999951,0.04,0.04,-9.80618019999999,-0.008255494106611895,-0.034573284000101595,-0.012925128400026558,0.004579226137175482,-0.010665193300021822
0.6475,-0.0004114835025017242,-0.7816486114999913,0.0022718491950066825,-2.3545172799999947,-0.0005575725875019485,1.5681876799999916,0.7843193509999951,0.04,0.04,-9.80613459999999,-0.008472684444910774,-0.03500623500010198,-0.013038311200026659,0.004735250549893286,-0.010758181150021903
0.65,-0.00041880345000183265,-0.7816117399999908,0.002300219100007105,-2.3544954999999947,-0.0005658450500020719,1.5681523999999911,0.7842979999999947,0.04,0.04,-9.806088999999986,-0.008689874783213402,-0.03543918600010871,-0.013151494000027488,0.004891274962612522,-0.010851169000022578
0.6525,-0.00042655323750183957,-0.7815727579999907,0.0023302633050071315,-2.3544723249999944,-0.0005746067075020797,1.568115034999991,0.7842753889999947,0.03999999925,0.04,-9.806031249999986,-0.008922885824050169,-0.035898896100109115,-0.013267735600027591,0.00505332620818284,-0.010946640250022663
0.655,-0.00043430302500184676,-0.7815337759999907,0.0023603075100071596,-2.3544491499999944,-0.0005833683650020878,1.568077669999991,0.7842527779999946,0.0399999985,0.04,-9.805973499999986,-0.009155896864886947,-0.03635860620010955,-0.0133839772000277,0.005215377453753166,-0.011042111500022751
0.6575,-0.0004420528125018537,-0.7814947939999907,0.002390351715007186,-2.3544259749999945,-0.0005921300225020956,1.5680403049999911,0.7842301669999946,0.03999999775,0.04,-9.805915749999986,-0.009388907905723713,-0.036818316300109954,-0.013500218800027802,0.0053774286993234855,-0.011137582750022836
0.66,-0.00044980260000186087,-0.7814558119999906,0.002420395920007214,-2.354402799999994,-0.0006008916800021039,1.568002939999991,0.7842075559999946,0.039999997,0.04,-9.805857999999986,-0.00962191894656049,-0.03727802640011038,-0.01361646040002791,0.0055394799448938116,-0.011233054000022925
0.6625,-0.0004575523875018678,-0.7814168299999906,0.002450440125007241,-2.354379624999994,-0.0006096533375021117,1.567965574999991,0.7841849449999946,0.03999999625,0.04,-9.805800249999987,-0.009854929987397258,-0.037737736500110794,-0.013732702000028015,0.005701531190464131,-0.01132852525002301
0.665,-0.000465302175001875,-0.7813778479999905,0.002480484330007269,-2.3543564499999943,-0.0006184149950021198,1.567928209999991,0.7841623339999946,0.0399999955,0.04,-9.805742499999987,-0.010087941028234034,-0.03819744660011122,-0.013848943600028123,0.005863582436034457,-0.011423996500023098
0.6675,-0.00047319886000198887,-0.78133816699999,0.0025111008400077127,-2.354332849999994,-0.0006273438820022495,1.5678901199999904,0.7841392919999942,0.039999994750000004,0.04,-9.805691999999992,-0.01032640803611365,-0.038667330500119036,-0.013966156450028933,0.00602724556815197,-0.011520236400023743
0.67,-0.00048138934000199654,-0.78129708799999,0.002542861960007742,-2.354308399999994,-0.0006366072280022581,1.5678505799999904,0.7841153879999941,0.039999994000000004,0.04,-9.805655999999992,-0.010575786978067069,-0.039157562000119495,-0.014085311800029044,0.00619413247336036,-0.011618013600023834
0.6725,-0.0004895798200020038,-0.7812560089999899,0.00257462308000777,-2.354283949999994,-0.0006458705740022663,1.5678110399999903,0.7840914839999942,0.039999993250000004,0.04,-9.805619999999992,-0.010825165920020476,-0.03964779350011993,-0.01420446715002915,0.006361019378568744,-0.01171579080002392
0.675,-0.0004977703000020114,-0.78121492999999,0.0026063842000078,-2.3542594999999937,-0.0006551339200022749,1.5677714999999903,0.7840675799999941,0.0399999925,0.04,-9.805583999999993,-0.011074544861973894,-0.04013802500012039,-0.014323622500029262,0.006527906283777135,-0.011813568000024012
0.6775,-0.0005059607800020187,-0.7811738509999899,0.002638145320007828,-2.354235049999994,-0.0006643972660022832,1.5677319599999902,0.7840436759999941,0.03999999175,0.04,-9.805547999999991,-0.0113239238039273,-0.04062825650012082,-0.014442777850029368,0.0066947931889855174,-0.011911345200024098
0.68,-0.0005141512600020263,-0.7811327719999899,0.002669906440007858,-2.354210599999994,-0.0006736606120022918,1.5676924199999902,0.7840197719999941,0.039999991,0.04,-9.805511999999991,-0.011573302745880717,-0.04111848800012128,-0.01456193320002948,0.006861680094193908,-0.01200912240002419
0.6825,-0.0005223417400020336,-0.7810916929999898,0.002701667560007886,-2.354186149999994,-0.0006829239580023,1.5676528799999903,0.783995867999994,0.03999999025,0.04,-9.805475999999992,-0.011822681687834125,-0.04160871950012172,-0.014681088550029586,0.007028566999402291,-0.012106899600024278
0.685,-0.0005308331400021537,-0.7810491299999892,0.002734601080008354,-2.354160829999994,-0.0006925296130024366,1.5676118899999896,0.7839710699999937,0.039999989799999996,0.04,-9.805453799999997,-0.012083770614183848,-0.0421131968001275,-0.014802172450030418,0.007198104588357413,-0.012206173900024929
0.6875,-0.0005394750000021614,-0.7810058249999892,0.0027681208000083835,-2.3541350749999936,-0.0007023064225024453,1.5675701749999895,0.7839458249999937,0.0399999895,0.04,-9.805438499999998,-0.012350714532725167,-0.04262479700012796,-0.014924220625030526,0.00736896751918441,-0.012306196750025016
0.6900000000000001,-0.0005481168600021695,-0.7809625199999891,0.002801640520008415,-2.3541093199999934,-0.0007120832320024544,1.5675284599999895,0.7839205799999936,0.0399999892,0.04,-9.805423199999996,-0.012617658451266495,-0.043136397200128435,-0.015046268800030639,0.007539830450011414,-0.01240621960002511
0.6925,-0.0005567587200021771,-0.7809192149999892,0.0028351602400084447,-2.3540835649999936,-0.0007218600415024631,1.5674867449999894,0.7838953349999936,0.0399999889,0.04,-9.805407899999997,-0.012884602369807811,-0.04364799740012889,-0.015168316975030748,0.007710693380838411,-0.0125062424500252
0.6950000000000001,-0.0005654005800021851,-0.7808759099999891,0.0028686799600084758,-2.3540578099999934,-0.0007316368510024722,1.5674450299999894,0.7838700899999935,0.0399999886,0.04,-9.805392599999998,-0.013151546288349142,-0.044159597600129365,-0.015290365150030861,0.007881556311665415,-0.012606265300025293
0.6975,-0.0005740424400021929,-0.7808326049999891,0.0029021996800085055,-2.3540320549999936,-0.0007414136605024808,1.5674033149999893,0.7838448449999935,0.0399999883,0.04,-9.805377299999996,-0.013418490206890458,-0.04467119780012982,-0.015412413325030969,0.008052419242492413,-0.012706288150025382
0.7000000000000001,-0.0005826843000023185,-0.7807892999999885,0.0029357194000089954,-2.354006299999993,-0.0007511904700026243,1.5673615999999888,0.7838195999999932,0.039999988,0.04,-9.805361999999997,-0.013685434125436272,-0.04518279800014027,-0.015534461500031793,0.00822328217332041,-0.012806311000026062
0.7025,-0.0005917879500023267,-0.7807437599999884,0.0029710388200090265,-2.353978909999993,-0.0007614945970026335,1.5673176499999888,0.7837930349999932,0.0399999868,0.04,-9.805349999999997,-0.013969986885858744,-0.04573355330014076,-0.015659295775031903,0.008398048067510046,-0.012908636050026153
0.705,-0.0006008916000023347,-0.7806982199999883,0.003006358240009058,-2.3539515199999927,-0.0007717987240026425,1.5672736999999888,0.7837664699999931,0.039999985599999996,0.04,-9.805337999999997,-0.014254539646281218,-0.04628430860014125,-0.015784130050032014,0.00857281396169968,-0.013010961100026242
0.7075,-0.0006099952500023432,-0.7806526799999882,0.003041677660009091,-2.353924129999993,-0.0007821028510026522,1.5672297499999888,0.7837399049999931,0.0399999844,0.04,-9.805325999999997,-0.014539092406703702,-0.04683506390014176,-0.01590896432503213,0.008747579855889323,-0.013113286150026339
0.71,-0.0006190989000023513,-0.7806071399999882,0.0030769970800091223,-2.353896739999993,-0.0007924069780026613,1.5671857999999885,0.7837133399999932,0.0399999832,0.04,-9.805313999999997,-0.014823645167126176,-0.04738581920014225,-0.01603379860003224,0.008922345750078959,-0.01321561120002643
0.7125,-0.0006282025500023598,-0.7805615999999882,0.003112316500009155,-2.353869349999993,-0.000802711105002671,1.5671418499999885,0.7836867749999931,0.039999981999999996,0.04,-9.805301999999998,-0.01510819792754866,-0.04793657450014276,-0.016158632875032358,0.009097111644268602,-0.013317936250026524
0.715,-0.0006373062000023679,-0.7805160599999881,0.0031476359200091866,-2.353841959999993,-0.0008130152320026801,1.5670978999999885,0.7836602099999931,0.039999980799999994,0.04,-9.805289999999998,-0.015392750687971133,-0.04848732980014325,-0.01628346715003247,0.009271877538458238,-0.013420261300026616
0.7175,-0.0006465671885025104,-0.7804697579999874,0.0031835685250097417,-2.3538140799999923,-0.0008234988425028426,1.5670531849999878,0.7836331749999926,0.039999979649999996,0.04,-9.805263249999985,-0.015684317937200824,-0.04904818750015234,-0.016409265500033486,0.009448430128442754,-0.01352328935002738
0.72,-0.0006561428540025516,-0.7804219319999872,0.0032207275000099016,-2.3537852199999922,-0.0008343414200028892,1.5670069399999877,0.7836051999999926,0.0399999786,0.04,-9.805206999999985,-0.01598991416402845,-0.049629250000154834,-0.016536992000034036,0.009628556110012818,-0.013627723400027828
0.7225,-0.0006657185195025932,-0.780374105999987,0.003257886475010063,-2.353756359999992,-0.0008451839975029364,1.5669606949999875,0.7835772249999925,0.039999977549999996,0.04,-9.805150749999985,-0.016295510390856097,-0.05021031250015736,-0.01666471850003459,0.009808682091582891,-0.013732157450028282
0.725,-0.0006752941850026344,-0.7803262799999868,0.0032950454500102226,-2.353727499999992,-0.0008560265750029829,1.5669144499999874,0.7835492499999923,0.0399999765,0.04,-9.805094499999985,-0.016601106617683725,-0.05079137500015986,-0.016792445000035138,0.009988808073152956,-0.01383659150002873
0.7275,-0.0006848698505026759,-0.7802784539999866,0.003332204425010384,-2.3536986399999917,-0.00086686915250303,1.5668682049999871,0.7835212749999922,0.03999997545,0.04,-9.805038249999985,-0.016906702844511366,-0.051372437500162384,-0.016920171500035695,0.010168934054723027,-0.013941025550029185
0.73,-0.0006944455160027171,-0.7802306279999864,0.003369363400010544,-2.3536697799999917,-0.0008777117300030766,1.566821959999987,0.7834932999999921,0.0399999744,0.04,-9.804981999999985,-0.017212299071338994,-0.051953500000164875,-0.017047898000036244,0.010349060036293092,-0.014045459600029633
0.7325,-0.0007040211815027588,-0.7801828019999862,0.003406522375010705,-2.3536409199999917,-0.0008885543075031237,1.5667757149999868,0.783465324999992,0.03999997335,0.04,-9.804925749999985,-0.017517895298166636,-0.0525345625001674,-0.017175624500036797,0.010529186017863165,-0.014149893650030087
0.735,-0.0007139182080028951,-0.7801333939999856,0.003444933790011237,-2.353611129999991,-0.0008997624160032788,1.566727909999986,0.7834364099999915,0.039999972700000004,0.04,-9.804885299999992,-0.017831270583065224,-0.05313103440017391,-0.017305100000037522,0.010712240077608265,-0.014255618500030619
0.7375,-0.0007239759150028702,-0.7800831949999857,0.00348397142501114,-2.3535808749999916,-0.0009111532900032506,1.5666793249999862,0.7834070249999916,0.03999997225,0.04,-9.804852749999991,-0.01814853539699424,-0.053735211000172416,-0.017435450000037198,0.010896758176438983,-0.014361988750030356
0.74,-0.0007340336220028448,-0.7800329959999858,0.003523009060011042,-2.3535506199999916,-0.0009225441640032219,1.5666307399999864,0.7833776399999918,0.0399999718,0.04,-9.804820199999991,-0.018465800210923238,-0.05433938760017089,-0.01756580000003687,0.011081276275269692,-0.014468359000030087
0.7425,-0.0007440913290028199,-0.779982796999986,0.003562046695010945,-2.3535203649999916,-0.0009339350380031937,1.5665821549999863,0.7833482549999918,0.03999997135,0.04,-9.80478764999999,-0.018783065024852254,-0.054943564200169395,-0.017696150000036548,0.01126579437410041,-0.014574729250029823
0.745,-0.0007541490360027946,-0.779932597999986,0.003601084330010847,-2.3534901099999916,-0.0009453259120031649,1.5665335699999865,0.7833188699999919,0.0399999709,0.04,-9.804755099999992,-0.019100329838781252,-0.05554774080016787,-0.01782650000003622,0.011450312472931119,-0.014681099500029555
0.7475,-0.0007642067430027696,-0.7798823989999861,0.0036401219650107498,-2.3534598549999917,-0.0009567167860031367,1.5664849849999867,0.783289484999992,0.039999970450000005,0.04,-9.804722549999992,-0.019417594652710264,-0.056151917400166375,-0.017956850000035895,0.011634830571761836,-0.014787469750029291
0.75,-0.0007742644500028785,-0.7798321999999857,0.0036791596000111744,-2.3534295999999912,-0.000968107660003261,1.566436399999986,0.7832600999999916,0.03999997,0.04,-9.804689999999999,-0.019734859466645393,-0.05675609400017565,-0.018087200000036288,0.011819348670593487,-0.014893840000029602
0.7525000000000001,-0.0007848139575029243,-0.7797795649999854,0.0037201142050113526,-2.3533977099999914,-0.0009800590960033129,1.5663853999999857,0.7832292749999915,0.039999968500000004,0.04,-9.804680249999999,-0.020074578560982898,-0.05739985545017844,-0.018220190150036866,0.012007318995945064,-0.015002329900030073
0.755,-0.0007953634650029696,-0.7797269299999852,0.0037610688100115286,-2.353365819999991,-0.0009920105320033643,1.5663343999999857,0.7831984499999913,0.039999967000000004,0.04,-9.804670499999999,-0.020414297655320386,-0.058043616900181214,-0.018353180300037436,0.012195289321296631,-0.01511081980003054
0.7575000000000001,-0.0008059129725030154,-0.779674294999985,0.0038020234150117063,-2.353333929999991,-0.0010039619680034162,1.5662833999999854,0.7831676249999913,0.0399999655,0.04,-9.804660749999998,-0.020754016749657895,-0.05868737835018401,-0.018486170450038013,0.012383259646648208,-0.015219309700031011
0.76,-0.0008164624800030607,-0.7796216599999848,0.0038429780200118823,-2.3533020399999907,-0.0010159134040034674,1.5662323999999852,0.7831367999999911,0.039999964,0.04,-9.804650999999998,-0.021093735843995383,-0.059331139800186776,-0.018619160600038584,0.012571229971999776,-0.015327799600031477
0.7625000000000001,-0.0008270119875031066,-0.7795690249999845,0.00388393262501206,-2.3532701499999904,-0.0010278648400035193,1.566181399999985,0.7831059749999909,0.0399999625,0.04,-9.804641249999998,-0.021433454938332888,-0.059974901250189575,-0.01875215075003916,0.012759200297351352,-0.015436289500031949
0.765,-0.000837561495003152,-0.7795163899999843,0.003924887230012236,-2.3532382599999906,-0.0010398162760035707,1.5661303999999847,0.7830751499999908,0.039999961,0.04,-9.804631499999998,-0.02177317403267038,-0.06061866270019234,-0.018885140900039732,0.01294717062270292,-0.015544779400032415
0.7675000000000001,-0.0008482781200033246,-0.7794629499999834,0.003966493270012909,-2.35320583499999,-0.001051957955003767,1.566078609999984,0.7830438349999903,0.039999959700000004,0.0399999995,-9.804610249999987,-0.022118304297435026,-0.06127324815020344,-0.019018989550040784,0.013136644614918272,-0.015653826550033143
0.77,-0.0008593289800032967,-0.7794078999999836,0.004009402180012801,-2.3531723399999898,-0.0010644801200037355,1.566025239999984,0.7830115399999904,0.0399999588,0.039999998,-9.804565999999987,-0.02247425690303925,-0.061949481600201736,-0.01915455520004044,0.01332912594085708,-0.015763988200032865
0.7725,-0.0008703798400032689,-0.7793528499999838,0.004052311090012693,-2.35313884499999,-0.001077002285003704,1.5659718699999843,0.7829792449999905,0.0399999579,0.0399999965,-9.804521749999987,-0.02283020950864347,-0.06262571505020002,-0.019290120850040098,0.01352160726679589,-0.015874149850032587
0.775,-0.0008814307000032415,-0.7792977999999839,0.004095220000012586,-2.35310534999999,-0.001089524450003673,1.5659184999999842,0.7829469499999906,0.039999956999999996,0.039999994999999997,-9.804477499999987,-0.023186162114247708,-0.06330194850019835,-0.019425686500039764,0.013714088592734708,-0.015984311500032312
0.7775,-0.0008924815600032136,-0.779242749999984,0.004138128910012478,-2.3530718549999903,-0.0011020466150036415,1.5658651299999844,0.7829146549999907,0.0399999561,0.0399999935,-9.804433249999986,-0.02354211471985193,-0.06397818195019665,-0.019561252150039423,0.013906569918673518,-0.016094473150032033
0.78,-0.0009035324200031862,-0.7791876999999842,0.004181037820012372,-2.35303835999999,-0.0011145687800036103,1.5658117599999846,0.7828823599999907,0.0399999552,0.039999992,-9.804388999999988,-0.023898067325456167,-0.06465441540019497,-0.019696817800039085,0.014099051244612335,-0.016204634800031762
0.7825,-0.0009145832800031583,-0.7791326499999843,0.0042239467300122634,-2.35300486499999,-0.0011270909450035787,1.5657583899999847,0.7828500649999908,0.039999954299999994,0.0399999905,-9.804344749999988,-0.02425401993106039,-0.06533064885019327,-0.019832383450038744,0.014291532570551145,-0.016314796450031484
0.785,-0.0009259746000033283,-0.7790759099999834,0.004268182970012926,-2.35297042999999,-0.0011399998500037716,1.565703369999984,0.7828167749999903,0.0399999536,0.039999989799999996,-9.80430769999999,-0.02462412677716137,-0.06602747400020356,-0.019969683500039772,0.014486974291560047,-0.016426198500032248
0.7875,-0.0009375361500033779,-0.7790183249999832,0.004313082875013119,-2.3529355249999897,-0.001153102125003828,1.5656475249999837,0.7827829874999901,0.039999953,0.0399999895,-9.80427424999999,-0.025001310743501624,-0.06673459500020659,-0.020107850750040367,0.014683896210102083,-0.01653822075003273
0.79,-0.0009490977000034281,-0.7789607399999829,0.004357982780013313,-2.3529006199999896,-0.001166204400003885,1.5655916799999834,0.7827491999999899,0.0399999524,0.0399999892,-9.80424079999999,-0.0253784947098419,-0.06744171600020966,-0.02024601800004097,0.014880818128644129,-0.016650243000033215
0.7925,-0.0009606592500034778,-0.7789031549999827,0.004402882685013506,-2.3528657149999894,-0.0011793066750039414,1.5655358349999833,0.7827154124999898,0.039999951799999996,0.0399999889,-9.80420734999999,-0.025755678676182156,-0.06814883700021271,-0.020384185250041563,0.015077740047186166,-0.016762265250033697
0.795,-0.000972220800003528,-0.7788455699999824,0.004447782590013701,-2.3528308099999893,-0.0011924089500039983,1.565479989999983,0.7826816249999896,0.0399999512,0.0399999886,-9.80417389999999,-0.026132862642522427,-0.06885595800021578,-0.02052235250004216,0.015274661965728211,-0.016874287500034182
0.7975,-0.0009837823500035777,-0.7787879849999823,0.004492682495013894,-2.352795904999989,-0.0012055112250040545,1.5654241449999828,0.7826478374999895,0.0399999506,0.0399999883,-9.80414044999999,-0.026510046608862685,-0.06956307900021882,-0.020660519750042756,0.015471583884270248,-0.016986309750034664
0.8,-0.000995343900003791,-0.7787303999999812,0.004537582400014725,-2.3527609999999886,-0.0012186135000042968,1.5653682999999818,0.7826140499999888,0.03999995,0.039999988,-9.804107,-0.026887230575209437,-0.07027020000023355,-0.02079868700004412,0.015668505802813187,-0.01709833200003572
0.8025,-0.0010074251700037606,-0.7786702649999814,0.004584508415014607,-2.3527243549999888,-0.0012323065200042624,1.565309934999982,0.782578747499989,0.03999994895,0.0399999868,-9.804104299999999,-0.02728506503639079,-0.07101447150023167,-0.020939296250043767,0.015868270304116118,-0.01721215845003543
0.805,-0.0010195064400037306,-0.7786101299999815,0.00463143443001449,-2.3526877099999886,-0.0012459995400042284,1.565251569999982,0.7825434449999891,0.0399999479,0.039999985599999996,-9.8041016,-0.027682899497572157,-0.07175874300022983,-0.02107990550004342,0.016068034805419056,-0.01732598490003515
0.8075,-0.0010315877100037002,-0.7785499949999816,0.004678360445014372,-2.3526510649999888,-0.0012596925600041938,1.5651932049999822,0.7825081424999891,0.03999994685,0.0399999844,-9.8040989,-0.02808073395875351,-0.07250301450022795,-0.021220514750043065,0.016267799306721988,-0.01743981135003486
0.81,-0.0010436689800036702,-0.7784898599999818,0.004725286460014255,-2.352614419999989,-0.0012733855800041599,1.5651348399999823,0.7824728399999893,0.0399999458,0.0399999832,-9.804096199999998,-0.028478568419934878,-0.0732472860002261,-0.021361124000042715,0.016467563808024926,-0.01755363780003458
0.8125,-0.0010557502500036398,-0.7784297249999819,0.004772212475014137,-2.3525777749999888,-0.0012870786000041253,1.5650764749999824,0.7824375374999893,0.03999994475,0.039999981999999996,-9.804093499999999,-0.02887640288111623,-0.07399155750022422,-0.02150173325004236,0.016667328309327857,-0.017667464250034293
0.8150000000000001,-0.0010678315200036098,-0.7783695899999821,0.004819138490014021,-2.352541129999989,-0.0013007716200040913,1.5650181099999825,0.7824022349999894,0.039999943700000005,0.039999980799999994,-9.804090799999999,-0.029274237342297598,-0.07473582900022238,-0.021642342500042013,0.0168670928106308,-0.01778129070003401
0.8175,-0.0010800889700037359,-0.7783085934999814,0.004866751540014513,-2.3525039899999887,-0.0013146648300042347,1.564958879999982,0.7823664099999891,0.039999942850000005,0.03999997985,-9.804071649999983,-0.02967821275827691,-0.07549139550023054,-0.021783766800042383,0.01706841718411534,-0.017895684350034226
0.8200000000000001,-0.0010926987800037047,-0.7782458739999816,0.0049157386600143915,-2.3524658599999886,-0.0013289584200041993,1.5648979199999822,0.7823295399999891,0.0399999424,0.039999979399999996,-9.804019599999984,-0.03009447008383573,-0.07626955200022861,-0.021926821200042027,0.017272861301958944,-0.018011212400033942
0.8225,-0.0011053085900036728,-0.7781831544999818,0.004964725780014268,-2.352427729999989,-0.0013432520100041634,1.5648369599999823,0.7822926699999893,0.03999994195,0.03999997895,-9.803967549999985,-0.030510727409394537,-0.07704770850022666,-0.02206987560004167,0.01747730541980254,-0.01812674045003365
0.8250000000000001,-0.0011179184000036416,-0.7781204349999818,0.005013712900014147,-2.352389599999989,-0.001357545600004128,1.5647759999999824,0.7822557999999894,0.0399999415,0.0399999785,-9.803915499999984,-0.03092698473495336,-0.07782586500022473,-0.022212930000041313,0.017681749537646143,-0.018242268500033364
0.8275,-0.0011305282100036098,-0.778057715499982,0.005062700020014023,-2.3523514699999892,-0.0013718391900040918,1.5647150399999825,0.7822189299999894,0.03999994105,0.039999978049999996,-9.803863449999985,-0.031343242060512165,-0.07860402150022276,-0.022355984400040954,0.017886193655489737,-0.018357796550033074
0.8300000000000001,-0.0011431380200035786,-0.7779949959999822,0.005111687140013902,-2.352313339999989,-0.0013861327800040563,1.5646540799999828,0.7821820599999896,0.0399999406,0.0399999776,-9.803811399999985,-0.03175949938607099,-0.07938217800022083,-0.0224990388000406,0.018090637773333338,-0.018473324600032787
0.8325,-0.0011557478300035467,-0.7779322764999823,0.005160674260013778,-2.3522752099999895,-0.0014004263700040204,1.564593119999983,0.7821451899999896,0.039999940149999996,0.03999997715,-9.803759349999986,-0.0321757567116298,-0.08016033450021887,-0.022642093200040236,0.018295081891176932,-0.018588852650032496
0.835,-0.0011687157500037246,-0.7778677629999815,0.005211057770014471,-2.3522358199999887,-0.0014151271600042223,1.564530429999982,0.7821072839999891,0.0399999396,0.039999977,-9.803739749999998,-0.03260675445211422,-0.08096163500023028,-0.02278666110004117,0.018501336500107275,-0.018705576600033236
0.8375,-0.0011818627250037815,-0.7778023524999812,0.005262139475014693,-2.3521957999999885,-0.0014300315500042871,1.5644668749999817,0.782068859999989,0.039999939,0.039999977,-9.803736374999998,-0.03304512240005219,-0.08177450750023381,-0.0229319857500418,0.01870849635457986,-0.018822898500033748
0.84,-0.001195009700003838,-0.7777369419999809,0.005313221180014913,-2.3521557799999884,-0.001444935940004351,1.5644033199999816,0.7820304359999888,0.0399999384,0.039999977,-9.803733,-0.033483490347990134,-0.0825873800002373,-0.023077310400042426,0.018915656209052438,-0.01894022040003425
0.8425,-0.0012081566750038952,-0.7776715314999806,0.005364302885015135,-2.3521157599999882,-0.001459840330004416,1.5643397649999813,0.7819920119999886,0.039999937799999996,0.039999977,-9.803729624999999,-0.0339218582959281,-0.08340025250024083,-0.02322263505004306,0.019122816063525023,-0.01905754230003476
0.845,-0.0012213036500039517,-0.7776061209999803,0.005415384590015354,-2.352075739999988,-0.00147474472000448,1.564276209999981,0.7819535879999884,0.0399999372,0.039999977,-9.803726249999999,-0.034360226243866046,-0.08421312500024433,-0.023367959700043683,0.019329975917997597,-0.019174864200035262
0.8475,-0.0012344506250040088,-0.7775407104999801,0.005466466295015576,-2.3520357199999875,-0.0014896491100045448,1.5642126549999806,0.7819151639999883,0.0399999366,0.039999977,-9.803722874999998,-0.034798594191804005,-0.08502599750024786,-0.023513284350044312,0.019537135772470182,-0.019292186100035774
0.85,-0.001247597600004234,-0.7774752999999789,0.005517548000016453,-2.351995699999987,-0.0015045535000048004,1.5641490999999796,0.7818767399999875,0.039999936,0.039999977,-9.803719499999982,-0.035236962139748584,-0.0858388700002646,-0.023658609000045676,0.019744295626944127,-0.019409508000036726
