rsonawane2002/My_IMU/logs_2/traj_330/imu_330.csv
time,j1,j2,j3,j4,j5,j6,j7,gripper1,gripper2,imu_ax,imu_ay,imu_az,imu_gx,imu_gy,imu_gz
873.9833333328671,0.00016700293,-0.785875,4.0107683e-05,-2.3551247,9.29385e-05,1.570997,0.786,0.04,0.04,-9.475458,-0.037562284618616104,0.09838999,-5.65276e-07,-0.001164127024821937,9.5102604e-07
873.9999999995338,0.00016700664,-0.78576016,4.0106326e-05,-2.3552213,9.297441e-05,1.5709941,0.786,0.04,0.04,-9.834407,0.000617511454038322,0.009095454,5.084752e-07,-0.0022384601179510355,1.3522767e-06
874.0166666662004,0.0001670154,-0.7856542,4.0047365e-05,-2.35531,9.3010094e-05,1.5709913,0.786,0.04,0.04,-9.8324795,0.0005571374204009771,0.007629807,4.3519076e-06,-0.003230996197089553,4.26834e-06
874.0333333328671,0.00016703586,-0.78555673,3.983654e-05,-2.355391,9.305937e-05,1.5709884,0.786,0.04,0.039999995,-9.830736,0.00043744174763560295,0.006356127,1.4605719e-05,-0.004151627887040377,1.1975934e-05
874.0499999995337,0.00016707634,-0.78546685,3.933919e-05,-2.3554652,9.31175e-05,1.5709856,0.786,0.04,0.039999995,-9.829056,0.00025190412998199463,0.005261311,3.449783e-05,-0.005005798768252134,2.4663233e-05
874.0666666662004,0.00016714631,-0.7853838,3.8383572e-05,-2.355532,9.318029e-05,1.570986,0.786,0.04,0.04,-9.827595,2.0782696083188057e-05,0.004290755,6.6543274e-05,-0.005803966429084539,4.3968463e-05
874.083333332867,0.00016725612,-0.7853072,3.6764646e-05,-2.3555942,9.326706e-05,1.5709869,0.786,0.04,0.04,-9.826041,-0.00023970770416781306,0.0033776793,0.00011338743,-0.006533884443342686,7.286928e-05
874.0999999995337,0.00016741734,-0.78523624,3.4247823e-05,-2.3556519,9.339875e-05,1.5709878,0.7860019,0.04,0.039999995,-9.824997,-0.0005340893985703588,0.0026975558,0.00017725979,-0.007227387744933367,0.00011259974
874.1166666662003,0.00016764276,-0.78517,3.0572453e-05,-2.3557029,9.356279e-05,1.5709906,0.7860038,0.04,0.04,-9.824029,-0.0008698554593138397,0.0020959915,0.00025232285,-0.007891415618360043,0.00016197986
874.133333332867,0.0001679457,-0.78510857,2.5453975e-05,-2.3557508,9.377534e-05,1.5709952,0.78600574,0.04,0.04,-9.822856,-0.0012199601624161005,0.0015438723,0.000348801,-0.008515436202287674,0.00022355701
874.1499999995336,0.00016834031,-0.785051,1.8586972e-05,-2.3557937,9.405503e-05,1.571001,0.78600955,0.04,0.04,-9.822168,-0.0015830036718398333,0.0011443,0.00046941027,-0.009117876179516315,0.00029910778
874.1666666662003,0.0001688413,-0.7849966,9.647769e-06,-2.3558314,9.442404e-05,1.5710096,0.78601336,0.04,0.04,-9.821294,-0.0019564060494303703,0.0008262859,0.0006066214,-0.009698410518467426,0.00038938894
874.1833333328669,0.00016946437,-0.7849452,-1.7032845e-06,-2.3558662,9.4886724e-05,1.5710219,0.7860191,0.04,0.04,-9.8204155,-0.002334762364625931,0.00056656974,0.0007711987,-0.010254845954477787,0.0004933949
874.1999999995336,0.0001702254,-0.7848959,-1.5819884e-05,-2.355896,9.544287e-05,1.5710378,0.7860267,0.03999999,0.03999999,-9.819961,-0.0027355123311281204,0.00040013908,0.0009565548,-0.010798368602991104,0.0006129863
874.2166666662002,0.00017114072,-0.7848485,-3.306819e-05,-2.355923,9.61208e-05,1.5710564,0.78603536,0.039999988,0.039999984,-9.819241,-0.003115961328148842,0.0002980756,0.0011636831,-0.011324211023747921,0.0007485674
874.2333333328669,0.00017222723,-0.7848027,-5.3824544e-05,-2.3559453,9.6933974e-05,1.5710788,0.7860455,0.039999984,0.03999998,-9.818836,-0.0034906319342553616,0.00034051837,0.0013984651,-0.01184882689267397,0.0008997624
874.2499999995335,0.00017350176,-0.7847577,-7.847417e-05,-2.3559647,9.789755e-05,1.5711061,0.78605765,0.03999998,0.039999977,-9.818305,-0.0038516917265951633,0.00044311967,0.0016601507,-0.012366145849227905,0.0010675065
874.2666666662002,0.00017498185,-0.7847134,-0.00010740945,-2.35598,9.902738e-05,1.5711375,0.7860721,0.039999977,0.03999997,-9.817934,-0.004183395765721798,0.0005762363,0.0019479032,-0.012880340218544006,0.0012529775
874.2833333328668,0.00017668505,-0.7846692,-0.00014102893,-2.3559918,0.000100337944,1.5711737,0.78608894,0.039999973,0.039999966,-9.817502,-0.004506971687078476,0.00085323653,0.0022611392,-0.01339300163090229,0.0014547143
874.2999999995335,0.00017862918,-0.7846247,-0.00017973561,-2.3560004,0.00010184574,1.5712162,0.786108,0.03999997,0.03999996,-9.817248,-0.004793761298060417,0.0011837878,0.0026011306,-0.013912133872509003,0.0016737762
874.3166666662001,0.00018083201,-0.7845795,-0.00022393635,-2.3560047,0.00010356676,1.5712647,0.7861299,0.039999973,0.03999996,-9.816939,-0.005044727586209774,0.001557575,0.0029696643,-0.014431201852858067,0.0019111563
874.3333333328668,0.00018331158,-0.78453344,-0.00027404024,-2.3560064,0.00010551579,1.5713195,0.78615475,0.03999997,0.039999958,-9.816641,-0.005267582833766937,0.0020280918,0.00336492,-0.014953738078474998,0.0021652505
874.3499999995335,0.00018608585,-0.78448606,-0.0003304584,-2.356004,0.00010770968,1.5713813,0.78618264,0.03999997,0.039999958,-9.816499,-0.0054434011690318584,0.0026083183,0.003787784,-0.015486741438508034,0.00243699
874.3666666662001,0.00018917283,-0.7844369,-0.0003936024,-2.3559997,0.000110164765,1.5714507,0.78621393,0.03999997,0.039999954,-9.816242,-0.0055677033960819244,0.0032407022,0.004238292,-0.01602477952837944,0.002727237
874.3833333328668,0.00019259074,-0.78438574,-0.00046388368,-2.3559902,0.000112896014,1.571528,0.7862488,0.039999973,0.039999958,-9.816322,-0.005654942709952593,0.0039577624,0.004715899,-0.01658005639910698,0.0030342804
874.3999999995334,0.00019635749,-0.7843324,-0.00054171315,-2.3559785,0.00011591996,1.571614,0.78628737,0.039999973,0.039999958,-9.815962,-0.005686142947524786,0.004742211,0.0052208668,-0.01713697426021099,0.0033589185
874.4166666662001,0.00020049095,-0.7842765,-0.0006274999,-2.3559616,0.000119253054,1.5717089,0.7863298,0.039999977,0.039999958,-9.8160095,-0.005651019513607025,0.0056389933,0.0057534217,-0.017709333449602127,0.0037019418
874.4333333328667,0.00020500906,-0.7842175,-0.0007216512,-2.3559422,0.00012291015,1.5718129,0.7863763,0.039999977,0.039999958,-9.815707,-0.005528814159333706,0.0065925876,0.006313506,-0.01828652061522007,0.0040615145
874.4499999995334,0.00020992948,-0.7841551,-0.00082457147,-2.355918,0.00012690746,1.5719266,0.7864272,0.039999977,0.039999958,-9.815793,-0.005416323896497488,0.007682274,0.006901031,-0.018882205709815025,0.00443838
874.4666666662,0.00021526974,-0.7840895,-0.0009366623,-2.355891,0.00013126111,1.5720506,0.7864826,0.039999977,0.039999954,-9.81562,-0.005190563853830099,0.008811682,0.007515356,-0.019486568868160248,0.004833244
874.4833333328667,0.00022104739,-0.78402007,-0.0010583217,-2.3558593,0.00013598592,1.5721852,0.78654265,0.039999984,0.03999996,-9.815709,-0.004896765574812889,0.010103958,0.008156355,-0.020108865574002266,0.005244217
874.4999999995333,0.00022727955,-0.78394663,-0.0011899436,-2.3558242,0.00014109768,1.572331,0.78660756,0.039999984,0.039999958,-9.815549,-0.004523800686001778,0.011440845,0.008824193,-0.02074056677520275,0.005672805
874.5166666662,0.00023398345,-0.7838689,-0.0013319171,-2.3557842,0.00014661097,1.5724881,0.78667766,0.039999988,0.03999996,-9.815608,-0.004082749597728252,0.012891327,0.00951844,-0.021388186141848564,0.0061171004
874.5333333328666,0.00024117575,-0.78378654,-0.0014846268,-2.3557405,0.0001525416,1.5726571,0.78675306,0.039999988,0.039999958,-9.815484,-0.0035453150048851967,0.014448438,0.010238423,-0.02204734832048416,0.006578558
874.5499999995333,0.0002488734,-0.7836994,-0.0016484525,-2.3556924,0.00015890355,1.5728384,0.78683394,0.039999988,0.039999958,-9.815547,-0.0029352661222219467,0.016100947,0.01098396,-0.02272319234907627,0.0070552533
874.5666666661999,0.0002570926,-0.78360736,-0.0018237686,-2.35564,0.00016571238,1.5730327,0.7869205,0.03999999,0.039999958,-9.815517,-0.0022285711020231247,0.01786067,0.011754894,-0.023413076996803284,0.0075486293
874.5833333328666,0.00026584964,-0.78351,-0.002010944,-2.3555834,0.00017298128,1.5732397,0.7870129,0.03999999,0.039999958,-9.815539,-0.0014408547431230545,0.019755173,0.012550793,-0.02411709353327751,0.0080566835
874.5999999995332,0.00027516054,-0.783407,-0.0022103414,-2.3555222,0.00018072563,1.5734603,0.78711134,0.039999995,0.039999958,-9.815596,-0.0005480404943227768,0.021742765,0.013371188,-0.024839628487825394,0.008580876
874.6166666661999,0.00028504088,-0.7832982,-0.002422318,-2.3554568,0.00018895805,1.5736951,0.78721595,0.04,0.03999996,-9.81559,0.0004366133362054825,0.023822874,0.0142159,-0.025575894862413406,0.009119185
874.6333333328665,0.0002955061,-0.78318363,-0.002647224,-2.3553865,0.00019769352,1.5739439,0.78732693,0.04,0.039999958,-9.815675,0.001525064930319786,0.026014876,0.015085014,-0.026328731328248978,0.00967276
874.6499999995332,0.00030657102,-0.78306323,-0.0028854033,-2.3553116,0.00020694484,1.5742074,0.7874445,0.04,0.039999958,-9.8156595,0.002711402252316475,0.028376143,0.015977241,-0.027095861732959747,0.010240727
874.6666666661998,0.000318251,-0.78293675,-0.0031371948,-2.3552325,0.00021672499,1.5744864,0.7875688,0.04,0.039999958,-9.815719,0.0040024202316999435,0.030847782,0.01689296,-0.027878087013959885,0.010822348
874.6833333328665,0.0003305603,-0.78280395,-0.0034029281,-2.3551476,0.00022704757,1.5747806,0.78769994,0.04,0.03999995,-9.815759,0.005476681515574455,0.03339594,0.017831117,-0.028674636036157608,0.011418102
874.6999999995331,0.0003435133,-0.78266406,-0.0036829272,-2.3550584,0.00023792492,1.5750906,0.7878381,0.04,0.03999995,-9.815704,0.00692361406981945,0.03616388,0.018791841,-0.029482360929250717,0.012027208
874.7166666661998,0.00035712396,-0.78251773,-0.0039775115,-2.3549643,0.0002493692,1.5754168,0.7879835,0.04,0.039999947,-9.815862,0.00854993611574173,0.038984574,0.019774877,-0.030309656634926796,0.012649235
874.7333333328664,0.000371406,-0.782364,-0.004286989,-2.3548644,0.0002613922,1.5757595,0.7881361,0.04,0.039999947,-9.815853,0.01028846763074398,0.041987013,0.020779274,-0.031148767098784447,0.013283761
874.7499999995331,0.0003863727,-0.7822034,-0.0046116645,-2.35476,0.00027400642,1.576119,0.7882964,0.04,0.03999994,-9.815847,0.012152299284934998,0.04506136,0.021805326,-0.03200077638030052,0.013930902
874.7666666661997,0.0004020372,-0.7820354,-0.0049518337,-2.35465,0.00028722343,1.5764956,0.7884643,0.04,0.039999943,-9.815979,0.014133438467979431,0.04834161,0.022851476,-0.032870277762413025,0.014590002
874.7833333328664,0.0004184122,-0.7818599,-0.0053077843,-2.3545344,0.00030105375,1.5768899,0.78863996,0.04,0.039999936,-9.815944,0.01623392105102539,0.051715538,0.023918077,-0.033750467002391815,0.015260222
874.799999999533,0.00043551,-0.7816766,-0.0056798006,-2.3544137,0.00031550927,1.5773016,0.78882354,0.04,0.039999932,-9.815984,0.0184672512114048,0.055240296,0.02500523,-0.034644514322280884,0.015942225
874.8166666661997,0.00045334295,-0.7814857,-0.0060681566,-2.3542883,0.00033060033,1.5777315,0.7890151,0.04,0.03999993,-9.816048,0.020823756232857704,0.058916695,0.026111616,-0.03555412217974663,0.016635004
874.8333333328663,0.00047192254,-0.7812868,-0.0064731175,-2.3541567,0.00034633756,1.5781798,0.78921497,0.039999995,0.03999992,-9.816155,0.023310750722885132,0.0627247,0.027237559,-0.036478761583566666,0.0173383
874.849999999533,0.0004912605,-0.78108,-0.006894945,-2.3540187,0.00036273047,1.5786468,0.78942317,0.039999995,0.03999992,-9.816113,0.02592368796467781,0.06668198,0.028382108,-0.03741367906332016,0.018051583
874.8666666661996,0.0005113677,-0.7808648,-0.0073338915,-2.3538756,0.00037978918,1.5791324,0.7896397,0.039999995,0.039999917,-9.816025,0.0286775603890419,0.07081528,0.029544782,-0.03835711628198624,0.018774765
874.8833333328663,0.00053225533,-0.78064144,-0.0077902,-2.3537276,0.0003975234,1.5796375,0.7898649,0.04,0.039999917,-9.816136,0.03156071528792381,0.07506483,0.03072591,-0.0393170528113842,0.019507326
874.899999999533,0.00055393355,-0.7804095,-0.008264112,-2.3535726,0.00041594257,1.5801625,0.7900987,0.04,0.039999913,-9.816212,0.03457941114902496,0.07949785,0.031924494,-0.04028990492224693,0.0202483
874.9166666661996,0.0005764129,-0.78016907,-0.008755853,-2.3534112,0.00043505555,1.580707,0.79034126,0.04,0.03999991,-9.816102,0.03774138167500496,0.08404695,0.033140082,-0.04126875102519989,0.020998301
874.9333333328663,0.0005997029,-0.7799199,-0.009265651,-2.3532443,0.00045487066,1.5812716,0.7905928,0.04,0.03999991,-9.815997,0.04112543910741806,0.08873368,0.034373302,-0.042256683111190796,0.021755798
874.9499999995329,0.00062381296,-0.779662,-0.009793716,-2.353072,0.0004753968,1.5818563,0.7908533,0.04,0.03999991,-9.816081,0.044487372040748596,0.09368305,0.03562236,-0.04325705021619797,0.022521967
874.9666666661996,0.0006487526,-0.7793951,-0.01034026,-2.3528938,0.0004966423,1.5824615,0.7911229,0.04,0.039999902,-9.816137,0.048071909695863724,0.0987517,0.036887582,-0.04427133873105049,0.023295427
874.9833333328662,0.00067453046,-0.77911913,-0.0109054865,-2.3527083,0.000518615,1.5830871,0.7914017,0.039999995,0.039999895,-9.816133,0.051806896924972534,0.1039433,0.038168482,-0.04529591649770737,0.024075875
874.9999999995329,0.0007011552,-0.77883404,-0.011489583,-2.3525167,0.0005413222,1.5837339,0.79168975,0.039999995,0.03999989,-9.815977,0.05568318068981171,0.109311014,0.039464954,-0.04632681980729103,0.024863428
875.0166666661995,0.0007286351,-0.7785399,-0.01209274,-2.352319,0.0005647709,1.5844017,0.79198736,0.04,0.03999989,-9.815912,0.05970998480916023,0.11485824,0.04077626,-0.04736543074250221,0.02565671
875.0333333328662,0.0007569778,-0.77823645,-0.012715134,-2.3521147,0.00058896875,1.5850908,0.79229444,0.039999995,0.039999884,-9.815875,0.06388355046510696,0.12057778,0.042101644,-0.0484134666621685,0.02645534
875.0499999995328,0.0007861913,-0.77792364,-0.013356937,-2.3519044,0.0006139226,1.5858012,0.792611,0.039999995,0.039999884,-9.815783,0.06821416318416595,0.12645514,0.043440986,-0.04946906119585037,0.027260555
875.0666666661995,0.00081628247,-0.7776013,-0.014018316,-2.3516877,0.0006396381,1.5865332,0.7929373,0.039999995,0.03999988,-9.815764,0.07269028574228287,0.13250275,0.04479457,-0.05053532123565674,0.02806949
875.0833333328661,0.0008472582,-0.7772694,-0.014699427,-2.3514645,0.00066612195,1.5872875,0.79327315,0.039999995,0.039999876,-9.8156595,0.07732310146093369,0.13871625,0.04616122,-0.05160946398973465,0.028883835
875.0999999995328,0.00087912526,-0.77692795,-0.015400423,-2.3512342,0.0006933801,1.5880636,0.7936189,0.039999995,0.039999872,-9.815554,0.08211499452590942,0.14508694,0.047541555,-0.05268896743655205,0.02970248
875.1166666661994,0.0009118898,-0.7765765,-0.01612144,-2.3509974,0.0007214185,1.5888617,0.79397464,0.04,0.039999872,-9.815354,0.08705443888902664,0.1516459,0.04893403,-0.05377292260527611,0.030525036
875.1333333328661,0.00094555825,-0.77621526,-0.016862616,-2.350754,0.00075024215,1.5896822,0.79433995,0.04,0.03999987,-9.815274,0.09215426445007324,0.15835716,0.0503385,-0.0548669807612896,0.031350665
875.1499999995327,0.0009801359,-0.77584416,-0.017624086,-2.350504,0.00077985605,1.5905253,0.7947157,0.039999995,0.03999986,-9.815115,0.09741707146167755,0.16524085,0.051756423,-0.055965606123209,0.03218035
875.1666666661994,0.001015628,-0.7754633,-0.018405972,-2.350247,0.00081026537,1.591391,0.79510134,0.039999995,0.039999858,-9.814943,0.10282956063747406,0.17231672,0.0531841,-0.05706975236535072,0.033012316
875.183333332866,0.0010520399,-0.77507234,-0.019208387,-2.3499827,0.0008414745,1.5922794,0.79549706,0.03999999,0.03999985,-9.814724,0.10850833356380463,0.17950436,0.054623507,-0.05817829445004463,0.033846583
875.1999999995327,0.001089376,-0.7746715,-0.020031441,-2.3497124,0.00087348744,1.5931906,0.79590297,0.039999995,0.03999985,-9.814466,0.1141415536403656,0.18697564,0.05607398,-0.059288106858730316,0.03468279
875.2166666661993,0.0011276407,-0.7742606,-0.020875236,-2.3494356,0.00090630876,1.5941246,0.7963192,0.039999995,0.039999846,-9.814352,0.12004676461219788,0.19459169,0.05753478,-0.06040748953819275,0.035520628
875.233333332866,0.0011668387,-0.77383953,-0.021739861,-2.349152,0.0009399422,1.5950818,0.79674554,0.039999995,0.039999843,-9.81416,0.12610618770122528,0.20235248,0.059005454,-0.061532024294137955,0.036359686
875.2499999995326,0.001206973,-0.7734083,-0.0226254,-2.3488615,0.0009743906,1.5960617,0.7971822,0.04,0.039999843,-9.813923,0.13233013451099396,0.21028827,0.06048644,-0.06266027688980103,0.037199583
875.2666666661993,0.0012480478,-0.7729669,-0.02353195,-2.3485637,0.0010096574,1.5970651,0.79762924,0.039999995,0.039999835,-9.813616,0.13871124386787415,0.21840411,0.061976712,-0.06379276514053345,0.038039368
875.2833333328659,0.001290066,-0.7725153,-0.024459569,-2.348259,0.0010457467,1.5980917,0.79808676,0.039999995,0.03999983,-9.813308,0.14527077972888947,0.22668935,0.06347615,-0.06492654979228973,0.038880363
875.2999999995326,0.0013330305,-0.7720535,-0.025408331,-2.3479476,0.0010826595,1.5991418,0.7985547,0.03999999,0.039999824,-9.812983,0.15198571979999542,0.23516417,0.06498377,-0.06606320291757584,0.03972048
875.3166666661992,0.0013769442,-0.7715812,-0.026378298,-2.347629,0.0011203993,1.6002154,0.79903305,0.04,0.039999828,-9.812668,0.1588684320449829,0.24379186,0.06649964,-0.06720174103975296,0.040559996
875.3333333328659,0.0014218093,-0.7710987,-0.027369523,-2.3473036,0.0011589688,1.6013125,0.799522,0.04,0.039999824,-9.812331,0.1659148782491684,0.25260425,0.068023935,-0.0683441013097763,0.04139843
875.3499999995325,0.0014676278,-0.7706057,-0.028382065,-2.3469708,0.0011983687,1.6024333,0.80002135,0.04,0.039999824,-9.811896,0.17312677204608917,0.2615954,0.069555365,-0.0694851502776146,0.042234797
875.3666666661992,0.0015144012,-0.7701024,-0.029415952,-2.346631,0.0012386017,1.6035776,0.80053127,0.039999995,0.039999813,-9.811482,0.18051296472549438,0.27074835,0.071094275,-0.0706276148557663,0.043070015
875.3833333328658,0.0015621309,-0.76958865,-0.030471228,-2.3462842,0.0012796689,1.6047456,0.8010517,0.039999995,0.03999981,-9.811061,0.1880672127008438,0.28008288,0.0726403,-0.07177155464887619,0.04390375
875.3999999995325,0.0016108182,-0.76906455,-0.031547923,-2.34593,0.0013215715,1.6059375,0.8015826,0.04,0.03999981,-9.810549,0.19577693939208984,0.28958848,0.07419295,-0.07291360944509506,0.044734318
875.4166666661991,0.0016604647,-0.76853,-0.032646053,-2.3455687,0.0013643107,1.6071528,0.8021241,0.039999995,0.0399998,-9.810072,0.20365691184997559,0.299272,0.07575231,-0.07405578345060349,0.04556146
875.4333333328658,0.00171107,-0.76798505,-0.03376565,-2.3452,0.0014078876,1.608392,0.80267626,0.03999999,0.039999794,-9.809502,0.2118169218301773,0.30906108,0.07731755,-0.07519756257534027,0.046386547
875.4499999995325,0.0017626345,-0.76742965,-0.034906704,-2.3448253,0.0014523014,1.609655,0.80323887,0.03999999,0.03999979,-9.80894,0.21993574500083923,0.31915715,0.07888798,-0.07633683830499649,0.047207363
875.4666666661991,0.001815159,-0.76686376,-0.03606922,-2.344443,0.0014975531,1.6109418,0.8038121,0.039999988,0.039999787,-9.808491,0.2283170074224472,0.32936186,0.08046411,-0.07747931033372879,0.04802359
875.4833333328658,0.001868643,-0.7662876,-0.037253223,-2.344055,0.0015436435,1.612252,0.8043959,0.039999984,0.039999776,-9.8078575,0.23687922954559326,0.33972076,0.08204532,-0.07861986756324768,0.048837308
875.4999999995324,0.0019230859,-0.7657008,-0.03845868,-2.3436596,0.0015905717,1.613586,0.8049904,0.04,0.039999787,-9.807341,0.24560071527957916,0.35027462,0.083630644,-0.0797635018825531,0.049645677
875.5166666661991,0.0019784872,-0.7651037,-0.03968558,-2.3432572,0.001638337,1.6149437,0.8055954,0.04,0.039999787,-9.80667,0.25449761748313904,0.3609445,0.08522002,-0.08090569078922272,0.050449125
875.5333333328657,0.0020348458,-0.764496,-0.0409339,-2.3428476,0.0016869392,1.6163251,0.80621094,0.04,0.039999783,-9.805966,0.2635475993156433,0.37181148,0.086813666,-0.08204527944326401,0.05124632
875.5499999995324,0.00209216,-0.7638781,-0.04220364,-2.3424308,0.0017363778,1.6177304,0.80683696,0.039999995,0.039999776,-9.805223,0.2727801203727722,0.38282,0.08841075,-0.08318200707435608,0.052038997
875.566666666199,0.002150429,-0.7632497,-0.043494754,-2.3420067,0.001786652,1.6191591,0.8074737,0.04,0.039999772,-9.804424,0.28218188881874084,0.39401224,0.090011485,-0.08431427925825119,0.052826207
875.5833333328657,0.002209651,-0.762611,-0.044807207,-2.3415756,0.0018377592,1.6206114,0.8081208,0.04,0.039999772,-9.803585,0.29173895716667175,0.40536106,0.09161434,-0.0854433998465538,0.053606257
875.5999999995323,0.0022698222,-0.7619619,-0.046140954,-2.3411372,0.0018896984,1.6220868,0.8087784,0.04,0.03999977,-9.802729,0.3014756739139557,0.416868,0.09322043,-0.0865679606795311,0.05437994
875.616666666199,0.0023309425,-0.7613023,-0.047495957,-2.3406913,0.0019424683,1.6235857,0.8094466,0.04,0.03999977,-9.801817,0.3113705515861511,0.42855793,0.09482844,-0.08769048750400543,0.0551471
875.6333333328656,0.002393008,-0.7606326,-0.04887216,-2.3402383,0.0019960667,1.6251086,0.81012505,0.04,0.03999976,-9.800849,0.32143545150756836,0.44035956,0.096437804,-0.08880668133497238,0.05590685
875.6499999995323,0.0024560164,-0.75995255,-0.050269485,-2.339779,0.0020504906,1.6266549,0.810814,0.039999995,0.039999753,-9.799856,0.3316642642021179,0.45236745,0.09804967,-0.08991579711437225,0.056658678
875.6666666661989,0.0025199645,-0.759262,-0.051687893,-2.3393126,0.0021057392,1.6282245,0.8115134,0.039999995,0.03999975,-9.798931,0.3420657217502594,0.46449837,0.09966192,-0.09102292358875275,0.05740345
875.6833333328656,0.0025848495,-0.75856173,-0.0531273,-2.3388395,0.0021618092,1.6298175,0.812223,0.04,0.039999746,-9.797851,0.3527306616306305,0.47670767,0.1012751,-0.09212449938058853,0.05814021
875.6999999995322,0.0026506674,-0.7578511,-0.054587636,-2.3383598,0.0022186977,1.6314337,0.81294304,0.04,0.03999975,-9.796786,0.36335140466690063,0.48925474,0.102889195,-0.09321978688240051,0.05886756
875.7166666661989,0.0027174158,-0.75713044,-0.05606883,-2.337874,0.0022764022,1.6330731,0.81367296,0.039999995,0.03999974,-9.795711,0.37424319982528687,0.5018506,0.104503155,-0.09431207180023193,0.059586935
875.7333333328655,0.002785089,-0.7563995,-0.057570778,-2.337381,0.00233492,1.6347351,0.81441396,0.039999995,0.03999973,-9.794603,0.38530391454696655,0.51458746,0.10611817,-0.09539998322725296,0.060297824
875.7499999995322,0.002853684,-0.75565857,-0.059093397,-2.336881,0.0023942464,1.63642,0.8151647,0.04,0.03999973,-9.793357,0.39651867747306824,0.5274749,0.10772884,-0.09648272395133972,0.06099905
875.7666666661988,0.0029231948,-0.7549076,-0.060636602,-2.3363736,0.0024543777,1.6381274,0.81592554,0.04,0.03999974,-9.792085,0.40789392590522766,0.54049146,0.10934069,-0.09755921363830566,0.06169
875.7833333328655,0.002993618,-0.7541468,-0.062200285,-2.3358603,0.0025153102,1.6398578,0.8166964,0.04,0.03999973,-9.79066,0.4194357097148895,0.5536664,0.110951416,-0.0986258015036583,0.06237191
875.7999999995321,0.0030649484,-0.75337607,-0.06378434,-2.3353398,0.0025770422,1.6416107,0.81747717,0.04,0.039999723,-9.789408,0.43114012479782104,0.5669845,0.11256067,-0.09968897700309753,0.06304385
875.8166666661988,0.0031371806,-0.7525953,-0.06538864,-2.3348124,0.0026395668,1.6433862,0.8182682,0.04,0.039999727,-9.787932,0.44300273060798645,0.58041835,0.11416861,-0.10074212402105331,0.06370521
875.8333333328654,0.0032103104,-0.75180477,-0.06701312,-2.3342783,0.0027028804,1.6451838,0.81906897,0.04,0.03999973,-9.786448,0.4550214409828186,0.5939886,0.115772784,-0.10178779810667038,0.06435598
875.8499999995321,0.0032843307,-0.75100464,-0.06865764,-2.3337376,0.0027669796,1.6470035,0.81987965,0.04,0.039999716,-9.78494,0.46720075607299805,0.60770935,0.11737501,-0.10282670706510544,0.06499599
875.8666666661987,0.0033592356,-0.75019485,-0.07032204,-2.3331904,0.0028318583,1.648845,0.8207003,0.04,0.039999716,-9.783332,0.47953787446022034,0.62156206,0.11897387,-0.10385628789663315,0.06562432
875.8833333328654,0.003435021,-0.74937534,-0.072006196,-2.3326375,0.002897513,1.6507086,0.82153064,0.04,0.039999712,-9.781752,0.4920288920402527,0.6355495,0.1205686,-0.10488057881593704,0.06624188
875.899999999532,0.00351168,-0.74854636,-0.07371004,-2.3320782,0.0029639371,1.6525937,0.82237065,0.04,0.039999705,-9.780164,0.5046768188476562,0.64962804,0.12215972,-0.10589885711669922,0.06684851
875.9166666661987,0.0035892061,-0.74770784,-0.07543334,-2.3315122,0.0030311272,1.6545006,0.8232202,0.04,0.039999705,-9.778441,0.5174821615219116,0.66385525,0.12374641,-0.10690940916538239,0.06744308
875.9333333328653,0.003667592,-0.74685997,-0.07717601,-2.3309395,0.003099076,1.6564289,0.8240793,0.04,0.0399997,-9.776629,0.5305242538452148,0.678104,0.12532908,-0.10791071504354477,0.06802554
875.949999999532,0.0037468316,-0.7460027,-0.0789379,-2.33036,0.0031677792,1.6583784,0.82494783,0.04,0.039999694,-9.77475,0.5435325503349304,0.6926385,0.12690692,-0.10890115052461624,0.06859535
875.9666666661986,0.0038269171,-0.74513584,-0.08071887,-2.3297749,0.0032372302,1.6603489,0.8258258,0.04,0.039999694,-9.772759,0.5567909479141235,0.707191,0.12847921,-0.10988009721040726,0.06915339
875.9833333328653,0.0039078426,-0.7442603,-0.08251874,-2.329184,0.0033074226,1.6623404,0.8267131,0.04,0.039999682,-9.770941,0.5701916217803955,0.72186565,0.13004574,-0.11085470020771027,0.06969839
875.999999999532,0.0039896006,-0.7433752,-0.08433736,-2.328587,0.003378352,1.6643525,0.8276097,0.04,0.039999682,-9.768978,0.5837486982345581,0.73669636,0.13160618,-0.11182116717100143,0.07023089
876.0166666661986,0.004072183,-0.7424815,-0.086174555,-2.3279836,0.003450012,1.6663855,0.8285154,0.04,0.039999682,-9.7669115,0.5974466800689697,0.7515494,0.13315949,-0.1127793937921524,0.070750475
876.0333333328653,0.0041555823,-0.7415787,-0.0880302,-2.3273735,0.0035223954,1.6684386,0.82943016,0.04,0.039999675,-9.76469,0.611295223236084,0.76657134,0.13470656,-0.113723024725914,0.071256846
876.0499999995319,0.00423979,-0.740667,-0.08990405,-2.3267577,0.003595496,1.6705118,0.830354,0.04,0.039999675,-9.762457,0.6252827048301697,0.781667,0.13624625,-0.11465757340192795,0.0717495
876.0666666661986,0.0043247985,-0.7397464,-0.09179598,-2.3261356,0.003669305,1.6726049,0.8312866,0.04,0.039999675,-9.760235,0.6394001245498657,0.7968659,0.13777822,-0.11558263003826141,0.07222792
876.0833333328652,0.0044105984,-0.73881733,-0.09370579,-2.3255086,0.003743819,1.6747179,0.832228,0.04,0.039999668,-9.757869,0.6536763906478882,0.81215805,0.13930243,-0.11649683862924576,0.072693296
876.0999999995319,0.004497185,-0.7378796,-0.09563328,-2.3248754,0.0038190295,1.6768504,0.8331781,0.04,0.03999967,-9.7556,0.6680923104286194,0.82756877,0.14081858,-0.11740376800298691,0.07314521
876.1166666661985,0.0045845453,-0.7369331,-0.0975783,-2.3242362,0.0038949293,1.6790023,0.83413696,0.04,0.039999656,-9.753103,0.6826333999633789,0.8430327,0.14232628,-0.11829879879951477,0.07358304
876.1333333328652,0.0046726717,-0.73597825,-0.09954065,-2.3235915,0.0039715087,1.6811732,0.8351041,0.04,0.03999966,-9.750593,0.6973236203193665,0.8585803,0.1438238,-0.11918359249830246,0.074006476
876.1499999995318,0.004761555,-0.73501503,-0.10152015,-2.3229415,0.0040487647,1.6833634,0.83607996,0.04,0.039999653,-9.748031,0.7121382355690002,0.8742385,0.14531338,-0.12005893886089325,0.074416205
876.1666666661985,0.0048511885,-0.73404366,-0.103516534,-2.3222857,0.0041266875,1.6855719,0.8370639,0.04,0.03999965,-9.745457,0.727094829082489,0.889957,0.14679134,-0.12092358618974686,0.074810825
876.1833333328651,0.0049415613,-0.73306423,-0.105529666,-2.3216238,0.004205271,1.6877987,0.83805615,0.04,0.039999645,-9.742665,0.7422541975975037,0.90569925,0.1482602,-0.12177664041519165,0.07519129
876.1999999995318,0.0050326623,-0.7320768,-0.10755932,-2.3209572,0.0042845043,1.6900439,0.8390566,0.04,0.03999965,-9.739853,0.757379949092865,0.92164797,0.14971837,-0.122617207467556,0.07555759
876.2166666661984,0.005124484,-0.73108137,-0.109605275,-2.3202858,0.0043643815,1.6923075,0.8400651,0.04,0.039999645,-9.737096,0.7727156281471252,0.937611,0.15116489,-0.12344931811094284,0.07590768
876.2333333328651,0.0052170176,-0.7300781,-0.11166732,-2.3196082,0.0044448934,1.6945887,0.84108156,0.04,0.039999638,-9.734269,0.7881760001182556,0.95361507,0.15259995,-0.1242714375257492,0.076243825
876.2499999995317,0.00531025,-0.729067,-0.11374526,-2.3189259,0.004526031,1.6968877,0.84210575,0.04,0.039999634,-9.73116,0.8037658929824829,0.96969444,0.15402316,-0.12507830560207367,0.076565176
876.2666666661984,0.005404174,-0.72804844,-0.11583885,-2.3182385,0.004607787,1.6992037,0.8431377,0.04,0.039999634,-9.728173,0.8194724321365356,0.9858341,0.15543461,-0.12587440013885498,0.07687112
876.283333332865,0.005498779,-0.7270223,-0.117947884,-2.3175454,0.0046901535,1.7015367,0.8441773,0.04,0.039999627,-9.725081,0.8353047370910645,1.0020515,0.15683317,-0.12666055560112,0.07716264
876.2999999995317,0.005594054,-0.725989,-0.120072104,-2.3168476,0.00477312,1.7038867,0.8452244,0.04,0.039999638,-9.721813,0.8512445092201233,1.0183091,0.15821834,-0.1274329423904419,0.077438444
876.3166666661983,0.005689987,-0.7249482,-0.12221129,-2.3161447,0.0048566787,1.706253,0.8462788,0.04,0.03999963,-9.718583,0.8673010468482971,1.0346323,0.15959027,-0.12819220125675201,0.07769896
876.333333332865,0.0057865693,-0.72390026,-0.12436524,-2.3154378,0.004940822,1.708636,0.84734046,0.04,0.03999963,-9.7152605,0.8834699988365173,1.0510001,0.16094877,-0.1289413720369339,0.07794358
876.3499999995316,0.0058837915,-0.7228454,-0.12653372,-2.314725,0.005025539,1.7110349,0.84840935,0.04,0.03999962,-9.711953,0.8997628688812256,1.0674059,0.16229291,-0.1296796351671219,0.07817367
876.3666666661983,0.0059816395,-0.7217837,-0.12871644,-2.3140087,0.0051108208,1.7134492,0.8494851,0.04,0.039999623,-9.708321,0.9161497950553894,1.0838616,0.16362253,-0.13040034472942352,0.07838703
876.3833333328649,0.006080106,-0.7207151,-0.13091323,-2.313287,0.0051966608,1.7158792,0.8505676,0.04,0.039999615,-9.704946,0.9326602816581726,1.1003968,0.16493775,-0.1311156153678894,0.07858631
876.3999999995316,0.0061791763,-0.7196398,-0.13312377,-2.3125608,0.005283044,1.7183248,0.8516571,0.04,0.03999961,-9.701259,0.9492681622505188,1.1169082,0.1662387,-0.13181506097316742,0.0787704
876.4166666661982,0.006278841,-0.7185579,-0.13534784,-2.3118308,0.005369967,1.7207851,0.85275316,0.04,0.039999604,-9.697542,0.965969443321228,1.1334625,0.16752276,-0.1324990689754486,0.07893825
876.4333333328649,0.006379087,-0.71746945,-0.13758522,-2.3110952,0.0054574152,1.72326,0.8538559,0.04,0.039999608,-9.693903,0.9828460216522217,1.1500385,0.16879107,-0.13317571580410004,0.07909
876.4499999995315,0.006479905,-0.71637475,-0.13983558,-2.310357,0.005545382,1.7257491,0.85496503,0.04,0.039999608,-9.689909,0.9996870756149292,1.1666955,0.17004275,-0.13383346796035767,0.079226285
876.4666666661982,0.006581284,-0.7152738,-0.14209883,-2.309613,0.0056338576,1.7282523,0.85608023,0.04,0.0399996,-9.686259,1.016694188117981,1.1833993,0.17127763,-0.13448798656463623,0.07934893
876.4833333328648,0.006683211,-0.7141668,-0.14437452,-2.308866,0.0057228305,1.7307692,0.8572018,0.04,0.039999604,-9.682058,1.0337880849838257,1.2000391,0.17249596,-0.13512197136878967,0.07945356
876.4999999995315,0.0067856726,-0.7130538,-0.14666246,-2.3081138,0.005812294,1.7333001,0.8583296,0.04,0.039999604,-9.678192,1.0509767532348633,1.2167646,0.17369603,-0.1357489824295044,0.07954413
876.5166666661981,0.006888658,-0.71193504,-0.14896245,-2.3073585,0.0059022317,1.735844,0.8594631,0.04,0.039999597,-9.673937,1.0682495832443237,1.2334403,0.17487773,-0.13635611534118652,0.07961954
876.5333333328648,0.006992156,-0.7108105,-0.15127413,-2.306599,0.0059926375,1.738401,0.8606025,0.04,0.03999959,-9.66984,1.08562171459198,1.2501892,0.17604162,-0.13695384562015533,0.07967786
876.5499999995315,0.0070961537,-0.7096805,-0.15359731,-2.3058357,0.006083503,1.7409705,0.86174726,0.04,0.039999593,-9.66554,1.1030614376068115,1.2669216,0.17718658,-0.13753651082515717,0.079722576
876.5666666661981,0.0072006388,-0.70854515,-0.1559317,-2.3050687,0.006174814,1.7435524,0.8628977,0.04,0.039999586,-9.661202,1.1205955743789673,1.2836713,0.1783137,-0.1381058692932129,0.079750605
876.5833333328648,0.0073055993,-0.7074044,-0.15827702,-2.3042982,0.0062665613,1.7461466,0.86405337,0.04,0.039999593,-9.656822,1.1382033824920654,1.3004273,0.1794204,-0.1386622041463852,0.079763345
876.5999999995314,0.007411023,-0.7062583,-0.16063295,-2.3035245,0.0063587357,1.7487522,0.86521447,0.04,0.039999586,-9.652358,1.1558908224105835,1.3171662,0.18050826,-0.13920485973358154,0.0797621
876.6166666661981,0.007516898,-0.7051074,-0.16299926,-2.3027475,0.0064513236,1.7513695,0.86638045,0.04,0.039999582,-9.647903,1.1736363172531128,1.3339173,0.18157528,-0.1397375911474228,0.079745
876.6333333328647,0.007623211,-0.7039514,-0.16537566,-2.301967,0.006544317,1.7539977,0.8675515,0.04,0.039999582,-9.643262,1.1914712190628052,1.3506721,0.18262304,-0.1402551531791687,0.07971253
876.6499999995314,0.007729949,-0.7027907,-0.16776192,-2.3011835,0.006637704,1.7566367,0.86872745,0.04,0.039999574,-9.638571,1.2093734741210938,1.3673923,0.18364906,-0.14075954258441925,0.07966566
876.666666666198,0.0078371,-0.7016254,-0.1701577,-2.3003962,0.0067314743,1.7592864,0.86990803,0.04,0.03999958,-9.633887,1.2273448705673218,1.3841186,0.18465395,-0.1412525326013565,0.079605214
876.6833333328647,0.007944649,-0.70045555,-0.17256276,-2.2996063,0.0068256147,1.7619461,0.87109315,0.04,0.039999574,-9.628963,1.2454140186309814,1.4007685,0.18563774,-0.1417275369167328,0.07952766
876.6999999995313,0.0080525875,-0.6992815,-0.17497674,-2.2988136,0.0069201156,1.7646157,0.87228274,0.04,0.03999957,-9.624152,1.26345956325531,1.4175236,0.18659939,-0.14219197630882263,0.079436526
876.716666666198,0.008160898,-0.6981032,-0.17739941,-2.2980175,0.007014967,1.7672951,0.87347656,0.04,0.03999957,-9.619179,1.2815886735916138,1.434209,0.18753898,-0.1426420658826828,0.07932924
876.7333333328646,0.008269568,-0.6969208,-0.17983046,-2.2972193,0.007110158,1.7699836,0.8746743,0.04,0.039999567,-9.614104,1.2997967004776,1.4508383,0.18845661,-0.1430755853652954,0.079208426
876.7499999995313,0.008378589,-0.6957345,-0.18226962,-2.2964182,0.007205676,1.7726814,0.8758762,0.04,0.039999567,-9.609106,1.318058967590332,1.4674922,0.18935212,-0.14349879324436188,0.07907327
876.7666666661979,0.008487941,-0.6945443,-0.18471661,-2.2956147,0.0073015094,1.7753874,0.8770819,0.04,0.039999563,-9.603916,1.3363676071166992,1.484089,0.19022381,-0.1439065784215927,0.078925304
876.7833333328646,0.008597617,-0.69335043,-0.18717106,-2.294809,0.007397647,1.7781017,0.87829125,0.04,0.039999563,-9.59872,1.3547242879867554,1.5006535,0.19107199,-0.14430195093154907,0.07876172
876.7999999995312,0.008707602,-0.69215316,-0.18963277,-2.2940006,0.007494076,1.7808242,0.8795041,0.04,0.039999556,-9.593505,1.3731108903884888,1.5172004,0.1918971,-0.1446860283613205,0.07858449
876.8166666661979,0.00881788,-0.6909526,-0.19210142,-2.29319,0.0075907884,1.7835542,0.8807203,0.04,0.039999556,-9.588044,1.391562819480896,1.5336856,0.19269815,-0.14505158364772797,0.07839392
876.8333333328645,0.00892844,-0.6897487,-0.19457664,-2.2923777,0.00768777,1.7862914,0.88194,0.04,0.039999552,-9.582662,1.4100446701049805,1.5501597,0.19347516,-0.14540453255176544,0.07818987
876.8499999995312,0.009039268,-0.6885417,-0.1970582,-2.291562,0.007785011,1.7890354,0.8831626,0.04,0.039999556,-9.57727,1.4285495281219482,1.5665938,0.1942267,-0.14574697613716125,0.07797071
876.8666666661978,0.009150347,-0.6873319,-0.1995458,-2.290745,0.007882497,1.7917861,0.8843883,0.04,0.039999556,-9.571544,1.4471046924591064,1.5829394,0.19495432,-0.14606931805610657,0.077739924
876.8833333328645,0.009261667,-0.6861195,-0.20203902,-2.2899265,0.007980218,1.7945435,0.8856167,0.04,0.039999556,-9.566,1.4656845331192017,1.5992947,0.1956561,-0.14637969434261322,0.07749465
876.8999999995311,0.009373215,-0.6849042,-0.20453772,-2.2891061,0.0080781635,1.7973067,0.88684785,0.04,0.039999556,-9.560373,1.4842875003814697,1.6156056,0.1963333,-0.14667586982250214,0.07723701
876.9166666661978,0.009484977,-0.6836865,-0.20704153,-2.2882838,0.00817632,1.8000753,0.88808143,0.04,0.039999552,-9.554655,1.5029387474060059,1.6318251,0.19698437,-0.14695857465267181,0.076967664
876.9333333328644,0.009596938,-0.6824667,-0.2095502,-2.2874599,0.008274678,1.8028492,0.88931733,0.04,0.039999556,-9.548857,1.5216164588928223,1.6479822,0.19761008,-0.14722780883312225,0.07668483
876.9499999995311,0.009709085,-0.6812446,-0.21206334,-2.2866342,0.008373223,1.8056281,0.89055556,0.04,0.039999552,-9.54295,1.5402787923812866,1.6641508,0.1982095,-0.1474803388118744,0.07639009
876.9666666661977,0.009821402,-0.6800204,-0.21458073,-2.2858074,0.008471946,1.8084116,0.8917959,0.04,0.03999955,-9.537031,1.5589635372161865,1.680227,0.1987821,-0.14771805703639984,0.07608203
876.9833333328644,0.00993388,-0.67879426,-0.21710192,-2.2849798,0.00857083,1.8111993,0.893038,0.04,0.03999954,-9.531123,1.5776828527450562,1.6962464,0.19932775,-0.147943377494812,0.07576201
876.999999999531,0.0100465035,-0.6775663,-0.21962672,-2.2841508,0.008669867,1.813991,0.89428186,0.04,0.03999955,-9.525161,1.5964016914367676,1.7122058,0.19984776,-0.14815665781497955,0.075432464
877.0166666661977,0.010159256,-0.67633694,-0.2221548,-2.2833204,0.008769045,1.8167863,0.8955273,0.04,0.039999545,-9.51907,1.6151318550109863,1.7280803,0.20033996,-0.1483541578054428,0.07508877
877.0333333328643,0.010272123,-0.6751063,-0.22468586,-2.2824888,0.008868348,1.8195848,0.8967743,0.04,0.03999955,-9.512877,1.6338775157928467,1.7439147,0.20080525,-0.14853574335575104,0.074735545
877.049999999531,0.010385092,-0.67387414,-0.22721954,-2.2816565,0.008967765,1.8223864,0.89802253,0.04,0.03999954,-9.506658,1.652616262435913,1.7596805,0.20124301,-0.14870114624500275,0.07436976
877.0666666661976,0.010498153,-0.67264104,-0.22975558,-2.2808235,0.009067286,1.8251904,0.89927197,0.04,0.03999953,-9.50046,1.6713515520095825,1.7753601,0.20165293,-0.14885278046131134,0.07399348
877.0833333328643,0.010611288,-0.6714068,-0.23229367,-2.27999,0.009166896,1.8279966,0.90052223,0.04,0.03999955,-9.494162,1.6901088953018188,1.7910026,0.20203495,-0.1489899605512619,0.073606156
877.099999999531,0.010724486,-0.67017186,-0.23483345,-2.2791562,0.009266588,1.8308048,0.9017735,0.04,0.03999954,-9.487876,1.7088481187820435,1.8065376,0.20238951,-0.1491144895553589,0.07321032
877.1166666661976,0.010837731,-0.6689363,-0.23737465,-2.2783217,0.009366346,1.8336146,0.90302527,0.04,0.039999545,-9.481508,1.7275665998458862,1.8220271,0.2027153,-0.14922434091567993,0.072803065
877.1333333328643,0.010951007,-0.66770023,-0.23991697,-2.277487,0.009466158,1.8364252,0.90427756,0.04,0.03999954,-9.475059,1.7462959289550781,1.8374168,0.20301354,-0.14931845664978027,0.072386704
877.1499999995309,0.011064304,-0.6664637,-0.24246007,-2.2766523,0.009566012,1.8392369,0.9055303,0.04,0.039999537,-9.46861,1.7649909257888794,1.8527406,0.20328335,-0.14940081536769867,0.07195833
877.1666666661976,0.011177607,-0.665227,-0.24500364,-2.2758172,0.009665899,1.842049,0.90678316,0.04,0.039999537,-9.46211,1.783694863319397,1.8679621,0.20352404,-0.1494682878255844,0.071523875
877.1833333328642,0.011290901,-0.6639902,-0.24754736,-2.274982,0.009765804,1.8448611,0.9080361,0.04,0.039999537,-9.455522,1.8023632764816284,1.8830905,0.20373636,-0.14951947331428528,0.071078345
877.1999999995309,0.011404171,-0.66275334,-0.25009093,-2.2741468,0.009865711,1.8476733,0.90928906,0.04,0.03999954,-9.448898,1.8209985494613647,1.8981836,0.20391962,-0.1495567262172699,0.07062249
877.2166666661975,0.011517406,-0.66151685,-0.25263402,-2.2733119,0.009965618,1.8504848,0.91054183,0.04,0.039999537,-9.442277,1.8396342992782593,1.9131572,0.20407331,-0.14957982301712036,0.070159756
877.2333333328642,0.01163059,-0.6602807,-0.25517634,-2.272477,0.010065507,1.8532954,0.9117941,0.04,0.039999537,-9.435585,1.858248233795166,1.9280565,0.20419775,-0.14958737790584564,0.06969103
877.2499999995308,0.0117437085,-0.659045,-0.25771758,-2.2716427,0.010165361,1.8561051,0.91304576,0.04,0.03999953,-9.4288225,1.8768017292022705,1.9428564,0.20429336,-0.14957991242408752,0.06921163
877.2666666661975,0.011856748,-0.6578102,-0.2602574,-2.270809,0.010265173,1.858913,0.9142968,0.04,0.039999537,-9.422098,1.8953362703323364,1.9575717,0.2043602,-0.14955800771713257,0.06872249
877.2833333328641,0.011969698,-0.6565761,-0.2627955,-2.2699757,0.010364929,1.861719,0.915547,0.04,0.039999537,-9.415293,1.9138634204864502,1.9722191,0.20439689,-0.14952148497104645,0.06822944
877.2999999995308,0.0120825395,-0.65534294,-0.2653317,-2.2691429,0.010464613,1.8645226,0.9167962,0.04,0.039999526,-9.408456,1.9323225021362305,1.9867334,0.20440413,-0.14946989715099335,0.06772731
877.3166666661974,0.012195262,-0.6541112,-0.2678655,-2.2683108,0.010564219,1.8673234,0.91804427,0.04,0.039999526,-9.401571,1.9507508277893066,2.0011785,0.2043815,-0.14940431714057922,0.06721596
877.3333333328641,0.012307851,-0.65288055,-0.27039665,-2.267479,0.010663733,1.8701216,0.9192909,0.04,0.03999953,-9.39466,1.9691598415374756,2.0155413,0.20432886,-0.14932331442832947,0.06670178
877.3499999995307,0.01242029,-0.6516515,-0.27292484,-2.266649,0.010763143,1.8729165,0.92053604,0.04,0.03999953,-9.387629,1.9874701499938965,2.0297482,0.20424747,-0.14922358095645905,0.066176385
877.3666666661974,0.012532569,-0.650424,-0.27544978,-2.26582,0.01086244,1.8757079,0.92177963,0.04,0.039999533,-9.380785,2.0057904720306396,2.043951,0.20413649,-0.14911265671253204,0.06564938
877.383333332864,0.012644676,-0.6491983,-0.27797112,-2.2649918,0.010961607,1.878495,0.9230214,0.04,0.039999526,-9.373738,2.024027109146118,2.057989,0.20399511,-0.14898432791233063,0.06511389
877.3999999995307,0.012756594,-0.6479745,-0.2804886,-2.2641652,0.011060631,1.8812777,0.9242611,0.04,0.03999954,-9.36671,2.042217969894409,2.0719507,0.20382473,-0.14884190261363983,0.06457303
877.4166666661973,0.012868309,-0.6467527,-0.28300187,-2.26334,0.0111595,1.8840559,0.9254989,0.04,0.039999533,-9.3597145,2.0603532791137695,2.085822,0.20362464,-0.14868709444999695,0.0640236
877.433333332864,0.012979808,-0.6455332,-0.28551066,-2.2625163,0.011258206,1.8868291,0.92673457,0.04,0.039999537,-9.352667,2.078420639038086,2.0995698,0.20339438,-0.1485159993171692,0.063474275
877.4499999995306,0.013091079,-0.64431584,-0.2880146,-2.261694,0.011356735,1.8895968,0.92796767,0.04,0.039999537,-9.345543,2.096470594406128,2.11322,0.20313361,-0.14832936227321625,0.06291789
877.4666666661973,0.0132021075,-0.64310104,-0.2905134,-2.260873,0.011455068,1.892359,0.9291984,0.04,0.039999533,-9.338435,2.1144163608551025,2.126757,0.20284405,-0.14812882244586945,0.062357
877.4833333328639,0.013312876,-0.641889,-0.2930069,-2.2600546,0.011553204,1.895115,0.9304263,0.04,0.039999537,-9.331272,2.1323108673095703,2.1402006,0.20252463,-0.14791128039360046,0.061791766
877.4999999995306,0.013423374,-0.6406797,-0.29549474,-2.2592373,0.011651124,1.8978648,0.9316515,0.04,0.03999953,-9.324189,2.1501708030700684,2.1535597,0.20217524,-0.14768148958683014,0.06122221
877.5166666661972,0.013533588,-0.63947326,-0.29797646,-2.2584217,0.011748816,1.900608,0.93287367,0.04,0.039999545,-9.316933,2.1679155826568604,2.1667683,0.20179564,-0.1474331021308899,0.06064735
877.5333333328639,0.013643505,-0.6382701,-0.3004519,-2.257609,0.011846272,1.9033438,0.93409276,0.04,0.039999537,-9.309751,2.1855885982513428,2.179884,0.20138705,-0.1471697837114334,0.060067527
877.5499999995305,0.013753116,-0.6370701,-0.30292067,-2.2567987,0.011943478,1.9060725,0.93530846,0.04,0.039999537,-9.30262,2.203242301940918,2.1929345,0.20094821,-0.14689385890960693,0.05948999
877.5666666661972,0.013862405,-0.63587344,-0.30538258,-2.25599,0.012040423,1.9087936,0.9365208,0.04,0.039999537,-9.295512,2.2207653522491455,2.2058694,0.20048113,-0.14660575985908508,0.05890721
877.5833333328638,0.013971356,-0.63468015,-0.30783722,-2.255184,0.012137094,1.9115067,0.9377296,0.04,0.039999545,-9.288143,2.238210678100586,2.218622,0.19998413,-0.1462971717119217,0.05831688
877.5999999995305,0.014079957,-0.6334906,-0.31028447,-2.2543805,0.01223348,1.9142113,0.9389346,0.04,0.039999545,-9.281013,2.2556204795837402,2.2313344,0.19945765,-0.14597687125205994,0.05773137
877.6166666661971,0.014188195,-0.6323051,-0.3127239,-2.2535791,0.01232957,1.9169071,0.9401357,0.04,0.039999545,-9.273782,2.2729201316833496,2.2439163,0.19890217,-0.14564156532287598,0.057140734
877.6333333328638,0.014296054,-0.6311234,-0.31515527,-2.252781,0.012425353,1.9195942,0.9413329,0.04,0.039999545,-9.266462,2.290134906768799,2.2563903,0.19831768,-0.14528930187225342,0.056546345
877.6499999995305,0.01440353,-0.6299458,-0.31757817,-2.2519853,0.012520812,1.9222718,0.9425261,0.04,0.03999955,-9.259288,2.307276725769043,2.2687669,0.19770385,-0.14492382109165192,0.055951633
877.6666666661971,0.014510608,-0.62877244,-0.31999233,-2.2511926,0.012615942,1.92494,0.9437148,0.04,0.039999545,-9.252022,2.3243067264556885,2.2810078,0.19706035,-0.14454218745231628,0.0553555
877.6833333328638,0.01461727,-0.6276035,-0.32239762,-2.250403,0.012710728,1.927598,0.944899,0.04,0.03999954,-9.244788,2.3411953449249268,2.2931767,0.1963899,-0.14414583146572113,0.05475807
877.6999999995304,0.014723504,-0.626439,-0.32479367,-2.2496161,0.01280516,1.9302458,0.9460788,0.04,0.039999552,-9.23756,2.3580965995788574,2.3051987,0.19569066,-0.14373627305030823,0.054155447
877.716666666197,0.0148293,-0.62527907,-0.32718018,-2.2488325,0.012899226,1.9328829,0.9472538,0.04,0.039999552,-9.230316,2.3749005794525146,2.3171139,0.19496256,-0.14331145584583282,0.053559802
877.7333333328637,0.014934645,-0.62412405,-0.32955685,-2.2480524,0.012992914,1.9355092,0.94842416,0.039999995,0.039999545,-9.223053,2.391545534133911,2.3289015,0.19420597,-0.14287132024765015,0.052959196
877.7499999995304,0.01503953,-0.6229739,-0.33192343,-2.2472756,0.013086212,1.9381244,0.9495894,0.04,0.039999552,-9.21583,2.4081039428710938,2.3406062,0.19342102,-0.1424167901277542,0.052355953
877.766666666197,0.015143938,-0.6218289,-0.33427966,-2.2465022,0.013179112,1.9407282,0.9507495,0.04,0.039999552,-9.208631,2.4245975017547607,2.352185,0.19260868,-0.14194762706756592,0.05175862
877.7833333328637,0.015247858,-0.62068903,-0.3366251,-2.2457318,0.013271602,1.9433198,0.95190424,0.039999995,0.03999955,-9.201383,2.440945625305176,2.363662,0.19176829,-0.14146316051483154,0.051154938
877.7999999995303,0.015351279,-0.6195544,-0.33895963,-2.2449653,0.0133636715,1.9458994,0.9530537,0.04,0.039999556,-9.194147,2.457211971282959,2.375001,0.19090147,-0.14096370339393616,0.05055844
877.816666666197,0.015454187,-0.61842525,-0.341283,-2.2442024,0.013455304,1.9484669,0.9541976,0.04,0.039999556,-9.186953,2.473343849182129,2.3862371,0.19000687,-0.1404503732919693,0.049956452
877.8333333328636,0.015556574,-0.61730164,-0.3435949,-2.2434433,0.013546498,1.9510214,0.95533556,0.04,0.03999956,-9.17973,2.4894278049468994,2.3973494,0.18908551,-0.1399191915988922,0.049360983
877.8499999995303,0.015658423,-0.6161838,-0.3458951,-2.242688,0.013637227,1.9535631,0.95646787,0.03999999,0.039999552,-9.172581,2.505345106124878,2.4083776,0.18813795,-0.13937577605247498,0.048760585
877.8666666661969,0.015759723,-0.6150721,-0.34818324,-2.2419367,0.013727496,1.956091,0.95759434,0.03999999,0.039999556,-9.165397,2.5211992263793945,2.4192736,0.18716346,-0.138816699385643,0.048167765
877.8833333328636,0.015860468,-0.6139661,-0.35045922,-2.2411895,0.013817292,1.9586059,0.9587147,0.04,0.039999563,-9.158236,2.5369057655334473,2.4300923,0.18616246,-0.13824379444122314,0.047573574
877.8999999995302,0.015960643,-0.61286616,-0.35272256,-2.2404468,0.013906598,1.9611068,0.959829,0.039999995,0.039999563,-9.151141,2.5525062084198,2.440749,0.18513457,-0.13765649497509003,0.046975955
877.9166666661969,0.016060239,-0.6117727,-0.35497317,-2.2397075,0.013995408,1.9635934,0.9609369,0.04,0.039999574,-9.144049,2.567992925643921,2.4513183,0.18408148,-0.13705557584762573,0.046385054
877.9333333328635,0.016159238,-0.61068547,-0.3572107,-2.238973,0.014083713,1.9660655,0.9620385,0.04,0.03999957,-9.136863,2.5833044052124023,2.4617875,0.18300238,-0.1364366114139557,0.045795795
877.9499999995302,0.016257638,-0.60960484,-0.35943493,-2.2382421,0.014171496,1.9685229,0.96313345,0.04,0.039999574,-9.129832,2.5986480712890625,2.4720933,0.18189754,-0.13580498099327087,0.045212347
877.9666666661968,0.016355423,-0.60853064,-0.36164564,-2.2375164,0.014258752,1.9709654,0.9642217,0.039999995,0.039999574,-9.122705,2.6137375831604004,2.4823167,0.18076833,-0.13515762984752655,0.044622816
877.9833333328635,0.016452579,-0.6074632,-0.36384252,-2.236795,0.014345475,1.9733925,0.9653031,0.039999995,0.039999574,-9.1157465,2.6287946701049805,2.4924197,0.17961405,-0.1344965100288391,0.04404544
877.9999999995301,0.016549103,-0.60640264,-0.36602533,-2.2360783,0.014431646,1.9758039,0.9663776,0.04,0.03999958,-9.108725,2.643653154373169,2.5024223,0.17843594,-0.1338217556476593,0.043467015
878.0166666661968,0.016644979,-0.605349,-0.3681939,-2.2353663,0.014517259,1.9781996,0.967445,0.039999988,0.039999574,-9.101777,2.658412218093872,2.5123277,0.17723331,-0.1331353485584259,0.042885415
878.0333333328634,0.016740197,-0.6043025,-0.370348,-2.2346592,0.014602307,1.9805793,0.9685052,0.039999995,0.039999582,-9.094809,2.673067092895508,2.5220726,0.17600706,-0.13243207335472107,0.04231262
878.0499999995301,0.016834745,-0.60326314,-0.37248734,-2.2339568,0.014686786,1.9829423,0.9695581,0.04,0.03999959,-9.0879135,2.6875927448272705,2.5317485,0.17475714,-0.13171595335006714,0.041742854
878.0666666661967,0.016928617,-0.6022311,-0.37461156,-2.23326,0.0147706745,1.9852891,0.9706036,0.03999999,0.039999586,-9.0810175,2.701974868774414,2.541286,0.17348397,-0.13098643720149994,0.041176185
878.0833333328634,0.017021807,-0.6012064,-0.37672058,-2.2325675,0.014853966,1.9876187,0.9716416,0.03999999,0.039999586,-9.074216,2.7162206172943115,2.5507429,0.17218879,-0.13024409115314484,0.04061356
878.09999999953,0.017114295,-0.6001893,-0.37881416,-2.2318804,0.014936655,1.9899315,0.9726719,0.039999984,0.039999582,-9.067375,2.7303688526153564,2.5600543,0.17087042,-0.12948770821094513,0.040060166
878.1166666661967,0.017206077,-0.5991798,-0.38089207,-2.2311983,0.015018725,1.992227,0.9736947,0.03999999,0.039999593,-9.060573,2.7443182468414307,2.5692568,0.1695302,-0.1287170946598053,0.03949963
878.1333333328633,0.017297147,-0.598178,-0.38295412,-2.2305214,0.015100177,1.9945047,0.9747095,0.039999984,0.03999959,-9.0538225,2.758219003677368,2.5783575,0.16816755,-0.12793214619159698,0.03895314
878.14999999953,0.01738749,-0.59718424,-0.38500002,-2.2298496,0.015180998,1.9967643,0.97571653,0.039999995,0.0399996,-9.047107,2.771941661834717,2.587348,0.16678336,-0.12713420391082764,0.038406897
878.1666666661966,0.017477093,-0.5961985,-0.38702962,-2.2291834,0.015261173,1.9990063,0.9767154,0.03999999,0.0399996,-9.040373,2.785501003265381,2.5962281,0.1653777,-0.12632323801517487,0.037857935
878.1833333328633,0.017565958,-0.59522057,-0.3890427,-2.2285225,0.015340703,2.001229,0.977706,0.03999999,0.039999604,-9.03377,2.7988979816436768,2.6050637,0.1639517,-0.12549690902233124,0.037318528
878.19999999953,0.017654067,-0.5942508,-0.39103895,-2.2278671,0.01541958,2.003434,0.9786885,0.03999999,0.039999608,-9.02722,2.81233549118042,2.6136737,0.16250552,-0.12466269731521606,0.036790185
878.2166666661966,0.017741418,-0.5932894,-0.39301822,-2.2272177,0.015497788,2.0056202,0.97966254,0.039999988,0.039999608,-9.020601,2.82546067237854,2.6221943,0.16103923,-0.12381265312433243,0.036255453
878.2333333328633,0.017827995,-0.59233624,-0.39498034,-2.2265737,0.015575323,2.0077872,0.98062813,0.039999988,0.03999961,-9.0141735,2.838548421859741,2.6306665,0.15955353,-0.12294945865869522,0.03573554
878.2499999995299,0.017913794,-0.59139156,-0.39692506,-2.2259347,0.015652178,2.0099351,0.9815852,0.03999999,0.039999615,-9.007652,2.851409673690796,2.6389847,0.15804857,-0.12207508832216263,0.03521127
878.2666666661966,0.017998809,-0.59045565,-0.39885232,-2.225302,0.015728341,2.0120637,0.98253363,0.03999999,0.03999962,-9.001165,2.8641841411590576,2.6471944,0.15652508,-0.12118486315011978,0.034695297
878.2833333328632,0.018083023,-0.5895282,-0.40076184,-2.224676,0.015803808,2.0141726,0.9834733,0.039999984,0.039999615,-8.994801,2.876823902130127,2.655337,0.15498267,-0.1202828511595726,0.034184434
878.2999999995299,0.018166434,-0.58860964,-0.40265343,-2.224055,0.015878573,2.0162618,0.98440415,0.03999999,0.039999627,-8.988626,2.8893206119537354,2.6633956,0.15342224,-0.11937449127435684,0.03367964
878.3166666661965,0.018249037,-0.5876997,-0.40452692,-2.2234402,0.015952626,2.018331,0.9853259,0.03999999,0.039999627,-8.982199,2.9016499519348145,2.6712542,0.15184417,-0.11844787746667862,0.033179734
878.3333333328632,0.01833082,-0.5867989,-0.40638214,-2.222831,0.016025955,2.0203798,0.9862387,0.03999998,0.039999623,-8.976021,2.913860321044922,2.679059,0.15025003,-0.11750996857881546,0.03268898
878.3499999995298,0.01841178,-0.58590657,-0.40821895,-2.2222278,0.016098559,2.022408,0.9871423,0.039999984,0.039999627,-8.9697485,2.9258811473846436,2.6867547,0.14863837,-0.1165606901049614,0.032193735
878.3666666661965,0.018491905,-0.58502346,-0.410037,-2.2216313,0.016170435,2.024416,0.9880368,0.03999998,0.03999963,-8.96369,2.9378225803375244,2.6943185,0.14701064,-0.11560061573982239,0.031714376
878.3833333328631,0.018571202,-0.5841498,-0.41183633,-2.221041,0.016241571,2.0264025,0.98892206,0.039999977,0.03999963,-8.957676,2.949535846710205,2.7018528,0.14536738,-0.11463280022144318,0.031230364
878.3999999995298,0.018649638,-0.58328515,-0.4136168,-2.220456,0.016311958,2.0283682,0.989798,0.03999999,0.03999965,-8.951589,2.9611852169036865,2.7092288,0.1437088,-0.11365193873643875,0.030757288
878.4166666661964,0.01872722,-0.5824298,-0.41537806,-2.2198777,0.016381592,2.0303135,0.99066454,0.039999984,0.03999964,-8.945531,2.972658395767212,2.7164576,0.14203398,-0.11265722662210464,0.030289114
878.4333333328631,0.018803952,-0.5815839,-0.41712004,-2.219306,0.01645047,2.032237,0.99152166,0.039999988,0.039999653,-8.939698,2.9838595390319824,2.7237318,0.14034547,-0.11165176331996918,0.029825475
878.4499999995297,0.018879818,-0.5807475,-0.4188426,-2.218741,0.016518584,2.0341392,0.9923691,0.03999999,0.039999656,-8.933852,2.9951529502868652,2.730748,0.13864228,-0.11063859611749649,0.029369412
878.4666666661964,0.018954808,-0.5799205,-0.42054567,-2.2181826,0.016585926,2.0360193,0.99320704,0.03999998,0.039999653,-8.928042,3.0061800479888916,2.7377145,0.13692616,-0.10961393266916275,0.028916966
878.483333332863,0.01902892,-0.5791031,-0.4222291,-2.2176309,0.016652491,2.0378778,0.994035,0.039999977,0.03999965,-8.922414,3.017082929611206,2.7446249,0.13519616,-0.10858548432588577,0.02847361
878.4999999995297,0.019102141,-0.5782953,-0.42389265,-2.217085,0.01671828,2.0397148,0.9948532,0.039999984,0.03999966,-8.916693,3.0278148651123047,2.75136,0.13345395,-0.107544906437397,0.028034221
878.5166666661963,0.019174479,-0.57749736,-0.42553622,-2.2165446,0.016783273,2.0415294,0.9956617,0.039999977,0.039999656,-8.910975,3.038372039794922,2.757979,0.1317002,-0.10648968815803528,0.027599419
878.533333332863,0.019245917,-0.57670903,-0.42715967,-2.2160115,0.016847475,2.0433218,0.99646026,0.03999998,0.039999664,-8.905308,3.0488030910491943,2.764544,0.12993445,-0.10542361438274384,0.027169716
878.5499999995296,0.01931646,-0.5759306,-0.42876294,-2.2154849,0.016910885,2.0450919,0.99724895,0.039999977,0.039999668,-8.89985,3.0590884685516357,2.771007,0.12815686,-0.10434921830892563,0.026745938
878.5666666661963,0.019386098,-0.575162,-0.430346,-2.214965,0.016973488,2.0468392,0.99802744,0.039999977,0.03999967,-8.894399,3.0692269802093506,2.7773876,0.12636839,-0.10326657444238663,0.026328553
878.5833333328629,0.019454831,-0.5744034,-0.4319086,-2.2144525,0.017035285,2.0485642,0.99879605,0.039999984,0.039999682,-8.889057,3.0792338848114014,2.7836661,0.12457028,-0.10217692703008652,0.025916696
878.5999999995296,0.019522656,-0.5736548,-0.43345058,-2.2139466,0.017096274,2.0502665,0.9995547,0.039999977,0.03999968,-8.883764,3.089069128036499,2.7898521,0.122761235,-0.10108005255460739,0.025511792
878.6166666661962,0.019589558,-0.57291615,-0.434972,-2.2134478,0.01715645,2.0519462,1.000303,0.039999977,0.03999968,-8.878516,3.0987443923950195,2.7959318,0.12094245,-0.09997418522834778,0.025112405
878.6333333328629,0.019655537,-0.5721876,-0.4364726,-2.2129564,0.017215801,2.053603,1.0010413,0.039999977,0.039999686,-8.873386,3.1082923412323,2.8019242,0.11911524,-0.0988626629114151,0.024718178
878.6499999995295,0.019720597,-0.57146937,-0.43795237,-2.2124712,0.01727433,2.0552363,1.0017691,0.03999998,0.039999694,-8.868305,3.117672920227051,2.8078196,0.11727954,-0.09774427115917206,0.024330487
878.6666666661962,0.019784726,-0.570761,-0.43941128,-2.2119927,0.017332038,2.0568469,1.0024867,0.039999984,0.0399997,-8.863159,3.126903772354126,2.8135855,0.115436785,-0.09661725908517838,0.02394754
878.6833333328628,0.019847924,-0.57006305,-0.44084916,-2.2115207,0.01738892,2.0584345,1.0031937,0.03999998,0.0399997,-8.858193,3.1358675956726074,2.819342,0.113585435,-0.0954836905002594,0.02357123
878.6999999995295,0.019910188,-0.56937534,-0.442266,-2.2110553,0.017444963,2.0599983,1.0038908,0.039999984,0.03999971,-8.853167,3.1449038982391357,2.8248231,0.11172932,-0.09433800727128983,0.023199335
878.7166666661961,0.019971512,-0.568698,-0.4436617,-2.210597,0.017500175,2.0615387,1.0045772,0.039999984,0.03999971,-8.848293,3.1536972522735596,2.8303497,0.10986478,-0.09318839758634567,0.022833882
878.7333333328628,0.020031897,-0.5680307,-0.44503617,-2.2101457,0.017554548,2.063055,1.0052531,0.03999998,0.039999712,-8.8434925,3.1623308658599854,2.8357675,0.10799562,-0.09203256666660309,0.022472175
878.7499999995295,0.020091338,-0.5673738,-0.44638923,-2.2097018,0.017608082,2.0645478,1.0059189,0.039999977,0.039999712,-8.838811,3.170809507369995,2.8410888,0.10612079,-0.0908740907907486,0.02211812
878.7666666661961,0.020149838,-0.56672734,-0.44772112,-2.209265,0.017660772,2.0660176,1.0065737,0.039999973,0.039999712,-8.834203,3.179124593734741,2.8463328,0.10424113,-0.0897129625082016,0.02177013
878.7833333328628,0.020207392,-0.5660912,-0.44903162,-2.2088351,0.01771262,2.0674644,1.007218,0.03999998,0.039999723,-8.8296385,3.187328577041626,2.8514712,0.10235798,-0.08854459226131439,0.021427223
878.7999999995294,0.02026399,-0.56546545,-0.45032075,-2.2084126,0.017763617,2.068887,1.0078517,0.03999998,0.039999727,-8.825085,3.1953439712524414,2.856478,0.10047157,-0.087367944419384,0.021090025
878.816666666196,0.02031965,-0.5648502,-0.45158845,-2.2079973,0.017813774,2.0702858,1.0084748,0.03999998,0.039999727,-8.820702,3.203237771987915,2.8614666,0.09858209,-0.08619075268507004,0.020758705
878.8333333328627,0.020374361,-0.5642454,-0.4528346,-2.207589,0.01786308,2.0716612,1.0090878,0.039999977,0.039999727,-8.816341,3.210973024368286,2.8663445,0.0966897,-0.08501079678535461,0.020432582
878.8499999995294,0.020428116,-0.563651,-0.45405918,-2.2071874,0.017911537,2.0730135,1.0096902,0.03999998,0.039999735,-8.812008,3.2185397148132324,2.8710978,0.09479408,-0.08382399380207062,0.02011102
878.866666666196,0.02048092,-0.5630672,-0.45526236,-2.206793,0.017959137,2.074341,1.0102818,0.03999998,0.039999742,-8.807753,3.2259559631347656,2.8757732,0.09289678,-0.0826314240694046,0.019793732
878.8833333328627,0.020532768,-0.56249374,-0.45644397,-2.2064054,0.01800589,2.075645,1.0108626,0.039999984,0.03999975,-8.803607,3.2332704067230225,2.880407,0.09099888,-0.08144062757492065,0.019483613
878.8999999995293,0.020583678,-0.5619308,-0.45760402,-2.206025,0.01805179,2.0769255,1.0114329,0.039999984,0.039999753,-8.799491,3.240387439727783,2.8848972,0.0891021,-0.08024412393569946,0.019178044
878.916666666196,0.020633629,-0.5613784,-0.4587425,-2.2056513,0.018096836,2.0781817,1.0119926,0.039999977,0.03999975,-8.795439,3.2473738193511963,2.8893173,0.087204315,-0.07904346287250519,0.018876774
878.9333333328626,0.02068263,-0.56083626,-0.4598594,-2.205285,0.018141035,2.0794141,1.0125418,0.039999977,0.039999757,-8.791488,3.254093885421753,2.8937728,0.085307725,-0.07784319669008255,0.018579999
878.9499999995293,0.020730678,-0.5603048,-0.46095487,-2.2049253,0.01818438,2.0806231,1.0130805,0.039999973,0.039999757,-8.787673,3.2609004974365234,2.8979492,0.08341172,-0.0766427218914032,0.018290693
878.9666666661959,0.020777775,-0.5597838,-0.4620287,-2.2045727,0.018226879,2.0818083,1.0136085,0.039999977,0.039999764,-8.783754,3.2674577236175537,2.9020867,0.08151703,-0.07543595135211945,0.018003961
878.9833333328626,0.020823931,-0.55927324,-0.46308115,-2.204227,0.018268531,2.0829697,1.0141258,0.039999984,0.039999776,-8.780043,3.2738394737243652,2.906213,0.079625376,-0.07422955334186554,0.017722579
878.9999999995292,0.020869136,-0.5587731,-0.464112,-2.2038882,0.01830933,2.084107,1.0146325,0.039999977,0.039999776,-8.776378,3.2801082134246826,2.9102228,0.07773636,-0.07302313297986984,0.017446036
879.0166666661959,0.0209134,-0.5582832,-0.46512157,-2.2035568,0.018349284,2.0852206,1.0151289,0.039999984,0.039999783,-8.772742,3.2862000465393066,2.9141433,0.07585265,-0.0718156024813652,0.017174654
879.0333333328625,0.020956723,-0.55780387,-0.46610966,-2.2032328,0.018388389,2.0863106,1.0156147,0.03999998,0.039999787,-8.769337,3.2921841144561768,2.9180233,0.07397055,-0.07061264663934708,0.016908813
879.0499999995292,0.02099911,-0.5573347,-0.46707645,-2.2029157,0.018426651,2.0873773,1.0160902,0.039999977,0.039999787,-8.765907,3.297996997833252,2.921818,0.07209345,-0.06941051036119461,0.01664734
879.0666666661958,0.021040559,-0.55687606,-0.4680219,-2.202606,0.018464072,2.0884204,1.0165547,0.039999988,0.0399998,-8.762549,3.303679943084717,2.925499,0.07022122,-0.06820902973413467,0.016390298
879.0833333328625,0.021081077,-0.5564278,-0.4689462,-2.2023036,0.018500656,2.0894394,1.0170087,0.039999988,0.03999981,-8.759292,3.3092055320739746,2.929137,0.06835688,-0.06701137125492096,0.016138537
879.0999999995291,0.021120664,-0.55598956,-0.46984923,-2.2020078,0.01853641,2.090435,1.0174526,0.039999973,0.039999798,-8.756166,3.3146276473999023,2.9327133,0.066499256,-0.06582077592611313,0.015892766
879.1166666661958,0.021159325,-0.5555618,-0.47073108,-2.2017186,0.018571323,2.0914075,1.0178863,0.039999977,0.03999981,-8.752941,3.3198330402374268,2.9361238,0.06464767,-0.0646299496293068,0.015649987
879.1333333328624,0.021197066,-0.5551442,-0.47159216,-2.201436,0.01860541,2.0923572,1.0183094,0.039999984,0.03999982,-8.749836,3.3249330520629883,2.9395034,0.062802896,-0.06344109773635864,0.015411583
879.1499999995291,0.02123388,-0.5547366,-0.4724323,-2.2011602,0.018638669,2.0932841,1.0187219,0.039999984,0.039999828,-8.746808,3.3299243450164795,2.9427829,0.06096735,-0.062253188341856,0.015176855
879.1666666661957,0.021269782,-0.55433935,-0.47325152,-2.2008917,0.018671101,2.0941877,1.0191244,0.03999998,0.03999983,-8.74384,3.33473539352417,2.9459848,0.05914135,-0.06106630340218544,0.014945752
879.1833333328624,0.021304782,-0.5539521,-0.47405005,-2.2006297,0.018702716,2.0950685,1.0195167,0.039999984,0.039999843,-8.741038,3.3393208980560303,2.949285,0.057324924,-0.05988679826259613,0.014719495
879.199999999529,0.021338878,-0.55357486,-0.47482798,-2.2003741,0.018733518,2.095926,1.019899,0.039999984,0.03999985,-8.73822,3.343975067138672,2.952277,0.055517837,-0.05871180072426796,0.014496517
879.2166666661957,0.021372076,-0.55320746,-0.47558534,-2.2001257,0.018763512,2.096761,1.0202712,0.03999998,0.039999854,-8.735465,3.3483917713165283,2.9552693,0.05372127,-0.057541679590940475,0.014278261
879.2333333328623,0.02140438,-0.5528501,-0.47632238,-2.1998842,0.018792694,2.0975738,1.020633,0.039999984,0.039999872,-8.732886,3.3526525497436523,2.9582381,0.051936787,-0.05637947842478752,0.014062245
879.249999999529,0.021435795,-0.55250263,-0.4770391,-2.1996493,0.018821085,2.0983639,1.0209852,0.039999984,0.039999884,-8.73034,3.3568215370178223,2.961131,0.050165124,-0.05522314831614494,0.013851525
879.2666666661956,0.02146633,-0.55216485,-0.4777358,-2.199421,0.018848676,2.0991316,1.0213276,0.039999988,0.03999989,-8.727847,3.360827684402466,2.9639435,0.04840415,-0.05407507345080376,0.013646122
879.2833333328623,0.021495996,-0.5518366,-0.4784125,-2.1991992,0.018875476,2.0998778,1.02166,0.039999988,0.03999991,-8.725395,3.364652156829834,2.9666715,0.04665696,-0.0529368631541729,0.013427527
879.299999999529,0.021524798,-0.5515181,-0.47906947,-2.198984,0.018901506,2.1006024,1.0219827,0.03999999,0.039999943,-8.723074,3.368421792984009,2.9693282,0.0449237,-0.05180434510111809,0.013221519
879.3166666661956,0.021552734,-0.55120915,-0.47970676,-2.1987753,0.018926756,2.1013048,1.0222957,0.039999988,0.039999932,-8.720734,3.372086524963379,2.971904,0.043205187,-0.0506751649081707,0.013031066
879.3333333328623,0.021579828,-0.55090964,-0.48032454,-2.1985722,0.01895124,2.101986,1.0225989,0.039999988,0.039999943,-8.718544,3.375560998916626,2.974471,0.04150149,-0.04955786466598511,0.012838983
879.3499999995289,0.02160607,-0.5506195,-0.480923,-2.1983762,0.018974964,2.1026459,1.0228927,0.039999984,0.03999994,-8.716301,3.3789093494415283,2.9769008,0.03981507,-0.0484459325671196,0.012653409
879.3666666661956,0.021631489,-0.5503386,-0.4815023,-2.1981864,0.01899793,2.1032846,1.0231771,0.039999984,0.03999996,-8.714303,3.382136106491089,2.9793484,0.038144585,-0.04734707996249199,0.012466625
879.3833333328622,0.021656081,-0.55006677,-0.48206273,-2.1980028,0.019020157,2.1039023,1.0234525,0.039999988,0.03999999,-8.712287,3.385223865509033,2.9817023,0.036491215,-0.04625909775495529,0.012282641
879.3999999995289,0.02167985,-0.54980415,-0.4826044,-2.1978257,0.01904164,2.1044996,1.0237185,0.03999999,0.04,-8.710336,3.388223886489868,2.9839623,0.034854457,-0.04518093541264534,0.012104907
879.4166666661955,0.02170282,-0.54955065,-0.4831275,-2.1976545,0.019062387,2.1050763,1.0239755,0.039999988,0.04,-8.708476,3.39109206199646,2.9862063,0.033237033,-0.04411473870277405,0.011932434
879.4333333328622,0.021724986,-0.54930604,-0.4836322,-2.1974893,0.019082421,2.1056328,1.0242232,0.039999984,0.04,-8.706635,3.3937249183654785,2.9884431,0.03163808,-0.04305803030729294,0.0117664905
879.4499999995288,0.021746371,-0.54907006,-0.48411912,-2.19733,0.019101748,2.1061687,1.0244621,0.039999984,0.04,-8.704876,3.3964273929595947,2.9904711,0.030060567,-0.04201372712850571,0.0116028525
879.4666666661955,0.021766976,-0.5488429,-0.48458794,-2.1971765,0.019120375,2.1066854,1.0246924,0.039999988,0.04,-8.703221,3.3989710807800293,2.9925177,0.028502224,-0.04098553583025932,0.011444616
879.4833333328621,0.02178681,-0.54862416,-0.48503914,-2.1970284,0.019138353,2.1071827,1.0249137,0.03999998,0.04,-8.701568,3.4013164043426514,2.9944997,0.026964745,-0.03996795415878296,0.01128887
879.4999999995288,0.021805888,-0.54841393,-0.48547307,-2.1968868,0.01915564,2.107661,1.0251267,0.03999999,0.04,-8.699936,3.4035637378692627,2.9963975,0.025451418,-0.03896070271730423,0.011134987
879.5166666661954,0.021824226,-0.548212,-0.48588964,-2.1967502,0.01917226,2.1081202,1.0253313,0.039999984,0.04,-8.698538,3.405729293823242,2.9983282,0.023957929,-0.03797187656164169,0.01098314
879.5333333328621,0.02184183,-0.54801846,-0.48628947,-2.1966188,0.019188205,2.1085606,1.0255275,0.039999984,0.04,-8.697036,3.407731533050537,3.0001256,0.022489602,-0.036995697766542435,0.010837096
879.5499999995287,0.021858713,-0.5478329,-0.4866728,-2.1964934,0.019203505,2.1089828,1.0257155,0.039999984,0.04,-8.695572,3.409672737121582,3.0018895,0.021044584,-0.036033567041158676,0.0106927
879.5666666661954,0.021874893,-0.5476553,-0.48703983,-2.196374,0.01921817,2.1093867,1.0258956,0.039999977,0.04,-8.69432,3.4115002155303955,3.003625,0.019624226,-0.03508755564689636,0.010551865
879.583333332862,0.021890385,-0.5474854,-0.4873907,-2.1962585,0.01923218,2.109773,1.0260676,0.039999977,0.04,-8.693159,3.4132232666015625,3.0053551,0.01822805,-0.034163814038038254,0.010414561
879.5999999995287,0.021905191,-0.5473232,-0.4877259,-2.1961489,0.019245582,2.1101422,1.026232,0.039999966,0.04,-8.691794,3.4147841930389404,3.006905,0.01686009,-0.033250946551561356,0.010279086
879.6166666661953,0.021919334,-0.5471687,-0.48804575,-2.196045,0.019258328,2.1104944,1.0263889,0.03999997,0.04,-8.690683,3.4162845611572266,3.008499,0.015518249,-0.032355885952711105,0.010144589
879.633333332862,0.021932822,-0.5470208,-0.48835048,-2.1959443,0.019270506,2.1108298,1.0265384,0.039999954,0.04,-8.689672,3.417713165283203,3.010081,0.014203247,-0.03148099035024643,0.010018373
879.6499999995286,0.021945668,-0.54688036,-0.48864037,-2.1958497,0.019282058,2.1111488,1.0266806,0.039999954,0.04,-8.688503,3.418952226638794,3.0114546,0.012915971,-0.03062102571129799,0.009891348
879.6666666661953,0.021957893,-0.5467472,-0.48891574,-2.1957603,0.019293066,2.111452,1.0268155,0.039999958,0.04,-8.6876335,3.420179843902588,3.0129704,0.011657868,-0.029782652854919434,0.009772541
879.6833333328619,0.021969514,-0.5466206,-0.489177,-2.1956742,0.019303521,2.1117396,1.0269434,0.039999954,0.04,-8.686712,3.4211843013763428,3.01446,0.010431216,-0.028964953497052193,0.009655483
879.6999999995286,0.021980535,-0.5465009,-0.48942447,-2.1955936,0.019313434,2.1120121,1.0270649,0.039999954,0.04,-8.685726,3.4222424030303955,3.0156932,0.009235015,-0.028163256123661995,0.009541292
879.7166666661952,0.021990983,-0.5463877,-0.48965847,-2.1955168,0.019322824,2.1122696,1.0271794,0.03999995,0.04,-8.684961,3.4231643676757812,3.0170658,0.008068175,-0.02738533914089203,0.009430856
879.7333333328619,0.022000875,-0.5462807,-0.4898795,-2.1954446,0.019331701,2.1125126,1.0272876,0.03999995,0.04,-8.684103,3.423959970474243,3.018317,0.0069358186,-0.026625704020261765,0.009323134
879.7499999995285,0.022010222,-0.54618,-0.49008775,-2.1953764,0.019340085,2.112742,1.0273898,0.039999943,0.04,-8.683425,3.424696922302246,3.0195746,0.0058350866,-0.025890037417411804,0.009219405
879.7666666661952,0.022019042,-0.54608524,-0.49028382,-2.1953123,0.019347955,2.112958,1.0274857,0.039999936,0.04,-8.682654,3.4253108501434326,3.020778,0.0047672987,-0.025174204260110855,0.009115728
879.7833333328618,0.022027351,-0.5459962,-0.49046785,-2.1952522,0.019355321,2.1131601,1.0275759,0.03999994,0.04,-8.682047,3.4258861541748047,3.0219638,0.0037342561,-0.02448132075369358,0.009015976
879.7999999995285,0.022035176,-0.5459128,-0.49064037,-2.1951957,0.01936225,2.1133494,1.0276601,0.039999936,0.04,-8.681459,3.4263510704040527,3.0231287,0.0027364881,-0.023813975974917412,0.008922676
879.8166666661951,0.022042526,-0.5458349,-0.49080184,-2.195143,0.019368757,2.1135273,1.0277393,0.039999932,0.04,-8.680886,3.426734685897827,3.024244,0.0017757334,-0.023170292377471924,0.008833899
879.8333333328618,0.022049423,-0.5457619,-0.49095264,-2.1950936,0.019374823,2.1136925,1.0278132,0.039999932,0.04,-8.680323,3.427051544189453,3.0253174,0.0008496528,-0.02254815585911274,0.008745133
879.8499999995284,0.022055887,-0.545694,-0.49109307,-2.195048,0.019380515,2.1138468,1.0278819,0.03999993,0.04,-8.679882,3.427292823791504,3.0263915,-3.84356e-05,-0.021955624222755432,0.008664137
879.8666666661951,0.02206193,-0.54563075,-0.49122366,-2.1950052,0.01938582,2.1139903,1.0279458,0.039999932,0.04,-8.679476,3.427448034286499,3.0274482,-0.0008877591,-0.021387754008173943,0.008586151
879.8833333328618,0.022067582,-0.5455721,-0.49134502,-2.1949651,0.01939075,2.1141238,1.028005,0.039999925,0.04,-8.678996,3.4275100231170654,3.0284197,-0.0016973268,-0.0208442285656929,0.008509363
879.8999999995284,0.022072857,-0.5455178,-0.4914576,-2.1949291,0.019395333,2.114247,1.0280598,0.03999993,0.04,-8.678542,3.427550792694092,3.0293727,-0.0024679694,-0.020323041826486588,0.008436242
879.916666666195,0.022077786,-0.54546756,-0.4915616,-2.1948948,0.01939958,2.11436,1.0281105,0.03999992,0.04,-8.678385,3.4275519847869873,3.0304294,-0.003198362,-0.019837558269500732,0.0083677
879.9333333328617,0.022082372,-0.5454212,-0.49165758,-2.1948633,0.019403493,2.1144652,1.0281574,0.03999993,0.04,-8.677949,3.4273698329925537,3.0313673,-0.003886177,-0.01937902718782425,0.008304128
879.9499999995284,0.022086656,-0.5453785,-0.49174616,-2.1948352,0.01940712,2.1145625,1.0282005,0.039999925,0.04,-8.677679,3.4272446632385254,3.0322561,-0.004532254,-0.018945688381791115,0.008243708
879.966666666195,0.022090653,-0.5453393,-0.49182764,-2.1948082,0.01941046,2.1146522,1.0282402,0.03999992,0.04,-8.677511,3.427044630050659,3.0332232,-0.0051352284,-0.018544381484389305,0.008186697
879.9833333328617,0.022094382,-0.54530317,-0.4919027,-2.1947837,0.019413544,2.1147342,1.0282767,0.03999992,0.04,-8.67711,3.426741123199463,3.0340602,-0.0056932657,-0.01816522143781185,0.0081329895
879.9999999995283,0.022097867,-0.54526985,-0.49197176,-2.194761,0.01941639,2.1148088,1.0283108,0.039999917,0.04,-8.676963,3.4264400005340576,3.0349727,-0.0062077194,-0.01781993918120861,0.008084457
880.016666666195,0.022101123,-0.5452391,-0.49203533,-2.1947405,0.019419014,2.1148787,1.0283417,0.039999913,0.039999995,-8.676801,3.426136016845703,3.0358093,-0.0066831764,-0.017506306990981102,0.00804093
880.0333333328616,0.022104165,-0.545211,-0.49209386,-2.194721,0.019421421,2.1149442,1.0283701,0.039999913,0.04,-8.676645,3.425851821899414,3.0365446,-0.007118399,-0.017214344814419746,0.00799902
880.0499999995283,0.022107007,-0.5451852,-0.4921477,-2.194703,0.019423634,2.115003,1.0283967,0.039999917,0.04,-8.676323,3.4255900382995605,3.037183,-0.007519114,-0.016935810446739197,0.007958632
880.0666666661949,0.022109663,-0.54516137,-0.49219728,-2.194687,0.019425694,2.1150568,1.0284208,0.03999991,0.039999995,-8.676232,3.4253668785095215,3.0378833,-0.007889283,-0.016686908900737762,0.007923035
880.0833333328616,0.02211214,-0.54513943,-0.4922429,-2.1946728,0.019427588,2.1151073,1.0284432,0.039999906,0.03999999,-8.67615,3.4251649379730225,3.0385008,-0.008228179,-0.016461428254842758,0.007891336
880.0999999995282,0.022114461,-0.5451193,-0.4922849,-2.19466,0.019429298,2.1151516,1.0284637,0.039999913,0.04,-8.676099,3.4249649047851562,3.0390563,-0.008541137,-0.016252929344773293,0.007859539
880.1166666661949,0.022116626,-0.54510075,-0.4923236,-2.194647,0.0194309,2.1151943,1.0284827,0.039999913,0.04,-8.676044,3.424802780151367,3.039601,-0.008828398,-0.016070453450083733,0.007835888
880.1333333328615,0.022118643,-0.54508376,-0.4923592,-2.194635,0.019432375,2.115233,1.0285002,0.039999913,0.04,-8.675743,3.4246115684509277,3.0399394,-0.00909336,-0.01588965766131878,0.0078097642
880.1499999995282,0.022120526,-0.545068,-0.4923919,-2.194624,0.019433733,2.1152685,1.0285158,0.039999913,0.04,-8.675615,3.424450635910034,3.0403664,-0.009337152,-0.015724781900644302,0.007785804
880.1666666661948,0.022122283,-0.54505354,-0.49242213,-2.1946142,0.019434994,2.1153028,1.0285305,0.039999913,0.04,-8.6755705,3.424311399459839,3.0407732,-0.00955904,-0.015574436634778976,0.007764295
880.1833333328615,0.022123924,-0.5450402,-0.49244976,-2.1946049,0.019436162,2.1153316,1.0285444,0.03999991,0.04,-8.675482,3.4241819381713867,3.0411265,-0.009764987,-0.015430225990712643,0.007742981
880.1999999995281,0.02212545,-0.545028,-0.49247533,-2.1945968,0.019437203,2.1153593,1.0285566,0.039999913,0.04,-8.675444,3.4240498542785645,3.0415037,-0.00995564,-0.015308883972465992,0.007723896
880.2166666661948,0.02212687,-0.54501665,-0.4924989,-2.1945894,0.019438196,2.115386,1.0285678,0.039999913,0.04,-8.675394,3.423980712890625,3.0417907,-0.010128558,-0.015193413011729717,0.0077098426
880.2333333328614,0.0221282,-0.5450063,-0.4925206,-2.194583,0.019439116,2.1154099,1.0285785,0.039999913,0.04,-8.675313,3.4238698482513428,3.0420396,-0.010288013,-0.015082493424415588,0.0076935235
880.2499999995281,0.022129439,-0.54499674,-0.49254048,-2.1945775,0.019439962,2.1154306,1.0285889,0.039999913,0.04,-8.675305,3.4237895011901855,3.0423384,-0.010436606,-0.014985140413045883,0.007679558
880.2666666661947,0.022130594,-0.544988,-0.49255872,-2.1945722,0.019440746,2.1154504,1.0285976,0.039999913,0.04,-8.675341,3.423706531524658,3.0426173,-0.010575172,-0.014902946539223194,0.007668558
880.2833333328614,0.022131676,-0.5449799,-0.4925757,-2.194567,0.019441467,2.1154695,1.0286055,0.039999913,0.04,-8.675233,3.4236066341400146,3.0427918,-0.010698553,-0.014823230914771557,0.0076573044
880.299999999528,0.022132674,-0.54497236,-0.49259114,-2.1945617,0.019442124,2.1154885,1.0286129,0.03999991,0.04,-8.675105,3.423543930053711,3.0429323,-0.010812223,-0.01474438514560461,0.007644423
880.3166666661947,0.02213361,-0.5449655,-0.4926054,-2.194557,0.019442728,2.115502,1.0286198,0.039999906,0.04,-8.6749735,3.42343807220459,3.0430758,-0.010916567,-0.014663392677903175,0.007631797
880.3333333328613,0.02213448,-0.54495925,-0.49261862,-2.1945522,0.01944328,2.1155152,1.0286264,0.039999906,0.04,-8.675038,3.423412322998047,3.0433495,-0.01101325,-0.014606588520109653,0.007624323
880.349999999528,0.022135288,-0.5449534,-0.4926308,-2.1945474,0.019443767,2.1155276,1.0286331,0.03999991,0.04,-8.674933,3.4233577251434326,3.0434458,-0.011104153,-0.01454982627183199,0.0076151052
880.3666666661946,0.022136036,-0.54494816,-0.49264202,-2.1945431,0.01944425,2.1155396,1.0286384,0.039999902,0.039999995,-8.674857,3.423309087753296,3.0435548,-0.011190216,-0.014494635164737701,0.0076082675
880.3833333328613,0.022136737,-0.5449432,-0.49265236,-2.1945393,0.01944468,2.115551,1.0286429,0.039999902,0.039999995,-8.674811,3.4232537746429443,3.0436823,-0.011265259,-0.014441192150115967,0.007599874
880.399999999528,0.022137387,-0.5449387,-0.49266183,-2.1945357,0.01944508,2.1155624,1.0286471,0.039999902,0.039999995,-8.229506,3.1162192821502686,3.0502255,0.0,-0.0,0.0
880.4166666661946,0.022137387,-0.5449387,-0.49266183,-2.1945357,0.01944508,2.1155624,1.0286471,0.039999902,0.039999995,-8.674949,3.422039031982422,3.0448344,0.0,-0.0,0.0
880.4333333328613,0.022137387,-0.5449387,-0.49266183,-2.1945357,0.01944508,2.1155624,1.0286471,0.039999902,0.039999995,-8.674949,3.422039031982422,3.0448344,0.0,-0.0,0.0
880.4499999995279,0.022137387,-0.5449387,-0.49266183,-2.1945357,0.01944508,2.1155624,1.0286471,0.039999902,0.039999995,-8.674949,3.422039031982422,3.0448344,0.0,-0.0,0.0
880.4666666661946,0.022137387,-0.5449387,-0.49266183,-2.1945357,0.01944508,2.1155624,1.0286471,0.039999902,0.039999995,-8.674949,3.422039031982422,3.0448344,0.0,-0.0,0.0
880.4833333328612,0.022137387,-0.5449387,-0.49266183,-2.1945357,0.01944508,2.1155624,1.0286471,0.039999902,0.039999995,-8.674949,3.422039031982422,3.0448344,0.0,-0.0,0.0
880.4999999995279,0.022137387,-0.5449387,-0.49266183,-2.1945357,0.01944508,2.1155624,1.0286471,0.039999902,0.039999995,-8.674949,3.422039031982422,3.0448344,0.0,-0.0,0.0
880.5166666661945,0.022137387,-0.5449387,-0.49266183,-2.1945357,0.01944508,2.1155624,1.0286471,0.039999902,0.039999995,-8.674949,3.422039031982422,3.0448344,0.0,-0.0,0.0
880.5333333328612,0.022137387,-0.5449387,-0.49266183,-2.1945357,0.01944508,2.1155624,1.0286471,0.039999902,0.039999995,-8.674949,3.422039031982422,3.0448344,0.0,-0.0,0.0
880.5499999995278,0.022137387,-0.5449387,-0.49266183,-2.1945357,0.01944508,2.1155624,1.0286471,0.039999902,0.039999995,-8.674949,3.422039031982422,3.0448344,0.0,-0.0,0.0
880.5666666661945,0.022137387,-0.5449387,-0.49266183,-2.1945357,0.01944508,2.1155624,1.0286471,0.039999902,0.039999995,-8.674949,3.422039031982422,3.0448344,0.0,-0.0,0.0
880.5833333328611,0.022137387,-0.5449387,-0.49266183,-2.1945357,0.01944508,2.1155624,1.0286471,0.039999902,0.039999995,-8.674949,3.422039031982422,3.0448344,0.0,-0.0,0.0
880.5999999995278,0.022137387,-0.5449387,-0.49266183,-2.1945357,0.01944508,2.1155624,1.0286471,0.039999902,0.039999995,-8.674949,3.422039031982422,3.0448344,0.0,-0.0,0.0
880.6166666661944,0.022137387,-0.5449387,-0.49266183,-2.1945357,0.01944508,2.1155624,1.0286471,0.039999902,0.039999995,-8.674949,3.422039031982422,3.0448344,0.0,-0.0,0.0
880.6333333328611,0.022137387,-0.5449387,-0.49266183,-2.1945357,0.01944508,2.1155624,1.0286471,0.039999902,0.039999995,-8.674949,3.422039031982422,3.0448344,0.0,-0.0,0.0
880.6499999995277,0.022137387,-0.5449387,-0.49266183,-2.1945357,0.01944508,2.1155624,1.0286471,0.039999902,0.039999995,-8.674949,3.422039031982422,3.0448344,0.0,-0.0,0.0
880.6666666661944,0.022137387,-0.5449387,-0.49266183,-2.1945357,0.01944508,2.1155624,1.0286471,0.039999902,0.039999995,-8.674949,3.422039031982422,3.0448344,0.0,-0.0,0.0
880.683333332861,0.022137387,-0.5449387,-0.49266183,-2.1945357,0.01944508,2.1155624,1.0286471,0.039999902,0.039999995,-8.674949,3.422039031982422,3.0448344,0.0,-0.0,0.0
880.6999999995277,0.022137387,-0.5449387,-0.49266183,-2.1945357,0.01944508,2.1155624,1.0286471,0.039999902,0.039999995,-8.674949,3.422039031982422,3.0448344,0.0,-0.0,0.0
880.7166666661943,0.022137387,-0.5449387,-0.49266183,-2.1945357,0.01944508,2.1155624,1.0286471,0.039999902,0.039999995,-8.674949,3.422039031982422,3.0448344,0.0,-0.0,0.0
880.733333332861,0.022137387,-0.5449387,-0.49266183,-2.1945357,0.01944508,2.1155624,1.0286471,0.039999902,0.039999995,-8.674949,3.422039031982422,3.0448344,0.0,-0.0,0.0
880.7499999995276,0.022137387,-0.5449387,-0.49266183,-2.1945357,0.01944508,2.1155624,1.0286471,0.039999902,0.039999995,-8.674949,3.422039031982422,3.0448344,0.0,-0.0,0.0
880.7666666661943,0.022137387,-0.5449387,-0.49266183,-2.1945357,0.01944508,2.1155624,1.0286471,0.039999902,0.039999995,-8.674949,3.422039031982422,3.0448344,0.0,-0.0,0.0
880.7833333328609,0.022137387,-0.5449387,-0.49266183,-2.1945357,0.01944508,2.1155624,1.0286471,0.039999902,0.039999995,-8.674949,3.422039031982422,3.0448344,0.0,-0.0,0.0
880.7999999995276,0.022137387,-0.5449387,-0.49266183,-2.1945357,0.01944508,2.1155624,1.0286471,0.039999902,0.039999995,-8.674949,3.422039031982422,3.0448344,0.0,-0.0,0.0
880.8166666661942,0.022137387,-0.5449387,-0.49266183,-2.1945357,0.01944508,2.1155624,1.0286471,0.039999902,0.039999995,-8.674949,3.422039031982422,3.0448344,0.0,-0.0,0.0
880.8333333328609,0.022137387,-0.5449387,-0.49266183,-2.1945357,0.01944508,2.1155624,1.0286471,0.039999902,0.039999995,-8.674949,3.422039031982422,3.0448344,0.0,-0.0,0.0
880.8499999995275,0.022137387,-0.5449387,-0.49266183,-2.1945357,0.01944508,2.1155624,1.0286471,0.039999902,0.039999995,-8.674949,3.422039031982422,3.0448344,0.0,-0.0,0.0
880.8666666661942,0.022137387,-0.5449387,-0.49266183,-2.1945357,0.01944508,2.1155624,1.0286471,0.039999902,0.039999995,-8.674949,3.422039031982422,3.0448344,0.0,-0.0,0.0
880.8833333328608,0.022137387,-0.5449387,-0.49266183,-2.1945357,0.01944508,2.1155624,1.0286471,0.039999902,0.039999995,-8.674949,3.422039031982422,3.0448344,0.0,-0.0,0.0
880.8999999995275,0.022137387,-0.5449387,-0.49266183,-2.1945357,0.01944508,2.1155624,1.0286471,0.039999902,0.039999995,-8.674949,3.422039031982422,3.0448344,0.0,-0.0,0.0
880.9166666661941,0.022137387,-0.5449387,-0.49266183,-2.1945357,0.01944508,2.1155624,1.0286471,0.039999902,0.039999995,-8.674949,3.422039031982422,3.0448344,0.0,-0.0,0.0
880.9333333328608,0.022137387,-0.5449387,-0.49266183,-2.1945357,0.01944508,2.1155624,1.0286471,0.039999902,0.039999995,-8.674949,3.422039031982422,3.0448344,0.0,-0.0,0.0
880.9499999995274,0.022137387,-0.5449387,-0.49266183,-2.1945357,0.01944508,2.1155624,1.0286471,0.039999902,0.039999995,-8.674949,3.422039031982422,3.0448344,0.0,-0.0,0.0
880.9666666661941,0.022137387,-0.5449387,-0.49266183,-2.1945357,0.01944508,2.1155624,1.0286471,0.039999902,0.039999995,-8.674949,3.422039031982422,3.0448344,0.0,-0.0,0.0
880.9833333328608,0.022137387,-0.5449387,-0.49266183,-2.1945357,0.01944508,2.1155624,1.0286471,0.039999902,0.039999995,-8.674949,3.422039031982422,3.0448344,0.0,-0.0,0.0
880.9999999995274,0.022137387,-0.5449387,-0.49266183,-2.1945357,0.01944508,2.1155624,1.0286471,0.039999902,0.039999995,-8.674949,3.422039031982422,3.0448344,0.0,-0.0,0.0
881.016666666194,0.022137387,-0.5449387,-0.49266183,-2.1945357,0.01944508,2.1155624,1.0286471,0.039999902,0.039999995,-8.674949,3.422039031982422,3.0448344,0.0,-0.0,0.0
881.0333333328607,0.022137387,-0.5449387,-0.49266183,-2.1945357,0.01944508,2.1155624,1.0286471,0.039999902,0.039999995,-8.674949,3.422039031982422,3.0448344,0.0,-0.0,0.0
881.0499999995274,0.022137387,-0.5449387,-0.49266183,-2.1945357,0.01944508,2.1155624,1.0286471,0.039999902,0.039999995,-8.674949,3.422039031982422,3.0448344,0.0,-0.0,0.0
881.066666666194,0.022137387,-0.5449387,-0.49266183,-2.1945357,0.01944508,2.1155624,1.0286471,0.039999902,0.039999995,-8.674949,3.422039031982422,3.0448344,0.0,-0.0,0.0
881.0833333328607,0.022137387,-0.5449387,-0.49266183,-2.1945357,0.01944508,2.1155624,1.0286471,0.039999902,0.039999995,-8.674949,3.422039031982422,3.0448344,0.0,-0.0,0.0
881.0999999995273,0.022137387,-0.5449387,-0.49266183,-2.1945357,0.01944508,2.1155624,1.0286471,0.039999902,0.039999995,-8.674949,3.422039031982422,3.0448344,0.0,-0.0,0.0
881.116666666194,0.022137387,-0.5449387,-0.49266183,-2.1945357,0.01944508,2.1155624,1.0286471,0.039999902,0.039999995,-8.674949,3.422039031982422,3.0448344,0.0,-0.0,0.0
881.1333333328606,0.022137387,-0.5449387,-0.49266183,-2.1945357,0.01944508,2.1155624,1.0286471,0.039999902,0.039999995,-8.674949,3.422039031982422,3.0448344,0.0,-0.0,0.0
881.1499999995273,0.022137387,-0.5449387,-0.49266183,-2.1945357,0.01944508,2.1155624,1.0286471,0.039999902,0.039999995,-8.674949,3.422039031982422,3.0448344,0.0,-0.0,0.0
881.1666666661939,0.022137387,-0.5449387,-0.49266183,-2.1945357,0.01944508,2.1155624,1.0286471,0.039999902,0.039999995,-8.674949,3.422039031982422,3.0448344,0.0,-0.0,0.0
881.1833333328606,0.022137387,-0.5449387,-0.49266183,-2.1945357,0.01944508,2.1155624,1.0286471,0.039999902,0.039999995,-8.674949,3.422039031982422,3.0448344,0.0,-0.0,0.0
881.1999999995272,0.022137387,-0.5449387,-0.49266183,-2.1945357,0.01944508,2.1155624,1.0286471,0.039999902,0.039999995,-8.674949,3.422039031982422,3.0448344,0.0,-0.0,0.0
881.2166666661939,0.022137387,-0.5449387,-0.49266183,-2.1945357,0.01944508,2.1155624,1.0286471,0.039999902,0.039999995,-8.674949,3.422039031982422,3.0448344,0.0,-0.0,0.0
881.2333333328605,0.022137387,-0.5449387,-0.49266183,-2.1945357,0.01944508,2.1155624,1.0286471,0.039999902,0.039999995,-8.674949,3.422039031982422,3.0448344,0.0,-0.0,0.0
881.2499999995272,0.022137387,-0.5449387,-0.49266183,-2.1945357,0.01944508,2.1155624,1.0286471,0.039999902,0.039999995,-8.674949,3.422039031982422,3.0448344,0.0,-0.0,0.0
881.2666666661938,0.022137387,-0.5449387,-0.49266183,-2.1945357,0.01944508,2.1155624,1.0286471,0.039999902,0.039999995,-8.674949,3.422039031982422,3.0448344,0.0,-0.0,0.0
881.2833333328605,0.022137387,-0.5449387,-0.49266183,-2.1945357,0.01944508,2.1155624,1.0286471,0.039999902,0.039999995,-8.674949,3.422039031982422,3.0448344,0.0,-0.0,0.0
881.2999999995271,0.022137387,-0.5449387,-0.49266183,-2.1945357,0.01944508,2.1155624,1.0286471,0.039999902,0.039999995,-8.674949,3.422039031982422,3.0448344,0.0,-0.0,0.0
881.3166666661938,0.022137387,-0.5449387,-0.49266183,-2.1945357,0.01944508,2.1155624,1.0286471,0.039999902,0.039999995,-8.674949,3.422039031982422,3.0448344,0.0,-0.0,0.0
881.3333333328604,0.022137387,-0.5449387,-0.49266183,-2.1945357,0.01944508,2.1155624,1.0286471,0.039999902,0.039999995,-8.674949,3.422039031982422,3.0448344,0.0,-0.0,0.0
881.3499999995271,0.022137387,-0.5449387,-0.49266183,-2.1945357,0.01944508,2.1155624,1.0286471,0.039999902,0.039999995,-8.674949,3.422039031982422,3.0448344,0.0,-0.0,0.0
881.3666666661937,0.022137387,-0.5449387,-0.49266183,-2.1945357,0.01944508,2.1155624,1.0286471,0.039999902,0.039999995,-8.674949,3.422039031982422,3.0448344,0.0,-0.0,0.0
881.3833333328604,0.022137387,-0.5449387,-0.49266183,-2.1945357,0.01944508,2.1155624,1.0286471,0.039999902,0.039999995,-8.674949,3.422039031982422,3.0448344,0.0,-0.0,0.0
881.399999999527,0.022137387,-0.5449387,-0.49266183,-2.1945357,0.01944508,2.1155624,1.0286471,0.039999902,0.039999995,-8.674949,3.422039031982422,3.0448344,0.0,-0.0,0.0
881.4166666661937,0.022137387,-0.5449387,-0.49266183,-2.1945357,0.01944508,2.1155624,1.0286471,0.039999902,0.039999995,-8.674949,3.422039031982422,3.0448344,0.0,-0.0,0.0
881.4333333328603,0.022137387,-0.5449387,-0.49266183,-2.1945357,0.01944508,2.1155624,1.0286471,0.039999902,0.039999995,-8.674949,3.422039031982422,3.0448344,0.0,-0.0,0.0
881.449999999527,0.022137387,-0.5449387,-0.49266183,-2.1945357,0.01944508,2.1155624,1.0286471,0.039999902,0.039999995,-8.674949,3.422039031982422,3.0448344,0.0,-0.0,0.0
881.4666666661936,0.022137387,-0.5449387,-0.49266183,-2.1945357,0.01944508,2.1155624,1.0286471,0.039999902,0.039999995,-8.674949,3.422039031982422,3.0448344,0.0,-0.0,0.0
881.4833333328603,0.022137387,-0.5449387,-0.49266183,-2.1945357,0.01944508,2.1155624,1.0286471,0.039999902,0.039999995,-8.674949,3.422039031982422,3.0448344,0.0,-0.0,0.0
881.499999999527,0.022137387,-0.5449387,-0.49266183,-2.1945357,0.01944508,2.1155624,1.0286471,0.039999902,0.039999995,-8.674949,3.422039031982422,3.0448344,0.0,-0.0,0.0
881.5166666661936,0.022137387,-0.5449387,-0.49266183,-2.1945357,0.01944508,2.1155624,1.0286471,0.039999902,0.039999995,-8.674949,3.422039031982422,3.0448344,0.0,-0.0,0.0
881.5333333328603,0.022137387,-0.5449387,-0.49266183,-2.1945357,0.01944508,2.1155624,1.0286471,0.039999902,0.039999995,-8.674949,3.422039031982422,3.0448344,0.0,-0.0,0.0
881.5499999995269,0.022137387,-0.5449387,-0.49266183,-2.1945357,0.01944508,2.1155624,1.0286471,0.039999902,0.039999995,-8.674949,3.422039031982422,3.0448344,0.0,-0.0,0.0
881.5666666661936,0.022137387,-0.5449387,-0.49266183,-2.1945357,0.01944508,2.1155624,1.0286471,0.039999902,0.039999995,-8.674949,3.422039031982422,3.0448344,0.0,-0.0,0.0
881.5833333328602,0.022137387,-0.5449387,-0.49266183,-2.1945357,0.01944508,2.1155624,1.0286471,0.039999902,0.039999995,-8.674949,3.422039031982422,3.0448344,0.0,-0.0,0.0
881.5999999995269,0.022137387,-0.5449387,-0.49266183,-2.1945357,0.01944508,2.1155624,1.0286471,0.039999902,0.039999995,-8.674949,3.422039031982422,3.0448344,0.0,-0.0,0.0
881.6166666661935,0.022137387,-0.5449387,-0.49266183,-2.1945357,0.01944508,2.1155624,1.0286471,0.039999902,0.039999995,-8.674949,3.422039031982422,3.0448344,0.0,-0.0,0.0
881.6333333328602,0.022137387,-0.5449387,-0.49266183,-2.1945357,0.01944508,2.1155624,1.0286471,0.039999902,0.039999995,-8.674949,3.422039031982422,3.0448344,0.0,-0.0,0.0
881.6499999995268,0.022137387,-0.5449387,-0.49266183,-2.1945357,0.01944508,2.1155624,1.0286471,0.039999902,0.039999995,-8.674949,3.422039031982422,3.0448344,0.0,-0.0,0.0
881.6666666661935,0.022137387,-0.5449387,-0.49266183,-2.1945357,0.01944508,2.1155624,1.0286471,0.039999902,0.039999995,-8.674949,3.422039031982422,3.0448344,0.0,-0.0,0.0
881.6833333328601,0.022137387,-0.5449387,-0.49266183,-2.1945357,0.01944508,2.1155624,1.0286471,0.039999902,0.039999995,-8.674949,3.422039031982422,3.0448344,0.0,-0.0,0.0
881.6999999995268,0.022137387,-0.5449387,-0.49266183,-2.1945357,0.01944508,2.1155624,1.0286471,0.039999902,0.039999995,-8.674949,3.422039031982422,3.0448344,0.0,-0.0,0.0
881.7166666661934,0.022137387,-0.5449387,-0.49266183,-2.1945357,0.01944508,2.1155624,1.0286471,0.039999902,0.039999995,-8.674949,3.422039031982422,3.0448344,0.0,-0.0,0.0
881.7333333328601,0.022137387,-0.5449387,-0.49266183,-2.1945357,0.01944508,2.1155624,1.0286471,0.039999902,0.039999995,-8.674949,3.422039031982422,3.0448344,0.0,-0.0,0.0
881.7499999995267,0.022137387,-0.5449387,-0.49266183,-2.1945357,0.01944508,2.1155624,1.0286471,0.039999902,0.039999995,-8.674949,3.422039031982422,3.0448344,0.0,-0.0,0.0
881.7666666661934,0.022137387,-0.5449387,-0.49266183,-2.1945357,0.01944508,2.1155624,1.0286471,0.039999902,0.039999995,-8.674949,3.422039031982422,3.0448344,0.0,-0.0,0.0
881.78333333286,0.022137387,-0.5449387,-0.49266183,-2.1945357,0.01944508,2.1155624,1.0286471,0.039999902,0.039999995,-8.674949,3.422039031982422,3.0448344,0.0,-0.0,0.0
881.7999999995267,0.022137387,-0.5449387,-0.49266183,-2.1945357,0.01944508,2.1155624,1.0286471,0.039999902,0.039999995,-8.674949,3.422039031982422,3.0448344,0.0,-0.0,0.0
881.8166666661933,0.022137387,-0.5449387,-0.49266183,-2.1945357,0.01944508,2.1155624,1.0286471,0.039999902,0.039999995,-8.674949,3.422039031982422,3.0448344,0.0,-0.0,0.0
881.83333333286,0.022137387,-0.5449387,-0.49266183,-2.1945357,0.01944508,2.1155624,1.0286471,0.039999902,0.039999995,-8.674949,3.422039031982422,3.0448344,0.0,-0.0,0.0
881.8499999995266,0.022137387,-0.5449387,-0.49266183,-2.1945357,0.01944508,2.1155624,1.0286471,0.039999902,0.039999995,-8.674949,3.422039031982422,3.0448344,0.0,-0.0,0.0
881.8666666661933,0.022137387,-0.5449387,-0.49266183,-2.1945357,0.01944508,2.1155624,1.0286471,0.039999902,0.039999995,-8.674949,3.422039031982422,3.0448344,0.0,-0.0,0.0
881.8833333328599,0.022137387,-0.5449387,-0.49266183,-2.1945357,0.01944508,2.1155624,1.0286471,0.039999902,0.039999995,-8.674949,3.422039031982422,3.0448344,0.0,-0.0,0.0
881.8999999995266,0.022137387,-0.5449387,-0.49266183,-2.1945357,0.01944508,2.1155624,1.0286471,0.039999902,0.039999995,-8.674949,3.422039031982422,3.0448344,0.0,-0.0,0.0
881.9166666661932,0.022137387,-0.5449387,-0.49266183,-2.1945357,0.01944508,2.1155624,1.0286471,0.039999902,0.039999995,-8.674949,3.422039031982422,3.0448344,0.0,-0.0,0.0
881.9333333328599,0.022137387,-0.5449387,-0.49266183,-2.1945357,0.01944508,2.1155624,1.0286471,0.039999902,0.039999995,-8.674949,3.422039031982422,3.0448344,0.0,-0.0,0.0
881.9499999995265,0.022137387,-0.5449387,-0.49266183,-2.1945357,0.01944508,2.1155624,1.0286471,0.039999902,0.039999995,-8.674949,3.422039031982422,3.0448344,0.0,-0.0,0.0
881.9666666661932,0.022137387,-0.5449387,-0.49266183,-2.1945357,0.01944508,2.1155624,1.0286471,0.039999902,0.039999995,-8.674949,3.422039031982422,3.0448344,0.0,-0.0,0.0
881.9833333328598,0.022137387,-0.5449387,-0.49266183,-2.1945357,0.01944508,2.1155624,1.0286471,0.039999902,0.039999995,-8.674949,3.422039031982422,3.0448344,0.0,-0.0,0.0
881.9999999995265,0.022137387,-0.5449387,-0.49266183,-2.1945357,0.01944508,2.1155624,1.0286471,0.039999902,0.039999995,-8.674949,3.422039031982422,3.0448344,0.0,-0.0,0.0
