rsonawane2002/My_IMU/logs_2/traj_447/imu_400hz_447.csv
time,j1,j2,j3,j4,j5,j6,j7,gripper1,gripper2,imu_ax,imu_ay,imu_az,imu_gx,imu_gy,imu_gz
0.0,0.00016700293,-0.785875,4.0107683e-05,-2.3551247,9.29385e-05,1.570997,0.786,0.04,0.04,-9.500689,0.0298703219741582,0.11731794,-2.1514934e-07,-0.0011641274904832,3.8793542e-07
0.0025,0.0001670030065,-0.7858577739999998,4.0109883800000034e-05,-2.3551391900000005,9.29448114000001e-05,1.570996565,0.786,0.04,0.04,-9.550760950000729,0.025486327614571355,0.1010796518997637,-1.8803700649960547e-07,-0.0013253154524159557,4.877924570014531e-07
0.005,0.000167003083,-0.7858405479999995,4.0112084600000065e-05,-2.355153680000001,9.295112280000019e-05,1.57099613,0.786,0.04,0.04,-9.600832900001457,0.021102333254984507,0.08484136379952739,-1.6092467299921093e-07,-0.0014865034143487113,5.876494940029062e-07
0.0075,0.0001670031595,-0.7858233219999993,4.01142854000001e-05,-2.3551681700000007,9.295743420000028e-05,1.570995695,0.786,0.04,0.04,-9.650904850002187,0.016718338895397665,0.06860307569929111,-1.338123394988164e-07,-0.0016476913762814667,6.875065310043593e-07
0.01,0.000167003236,-0.7858060959999991,4.011648620000013e-05,-2.355182660000001,9.296374560000037e-05,1.57099526,0.786,0.04,0.04,-9.700976800002914,0.012334344535810816,0.0523647875990548,-1.0670000599842186e-07,-0.0018088793382142225,7.873635680058124e-07
0.0125,0.00016700331249999998,-0.7857888699999988,4.011868700000016e-05,-2.3551971500000013,9.297005700000046e-05,1.570994825,0.786,0.04,0.04,-9.751048750003644,0.007950350176223971,0.03612649949881851,-7.958767249802733e-08,-0.001970067300146978,8.872206050072656e-07
0.015,0.000167003389,-0.7857716439999985,4.012088780000019e-05,-2.3552116400000016,9.297636840000055e-05,1.57099439,0.786,0.04,0.04,-9.801120700004372,0.003566355816637126,0.019888211398582212,-5.247533899763279e-08,-0.0021312552620797332,9.870776420087188e-07
0.0175,0.00016700270449999978,-0.7857548644999985,4.012573825000094e-05,-2.355225735000001,9.298479320000117e-05,1.57099396,0.786,0.04,0.04,-9.83439119999997,0.0006470921711306811,0.008994285129980965,-1.7215474909052221e-09,-0.0022884515230682124,1.0966584650119699e-06
0.02,0.00016700049799999982,-0.7857389779999988,4.013588800000081e-05,-2.355239040000001,9.299744480000101e-05,1.57099354,0.786,0.04,0.04,-9.834058799999974,0.0006572899525061561,0.008789082519983577,9.631516000784643e-08,-0.0024376643821716225,1.2256868600103268e-06
0.0225,0.00016699829149999985,-0.785723091499999,4.014603775000068e-05,-2.355252345000001,9.301009640000085e-05,1.57099312,0.786,0.04,0.04,-9.833726399999978,0.0006674877338816313,0.00858387990998619,1.9435186750659808e-07,-0.0025868772412750325,1.3547152550086839e-06
0.025,0.0001669960849999999,-0.7857072049999991,4.015618750000055e-05,-2.3552656500000007,9.302274800000069e-05,1.5709927,0.786,0.04,0.04,-9.833393999999982,0.0006776855152571064,0.008378677299988802,2.9238857500534987e-07,-0.0027360901003784426,1.483743650007041e-06
0.0275,0.0001669938784999999,-0.7856913184999994,4.016633725000042e-05,-2.3552789550000006,9.303539960000053e-05,1.57099228,0.786,0.04,0.04,-9.833061599999986,0.0006878832966325816,0.008173474689991415,3.904252825041015e-07,-0.0028853029594818527,1.6127720450053979e-06
0.03,0.00016699167199999993,-0.7856754319999996,4.017648700000029e-05,-2.35529226,9.304805120000037e-05,1.57099186,0.786,0.04,0.04,-9.83272919999999,0.0006980810780080567,0.007968272079994027,4.884619900028532e-07,-0.0030345158185852627,1.741800440003755e-06
0.0325,0.00016698946549999997,-0.7856595454999997,4.0186636750000164e-05,-2.355305565,9.306070280000021e-05,1.57099144,0.786,0.04,0.04,-9.832396799999994,0.0007082788593835319,0.007763069469996641,5.86498697501605e-07,-0.003183728677688673,1.8708288350021121e-06
0.035,0.00016698342699999997,-0.7856445099999999,4.0210901400000116e-05,-2.3553181,9.308500800000011e-05,1.57099101,0.786,0.04,0.04,-9.8321461,0.0007245576533023403,0.007554319539999234,7.955821400009629e-07,-0.0033258401323114145,2.0654720700008276e-06
0.0375,0.00016697547250000007,-0.7856299000000001,4.0242223499999715e-05,-2.3553302499999997,9.311513999999973e-05,1.570990575,0.786,0.04,0.04,-9.831936250000002,0.0007438769534926493,0.007343795950001915,1.0601889499975931e-06,-0.003464400884694015,2.292922724997931e-06
0.04,0.00016696751800000017,-0.7856152900000003,4.027354559999932e-05,-2.3553423999999996,9.314527199999934e-05,1.57099014,0.786,0.04,0.04,-9.831726400000004,0.0007631962536829583,0.007133272360004595,1.3247957599942244e-06,-0.003602961637076616,2.520373379995035e-06
0.0425,0.00016695956350000027,-0.7856006800000005,4.030486769999892e-05,-2.3553545499999995,9.317540399999896e-05,1.5709897050000001,0.786,0.04,0.04,-9.831516550000007,0.0007825155538732672,0.006922748770007275,1.5894025699908552e-06,-0.0037415223894592168,2.7478240349921393e-06
0.045,0.00016695160900000037,-0.7855860700000007,4.033618979999852e-05,-2.3553666999999994,9.320553599999858e-05,1.57098927,0.786,0.04,0.04,-9.83130670000001,0.0008018348540635762,0.006712225180009956,1.8540093799874856e-06,-0.0038800831418418173,2.975274689989243e-06
0.0475,0.00016694365450000047,-0.7855714600000009,4.036751189999812e-05,-2.3553788499999992,9.323566799999818e-05,1.570988835,0.786,0.04,0.04,-9.831096850000012,0.0008211541542538853,0.006501701590012636,2.1186161899841164e-06,-0.004018643894224418,3.202725344986347e-06
0.05,0.00016693570000000056,-0.7855568500000011,4.0398833999997726e-05,-2.355390999999999,9.32657999999978e-05,1.5709884,0.786,0.04,0.04,-9.830887000000017,0.0008404734544441943,0.006291178000015317,2.3832229999807477e-06,-0.004157204646607019,3.430175999983451e-06
0.0525,0.00016691725750000156,-0.7855433875000011,4.047030539999389e-05,-2.355402129999999,9.332968799999454e-05,1.5709879800000002,0.786,0.04,0.04,-9.830651800000021,0.0008690048940455257,0.006120583150014585,2.942940424952148e-06,-0.004286562628101611,3.799890389968392e-06
0.055,0.0001668988150000018,-0.7855299250000013,4.054177679999298e-05,-2.355413259999999,9.339357599999372e-05,1.57098756,0.786,0.04,0.04,-9.830416600000024,0.0008975363336475275,0.005949988300016757,3.5026578499450213e-06,-0.004415920609595534,4.169604779963685e-06
0.0575,0.00016688037250000204,-0.7855164625000015,4.061324819999207e-05,-2.3554243899999987,9.345746399999291e-05,1.5709871400000002,0.786,0.04,0.04,-9.830181400000026,0.0009260677732495292,0.005779393450018929,4.062375274937895e-06,-0.004545278591089457,4.539319169958978e-06
0.06,0.00016686193000000227,-0.7855030000000016,4.068471959999116e-05,-2.3554355199999986,9.35213519999921e-05,1.57098672,0.786,0.04,0.04,-9.829946200000029,0.0009545992128515309,0.005608798600021101,4.622092699930767e-06,-0.004674636572583379,4.909033559954269e-06
0.0625,0.0001668434875000025,-0.7854895375000018,4.075619099999025e-05,-2.3554466499999984,9.358523999999128e-05,1.5709863000000002,0.786,0.04,0.04,-9.829711000000032,0.0009831306524535326,0.0054382037500232735,5.181810124923641e-06,-0.004803994554077302,5.278747949949562e-06
0.065,0.00016682504500000275,-0.7854760750000019,4.082766239998934e-05,-2.3554577799999983,9.364912799999047e-05,1.57098588,0.786,0.04,0.04,-9.829475800000035,0.0010116620920555344,0.005267608900025445,5.741527549916515e-06,-0.004933352535571225,5.648462339944855e-06
0.0675,0.00016680113850000563,-0.785462970000002,4.092056999997802e-05,-2.355468539999998,9.373153649998067e-05,1.57098562,0.786,0.04,0.03999999975,-9.829250450000034,0.0010425625194271405,0.00510262876502489,6.434491224844675e-06,-0.005060119461248497,6.117042919892132e-06
0.07,0.00016676630400000607,-0.7854505800000021,4.105634999997629e-05,-2.355478559999998,9.385098599997915e-05,1.57098568,0.786,0.04,0.039999999,-9.829044800000036,0.0010782009223413167,0.004948878060026848,7.393947399832459e-06,-0.005181704275288789,6.783355879883648e-06
0.0725,0.00016673146950000654,-0.7854381900000024,4.119212999997456e-05,-2.355488579999998,9.397043549997762e-05,1.57098574,0.786,0.04,0.03999999825,-9.828839150000038,0.0011138393252554928,0.004795127355028806,8.353403574820238e-06,-0.00530328908932908,7.449668839875161e-06
0.075,0.00016669663500000698,-0.7854258000000025,4.132790999997283e-05,-2.355498599999998,9.40898849999761e-05,1.5709857999999999,0.786,0.04,0.0399999975,-9.828633500000041,0.0011494777281696692,0.0046413766500307645,9.312859749808022e-06,-0.005424873903369372,8.115981799866678e-06
0.0775,0.00016666180050000742,-0.7854134100000026,4.14636899999711e-05,-2.355508619999998,9.420933449997457e-05,1.57098586,0.786,0.04,0.03999999675,-9.828427850000043,0.0011851161310838453,0.004487625945032722,1.0272315924795807e-05,-0.0055464587174096636,8.782294759858194e-06
0.08,0.00016662696600000786,-0.7854010200000028,4.159946999996937e-05,-2.355518639999998,9.432878399997305e-05,1.57098592,0.786,0.04,0.039999996,-9.828222200000045,0.0012207545339980217,0.004333875240034679,1.1231772099783591e-05,-0.005668043531449956,9.44860771984971e-06
0.0825,0.0001665921315000083,-0.785388630000003,4.173524999996765e-05,-2.355528659999998,9.444823349997153e-05,1.57098598,0.786,0.04,0.03999999525,-9.828016550000049,0.0012563929369121978,0.004180124535036637,1.2191228274771375e-05,-0.005789628345490248,1.0114920679841225e-05
0.085,0.0001665417210000146,-0.7853768740000029,4.1933098799942545e-05,-2.355538139999998,9.461981099995039e-05,1.57098609,0.78600019,0.04,0.039999995,-9.827780400000062,0.0012946537462894567,0.004040901060033124,1.3523582799618753e-05,-0.005904937116400973,1.0846009499808354e-05
0.08750000000000001,0.00016648352250001535,-0.785365435000003,4.216198199993963e-05,-2.355547349999998,9.481745249994787e-05,1.570986225,0.7860004749999999,0.04,0.039999995,-9.827529000000066,0.001334225758899688,0.003908941200034805,1.5042386499599414e-05,-0.00601710786574349,1.1609486249798633e-05
0.09,0.0001664253240000161,-0.7853539960000032,4.239086519993671e-05,-2.3555565599999975,9.501509399994536e-05,1.57098636,0.78600076,0.04,0.039999995,-9.82727760000007,0.0013737977715099188,0.003776981340036485,1.656119019958007e-05,-0.006129278615086006,1.2372962999788908e-05
0.0925,0.00016636712550001685,-0.7853425570000033,4.26197483999338e-05,-2.3555657699999974,9.521273549994283e-05,1.570986495,0.7860010449999999,0.04,0.039999995,-9.827026200000072,0.0014133697841201501,0.0036450214800381655,1.807999389956073e-05,-0.0062414493644285226,1.3136439749779188e-05
0.095,0.00016630892700001757,-0.7853311180000034,4.2848631599930885e-05,-2.3555749799999974,9.541037699994032e-05,1.57098663,0.7860013299999999,0.04,0.039999995,-9.826774800000075,0.0014529417967303812,0.0035130616200398455,1.9598797599541394e-05,-0.006353620113771039,1.3899916499769467e-05
0.0975,0.00016625072850001831,-0.7853196790000035,4.307751479992797e-05,-2.355584189999997,9.560801849993781e-05,1.570986765,0.786001615,0.04,0.039999995,-9.82652340000008,0.0014925138093406123,0.0033811017600415254,2.1117601299522057e-05,-0.006465790863113556,1.4663393249759747e-05
0.1,0.00016619253000001906,-0.7853082400000038,4.330639799992506e-05,-2.355593399999997,9.580565999993529e-05,1.5709869,0.7860018999999999,0.04,0.039999995,-9.826272000000081,0.0015320858219508436,0.003249141900043206,2.2636404999502716e-05,-0.006577961612456073,1.5426869999750028e-05
0.10250000000000001,0.00016610308200003043,-0.7852976890000036,4.366135229987926e-05,-2.355602054999997,9.610925549989674e-05,1.570987035,0.786002185,0.04,0.039999995,-9.826166100000036,0.001582175551430937,0.0031229959950429083,2.3530434549695896e-05,-0.006685381289534981,1.6445378399653556e-05
0.105,0.00016601363400003158,-0.7852871380000037,4.401630659987474e-05,-2.355610709999997,9.641285099989287e-05,1.57098717,0.7860024699999999,0.04,0.039999995,-9.826060200000038,0.0016322652809144741,0.002996850090044515,2.442446409968451e-05,-0.006792800966612333,1.7463886799640582e-05
0.1075,0.00016592418600003272,-0.7852765870000039,4.437126089987022e-05,-2.355619364999997,9.6716446499889e-05,1.570987305,0.7860027549999999,0.04,0.039999995,-9.825954300000038,0.0016823550103980114,0.002870704185046121,2.5318493649673124e-05,-0.006900220643689685,1.8482395199627614e-05
0.11,0.00016583473800003384,-0.785266036000004,4.47262151998657e-05,-2.355628019999997,9.702004199988514e-05,1.57098744,0.7860030399999999,0.04,0.039999995,-9.82584840000004,0.0017324447398815487,0.0027445582800477274,2.6212523199661742e-05,-0.007007640320767038,1.9500903599614647e-05
0.1125,0.000165745290000035,-0.7852554850000042,4.508116949986118e-05,-2.355636674999997,9.732363749988127e-05,1.570987575,0.7860033249999999,0.04,0.039999995,-9.825742500000041,0.001782534469365086,0.0026184123750493333,2.710655274965036e-05,-0.00711505999784439,2.051941199960168e-05
0.115,0.00016565584200003614,-0.7852449340000043,4.543612379985666e-05,-2.3556453299999967,9.762723299987741e-05,1.5709877099999998,0.78600361,0.04,0.039999995,-9.825636600000044,0.001832624198848623,0.0024922664700509395,2.8000582299638977e-05,-0.007222479674921742,2.153792039958871e-05
0.11750000000000001,0.0001655530660000551,-0.7852346650000042,4.584532939977964e-05,-2.355653629999997,9.797597799981313e-05,1.5709878499999999,0.786003897,0.04,0.03999999525,-9.825530750000045,0.0018838717660172814,0.0023752466200420395,2.9159436049281304e-05,-0.007328940019898297,2.2612489599494894e-05
0.12,0.0001654236340000603,-0.7852249600000045,4.636303759975892e-05,-2.3556612199999964,9.841502199979555e-05,1.5709879999999998,0.7860041879999999,0.04,0.039999996,-9.825425000000049,0.0019374350085604776,0.0022764788800459924,3.0847938199213723e-05,-0.007433481700669699,2.37991803994474e-05
0.1225,0.00016529420200006546,-0.785215255000005,4.68807457997382e-05,-2.3556688099999965,9.885406599977799e-05,1.5709881499999998,0.7860044789999999,0.04,0.03999999675,-9.825319250000053,0.001990998251103674,0.002177711140049945,3.253644034914616e-05,-0.0075380233814411005,2.4985871199399912e-05
0.125,0.00016516477000007063,-0.7852055500000054,4.739845399971749e-05,-2.355676399999996,9.929310999976041e-05,1.5709883,0.7860047699999999,0.04,0.0399999975,-9.825213500000057,0.0020445614936468706,0.0020789434000538973,3.422494249907859e-05,-0.007642565062212502,2.6172561999352423e-05
0.1275,0.00016503533800007583,-0.7851958450000057,4.791616219969677e-05,-2.3556839899999957,9.973215399974285e-05,1.57098845,0.7860050609999999,0.04,0.03999999825,-9.825107750000063,0.0020981247361900675,0.0019801756600578498,3.591344464901102e-05,-0.007747106742983904,2.7359252799304937e-05
0.13,0.000164905906000081,-0.7851861400000061,4.843387039967605e-05,-2.3556915799999953,0.00010017119799972527,1.5709886,0.7860053519999999,0.04,0.039999999,-9.825002000000067,0.002151687978733264,0.001881407920061802,3.7601946798943454e-05,-0.007851648423755306,2.854594359925745e-05
0.1325,0.00016477647400008617,-0.7851764350000064,4.8951578599655336e-05,-2.355699169999995,0.00010061024199970771,1.57098875,0.7860056429999999,0.04,0.03999999975,-9.824896250000071,0.0022052512212764603,0.0017826401800657542,3.929044894887588e-05,-0.007956190104526707,2.9732634399209962e-05
0.135,0.00016461405700011976,-0.785167220000006,4.960445979951773e-05,-2.355706299999995,0.00010116260799959233,1.5709892599999997,0.7860061209999997,0.04,0.04,-9.824757000000105,0.002262416528498309,0.0016945868000553556,4.164077369820522e-05,-0.008057953044704943,3.1139681198984395e-05
0.1375,0.00016443514750011718,-0.7851582500000058,5.032492749952821e-05,-2.3557131999999954,0.00010177163499960119,1.5709899499999995,0.7860066924999997,0.04,0.04,-9.824601000000103,0.002321382868064987,0.0016118906000541521,4.4322009748244245e-05,-0.008158326614582347,3.265690599900647e-05
0.14,0.00016425623800011456,-0.7851492800000057,5.10453951995387e-05,-2.3557200999999957,0.00010238066199961004,1.5709906399999995,0.7860072639999997,0.04,0.04,-9.8244450000001,0.0023803492076316653,0.0015291944000529487,4.700324579828326e-05,-0.008258700184459754,3.417413079902855e-05
0.14250000000000002,0.00016407732850011195,-0.7851403100000056,5.176586289954918e-05,-2.3557269999999955,0.00010298968899961891,1.5709913299999996,0.7860078354999996,0.04,0.04,-9.824289000000098,0.002439315547198343,0.0014464982000517452,4.9684481848322284e-05,-0.008359073754337159,3.5691355599050634e-05
0.145,0.00016389841900010934,-0.7851313400000055,5.248633059955966e-05,-2.3557338999999957,0.00010359871599962777,1.5709920199999996,0.7860084069999996,0.04,0.04,-9.824133000000096,0.0024982818867650206,0.0013638020000505428,5.236571789836127e-05,-0.008459447324214563,3.7208580399072695e-05
0.1475,0.00016371950950010676,-0.7851223700000053,5.3206798299570144e-05,-2.3557407999999955,0.00010420774299963663,1.5709927099999996,0.7860089784999996,0.04,0.04,-9.823977000000093,0.002557248226331699,0.0012811058000493391,5.5046953948400295e-05,-0.00855982089409197,3.872580519909478e-05
0.15,0.00016354060000010415,-0.7851134000000052,5.392726599958063e-05,-2.355747699999996,0.00010481676999964549,1.5709933999999997,0.7860095499999996,0.04,0.04,-9.823821000000091,0.002616214565898377,0.0011984096000481359,5.772818999843931e-05,-0.008660194463969375,4.024302999911686e-05
0.1525,0.0001633020205001419,-0.7851050840000049,5.4893354499425364e-05,-2.355754059999996,0.00010563320499951436,1.5709941199999997,0.7860101214999996,0.04,0.04,-9.823683150000083,0.0026754004764018057,0.001124097110044202,6.021117749852309e-05,-0.008756394823955814,4.228869549878322e-05
0.155,0.00016306344100014495,-0.785096768000005,5.585944299941306e-05,-2.355760419999996,0.00010644963999950398,1.5709948399999996,0.7860106929999996,0.04,0.04,-9.823545300000085,0.002734586386905362,0.001049784620045148,6.269416499849148e-05,-0.008852595183939825,4.433436099875717e-05
0.1575,0.000162824861500148,-0.7850884520000052,5.6825531499400764e-05,-2.355766779999996,0.00010726607499949358,1.5709955599999996,0.7860112644999996,0.04,0.04,-9.823407450000085,0.0027937722974089186,0.0009754721300460942,6.517715249845987e-05,-0.008948795543923834,4.638002649873113e-05
0.16,0.00016258628200015103,-0.7850801360000053,5.779161999938846e-05,-2.355773139999996,0.00010808250999948318,1.5709962799999997,0.7860118359999996,0.04,0.04,-9.823269600000087,0.002852958207912475,0.0009011596400470403,6.766013999842825e-05,-0.009044995903907845,4.842569199870508e-05
0.1625,0.00016234770250015407,-0.7850718200000054,5.875770849937616e-05,-2.355779499999996,0.00010889894499947278,1.5709969999999995,0.7860124074999996,0.04,0.04,-9.823131750000089,0.0029121441184160315,0.0008268471500479865,7.014312749839664e-05,-0.009141196263891855,5.0471357498679035e-05
0.165,0.00016210912300015709,-0.7850635040000056,5.972379699936386e-05,-2.3557858599999957,0.0001097153799994624,1.5709977199999996,0.7860129789999997,0.04,0.04,-9.82299390000009,0.002971330028919588,0.0007525346600489326,7.262611499836503e-05,-0.009237396623875864,5.251702299865299e-05
0.1675,0.00016184708250020457,-0.7850553870000052,6.078693044916759e-05,-2.3557918999999967,0.00011061395849929627,1.5709986299999992,0.7860136469999994,0.04,0.03999999975,-9.822893800000015,0.0030349740525226574,0.0006828439765400225,7.555385749747258e-05,-0.00933371456333556,5.468441099840377e-05
0.17,0.00016153812000020007,-0.785047668000005,6.204415379918587e-05,-2.3557972999999968,0.00011167682399931173,1.570999919999999,0.7860145079999994,0.04,0.039999999,-9.822869200000016,0.003107534302351513,0.0006223969060391428,7.937110999752812e-05,-0.009430267661747337,5.709524399843885e-05
0.17250000000000001,0.00016122915750019557,-0.785039949000005,6.330137714920418e-05,-2.355802699999997,0.0001127396894993272,1.5710012099999993,0.7860153689999995,0.04,0.03999999825,-9.822844600000014,0.003180094552180369,0.0005619498355382631,8.318836249758367e-05,-0.009526820760159111,5.950607699847394e-05
0.17500000000000002,0.0001609201950001911,-0.7850322300000048,6.455860049922248e-05,-2.3558080999999964,0.00011380255499934267,1.5710024999999992,0.7860162299999994,0.04,0.0399999975,-9.822820000000014,0.0032526548020092253,0.0005015027650373835,8.700561499763922e-05,-0.009623373858570887,6.191690999850902e-05
0.1775,0.0001606112325001866,-0.7850245110000047,6.581582384924076e-05,-2.3558134999999965,0.00011486542049935812,1.5710037899999991,0.7860170909999995,0.04,0.03999999675,-9.822795400000015,0.00332521505183808,0.00044105569453650446,9.082286749769472e-05,-0.00971992695698266,6.432774299854407e-05
0.18,0.0001603022700001821,-0.7850167920000046,6.707304719925905e-05,-2.3558188999999965,0.00011592828599937359,1.5710050799999993,0.7860179519999995,0.04,0.039999996,-9.822770800000013,0.0033977753016669362,0.00038060862403562477,9.464011999775028e-05,-0.009816480055394436,6.673857599857917e-05
0.1825,0.0001599933075001776,-0.7850090730000044,6.833027054927735e-05,-2.3558242999999965,0.00011699115149938906,1.5710063699999992,0.7860188129999994,0.04,0.03999999525,-9.822746200000013,0.0034703355514957923,0.0003201615535347451,9.845737249780583e-05,-0.00991303315380621,6.914940899861424e-05
0.185,0.00015962991900023306,-0.7850017340000043,6.981342949904771e-05,-2.355829509999997,0.0001182440379991958,1.5710080199999987,0.7860198599999992,0.04,0.039999995,-9.82265805000007,0.0035417635226198717,0.0002647109690315929,0.00010238260599762587,-0.010007036291007456,7.172646349841287e-05
0.1875,0.00015923931750024868,-0.7849945850000046,7.140955624898384e-05,-2.3558346249999964,0.00011959193499914187,1.5710098499999987,0.7860209999999992,0.04,0.039999995,-9.822538125000076,0.003612625354390111,0.0002117586275337119,0.00010636182999746664,-0.010099764447600166,7.438662874830642e-05
0.19,0.00015884871600026432,-0.7849874360000049,7.300568299891996e-05,-2.3558397399999964,0.00012093983199908793,1.5710116799999987,0.7860221399999991,0.04,0.039999995,-9.822418200000081,0.00368348718616035,0.0001588062860358309,0.0001103410539973074,-0.010192492604192875,7.704679399819996e-05
0.1925,0.00015845811450027994,-0.7849802870000052,7.460180974885609e-05,-2.3558448549999964,0.000122287728999034,1.5710135099999987,0.7860232799999991,0.04,0.039999995,-9.822298275000085,0.00375434901793059,0.0001058539445379499,0.00011432027799714817,-0.010285220760785583,7.970695924809351e-05
0.195,0.00015806751300029558,-0.7849731380000055,7.619793649879221e-05,-2.355849969999996,0.00012363562599898006,1.5710153399999987,0.7860244199999991,0.04,0.039999995,-9.82217835000009,0.003825210849700829,5.290160304006889e-05,0.00011829950199698894,-0.010377948917378293,8.236712449798707e-05
0.1975,0.0001576769115003112,-0.7849659890000057,7.779406324872834e-05,-2.355855084999996,0.00012498352299892613,1.5710171699999984,0.786025559999999,0.04,0.039999995,-9.822058425000096,0.0038960726814710684,-5.073845781212614e-08,0.0001222787259968297,-0.010470677073971002,8.502728974788061e-05
0.2,0.00015728631000032684,-0.784958840000006,7.939018999866446e-05,-2.3558601999999955,0.0001263314199988722,1.5710189999999984,0.786026699999999,0.04,0.039999995,-9.8219385000001,0.003966934513241308,-5.300307995569314e-05,0.00012625794999667048,-0.010563405230563712,8.768745499777416e-05
0.2025,0.0001568023815004111,-0.7849521440000057,8.137495624831401e-05,-2.3558643699999964,0.00012800360949857955,1.571021204999998,0.7860281324999987,0.03999999925,0.03999999575,-9.821893875000038,0.004031754564438778,-8.311800097441849e-05,0.00013055128449635298,-0.010656367801050783,9.050411074760736e-05
0.20500000000000002,0.00015631845300041725,-0.7849454480000058,8.335972249828875e-05,-2.3558685399999963,0.00012967579899855826,1.571023409999998,0.7860295649999988,0.0399999985,0.0399999965,-9.821849250000039,0.004096574615631192,-0.00011323292197403507,0.00013484461899629832,-0.010749330371538048,9.332076649757149e-05
0.20750000000000002,0.0001558345245004234,-0.7849387520000058,8.534448874826347e-05,-2.3558727099999963,0.00013134798849853696,1.5710256149999982,0.7860309974999987,0.03999999775,0.03999999725,-9.82180462500004,0.004161394666823607,-0.00014334784297365165,0.00013913795349624364,-0.010842292942025315,9.613742224753563e-05
0.21,0.00015535059600042957,-0.7849320560000059,8.732925499823819e-05,-2.3558768799999963,0.00013302017799851564,1.571027819999998,0.7860324299999987,0.039999997,0.039999998,-9.821760000000038,0.0042262147180160215,-0.00017346276397326788,0.00014343128799618892,-0.01093525551251258,9.895407799749974e-05
0.2125,0.00015486666750043573,-0.784925360000006,8.931402124821291e-05,-2.3558810499999963,0.00013469236749849434,1.571030024999998,0.7860338624999987,0.03999999625,0.03999999875,-9.82171537500004,0.0042910347692084365,-0.00020357768497288444,0.00014772462249613427,-0.011028218082999846,0.00010177073374746388
0.215,0.0001543827390004419,-0.7849186640000061,9.129878749818764e-05,-2.3558852199999962,0.00013636455699847304,1.5710322299999981,0.7860352949999987,0.0399999955,0.0399999995,-9.82167075000004,0.004355854820400851,-0.00023369260597250104,0.0001520179569960796,-0.011121180653487113,0.00010458738949742802
0.2175,0.00015386366350054567,-0.7849121200000058,9.343024974775491e-05,-2.355889174999997,0.0001381600839981092,1.5710345649999977,0.7860368224999984,0.039999994750000004,0.04,-9.821619200000061,0.004427790478723401,-0.0002610172349798679,0.0001564828514955484,-0.011213735956613635,0.0001075767699969124
0.22,0.0001532742940005532,-0.7849058800000058,9.585510399772404e-05,-2.355892699999997,0.00014020228599808318,1.5710371599999977,0.7860385399999984,0.039999994000000004,0.04,-9.82155380000006,0.004513957351365244,-0.0002827612799795911,0.0001612908659954872,-0.011305476725015291,0.00011091159999686993
0.2225,0.00015268492450056068,-0.784899640000006,9.827995824769316e-05,-2.355896224999997,0.00014224448799805717,1.5710397549999975,0.7860402574999984,0.039999993250000004,0.04,-9.821488400000062,0.004600124224007087,-0.00030450532497931424,0.000166098880495426,-0.011397217493416949,0.00011424642999682747
0.225,0.0001520955550005682,-0.7848934000000061,0.0001007048124976623,-2.3558997499999967,0.00014428668999803119,1.5710423499999975,0.7860419749999984,0.039999992500000005,0.04,-9.821423000000063,0.00468629109664893,-0.00032624936997903734,0.00017090689499536476,-0.011488958261818605,0.00011758125999678502
0.2275,0.00015150618550057568,-0.7848871600000061,0.00010312966674763143,-2.3559032749999966,0.00014632889199800518,1.5710449449999975,0.7860436924999983,0.03999999175,0.04,-9.821357600000065,0.0047724579692907726,-0.00034799341497876056,0.00017571490949530355,-0.011580699030220262,0.00012091608999674255
0.23,0.0001509168160005832,-0.7848809200000062,0.00010555452099760054,-2.3559067999999965,0.00014837109399797917,1.5710475399999975,0.7860454099999983,0.039999991,0.04,-9.821292200000066,0.004858624841932615,-0.00036973745997848366,0.00018052292399524234,-0.01167243979862192,0.0001242509199967001
0.2325,0.0001503274465005907,-0.7848746800000063,0.00010797937524756967,-2.3559103249999964,0.00015041329599795318,1.5710501349999975,0.7860471274999983,0.03999999025,0.04,-9.821226800000066,0.004944791714574458,-0.0003914815049782068,0.00018533093849518113,-0.011764180567023576,0.00012758574999665763
0.23500000000000001,0.00014965949300073072,-0.784868690000006,0.00011073286999698538,-2.355913449999997,0.00015273193299746162,1.5710531299999966,0.7860490349999979,0.039999989799999996,0.0399999995,-9.82117990000004,0.005027363449251636,-0.0003975930980017612,0.00019061965999428747,-0.011856580525540844,0.00013128288099599302
0.23750000000000002,0.000148952247500759,-0.7848628250000063,0.0001136506849968686,-2.355916374999997,0.0001551887874973633,1.5710563249999965,0.7860510374999978,0.0399999895,0.03999999875,-9.82114225000004,0.0051081376149383385,-0.0003958884650018294,0.0001961487349940662,-0.011949310079117408,0.00013516116249583782
0.24,0.00014824500200078731,-0.7848569600000065,0.00011656849999675182,-2.3559192999999965,0.00015764564199726496,1.5710595199999964,0.7860530399999978,0.0399999892,0.039999998,-9.821104600000043,0.00518891178062504,-0.00039418383200189765,0.00020167780999384488,-0.012042039632693971,0.0001390394439956826
0.2425,0.00014753775650081562,-0.7848510950000067,0.00011948631499663505,-2.3559222249999965,0.00016010249649716664,1.5710627149999963,0.7860550424999977,0.0399999889,0.03999999725,-9.821066950000043,0.005269685946311743,-0.0003924791990019659,0.00020720688499362364,-0.012134769186270536,0.0001429177254955274
0.245,0.00014683051100084394,-0.7848452300000069,0.00012240412999651827,-2.3559251499999965,0.00016255935099706832,1.5710659099999962,0.7860570449999976,0.0399999886,0.0399999965,-9.821029300000045,0.005350460111998446,-0.00039077456600203407,0.00021273595999340237,-0.0122274987398471,0.0001467960069953722
0.2475,0.00014612326550087222,-0.7848393650000072,0.0001253219449964015,-2.3559280749999965,0.00016501620549697,1.571069104999996,0.7860590474999976,0.0399999883,0.03999999575,-9.820991650000046,0.005431234277685148,-0.0003890699330021023,0.00021826503499318113,-0.012320228293423663,0.000150674288495217
0.25,0.00014541602000090053,-0.7848335000000074,0.00012823975999628475,-2.3559309999999964,0.0001674730599968717,1.571072299999996,0.7860610499999975,0.039999988,0.039999995,-9.820954000000048,0.005512008443371851,-0.00038736530000217054,0.00022379410999295987,-0.012412957847000227,0.0001545525699950618
0.2525,0.00014457821900103172,-0.7848279800000068,0.0001317046789957331,-2.355933219999997,0.00017038994649640798,1.5710761999999951,0.7860633749999971,0.0399999874,0.039999994250000004,-9.820923400000039,0.0055952168534415874,-0.00038059581200833634,0.0002301330154921939,-0.01250637904729358,0.00015885465849470217
0.255,0.00014374041800099667,-0.7848224600000065,0.00013516959799587806,-2.3559354399999974,0.00017330683299653,1.5710800999999954,0.7860656999999972,0.039999986800000005,0.039999993500000004,-9.820892800000037,0.005678425263514424,-0.0003738263240080531,0.00023647192099245914,-0.012599800247587814,0.00016315674699488215
0.2575,0.0001429026170009616,-0.7848169400000063,0.00013863451699602303,-2.3559376599999977,0.00017622371949665205,1.5710839999999955,0.7860680249999974,0.039999986200000004,0.039999992750000005,-9.820862200000036,0.00576163367358726,-0.0003670568360077699,0.00024281082649272434,-0.012693221447882048,0.00016745883549506215
0.26,0.00014206481600092654,-0.7848114200000061,0.00014209943599616798,-2.3559398799999975,0.00017914060599677408,1.5710878999999958,0.7860703499999975,0.0399999856,0.039999992000000005,-9.820831600000034,0.0058448420836600965,-0.00036028734800748664,0.00024914973199298955,-0.012786642648176283,0.00017176092399524213
0.2625,0.0001412270150008915,-0.7848059000000058,0.00014556435499631296,-2.355942099999998,0.00018205749249689614,1.5710917999999958,0.7860726749999976,0.039999985,0.03999999125,-9.820801000000033,0.005928050493732933,-0.00035351786000720344,0.00025548863749325475,-0.012880063848470515,0.00017606301249542213
0.265,0.00014038921400085644,-0.7848003800000056,0.0001490292739964579,-2.355944319999998,0.00018497437899701817,1.571095699999996,0.7860749999999976,0.0399999844,0.0399999905,-9.82077040000003,0.006011258903805769,-0.0003467483720069202,0.00026182754299351995,-0.012973485048764749,0.0001803651009956021
0.2675,0.00013950357950097994,-0.7847949575000053,0.00015269493899593847,-2.3559463749999985,0.0001880600454965815,1.5710998549999955,0.7860774794999972,0.0399999838,0.0399999899,-9.820731000000057,0.006090254033845214,-0.00033460881852284804,0.0002684826709927225,-0.013067103642876382,0.00018476949749539736
0.27,0.00013852227800099242,-0.7847897300000053,0.00015676209599588668,-2.355948099999998,0.00019148327199653792,1.5711045199999953,0.7860802679999972,0.0399999832,0.0399999896,-9.820674000000057,0.006160822603780171,-0.0003117291340231394,0.0002757702439926297,-0.01316111702462458,0.00018937850999533866
0.2725,0.00013754097650100494,-0.7847845025000053,0.0001608292529958349,-2.3559498249999984,0.00019490649849649433,1.5711091849999952,0.7860830564999971,0.039999982600000004,0.0399999893,-9.820617000000059,0.0062313911737151275,-0.00028884944952343067,0.0002830578169925369,-0.013255130406372778,0.00019398752249528
0.275,0.00013655967500101742,-0.7847792750000054,0.0001648964099957831,-2.355951549999998,0.00019832972499645075,1.5711138499999953,0.7860858449999971,0.039999982,0.039999989,-9.820560000000059,0.0063019597436500836,-0.000265969765023722,0.0002903453899924441,-0.013349143788120976,0.0001985965349952213
0.2775,0.0001355783735010299,-0.7847740475000055,0.00016896356699573135,-2.3559532749999983,0.00020175295149640717,1.571118514999995,0.7860886334999971,0.0399999814,0.0399999887,-9.82050300000006,0.0063725283135850404,-0.0002430900805240133,0.0002976329629923514,-0.013443157169869173,0.00020320554749516263
0.28,0.00013459707200104242,-0.7847688200000056,0.00017303072399567956,-2.355954999999998,0.00020517617799636358,1.571123179999995,0.786091421999997,0.0399999808,0.0399999884,-9.82044600000006,0.0064430968835199965,-0.0002202103960243046,0.0003049205359922586,-0.013537170551617373,0.00020781455999510393
0.28250000000000003,0.0001336157705010549,-0.7847635925000056,0.00017709788099562777,-2.355956724999998,0.00020859940449631997,1.571127844999995,0.7860942104999971,0.0399999802,0.0399999881,-9.82038900000006,0.006513665453454953,-0.00019733071152459593,0.0003122081089921658,-0.01363118393336557,0.00021242357249504526
0.28500000000000003,0.00013253004700125847,-0.7847585420000055,0.00018160387099477402,-2.355957889999999,0.000212391612995602,1.571132929999994,0.7860972859999965,0.0399999797,0.039999988,-9.820380699999983,0.006604427471645357,-0.00016510189354081267,0.00031972725999155623,-0.013726290222151554,0.00021741402699426997
0.28750000000000003,0.000131392112501304,-0.7847535800000056,0.00018632927749458493,-2.355958774999999,0.0002163683124954429,1.571138224999994,0.7861005049999964,0.03999997925,0.039999988,-9.820396749999983,0.006705286214012521,-0.00012819850879228944,0.0003273621999912507,-0.013821942964459088,0.00022259520249406263
0.29,0.00013025417800134958,-0.7847486180000058,0.00019105468399439573,-2.355959659999999,0.00022034501199528366,1.5711435199999937,0.7861037239999962,0.039999978799999995,0.039999988,-9.820412799999982,0.006806144956379683,-9.129512404376701e-05,0.000334997139990945,-0.013917595706766617,0.00022777637799385517
0.2925,0.0001291162435013951,-0.7847436560000061,0.00019578009049420664,-2.355960544999999,0.00022432171149512454,1.5711488149999935,0.7861069429999961,0.03999997835,0.039999988,-9.820428849999981,0.006907003698746847,-5.439173929524377e-05,0.0003426320799906395,-0.01401324844907415,0.00023295755349364783
0.295,0.00012797830900144065,-0.7847386940000063,0.00020050549699401752,-2.355961429999999,0.0002282984109949654,1.5711541099999933,0.786110161999996,0.0399999779,0.039999988,-9.82044489999998,0.007007862441114011,-1.7488354546720534e-05,0.00035026701999033396,-0.014108901191381681,0.0002381387289934405
0.2975,0.0001268403745014862,-0.7847337320000064,0.00020523090349382843,-2.355962314999999,0.00023227511049480628,1.571159404999993,0.7861133809999958,0.03999997745,0.039999988,-9.82046094999998,0.007108721183481175,1.941503020180273e-05,0.0003579019599900285,-0.014204553933689214,0.00024331990449323317
0.3,0.00012570244000153173,-0.7847287700000066,0.00020995630999363934,-2.355963199999999,0.00023625180999464713,1.5711646999999929,0.7861165999999957,0.039999977,0.039999988,-9.820476999999979,0.007209579925848338,5.631841495032597e-05,0.00036553689998972296,-0.014300206675996746,0.0002485010799930258
0.3025,0.00012439460050181277,-0.7847239895000065,0.00021539661949245933,-2.3559637399999995,0.0002408295684936549,1.5711708799999915,0.7861203109999949,0.0399999764,0.0399999874,-9.82044865000004,0.007297726883430752,0.0001133126496710018,0.0003739967094882741,-0.014397554937615143,0.00025413504099219093
0.305,0.0001230867610018651,-0.7847192090000068,0.0002208369289922416,-2.3559642799999994,0.0002454073269934717,1.5711770599999912,0.7861240219999948,0.039999975800000004,0.039999986800000005,-9.820420300000041,0.007385873840996054,0.00017030688441872107,0.00038245651898793557,-0.014494903199235822,0.0002597690019919655
0.3075,0.00012177892150191743,-0.784714428500007,0.00022627723849202392,-2.355964819999999,0.00024998508549328854,1.571183239999991,0.7861277329999946,0.0399999752,0.039999986200000004,-9.820391950000042,0.007474020798561357,0.00022730111916644034,0.000390916328487597,-0.014592251460856503,0.00026540296299174
0.31,0.00012047108200196977,-0.7847096480000072,0.00023171754799180622,-2.3559653599999995,0.00025456284399310534,1.5711894199999907,0.7861314439999945,0.0399999746,0.0399999856,-9.820363600000043,0.007562167756126659,0.0002842953539141596,0.00039937613798725845,-0.014689599722477182,0.00027103692399151454
0.3125,0.00011916324250202211,-0.7847048675000075,0.0002371578574915885,-2.3559658999999993,0.00025914060249292213,1.5711955999999905,0.7861351549999943,0.039999974,0.039999985,-9.820335250000044,0.007650314713691962,0.0003412895886618789,0.0004078359474869199,-0.01478694798409786,0.0002766708849912891
0.315,0.00011785540300207444,-0.7847000870000076,0.0002425981669913708,-2.355966439999999,0.000263718360992739,1.5712017799999902,0.7861388659999942,0.0399999734,0.0399999844,-9.820306900000045,0.007738461671257265,0.00039828382340959814,0.0004162957569865814,-0.014884296245718541,0.00028230484599106365
0.3175,0.00011648646450239772,-0.7846953730000074,0.0002482958279900106,-2.355966635000001,0.0002685124699915954,1.5712082449999887,0.7861427464999933,0.03999997285,0.0399999838,-9.820298049999952,0.007827350636798847,0.00045739668589813397,0.0004249568419854258,-0.01498273699528187,0.00028809142399020447
0.32,0.00011499532800237603,-0.7846907920000074,0.000254508191990101,-2.355966140000001,0.00027373927999167145,1.5712152799999888,0.7861469659999933,0.0399999724,0.039999983200000006,-9.820328199999953,0.007917723618303757,0.0005207468038990559,0.00043402047798555773,-0.01508336272074636,0.0002941832359902931
0.3225,0.00011350419150235431,-0.7846862110000072,0.0002607205559901914,-2.355965645000001,0.0002789660899917475,1.5712223149999889,0.7861511854999934,0.039999971950000004,0.039999982600000004,-9.820358349999953,0.008008096599808667,0.0005840969218999778,0.0004430841139856896,-0.015183988446210848,0.00030027504799038176
0.325,0.00011201305500233262,-0.7846816300000072,0.0002669329199902818,-2.3559651500000007,0.0002841928999918236,1.571229349999989,0.7861554049999935,0.0399999715,0.039999982,-9.820388499999952,0.008098469581313578,0.0006474470399008997,0.0004521477499858215,-0.015284614171675337,0.0003063668599904704
0.3275,0.00011052191850231092,-0.7846770490000071,0.0002731452839903722,-2.3559646550000006,0.00028941970999189965,1.571236384999989,0.7861596244999934,0.039999971050000006,0.0399999814,-9.820418649999953,0.008188842562818488,0.0007107971579018216,0.00046121138598595343,-0.015385239897139828,0.00031245867199055906
0.33,0.00010903078200228922,-0.784672468000007,0.00027935764799046265,-2.355964160000001,0.0002946465199919757,1.5712434199999892,0.7861638439999935,0.039999970600000004,0.0399999808,-9.820448799999953,0.008279215544323398,0.0007741472759027436,0.00047027502198608535,-0.015485865622604317,0.0003185504839906477
0.3325,0.00010753964550226752,-0.784667887000007,0.00028557001199055305,-2.355963665000001,0.0002998733299920518,1.5712504549999893,0.7861680634999936,0.03999997015,0.0399999802,-9.820478949999954,0.008369588525828309,0.0008374973939036655,0.0004793386579862172,-0.015586491348068806,0.00032464229599073636
0.335,0.00010591733800257287,-0.7846634100000067,0.00029233543198926593,-2.3559628300000015,0.0003055650039909699,1.5712581399999876,0.7861726589999928,0.039999969,0.0399999797,-9.820442800000105,0.008448884077257662,0.0009126707098764018,0.0004889077869850285,-0.015687558334166317,0.00033095675999020513
0.3375,0.00010422944500259435,-0.7846589850000069,0.0002993773799891763,-2.3559618250000014,0.00031148910999089446,1.5712661499999876,0.7861774424999927,0.039999967500000004,0.03999997925,-9.820373500000107,0.008522640913611459,0.0009937556248753694,0.0004987296624849035,-0.01578884595058184,0.0003373825499901233
0.34,0.00010254155200261584,-0.7846545600000069,0.0003064193279890866,-2.3559608200000017,0.00031741321599081904,1.5712741599999875,0.7861822259999925,0.039999966000000005,0.0399999788,-9.820304200000107,0.008596397749965254,0.0010748405398743372,0.0005085515379847784,-0.015890133566997366,0.0003438083399900415
0.3425,0.00010085365900263734,-0.7846501350000069,0.00031346127598899697,-2.3559598150000016,0.0003233373219907436,1.5712821699999875,0.7861870094999925,0.039999964500000006,0.03999997835,-9.820234900000107,0.00867015458631905,0.0011559254548733047,0.0005183734134846533,-0.01599142118341289,0.0003502341299899597
0.34500000000000003,9.916576600265882e-05,-0.7846457100000069,0.0003205032239889073,-2.3559588100000015,0.00032926142799066815,1.5712901799999874,0.7861917929999924,0.039999963000000006,0.0399999779,-9.82016560000011,0.008743911422672845,0.0012370103698722723,0.0005281952889845282,-0.01609270879982842,0.0003566599199898779
0.34750000000000003,9.747787300268032e-05,-0.7846412850000071,0.00032754517198881766,-2.3559578050000014,0.00033518553399059273,1.5712981899999872,0.7861965764999924,0.0399999615,0.03999997745,-9.82009630000011,0.008817668259026641,0.00131809528487124,0.0005380171644844032,-0.016193996416243944,0.0003630857099897961
0.35000000000000003,9.57899800027018e-05,-0.7846368600000071,0.000334587119988728,-2.3559568000000017,0.0003411096399905173,1.571306199999987,0.7862013599999923,0.03999996,0.039999977,-9.82002700000011,0.008891425095380438,0.0013991801998702075,0.0005478390399842782,-0.01629528403265947,0.00036951149998971423
0.3525,9.389179600306263e-05,-0.784632531000007,0.00034251642298720647,-2.355955075000003,0.0003477796539892383,1.5713152149999854,0.7862067809999912,0.0399999591,0.03999997595,-9.820072299999927,0.00900313532893211,0.0015027808648328453,0.000558372993983004,-0.016399700753222262,0.0003765354674886672
0.355,9.19936120030868e-05,-0.784628202000007,0.0003504457259871055,-2.3559533500000027,0.00035444966798915337,1.5713242299999852,0.7862122019999912,0.039999958200000005,0.0399999749,-9.820117599999925,0.009114845562544539,0.0016063815298315261,0.0005689069479828698,-0.01650411747379007,0.00038355943498857777
0.3575,9.009542800311096e-05,-0.7846238730000071,0.00035837502898700455,-2.355951625000003,0.00036111968198906843,1.5713332449999853,0.7862176229999911,0.0399999573,0.03999997385,-9.820162899999925,0.009226555796156966,0.0017099821948302072,0.0005794409019827358,-0.016608534194357875,0.0003905834024884883
0.36,8.819724400313513e-05,-0.7846195440000071,0.0003663043319869036,-2.355949900000003,0.0003677896959889835,1.5713422599999851,0.7862230439999911,0.0399999564,0.039999972800000005,-9.820208199999925,0.009338266029769393,0.001813582859828888,0.0005899748559826017,-0.01671295091492568,0.0003976073699883989
0.3625,8.62990600031593e-05,-0.7846152150000072,0.00037423363498680263,-2.355948175000003,0.00037445970998889857,1.571351274999985,0.786228464999991,0.039999955499999996,0.03999997175,-9.820253499999923,0.00944997626338182,0.001917183524827569,0.0006005088099824675,-0.016817367635493484,0.00040463133748830946
0.365,8.440087600318346e-05,-0.7846108860000073,0.0003821629379867017,-2.355946450000003,0.0003811297239888137,1.5713602899999848,0.7862338859999909,0.0399999546,0.039999970700000005,-9.820298799999923,0.00956168649699425,0.00202078418982625,0.0006110427639823334,-0.01692178435606129,0.00041165530498822004
0.3675,8.242808300358586e-05,-0.7846065900000071,0.00039040730398500346,-2.355944490000004,0.00038806455498738626,1.5713696749999828,0.7862395224999897,0.039999953649999996,0.0399999695,-9.820331349999988,0.009667770843792587,0.0021285304648039145,0.0006217577799812814,-0.017027147020963335,0.0004188376299873278
0.37,8.030607200361288e-05,-0.7846023600000072,0.0003992817959848905,-2.3559420600000043,0.0003955290199872912,1.5713797999999828,0.7862455899999897,0.0399999526,0.039999968000000004,-9.820338399999986,0.0097626034168774,0.0022445679598024374,0.0006328349199811403,-0.01713440157454821,0.00042633666998723234
0.3725,7.81840610036399e-05,-0.7845981300000072,0.0004081562879847775,-2.3559396300000044,0.00040299348498719616,1.5713899249999828,0.7862516574999896,0.03999995155,0.039999966500000005,-9.820345449999987,0.009857435989962212,0.00236060545480096,0.0006439120599809993,-0.017241656128133085,0.0004338357099871368
0.375,7.606205000366692e-05,-0.7845939000000073,0.0004170307799846645,-2.355937200000004,0.0004104579499871011,1.5714000499999825,0.7862577249999896,0.0399999505,0.039999965000000005,-9.820352499999988,0.009952268563047026,0.0024766429497994824,0.0006549891999808583,-0.01734891068171796,0.00044133474998704137
0.3775,7.394003900369394e-05,-0.7845896700000073,0.0004259052719845515,-2.355934770000004,0.00041792241498700606,1.5714101749999825,0.7862637924999895,0.03999994945,0.039999963500000006,-9.820359549999987,0.010047101136131838,0.0025926804447980053,0.0006660663399807172,-0.017456165235302835,0.00044883378998694586
0.38,7.181802800372096e-05,-0.7845854400000074,0.00043477976398443853,-2.3559323400000043,0.000425386879986911,1.5714202999999822,0.7862698599999893,0.0399999484,0.03999996200000001,-9.820366599999987,0.010141933709216651,0.0027087179397965277,0.0006771434799805762,-0.01756341978888771,0.0004563328299868504
0.3825,6.969601700374797e-05,-0.7845812100000075,0.00044365425598432557,-2.3559299100000044,0.00043285134498681596,1.5714304249999822,0.7862759274999893,0.03999994735,0.0399999605,-9.820373649999986,0.010236766282301465,0.00282475543479505,0.0006882206199804351,-0.017670674342472586,0.0004638318699867549
0.385,6.741576700419725e-05,-0.7845770000000075,0.0004531974379824282,-2.355927150000005,0.00044087778998522134,1.57144130999998,0.786282444999988,0.039999946300000006,0.0399999598,-9.82037999999999,0.010332052968272455,0.0029517329697643802,0.0006997420939791084,-0.01777965128402236,0.00047156338798603906
0.3875,6.505639750422728e-05,-0.7845728000000076,0.0004630749649823024,-2.355924225000005,0.00044918522498511556,1.57145257499998,0.7862891874999879,0.03999994525,0.0399999595,-9.820385999999989,0.010427566710688344,0.0030841805247626935,0.0007114857349789589,-0.017889489419561453,0.00047941114498593917
0.39,6.269702800425732e-05,-0.7845686000000076,0.00047295249198217663,-2.355921300000005,0.0004574926599850098,1.5714638399999796,0.7862959299999879,0.0399999442,0.039999959200000004,-9.82039199999999,0.010523080453104232,0.0032166280797610073,0.0007232293759788094,-0.017999327555100544,0.0004872589019858392
0.3925,6.033765850428736e-05,-0.7845644000000077,0.0004828300189820509,-2.3559183750000052,0.000465800094984904,1.5714751049999796,0.7863026724999878,0.03999994315,0.0399999589,-9.820397999999988,0.010618594195520121,0.003349075634759321,0.0007349730169786599,-0.01810916569063964,0.0004951066589857393
0.395,5.7978289004317405e-05,-0.7845602000000077,0.0004927075459819251,-2.3559154500000052,0.00047410752998479827,1.5714863699999795,0.7863094149999877,0.0399999421,0.0399999586,-9.82040399999999,0.01071410793793601,0.0034815231897576348,0.0007467166579785104,-0.01821900382617873,0.0005029544159856394
0.3975,5.561891950434744e-05,-0.7845560000000078,0.0005025850729817994,-2.3559125250000053,0.0004824149649846925,1.5714976349999792,0.7863161574999876,0.03999994105,0.0399999583,-9.820409999999988,0.010809621680351898,0.0036139707447559485,0.0007584602989783608,-0.018328841961717822,0.0005108021729855395
0.4,5.325955000437748e-05,-0.7845518000000078,0.0005124625999816736,-2.3559096000000053,0.0004907223999845868,1.5715088999999791,0.7863228999999875,0.03999994,0.039999958,-9.82041599999999,0.010905135422767788,0.0037464182997542623,0.0007702039399782114,-0.018438680097256913,0.0005186499299854396
0.4025,5.0649299504876184e-05,-0.7845476510000078,0.0005234008399795663,-2.355905700000007,0.0004999213749828155,1.5715213799999768,0.7863303639999861,0.0399999388,0.03999995680000001,-9.820443599999948,0.010980753879852867,0.0038861462997389754,0.0007826587789767333,-0.018552884366149897,0.0005271080804841994
0.405,4.803904900490942e-05,-0.7845435020000078,0.000534339079979427,-2.3559018000000074,0.0005091203499826984,1.5715338599999764,0.786337827999986,0.0399999376,0.039999955600000005,-9.820471199999949,0.011056372336901035,0.0040258742997371965,0.0007951136179765747,-0.018667088635050982,0.0005355662309840917
0.40750000000000003,4.5428798504942654e-05,-0.7845393530000079,0.0005452773199792878,-2.355897900000007,0.0005183193249825812,1.5715463399999763,0.7863452919999858,0.039999936400000005,0.0399999544,-9.820498799999948,0.011131990793949203,0.004165602299735417,0.0008075684569764161,-0.018781292903952067,0.000544024381483984
0.41000000000000003,4.281854800497589e-05,-0.784535204000008,0.0005562155599791485,-2.3558940000000073,0.000527518299982464,1.5715588199999762,0.7863527559999858,0.0399999352,0.0399999532,-9.820526399999947,0.011207609250997369,0.0043053302997336385,0.0008200232959762575,-0.018895497172853153,0.0005524825319838763
0.41250000000000003,4.0208297505009125e-05,-0.784531055000008,0.0005671537999790093,-2.3558901000000074,0.0005367172749823469,1.571571299999976,0.7863602199999856,0.039999934,0.039999952000000005,-9.820553999999948,0.011283227708045537,0.004445058299731859,0.0008324781349760989,-0.01900970144175424,0.0005609406824837686
0.41500000000000004,3.759804700504236e-05,-0.7845269060000081,0.0005780920399788699,-2.3558862000000076,0.0005459162499822298,1.571583779999976,0.7863676839999856,0.039999932800000006,0.0399999508,-9.820581599999947,0.011358846165093705,0.00458478629973008,0.0008449329739759403,-0.019123905710655326,0.0005693988329836609
0.4175,3.489968630558964e-05,-0.7845227530000082,0.000589403044976556,-2.3558820850000086,0.0005554284719802851,1.5715966749999732,0.7863754069999839,0.0399999319,0.03999995,-9.820602599999985,0.011449346877400639,0.0047373218696535845,0.0008576120049744736,-0.019238764140529004,0.0005779756324828609
0.42,3.202510520562624e-05,-0.7845185920000082,0.0006014595799764025,-2.3558775400000087,0.0005655671879801561,1.571610399999973,0.7863836479999838,0.039999931600000004,0.03999995,-9.820610399999985,0.011569612100484994,0.004915472579651316,0.0008707394199743066,-0.019354930892359293,0.0005867897299827487
0.4225,2.915052410566284e-05,-0.7845144310000082,0.0006135161149762489,-2.355872995000009,0.000575705903980027,1.571624124999973,0.7863918889999837,0.0399999313,0.03999995,-9.820618199999986,0.011689877323569346,0.005093623289649048,0.0008838668349741394,-0.019471097644189583,0.0005956038274826364
0.425,2.6275943005699442e-05,-0.7845102700000083,0.0006255726499760954,-2.355868450000009,0.0005858446199798979,1.5716378499999728,0.7864001299999837,0.039999931,0.03999995,-9.820625999999985,0.0118101425466537,0.00527177399964678,0.0008969942499739722,-0.019587264396019877,0.0006044179249825243
0.4275,2.340136190573604e-05,-0.7845061090000083,0.0006376291849759419,-2.355863905000009,0.0005959833359797689,1.5716515749999727,0.7864083709999835,0.039999930700000005,0.03999995,-9.820633799999985,0.011930407769738053,0.005449924709644512,0.000910121664973805,-0.019703431147850167,0.000613232022482412
0.43,2.0526780805772637e-05,-0.7845019480000084,0.0006496857199757884,-2.355859360000009,0.0006061220519796397,1.5716652999999725,0.7864166119999835,0.0399999304,0.03999995,-9.820641599999986,0.012050672992822408,0.0056280754196422434,0.000923249079973638,-0.019819597899680456,0.0006220461199822998
0.4325,1.765219970580924e-05,-0.7844977870000084,0.0006617422549756349,-2.355854815000009,0.0006162607679795107,1.5716790249999724,0.7864248529999833,0.039999930100000004,0.03999995,-9.820649399999985,0.012170938215906762,0.005806226129639975,0.0009363764949734708,-0.019935764651510746,0.0006308602174821875
0.435,1.4592462136410647e-05,-0.7844936200000084,0.0006745824299730909,-2.3558498200000106,0.0006270581059773725,1.5716936699999693,0.7864336299999816,0.039999928700000006,0.039999949,-9.820673899999933,0.0122778072951187,0.005989707179621447,0.0009499036699720842,-0.020054477080458724,0.0006400870149808164
0.4375,1.1440146331450782e-05,-0.7844894500000085,0.0006878144249729225,-2.355844600000011,0.0006381847549772309,1.5717087749999692,0.7864426749999816,0.039999926750000005,0.0399999475,-9.820706749999934,0.012377978302333389,0.006175853399619077,0.0009636307249719095,-0.02017446234797714,0.0006495201624806963
0.44,8.287830526490917e-06,-0.7844852800000086,0.000701046419972754,-2.3558393800000106,0.0006493114039770892,1.5717238799999689,0.7864517199999814,0.03999992480000001,0.039999946,-9.820739599999934,0.012478149309548079,0.006361999619616707,0.0009773577799717346,-0.020294447615495557,0.0006589533099805762
0.4425,5.135514721531052e-06,-0.7844811100000086,0.0007142784149725855,-2.355834160000011,0.0006604380529769475,1.5717389849999688,0.7864607649999813,0.03999992285000001,0.0399999445,-9.820772449999932,0.01257832031676277,0.006548145839614337,0.00099108483497156,-0.020414432883013978,0.0006683864574804562
0.445,1.983198916571187e-06,-0.7844769400000087,0.0007275104099724171,-2.355828940000011,0.0006715647019768058,1.5717540899999685,0.7864698099999812,0.039999920900000006,0.039999943,-9.820805299999932,0.012678491323977458,0.006734292059611967,0.0010048118899713852,-0.020534418150532394,0.0006778196049803361
0.4475,-1.1691168883886761e-06,-0.7844727700000087,0.0007407424049722486,-2.3558237200000107,0.0006826913509766642,1.5717691949999684,0.786478854999981,0.039999918950000005,0.039999941500000004,-9.82083814999993,0.012778662331192148,0.006920438279609597,0.0010185389449712105,-0.02065440341805081,0.000687252752480216
0.45,-4.321432693348543e-06,-0.7844686000000087,0.0007539743999720801,-2.355818500000011,0.0006938179999765226,1.571784299999968,0.7864878999999809,0.03999991700000001,0.03999994,-9.820870999999931,0.012878833338406837,0.007106584499607227,0.0010322659999710355,-0.020774388685569228,0.0006966858999800959
0.4525,-7.764780537690615e-06,-0.784464355000009,0.0007684387499692957,-2.355812380000013,0.0007059801799741826,1.571800799999965,0.786497775999979,0.039999917,0.03999994045,-9.820882924999975,0.012952668126515693,0.007303008074583041,0.001046683609969395,-0.020898147485887475,0.0007064812899792068
0.455,-1.1208128382646773e-05,-0.784460110000009,0.0007829030999691115,-2.355806260000013,0.0007181423599740279,1.571817299999965,0.786507651999979,0.039999917,0.039999940899999996,-9.820894849999975,0.013026502914568977,0.0074994316495805395,0.0010611012199692113,-0.021021906286213685,0.0007162766799790821
0.4575,-1.4651476227602931e-05,-0.7844558650000091,0.0007973674499689274,-2.3558001400000133,0.000730304539973873,1.5718337999999645,0.7865175279999788,0.039999917,0.03999994135,-9.820906774999974,0.013100337702622263,0.007695855224578039,0.0010755188299690279,-0.021145665086539894,0.0007260720699789573
0.46,-1.8094824072559093e-05,-0.7844516200000091,0.0008118317999687432,-2.355794020000013,0.0007424667199737181,1.5718502999999644,0.7865274039999787,0.039999917,0.0399999418,-9.820918699999975,0.013174172490675547,0.007892278799575539,0.0010899364399688442,-0.021269423886866104,0.0007358674599788327
0.4625,-2.153817191751525e-05,-0.7844473750000092,0.0008262961499685591,-2.355787900000013,0.0007546288999735633,1.5718667999999643,0.7865372799999786,0.039999917,0.039999942250000003,-9.820930624999974,0.013248007278728833,0.008088702374573037,0.0011043540499686608,-0.021393182687192314,0.0007456628499787079
0.465,-2.498151976247141e-05,-0.7844431300000092,0.0008407604999683749,-2.3557817800000134,0.0007667910799734084,1.571883299999964,0.7865471559999784,0.039999917,0.0399999427,-9.820942549999975,0.013321842066782117,0.008285125949570538,0.0011187716599684772,-0.021516941487518523,0.0007554582399785832
0.4675,-2.8526278491758518e-05,-0.7844388650000095,0.0008556544464653565,-2.355775415000015,0.0007793142719708717,1.5719002949999605,0.7865573249999763,0.03999991715,0.0399999432,-9.82096432499991,0.013414082163660943,0.008493442249489575,0.001133408694966846,-0.021641777641791933,0.0007654616964770858
0.47000000000000003,-3.2273858991710804e-05,-0.7844345600000096,0.000871407585965156,-2.355768560000015,0.0007925594879707031,1.5719182799999603,0.7865680799999762,0.039999917600000004,0.0399999438,-9.82100579999991,0.013543132878554435,0.008725543999486619,0.001148484579966654,-0.02176876850398103,0.0007758812859769531
0.47250000000000003,-3.602143949166309e-05,-0.7844302550000095,0.0008871607254649554,-2.3557617050000155,0.0008058047039705346,1.57193626499996,0.786578834999976,0.03999991805,0.0399999444,-9.821047274999907,0.013672183593447927,0.008957645749483665,0.0011635604649664621,-0.02189575936617013,0.0007863008754768205
0.47500000000000003,-3.976901999161537e-05,-0.7844259500000096,0.0009029138649647547,-2.3557548500000154,0.0008190499199703659,1.5719542499999597,0.786589589999976,0.0399999185,0.039999945,-9.821088749999907,0.01380123430834142,0.009189747499480708,0.0011786363499662702,-0.022022750228359228,0.0007967204649766878
0.47750000000000004,-4.351660049156766e-05,-0.7844216450000097,0.0009186670044645542,-2.3557479950000153,0.0008322951359701973,1.5719722349999594,0.7866003449999758,0.03999991895,0.0399999456,-9.821130224999907,0.013930285023234911,0.009421849249477754,0.0011937122349660783,-0.022149741090548326,0.0008071400544765551
0.48,-4.726418099151986e-05,-0.7844173400000097,0.0009344201439643533,-2.3557411400000157,0.0008455403519700283,1.5719902199999594,0.7866110999999757,0.0399999194,0.0399999462,-9.821171699999907,0.0140593357381284,0.009653950999474794,0.0012087881199658859,-0.02227673195273742,0.0008175596439764222
0.4825,-5.101176149147215e-05,-0.7844130350000098,0.0009501732834641527,-2.3557342850000156,0.0008587855679698597,1.572008204999959,0.7866218549999755,0.03999991985,0.0399999468,-9.821213174999906,0.014188386453021892,0.009886052749471838,0.001223864004965694,-0.022403722814926516,0.0008279792334762896
0.485,-5.4970889490698305e-05,-0.78440868000001,0.0009668228769608751,-2.3557268700000176,0.0008727840759671054,1.5720272299999551,0.7866332129999734,0.039999921,0.039999947699999996,-9.821248399999927,0.01429979205108051,0.010127529999436703,0.0012393888499639609,-0.02253313288062714,0.0008387307069750178
0.4875,-5.9035791240646557e-05,-0.78440430000001,0.0009839206974606575,-2.3557191750000177,0.0008871592299669223,1.572046774999955,0.7866448724999732,0.0399999225,0.03999994875,-9.821280499999926,0.014402375090631178,0.010373694999433568,0.0012551381749637605,-0.02266375254809594,0.0008496481224748788
0.49,-6.31006929905948e-05,-0.7843999200000101,0.0010010185179604397,-2.355711480000018,0.0009015343839667393,1.5720663199999547,0.786656531999973,0.039999924,0.0399999498,-9.821312599999926,0.014504958130181848,0.010619859999430435,0.00127088749996356,-0.022794372215564736,0.0008605655379747397
0.4925,-6.716559474054305e-05,-0.7843955400000102,0.001018116338460222,-2.355703785000018,0.0009159095379665563,1.5720858649999545,0.7866681914999729,0.0399999255,0.03999995084999999,-9.821344699999926,0.014607541169732516,0.0108660249994273,0.0012866368249633594,-0.022924991883033534,0.0008714829534746007
0.495,-7.123049649049129e-05,-0.7843911600000103,0.0010352141589600045,-2.355696090000018,0.0009302846919663733,1.5721054099999543,0.7866798509999727,0.039999927,0.0399999519,-9.821376799999925,0.014710124209283186,0.011112189999424166,0.0013023861499631589,-0.02305561155050233,0.0008824003689744618
0.4975,-7.529539824043954e-05,-0.7843867800000103,0.0010523119794597867,-2.3556883950000183,0.0009446598459661904,1.572124954999954,0.7866915104999725,0.0399999285,0.039999952949999994,-9.821408899999925,0.014812707248833854,0.011358354999421031,0.0013181354749629583,-0.02318623121797113,0.0008933177844743228
0.5,-7.936029999038778e-05,-0.7843824000000104,0.001069409799959569,-2.3556807000000184,0.0009590349999660072,1.5721444999999539,0.7867031699999725,0.039999929999999996,0.039999954,-9.821440999999924,0.014915290288384524,0.011604519999417896,0.001333884799962758,-0.023316850885439926,0.0009042351999741838
0.5025000000000001,-8.375547398955094e-05,-0.7843778850000107,0.0010879076949560232,-2.35567222500002,0.000974586459963028,1.57216557499995,0.78671581199997,0.0399999303,0.039999954899999995,-9.821465899999941,0.015018454892315528,0.011872356699363247,0.0013503609349608298,-0.023450773581544005,0.0009155246199731606
0.505,-8.815064798949488e-05,-0.7843733700000108,0.0011064055899557873,-2.35566375000002,0.0009901379199628297,1.5721866499999497,0.7867284539999698,0.039999930600000004,0.039999955799999994,-9.82149079999994,0.015121619496247901,0.01214019339935983,0.0013668370699606196,-0.023584696277655887,0.0009268140399730166
0.5075000000000001,-9.254582198943901e-05,-0.7843688550000109,0.001124903484955552,-2.3556552750000206,0.001005689379962632,1.5722077249999493,0.7867410959999697,0.0399999309,0.0399999567,-9.82151569999994,0.01522478410018028,0.012408030099356426,0.0013833132049604104,-0.023718618973767775,0.0009381034599728732
0.51,-9.694099598938296e-05,-0.7843643400000109,0.0011434013799553162,-2.3556468000000206,0.0010212408399624337,1.5722287999999491,0.7867537379999695,0.0399999312,0.0399999576,-9.82154059999994,0.015327948704112655,0.01267586679935301,0.0013997893399602002,-0.023852541669879657,0.0009493928799727292
0.5125,-0.0001013361699893269,-0.784359825000011,0.0011618992749550803,-2.3556383250000206,0.0010367922999622353,1.5722498749999487,0.7867663799999693,0.0399999315,0.039999958499999995,-9.82156549999994,0.015431113308045028,0.012943703499349594,0.00141626547495999,-0.023986464365991538,0.0009606822999725852
0.515,-0.00010573134398927104,-0.784355310000011,0.0011803971699548452,-2.3556298500000206,0.0010523437599620376,1.5722709499999485,0.7867790219999692,0.0399999318,0.0399999594,-9.82159039999994,0.015534277911977408,0.01321154019934619,0.0014327416099597806,-0.024120387062103427,0.0009719717199724418
0.5175,-0.0001102408804883731,-0.7843507535000114,0.0011993799699510396,-2.355621055000023,0.0010683027149588395,1.572292584999944,0.7867919924999666,0.0399999319,0.0399999599,-9.821612699999958,0.015628204401397276,0.01348206849932296,0.0014493830699583534,-0.024255756195295294,0.00098347274997074
0.52,-0.00011497914198831287,-0.7843461140000114,0.001219332579950786,-2.355611620000023,0.0010850766599586263,1.5723153399999439,0.7868056199999665,0.039999931600000004,0.0399999596,-9.821629799999958,0.01570365466158848,0.013757979999319452,0.0014663551799581377,-0.024394018202679033,0.0009953969999705885
0.5225,-0.00011971740348825245,-0.7843414745000115,0.0012392851899505316,-2.3556021850000235,0.0011018506049584125,1.5723380949999435,0.7868192474999662,0.039999931300000006,0.039999959300000006,-9.821646899999958,0.015779104921779676,0.014033891499315932,0.0014833272899579212,-0.024532280210062762,0.0010073212499704363
0.525,-0.0001244556649881922,-0.7843368350000116,0.001259237799950278,-2.3555927500000235,0.0011186245499581991,1.5723608499999433,0.7868328749999661,0.039999931,0.039999959,-9.821663999999958,0.015854555181970875,0.014309802999312426,0.0015002993999577055,-0.024670542217446502,0.0010192454999702848
0.5275,-0.0001291939264881318,-0.7843321955000117,0.0012791904099500235,-2.3555833150000236,0.0011353984949579853,1.572383604999943,0.7868465024999659,0.039999930700000005,0.039999958700000005,-9.821681099999957,0.015930005442162075,0.014585714499308906,0.001517271509957489,-0.02480880422483023,0.0010311697499701326
0.53,-0.00013393218798807158,-0.7843275560000117,0.00129914301994977,-2.3555738800000237,0.0011521724399577722,1.5724063599999427,0.7868601299999657,0.0399999304,0.0399999584,-9.821698199999958,0.016005455702353275,0.0148616259993054,0.0015342436199572733,-0.02494706623221397,0.001043093999969981
0.5325,-0.00013867044948801113,-0.7843229165000117,0.0013190956299495155,-2.355564445000024,0.0011689463849575582,1.5724291149999423,0.7868737574999656,0.039999930100000004,0.0399999581,-9.821715299999957,0.01608090596254447,0.01513753749930188,0.001551215729957057,-0.025085328239597703,0.001055018249969829
0.535,-0.00014364585498695368,-0.7843181830000122,0.0013400541299450346,-2.3555544300000264,0.0011865653699537934,1.572453029999937,0.7868880599999625,0.0399999295,0.039999958,-9.821753399999876,0.01619690116459991,0.015444356299174618,0.0015686097799549115,-0.02522583287172998,0.0010671950099684904
0.5375,-0.00014873983248674973,-0.7843134025000125,0.0013615155749441752,-2.355544125000027,0.0012046068749530711,1.5724775249999363,0.7869026999999619,0.039999928750000004,0.039999958,-9.821801999999874,0.01633316883781867,0.015766628749161717,0.0015862147999542065,-0.025367458816249307,0.0010794980249679979
0.54,-0.000153833809986546,-0.7843086220000126,0.0013829770199433168,-2.3555338200000273,0.0012226483799523495,1.5725020199999353,0.7869173399999614,0.039999928000000004,0.039999958,-9.821850599999872,0.016469436511037435,0.016088901199148825,0.0016038198199535025,-0.025509084760768644,0.0010918010399675058
0.5425,-0.00015892778748634204,-0.7843038415000128,0.0014044384649424576,-2.3555235150000278,0.001240689884951627,1.5725265149999343,0.7869319799999608,0.039999927250000004,0.039999958,-9.82189919999987,0.016605704184256196,0.016411173649135923,0.0016214248399527974,-0.025650710705287974,0.0011041040549670132
0.545,-0.00016402176498613833,-0.784299061000013,0.0014258999099415993,-2.355513210000028,0.0012587313899509057,1.5725510099999334,0.7869466199999602,0.039999926500000005,0.039999958,-9.821947799999867,0.01674197185747496,0.016733446099123035,0.0016390298599520934,-0.025792336649807308,0.001116407069966521
0.5475,-0.00016911574248593434,-0.7842942805000132,0.0014473613549407399,-2.3555029050000282,0.0012767728949501832,1.5725755049999324,0.7869612599999596,0.03999992575,0.039999958,-9.821996399999865,0.016878239530693718,0.01705571854911013,0.0016566348799513884,-0.025933962594326638,0.0011287100849660286
0.55,-0.00017420971998573063,-0.7842895000000134,0.0014688227999398815,-2.3554926000000287,0.0012948143999494616,1.5725999999999314,0.786975899999959,0.039999925,0.039999958,-9.822044999999862,0.017014507203912486,0.017377990999097242,0.0016742398999506844,-0.02607558853884597,0.0011410130999655365
0.5525,-0.00017967191448477855,-0.7842845710000137,0.00149184643493584,-2.355481440000031,0.001314168494946066,1.5726263249999266,0.7869916199999561,0.039999925,0.0399999583,-9.82207649999991,0.017121980525253714,0.017710335199073855,0.0016925000599491145,-0.026220666151089454,0.001153826474964293
0.555,-0.00018513410898485813,-0.7842796420000137,0.0015148700699361757,-2.3554702800000307,0.001333522589946348,1.5726526499999272,0.7870073399999564,0.039999925,0.0399999586,-9.822107999999913,0.01722945384651429,0.0180426793990787,0.0017107602199493807,-0.02636574376334261,0.0011666398499644798
0.5575,-0.0001905963034849375,-0.7842747130000135,0.0015378937049365102,-2.3554591200000305,0.0013528766849466292,1.5726789749999275,0.7870230599999566,0.039999925,0.0399999589,-9.822139499999913,0.017336927167774862,0.01837502359908353,0.001729020379949646,-0.026510821375595756,0.001179453224964666
0.56,-0.00019605849798501714,-0.7842697840000135,0.0015609173399368458,-2.3554479600000304,0.0013722307799469114,1.5727052999999278,0.7870387799999569,0.039999925,0.0399999592,-9.822170999999914,0.01744440048903544,0.018707367799088374,0.0017472805399499122,-0.02665589898784891,0.0011922665999648527
0.5625,-0.00020152069248509648,-0.7842648550000134,0.0015839409749371803,-2.3554368000000303,0.0013915848749471926,1.5727316249999284,0.787054499999957,0.039999925,0.0399999595,-9.822202499999914,0.01755187381029601,0.019039711999093205,0.0017655406999501774,-0.02680097660010206,0.001205079974965039
0.5650000000000001,-0.0002069828869851761,-0.7842599260000134,0.001606964609937516,-2.35542564000003,0.0014109389699474746,1.5727579499999287,0.7870702199999573,0.039999925,0.0399999598,-9.822233999999915,0.017659347131556587,0.01937205619909805,0.0017838008599504436,-0.026946054212355214,0.0012178933499652257
0.5675,-0.00021257193248417508,-0.7842549260000139,0.0016305264849332678,-2.3554141900000327,0.0014307453099439052,1.5727848849999237,0.7870863099999544,0.039999925,0.03999996,-9.822267799999896,0.01776749705866115,0.01971353559902563,0.0018022570799489498,-0.02709237849299529,0.0012309219949635463
0.5700000000000001,-0.00021841467998410082,-0.784249784000014,0.0016551648399329546,-2.3554021600000326,0.001451456139943642,1.5728130399999234,0.7871031399999542,0.039999925,0.03999996,-9.822306199999895,0.017877000197470162,0.020073285399021056,0.0018211054199487103,-0.02724119611043958,0.001244381179963375
0.5725,-0.0002242574274840263,-0.784244642000014,0.0016798031949326402,-2.355390130000033,0.0014721669699433778,1.572841194999923,0.7871199699999539,0.039999925,0.03999996,-9.822344599999894,0.01798650333627917,0.020433035199016465,0.00183995375994847,-0.027390013727883862,0.0012578403649632034
0.5750000000000001,-0.00023010017498395203,-0.7842395000000141,0.001704441549932327,-2.355378100000033,0.0014928777999431147,1.5728693499999227,0.7871367999999538,0.039999925,0.03999996,-9.822382999999896,0.018096006475088182,0.020792784999011892,0.0018588020999482304,-0.02753883134532815,0.0012712995499630324
0.5775,-0.0002359429224838775,-0.7842343580000142,0.001729079904932013,-2.3553660700000334,0.0015135886299428504,1.5728975049999223,0.7871536299999535,0.039999925,0.03999996,-9.822421399999895,0.01820550961389719,0.021152534799007305,0.00187765043994799,-0.027687648962772433,0.0012847587349628607
0.58,-0.00024178566998380298,-0.7842292160000143,0.0017537182599316986,-2.3553540400000332,0.0015342994599425862,1.572925659999922,0.7871704599999533,0.039999925,0.03999996,-9.822459799999894,0.0183150127527062,0.021512284599002715,0.0018964987799477495,-0.027836466580216716,0.001298217919962689
0.5825,-0.00024762841748372875,-0.7842240740000144,0.0017783566149313854,-2.3553420100000335,0.001555010289942323,1.5729538149999216,0.7871872899999531,0.039999925,0.03999996,-9.822498199999893,0.018424515891515215,0.021872034398998146,0.00191534711994751,-0.027985284197661005,0.0013116771049625179
0.585,-0.0002537329229825558,-0.784218804000015,0.0018041060399264087,-2.3553293600000362,0.0015766545699381419,1.5729832099999161,0.7872048799999497,0.0399999255,0.039999960999999994,-9.82252279999995,0.018510129675063002,0.02223510459897962,0.0019345727299456864,-0.028136825188566555,0.0013253974699612503
0.5875,-0.0002599683074824765,-0.784213470000015,0.0018304109999260744,-2.3553164000000364,0.0015987655749378608,1.5730132249999156,0.7872228499999495,0.03999992625,0.0399999625,-9.82254049999995,0.018583798780830267,0.022599834998974985,0.0019539869749454395,-0.028289727866219843,0.0013392484249610743
0.59,-0.00026620369198239696,-0.784208136000015,0.0018567159599257388,-2.3553034400000366,0.0016208765799375787,1.5730432399999152,0.7872408199999492,0.039999927,0.039999964,-9.82255819999995,0.018657467886597525,0.022964565398970335,0.001973401219945192,-0.028442630543873124,0.0013530993799608976
0.5925,-0.00027243907648231774,-0.7842028020000151,0.0018830209199254045,-2.3552904800000367,0.0016429875849372977,1.573073254999915,0.787258789999949,0.03999992775,0.0399999655,-9.822575899999949,0.01873113699236479,0.0233292957989657,0.001992815464944945,-0.02859553322152641,0.0013669503349607215
0.595,-0.0002786744609822382,-0.7841974680000152,0.001909325879925069,-2.355277520000037,0.0016650985899370157,1.5731032699999146,0.7872767599999488,0.0399999285,0.039999967,-9.82259359999995,0.01880480609813205,0.02369402619896105,0.0020122297099446976,-0.02874843589917969,0.0013808012899605448
0.5975,-0.00028490984548215897,-0.7841921340000152,0.0019356308399247346,-2.355264560000037,0.0016872095949367347,1.5731332849999142,0.7872947299999485,0.03999992925,0.0399999685,-9.822611299999949,0.018878475203899313,0.024058756598956413,0.002031643954944451,-0.028901338576832976,0.001394652244960369
0.6,-0.0002911452299820794,-0.7841868000000153,0.001961935799924399,-2.355251600000037,0.0017093205999364528,1.5731632999999139,0.7873126999999484,0.03999993,0.039999969999999996,-9.822628999999948,0.018952144309666574,0.024423486998951763,0.0020510581999442033,-0.029054241254486256,0.0014085031999601923
0.6025,-0.0002977852124808322,-0.7841812710000159,0.0019899584249191064,-2.35523760500004,0.0017328745899320062,1.5731953399999075,0.7873318309999447,0.0399999309,0.039999971499999995,-9.822686749999832,0.019099059793673993,0.024845099648782922,0.002070975034942506,-0.029210846777553257,0.0014228771149585066
0.605,-0.0003044251949807475,-0.784175742000016,0.002017981049918749,-2.3552236100000403,0.0017564285799317057,1.573227379999907,0.7873509619999445,0.0399999318,0.039999972999999994,-9.822744499999832,0.019245975277891913,0.025266712298777545,0.0020908918699422516,-0.029367452300630897,0.0014372510299583232
0.6075,-0.0003110651774806631,-0.7841702130000161,0.0020460036749183927,-2.3552096150000406,0.0017799825699314064,1.5732594199999066,0.7873700929999443,0.0399999327,0.03999997449999999,-9.822802249999832,0.01939289076210984,0.025688324948772188,0.0021108087049419985,-0.029524057823708538,0.0014516249449581405
0.61,-0.0003177051599805784,-0.7841646840000162,0.0020740262999180354,-2.355195620000041,0.001803536559931106,1.5732914599999064,0.787389223999944,0.039999933599999996,0.03999997599999999,-9.822859999999832,0.01953980624632776,0.02610993759876681,0.0021307255399417445,-0.02968066334678618,0.0014659988599579573
0.6125,-0.00032434514248049406,-0.7841591550000163,0.0021020489249176794,-2.355181625000041,0.0018270905499308066,1.573323499999906,0.7874083549999438,0.0399999345,0.03999997749999999,-9.82291774999983,0.019686721730545687,0.02653155024876145,0.0021506423749414914,-0.02983726886986382,0.0014803727749577746
0.615,-0.0003309851249804094,-0.7841536260000164,0.0021300715499173216,-2.3551676300000413,0.0018506445399305062,1.5733555399999055,0.7874274859999436,0.0399999354,0.03999997899999999,-9.82297549999983,0.019833637214763607,0.026953162898756072,0.0021705592099412374,-0.02999387439294146,0.0014947466899575912
0.6175,-0.00033776388297909136,-0.7841480180000171,0.002158683384911728,-2.3551533050000444,0.0018746935849258061,1.573388254999899,0.7874470199999397,0.039999936,0.03999998,-9.823023749999914,0.019969343207440846,0.02737802254872185,0.0021906927749390575,-0.030151539947364105,0.0015093398949554593
0.62,-0.00034482019197900135,-0.7841422520000172,0.002188473639911348,-2.3551383200000444,0.0018997327399254869,1.5734223199998987,0.7874673599999394,0.039999936,0.03999998,-9.823052999999913,0.02008263021673819,0.02780937619871635,0.0022112597999387955,-0.030311325564504978,0.0015243716799552675
0.6225,-0.00035187650097891167,-0.7841364860000173,0.0022182638949109694,-2.3551233350000444,0.0019247718949251685,1.5734563849998981,0.7874876999999393,0.039999936,0.03999998,-9.823082249999914,0.02019591722603554,0.028240729848710868,0.002231826824938534,-0.030471111181645857,0.0015394034649550763
0.625,-0.00035893280997882166,-0.7841307200000173,0.0022480541499105893,-2.355108350000045,0.0019498110499248493,1.5734904499998978,0.787508039999939,0.039999936,0.03999998,-9.823111499999913,0.020309204235332886,0.028672083498705366,0.0022523938499382718,-0.03063089679878673,0.0015544352499548848
0.6275000000000001,-0.00036598911897873197,-0.7841249540000174,0.002277844404910211,-2.355093365000045,0.001974850204924531,1.5735245149998973,0.7875283799999387,0.039999936,0.03999998,-9.823140749999911,0.020422491244630237,0.02910343714869988,0.00227296087493801,-0.030790682415927608,0.0015694670349546936
0.63,-0.00037304542797864196,-0.7841191880000175,0.002307634659909831,-2.3550783800000454,0.001999889359924212,1.5735585799998968,0.7875487199999385,0.039999936,0.03999998,-9.823169999999912,0.02053577825392758,0.02953479079869438,0.002293527899937748,-0.03095046803306848,0.0015844988199545018
0.6325000000000001,-0.0003801017369785523,-0.7841134220000175,0.0023374249149094523,-2.3550633950000455,0.0020249285149238935,1.5735926449998965,0.7875690599999382,0.039999936,0.03999998,-9.823199249999911,0.020649065263224933,0.0299661444486889,0.0023140949249374865,-0.03111025365020936,0.0015995306049543109
0.635,-0.0003874432929771563,-0.7841074950000183,0.002368426619903526,-2.3550477500000486,0.002050985309918915,1.5736280799998899,0.7875902259999341,0.039999936,0.039999980399999996,-9.823231899999895,0.02076267302001552,0.03041532249860179,0.0023349969399356907,-0.03127246592143954,0.0016148327699528813
0.6375000000000001,-0.0003949274724770612,-0.7841014875000184,0.0024000340499031243,-2.355031775000049,0.0020775509249185775,1.5736641999998893,0.7876118049999339,0.039999936,0.039999981,-9.823266249999895,0.02087644115055493,0.030873412748595966,0.0023560664499354227,-0.031435891519731,0.001630270124952685
0.64,-0.0004024116519769657,-0.7840954800000185,0.0024316414799027213,-2.355015800000049,0.0021041165399182386,1.573700319999889,0.7876333839999337,0.039999936,0.0399999816,-9.823300599999895,0.02099020928109433,0.031331502998590124,0.0023771359599351538,-0.03159931711802246,0.001645707479952488
0.6425,-0.0004098958314768703,-0.7840894725000186,0.002463248909902318,-2.3549998250000495,0.0021306821549178998,1.5737364399998883,0.7876549629999333,0.039999936,0.0399999822,-9.823334949999893,0.021103977411633737,0.03178959324858428,0.0023982054699348853,-0.031762742716313914,0.0016611448349522911
0.645,-0.00041738001097677517,-0.7840834650000187,0.0024948563399019162,-2.3549838500000497,0.002157247769917562,1.573772559999888,0.7876765419999331,0.039999936,0.0399999828,-9.823369299999893,0.021217745542173146,0.03224768349857846,0.0024192749799346173,-0.03192616831460538,0.001676582189952095
0.6475,-0.0004248641904766797,-0.7840774575000187,0.002526463769901513,-2.35496787500005,0.0021838133849172233,1.5738086799998874,0.7876981209999327,0.039999936,0.0399999834,-9.823403649999893,0.02133151367271255,0.03270577374857262,0.0024403444899343484,-0.032089593912896834,0.0016920195449518982
0.65,-0.00043234836997658457,-0.7840714500000188,0.002558071199901111,-2.3549519000000503,0.0022103789999168857,1.573844799999887,0.7877196999999325,0.039999936,0.039999984,-9.823437999999893,0.021445281803251958,0.033163863998566794,0.002461413999934081,-0.0322530195111883,0.001707456899951702
0.6525,-0.0004402717524748932,-0.7840651815000199,0.002591543969893935,-2.3549348750000543,0.0022385116799108562,1.5738830499998788,0.7877425599999276,0.0399999354,0.0399999834,-9.823446999999971,0.021521904971207723,0.03363414414850983,0.0024830094699315707,-0.032420199922687486,0.001723563569948963
0.655,-0.0004481951349745763,-0.7840589130000201,0.0026250167398925964,-2.3549178500000547,0.0022666443599097313,1.5739212999998773,0.7877654199999267,0.039999934800000005,0.0399999828,-9.823455999999972,0.02159852813904728,0.03410442429849102,0.0025046049399307067,-0.03258738033419843,0.0017396702399483188
0.6575,-0.00045611851747425907,-0.7840526445000203,0.0026584895098912564,-2.3549008250000556,0.0022947770399086046,1.5739595499998758,0.7877882799999257,0.039999934200000004,0.0399999822,-9.82346499999997,0.021675151306886832,0.03457470444847219,0.002526200409929842,-0.032754560745709364,0.001755776909947674
0.66,-0.0004640418999739422,-0.7840463760000206,0.0026919622798899177,-2.354883800000056,0.0023229097199074797,1.5739977999998742,0.7878111399999248,0.0399999336,0.0399999816,-9.82347399999997,0.021751774474726388,0.03504498459845338,0.0025477958799289785,-0.03292174115722031,0.0017718835799470298
0.6625,-0.000471965282473625,-0.7840401075000208,0.0027254350498885772,-2.354866775000057,0.002351042399906353,1.5740360499998727,0.7878339999999239,0.039999933,0.039999981000000004,-9.823482999999971,0.02182839764256594,0.03551526474843455,0.0025693913499281137,-0.03308892156873124,0.0017879902499463847
0.665,-0.00047988866497330806,-0.7840338390000211,0.0027589078198872385,-2.3548497500000574,0.002379175079905228,1.5740742999998711,0.7878568599999229,0.0399999324,0.0399999804,-9.82349199999997,0.021905020810405497,0.03598554489841574,0.00259098681992725,-0.03325610198024219,0.0018040969199457405
0.6675,-0.00048796214897160815,-0.7840274845000221,0.002793018199880022,-2.354832400000061,0.0024078434098991647,1.5741132799998627,0.7878801499999181,0.039999932,0.039999980399999996,-9.823517449999803,0.022007712255638315,0.03647518224820857,0.0026127651899249178,-0.03342440146895043,0.001820299704944411
0.67,-0.0004963358359717302,-0.784020958000022,0.0028284037998805374,-2.354814400000061,0.002437583039899598,1.5741537199998634,0.7879042999999184,0.039999932,0.03999998159999999,-9.823575799999803,0.022162540256454297,0.03700353399821627,0.0026349093599252406,-0.03359493911208752,0.00183669471994465
0.6725,-0.0005047095229718519,-0.7840144315000219,0.0028637893998810517,-2.3547964000000605,0.0024673226699000305,1.574194159999864,0.7879284499999188,0.039999932,0.03999998279999999,-9.823634149999805,0.02231736825727027,0.03753188574822395,0.0026570535299255626,-0.03376547675522459,0.0018530897349448882
0.675,-0.000513083209971974,-0.7840079050000218,0.0028991749998815673,-2.3547784000000602,0.002497062299900464,1.5742345999998646,0.7879525999999192,0.039999932,0.039999983999999995,-9.823692499999805,0.022472196258086254,0.03806023749823165,0.002679197699925885,-0.03393601439836167,0.001869484749945127
0.6775,-0.0005214568969720956,-0.7840013785000217,0.0029345605998820816,-2.35476040000006,0.002526801929900896,1.574275039999865,0.7879767499999195,0.039999932,0.0399999852,-9.823750849999806,0.02262702425890223,0.038588589248239324,0.002701341869926207,-0.03410655204149874,0.0018858797649453653
0.68,-0.0005298305839722176,-0.7839948520000217,0.0029699461998825972,-2.3547424000000596,0.0025565415599013296,1.5743154799998658,0.7880008999999198,0.039999932,0.03999998639999999,-9.823809199999806,0.022781852259718207,0.03911694099824703,0.0027234860399265298,-0.034277089684635824,0.0019022747799456042
0.6825,-0.0005382042709723393,-0.7839883255000216,0.003005331799883111,-2.3547244000000593,0.0025862811899017616,1.5743559199998662,0.7880250499999203,0.039999932,0.039999987599999995,-9.823867549999806,0.022936680260534182,0.03964529274825471,0.0027456302099268513,-0.034447627327772894,0.0019186697949458425
0.685,-0.0005468854059709447,-0.7839816250000223,0.0030420236798771832,-2.3547057000000624,0.002617118159896782,1.5743978599998596,0.7880501099999161,0.0399999328,0.039999988699999996,-9.823917999999846,0.02306846082170985,0.04018186149822187,0.002768125759925441,-0.03462079577090577,0.0019356039899434217
0.6875,-0.0005557202649710731,-0.7839748375000223,0.003079368699877726,-2.3546866500000623,0.002648503799897238,1.5744405499998602,0.7880756249999165,0.039999933999999994,0.03999998975,-9.823964499999848,0.023188717662894306,0.040722538748229724,0.00279079699992577,-0.034795279614056054,0.0019528077749436717
0.6900000000000001,-0.0005645551239712019,-0.7839680500000221,0.00311671371987827,-2.354667600000062,0.0026798894398976955,1.5744832399998607,0.7881011399999168,0.039999935199999996,0.039999990799999996,-9.824010999999848,0.02330897450407877,0.0412632159982376,0.0028134682399261006,-0.03496976345720635,0.001970011559943922
0.6925,-0.0005733899829713303,-0.7839612625000221,0.0031540587398788127,-2.3546485500000616,0.0027112750798981514,1.5745259299998615,0.7881266549999172,0.0399999364,0.03999999185,-9.82405749999985,0.02342923134526323,0.04180389324824546,0.0028361394799264303,-0.03514424730035663,0.0019872153449441723
0.6950000000000001,-0.000582224841971459,-0.783954475000022,0.003191403759879357,-2.3546295000000614,0.0027426607198986087,1.574568619999862,0.7881521699999176,0.03999993759999999,0.039999992899999996,-9.82410399999985,0.02354948818644769,0.04234457049825334,0.0028588107199267604,-0.03531873114350693,0.002004419129944423
0.6975,-0.0005910597009715874,-0.7839476875000219,0.0032287487798799,-2.3546104500000613,0.002774046359899065,1.5746113099998627,0.7881776849999179,0.039999938799999996,0.03999999395,-9.82415049999985,0.02366974502763215,0.0428852477482612,0.00288148195992709,-0.035493214986657216,0.0020216229149446732
0.7000000000000001,-0.0005998945599717161,-0.7839409000000218,0.003266093799880444,-2.3545914000000607,0.0028054319998995223,1.5746539999998634,0.7882031999999183,0.03999993999999999,0.039999995,-9.82419699999985,0.02379000186881661,0.043425924998269076,0.0029041531999274206,-0.035667698829807505,0.0020388266999449237
0.7025,-0.0006092013009698329,-0.783933829000023,0.0033054438998724495,-2.354571255000065,0.0028385017948928063,1.5746989399998543,0.788230049999913,0.0399999394,0.039999995,-9.824195800000004,0.02386652808611616,0.04397969499820499,0.0029272122649252556,-0.035845440439303725,0.0020564622299428354
0.705,-0.0006185080419694603,-0.7839267580000232,0.003344793999870874,-2.354551110000066,0.0028715715898914823,1.5747438799998525,0.7882568999999119,0.0399999388,0.039999995,-9.824194600000004,0.023943054303275712,0.044533464998182816,0.002950271329924332,-0.03602318204881037,0.002074097759942129
0.7075,-0.000627814782969088,-0.7839196870000235,0.0033841440998693,-2.354530965000067,0.00290464138489016,1.5747888199998508,0.7882837499999108,0.0399999382,0.039999995,-9.824193400000004,0.024019580520435267,0.04508723499816067,0.00297333039492341,-0.03620092365831703,0.0020917332899414243
0.71,-0.0006371215239687154,-0.7839126160000238,0.0034234941998677244,-2.3545108200000677,0.0029377111798888356,1.574833759999849,0.7883105999999097,0.0399999376,0.039999995,-9.824192200000004,0.024096106737594818,0.045641004998138494,0.0029963894599224867,-0.03637866526782368,0.002109368819940718
0.7125,-0.0006464282649683432,-0.7839055450000241,0.0034628442998661507,-2.3544906750000685,0.0029707809748875133,1.5748786999998472,0.7883374499999087,0.039999937,0.039999995,-9.824191000000004,0.024172632954754372,0.04619477499811635,0.0030194485249215646,-0.03655640687733033,0.0021270043499400128
0.715,-0.0006557350059679705,-0.7838984740000243,0.003502194399864575,-2.3544705300000692,0.0030038507698861893,1.5749236399998452,0.7883642999999076,0.0399999364,0.039999995,-9.824189800000005,0.024249159171913923,0.04674854499809418,0.0030425075899206413,-0.03673414848683698,0.0021446398799393066
0.7175,-0.0006652025079660082,-0.7838912970000257,0.003542227624856243,-2.3544500350000734,0.0030374949548791835,1.5749693649998358,0.7883916199999019,0.039999936,0.039999995,-9.824212299999758,0.02435565292777442,0.04732361474785518,0.003065770149917809,-0.03691317029234298,0.0021625060049363593
0.72,-0.0006749915319658833,-0.7838839080000257,0.0035836270998557147,-2.354428840000074,0.00307228791987874,1.5750166599998352,0.7884198799999015,0.039999936,0.039999995,-9.824282199999757,0.024522081761972202,0.0479412839978473,0.003089439699917507,-0.03709475248988761,0.002180833319936126
0.7225,-0.000684780555965759,-0.7838765190000259,0.0036250265748551886,-2.354407645000074,0.0031070808848782977,1.5750639549998344,0.7884481399999012,0.039999936,0.039999995,-9.824352099999755,0.024688510596169992,0.04855895324783945,0.003113109249917206,-0.037276334687432244,0.002199160634935893
0.725,-0.000694569579965634,-0.783869130000026,0.0036664260498546607,-2.3543864500000744,0.0031418738498778537,1.5751112499998339,0.7884763999999008,0.039999936,0.039999995,-9.824421999999755,0.024854939430367776,0.04917662249783157,0.003136778799916904,-0.03745791688497688,0.002217487949935659
0.7275,-0.0007043586039655096,-0.783861741000026,0.003707825524854134,-2.354365255000075,0.003176666814877412,1.5751585449998333,0.7885046599999005,0.039999936,0.039999995,-9.824491899999753,0.025021368264565566,0.049794291747823724,0.0031604483499166032,-0.03763949908252152,0.0022358152649354264
0.73,-0.0007141476279653848,-0.7838543520000262,0.0037492249998536064,-2.354344060000075,0.003211459779876968,1.5752058399998328,0.7885329199999,0.039999936,0.039999995,-9.824561799999753,0.025187797098763346,0.05041196099781584,0.0031841178999163014,-0.03782108128006614,0.0022541425799351925
0.7325,-0.0007239366519652603,-0.7838469630000263,0.0037906244748530803,-2.3543228650000754,0.0032462527448765257,1.5752531349998322,0.7885611799998997,0.039999936,0.039999995,-9.824631699999752,0.025354225932961136,0.051029630247807996,0.0032077874499160004,-0.03800266347761078,0.0022724698949349595
0.735,-0.0007340540139633814,-0.7838393400000276,0.003833419369845097,-2.3543008900000797,0.003282216729869826,1.575302039999823,0.7885903929998943,0.0399999356,0.0399999955,-9.824680499999864,0.025491523928503148,0.05165299869776967,0.003231717729914306,-0.038186565785940915,0.0022910082399335984
0.7375,-0.0007443355449632507,-0.7838316000000277,0.0038769119748445443,-2.35427852500008,0.0033187662248693613,1.5753517499998224,0.7886200824998939,0.039999935,0.03999999625,-9.824718749999864,0.02561425650448439,0.05227921674776171,0.003255778374914,-0.038371628149682355,0.0023096520999333616
0.74,-0.0007546170759631195,-0.7838238600000278,0.003920404579843989,-2.35425616000008,0.003355315719868895,1.5754014599998216,0.7886497719998935,0.039999934400000006,0.039999997,-9.824756999999863,0.025736989080465632,0.052905434797753725,0.003279839019913693,-0.038556690513423794,0.0023282959599331236
0.7425,-0.000764898606962989,-0.7838161200000279,0.003963897184843437,-2.3542337950000807,0.0033918652148684308,1.575451169999821,0.7886794614998931,0.039999933800000005,0.03999999775,-9.824795249999863,0.025859721656446875,0.05353165284774576,0.0033038996649133873,-0.038741752877165234,0.002346939819932887
0.745,-0.0007751801379628578,-0.783808380000028,0.004007389789842882,-2.3542114300000807,0.0034284147098679646,1.5755008799998205,0.7887091509998928,0.039999933200000004,0.0399999985,-9.824833499999862,0.025982454232428117,0.05415787089773778,0.0033279603099130805,-0.038926815240906666,0.002365583679932649
0.7475,-0.0007854616689627271,-0.783800640000028,0.004050882394842329,-2.354189065000081,0.0034649642048675,1.57555058999982,0.7887388404998924,0.0399999326,0.03999999925,-9.824871749999861,0.02610518680840936,0.05478408894772982,0.003352020954912775,-0.03911187760464811,0.0023842275399324118
0.75,-0.000795743199962596,-0.7837929000000282,0.004094374999841775,-2.354166700000081,0.003501513699867034,1.5756002999998193,0.788768529999892,0.039999932,0.04,-9.82490999999986,0.0262279193843906,0.05541030699772183,0.003376081599912468,-0.039296939968389545,0.002402871399932174
0.7525000000000001,-0.0008065272399606308,-0.7837848600000293,0.004140003259833425,-2.3541431800000856,0.0035398572848600197,1.5756524399998098,0.7887996804998862,0.039999931700000005,0.04,-9.824937449999899,0.0263545962045932,0.05606509284760958,0.003400558884910641,-0.03948505446246136,0.0024222307299293254
0.755,-0.0008173112799604933,-0.7837768200000295,0.004185631519832843,-2.354119660000086,0.0035782008698595305,1.575704579999809,0.7888308309998859,0.0399999314,0.04,-9.824964899999898,0.026481273024810147,0.05671987869760123,0.003425036169910329,-0.03967316895654427,0.002441590059929078
0.7575000000000001,-0.0008280953199603562,-0.7837687800000296,0.004231259779832263,-2.3540961400000864,0.0036165444548590434,1.5757567199998084,0.7888619814998855,0.039999931100000004,0.04,-9.8249923499999,0.026607949845027096,0.05737466454759291,0.003449513454910018,-0.03986128345062719,0.0024609493899288323
0.76,-0.0008388793599602187,-0.7837607400000297,0.004276888039831681,-2.3540726200000868,0.003654888039858554,1.5758088599998077,0.7888931319998851,0.03999993080000001,0.04,-9.825019799999898,0.02673462666524404,0.05802945039758455,0.0034739907399097057,-0.0400493979447101,0.002480308719928585
0.7625000000000001,-0.0008496633999600816,-0.7837527000000298,0.004322516299831101,-2.354049100000087,0.0036932316248580667,1.575860999999807,0.7889242824998847,0.0399999305,0.04,-9.8250472499999,0.02686130348546099,0.05868423624757623,0.0034984680249093947,-0.04023751243879302,0.0024996680499283393
0.765,-0.0008604474399599441,-0.7837446600000298,0.00436814455983052,-2.354025580000087,0.003731575209857578,1.5759131399998063,0.7889554329998844,0.039999930200000006,0.04,-9.825074699999899,0.026987980305677936,0.05933902209756788,0.0035229453099090823,-0.04042562693287593,0.002519027379928092
0.7675000000000001,-0.0008714022349578978,-0.7837365180000311,0.004414498699821823,-2.354001675000092,0.0037705284698502733,1.5759661049997966,0.7889870774998784,0.03999992950000001,0.03999999950000001,-9.825090300000031,0.02710005864470102,0.059999754697493066,0.0035475667199071598,-0.040614791213753214,0.002538625719925174
0.77,-0.0008826985399577537,-0.7837281720000312,0.004462304599821214,-2.3539770000000924,0.003810701079849761,1.5760207199997958,0.789019709999878,0.03999992800000001,0.03999999800000001,-9.82508220000003,0.02718294002084724,0.06067238079748449,0.003572476379906842,-0.0408060550682544,0.0025587020799249178
0.7725,-0.0008939948449576096,-0.7837198260000313,0.004510110499820604,-2.3539523250000927,0.003850873689849249,1.5760753349997951,0.7890523424998775,0.039999926500000005,0.0399999965,-9.82507410000003,0.027265821396993458,0.061345006897475914,0.0035973860399065244,-0.040997318922755585,0.0025787784399246617
0.775,-0.0009052911499574661,-0.7837114800000314,0.004557916399819996,-2.353927650000093,0.0038910462998487383,1.5761299499997943,0.7890849749998772,0.039999925000000006,0.039999995,-9.825066000000032,0.02734870277313968,0.06201763299746736,0.003622295699906208,-0.04118858277725678,0.0025988547999244065
0.7775,-0.000916587454957322,-0.7837031340000316,0.004605722299819387,-2.3539029750000933,0.003931218909848226,1.5761845649997936,0.7891176074998767,0.039999923500000006,0.039999993500000004,-9.825057900000031,0.027431584149285895,0.06269025909745879,0.00364720535990589,-0.04137984663175797,0.0026189311599241504
0.78,-0.0009278837599571784,-0.7836947880000317,0.004653528199818779,-2.3538783000000936,0.0039713915198477156,1.576239179999793,0.7891502399998763,0.03999992200000001,0.039999992000000005,-9.82504980000003,0.027514465525432116,0.06336288519745024,0.0036721150199055734,-0.041571110486259166,0.0026390075199238952
0.7825,-0.0009391800649570343,-0.7836864420000318,0.004701334099818169,-2.353853625000094,0.004011564129847203,1.5762937949997922,0.789182872499876,0.03999992050000001,0.039999990500000006,-9.825041700000032,0.027597346901578335,0.06403551129744166,0.0036970246799052555,-0.04176237434076035,0.002659083879923639
0.785,-0.0009508241599548999,-0.7836778600000333,0.004750618659809097,-2.3538281300000987,0.004052978799839582,1.5763501199997818,0.7892165149998697,0.039999919300000006,0.0399999898,-9.825081399999757,0.027742312475367206,0.06475342099717389,0.0037222173799033188,-0.04195579513833202,0.002679467699921624
0.7875,-0.0009626421499547491,-0.7836691600000333,0.004800642549808459,-2.3538022250000994,0.004095014499839046,1.576407299999781,0.7892506624998693,0.03999991825,0.0399999895,-9.825144999999756,0.027918320148509295,0.06549397249716445,0.0037475515999029958,-0.04215029440745739,0.002700005249921362
0.79,-0.0009744601399545989,-0.7836604600000334,0.004850666439807824,-2.3537763200000996,0.004137050199838512,1.5764644799997802,0.7892848099998688,0.039999917200000006,0.0399999892,-9.825208599999755,0.02809432782165139,0.06623452399715503,0.0037728858199026737,-0.042344793676582775,0.002720542799921101
0.7925,-0.0009862781299544482,-0.7836517600000336,0.004900690329807186,-2.3537504150001,0.004179085899837976,1.5765216599997796,0.7893189574998685,0.03999991615,0.0399999889,-9.825272199999754,0.028270335494793485,0.06697507549714558,0.0037982200399023507,-0.04253929294570815,0.002741080349920839
0.795,-0.000998096119954298,-0.7836430600000337,0.00495071421980655,-2.3537245100001,0.004221121599837441,1.5765788399997789,0.789353104999868,0.039999915100000005,0.0399999886,-9.825335799999754,0.02844634316793558,0.06771562699713617,0.0038235542599020286,-0.04273379221483353,0.0027616178999205782
0.7975,-0.0010099141099541473,-0.7836343600000337,0.005000738109805912,-2.3536986050001008,0.004263157299836905,1.5766360199997782,0.7893872524998675,0.03999991405,0.039999988300000004,-9.825399399999753,0.02862235084107767,0.06845617849712672,0.0038488884799017056,-0.04292829148395891,0.0027821554499203164
0.8,-0.0010217320999539971,-0.7836256600000339,0.005050761999805277,-2.353672700000101,0.004305192999836371,1.5766931999997775,0.7894213999998672,0.039999913000000005,0.039999988,-9.825462999999752,0.028798358514219767,0.06919672999711732,0.0038742226999013835,-0.04312279075308429,0.0028026929999200555
0.8025,-0.0010340811199517725,-0.7836166300000352,0.005103043599795821,-2.3536455200001063,0.004349125149828428,1.5767529599997667,0.7894570699998608,0.03999991255,0.039999988,-9.825486249999908,0.02893056543492296,0.06995003974705805,0.00389995134489952,-0.043320015258316844,0.0028238616449173287
0.805,-0.0010464301399516155,-0.7836076000000354,0.005155325199795157,-2.3536183400001067,0.00439305729982787,1.576812719999766,0.7894927399998602,0.0399999121,0.039999988,-9.825509499999908,0.029062772355455662,0.07070334949704847,0.003925679989899193,-0.04351723976356002,0.0028450302899170597
0.8075,-0.001058779159951458,-0.7835985700000355,0.00520760679979449,-2.353591160000107,0.00443698944982731,1.576872479999765,0.7895284099998598,0.03999991165,0.039999988,-9.825532749999908,0.029194979275988357,0.07145665924703887,0.003951408634898864,-0.04371446426880318,0.0028661989349167897
0.81,-0.0010711281799513012,-0.7835895400000357,0.0052598883997938255,-2.353563980000107,0.004480921599826751,1.5769322399997643,0.7895640799998593,0.0399999112,0.039999988,-9.825555999999908,0.029327186196521055,0.07220996899702929,0.003977137279898538,-0.04391168877404636,0.0028873675799165207
0.8125,-0.0010834771999511435,-0.7835805100000358,0.005312169999793158,-2.3535368000001076,0.004524853749826191,1.5769919999997635,0.7895997499998589,0.03999991075,0.039999988,-9.825579249999908,0.02945939311705375,0.07296327874701969,0.00400286592489821,-0.04410891327928952,0.0029085362249162507
0.8150000000000001,-0.0010958262199509867,-0.7835714800000358,0.005364451599792494,-2.353509620000108,0.004568785899825632,1.5770517599997627,0.7896354199998584,0.039999910300000004,0.039999988,-9.825602499999908,0.02959160003758645,0.07371658849701011,0.004028594569897882,-0.0443061377845327,0.0029297048699159817
0.8175,-0.0011083552599486788,-0.7835623320000374,0.005417498564782685,-2.353482050000113,0.004613360899817393,1.5771123849997517,0.7896716149998517,0.039999909800000004,0.039999988,-9.825622599999946,0.029724696464299528,0.0744813682468635,0.0040544659998958486,-0.04450422208676647,0.0029510751349133032
0.8200000000000001,-0.0011212443399485148,-0.7835529480000375,0.005472076259781991,-2.3534537000001134,0.004659221599816811,1.5771747399997509,0.7897088599998512,0.0399999092,0.039999988,-9.825636399999945,0.029859571903405224,0.07526908799685347,0.004080622999895516,-0.04470402598301227,0.0029728486399130264
0.8225,-0.0011341334199483505,-0.7835435640000377,0.005526653954781295,-2.3534253500001134,0.004705082299816225,1.57723709499975,0.7897461049998508,0.0399999086,0.039999988,-9.825650199999945,0.029994447342510912,0.07605680774684342,0.004106779999895183,-0.044903829879258055,0.0029946221449127486
0.8250000000000001,-0.0011470224999481867,-0.7835341800000377,0.005581231649780602,-2.353397000000114,0.004750942999815643,1.5772994499997492,0.7897833499998502,0.039999908,0.039999988,-9.825663999999945,0.03012932278161661,0.07684452749683342,0.00413293699989485,-0.04510363377550385,0.0030163956499124718
0.8275,-0.0011599115799480223,-0.7835247960000379,0.0056358093447799055,-2.3533686500001143,0.004796803699815057,1.5773618049997484,0.7898205949998498,0.03999990740000001,0.039999988,-9.825677799999944,0.030264198220722297,0.07763224724682337,0.004159093999894516,-0.04530343767174964,0.003038169154912194
