rsonawane2002/My_IMU/logs_2/traj_425/clean_425.csv
time,j1,j2,j3,j4,j5,j6,j7,gripper1,gripper2,imu_ax,imu_ay,imu_az,imu_gx,imu_gy,imu_gz,quat_x,quat_y,quat_z,quat_w
1923.7333333319125,0.00016700293,-0.785875,4.0107683e-05,-2.3551247,9.29385e-05,1.570997,0.786,0.04,0.04,0.0,-0.0,0.0,2.875329272945135e-08,-0.0011641195053377316,4.421952117202833e-08,0.9999995971961153,0.00020320632366974898,0.0008736418299892524,3.263050917662294e-05
1923.7499999985791,0.00016699645,-0.78576016,4.01122e-05,-2.3552213,9.2977905e-05,1.5709941,0.786,0.04,0.04,-0.29199845963907567,-2.5035052648037914e-05,0.02012841127694287,9.97338184355908e-07,-0.002239207598885066,4.0638002052233894e-07,0.9999996850575674,0.00020321270756062875,0.0007665025178786406,3.260753846756341e-05
1923.7666666652458,0.00016692533,-0.7856542,4.0099552e-05,-2.35531,9.30412e-05,1.5709913,0.786,0.04,0.04,0.02319697760158057,7.375790954684673e-05,-0.001602695792879416,8.64433200019359e-06,-0.003229071877427176,2.661561773016181e-06,0.9999997558748983,0.00020325710312631715,0.0006677376413335496,3.260576897307148e-05
1923.7833333319124,0.00016668146,-0.7855566,4.004192e-05,-2.355391,9.318165e-05,1.5709884,0.786,0.04,0.039999995,0.022263121452770207,0.00018640134030290336,-0.0014233652242845451,2.9051215196394382e-05,-0.004143405259570006,9.311959631969962e-06,0.9999998123216468,0.00020340339551300842,0.0005769895631586228,3.266150639697666e-05
1923.799999998579,0.00016610925,-0.78546655,3.9899536e-05,-2.355465,9.3439776e-05,1.5709856,0.786,0.04,0.04,0.020463057482689173,0.0003752057236762463,-0.0011157009458306888,6.76741699843697e-05,-0.0049865693011462275,1.96011790233328e-05,0.9999998568990109,0.00020374349168556874,0.0004935728219723114,3.2808789644606344e-05
1923.8166666652457,0.00016500954,-0.7853831,3.9621344e-05,-2.3555317,9.390592e-05,1.5709827,0.7860001,0.04,0.04,0.01947364602692403,0.0005883080213616115,-0.0005972643062124305,0.00013018704977266234,-0.005764622985062443,3.730951474280198e-05,0.9999998915957442,0.00020442484928739926,0.000417040363030903,3.3110668542417315e-05
1923.8333333319124,0.00016314468,-0.78530574,3.91465e-05,-2.3555923,9.467006e-05,1.570983,0.786002,0.04,0.04,0.018280073786480777,0.0008555289423004052,0.0016879509510125956,0.00022141776396417785,-0.006483894449270781,6.231180508439822e-05,0.9999999174756983,0.00020648197871472366,0.00034825640412353853,3.363430102546975e-05
1923.849999998579,0.00016024215,-0.7852337,3.8405204e-05,-2.3556495,9.584748e-05,1.5709836,0.7860039,0.04,0.04,0.011614080727140319,0.0011540667039332232,-0.00136500256697758,0.00033741381362138137,-0.007136409081205911,9.747548290118093e-05,0.9999999372306905,0.00020915203545082405,0.0002839128934193054,3.446027152664388e-05
1923.8666666652457,0.00015599864,-0.78516644,3.7319816e-05,-2.3557,9.7553784e-05,1.5709845,0.7860077,0.04,0.04,0.016759208403049897,0.001494496446691868,0.00040476677989342846,0.0004915235329951798,-0.007753873529704388,0.00014204715917250272,0.9999999511464045,0.00021356775296654392,0.00022544028424905237,3.5674668684334843e-05
1923.8833333319124,0.00015008324,-0.7851031,3.5805566e-05,-2.355744,9.991875e-05,1.5709853,0.78601193,0.04,0.04,0.01562865238844413,0.001863751846623154,0.0007740128564082127,0.0006790356180476564,-0.008323304928917337,0.00019750731542324826,0.9999999604480861,0.00021917955840790586,0.00017224252891083787,3.737189503989182e-05
1923.899999998579,0.00014214075,-0.78504264,3.3771474e-05,-2.355785,0.00010308176,1.5709863,0.78601766,0.04,0.04,0.008129012041302452,0.0022604915340128525,-0.0003005850940152044,0.0009106572765542834,-0.008850784334042244,0.000264646712898139,0.9999999660683047,0.00022673386951078332,0.00012199500010600148,3.965302029984039e-05
1923.9166666652457,0.00013179438,-0.78498507,3.112132e-05,-2.3558197,0.00010717972,1.5709887,0.7860253,0.039999995,0.04,0.014150566721182756,0.002688263023376507,0.002209086793891757,0.0011851060478885967,-0.009360456603890224,0.0003433522539973693,0.9999999681234059,0.00023666171035819185,7.69924435156598e-05,4.2621422470875155e-05
1923.9333333319123,0.00011864845,-0.78492934,2.775358e-05,-2.355848,0.00011237584,1.5709932,0.7860354,0.039999988,0.039999988,0.01366146090953091,0.003124121631065412,0.0034269406788300927,0.0015036610404345347,-0.009828704763624366,0.0004367756725328079,0.9999999671077962,0.00024949496294448067,3.720501682970472e-05,4.639457586552006e-05
1923.949999998579,0.00010229101,-0.78487474,2.356282e-05,-2.3558733,0.00011883377,1.570998,0.7860486,0.039999984,0.03999998,0.006593790303166536,0.0035829005923861635,0.000917127552901853,0.0018674365355539372,-0.01025845806777951,0.000543697890043586,0.9999999633845442,0.00026574529302629736,-3.475490633362457e-07,5.1090397369823895e-05
1923.9666666652456,8.229582e-05,-0.7848209,1.8439896e-05,-2.355893,0.0001267189,1.5710027,0.78606385,0.03999998,0.039999977,0.010579138398902899,0.0040599227975257205,0.0021199760922741007,0.0022763001418317948,-0.010677333455375661,0.0006637236228997753,0.9999999571187805,0.0002851876002922409,-3.465196829054489e-05,5.683054356675102e-05
1923.9833333319123,5.822472e-05,-0.78476727,1.22726715e-05,-2.3559062,0.00013620323,1.5710112,0.78608274,0.039999977,0.039999973,0.011900473327575156,0.0045491008875258865,0.0054275560208205675,0.0027382045978900788,-0.011076134875612008,0.0007980984837757206,0.9999999482297028,0.00030885571640882714,-6.392015271813496e-05,6.374129163393007e-05
1923.999999998579,2.962898e-05,-0.7847131,4.946202e-06,-2.3559153,0.00014746295,1.5710198,0.7861049,0.03999997,0.03999996,0.006735508214772423,0.0050507117198846496,0.0023131752117766524,0.0032480870960175153,-0.011441349396355494,0.000947997830052957,0.9999999365189233,0.00033683598426357696,-9.125153506783352e-05,7.195016873643176e-05
1924.0166666652456,-3.9481847e-06,-0.78465784,-3.6565064e-06,-2.3559191,0.00016067586,1.571032,0.7861309,0.039999966,0.039999958,0.008895004424225306,0.005562515914562024,0.005711074689562778,0.0038103665805215813,-0.011798793050906814,0.001111975825557846,0.99999992177272,0.000369666684000415,-0.00011464936543840899,8.158810997142612e-05
1924.0333333319122,-4.29709e-05,-0.78460085,-1.365417e-05,-2.3559167,0.00017602404,1.5710444,0.78616095,0.039999966,0.039999958,0.00865766430027115,0.0060815247420639516,0.003845933001067614,0.004424967949352369,-0.012134164257233977,0.0012910989954662848,0.9999999033544186,0.0004077411361860916,-0.00013575275368518267,9.278744162945855e-05
1924.0499999985789,-8.790854e-05,-0.78454185,-2.516715e-05,-2.3559089,0.0001936914,1.5710605,0.7861958,0.03999997,0.039999958,0.00824461950910127,0.00660772599874501,0.00635945232114743,0.00509336627835108,-0.012460967225271874,0.00148640062168197,0.9999998806406404,0.00045172446982585186,-0.00015328019179099232,0.00010568297539241774
1924.0666666652455,-0.00013923475,-0.78448015,-3.8316815e-05,-2.355896,0.00021386232,1.5710784,0.7862354,0.03999997,0.039999958,0.006105112760734777,0.007139453029181074,0.005095002693544792,0.005813373154132785,-0.012768007995760266,0.0016962769754106481,0.9999998525920389,0.000501837084489542,-0.00016875152866629588,0.0001204091463449696
1924.0833333319122,-0.00019742612,-0.7844152,-5.3225132e-05,-2.355877,0.00023672394,1.5710984,0.78628033,0.039999973,0.03999996,0.007584286108541782,0.007673989606820046,0.006234091294188282,0.006588210389967668,-0.01307096049901272,0.001921668855814888,0.9999998180293531,0.0005586885795759263,-0.00018168987494727684,0.0001371025931824591
1924.0999999985788,-0.00026296114,-0.78434646,-7.0014685e-05,-2.3558512,0.00026246402,1.5711222,0.78633094,0.039999973,0.039999958,0.008357144595350086,0.008211946396892508,0.007872839079459126,0.007416637921474862,-0.013364814747907447,0.0021634864351226506,0.9999997756612257,0.0006227110658965622,-0.00019132027480468517,0.00015590054271234554
1924.1166666652455,-0.00033631874,-0.7842736,-8.8808105e-05,-2.3558195,0.00029126916,1.5711484,0.78638756,0.039999973,0.039999958,0.00636837893099873,0.008751135752086168,0.0068646891607127,0.008298716072972863,-0.01364487527126203,0.002420018422364604,0.9999997235179711,0.0006943666475651513,-0.00019877509505632478,0.00017693897684489918
1924.1333333319121,-0.0004179784,-0.78419596,-0.0001097283,-2.3557813,0.00032332714,1.5711764,0.78645045,0.039999977,0.03999996,0.006160531571874905,0.009291237625721378,0.0069494186483387566,0.009234714031813498,-0.01391973627813983,0.0026920959844201693,0.9999996594293973,0.0007740582169980682,-0.00020453100710309308,0.00020035476819821668
1924.1499999985788,-0.00050841825,-0.7841133,-0.00013289767,-2.3557363,0.00035882546,1.5712079,0.7865201,0.039999977,0.039999958,0.007300401438770088,0.009831500511959138,0.00850738470650203,0.01022540967565516,-0.01419660778642956,0.002980535297555948,0.9999995810350796,0.0008623371093465227,-0.00020760435960500502,0.0002262847875930347
1924.1666666652454,-0.0006081147,-0.784025,-0.00015843831,-2.3556845,0.00039794997,1.5712432,0.7865969,0.03999998,0.03999996,0.006348368184938558,0.010371170193715359,0.00900219429900151,0.011269304902310501,-0.01446595850463122,0.0032835427228412005,0.9999994853921071,0.000959634541879982,-0.00020823333437856235,0.00025486456293367173
1924.183333331912,-0.00071754155,-0.7839306,-0.00018647187,-2.3556259,0.00044088683,1.5712823,0.7866812,0.03999998,0.039999958,0.0061590985233950235,0.010908315263890097,0.009410608735671566,0.012366800368931693,-0.014729313935764331,0.0036027387291173614,0.9999993690541817,0.0010664399203713264,-0.00020656667524037437,0.0002862295288489077
1924.1999999985787,-0.0008371698,-0.78382945,-0.00021711866,-2.35556,0.0004878195,1.5713252,0.7867732,0.039999984,0.03999996,0.00590368067712177,0.011444135434543036,0.009852322116343792,0.01351714405914541,-0.014991133860520827,0.003936273828392614,0.9999992281511245,0.001183151521345808,-0.0002027828541643128,0.00032051325553841023
1924.2166666652454,-0.0009674669,-0.7837216,-0.00025049862,-2.3554862,0.00053893164,1.5713718,0.78687346,0.039999984,0.039999958,0.007551099988090115,0.011976768787294468,0.010155440386627745,0.014720650414045144,-0.015251442410046785,0.004285740172657104,0.9999990582551125,0.001310284800485829,-0.00019643447510582675,0.0003578493074979052
1924.233333331912,-0.0011088958,-0.7836066,-0.00028673038,-2.3554046,0.000594404,1.5714222,0.7869822,0.039999988,0.03999996,0.006183732383546747,0.012506039915579324,0.010329770678230155,0.01597620555089699,-0.015506649829868765,0.004649252396478069,0.9999988542939864,0.0014482336856793676,-0.00018796811492854108,0.0003983690426152198
1924.2499999985787,-0.0012619146,-0.78348374,-0.00032593147,-2.3553143,0.00065441587,1.5714768,0.78709984,0.039999988,0.039999958,0.007661438994022163,0.013033347817180407,0.011465477943062297,0.017284103746172744,-0.015762919139788417,0.005028353012207752,0.9999986105625506,0.0015975086424861447,-0.00017690645879125572,0.00044220268012228536
1924.2666666652453,-0.0014269762,-0.7833528,-0.00036821782,-2.355216,0.00071914465,1.5715353,0.78722674,0.03999999,0.03999996,0.005633891521705792,0.013552762907688715,0.01102280122797783,0.01864258753395012,-0.016014830195583696,0.005421121050504583,0.999998320547249,0.0017585275741650054,-0.00016399398698833947,0.000489478727530136
1924.283333331912,-0.0016045284,-0.78321284,-0.00041370417,-2.355109,0.0007887671,1.5715989,0.78736323,0.03999999,0.039999958,0.006602377682574101,0.014072335607565704,0.0127519086130512,0.020051818693425087,-0.016271345888766227,0.005829086610044845,0.9999979771703289,0.0019317358409969751,-0.000148663816818276,0.0005403248656588363
1924.2999999985786,-0.0017950137,-0.7830642,-0.00046250384,-2.3549936,0.00086345425,1.571667,0.78750956,0.039999995,0.03999996,0.005968845077997109,0.01458541598175397,0.012007391645973975,0.02151094206788322,-0.01652502047341628,0.006250300730205135,0.9999975725161707,0.0021175155932854875,-0.0001312430238778507,0.000594865317952927
1924.3166666652453,-0.0019988664,-0.7829062,-0.0005147284,-2.3548696,0.0009433775,1.5717396,0.7876663,0.04,0.03999996,0.005645623627792418,0.015091527528926733,0.012478934612447645,0.02301951610888973,-0.016782314673834245,0.006686233016709399,0.9999970974706588,0.002316423668306805,-0.000111939498084007,0.0006532236947438505
1924.333333331912,-0.0022165156,-0.7827384,-0.00057048793,-2.3547366,0.0010287053,1.571817,0.7878336,0.04,0.03999996,0.0061043590736220565,0.015595185138921686,0.013188667506502938,0.02457602096381584,-0.017044328588247046,0.007135489506777389,0.9999965426324464,0.0025287455612688055,-9.054364921465547e-05,0.0007155214095364864
1924.3499999985786,-0.0024483842,-0.78256047,-0.0006298906,-2.354594,0.0011196018,1.5719,0.7880118,0.04,0.039999966,0.00670431096099211,0.01609681516656707,0.014041612314086294,0.026180834176733742,-0.01730826715616498,0.00759783501533619,0.9999958971658027,0.002754972156280772,-6.669691259840701e-05,0.0007818769093392776
1924.3666666652452,-0.0026948866,-0.78237224,-0.0006930428,-2.354441,0.001216229,1.5719879,0.7882012,0.04,0.03999996,0.007934979713697388,0.016588945226220213,0.014118714946365074,0.027832463171690885,-0.0175728919445316,0.008074058642084036,0.9999951494575655,0.0029954697860159842,-4.0308766746442773e-05,0.0008524067724339538
1924.383333331912,-0.0029564314,-0.7821732,-0.0007600491,-2.354278,0.0013187489,1.5720812,0.7884022,0.04,0.03999996,0.006376301411470386,0.01707494657411641,0.01450115207113356,0.029530025069657066,-0.01783728374698038,0.008562706440964884,0.999994286639952,0.0032506617738824856,-1.167606181302329e-05,0.0009272265930312371
1924.3999999985786,-0.0032334174,-0.78196305,-0.0008310122,-2.3541055,0.0014273166,1.57218,0.78861505,0.04,0.03999996,0.005975948724268321,0.017555884630048885,0.014692806840388428,0.03127343341478988,-0.018104712030260033,0.009063508374410213,0.9999932948317722,0.003520936269686645,1.9023690290460325e-05,0.0010064479024290759
1924.4166666652452,-0.0035262383,-0.78174156,-0.00090603245,-2.3539224,0.0015420865,1.5722846,0.78884006,0.04,0.039999958,0.007064624552555188,0.018033517395026257,0.015281806070976955,0.03306107860106311,-0.018376709483692938,0.00957715651600358,0.9999921589627176,0.003806677879782687,5.2179335517377204e-05,0.0010901806820259896
1924.4333333319119,-0.0038352786,-0.78150845,-0.000985209,-2.3537288,0.0016632095,1.572395,0.7890776,0.04,0.039999954,0.0067673845289606405,0.01850387975977771,0.015526599418569376,0.034892431048236805,-0.018650649175006404,0.010102709943142784,0.9999908625922999,0.004108296611251875,8.770296415027659e-05,0.0011785325842888833
1924.4499999985785,-0.004160915,-0.7812631,-0.0010686384,-2.353524,0.0017908337,1.5725112,0.7893278,0.04,0.039999943,0.007316972914162001,0.01897018762277566,0.016172367423439304,0.03676648768243633,-0.01892801949009805,0.010640039533911152,0.9999893883372397,0.0044261083833028085,0.00012565590112760812,0.0012716084645251048
1924.4666666652452,-0.0045035174,-0.78100544,-0.0011564152,-2.3533087,0.0019251021,1.5726333,0.789591,0.04,0.039999943,0.005963362277983109,0.019427458922646138,0.015903010083007096,0.03868269015646972,-0.019206616917245962,0.011188635764594595,0.9999877173216244,0.0047604849096645925,0.00016562269927384332,0.0013695102896262327
1924.4833333319118,-0.0048634466,-0.7807353,-0.0012486319,-2.3530817,0.0020661568,1.5727617,0.78986746,0.04,0.039999936,0.008002813558039001,0.01988567384050271,0.016846311446627737,0.04064027370608625,-0.01949346980991533,0.011748141035113846,0.9999858292385584,0.005111763016320402,0.0002083801754426054,0.0014723378146159272
1924.4999999985785,-0.005241056,-0.78045225,-0.0013453788,-2.3528435,0.0022141372,1.5728965,0.79015744,0.04,0.039999936,0.006694481103863836,0.020332300172872745,0.016973407919373962,0.042638151503594644,-0.01977980806671078,0.0123189464088058,0.9999837023587772,0.00548030571276281,0.00025351315136275016,0.0015801889789957935
1924.516666665245,-0.005636688,-0.7801561,-0.0014467443,-2.3525932,0.0023691766,1.5730376,0.7904613,0.04,0.039999936,0.008072639705702933,0.020775948743080933,0.0173967422377741,0.044675770450425326,-0.0200695360898444,0.012899554954617105,0.9999813131233545,0.005866498921505837,0.0003013515866250708,0.001693157321989019
1924.5333333319118,-0.006050679,-0.7798464,-0.0015528146,-2.3523319,0.002531406,1.5731852,0.79077935,0.04,0.03999993,0.005612960374490328,0.02120867906805308,0.017165545620123623,0.04675155798895178,-0.020361067240490575,0.013490817007161815,0.9999786368320538,0.006270696667631554,0.000351152735778299,0.0018113350231972502
1924.5499999985784,-0.006483356,-0.779523,-0.0016636733,-2.3520575,0.0027009551,1.5733397,0.79111165,0.04,0.03999993,0.00927223484852302,0.021650241666424652,0.018533341837212447,0.04886437012020182,-0.020662190283144366,0.01409206360911016,0.9999756473041158,0.006693127210132922,0.0004041709735681415,0.0019348107627059363
1924.566666665245,-0.006935039,-0.77918595,-0.0017794032,-2.3517714,0.002877949,1.573501,0.7914585,0.04,0.039999925,0.006727918640403452,0.022068735614630963,0.017811461527283967,0.05101426019480605,-0.020959817941671025,0.014702905487816354,0.9999723166845906,0.007134135241041914,0.0004596042706809753,0.002063672146824996
1924.5833333319117,-0.007406039,-0.77883434,-0.0019000833,-2.351473,0.0030625088,1.573669,0.7918201,0.04,0.039999917,0.006563843115237056,0.022492295673067972,0.01838693120179702,0.053200441702816695,-0.021262190685044993,0.015322903479974486,0.9999686154953086,0.007594030332019691,0.0005172170483140174,0.0021980023286978898
1924.5999999985784,-0.007896656,-0.77846855,-0.0020257907,-2.3511612,0.0032547524,1.573844,0.792197,0.04,0.03999992,0.009498476460767513,0.022913544372400035,0.019068979677894227,0.05542121584522379,-0.021572521019177417,0.015952133431149332,0.9999645108798715,0.008073234166029217,0.0005780849044759568,0.002337881246576286
1924.616666665245,-0.008407184,-0.778088,-0.0021566018,-2.3508372,0.0034547958,1.5740262,0.792589,0.04,0.039999917,0.006468363409695144,0.023318239654879225,0.018913583476387608,0.05767496449832023,-0.02188035196780979,0.016589626418631907,0.9999599714714186,0.008571869584224264,0.0006413173220013111,0.002483388572770413
1924.6333333319117,-0.00893791,-0.7776927,-0.002292589,-2.3505008,0.0036627492,1.5742154,0.7929966,0.04,0.03999992,0.006815895627099167,0.02372269135329768,0.01869189494345669,0.05996253268108914,-0.02219370182415613,0.017234454546857028,0.9999549616107102,0.009090321596622814,0.0007068876101981139,0.002634599267364222
1924.6499999985783,-0.009489109,-0.7772823,-0.0024338232,-2.3501508,0.0038787222,1.5744117,0.79341984,0.04,0.039999913,0.008509700673520193,0.02412866325126207,0.019579280269876875,0.06228176539739272,-0.022514735557292415,0.01788799060023214,0.99994944459171,0.00962881947761606,0.0007753358399295489,0.0027915856665185626
1924.666666665245,-0.010061045,-0.77685654,-0.0025803724,-2.3497875,0.004102819,1.5746156,0.7938591,0.04,0.039999913,0.00787400921404835,0.02452267425888579,0.01987557187212996,0.06463264221579973,-0.02283836561324119,0.018549105131449514,0.9999433810645839,0.01018770793719322,0.0008465760791956595,0.0029544172110556716
1924.6833333319116,-0.010653979,-0.77641547,-0.0027323037,-2.3494108,0.0043351394,1.5748268,0.79431444,0.04,0.03999991,0.007890284322908947,0.024912274907444056,0.019718972113969002,0.06701267687182162,-0.023163238077462338,0.019217546619231855,0.999936731451012,0.010767148768339717,0.0009205826848875913,0.0031231602564105137
1924.6999999985783,-0.011268165,-0.7759586,-0.002889682,-2.349021,0.0045757857,1.575046,0.79478604,0.04,0.039999913,0.007091390655689089,0.025302979648721136,0.020202116737477738,0.06942279923701314,-0.02349267980123067,0.0198928646518274,0.9999294531181276,0.0113674217008408,0.0009972404674603826,0.0032978814726188923
1924.716666665245,-0.01190384,-0.7754858,-0.003052569,-2.3486173,0.0048248507,1.5752729,0.7952743,0.04,0.039999902,0.008161365117320685,0.025685077454532315,0.020554760975288744,0.07186126298075048,-0.023827446335073048,0.02057475877604456,0.9999214999650078,0.011988884804965887,0.0010768512998841182,0.003478640559206135
1924.7333333319116,-0.012561241,-0.7749968,-0.0032210236,-2.3481994,0.005082426,1.5755076,0.7957791,0.04,0.039999902,0.008587463646980709,0.02606739144482787,0.02081121093995275,0.07432652574445968,-0.02416430130554137,0.0212629340859236,0.9999128274832908,0.01263159739316375,0.0011594500352354502,0.0036654955031067598
1924.7499999985782,-0.013240592,-0.7744919,-0.003395105,-2.347767,0.0053485986,1.5757501,0.79630077,0.04,0.0399999,0.008905735916320268,0.026436599029459537,0.020600063426878812,0.07681909653630511,-0.02450337391398654,0.02195710548809092,0.9999033858497731,0.013295880195933328,0.001245190007633106,0.003858502017619592
1924.7666666652449,-0.013942109,-0.7739705,-0.0035748677,-2.3473206,0.005623454,1.5760005,0.7968394,0.04,0.0399999,0.008261764820272077,0.02680737567108335,0.020985056580435923,0.07933709165070663,-0.024842592003740886,0.02265694364766285,0.9998931249900163,0.013981932533921501,0.0013338377243329567,0.004057713302074455
1924.7833333319115,-0.014666,-0.7734324,-0.0037603658,-2.34686,0.005907074,1.5762589,0.7973952,0.04,0.03999989,0.0077151983072232255,0.027169313078668697,0.021111676365292986,0.08187999149013693,-0.02518603613329495,0.02336203712208253,0.9998819922154124,0.014689977447043215,0.0014253087709038726,0.00426317966437317
1924.7999999985782,-0.015412466,-0.7728776,-0.00395165,-2.346385,0.006199538,1.5765252,0.79796845,0.04,0.039999887,0.008027548242139915,0.02752540580645453,0.020994268507457114,0.08444701594359655,-0.0255330243087279,0.02407213827701859,0.999869932095291,0.01542026299750283,0.0015196081930612016,0.004474949361238475
1924.8166666652448,-0.016181692,-0.772306,-0.0041487683,-2.3458955,0.006500918,1.5767994,0.79855907,0.04,0.039999884,0.008348634818466927,0.027876136768636983,0.021086205224496446,0.08703656171094654,-0.025883779923440695,0.024786800690346066,0.9998568887386973,0.01617291066198612,0.0016168311297434024,0.004693065052764095
1924.8333333319115,-0.016973866,-0.7717176,-0.00435177,-2.3453915,0.00681129,1.5770822,0.7991673,0.04,0.039999887,0.008424802703865808,0.028241178510486978,0.021634464195319225,0.08964836009889249,-0.02623964867569193,0.025505779747085983,0.9998428022504687,0.016948133625843888,0.0017172811710804774,0.004917570529230372
1924.8499999985781,-0.017789165,-0.771112,-0.004560699,-2.344873,0.0071307183,1.5773731,0.7997933,0.04,0.039999895,0.007956890155957907,0.02858792635509616,0.021484381011238618,0.09228165931679908,-0.026596456963537324,0.02622827757634924,0.999827611013422,0.017746167331037087,0.001820636069144965,0.0051485031374188354
1924.8666666652448,-0.01862775,-0.7704891,-0.004775599,-2.3443396,0.007459272,1.5776726,0.8004372,0.04,0.03999995,0.008217796991094595,0.02893111868162851,0.021815255867951855,0.09493509443612011,-0.026956605879468677,0.02695625310849463,0.9998112519118232,0.01856715104213625,0.0019270510215539719,0.005385900765104551
1924.8833333319114,-0.019489778,-0.7698489,-0.0049965093,-2.3437912,0.007797008,1.5779799,0.80109906,0.04,0.03999995,0.008479051732535048,0.029260106269756586,0.021386742561713135,0.09760784662679332,-0.027319300304542382,0.02768625791958952,0.9997936603121025,0.019411217287809156,0.002036383412520658,0.0056297944661526005
1924.899999998578,-0.020375408,-0.76919115,-0.0052234693,-2.3432276,0.008143987,1.5782961,0.801779,0.04,0.03999995,0.00890018310870655,0.02962827922421453,0.022278691749022528,0.10029943810383876,-0.0276871004702378,0.028419258332533368,0.9997747673397064,0.02027853464861252,0.0021491165448162407,0.0058802144023699845
1924.9166666652447,-0.02128477,-0.7685158,-0.0054565147,-2.342649,0.008500268,1.5786207,0.80247706,0.04,0.039999947,0.008290059714499698,0.02993047790102836,0.021876236343820743,0.1030091977530728,-0.028055102246885864,0.0291550455156847,0.9997545037169561,0.021169253057288184,0.0022649292009818763,0.006137191407621512
1924.9333333319114,-0.022218006,-0.7678226,-0.0056956797,-2.342055,0.0088659,1.5789536,0.80319357,0.04,0.03999994,0.008298602194023452,0.030272781857770478,0.02199978873833608,0.10573584765122238,-0.02842629259007509,0.029893241254771403,0.9997327959651156,0.022083588341192863,0.0023837384200490574,0.006400749088509657
1924.949999998578,-0.023175232,-0.7671117,-0.0059409966,-2.341446,0.009240933,1.579295,0.80392885,0.04,0.03999994,0.008513652397068583,0.030586319069745085,0.02191785096976595,0.10847827697018803,-0.02880112460636832,0.03063339900485621,0.9997095663402842,0.02302180275132602,0.0025056993174887333,0.006670909737814185
1924.9666666652447,-0.024156582,-0.76638305,-0.0061924946,-2.3408213,0.0096254125,1.5796452,0.8046821,0.04,0.039999936,0.008904122099240297,0.03093039956711431,0.022165428611153892,0.11123399643231958,-0.029178527681921047,0.03137538735939374,0.9996847481181578,0.023983570220627106,0.002631030862591677,0.006947691415690146
1924.9833333319114,-0.025162153,-0.7656363,-0.006450204,-2.3401814,0.0100193815,1.5800039,0.8054542,0.04,0.039999936,0.008097176916965765,0.03123283872889758,0.022066902467710037,0.11400687501682305,-0.02955678184328825,0.032118800530245246,0.9996582533998087,0.024969442646463665,0.002759409743459984,0.007231113429930717
1924.999999998578,-0.026192049,-0.7648716,-0.00671415,-2.339526,0.010422883,1.5803711,0.80624485,0.04,0.039999932,0.008543712892761235,0.031544974583410865,0.02206425568651582,0.11679181859719645,-0.02993917753595129,0.032863404546966034,0.9996300060724298,0.025979315070115184,0.002890994126255423,0.007521190137441351
1925.0166666652447,-0.02724636,-0.7640889,-0.0069843587,-2.3388548,0.010835949,1.5807474,0.80705446,0.04,0.039999932,0.009104792664005323,0.0318704522296924,0.02232426404296106,0.11959023211625397,-0.030323760582119108,0.033609470973889236,0.999599917555933,0.02701346654633962,0.00302611836140839,0.007817931630844216
1925.0333333319113,-0.028325176,-0.76328784,-0.0072608492,-2.3381681,0.011258617,1.5811323,0.8078827,0.04,0.039999932,0.008053456024459393,0.032169206699080716,0.022232170847491517,0.12239922955628402,-0.03070747396760843,0.03435495105479937,0.9995679086484145,0.02807181553902254,0.003164315048599554,0.008121347354430394
1925.049999998578,-0.029428583,-0.7624687,-0.0075436435,-2.337466,0.011690916,1.5815258,0.8087298,0.04,0.039999925,0.00839037577575752,0.03247178702909109,0.02185343102618642,0.12522047454909468,-0.031095665082862513,0.03510141417217799,0.9995338900053902,0.029154515065747146,0.0033057112209778626,0.008431444437185076
1925.0666666652446,-0.03055664,-0.7616311,-0.00783276,-2.336748,0.012132875,1.5819284,0.8095958,0.04,0.03999993,0.00885328006585695,0.03278977311583428,0.022576146038821854,0.12805178438651074,-0.03148622185737791,0.03584760856472286,0.9994977711858718,0.030261649382563836,0.0034505834559229853,0.008748225244870126
1925.0833333319113,-0.031709414,-0.7607754,-0.008128216,-2.336014,0.012584518,1.5823396,0.81048083,0.04,0.03999993,0.008774044354065147,0.03306668744811128,0.021872617659068894,0.13089277013352968,-0.03187702719685114,0.03659360607495085,0.9994594596660463,0.031393329845203,0.0035988506572496117,0.009071692192291553
1925.099999998578,-0.032886963,-0.7599009,-0.008430024,-2.335264,0.013045865,1.5827596,0.81138474,0.04,0.039999925,0.008742397782701694,0.03338619912369098,0.022407319006867432,0.13374212008333392,-0.03226941695212165,0.037338957667758736,0.999418864524671,0.032549548207642186,0.003750403152508851,0.009401841303143343
1925.1166666652446,-0.03408934,-0.7590082,-0.008738198,-2.3344982,0.013516944,1.5831887,0.81230783,0.04,0.03999992,0.008620908100187563,0.03366739627818985,0.022052559634389013,0.13659988642035015,-0.03266367496118454,0.03808350455399909,0.9993758847110904,0.03373050090578092,0.003905457354680386,0.009738673904654658
1925.1333333319112,-0.03531658,-0.75809735,-0.009052747,-2.333717,0.013997762,1.5836263,0.81325006,0.04,0.039999925,0.007687830941449647,0.033908689969904676,0.021350602886260894,0.139464060277913,-0.033058861138654694,0.03882665343973555,0.9993304256488216,0.03493618947423085,0.004063575695398101,0.01008218181414427
1925.1499999985779,-0.03656873,-0.75716776,-0.00937368,-2.3329203,0.014488336,1.5840731,0.8142113,0.04,0.039999917,0.008047295068114302,0.034262249594251004,0.022215267000968986,0.1423343861439831,-0.033457492826272715,0.03956815892935307,0.9992823883439284,0.03616660627357933,0.004225036549027541,0.010432353639793491
1925.1666666652445,-0.037845794,-0.7562195,-0.009701004,-2.3321075,0.014988674,1.5845287,0.8151918,0.04,0.039999917,0.008370169512494918,0.03450057437079587,0.021920097374028558,0.1452106016258195,-0.03385791787568887,0.0403080099169526,0.9992316676721118,0.03742188441294717,0.004389818329655439,0.010789178987616426
1925.1833333319112,-0.039147805,-0.7552531,-0.010034726,-2.3312786,0.015498786,1.5849932,0.8161914,0.04,0.039999913,0.009323880705114362,0.034798355911421636,0.021731961050908133,0.14809064214976495,-0.03426045580393026,0.04104584471539418,0.9991781611208316,0.038701968253778585,0.004558349007870575,0.011152643040976812
1925.1999999985778,-0.04047476,-0.75426793,-0.010374848,-2.3304338,0.01601868,1.5854667,0.8172101,0.04,0.03999996,0.007859193431847267,0.03504757665449554,0.02171723780688417,0.15097533036860375,-0.03466064105643308,0.04178294264808588,0.9991217643236865,0.04000690634020185,0.004730131450775996,0.011522732152950669
1925.2166666652445,-0.041826684,-0.7532641,-0.0107213715,-2.3295732,0.016548349,1.5859487,0.8182479,0.04,0.039999977,0.008140686058255575,0.03532746041056689,0.02132255093649782,0.1538635576513125,-0.035064728305614655,0.04251582113561717,0.9990623700139033,0.04133672249859164,0.00490508634717503,0.011899425330823835
1925.2333333319111,-0.04320357,-0.75224185,-0.011074297,-2.3286963,0.017087799,1.5864398,0.81930494,0.04,0.03999998,0.008944774805041966,0.035623235291410565,0.021740026857330896,0.15675398883170516,-0.035471016127330064,0.043246731450243506,0.9989998645529073,0.042691462621713396,0.0050837896608448545,0.012282700239592617
1925.2499999985778,-0.044605404,-0.7512012,-0.011433625,-2.3278039,0.017637026,1.5869398,0.82038116,0.04,0.039999973,0.007703946523518468,0.035836819878239806,0.02096305996330816,0.15964603988952247,-0.035875320419755934,0.043972911047074466,0.9989341387555145,0.04407113359148391,0.00526577476666062,0.012672538374249266
1925.2666666652444,-0.046032175,-0.7501421,-0.011799346,-2.326896,0.018196018,1.5874487,0.8214764,0.04,0.03999998,0.0075642410597209775,0.03610592965532719,0.02099714704386635,0.16253880085776773,-0.036281775108180904,0.04469711491189096,0.9988650832360535,0.045475654281612,0.005451053119709132,0.013068908882426043
1925.283333331911,-0.047483865,-0.7490645,-0.012171456,-2.3259718,0.018764777,1.5879667,0.82259077,0.04,0.039999973,0.008783111407972832,0.03639362077364275,0.02128207271971938,0.16543218611559313,-0.0366919790536614,0.0454168253848327,0.9987925778706156,0.046905087428474726,0.005640051687581161,0.013471784620418642
1925.2999999985777,-0.048960432,-0.7479684,-0.012549947,-2.325032,0.019343283,1.5884931,0.8237244,0.04,0.03999997,0.007662592213542041,0.03659022442019308,0.020531349397012733,0.16832531788647587,-0.03709995743382288,0.046132125645361455,0.998716506228705,0.04835948209562507,0.005832213862283163,0.013881136813546741
1925.3166666652444,-0.050461836,-0.7468536,-0.01293481,-2.3240762,0.01993153,1.5890288,0.8248769,0.04,0.039999966,0.008159400179508225,0.03688116553179563,0.02119411488710199,0.17121631365186585,-0.03751057474453744,0.04684379412052606,0.9986367552781413,0.04983865626407154,0.0060280294679636625,0.014296930092527868
1925.333333331911,-0.051988065,-0.7457205,-0.013326036,-2.3231046,0.020529494,1.5895733,0.8260486,0.04,0.039999977,0.007925487825621857,0.037121953597200885,0.02029893870871824,0.17410618152431598,-0.03792030972752523,0.04755120990507281,0.998553198083414,0.05134275914910945,0.006227268908548494,0.014719130486663488
1925.3499999985777,-0.053539027,-0.7445691,-0.013723616,-2.322117,0.021137156,1.5901265,0.8272393,0.04,0.039999977,0.008326587695539622,0.037329090459325975,0.020358192364899885,0.17699234842275832,-0.03833064123391815,0.04825389656027968,0.9984657183982117,0.05287163589729036,0.006430123126949961,0.015147700078217807
1925.3666666652443,-0.05511469,-0.7433994,-0.014127526,-2.321114,0.021754496,1.5906887,0.82844895,0.04,0.039999977,0.0074343724436598535,0.03757218627253034,0.020122475886763524,0.17987550570648098,-0.03874046550375677,0.04895131056251788,0.9983741916216902,0.05442531014881147,0.006636394026510391,0.015582599053660148
1925.383333331911,-0.056714986,-0.74221134,-0.014537761,-2.3200948,0.022381492,1.5912595,0.8296774,0.04,0.03999998,0.008562782464283103,0.0378141160291709,0.02000095061431839,0.18275453310326337,-0.039151548088327166,0.0496440452221589,0.9982784979483971,0.05600363322060163,0.006846302928658947,0.016023786574770528
1925.3999999985776,-0.058339853,-0.7410052,-0.014954299,-2.31906,0.023018118,1.5918393,0.83092487,0.04,0.03999998,0.0076541818115671845,0.038038839802048696,0.019776517272007688,0.18562905747178526,-0.039560578949715056,0.05033153335508826,0.9981785037169462,0.057606704898409494,0.007059829067163009,0.016471219799651066
1925.4166666652443,-0.05998921,-0.73978066,-0.015377118,-2.3180096,0.023664342,1.5924276,0.83219093,0.04,0.03999998,0.007540870983246961,0.0382369447511563,0.01943211086201657,0.18849745039563506,-0.03996975511370038,0.05101342722697519,0.9980740952168802,0.059234277778837725,0.007276688744436891,0.016924851371344363
1925.433333331911,-0.061662994,-0.7385381,-0.015806202,-2.316944,0.024320131,1.5930245,0.8334758,0.04,0.04,0.007059688809141207,0.038455418322090595,0.018973789761345117,0.1913604908278635,-0.04037977874142658,0.051691613542188194,0.9979651357884316,0.06088644555051141,0.007496861314051977,0.017384636016884412
1925.4499999985776,-0.06336109,-0.7372773,-0.016241523,-2.3158627,0.024985451,1.5936304,0.8347795,0.04,0.04,0.007433763238773317,0.03868402038560703,0.019346760266225616,0.19421616721374116,-0.04079104514294752,0.052360530754834184,0.9978514946262558,0.06256312946394857,0.007720655907511656,0.01785051753262602
1925.4666666652442,-0.065083414,-0.7359987,-0.016683068,-2.3147666,0.025660265,1.5942447,0.83610183,0.04,0.04,0.006270222288784488,0.03881399023141774,0.018159013397167634,0.19706411000158572,-0.041201278167648216,0.053024231232232336,0.9977330474368391,0.06426422500192507,0.007947518437294195,0.0183224558394627
1925.483333331911,-0.06682988,-0.7347021,-0.017130803,-2.3136554,0.026344536,1.5948676,0.8374426,0.04,0.04,0.007042382461586172,0.03907774570145739,0.018419191453267203,0.1999035217221951,-0.04161564888388093,0.05368088397979018,0.9976096656974489,0.06598957530378786,0.008177789986440628,0.018800388538203597
1925.4999999985776,-0.06860038,-0.7333876,-0.017584698,-2.3125288,0.027038226,1.5954994,0.83880174,0.04,0.04,0.007106057458461379,0.039283428119529784,0.0185161819417079,0.20273432390478985,-0.04202903655969063,0.05433165113757466,0.9974812140631368,0.06773912435200968,0.008411660196185196,0.01928425772223593
1925.5166666652442,-0.070394814,-0.73205537,-0.018044734,-2.3113868,0.027741285,1.5961396,0.8401792,0.04,0.04,0.007543773464901982,0.03948594421891993,0.01787006385307599,0.2055556506811253,-0.04244163922490758,0.054974755047074844,0.9973475612048567,0.06951276288080036,0.008649081846564474,0.019774006640376984
1925.5333333319109,-0.072213024,-0.7307054,-0.018510874,-2.3102298,0.028453674,1.5967878,0.841575,0.04,0.04,0.006522962183197478,0.03956555724791422,0.017345420151393398,0.20836695470344319,-0.04285321857923091,0.05561033847862956,0.9972085737385534,0.07131043513177103,0.008889677437035032,0.020269581611440324
1925.5499999985775,-0.074054904,-0.729338,-0.018983098,-2.3090575,0.029175343,1.5974449,0.8429891,0.04,0.04,0.007531784912950812,0.03984398160291058,0.017588359993037095,0.21116721644382053,-0.04326802261284145,0.05623837661986129,0.9970641116254496,0.07313203364382918,0.009134114660159936,0.02077091507482893
1925.5666666652442,-0.07592035,-0.72795314,-0.01946136,-2.3078704,0.029906241,1.5981104,0.8444209,0.04,0.04,0.006470283231396756,0.03998662788173707,0.01696331703244791,0.2139554290403094,-0.043677064787850606,0.056860218289176416,0.9969140576790805,0.07497726005597692,0.009381962533234674,0.02127794293051991
1925.5833333319108,-0.0778092,-0.72655094,-0.019945636,-2.3066683,0.03064631,1.5987841,0.84587085,0.04,0.04,0.006844186513932371,0.040127199572387307,0.016555108075211322,0.21673289080648062,-0.04408730303456311,0.057473294109552056,0.9967582613313121,0.07684620394762172,0.009633227840859225,0.021790601827079478
1925.5999999985775,-0.07972135,-0.7251313,-0.020435885,-2.3054514,0.031395506,1.5994662,0.8473386,0.04,0.04,0.006354345707215714,0.04034161755974014,0.016592564826312106,0.21949703538197457,-0.04449588967384203,0.058078804434688436,0.9965965925295593,0.07873866257525768,0.00988792481262571,0.022308825994007443
1925.616666665244,-0.08165662,-0.7236945,-0.02093207,-2.3042197,0.032153774,1.6001567,0.84882456,0.04,0.04,0.006679013912136433,0.04045697048844915,0.016105727995863184,0.2222477907085836,-0.044904343152907714,0.058676490826164565,0.9964288967318077,0.08065471779458204,0.010146178852325412,0.022832549354060303
1925.6333333319108,-0.083614856,-0.7222406,-0.021434152,-2.3029735,0.032921042,1.6008554,0.8503281,0.04,0.04,0.006170579362274609,0.04057928667219324,0.015719015141923975,0.22498224307837333,-0.045311596623781786,0.05926708343440473,0.9962550590765858,0.08259398077368002,0.01040782795603671,0.02336169346393607
1925.6499999985774,-0.08559592,-0.72076976,-0.021942096,-2.3017125,0.033697255,1.6015619,0.851849,0.04,0.04,0.006542583887059195,0.04074337724477295,0.015295526304126561,0.2277025031338335,-0.045717096220727484,0.05984733969732474,0.9960749453894119,0.08455628180249174,0.010672885006055404,0.023896190090997364
1925.666666665244,-0.087599665,-0.7192822,-0.022455856,-2.3004367,0.034482338,1.6022764,0.85338706,0.04,0.04,0.0068756155433113975,0.0409069540399945,0.015005883275365228,0.23040778753076904,-0.04612173007054313,0.06042024286782611,0.9958884250049141,0.08654138342375588,0.010941572486780687,0.024435954817651238
1925.6833333319107,-0.0896259,-0.7177779,-0.022975389,-2.2991464,0.035276245,1.6029993,0.8549424,0.04,0.04,0.006453781637105749,0.04102996209117693,0.01499826089863543,0.2330985463632121,-0.046524437017298574,0.06098338977006894,0.9956953486231892,0.08854927529443518,0.01121392812902017,0.024980920537348596
1925.6999999985774,-0.09167446,-0.71625715,-0.023500657,-2.2978415,0.036078896,1.6037306,0.8565149,0.04,0.04,0.006747595923206617,0.04117431876547867,0.01461454862428102,0.23577277330960306,-0.046921737141459446,0.06153859658472231,0.9954955777993867,0.09057979791384843,0.011490112231152781,0.025531002970253555
1925.716666665244,-0.09374519,-0.71471983,-0.024031611,-2.2965236,0.03689024,1.6044695,0.85810435,0.04,0.04,0.003886559586563365,0.04115265316148031,0.013397958793404108,0.23842928716692804,-0.047315359141170216,0.062084246351192134,0.9952889890497407,0.09263277096896225,0.011769064774438216,0.026086148303110436
1925.7333333319107,-0.095837876,-0.7131662,-0.024568206,-2.295191,0.03771019,1.6052161,0.8597107,0.04,0.04,0.006526271582152354,0.041344476394203356,0.01360498726556969,0.2410682579816477,-0.04771190244070773,0.06262079937702675,0.9950754394658381,0.0947080058613132,0.012051571266272931,0.026646257291720044
1925.7499999985773,-0.09795233,-0.7115965,-0.025110392,-2.2938454,0.038538676,1.6059705,0.86133367,0.04,0.04,0.00440031115045425,0.04132581979174044,0.012660957227228486,0.2436889739467635,-0.04810596263681623,0.06314820065395343,0.9948548044000035,0.09680527174466966,0.012337137642293888,0.027211257954501064
1925.766666665244,-0.10008839,-0.7100106,-0.025658118,-2.2924855,0.03937562,1.6067325,0.86297333,0.04,0.04,0.006130930786252264,0.04156695740811511,0.01299876340785655,0.24629121284401265,-0.048500871670461826,0.06366549045294398,0.994626933079135,0.09892449410225011,0.01262621975819424,0.027781055322390773
1925.7833333319106,-0.10224584,-0.70840853,-0.026211344,-2.2911127,0.040220965,1.607502,0.8646293,0.04,0.04,0.0036362547107371412,0.041517699734425206,0.012019026748455452,0.24887335711014044,-0.04889267200420794,0.06417333263810304,0.9943917100359139,0.1010653781380885,0.012918086853429335,0.028355588262340803
1925.7999999985773,-0.10442449,-0.70679075,-0.02677001,-2.289725,0.04107461,1.6082788,0.86630166,0.04,0.04,0.0072743760213489495,0.04174121479333659,0.012232147597623921,0.2514357761070427,-0.0492878114220321,0.06466978855649688,0.9941489832379393,0.10322778470308434,0.013213790556635404,0.02893474263563664
1925.816666665244,-0.10662413,-0.7051572,-0.02733407,-2.2883253,0.041936472,1.609063,0.86799,0.04,0.04,0.0027739647259217293,0.04162233126291659,0.011007784490124628,0.2539774337103324,-0.04967628812428173,0.0651594021179643,0.9938986409067212,0.10541145297063621,0.013512151843595083,0.029518450822280332
1925.8333333319106,-0.10884455,-0.7035088,-0.027903462,-2.2869112,0.042806476,1.6098548,0.8696946,0.04,0.04,0.0074127131481027675,0.04184194277351838,0.01124738957329896,0.2564983246158547,-0.05006875191158335,0.06563663151146365,0.9936405158008096,0.10761632174238851,0.013814666255996623,0.030106604756684387
1925.8499999985772,-0.11108551,-0.70184493,-0.028478134,-2.2854853,0.043684546,1.6106541,0.8714147,0.04,0.04,0.0025920651105515446,0.04170016680125621,0.010277487587373457,0.258996000416683,-0.050450820887055166,0.06610395160586208,0.993374521072492,0.10984194253728606,0.01411989171090726,0.03069914008087227
1925.8666666652439,-0.11334683,-0.70016617,-0.02905804,-2.284046,0.044570584,1.6114607,0.87315065,0.04,0.04,0.005559303900826151,0.0418894777701323,0.010189921773973154,0.261472176670051,-0.050836599977342654,0.06656130604216762,0.9931004935986126,0.11208829484973412,0.014428696966974904,0.03129594982911105
1925.8833333319105,-0.1156283,-0.6984722,-0.029643109,-2.2825933,0.045464516,1.6122744,0.87490183,0.04,0.04,0.0050902626593796185,0.04196147299771191,0.010052398245807836,0.26392516195109506,-0.051217056152999756,0.06700768913472376,0.9928183264049467,0.11435498254998,0.014740889972069618,0.031896941597990336
1925.8999999985772,-0.11792966,-0.6967636,-0.030233294,-2.2811286,0.046366237,1.6130953,0.87666833,0.04,0.04,0.0032098667519964152,0.04181207671918874,0.008860867654614246,0.2663549121429314,-0.051592951312436,0.06744411188659243,0.9925278870209857,0.11664187612395739,0.015056029729934391,0.03250203360886667
1925.9166666652438,-0.12025065,-0.6950403,-0.030828532,-2.279651,0.04727566,1.6139231,0.87845,0.04,0.04,0.00511634424267271,0.041909414273755274,0.008993361185161142,0.268760825621463,-0.051970093302377965,0.06786898644331957,0.9922290453667233,0.11894871575960984,0.015374602544174415,0.03311111816881489
1925.9333333319105,-0.122591086,-0.6933026,-0.03142876,-2.2781613,0.048192702,1.614758,0.8802464,0.04,0.04,0.0033653738080285933,0.041889345047074755,0.008248856887149714,0.2711416398325648,-0.05234150489835403,0.06828403501467038,0.9919216882760266,0.1212752066277996,0.015696264648600883,0.03372411394096247
1925.9499999985771,-0.124950714,-0.69155055,-0.032033917,-2.2766593,0.049117263,1.6155998,0.8820578,0.04,0.04,0.004143730273309387,0.04189183089642612,0.007897825318536889,0.2734984127647839,-0.052711634977850676,0.06868787111973722,0.9916056715479897,0.12362126316455263,0.01602113841218769,0.03434091686950198
1925.9666666652438,-0.1273293,-0.6897846,-0.03264395,-2.2751453,0.05004926,1.616448,0.88388354,0.04,0.04,0.0036116483679737854,0.041830767810663305,0.007055962312629838,0.2758285550483799,-0.053079021552072614,0.06907995103351905,0.9912808999668427,0.12598643920731128,0.016349062203789753,0.03496144536265017
1925.9833333319104,-0.12972656,-0.6880048,-0.03325878,-2.2736192,0.05098858,1.6173031,0.88572365,0.04,0.04,0.004181508627754127,0.04180668866613502,0.00703563118165107,0.27813295117888037,-0.05344435661700485,0.06946348579927097,0.9909472424310679,0.128370540010683,0.0166803384707308,0.03558557972170589
1925.999999998577,-0.1321423,-0.68621105,-0.033878345,-2.2720816,0.05193511,1.6181648,0.887578,0.04,0.04,0.0026482515516512706,0.04182467852104077,0.006361345099681337,0.2804108657982436,-0.05380439788949361,0.06983437887318521,0.9906045791360821,0.13077338805571134,0.01701444010518976,0.036213224089591475
1926.0166666652437,-0.1345762,-0.6844039,-0.0345026,-2.2705321,0.052888785,1.6190329,0.8894462,0.04,0.04,0.004025899427828605,0.04170194894556334,0.005939267596533071,0.28266116706326894,-0.05416353399163902,0.07019324548616755,0.990252806997809,0.13319455824991144,0.017351825896892565,0.036844294315605985
1926.0333333319104,-0.13702802,-0.6825835,-0.03513145,-2.2689714,0.05384948,1.6199076,0.89132804,0.04,0.04,0.0030234073812529516,0.041648463340868136,0.005439697765630136,0.28488461119538583,-0.05451835447418332,0.07054155066766626,0.9898918125090012,0.13563380520008403,0.017692355108709163,0.03747867373984216
1926.049999998577,-0.1394975,-0.68074995,-0.035764843,-2.2673995,0.054817103,1.6207885,0.8932235,0.04,0.04,0.0028253651354503972,0.041532821137679754,0.00473325967460525,0.28708043894352864,-0.05486919586481355,0.07087930667809622,0.9895214760815687,0.13809094515558207,0.01803576462148157,0.03811627518410119
1926.0666666652437,-0.14198437,-0.67890334,-0.03640271,-2.2658165,0.055791534,1.6216754,0.8951325,0.04,0.04,0.00290256764063912,0.04149193153180353,0.004419292817092746,0.28924715407979185,-0.055217312738896684,0.07120349272440935,0.9891416859250419,0.14056570928490036,0.018382121316147387,0.0387569884603671
1926.0833333319104,-0.14448836,-0.6770442,-0.03704498,-2.2642224,0.056772675,1.6225686,0.89705455,0.04,0.04,0.003171125901868521,0.04140377735709355,0.003917816487031267,0.2913845001040183,-0.05556348426442829,0.07151767731148088,0.9887523409125192,0.1430577360878414,0.01873170382611658,0.0394007075723986
1926.099999998577,-0.14700921,-0.6751724,-0.037691586,-2.262618,0.057760432,1.6234678,0.8989895,0.04,0.04,0.0015202701237893024,0.041223479517635275,0.003210615528437266,0.2934922501079136,-0.05590303679554707,0.07181952107547626,0.9883533483652478,0.14556673210854162,0.019083895420774117,0.04004734965028444
1926.1166666652437,-0.14954661,-0.6732884,-0.038342446,-2.261003,0.05875469,1.6243728,0.9009373,0.04,0.04,0.002905071114067681,0.04110974140975332,0.002775431912493964,0.2955703654905814,-0.056243332343604804,0.07210981561672902,0.9879445877094195,0.14809247773189296,0.019439145099989494,0.04069679708128618
1926.1333333319103,-0.15210031,-0.6713924,-0.038997505,-2.259377,0.059755336,1.6252837,0.90289754,0.04,0.04,0.003398907588181288,0.04110859063447825,0.002558834747889982,0.2976172424033211,-0.056577057477792084,0.07238826731167593,0.9875259729922257,0.15063456181438528,0.019797644522692656,0.0413489386091012
1926.149999998577,-0.15467,-0.6694844,-0.039656673,-2.2577415,0.060762245,1.6262002,0.9048699,0.04,0.04,0.0008460209540928076,0.04075202034880543,0.0014842048170482514,0.299633768998403,-0.056905396124113106,0.07265603446455471,0.9870974270808269,0.15319266111116714,0.02015859588683443,0.04200367893366234
1926.1666666652436,-0.15725544,-0.66756475,-0.04031989,-2.2560961,0.06177532,1.6271224,0.90685433,0.04,0.04,0.0016807757341918972,0.04073524234509407,0.001207146782133961,0.30161955811418906,-0.057233705461817524,0.07291142030441633,0.9866588382405134,0.15576654286464559,0.02052236230609638,0.04266091526508061
1926.1833333319103,-0.15985632,-0.66563356,-0.040987074,-2.2544403,0.06279445,1.62805,0.9088506,0.04,0.04,0.002803353146019205,0.040614345540326835,0.0010000700409795726,0.3035733729189103,-0.05755813410376287,0.0731567265451259,0.986210112935783,0.15835588984941348,0.020889156957772183,0.043320531099976495
1926.199999998577,-0.16247231,-0.6636911,-0.041658167,-2.2527752,0.06381949,1.6289831,0.91085845,0.04,0.04,0.0011265593174325517,0.04034762540369996,0.0002229748343962612,0.30549488659591845,-0.057875805497824014,0.07338796720725951,0.9857511758325306,0.16096035281936646,0.021258658665034052,0.043982423725985306
1926.2166666652436,-0.16510311,-0.66173774,-0.04233308,-2.2511008,0.064850375,1.6299214,0.9128779,0.04,0.04,0.0013497640781068299,0.04005367184947706,-0.0005630381540999707,0.30738369716376557,-0.058190471413216455,0.07360813965305935,0.985281922883963,0.1635797347283806,0.021630807627382787,0.04464651146125658
1926.2333333319102,-0.16774848,-0.6597735,-0.043011725,-2.249417,0.06588692,1.6308649,0.91490847,0.04,0.04,0.0013536066076014208,0.04000276974122363,-0.0008521681300610595,0.30923878124962234,-0.05850119304581897,0.07381520289705307,0.9848022949232962,0.16621358501859224,0.022005645469888018,0.04531264323044848
1926.2499999985769,-0.17040808,-0.6577987,-0.043694034,-2.2477238,0.06692905,1.6318134,0.91694987,0.04,0.04,0.0020049775172115147,0.03980348224953967,-0.0011157664983940663,0.31106044610291633,-0.05880863581738431,0.07401142909494296,0.984312212268352,0.16886155396977476,0.022383415309622418,0.0459807251940714
1926.2666666652435,-0.1730816,-0.6558135,-0.04437994,-2.2460217,0.06797663,1.6327668,0.9190019,0.04,0.04,0.0009181825264104049,0.039480777357531194,-0.0019793081044161553,0.31284833712639104,-0.05910950652563646,0.07419532722300014,0.9838116088810582,0.17152330787933334,0.022763764416041582,0.046650660387674514
1926.2833333319102,-0.17576876,-0.6538182,-0.045069348,-2.2443116,0.06902956,1.6337253,0.9210643,0.04,0.04,-4.324249998077789e-05,0.03920686194398004,-0.0025859978494580105,0.31460258359522825,-0.05940708164384056,0.0743675288980679,0.9833004100402468,0.17419855722353547,0.0231465175862865,0.04732235200778507
1926.2999999985768,-0.17846926,-0.651813,-0.04576219,-2.2425928,0.07008773,1.6346885,0.92313707,0.04,0.04,0.0009409215754541123,0.03903472397185359,-0.0029211602201151265,0.3163215563201873,-0.05970054907317132,0.0745273151059781,0.9827785334362384,0.17688701732077608,0.023531914587358548,0.04799569059956428
1926.3166666652435,-0.18118274,-0.6497982,-0.04645838,-2.240866,0.071150996,1.6356562,0.9252198,0.04,0.04,0.00042233840984451376,0.03865826139059503,-0.0037393287832143685,0.31800496582028215,-0.059989924491934535,0.07467544498307943,0.9822459335959316,0.17958826806659609,0.02391978197539001,0.0486705654101835
1926.3333333319101,-0.1839089,-0.64777404,-0.047157835,-2.2391312,0.0722192,1.6366285,0.92731225,0.04,0.04,9.400071641074703e-05,0.03840672347954488,-0.004140794440132822,0.3196534739940783,-0.06027518573960951,0.07481071803105763,0.981702548054999,0.1823019920694333,0.02431006074361848,0.049346851738284035
1926.3499999985768,-0.18664742,-0.6457406,-0.047860473,-2.2373886,0.07329228,1.6376053,0.9294142,0.04,0.04,0.0002635078843127303,0.038146753388890176,-0.004464619630595301,0.3212653890652227,-0.060555929774926576,0.07493481294895316,0.9811483207736668,0.18502782283712943,0.024702845623622918,0.05002446238852828
1926.3666666652434,-0.18939795,-0.64369833,-0.048566222,-2.2356384,0.07437005,1.6385864,0.9315254,0.04,0.04,0.00015984306118710379,0.03779850795629924,-0.00517562751416456,0.32284136743414615,-0.06083252226022441,0.07504590551106756,0.9805832056723525,0.18776538989495545,0.02509807753529031,0.050703270259035295
1926.38333333191,-0.19216019,-0.64164704,-0.049275003,-2.2338805,0.075452425,1.6395715,0.9336456,0.04,0.04,-0.00013925248554258474,0.037535234030089404,-0.0054833826647282535,0.3243803398322227,-0.06110318797611077,0.07514638018993741,0.9800071542455169,0.19051435948107648,0.025495581156869618,0.05138318597160353
1926.3999999985767,-0.1949338,-0.63958734,-0.049986694,-2.2321153,0.07653925,1.6405605,0.9357745,0.04,0.04,7.0157612919175e-05,0.03706837660062412,-0.006320480658250638,0.32588261996927,-0.061370280533604646,0.07523341214176983,0.9794201345472467,0.19327431049690486,0.02589541700397978,0.052064079014126394
1926.4166666652434,-0.19771852,-0.63751954,-0.05070125,-2.2303429,0.07763042,1.6415533,0.93791187,0.04,0.04,-1.667410209904574e-05,0.036836338464618645,-0.0068353668211562635,0.3273474523087115,-0.0616325676363424,0.07531113562886058,0.9788220948007477,0.19604493248975885,0.026297618610287305,0.052745866476814035
1926.43333333191,-0.20051397,-0.6354436,-0.051418588,-2.2285633,0.07872579,1.64255,0.94005746,0.04,0.04,-3.819019620543429e-05,0.03657289178869427,-0.006951735922910984,0.3287747920935735,-0.06188973355223766,0.07537368776182964,0.9782129985034396,0.19882586286808773,0.026702244576102645,0.05342841891978429
1926.4499999985767,-0.20331982,-0.6333601,-0.05213861,-2.2267773,0.07982525,1.6435505,0.942211,0.04,0.04,-0.0007609217464121798,0.03601851905717379,-0.007824304566850238,0.3301641931922178,-0.06213945503423965,0.0754272467093749,0.977592825989979,0.20161669521600986,0.027109117458341374,0.054111648780376845
1926.4666666652433,-0.20613573,-0.6312692,-0.052861243,-2.224985,0.08092862,1.6445549,0.9443721,0.04,0.04,-0.0004336137600979839,0.03575102084789061,-0.008218554391037358,0.3315153336610164,-0.0623843324199023,0.07546652105478888,0.976961550296922,0.20441704839007327,0.02751838681015706,0.05479541911776631
1926.48333333191,-0.20896132,-0.629171,-0.053586382,-2.2231863,0.08203581,1.6455629,0.9465407,0.04,0.04,-0.0009462676950011684,0.03524592229315893,-0.008564189765758456,0.33282798336484654,-0.06262124974018084,0.07549565468589974,0.9763191517384926,0.20722655715190103,0.027929870154477114,0.05547963872227638
1926.4999999985766,-0.21179634,-0.6270658,-0.054313943,-2.2213817,0.083146706,1.6465741,0.9487166,0.04,0.04,-0.0011941636607559758,0.03484810733888066,-0.009390650385299182,0.33410169546609664,-0.06285232541436392,0.07551363009370139,0.9756656004393724,0.21004492376056538,0.028343359745688686,0.05616422420031605
1926.5166666652433,-0.2146404,-0.6249538,-0.05504385,-2.2195716,0.08426115,1.6475886,0.9508998,0.04,0.04,-0.0016931829418531663,0.0343493411060658,-0.009950755666454647,0.335335925136449,-0.06307978595163356,0.07551899132938134,0.9750008563239136,0.2128719049391632,0.028758753709805105,0.056849066309534894
1926.53333333191,-0.21749319,-0.62283534,-0.055776,-2.2177558,0.085378975,1.6486062,0.95308906,0.04,0.04,-0.0010637067263008504,0.03405573726672495,-0.010268402167756818,0.33652847530856744,-0.06330201350997708,0.07551183134051795,0.9743250092000655,0.21570665178170675,0.029176257568941103,0.05753401444961591
1926.5499999985766,-0.22035435,-0.62071073,-0.05651031,-2.2159345,0.08650011,1.6496265,0.95528543,0.04,0.04,-0.0011826180087215477,0.03343437226772106,-0.01098547394891014,0.33768403631841004,-0.06351892100841765,0.07549355230476786,0.9736379253525148,0.2185493758520232,0.02959571410891088,0.05821902039991284
1926.5666666652432,-0.22322354,-0.6185801,-0.05724671,-2.2141087,0.08762438,1.6506497,0.95748764,0.04,0.04,-0.0027041191849708213,0.03297628010057174,-0.01156675373021887,0.338796227967065,-0.06372977171455584,0.07546361055111622,0.97293971466836,0.2213992479440422,0.03001679217393763,0.05890396267187284
1926.58333333191,-0.22610041,-0.6164437,-0.0579851,-2.2122774,0.08875165,1.6516756,0.95969564,0.04,0.04,-0.0008187338595089244,0.032689703076160814,-0.011538902925156691,0.3398695395958413,-0.0639365440250449,0.07542175151010863,0.972230350870955,0.22425596043400406,0.03044001838238744,0.05958870980346968
1926.5999999985765,-0.2289846,-0.61430204,-0.05872539,-2.2104416,0.08988181,1.6527044,0.9619093,0.04,0.04,-0.0017765403332425933,0.032014852977557684,-0.012334960479032375,0.34090224081072174,-0.06413637470957388,0.0753680750373852,0.9715098332481997,0.22711918661442185,0.030865235258734768,0.06027317998978818
1926.6166666652432,-0.23187576,-0.6121551,-0.059467487,-2.2086015,0.09101467,1.6537354,0.9641285,0.04,0.04,-0.002538398264784192,0.0315002058503433,-0.012970262660294551,0.34189373037045134,-0.06432796364529517,0.07530388105514985,0.9707781710919617,0.22998862165539313,0.0312919887577434,0.06095726273368571
1926.6333333319099,-0.23477353,-0.6100032,-0.06021131,-2.2067575,0.092150144,1.6547688,0.9663524,0.04,0.04,-0.002897647775323975,0.030900399934807865,-0.013431869844571231,0.3428435172040609,-0.06451772049975366,0.07522791357091203,0.9700354492413168,0.2328635932132989,0.031720291970126435,0.06164087319561683
1926.6499999985765,-0.2376776,-0.6078468,-0.060956746,-2.2049093,0.09328806,1.6558045,0.9685814,0.04,0.04,-0.0015189920921088174,0.030532609781874775,-0.013755477296006902,0.34375322153984456,-0.06470146733420488,0.07513974458693902,0.969281609479419,0.2357440114919134,0.03215053767040856,0.06232387582773684
1926.6666666652432,-0.24058762,-0.60568595,-0.06170373,-2.2030575,0.09442831,1.6568425,0.9708147,0.04,0.04,-0.00281248430265002,0.029952662663695895,-0.014180851640754888,0.3446202023786432,-0.0648770116367602,0.07504090607529795,0.9685167360183241,0.23862929367788616,0.03258237900517625,0.06300619675530364
1926.6833333319098,-0.24350317,-0.60352093,-0.06245217,-2.201202,0.095570706,1.6578823,0.97305214,0.04,0.04,-0.0021734592825506382,0.029369278291335732,-0.014613943158003906,0.3454457630070711,-0.06504691726994133,0.07493105321854968,0.9677408708372831,0.24151901341728887,0.03301589577119818,0.0636877044292026
1926.6999999985765,-0.24642396,-0.60135216,-0.06320196,-2.1993427,0.09671519,1.658924,0.9752935,0.04,0.04,-0.0021065277182596986,0.028777479954000817,-0.015165239053738233,0.34623025422231185,-0.06521016650407693,0.07480995053230505,0.9669540336912852,0.24441284227469004,0.03345111270216522,0.0643683331953491
1926.716666665243,-0.2493496,-0.5991796,-0.063953035,-2.1974807,0.09786157,1.6599674,0.97753865,0.04,0.04,-0.0034067564797179983,0.028192410258259804,-0.015576837894148987,0.34697163914564333,-0.06536519909329237,0.074678609286481,0.9661562665481958,0.24731044251688536,0.03388766198020701,0.06504798226900892
1926.7333333319098,-0.2522798,-0.5970038,-0.06470525,-2.195616,0.09900969,1.6610126,0.9797875,0.04,0.04,-0.0032221354812289604,0.02761094343606829,-0.01607584411529306,0.3476712842658968,-0.0655163467507147,0.07453592773533979,0.9653475807255897,0.2502115549813384,0.03432564679658702,0.06572652518631887
1926.7499999985764,-0.255214,-0.5948247,-0.06545858,-2.193749,0.10015944,1.6620592,0.9820399,0.04,0.04,-0.003931959813741059,0.026786410642226643,-0.016497379820834546,0.3483260399036694,-0.06566042934330506,0.0743819882804406,0.9645280510302419,0.2531157390959997,0.03476466896635417,0.06640390944325994
1926.766666665243,-0.258152,-0.59264284,-0.0662129,-2.1918793,0.10131067,1.6631069,0.9842946,0.04,0.04,-0.002703814639781754,0.026303277013473014,-0.016992886081457215,0.34893691704227997,-0.06580183990322289,0.07421601748886848,0.9636978419386643,0.25602214855690164,0.0352051431621998,0.06708000287714876
1926.7833333319097,-0.26109356,-0.5904586,-0.06696811,-2.1900072,0.10246325,1.664156,0.98655194,0.04,0.04,-0.00279026493830159,0.025884909234102915,-0.017273468822498472,0.3495073936560167,-0.06593487852150864,0.07403957839502391,0.9628569122592603,0.25893078201203834,0.03564710171058731,0.06775471039590271
1926.7999999985764,-0.26403815,-0.588272,-0.067724146,-2.188133,0.10361701,1.6652061,0.9888122,0.04,0.04,-0.003170350922188092,0.02507887726588276,-0.01762643623679505,0.3500336807689692,-0.06606035099202577,0.07385382734052785,0.9620052873480084,0.2618414245578997,0.03609033509458471,0.06842794175427132
1926.816666665243,-0.26698536,-0.5860833,-0.068480894,-2.1862571,0.104771845,1.6662571,0.9910744,0.04,0.04,-0.00375454371073225,0.024253708145399733,-0.018069501777850938,0.35051416289477977,-0.06617887914692372,0.07365720221398342,0.9611431491017414,0.2647532958295869,0.03653467974329856,0.06909961257643603
1926.8333333319097,-0.26993498,-0.58389306,-0.06923828,-2.1843803,0.10592759,1.6673088,0.99333847,0.04,0.04,-0.004437585756456031,0.023603757184148533,-0.019055385128807778,0.3509521119174642,-0.06629057843514943,0.07344960165930543,0.9602705303126804,0.2676662012922735,0.03697985483035232,0.06976964694975725
1926.8499999985763,-0.27288657,-0.5817013,-0.069996186,-2.1825018,0.10708408,1.6683614,0.9956035,0.04,0.04,-0.003086748689051788,0.023146634826332058,-0.018503489007604124,0.3513452397274166,-0.06639902265995916,0.07323074927796613,0.959387604435024,0.27057936603075433,0.037426404563170666,0.07043788310486462
1926.866666665243,-0.27583978,-0.57950836,-0.07075454,-2.1806223,0.108241215,1.6694146,0.99786985,0.04,0.04,-0.003923546353812313,0.022287411487653674,-0.019333209710348243,0.3516970502808707,-0.06649849148325021,0.0730034731746309,0.9584943825328639,0.27349270812059523,0.03787397212868562,0.07110428603820237
1926.8833333319096,-0.27879423,-0.57731426,-0.07151324,-2.1787412,0.10939884,1.6704682,1.0001371,0.04,0.04,-0.0028666305385449675,0.021793057881103195,-0.019163383352771568,0.3520043708004864,-0.06658936208101215,0.07276487525592906,0.9575909774528597,0.2764057441533924,0.0383227596351046,0.07176872991656086
1926.8999999985763,-0.2817496,-0.5751196,-0.07227219,-2.1768596,0.1105568,1.6715223,1.0024052,0.04,0.04,-0.004037499274911482,0.020917341608855944,-0.0200109606936838,0.3522678717888045,-0.06667349371520477,0.07251808243719222,0.9566774585114157,0.27931820612553604,0.0387725406673429,0.07243114104547914
1926.916666665243,-0.2847055,-0.5729245,-0.073031284,-2.174978,0.11171496,1.6725764,1.0046735,0.04,0.04,-0.004948542607285944,0.020021088056432212,-0.020449787251775042,0.35248586456863673,-0.06674846622135172,0.07226015728277772,0.9557539957728056,0.282229521602822,0.039222927438788184,0.07309144042423685
1926.9333333319096,-0.2876615,-0.5707292,-0.07379046,-2.1730964,0.11287322,1.6736306,1.006942,0.04,0.04,-0.004597625855229381,0.01929510913370458,-0.02068459218027563,0.35266068990510946,-0.06681914071638861,0.07199319587265413,0.9548206568642136,0.285139419125722,0.03967398880585021,0.07374957286839454
1926.9499999985762,-0.29061735,-0.56853414,-0.07454961,-2.1712148,0.11403138,1.6746848,1.0092102,0.04,0.04,-0.004044431338234844,0.018741673153810368,-0.020964315426441615,0.3527910662666267,-0.06688332751675014,0.07171505738002132,0.9538775885928884,0.28804737810338854,0.04012593336789646,0.07440539912758432
1926.9666666652429,-0.2935726,-0.5663396,-0.07530866,-2.1693335,0.11518932,1.6757387,1.0114782,0.04,0.04,-0.00415294124849197,0.017853102260795284,-0.02134047871755751,0.3528770140326635,-0.06693948765206689,0.07142753432237221,0.9529248665842579,0.29095315699644664,0.04057864314011631,0.07505886223546408
1926.9833333319095,-0.2965269,-0.56414574,-0.07606749,-2.1674533,0.116346896,1.6767923,1.0137454,0.04,0.04,-0.005726577560150048,0.01691134835228869,-0.02182536725368056,0.3529181298551396,-0.06698831383093641,0.07113121250240323,0.9519626589857274,0.29385627979520595,0.041031636781177,0.07570989040279134
1926.9999999985762,-0.29947993,-0.5619527,-0.07682601,-2.1655748,0.117503956,1.6778452,1.0160115,0.04,0.04,-0.006422705569786302,0.016094791650833606,-0.022242032436037285,0.35291470005773234,-0.06703385909015479,0.07082410926922249,0.9509911302358226,0.2967562783527664,0.04148464260361586,0.07635840424641246
1927.0166666652428,-0.30243132,-0.55976075,-0.07758414,-2.1636968,0.11866036,1.6788976,1.0182766,0.04,0.04,-0.0040071315182022005,0.015699883221875766,-0.02183944485296685,0.3528676257745048,-0.06707463368841854,0.07050570949182645,0.9500103183426049,0.2996529833669267,0.041938340619086405,0.07700428681573916
1927.0333333319095,-0.30538073,-0.55757034,-0.078341775,-2.16182,0.11981599,1.6799494,1.02054,0.04,0.04,-0.004606211742430588,0.014812085260929031,-0.022359972032925945,0.35277394492832015,-0.06710958253183438,0.07017932406068274,0.9490204243852297,0.3025458158187146,0.042392616466729885,0.07764746936875613
1927.0499999985761,-0.30832773,-0.5553819,-0.07909881,-2.1599445,0.120970696,1.6810002,1.0228015,0.04,0.04,-0.004579801710269393,0.013770183808614611,-0.02281659058369634,0.35263573037875895,-0.06713353222409901,0.0698431864715942,0.9480216101525137,0.30543434387711543,0.04284736177720876,0.07828787807141133
1927.0666666652428,-0.31127203,-0.5531954,-0.079855196,-2.158071,0.12212434,1.6820501,1.025061,0.04,0.04,-0.005432049013398554,0.013118749082752235,-0.022952704613743435,0.35245392106424933,-0.06715248943733507,0.06949974403012726,0.9470139899802871,0.3083183181379798,0.04330232160266926,0.07892544853216334
1927.0833333319094,-0.31421322,-0.55101115,-0.080610804,-2.1562,0.12327675,1.6830989,1.0273182,0.04,0.04,-0.005991171774288873,0.012178941315843517,-0.02323838129805189,0.35222669959712566,-0.06716281470471287,0.06914620819009484,0.9459977259897207,0.3111973526948748,0.043757298603009885,0.079560096260287
1927.099999998576,-0.31715095,-0.5488295,-0.081365556,-2.15433,0.124427795,1.6841466,1.0295725,0.04,0.04,-0.00330282538958393,0.011715655312982687,-0.02289867714924121,0.3519542280524215,-0.06716988962718518,0.06878333246433885,0.9449730228744995,0.31407082138617365,0.04421309699252944,0.08019169063920685
1927.1166666652427,-0.3200849,-0.54665077,-0.082119346,-2.152463,0.12557733,1.6851928,1.0318241,0.04,0.04,-0.006003224520290118,0.01043010673809075,-0.023942288215206275,0.3516377139924909,-0.06716370338215692,0.0684145630524945,0.9439399723443368,0.31693867219422023,0.044668756599236435,0.08082022557636959
1927.1333333319094,-0.32301465,-0.54447484,-0.08287211,-2.1505985,0.12672518,1.6862375,1.034072,0.04,0.04,-0.0057638678222282635,0.009793050705464434,-0.02361506010779557,0.3512751019240008,-0.06715260955695501,0.0680351833301142,0.942898871427378,0.3198001382807185,0.04512435035041048,0.08144558196773743
1927.149999998576,-0.32593986,-0.54230237,-0.08362375,-2.148737,0.12787127,1.6872805,1.0363165,0.04,0.04,-0.005242142203121247,0.00889643838867249,-0.02396338795915831,0.35086984114370967,-0.0671369204360879,0.0676483294740757,0.9418497982545294,0.3226550855676835,0.045580052383524784,0.08206772879718482
1927.1666666652427,-0.32886022,-0.5401337,-0.08437415,-2.1468787,0.12901546,1.6883217,1.0385573,0.04,0.04,-0.005703603798057344,0.007863657492768183,-0.024434950662244326,0.3504200393681076,-0.06711160088329837,0.06725344269195078,0.9407929370250981,0.3255031465322997,0.04603560724495659,0.08268660173722424
1927.1833333319094,-0.33177534,-0.53796893,-0.08512325,-2.1450243,0.13015766,1.6893612,1.040794,0.04,0.04,-0.006364771371947242,0.007059533480990865,-0.02431286569690716,0.34992556622159054,-0.0670800380423925,0.06684868362219142,0.9397284740139359,0.32834393449547294,0.04649091395240758,0.0833021652020014
1927.199999998576,-0.33468485,-0.53580827,-0.08587094,-2.1431727,0.13129765,1.6903986,1.0430266,0.04,0.04,-0.004522570814646798,0.006408341242358784,-0.024210135982571934,0.34938604625588754,-0.06704262092190338,0.06643654886502175,0.9386565769017451,0.3311770971390468,0.046946301632727325,0.08391427609567688
1927.2166666652427,-0.33758846,-0.53365207,-0.08661712,-2.1413257,0.13243529,1.6914338,1.0452548,0.04,0.04,-0.006949849069037839,0.005233363472778585,-0.024915401502156875,0.34880130112693064,-0.0669968402662511,0.06601713111554898,0.9375774148891785,0.33400239850107977,0.04740109595930057,0.08452292580778441
1927.2333333319093,-0.34048575,-0.5315005,-0.0873617,-2.1394815,0.13357042,1.692467,1.0474781,0.04,0.04,-0.0036957589512720546,0.004868144647796058,-0.024049980424556416,0.34817068780205584,-0.06694629061108129,0.06558759738249638,0.9364912411182692,0.33681918896662655,0.04785627214097594,0.085127941766476
1927.249999998576,-0.34337637,-0.5293539,-0.08810463,-2.1376426,0.13470294,1.6934977,1.0496963,0.04,0.04,-0.007644916760041198,0.0033015262816626922,-0.025259545918321358,0.3474959318129274,-0.06688428638495948,0.06515399690827625,0.9353982404189856,0.33962728969484324,0.04831052828274169,0.08572939269960574
1927.2666666652426,-0.34626,-0.5272126,-0.08884577,-2.135808,0.13583273,1.6945261,1.0519091,0.04,0.04,-0.005338005418487057,0.0028102039974053916,-0.024716561532667214,0.3467768227473714,-0.06681807872359952,0.06471097612343521,0.9342986221376327,0.3424262235350071,0.048764626958039924,0.086327152535674
1927.2833333319093,-0.34913632,-0.52507675,-0.08958505,-2.1339772,0.1369596,1.6955518,1.054116,0.04,0.04,-0.004494285270739695,0.0020584172286675084,-0.024678290730939523,0.34601330891432813,-0.06674374039820243,0.06426037352463933,0.9331926158341209,0.34521556757574173,0.04921861189354539,0.08692112458603928
1927.299999998576,-0.35200483,-0.5229465,-0.090322405,-2.1321526,0.13808346,1.6965744,1.0563171,0.04,0.04,-0.008526628890548338,0.000371388883146917,-0.025538357715171323,0.34520660701458195,-0.06665849660937703,0.0638051968445714,0.9320804361320107,0.3479950991475264,0.04967123346030256,0.08751137135136164
1927.3166666652426,-0.3548653,-0.5208222,-0.091057695,-2.1303325,0.13920414,1.6975944,1.0585121,0.04,0.04,-0.004862495857160809,0.00019492015042033017,-0.024781069547596957,0.3443559924748326,-0.06657215780644471,0.06333926110284685,0.930962242420507,0.3507644735266581,0.05012363064687393,0.0880977238623289
1927.3333333319092,-0.35771737,-0.51870406,-0.09179088,-2.1285176,0.1403215,1.6986115,1.0607004,0.04,0.04,-0.006076344209793305,-0.0008165469588483631,-0.024884517130696615,0.3434607533005496,-0.06647772376959604,0.06286795340382986,0.9298383262728197,0.35352319423626083,0.05057541043744342,0.08868013300754972
1927.3499999985759,-0.36056072,-0.51659256,-0.09252183,-2.1267085,0.14143547,1.699625,1.0628823,0.04,0.04,-0.0062819262288016375,-0.0021122095444692235,-0.025583320040833968,0.3425227529772614,-0.06637455669754978,0.06238988121011267,0.9287088304688301,0.35627114199568755,0.0510262418108022,0.08925863676402342
1927.3666666652425,-0.3633949,-0.5144878,-0.09325049,-2.1249053,0.14254585,1.7006358,1.0650569,0.04,0.04,-0.006300600618835972,-0.0027256147125287455,-0.024860321727415702,0.3415401271509854,-0.06626653884025448,0.06190440086953305,0.9275740764382732,0.35900769570373425,0.05147644545571534,0.08983308248314936
1927.3833333319092,-0.36621967,-0.51239,-0.09397675,-2.1231081,0.1436525,1.7016428,1.0672241,0.04,0.04,-0.006328568440094884,-0.0037960726819941115,-0.02541091688668118,0.3405158616892368,-0.06614948313965202,0.061413728720839895,0.9264342812205535,0.36173259610089165,0.0519255878356608,0.09040345582657007
1927.3999999985758,-0.3690347,-0.51029956,-0.094700545,-2.1213171,0.14475533,1.7026463,1.0693839,0.04,0.04,-0.006062612359336583,-0.004596413568258573,-0.025168956145038557,0.33944911128014094,-0.06602696467671265,0.060915653277742954,0.9252896320938732,0.36444558451800824,0.05237388023183331,0.09096971657850639
1927.4166666652425,-0.37183973,-0.50821656,-0.09542177,-2.119532,0.14585422,1.7036467,1.071536,0.04,0.04,-0.005305357335050331,-0.005112245880722899,-0.024627265625598582,0.33833887986309447,-0.06589575889295653,0.06041010203004213,0.9241403080497571,0.36714642664667446,0.052821652914437474,0.09153177274402993
1927.4333333319091,-0.37463424,-0.5061413,-0.09614038,-2.1177542,0.14694902,1.7046432,1.0736802,0.04,0.04,-0.007224115449444568,-0.006720938298399037,-0.02528539859372181,0.3371845501944802,-0.06575525146211197,0.059901164209470725,0.9229866025126221,0.3698347451880356,0.05326807887351535,0.09208965526611812
1927.4499999985758,-0.3774181,-0.5040742,-0.09685622,-2.115983,0.14803961,1.7056359,1.0758165,0.04,0.04,-0.00577459984669737,-0.0073007592696350265,-0.025163060247868074,0.3359869531288646,-0.06560958028684352,0.0593848794536859,0.9218286728973704,0.3725103742944907,0.05371351797100762,0.09264327743786693
1927.4666666652424,-0.38019076,-0.5020152,-0.09756926,-2.114219,0.14912583,1.7066245,1.0779437,0.04,0.04,-0.006820335994373039,-0.008463862713992132,-0.02486238321040002,0.3347446965225955,-0.06545620734648298,0.05886202377075528,0.9206670049188982,0.37517243986909055,0.054157632542052844,0.09319258153833576
1927.483333331909,-0.38295195,-0.49996474,-0.09827939,-2.1124625,0.15020758,1.707609,1.0800622,0.04,0.04,-0.0067902871369707185,-0.009455247342082806,-0.02503771905084662,0.33346416742664436,-0.06529824764781911,0.05833485723168724,0.9195016975301211,0.377820980122757,0.054600415304434255,0.09373755846451458
1927.4999999985757,-0.38570148,-0.497923,-0.098986536,-2.1107135,0.15128472,1.7085891,1.0821719,0.04,0.04,-0.006427952668941472,-0.01013316838338607,-0.024976556466649313,0.33214066331817604,-0.06513333167046258,0.05780102239011769,0.9183329346473704,0.380455850088223,0.05504175222163607,0.09427816708001878
1927.5166666652424,-0.3884389,-0.49589014,-0.099690616,-2.108972,0.15235706,1.709565,1.0842721,0.04,0.04,-0.006294485573565822,-0.010962590931429261,-0.024477181475091037,0.3307744601211928,-0.0649620850004221,0.05726084127120968,0.9171610866204409,0.38307643336264313,0.05548187577466827,0.09481428611708567
1927.533333331909,-0.391164,-0.49386653,-0.100391544,-2.1072383,0.15342459,1.7105365,1.0863632,0.04,0.04,-0.005929422843120591,-0.01196430198423526,-0.02456550608371799,0.32936782247596796,-0.06478381574080229,0.056715739443186086,0.9159862797938328,0.3856827188618906,0.05592067236825613,0.09534597003878184
1927.5499999985757,-0.3938763,-0.49185228,-0.10108921,-2.1055121,0.15448713,1.7115033,1.0884444,0.04,0.04,-0.005768901042069174,-0.012978294640575427,-0.024212528847478154,0.32791784396593976,-0.0645978175194399,0.05616587080054358,0.9148088954477198,0.38827411701455283,0.05635813261739139,0.0958731232106941
1927.5666666652423,-0.39657566,-0.48984775,-0.10178358,-2.1037948,0.15554455,1.7124655,1.0905151,0.04,0.04,-0.007272726867135759,-0.013855707952381557,-0.024510262815757855,0.32642800038246983,-0.0644040628260415,0.055611997515018434,0.9136292048227185,0.3908503439397507,0.05679389841542305,0.09639573559013978
1927.583333331909,-0.39926168,-0.48785308,-0.10247455,-2.1020858,0.15659669,1.713423,1.0925756,0.04,0.04,-0.0062551567381774476,-0.014697087219739391,-0.02408680614622849,0.32489920934779193,-0.06420465082390406,0.05505212294725721,0.9124474375373657,0.3934111623432344,0.05722812504147227,0.09691373885821392
1927.5999999985756,-0.40193406,-0.4858686,-0.10316206,-2.1003854,0.15764348,1.7143757,1.0946258,0.04,0.04,-0.006138851932790956,-0.015614146172815424,-0.023928189093536112,0.3233295967267007,-0.06399872077086198,0.05448878268136173,0.9112637527626886,0.39595650754659856,0.057660813940010214,0.09742713979245057
1927.6166666652423,-0.40459242,-0.48389444,-0.10384601,-2.0986943,0.15868476,1.7153233,1.0966653,0.04,0.04,-0.007333261286213144,-0.01682295187045435,-0.023992361189972833,0.3217179651019936,-0.06378322499787883,0.05392088286617582,0.9100785432399608,0.3984858628377404,0.05809148823781993,0.09793590376877909
1927.633333331909,-0.4072365,-0.4819309,-0.104526326,-2.0970123,0.1597205,1.7162658,1.0986941,0.04,0.04,-0.006356935568341271,-0.017646491715073154,-0.023610289383180216,0.3200681964357569,-0.0635651771071369,0.0533466911811403,0.9088919659180934,0.40099915016669446,0.05852038758901962,0.0984400329721764
1927.6499999985756,-0.409866,-0.47997823,-0.10520293,-2.0953398,0.16075051,1.7172031,1.1007115,0.04,0.04,-0.006855375398950869,-0.01844885998869561,-0.023513877874603573,0.31837730777190376,-0.06333983292160539,0.052767127419925244,0.9077043969973285,0.4034958695898943,0.058947387031576655,0.09893945854794699
1927.6666666652422,-0.4124807,-0.4780366,-0.10587573,-2.0936763,0.16177468,1.7181354,1.1027173,0.04,0.04,-0.005643444181169244,-0.019074118988371414,-0.023001364432517768,0.31664839849701454,-0.06310847839989724,0.052184192306250224,0.9065160681796997,0.40597579366723396,0.05937280034183433,0.09943411722264194
1927.683333331909,-0.41508025,-0.47610626,-0.106544696,-2.0920231,0.16279292,1.719062,1.1047112,0.04,0.04,-0.00758392121622542,-0.020468144293861457,-0.023337500242903708,0.31488014517244023,-0.06286775594076129,0.05159859227227516,0.9053273076041106,0.4084386113287154,0.05979588756587624,0.09992406473103313
1927.6999999985755,-0.41766426,-0.47418734,-0.1072097,-2.0903795,0.16380505,1.7199831,1.1066933,0.04,0.04,-0.00595172577622094,-0.021109384554551802,-0.022560721450815002,0.31307514480373927,-0.06262386813392967,0.05100742687802607,0.904138325339972,0.41088414726898526,0.06021710400190961,0.10040919559528912
1927.7166666652422,-0.42023247,-0.47228017,-0.1078707,-2.0887458,0.164811,1.7208984,1.1086634,0.04,0.04,-0.0064299572466453014,-0.022151716222129636,-0.022652669942635484,0.31123177637747734,-0.06237215823913305,0.05041381011670191,0.9029493717717876,0.41331221642067706,0.0606361609464462,0.10088954237203253
1927.7333333319089,-0.42278472,-0.47038496,-0.108527616,-2.0871224,0.16581069,1.7218082,1.1106212,0.04,0.04,-0.006344347929010397,-0.02273798402583349,-0.022210500519759258,0.30935054650215765,-0.06211525535868337,0.04981530200431457,0.9017607298526953,0.4157225202148426,0.061053217502322094,0.10136506752510059
1927.7499999985755,-0.42532066,-0.46850187,-0.10918036,-2.085509,0.16680393,1.722712,1.1125665,0.04,0.04,-0.005787634511644768,-0.02367138387664447,-0.02197766149769631,0.307431650849261,-0.06185124895811881,0.049213574344617636,0.9005726836993656,0.418114802675047,0.061468211476816685,0.10183571149832489
1927.7666666652422,-0.4278399,-0.4666311,-0.10982885,-2.0839067,0.16779065,1.7236099,1.1144991,0.04,0.04,-0.007110793986431219,-0.024928923023459504,-0.02183092263783326,0.3054754680237093,-0.06158002736537329,0.04861016108037044,0.8993855132132527,0.42048884961623145,0.06188074209910118,0.10230151380999715
1927.7833333319088,-0.4303423,-0.4647729,-0.11047305,-2.0823152,0.1687707,1.7245021,1.1164184,0.04,0.04,-0.006655957231771481,-0.025372472883100627,-0.0214091081409018,0.3034831807615641,-0.06130388208615342,0.048001463178342425,0.8981995577566623,0.4228442644202996,0.06229103801650116,0.10276239134731545
1927.7999999985755,-0.4328275,-0.46292755,-0.11111288,-2.0807343,0.1697441,1.7253879,1.1183246,0.04,0.04,-0.005497849080393635,-0.026396709285292363,-0.021152422502757062,0.30145520624934585,-0.06102072230384711,0.04739091126626856,0.897014985992538,0.4251810115389339,0.0626991428831557,0.10321840830614198
1927.816666665242,-0.43529525,-0.4610951,-0.11174825,-2.0791647,0.17071062,1.7262676,1.1202176,0.04,0.04,-0.007029748929765489,-0.027336171564162903,-0.02094053379178007,0.29939133526957584,-0.06073176632783448,0.04677790665710274,0.8958321227566836,0.4274988252465063,0.06310464923019526,0.10366950128000611
1927.8333333319088,-0.43774527,-0.45927572,-0.112379104,-2.077606,0.17167021,1.7271409,1.122097,0.04,0.04,-0.005457285869203687,-0.02792418359163218,-0.020300951705687353,0.29729201969659425,-0.06043542886540535,0.04615992019792993,0.8946512104735466,0.4297974956446884,0.06350791836513418,0.10411565031588413
1927.8499999985754,-0.44017732,-0.45746964,-0.113005355,-2.076059,0.17262278,1.7280077,1.1239626,0.04,0.04,-0.0072982948976285655,-0.029154909128115136,-0.020435823101538908,0.29515755291127854,-0.06013304518349419,0.045540375313281825,0.8934725745276834,0.43207677496048974,0.06390833163786866,0.10455689481750931
1927.866666665242,-0.44259122,-0.45567718,-0.11362696,-2.0745232,0.17356822,1.7288681,1.1258141,0.04,0.04,-0.004938491913408782,-0.029360863155747374,-0.019693163746126174,0.2929892065758062,-0.0598270366893696,0.0449169195856343,0.8922964742741767,0.4343363895097849,0.06430663325863122,0.10499314103510657
1927.8833333319087,-0.44498667,-0.4538985,-0.11424383,-2.073,0.1745064,1.7297218,1.1276513,0.04,0.04,-0.007819861642621717,-0.030889264775113556,-0.020049005892075478,0.2907869257091847,-0.05951306013125762,0.044294166273160906,0.8911231915175079,0.43657624414455,0.06470179813846348,0.1054244654050415
1927.8999999985754,-0.4473633,-0.45213372,-0.11485592,-2.0714886,0.17543718,1.7305689,1.1294739,0.04,0.04,-0.006165107733124842,-0.031395159578762044,-0.019117935637180672,0.2885511043866047,-0.05919524465364534,0.04366641112543946,0.889953064953981,0.4387959423071407,0.06509435794726569,0.10585078061704176
1927.916666665242,-0.44972098,-0.45038304,-0.11546316,-2.0699892,0.17636058,1.7314091,1.1312824,0.04,0.04,-0.0059493640010455096,-0.03212425118545026,-0.01892853901719338,0.286284330132129,-0.058872695156709,0.04303651457829237,0.888786169045028,0.4409956900380704,0.06548417396021129,0.106272150833875
1927.9333333319087,-0.45205936,-0.4486466,-0.116065495,-2.0685017,0.17727639,1.7322425,1.1330762,0.04,0.04,-0.005626775321676547,-0.03287284276597413,-0.018327301496823267,0.2839822258947947,-0.05854404516425828,0.0424041913696411,0.8876229148009818,0.4431750092845145,0.06587137370486607,0.10668849231343423
1927.9499999985753,-0.45437837,-0.4469247,-0.11666285,-2.0670269,0.17818457,1.7330691,1.1348548,0.04,0.04,-0.006418938436381083,-0.03361867683587816,-0.018281341556170005,0.2816487269188751,-0.05820856172228206,0.04177117879247494,0.8864635729932153,0.44533373712102464,0.06625573473667475,0.1070998317105478
1927.966666665242,-0.45667765,-0.44521737,-0.11725517,-2.065565,0.17908499,1.7338884,1.1366183,0.04,0.04,-0.007263304025828532,-0.034789620042274816,-0.01811218640428436,0.27928368005741516,-0.05786804851721971,0.04113644559470169,0.8853084272531591,0.4474717258632825,0.06663679074711874,0.1075061919444555
1927.9833333319086,-0.4589569,-0.44352478,-0.1178424,-2.0641153,0.17997758,1.7347004,1.1383662,0.04,0.04,-0.004875256596026389,-0.035164368432394344,-0.017127731304444893,0.2768885987862927,-0.05752593578292737,0.04049787893469564,0.8841577816557165,0.44958864756387984,0.06701517853729874,0.10790751116089159
1927.9999999985753,-0.46121603,-0.44184726,-0.11842446,-2.0626779,0.18086228,1.7355055,1.1400989,0.04,0.04,-0.005009210139883535,-0.03575857223145906,-0.01690180360809368,0.27446413195760727,-0.057175896627708625,0.03986048423547868,0.8830117676439271,0.4516845900714626,0.06739092096414709,0.10830379986836156
1928.016666665242,-0.46345484,-0.44018486,-0.11900131,-2.0612545,0.18173899,1.7363034,1.141816,0.04,0.04,-0.00789226795836484,-0.03688821631723238,-0.01693750290641116,0.27200841320714697,-0.056816195087416047,0.039220690323352174,0.8818707012155338,0.45375939302143176,0.06776319560644803,0.10869511904242435
1928.0333333319086,-0.4656729,-0.4385377,-0.1195729,-2.059844,0.18260764,1.737094,1.1435171,0.04,0.04,-0.005642648598369604,-0.03753972538982353,-0.016065292659583896,0.2695226821568622,-0.056456658449127006,0.03857720334815415,0.880734929593245,0.4558126743201276,0.06813245691720281,0.10908142847405593
1928.0499999985752,-0.4678702,-0.43690616,-0.12013919,-2.0584457,0.18346807,1.7378771,1.1452024,0.04,0.04,-0.00369207479988809,-0.037772335735108964,-0.01572976584145458,0.267009496893356,-0.05609159363137245,0.03793466608087543,0.8796046049600527,0.45784443536273295,0.06849917872836121,0.10946266237393441
1928.0666666652419,-0.4700465,-0.43529016,-0.12070005,-2.0570617,0.1843203,1.7386528,1.1468712,0.04,0.04,-0.0076048350373003615,-0.03915915720896779,-0.01563662331576232,0.2644666480389356,-0.05571701129815011,0.03729427916601205,0.8784801174573669,0.4598544096133579,0.0688622998184817,0.10983892231331514
1928.0833333319085,-0.47220147,-0.43369,-0.1212555,-2.0556908,0.18516415,1.7394208,1.1485239,0.04,0.04,-0.005037355294090773,-0.039551555064276656,-0.015063936800752131,0.26189819655460045,-0.05534065593933129,0.03665049079376186,0.8773616155619428,0.4618425962396935,0.06922234404060157,0.11021015798301828
1928.0999999985752,-0.47433504,-0.4321058,-0.12180547,-2.0543346,0.18599959,1.7401811,1.1501598,0.04,0.04,-0.007773696723933909,-0.040557934793328254,-0.015088995804624084,0.25930168151098704,-0.05495867671089032,0.0360061862216578,0.8762494720918056,0.4638087263162175,0.0695786045974183,0.11057642530863603
1928.1166666652418,-0.476447,-0.43053773,-0.12234989,-2.0529916,0.18682654,1.7409337,1.1517794,0.04,0.04,-0.004473007197436374,-0.0407235819362306,-0.014068130200173279,0.25668061481315835,-0.05457714530103144,0.03535949980790533,0.8751437884636663,0.4657528463157059,0.06993188286308219,0.11093767358974224
1928.1333333319085,-0.47853708,-0.42898574,-0.12288872,-2.0516636,0.18764493,1.7416784,1.1533824,0.04,0.04,-0.007930075829198913,-0.04195369436025276,-0.014178544822418537,0.2540317120560565,-0.054187820366391665,0.03471274765181707,0.8740448626006788,0.4676748723483378,0.07028114466094662,0.11129399193340865
1928.1499999985751,-0.48060516,-0.4274502,-0.12342191,-2.050349,0.18845469,1.7424152,1.1549684,0.04,0.04,-0.004295362689132887,-0.04203980205153002,-0.013242722231998627,0.2513580319870815,-0.05379921361000432,0.03406197926033579,0.8729529980316837,0.4695744503358063,0.0706273942334689,0.1116452865243796
1928.1666666652418,-0.482651,-0.42593113,-0.12394941,-2.049048,0.18925574,1.7431443,1.156537,0.04,0.04,-0.004612688065508408,-0.04259230562062566,-0.012674116461330875,0.248660171206167,-0.05340279880847164,0.033413418291395915,0.8718684610841205,0.47145143748591545,0.07097055769837653,0.11199155592835063
1928.1833333319084,-0.4846744,-0.42442867,-0.1244712,-2.047761,0.19004802,1.7438654,1.1580892,0.04,0.04,-0.005212353340144915,-0.043429194427779816,-0.012494174927857316,0.2459382297486532,-0.05299972685869606,0.03276651662239416,0.8707913092479874,0.4733060981805116,0.07131030310487584,0.11233287067642621
1928.199999998575,-0.48667535,-0.422943,-0.12498718,-2.0464885,0.19083145,1.7445785,1.1596231,0.04,0.04,-0.005764032478117187,-0.04398861149395028,-0.012260860120583139,0.2431914302481969,-0.05259233742263146,0.03211954934262986,0.8697220943000494,0.47513777761899806,0.07164653551885126,0.11266918351422184
1928.2166666652417,-0.4886535,-0.4214742,-0.12549737,-2.0452306,0.19160599,1.7452832,1.1611402,0.04,0.04,-0.005694727426819313,-0.044820439642911936,-0.0118391310507171,0.24042517080130443,-0.052179612131732625,0.03147279079558889,0.8686607798125503,0.4769468890136531,0.07197902563331049,0.11300059532820604
1928.2333333319084,-0.4906088,-0.42002237,-0.1260017,-2.0439873,0.19237155,1.74598,1.1626389,0.04,0.04,-0.005299251736623489,-0.045065781690989404,-0.011215127338015662,0.2376350431757277,-0.05176638870872801,0.03082453580992698,0.8676078737733485,0.47873281334478923,0.07230806774665789,0.11332702295665198
1928.249999998575,-0.49254116,-0.41858763,-0.1265001,-2.0427585,0.19312808,1.7466683,1.1641207,0.04,0.04,-0.005275216196265475,-0.04572833150390254,-0.010988954536927942,0.23482652776988178,-0.05134845970373353,0.030178622727863584,0.8665632483576053,0.4804961368655631,0.07263336939492693,0.11364854906036158
1928.2666666652417,-0.4944503,-0.41717017,-0.12699257,-2.0415444,0.19387549,1.7473485,1.1655841,0.04,0.04,-0.00516959397689476,-0.04623310692566385,-0.01040429417560329,0.2319943155069068,-0.050926415394260065,0.029531830810776063,0.8655274444789197,0.4822361891120349,0.0729551429299036,0.11396511696378663
1928.2833333319084,-0.496336,-0.41577,-0.12747905,-2.0403454,0.1946138,1.7480205,1.167031,0.04,0.04,-0.005567628987446227,-0.04696117239357811,-0.00989299847902192,0.22914460095686823,-0.05050104981995482,0.028885867032385305,0.8645002183325604,0.4839537456326795,0.07327307906858538,0.11427685887730696
1928.299999998575,-0.49819824,-0.4143873,-0.12795958,-2.0391612,0.19534291,1.7486839,1.168459,0.04,0.04,-0.0049334817683099885,-0.04727880539368012,-0.00971605188204716,0.2262696560073425,-0.050071765462525564,0.02823917924077509,0.8634823437974932,0.48564773454824,0.07358733582980752,0.11458369815825084
1928.3166666652417,-0.5000368,-0.4130221,-0.12843399,-2.0379922,0.19606277,1.749339,1.1698686,0.04,0.04,-0.0055331396984215075,-0.04806781444357533,-0.00905484496862563,0.22337992471433377,-0.04964019785942435,0.0275932477949348,0.862473939580048,0.48731828602062893,0.07389776325793662,0.11488564854089477
1928.3333333319083,-0.5018516,-0.41167468,-0.12890232,-2.036838,0.19677334,1.7499857,1.1712596,0.04,0.04,-0.004225654692158187,-0.04808127100324189,-0.008688967422565419,0.22047476441030017,-0.04920672096451991,0.026950558166191255,0.8614751335596148,0.4889654378825568,0.07420470588606605,0.11518270894160171
1928.349999998575,-0.5036425,-0.41034493,-0.12936455,-2.035699,0.19747455,1.7506236,1.1726329,0.04,0.04,-0.004921998039542075,-0.04892562964085023,-0.008316934166363588,0.21755331562491406,-0.04876628576422583,0.026308963571302094,0.8604859920442578,0.4905894327256081,0.07450769808056003,0.11547497096908846
1928.3666666652416,-0.5054096,-0.40903297,-0.12982062,-2.0345752,0.19816633,1.7512532,1.1739881,0.04,0.04,-0.005297928642589156,-0.04883190660731618,-0.007962299761121727,0.21461367790851932,-0.048322810187744,0.025665467053579832,0.8595066929371236,0.49219025755570794,0.07480686777502374,0.11576237600025796
1928.3833333319083,-0.50715226,-0.40773883,-0.1302705,-2.0334673,0.19884865,1.751874,1.1753246,0.04,0.04,-0.005889211012855,-0.05038658749654257,-0.007427119702851925,0.21165669046485608,-0.04787829791603989,0.02502533718251661,0.858537726145609,0.49376740854791923,0.07510174717601936,0.1160450197626292
1928.399999998575,-0.5088711,-0.40646264,-0.13071415,-2.0323744,0.19952153,1.7524863,1.1766424,0.04,0.04,-0.004102320629195688,-0.04930178638860028,-0.00703967854189802,0.20868759175485826,-0.047432530764260246,0.024383328541104334,0.8575790207781538,0.49532121647650806,0.07539305826386107,0.11632283694544626
1928.4166666652416,-0.5105655,-0.40520447,-0.13115159,-2.0312974,0.20018487,1.7530901,1.1779416,0.04,0.04,-0.005715259193905808,-0.050627646513190516,-0.006703417072828621,0.20570252654777071,-0.04698196209704744,0.02374447468989961,0.8566308971381098,0.4968514923133769,0.07568021924867589,0.1165959050258623
1928.4333333319082,-0.51223534,-0.4039645,-0.13158274,-2.030236,0.20083864,1.7536851,1.1792219,0.04,0.039999988,-0.004640553596990671,-0.051223422771018434,-0.0060875520188741206,0.20270480278930209,-0.0465331919957133,0.023107105681447568,0.8556936061552803,0.4983580701322777,0.07596340169358029,0.11686422858233161
1928.4499999985749,-0.51388067,-0.40274262,-0.13200766,-2.02919,0.20148279,1.7542714,1.1804833,0.04,0.039999988,-0.0046361121949445305,-0.051023188182608425,-0.005779684841922261,0.19969638006996326,-0.04607941287137787,0.022469788382476312,0.8547672316999206,0.49984109137834365,0.07624263266264839,0.11712781030322807
1928.4666666652415,-0.5155016,-0.4015391,-0.13242625,-2.0281594,0.20211735,1.754849,1.181726,0.04,0.039999988,-0.0037865684244131614,-0.051186885528686776,-0.005426935819530243,0.19667603179883208,-0.0456251321897954,0.02183593688498914,0.8538518920497066,0.5013005995704761,0.07651812895199103,0.11738667409507807
1928.4833333319082,-0.51709783,-0.40035385,-0.13283849,-2.0271442,0.20274223,1.7554176,1.1829497,0.04,0.039999988,-0.004309567700300221,-0.051998480785286905,-0.0049226965499915565,0.19364435497347676,-0.045164952618065426,0.02120524321779273,0.852947861785831,0.5027364455162746,0.07678961207780126,0.11764083857904692
1928.4999999985748,-0.5186694,-0.399187,-0.13324441,-2.026145,0.20335743,1.7559775,1.1841545,0.04,0.039999984,-0.004865233709105965,-0.05202334020600885,-0.0047619871262227775,0.190603281711651,-0.04470308004483023,0.020575501976956026,0.8520551879541525,0.5041488271311808,0.07705700065031638,0.11789035343676685
1928.5166666652415,-0.52021617,-0.39803854,-0.13364395,-2.0251615,0.2039629,1.7565285,1.1853403,0.04,0.039999973,-0.0044673795530858484,-0.05261117000024962,-0.004160295116206747,0.18755219738055107,-0.04424051928396534,0.019947718421252206,0.8511741432216191,0.505537554402206,0.07732028282849643,0.11813523125342593
1928.5333333319081,-0.5217381,-0.39690852,-0.13403715,-2.0241942,0.20455873,1.7570707,1.186507,0.04,0.039999973,-0.00511049494922311,-0.052792000380019743,-0.003970841354328236,0.18449319570371286,-0.04377717004085105,0.0193222156511064,0.8503048177553186,0.5069027473084827,0.07757931115515403,0.1183755555589862
1928.5499999985748,-0.5232352,-0.39579695,-0.13442394,-2.0232432,0.20514475,1.7576039,1.1876545,0.04,0.039999977,-0.005118174289986399,-0.053090273157896384,-0.003602199662156025,0.18142627654031054,-0.04331197239005455,0.018697668238592677,0.8494474112730903,0.5082443562879458,0.07783401165039863,0.11861128282462242
1928.5666666652414,-0.52470714,-0.3947039,-0.13480437,-2.0223076,0.20572099,1.7581283,1.188783,0.04,0.03999997,-0.0036174382941123184,-0.05329028215705911,-0.0027409394588007174,0.17835350417100526,-0.0428505406226772,0.018075960781671153,0.8486020287785198,0.5095623971274523,0.07808479035386616,0.11884244066030376
1928.583333331908,-0.5261541,-0.39362937,-0.13517836,-2.0213876,0.20628746,1.7586437,1.1898924,0.04,0.039999973,-0.0035511240935814925,-0.05336183495414648,-0.0025425105714793617,0.17527497723849794,-0.04238457877402278,0.01745656797217006,0.8477688274061874,0.5108568649575929,0.07833161682295843,0.11906904135810888
1928.5999999985747,-0.527576,-0.39257348,-0.13554591,-2.0204833,0.20684417,1.7591501,1.1909826,0.04,0.039999973,-0.0038182142060083635,-0.053760583910000825,-0.0023095339638734558,0.17219171947528983,-0.041913866380543105,0.016838111675997487,0.846947943396166,0.512127791560938,0.07857434884559379,0.11929114800106712
1928.6166666652414,-0.52897286,-0.39153612,-0.135907,-2.0195951,0.20739105,1.7596477,1.1920538,0.04,0.039999932,-0.0046826151288481555,-0.05400231928192056,-0.0018744289576488882,0.1691050021827541,-0.04144392666333165,0.016224646379511785,0.8461394454313266,0.5133753345806104,0.07881279336485615,0.11950877930696883
1928.633333331908,-0.53034467,-0.39051732,-0.1362617,-2.0187225,0.20792815,1.7601365,1.1931053,0.04,0.03999992,-0.003282303359108951,-0.05367751476064164,-0.001447099019813436,0.16601459721335973,-0.04097385646953399,0.015614397694181874,0.8453435789662782,0.5145992700451024,0.07904736418026907,0.11972192357995023
1928.6499999985747,-0.53169155,-0.3895171,-0.13660999,-2.0178664,0.20845543,1.7606165,1.1941379,0.04,0.039999917,-0.004903906752273812,-0.05396905622581105,-0.0014260950252698024,0.16292348909621912,-0.04050054875899339,0.015006464856016768,0.84456025173052,0.5158000390969913,0.07927760173024878,0.11993065800004164
1928.6666666652413,-0.53301334,-0.3885355,-0.13695185,-2.017026,0.20897293,1.7610874,1.1951513,0.04,0.039999917,-0.003637968010439252,-0.05436312686832867,-0.0009427683571816559,0.15982854968311683,-0.0400293664835147,0.014401721278231642,0.8437896947722262,0.5169774615483884,0.07950365463933312,0.12013502464380564
1928.683333331908,-0.5343101,-0.3875725,-0.13728724,-2.0162015,0.20948054,1.7615492,1.1961454,0.04,0.03999992,-0.00403465234302125,-0.054416002697244004,-0.000667183842573138,0.15673408916437037,-0.039555887526201906,0.013797860335590743,0.8430320439428552,0.5181315641760985,0.07972544375193176,0.1203349853887846
1928.6999999985746,-0.5355819,-0.38662818,-0.13761617,-2.0153933,0.20997843,1.7620022,1.1971204,0.04,0.039999913,-0.004138005876752615,-0.054530343258263336,-0.00033648733239743933,0.15364010367767789,-0.03908384557597358,0.0131992749506986,0.8422872945067726,0.5192625436297381,0.07994300511413308,0.12053066094964035
1928.7166666652413,-0.5368284,-0.3857023,-0.1379387,-2.014601,0.21046649,1.7624464,1.1980761,0.04,0.039999913,-0.00407286836536791,-0.054724238752923426,0.0003767870811355323,0.15054725626277787,-0.03861502212146388,0.012604186599624125,0.8415556779684459,0.5203702519341387,0.08015632501837608,0.12072201680148865
1928.733333331908,-0.53804994,-0.38479495,-0.1382548,-2.0138245,0.21094482,1.7628816,1.1990126,0.04,0.03999991,-0.003520464755712993,-0.05446771419392871,0.00043731632655141794,0.1474579816642152,-0.038143113004396864,0.012011442543424851,0.8408371787807515,0.5214548970146913,0.08036550285205853,0.12090911922084224
1928.7499999985746,-0.53924656,-0.38390616,-0.13856454,-2.013064,0.21141334,1.7633079,1.1999301,0.04,0.039999906,-0.003815761214998048,-0.054512383557137056,0.0005198614734691631,0.1443716287792146,-0.0376712669077576,0.01142183486718318,0.8401318449069359,0.5225166219628725,0.08057043797448626,0.12109197938086584
1928.7666666652412,-0.5404184,-0.3830359,-0.13886783,-2.012319,0.21187213,1.7637253,1.2008284,0.04,0.039999902,-0.0033684334369787905,-0.05449742913223865,0.0009087355865800006,0.1412891255848681,-0.03720174862220087,0.010835761716529467,0.839439749066131,0.5235554884897204,0.08077123505845946,0.12127063019219542
1928.783333331908,-0.54156524,-0.38218397,-0.1391647,-2.0115898,0.21232112,1.7641339,1.2017076,0.04,0.039999906,-0.003156328327902358,-0.05444433914922886,0.00161302625836246,0.13821159966835145,-0.03672907967726532,0.010251509391488046,0.8387610381959324,0.5245714482319837,0.08096801418203081,0.12144503770718496
1928.7999999985745,-0.54268724,-0.3813506,-0.1394552,-2.0108757,0.2127604,1.7645338,1.2025679,0.04,0.03999991,-0.0023106449198007084,-0.054439866428235284,0.001677017669132752,0.13514095216542635,-0.03626181119570973,0.009676200776414706,0.8380956627120901,0.5255647282193473,0.08116094006953777,0.12161528852054318
1928.8166666652412,-0.54378456,-0.3805355,-0.13973929,-2.010178,0.21319003,1.7649246,1.2034093,0.04,0.03999991,-0.0049548519031716864,-0.05474133058127606,0.001592507932923759,0.13207632611940606,-0.03578911285435623,0.00910485888639416,0.8374437138516326,0.52653546711742,0.08134923166426195,0.1217814867106622
1928.8333333319079,-0.54485726,-0.37973884,-0.14001706,-2.0094962,0.21361,1.7653068,1.2042316,0.04,0.039999902,-0.0032795926206752313,-0.05426986804146772,0.0019611000751318386,0.12901958918664794,-0.03532214122204662,0.008534723610422344,0.8368052471465162,0.5274836822256769,0.08153344225250539,0.12194359814339031
1928.8499999985745,-0.5459055,-0.37896025,-0.14028847,-2.0088296,0.21402036,1.7656801,1.2050349,0.04,0.0399999,-0.0029995591350751027,-0.05412301943299447,0.002426290542678622,0.1259728215911356,-0.03485455021712771,0.00796924107486871,0.8361803303757565,0.5284094424843047,0.08171353261510043,0.1221016575386171
1928.8666666652412,-0.54692924,-0.37819985,-0.14055355,-2.0081785,0.21442108,1.7660449,1.2058197,0.04,0.0399999,-0.003058832036462178,-0.05392169494931043,0.002680493784734672,0.12293639584846147,-0.03438920703379023,0.007408650703993333,0.8355688054679539,0.5293131505533584,0.08188961656184593,0.12225567749388326
1928.8833333319078,-0.54792845,-0.3774577,-0.14081243,-2.007543,0.21481235,1.7664007,1.2065856,0.04,0.039999902,-0.003459464975685833,-0.05442897580143491,0.0026442922899327925,0.1199084056967839,-0.03392393508926174,0.006852403168473102,0.8349709153333879,0.5301945933281839,0.08206142978859157,0.1224058229576436
1928.8999999985745,-0.5489031,-0.3767335,-0.14106499,-2.006923,0.21519403,1.7667477,1.2073331,0.04,0.0399999,-0.003078038247883441,-0.0542474642900137,0.0033585070045027976,0.11689447435757598,-0.0334611827687641,0.0063003604910117795,0.834386644660034,0.5310539666457081,0.08222905513010662,0.12255200616570557
1928.916666665241,-0.54985386,-0.3760273,-0.14131129,-2.0063188,0.21556628,1.7670865,1.2080615,0.04,0.039999895,-0.0040204080960393185,-0.05337226898698422,0.0030141742707767705,0.11389464340001809,-0.03299754794529134,0.0057502845442726925,0.8338159868345378,0.5318914208662384,0.0823925305848159,0.12269428434882437
1928.9333333319078,-0.5507803,-0.37533897,-0.14155136,-2.0057304,0.21592906,1.7674167,1.208772,0.04,0.03999989,-0.0037989333806720538,-0.05403107252350825,0.003555912430908137,0.11090888280713924,-0.03254249545511144,0.005209244504962988,0.8332588212565138,0.5327073079642827,0.08255166620557035,0.12283274500855229
1928.9499999985744,-0.5516827,-0.3746685,-0.14178526,-2.0051575,0.21628247,1.7677381,1.2094636,0.04,0.03999987,-0.003511475701412081,-0.0536605243391719,0.0034713247920148405,0.10793734600561988,-0.032085159253117196,0.004666561588197395,0.8327153794995665,0.5335014010946086,0.08270651455203748,0.12296741123418024
1928.966666665241,-0.5525613,-0.3740157,-0.14201303,-2.0045993,0.21662655,1.7680511,1.2101374,0.04,0.039999872,-0.0023341989609182434,-0.05286098270507189,0.004074236956808086,0.10498552793972046,-0.03163456742215286,0.004130445488760298,0.8321853788978811,0.534274218739405,0.08285751143774962,0.12309828243047025
