rsonawane2002/My_IMU/logs_2/traj_367/clean_367.csv
time,j1,j2,j3,j4,j5,j6,j7,gripper1,gripper2,imu_ax,imu_ay,imu_az,imu_gx,imu_gy,imu_gz,quat_x,quat_y,quat_z,quat_w
1282.8333333324954,0.00016700293,-0.785875,4.0107683e-05,-2.3551247,9.29385e-05,1.570997,0.786,0.04,0.04,0.0,-0.0,0.0,2.875329272945135e-08,-0.0011641195053377316,4.421952117202833e-08,0.9999995971961153,0.00020320632366974898,0.0008736418299892524,3.263050917662294e-05
1282.849999999162,0.00016700246,-0.78576016,4.0106333e-05,-2.3552213,9.2967864e-05,1.5709941,0.786,0.04,0.04,-0.2919984596372771,-1.7252161732702036e-05,0.020128412572906207,3.5534167642241776e-07,-0.002238707347489742,6.518307667323242e-08,0.9999996850578509,0.00020321178095769306,0.0007665025190812881,3.260459419426297e-05
1282.8666666658287,0.00016697859,-0.7856543,4.004734e-05,-2.35531,9.295189e-05,1.5709913,0.786,0.04,0.04,0.023328727902249824,0.00012766173632152702,-0.0016704052501204103,2.147037438893545e-06,-0.0032273970562917346,-3.042577272377192e-08,0.999999755837597,0.00020324895973049907,0.000667797256658964,3.257960486364538e-05
1282.8833333324953,0.00016689027,-0.78555703,3.9836366e-05,-2.355391,9.281932e-05,1.5709884,0.786,0.04,0.04,0.022460753446940096,0.0003376537086763982,-0.00152481461577203,6.590035898631137e-06,-0.0041380687198844576,-3.388358944892437e-07,0.9999998122111983,0.00020337176017652927,0.0005771982236131623,3.255312339780847e-05
1282.899999999162,0.00016667695,-0.7854678,3.9338258e-05,-2.3554654,9.246907e-05,1.5709856,0.786,0.04,0.04,0.020245481438507795,0.0006398147948013177,-0.0016330473083803199,1.4840025361607712e-05,-0.0049735095255528826,-9.514444818268717e-07,0.9999998567343704,0.0002036583100465176,0.0004939603691007606,3.2522070418468506e-05
1282.9166666658286,0.00016626038,-0.78538626,3.8380545e-05,-2.355533,9.177403e-05,1.5709827,0.786,0.04,0.04,0.02025431493464236,0.0010248613359357473,-0.001312420572419093,2.7494323179648195e-05,-0.005738929985157671,-1.9583632230711447e-06,0.9999998912497184,0.00020420873564643797,0.00041802409587086086,3.248382164138094e-05
1282.9333333324953,0.0001655463,-0.785312,3.675751e-05,-2.3555982,9.059258e-05,1.5709798,0.7859981,0.04,0.039999995,0.01168791143908443,0.001478321783604259,-0.0031984015857799974,4.4890438399197165e-05,-0.006437005089100163,-2.674475303628807e-06,0.9999999184932501,0.00020418937680395687,0.000346796639043896,3.2438907679758493e-05
1282.949999999162,0.0001644268,-0.7852448,3.423405e-05,-2.3556573,8.872575e-05,1.570977,0.7859962,0.04,0.04,0.018378395970275463,0.002023149691590654,-0.0012773892949402565,7.645490526829869e-05,-0.0070886412695881995,-5.496743455553769e-06,0.9999999387041519,0.00020469087629113142,0.0002822151310928895,3.237217063719046e-05
1282.9666666658286,0.00016278091,-0.7851841,3.0548104e-05,-2.3557146,8.599156e-05,1.5709741,0.7859943,0.04,0.04,0.010359578123941837,0.0026026408008023266,-0.0028191456429293993,0.00011329368815862163,-0.007678449007644541,-8.106006806702032e-06,0.9999999536894051,0.00020586650815465244,0.00022180598455248966,3.228426700700935e-05
1282.9833333324952,0.00016047653,-0.7851302,2.541429e-05,-2.3557658,8.21658e-05,1.5709711,0.7859905,0.039999995,0.04,0.017670621686893817,0.003252451200810462,-0.001324683909564861,0.00015536370249644453,-0.008228013056137861,-1.2177477743641185e-05,0.9999999640036673,0.0002069294060341645,0.00016774480781497873,3.2164645988747966e-05
1282.999999999162,0.00015737148,-0.7850828,1.8525976e-05,-2.3558161,7.702546e-05,1.570968,0.78598666,0.039999988,0.039999988,0.008766254995107303,0.003938559049432316,-0.003358977085476944,0.00021093749793257561,-0.008716331413334766,-1.519584535366182e-05,0.9999999707590758,0.00020901285191254177,0.00011734936361302614,3.200940698586384e-05
1283.0166666658286,0.00015331504,-0.78504175,9.558194e-06,-2.355865,7.03332e-05,1.5709647,0.78598094,0.039999984,0.03999998,0.009341028474518787,0.004665756403864014,-0.0031296195109442593,0.0002713870415968288,-0.00916789313189559,-1.895726452197247e-05,0.9999999746588989,0.00021135337527825358,7.0709087564369e-05,3.1814733217050664e-05
1283.0333333324952,0.00014814868,-0.78500706,-1.8300793e-06,-2.3559098,6.1833445e-05,1.570958,0.7859733,0.03999998,0.039999977,0.01288117569329117,0.0054341652079125885,-0.004294194422249653,0.00034466469818738367,-0.00958251218936675,-2.4350560914211314e-05,0.9999999761900052,0.00021415064181625363,2.7615356174727613e-05,3.157346772317694e-05
1283.0499999991619,0.0001417072,-0.7849789,-1.5994026e-05,-2.3559535,5.1262574e-05,1.5709513,0.7859638,0.039999973,0.039999966,0.009274577367102133,0.006232496330788963,-0.003187612585686672,0.00043034876522952546,-0.009961773998025369,-2.9689413795508553e-05,0.999999975765783,0.0002176128800856427,-1.1604021465790314e-05,3.1279617854303686e-05
1283.0666666658285,0.00013381982,-0.7849572,-3.3301134e-05,-2.3559968,3.8346057e-05,1.5709444,0.7859523,0.03999997,0.03999996,0.007380484108265861,0.007059599079782888,-0.0036895951959659,0.0005273371419990073,-0.010303529820533118,-3.672305668288615e-05,0.9999999737551927,0.00022195532124566584,-4.763452640478882e-05,3.092573724322313e-05
1283.0833333324952,0.00012431045,-0.78494215,-5.4129505e-05,-2.3560402,2.2803271e-05,1.5709366,0.785939,0.03999997,0.039999958,0.007143684473365219,0.007909475503074042,-0.004530542983771646,0.0006355045691285206,-0.01061102436823117,-4.375583666200696e-05,0.9999999704172002,0.00022739954373823443,-8.077422467123878e-05,3.0505258360052167e-05
1283.0999999991618,0.000112999005,-0.78493387,-7.8865625e-05,-2.3560839,4.3453397e-06,1.570926,0.78592265,0.03999997,0.039999958,0.0061718918226150166,0.00877958574475539,-0.005969080524259596,0.0007532444390582296,-0.010889467333880517,-5.252255569102916e-05,0.9999999659808072,0.00023363561374288032,-0.00011203644015875962,3.00103422359829e-05
1283.1166666658285,9.970201e-05,-0.78493243,-0.000107903696,-2.3561282,-1.7320486e-05,1.570915,0.7859036,0.039999977,0.039999966,0.006247795341285389,0.00966502099384427,-0.004473122349524239,0.0008848823075575584,-0.011146395456833779,-6.2182309774864e-05,0.9999999606658007,0.00024101369510104174,-0.00014040798258125044,2.943457797326048e-05
1283.133333332495,8.423303e-05,-0.7849383,-0.00014164363,-2.356176,-4.2492564e-05,1.5709007,0.7858814,0.039999973,0.03999996,0.001308513872055883,0.010564040184463478,-0.008107564925219357,0.0010286177472323718,-0.011373126949060935,-7.273502741905313e-05,0.9999999542457043,0.0002495892189444791,-0.00016848176118928703,2.8769901593859082e-05
1283.1499999991618,6.6403525e-05,-0.7849514,-0.00018049033,-2.3562257,-7.147106e-05,1.570886,0.7858559,0.039999977,0.03999996,0.004276490690968693,0.011472563017012717,-0.005352043200623768,0.0011842028191778296,-0.01159313218088828,-8.334041541001964e-05,0.9999999470914005,0.0002594801367342734,-0.00019417175619636066,2.8010428252598525e-05
1283.1666666658284,4.602321e-05,-0.7849719,-0.000224852,-2.3562763,-0.000104561266,1.5708679,0.7858267,0.039999977,0.039999958,0.005856304742346552,0.012390539400616365,-0.007088274740563172,0.0013524341898246864,-0.011786981242983146,-9.485211633124811e-05,0.9999999391623866,0.00027074678448511824,-0.00021825300780914335,2.7148229997601746e-05
1283.183333332495,2.2900495e-05,-0.7850004,-0.0002751397,-2.356328,-0.00014206913,1.5708488,0.7857936,0.03999998,0.03999996,0.006495323444100087,0.01331343057476583,-0.005775126673479569,0.0015334677803504415,-0.011961965794123838,-0.00010813283706378324,0.9999999308001408,0.00028354052308585787,-0.0002394144418908368,2.617652412810918e-05
1283.1999999991617,-3.1568313e-06,-0.7850368,-0.00033176603,-2.3563857,-0.00018430139,1.5708268,0.78575647,0.03999998,0.03999996,-0.0023154675001357816,0.014236272945067626,-0.009395644609333509,0.0017268278636945987,-0.012105010755548337,-0.00012231214211773584,0.9999999211970898,0.00029801299973087545,-0.00026108360533944194,2.508818534102737e-05
1283.2166666658284,-3.234146e-05,-0.7850816,-0.00039514416,-2.3564446,-0.00023156432,1.570802,0.785715,0.039999984,0.03999996,0.006385787782758889,0.015163441294931048,-0.007349245698407003,0.0019322287218901386,-0.012248174160925399,-0.0001365160625580895,0.9999999109905954,0.00031425745256460317,-0.0002805190222258269,2.3877463681141597e-05
1283.233333332495,-6.484582e-05,-0.7851351,-0.00046568736,-2.3565097,-0.00028416928,1.5707752,0.78566873,0.039999984,0.039999966,-0.0016339233885886983,0.016088715937519794,-0.009203562127013676,0.002149761144176775,-0.012365980917960828,-0.0001542630985784904,0.9999998996079942,0.0003323063019434873,-0.0002997476534762901,2.2535913303861084e-05
1283.2499999991617,-0.000100862315,-0.78519756,-0.000543808,-2.3565762,-0.00034241856,1.5707452,0.78561753,0.039999988,0.039999966,0.006519237572977232,0.017010906623582636,-0.008068366924374182,0.0023800494968037084,-0.012477064143346052,-0.00017020303314167849,0.9999998875531831,0.00035231197171278154,-0.00031674342218708946,2.1059435847285132e-05
1283.2666666658283,-0.00014058228,-0.78526914,-0.0006299171,-2.3566496,-0.0004066214,1.5707116,0.7855611,0.03999999,0.03999998,-0.0028580970242497727,0.01792693011530771,-0.011048977442973396,0.002622413492421682,-0.012561700333756705,-0.0001913354442273224,0.9999998737957827,0.00037436458852759235,-0.000334487122987211,1.9440631745864812e-05
1283.283333332495,-0.00018419637,-0.7853502,-0.0007244235,-2.3567264,-0.00047708006,1.5706753,0.7854992,0.039999988,0.039999977,0.0039093682733026824,0.018841446500331368,-0.008940529055090352,0.002877065846241872,-0.01264815431594503,-0.00020976543755296803,0.9999998589595499,0.00039861419202575065,-0.00035053562103547756,1.767440568998911e-05
1283.2999999991616,-0.00023189398,-0.78544104,-0.00082773325,-2.3568082,-0.00055409665,1.5706359,0.7854316,0.03999999,0.03999997,0.001321994752867539,0.01974495360320015,-0.010044268160802616,0.0031437694475271636,-0.012713577933702817,-0.0002263968932628927,0.9999998426340905,0.00042514846414773785,-0.00036569433365577544,1.575538514364263e-05
1283.3166666658283,-0.0002838626,-0.7855419,-0.0009402495,-2.3568969,-0.000637972,1.5705931,0.785358,0.039999995,0.039999984,-0.0018123361621436018,0.02063917967022694,-0.01140037958555773,0.0034221524265797285,-0.012764610838699552,-0.0002488175070582783,0.999999824229923,0.00045405266236355304,-0.0003810370089711715,1.3678486544138556e-05
1283.333333332495,-0.0003402884,-0.78565323,-0.0010623717,-2.356993,-0.0007290044,1.5705466,0.7852781,0.039999995,0.039999984,-0.002178627239612929,0.021525348338168864,-0.012072152251252355,0.0037121105327328494,-0.012812385529785615,-0.0002694369191308778,0.9999998034440274,0.00048541012421949724,-0.0003966838402952599,1.1438906347399931e-05
1283.3499999991616,-0.0004013558,-0.78577554,-0.0011944951,-2.357092,-0.0008274846,1.5704963,0.7851916,0.04,0.03999999,0.005996932537954969,0.022407454150473478,-0.010407415604718473,0.004014364889876581,-0.012856923389626202,-0.00029067608827574015,0.9999997809767308,0.0005193335170219927,-0.0004101921506216978,9.032615219243628e-06
1283.3666666658282,-0.00046724695,-0.7859089,-0.0013370117,-2.357198,-0.0009337096,1.570442,0.7850984,0.04,0.03999999,-0.0013126846999389485,0.023270367687940642,-0.012559960240055013,0.004327781909238215,-0.012873770221626822,-0.0003116842999373098,0.9999997556311468,0.0005559594711780846,-0.00042379836705032424,6.454217871484777e-06
1283.3833333324949,-0.00053814147,-0.78605354,-0.0014903066,-2.3573115,-0.0010479635,1.5703835,0.784998,0.039999988,0.039999947,-0.0013993989978811072,0.024117686035940184,-0.01285036129365924,0.004652632400385457,-0.012886643690385245,-0.0003291986460873869,0.999999727108562,0.0005953028830671481,-0.00043747408526925675,3.7018416964510534e-06
1283.3999999991615,-0.00061421754,-0.78621,-0.0016547615,-2.3574326,-0.0011705246,1.5703208,0.7848904,0.039999988,0.039999932,-0.0013654452178935017,0.024952743065548653,-0.013421201048524622,0.00498885385802395,-0.012894074427352038,-0.0003468927085831172,0.9999996949611681,0.0006375552558395531,-0.00045122086040768966,7.756947455003785e-07
1283.4166666658282,-0.00069564924,-0.7863787,-0.0018307514,-2.3575613,-0.0013016805,1.5702535,0.78477526,0.039999988,0.039999932,-0.0010314222765872572,0.025780400837829235,-0.013941969587816239,0.005335583959160183,-0.012893601783055828,-0.0003711110269060333,0.9999996588029384,0.0006827544942016084,-0.00046501061940010637,-2.3304998640588606e-06
1283.4333333324948,-0.0007826094,-0.78655964,-0.0020186475,-2.357698,-0.001441703,1.5701816,0.78465223,0.039999995,0.03999994,-0.001347677738205988,0.02658850704578249,-0.014014270570816834,0.005693259433604866,-0.01288812743642603,-0.00039483871536554957,0.9999996181679138,0.0007309659051814144,-0.00047887506635627456,-5.616300656333277e-06
1283.4499999991615,-0.0008752677,-0.78675324,-0.0022188146,-2.3578424,-0.0015908659,1.5701052,0.78452134,0.04,0.039999958,-0.0009693223371964876,0.027385488657734325,-0.014238787813614096,0.00606194680070521,-0.012876162067738239,-0.00042238544971882723,0.9999995725379963,0.000782399907881923,-0.0004926374800987874,-9.084151422685337e-06
1283.4666666658281,-0.0009737912,-0.78695995,-0.00243161,-2.3579955,-0.0017494332,1.570024,0.78438216,0.04,0.039999958,-0.0017514560184173078,0.02815745119987183,-0.015031565939760405,0.00643984462654929,-0.012855269936449677,-0.00044663757599184076,0.9999995212990107,0.0008370533470497673,-0.000506538565295799,-1.2732849845233726e-05
1283.4833333324948,-0.0010783433,-0.78718,-0.0026573858,-2.3581583,-0.0019176675,1.5699378,0.78423434,0.04,0.039999943,-0.003608087002571203,0.028913119416186343,-0.015905808984717495,0.006828150311370589,-0.012830086974031187,-0.00046938462825403884,0.999999463583726,0.000894948418571037,-0.0005211768628572511,-1.656097285467199e-05
1283.4999999991614,-0.0011890851,-0.7874137,-0.0028964875,-2.358331,-0.0020958246,1.5698467,0.78407794,0.04,0.03999994,-0.0032628893031461104,0.029655207424356123,-0.016014243032458353,0.0072268871175655055,-0.012802524105801825,-0.0004921380227939556,0.9999993986874793,0.000956312786040905,-0.0005363464639555421,-2.0567102118191156e-05
1283.516666665828,-0.0013061744,-0.7876613,-0.0031492535,-2.3585129,-0.002284158,1.5697504,0.7839126,0.04,0.03999993,-0.002326096667282229,0.03038256349750329,-0.01623309641087811,0.007634477146451003,-0.012772231584966355,-0.0005117712857961119,0.9999993260268587,0.001021161644061169,-0.0005518714936715534,-2.4750348017606258e-05
1283.5333333324947,-0.001429766,-0.7879233,-0.0034160179,-2.3587031,-0.0024829174,1.5696487,0.78373814,0.039999995,0.03999992,-0.00024354389305258906,0.03109912375272479,-0.01619768277485445,0.008051474733650397,-0.012738539408894687,-0.0005343064324420718,0.9999992451645587,0.001089596757898647,-0.000567099477751156,-2.9110141900582685e-05
1283.5499999991614,-0.0015600113,-0.7881998,-0.0036971055,-2.358903,-0.002692341,1.5695417,0.7835543,0.039999995,0.039999906,-0.0020981212505377655,0.031779685980684105,-0.01687044567983964,0.00847737322038166,-0.012693342041498721,-0.0005566562366101525,0.9999991550037817,0.0011616826870932922,-0.0005825404626222955,-3.3640256229286815e-05
1283.566666665828,-0.0016970584,-0.7884912,-0.003992833,-2.3591137,-0.002912666,1.5694289,0.7833609,0.039999995,0.0399999,-0.004275570088974057,0.03243719631954439,-0.018020011788544288,0.00891189124751662,-0.012641882284492836,-0.0005779830890419724,0.9999990542401939,0.0012374780697546187,-0.0005989133622777066,-3.833443829423765e-05
1283.5833333324947,-0.0018410521,-0.78879756,-0.0043035136,-2.3593345,-0.0031441292,1.5693108,0.7831577,0.03999999,0.03999989,-0.00250825699330548,0.03310023619612374,-0.017401877191036697,0.009355125784487276,-0.012590584314148699,-0.0006006018042041348,0.999998942286224,0.001317070800447021,-0.0006155366607496078,-4.319211800176664e-05
1283.5999999991614,-0.0019921344,-0.78911936,-0.004629452,-2.359565,-0.0033869515,1.5691866,0.78294456,0.039999995,0.039999887,-0.001837742871679815,0.03372861396118455,-0.018142959059508357,0.009806130951699348,-0.012534419306062503,-0.0006232719591147962,0.9999988181019691,0.0014005437905675973,-0.0006324145393022514,-4.820379652953651e-05
1283.616666665828,-0.0021504436,-0.7894572,-0.004970946,-2.359807,-0.0036413546,1.5690563,0.7827212,0.04,0.039999887,-0.004051826456952234,0.03432796896724304,-0.019275591590073304,0.010265249067354466,-0.01247022349033698,-0.0006432246730914692,0.999998680282735,0.0014879419555348637,-0.0006500878949144034,-5.3359668689348544e-05
1283.6333333324947,-0.002316114,-0.78981084,-0.005328285,-2.3600597,-0.0039075604,1.5689203,0.78248745,0.04,0.03999989,-0.0030244375751831143,0.03492951968115457,-0.01860553034478407,0.010732237603102619,-0.012406313288911605,-0.0006638536616494477,0.9999985279628127,0.001579308319770839,-0.0006681442606383373,-5.865735925167042e-05
1283.6499999991613,-0.0024892776,-0.79018074,-0.00570175,-2.3603237,-0.0041857753,1.568778,0.78224313,0.04,0.039999884,-0.0035007815618381954,0.035489446200254876,-0.019498351515578882,0.011206742328842148,-0.012335980403278294,-0.000683127402871098,0.9999983597042384,0.0016747389336905405,-0.0006868270729227739,-6.408516437074421e-05
1283.666666665828,-0.0026700632,-0.79056716,-0.0060916184,-2.3605988,-0.0044762003,1.5686294,0.78198826,0.04,0.03999987,-0.0033569819144485535,0.03603872650621131,-0.019868628474273287,0.011688147893972588,-0.012262054226764244,-0.0007005013117771137,0.9999981740315943,0.0017743869640742093,-0.0007061416374140114,-6.96302151149652e-05
1283.6833333324946,-0.0028585945,-0.7909703,-0.00649816,-2.3608854,-0.004779041,1.5684748,0.78172237,0.04,0.039999872,-0.003394862365024842,0.036573744654461345,-0.01981568282420909,0.012175748824272494,-0.012186230581931513,-0.0007189386879395271,0.9999979699870795,0.0018781608440535315,-0.0007258551816684572,-7.528492042546334e-05
1283.6999999991613,-0.003054993,-0.7913906,-0.0069216317,-2.361184,-0.0050944868,1.5683136,0.7814455,0.04,0.039999865,-0.004048184711247238,0.03706702946912558,-0.02073973354754788,0.012670195468436982,-0.01210367977617053,-0.0007352300178919621,0.9999977456533115,0.001986230466492398,-0.0007463312284764923,-8.103410634292566e-05
1283.716666665828,-0.0032593783,-0.791828,-0.00736229,-2.3614943,-0.005422727,1.5681458,0.78115743,0.039999995,0.039999846,-0.004136680916611013,0.03755889412858232,-0.020896849508988957,0.013170434046310374,-0.012017544655531056,-0.0007494712994735031,0.9999974994981733,0.002098615645582285,-0.000767635611298693,-8.686392319054995e-05
1283.7333333324946,-0.0034718616,-0.79228294,-0.007820379,-2.3618176,-0.005763948,1.5679713,0.7808579,0.04,0.039999846,-0.005248612073160963,0.038010090106639985,-0.021574515401390215,0.013676165084855134,-0.011930857153300096,-0.0007632029777794903,0.9999972298481806,0.002215324987779371,-0.0007899536767331216,-9.275964754592453e-05
1283.7499999991612,-0.0036925557,-0.79275566,-0.008296138,-2.362152,-0.0061183237,1.5677902,0.78054684,0.039999988,0.039999828,-0.0023512512171253164,0.038475030839041705,-0.021182400076980024,0.014187875658402366,-0.011844179456222933,-0.0007750039668926942,0.99999693559873,0.002336431762931537,-0.0008124876293595039,-9.870976958470963e-05
1283.7666666658279,-0.003921568,-0.7932463,-0.008789795,-2.3624995,-0.006486028,1.567602,0.7802241,0.039999995,0.03999983,-0.005085671768112476,0.03887418835719879,-0.022196600073365325,0.014704643346627404,-0.01174794247092731,-0.0007860973040792509,0.9999966143189543,0.0024619934002666297,-0.0008360492646507649,-0.00010469361435579231
1283.7833333324945,-0.004159001,-0.79375505,-0.00930158,-2.3628597,-0.0068672257,1.5674074,0.77988946,0.03999999,0.039999824,-0.004904642161007722,0.03927938316380941,-0.022079298829646987,0.015226363500962275,-0.011652031825430434,-0.0007946099959485024,0.9999962643846713,0.0025920382804255214,-0.0008604076371100214,-0.00011069305906863448
1283.7999999991612,-0.004404958,-0.79428214,-0.009831707,-2.363232,-0.0072620804,1.5672057,0.7795429,0.04,0.039999824,-0.003175615930617326,0.039675759380411804,-0.02226329417320816,0.015752809813537275,-0.01155242499614277,-0.0008012698459246188,0.9999958840889615,0.0027266533850197837,-0.0008851831345558551,-0.0001166930708657537
1283.8166666658278,-0.0046595335,-0.79482776,-0.010380382,-2.3636177,-0.007670747,1.5669969,0.7791842,0.04,0.039999817,-0.005881307155486404,0.03999851463049736,-0.02319822198717514,0.016283216089780277,-0.011446639189167667,-0.0008049170761284218,0.999995470930401,0.0028658184194887285,-0.0009111288810083965,-0.0001226687988554549
1283.8333333324945,-0.004922822,-0.79539204,-0.010947809,-2.3640163,-0.008093378,1.5667809,0.77881324,0.04,0.039999817,-0.004683856712084378,0.04035011629840296,-0.023217468853675705,0.01681777197191411,-0.011340496275763223,-0.0008071275569780656,0.9999950230531027,0.0030095798107083213,-0.0009379552977059106,-0.00012860111585155957
1283.8499999991611,-0.005194914,-0.79597527,-0.011534182,-2.3644288,-0.008530113,1.5665576,0.7784298,0.04,0.039999813,-0.006051543974527895,0.040643701605964574,-0.02390712368212089,0.0173560476490944,-0.011232022295772482,-0.0008075093198354824,0.9999945380704938,0.003157941635992899,-0.0009659988934819575,-0.00013446167190855202
1283.8666666658278,-0.005475896,-0.7965775,-0.012139688,-2.3648546,-0.00898109,1.5663271,0.77803403,0.04,0.0399998,-0.005255256734781888,0.040940831795036395,-0.023828683636462067,0.017898209272158107,-0.011124097657364098,-0.0008043442992585817,0.999994013589008,0.003311056635994277,-0.0009950004785740432,-0.00014022891271933422
1283.8833333324944,-0.005765854,-0.79719937,-0.012764505,-2.3652933,-0.009446447,1.5660893,0.77762556,0.04,0.039999798,-0.00387732031321697,0.04122568746154423,-0.024056216216239434,0.018442460414930383,-0.011013480450256833,-0.000799389141285467,0.9999934481930469,0.0034688363775152936,-0.0010244330265933763,-0.0001458839949640615
1283.899999999161,-0.0060648643,-0.79784065,-0.013408806,-2.3657453,-0.009926311,1.5658439,0.77720433,0.04,0.039999787,-0.005042003042277088,0.04146018314014101,-0.0244538930580962,0.01898991400981119,-0.010895541631733558,-0.0007906683643035955,0.9999928389842891,0.0036313296241458366,-0.0010547531937123366,-0.00015139683889235257
1283.9166666658277,-0.0063730055,-0.79850155,-0.014072758,-2.3662114,-0.010420806,1.5655912,0.77677023,0.03999999,0.039999772,-0.006111320911328377,0.04167585553937758,-0.024895314992501305,0.019539593072894632,-0.010774880594677955,-0.0007801118290202864,0.9999921832961071,0.003798551593966363,-0.0010861795179919831,-0.00015673712853577317
1283.9333333324944,-0.006690351,-0.7991822,-0.014756519,-2.3666914,-0.010930044,1.565331,0.7763232,0.039999984,0.03999976,-0.005706058005094938,0.041880701791675856,-0.025060322258951828,0.02009176557924664,-0.010651681256151376,-0.000766375731599777,0.9999914786090259,0.003970545722700731,-0.0011186030029042453,-0.0001618743949292095
1283.949999999161,-0.0070169684,-0.7998827,-0.015460239,-2.3671854,-0.0114541445,1.5650631,0.7758632,0.04,0.03999977,-0.006048398847569025,0.04205729281147666,-0.025474341990250338,0.020645485946422525,-0.010527671009216307,-0.0007488389801474406,0.9999907221141613,0.0041473462179908134,-0.001152123612618728,-0.00016678167661877738
1283.9666666658277,-0.00735293,-0.80060315,-0.016184064,-2.3676937,-0.011993209,1.5647877,0.77538997,0.04,0.039999764,-0.0065135828119178285,0.04221811656696453,-0.0256136513387073,0.021200609751749776,-0.010400485858262632,-0.0007279214595341428,0.9999899111872793,0.0043289277939929155,-0.001186811707945262,-0.00017142281551846706
1283.9833333324943,-0.007698293,-0.80134404,-0.01692812,-2.368216,-0.012547344,1.5645047,0.77490354,0.04,0.039999757,-0.005665530828080634,0.042344992685563326,-0.02602317892015371,0.02175698245912636,-0.010272800240715262,-0.0007038558700287675,0.9999890433996114,0.004515312081710552,-0.0012223506059712962,-0.0001757740912736167
1283.999999999161,-0.008053121,-0.802105,-0.017692542,-2.3687525,-0.013116644,1.5642138,0.7744037,0.04,0.03999975,-0.0062721568456991506,0.042468573622890526,-0.02621877210320367,0.022314479484102333,-0.010139856136274411,-0.0006762596330173801,0.9999881156784748,0.004706465675404061,-0.0012591092486450225,-0.0001797958833406578
1284.0166666658276,-0.008417469,-0.8028865,-0.018477459,-2.369303,-0.013701196,1.5639149,0.7738906,0.04,0.039999746,-0.005890779739003982,0.042566638277737046,-0.026496752827642744,0.02287275721808019,-0.01000710352996292,-0.0006435798593346018,0.9999871248239068,0.004902526024562621,-0.0012968309647401245,-0.00018345147385655981
1284.0333333324943,-0.008791392,-0.8036886,-0.019282984,-2.3698678,-0.01430109,1.5636083,0.77336407,0.04,0.03999974,-0.006241007940643861,0.04263613646659711,-0.026716164086604266,0.023430546413872915,-0.009868642562696164,-0.0006081099518308875,0.9999860682387782,0.005103414040590056,-0.0013355276249873292,-0.0001867068367874046
1284.049999999161,-0.009174936,-0.80451137,-0.020109216,-2.3704472,-0.014916405,1.5632938,0.772824,0.04,0.03999974,-0.006734159521415428,0.04266477002746322,-0.027082455848526088,0.02398828085010807,-0.009728744260549767,-0.0005686612126897667,0.9999849426829441,0.005309130966782468,-0.0013753602847610589,-0.0001895253376022334
1284.0666666658276,-0.009568156,-0.80535495,-0.020956267,-2.3710415,-0.015547219,1.5629715,0.7722703,0.04,0.039999727,-0.007533391884506635,0.04269525940719665,-0.02750226298677827,0.024545468174958528,-0.009585496619598198,-0.0005255751831986788,0.9999837447564702,0.00551968144540645,-0.001416519975698852,-0.00019186121657055748
1284.0833333324942,-0.009971091,-0.80621916,-0.021824231,-2.3716507,-0.0161936,1.5626411,0.77170295,0.04,0.03999972,-0.00748261857874688,0.04270699490488902,-0.027530343637782728,0.02510207796600046,-0.009441589146644232,-0.0004770755774456681,0.9999824713769287,0.005735033125023779,-0.001459049009665371,-0.0001936748103033731
1284.099999999161,-0.010383783,-0.80710435,-0.022713194,-2.3722742,-0.016855614,1.562303,0.77112186,0.039999995,0.039999712,-0.006376553495424098,0.0427088176795265,-0.027579279631839704,0.025657957408855424,-0.009297781027037617,-0.00042398415518658805,0.9999811198235922,0.005955211283219841,-0.001502483320849154,-0.0001949328019472639
1284.1166666658276,-0.01080627,-0.8080106,-0.023623234,-2.3729124,-0.017533327,1.5619566,0.770527,0.039999995,0.039999705,-0.007325699720639456,0.04265536046700741,-0.028151531383424633,0.02621227053294048,-0.009147644078050486,-0.000366423374976263,0.999979686376713,0.006180199306440956,-0.001547163575147075,-0.00019558971163235686
1284.1333333324942,-0.011238585,-0.80893785,-0.024554426,-2.3735654,-0.018226784,1.5616022,0.76991844,0.04,0.03999971,-0.007459119576003204,0.04259267037934264,-0.02830459568186061,0.026765023447789152,-0.008997444799866989,-0.00030431599690108196,0.9999781673439077,0.00641003906108729,-0.0015931027079342506,-0.0001955978457919235
1284.1499999991609,-0.011680759,-0.80988646,-0.025506845,-2.374233,-0.018936044,1.5612397,0.7692959,0.04,0.039999705,-0.0068715016037224075,0.04253683516961815,-0.028522678942510815,0.027315149984355233,-0.008844969103555061,-0.0002368091482309112,0.9999765605447435,0.006644593145154304,-0.0016400458321556017,-0.0001949171844507951
1284.1666666658275,-0.012132819,-0.81085616,-0.026480535,-2.3749156,-0.019661147,1.5608693,0.7686594,0.04,0.0399997,-0.008001213982167243,0.04240475990262629,-0.028578647222321507,0.027863886051319293,-0.008687655795435453,-0.00016418538246812386,0.9999748617387779,0.006883914389561161,-0.0016882445897739913,-0.00019350295672839195
1284.1833333324942,-0.012594796,-0.81184727,-0.027475568,-2.3756135,-0.020402139,1.5604906,0.76800907,0.04,0.039999694,-0.00837901514012529,0.04228884551156567,-0.029366712197798073,0.0284100841842186,-0.008528446171488853,-8.692929497489815e-05,0.9999730669177456,0.0071280064198909615,-0.0017379209268063404,-0.00019129675352507988
1284.1999999991608,-0.013066705,-0.8128596,-0.028491983,-2.3763258,-0.021159053,1.5601039,0.7673447,0.04,0.039999686,-0.007393810647937649,0.04217654996903214,-0.028848201590347955,0.028953023133649218,-0.008368825180722118,-4.123679756239118e-06,0.9999711736209022,0.007376804531603934,-0.0017886415689980244,-0.00018826437764121436
1284.2166666658275,-0.013548569,-0.8138934,-0.029529827,-2.3770535,-0.021931915,1.5597091,0.76666635,0.04,0.03999968,-0.008538067603924837,0.04198094451086376,-0.029548332044160297,0.029493033202915027,-0.00820446691173118,8.404177922870931e-05,0.9999691777314247,0.0076302924034353835,-0.0018407178941310491,-0.00018434372962142204
1284.233333332494,-0.014040405,-0.81494844,-0.030589137,-2.3777962,-0.022720765,1.5593059,0.76597404,0.04,0.039999675,-0.008554571650853937,0.04182581951401587,-0.02968887990471014,0.030029902209520253,-0.008039550476403232,0.0001772536374904654,0.9999670751233555,0.007888488924575237,-0.0018942531879025074,-0.0001794898005043091
1284.2499999991608,-0.014542229,-0.8160249,-0.03166994,-2.3785539,-0.02352562,1.5588946,0.7652672,0.04,0.039999675,-0.008508986965227727,0.04162461990401822,-0.02974531028387961,0.030562586254004466,-0.007873285667352885,0.00027715475532884976,0.9999648648294412,0.00815107535906066,-0.001949082385585737,-0.0001736519000656432
1284.2666666658274,-0.015054046,-0.8171229,-0.032772247,-2.3793266,-0.024346488,1.5584753,0.7645469,0.04,0.039999664,-0.008541621279278822,0.04137918205735919,-0.029979921666600795,0.031093449596659592,-0.007704573097405246,0.0003823480162177817,0.9999625390110792,0.008418556546860054,-0.0020051594728391297,-0.00016678030989163194
1284.283333332494,-0.015575868,-0.81824243,-0.033896092,-2.3801146,-0.025183389,1.5580474,0.7638116,0.04,0.039999664,-0.00915870784852224,0.041147714819869674,-0.030555830053580202,0.03161745906391466,-0.007532964881546294,0.0004940481368470168,0.9999600996208852,0.008690163446515946,-0.0020627664590082855,-0.00015880805293718597
1284.2999999991607,-0.016107691,-0.81938326,-0.03504148,-2.3809178,-0.026036326,1.5576117,0.76306295,0.04,0.039999645,-0.0094556363794851,0.040887060853983526,-0.030115705318722874,0.032141118838293486,-0.0073617968508194395,0.0006115165507406053,0.9999575364477208,0.008966660197390881,-0.0021217679875529536,-0.00014968940005156037
1284.3166666658274,-0.016649527,-0.8205456,-0.03620841,-2.381736,-0.026905313,1.5571676,0.7623004,0.04,0.039999645,-0.009116919760931985,0.040616020346020965,-0.03067346850196273,0.032656479958681664,-0.007188153363498196,0.0007339769565872234,0.9999548481993734,0.009247715206812947,-0.0021821780067181763,-0.0001393742035460376
1284.333333332494,-0.01720138,-0.82172954,-0.03739688,-2.3825696,-0.027790332,1.5567155,0.7615237,0.039999995,0.039999634,-0.009555681216300016,0.0403086059964447,-0.030805783159193467,0.033165976188933625,-0.007012691795259752,0.0008640316027701822,0.9999520317503029,0.009533227174925742,-0.0022439800398181995,-0.00012779535705336798
1284.3499999991607,-0.017763231,-0.8229349,-0.0386069,-2.383418,-0.028691383,1.5562551,0.760733,0.04,0.03999963,-0.009492659163323758,0.04000318508684403,-0.03089825373359112,0.03367024703261337,-0.006835961427665887,0.0010003598686144574,0.9999490834336264,0.009823147347782647,-0.0023071877777073625,-0.00011489557162807183
1284.3666666658273,-0.018335082,-0.8241616,-0.03983845,-2.3842812,-0.029608464,1.5557866,0.7599281,0.04,0.039999627,-0.009016345478829457,0.03971764565860458,-0.030679010857337374,0.03416893623703816,-0.0066569825753712425,0.0011426647663336162,0.9999460005831163,0.010117374833130289,-0.002371606521426908,-0.00010063212093208452
1284.383333332494,-0.01891692,-0.8254096,-0.041091494,-2.3851597,-0.030541552,1.55531,0.75910914,0.04,0.039999623,-0.010747258491550227,0.03927661122449383,-0.03129808138837564,0.03466192612197098,-0.006474144304185726,0.0012915906277569597,0.9999427781523856,0.01041589390177957,-0.0024376960579298376,-8.49296481335076e-05
1284.3999999991606,-0.019508738,-0.8266792,-0.042365998,-2.3860536,-0.03149064,1.5548251,0.7582761,0.04,0.039999627,-0.010286877315968113,0.03890091351254066,-0.031711251841826105,0.03514906449718539,-0.006291908766419239,0.0014476957101267687,0.9999394128864473,0.010718644284335261,-0.0025053208202319766,-6.77392109345456e-05
1284.4166666658273,-0.020110518,-0.8279701,-0.043661967,-2.3869622,-0.0324557,1.5543319,0.757429,0.04,0.039999623,-0.0100726024649056,0.038592052224220574,-0.03136155315641709,0.03562987398752902,-0.006108828193518191,0.0016099256777440674,0.999935901262356,0.011025579662772851,-0.002574404633574485,-4.8995123882369153e-05
1284.433333332494,-0.020722242,-0.82928234,-0.044979338,-2.387886,-0.033436697,1.5538307,0.75656796,0.04,0.03999962,-0.010803681606130766,0.03811315595040887,-0.031659168142472716,0.036104226114948935,-0.00592414295282364,0.001780962431755441,0.9999322392167052,0.0113366743161082,-0.00264498971554553,-2.863426586716744e-05
1284.4499999991606,-0.02134389,-0.8306158,-0.04631808,-2.3888247,-0.03443361,1.5533215,0.755693,0.04,0.039999615,-0.01041552248188804,0.037746354247909786,-0.03161800536508608,0.036571527687252664,-0.00573827474670395,0.0019548934242431676,0.9999284230225708,0.011651896838475199,-0.00271699982427707,-6.604166216467352e-06
1284.4666666658272,-0.021975443,-0.8319706,-0.047678128,-2.3897784,-0.035446398,1.5528039,0.7548041,0.04,0.03999961,-0.011023621768813108,0.037247051297099876,-0.03210133209912147,0.03703101204354256,-0.005549254490903939,0.002138435355635855,0.999924449489232,0.011971101054097925,-0.002790655578397732,1.716541518389678e-05
1284.4833333324939,-0.022616874,-0.8333467,-0.049059458,-2.390747,-0.036475003,1.552278,0.75390124,0.04,0.039999604,-0.011060069348567403,0.03681068439813501,-0.03225014117738123,0.03748349505738672,-0.005360904606557262,0.0023285209762180306,0.9999203147543878,0.012294275923370315,-0.0028658494391264316,4.275509491208093e-05
1284.4999999991605,-0.02326815,-0.8347438,-0.050461985,-2.3917303,-0.037519403,1.5517443,0.7529846,0.04,0.039999597,-0.010839394156647586,0.036371769965461154,-0.031683188858089295,0.03792803993226055,-0.00517251016218518,0.002525761329886203,0.9999160157160573,0.012621361989037337,-0.002942415507933444,7.019292086560067e-05
1284.5166666658272,-0.023929246,-0.83616203,-0.051885642,-2.3927283,-0.038579557,1.5512027,0.75205404,0.04,0.039999593,-0.011230601029343923,0.035857936595645734,-0.03217396134833628,0.03836488671214605,-0.004980739547298434,0.0027320605402365583,0.9999115494126641,0.01295223824096708,-0.0030204248660427487,9.95456833095832e-05
1284.5333333324938,-0.024600128,-0.8376012,-0.053330388,-2.393741,-0.03965539,1.5506529,0.7511098,0.04,0.03999959,-0.011318922994485447,0.03538006182402936,-0.032196818103225056,0.03879378003067065,-0.00478644250101589,0.0029419629689751287,0.9999069112114979,0.013286914630226122,-0.0030999478221695096,0.0001308991622825716
1284.5499999991605,-0.025280759,-0.83906126,-0.054796126,-2.3947682,-0.04074686,1.5500952,0.7501518,0.04,0.03999958,-0.011850401411961364,0.03482358725109547,-0.03228252605556037,0.039213697918087875,-0.004591861522223559,0.0031606453604565016,0.9999020981982091,0.013625281295851928,-0.003180995458731756,0.0001643055677326663
1284.5666666658271,-0.025971109,-0.84054214,-0.056282762,-2.3958104,-0.041853897,1.5495297,0.7491802,0.04,0.03999957,-0.01217988914286039,0.03426948482640191,-0.032377110633130535,0.03962511064842211,-0.0043956681500729525,0.0033887932282109443,0.9998971068075264,0.013967266539960128,-0.003263637685161226,0.00019983092834003344
1284.5833333324938,-0.026671128,-0.8420439,-0.05779023,-2.3968675,-0.04297645,1.548956,0.7481951,0.04,0.03999957,-0.012804101269647816,0.033690749259382424,-0.03284742597460255,0.04002764332309203,-0.004199330863328153,0.0036228049814846855,0.999891932233135,0.014312850744345339,-0.0033480929282303845,0.0002375550500654674
1284.5999999991604,-0.027380789,-0.8435663,-0.059318442,-2.3979387,-0.044114448,1.5483744,0.7471964,0.04,0.039999567,-0.011552529088953989,0.03323229119472082,-0.03241376120091122,0.04042056299713281,-0.004003396480785917,0.003863273541239151,0.9998865740109488,0.014661863968113845,-0.003433924731260195,0.00027752219331114307
1284.616666665827,-0.028100032,-0.8451092,-0.06086728,-2.3990247,-0.045267828,1.547785,0.74618405,0.04,0.03999956,-0.013080079997118688,0.032555629524450014,-0.03258982594769311,0.04080419780896313,-0.0038063217445541767,0.004108648518808225,0.9998810283789163,0.015014195472805402,-0.0035214697320332202,0.0003198017374980776
1284.6333333324937,-0.028828816,-0.8466727,-0.06243667,-2.400126,-0.046436492,1.547188,0.7451583,0.04,0.039999556,-0.0139996668563791,0.031918864627988874,-0.03288431579100415,0.04117903636186764,-0.00360937767719461,0.004366505896051628,0.9998752909049909,0.015369817746637381,-0.003610884335318861,0.0003644919912802127
1284.6499999991604,-0.02956709,-0.8482564,-0.064026475,-2.4012406,-0.04762037,1.5465833,0.7441192,0.04,0.03999956,-0.011398810352614142,0.03147486521340448,-0.03211751066400925,0.041544487744463954,-0.003413637713673215,0.00462715270677376,0.9998693607441024,0.015728674281117273,-0.003701464142498387,0.000411599004246388
1284.666666665827,-0.0303148,-0.84986055,-0.065636635,-2.40237,-0.0488194,1.5459707,0.74306685,0.04,0.03999955,-0.013821984203388205,0.030741280057458575,-0.03308574819516075,0.04189945985644843,-0.0032145238465587853,0.0048969564559383505,0.9998632329835377,0.016090653441884685,-0.0037938707897772063,0.00046124174940547353
1284.6833333324937,-0.031071894,-0.8514847,-0.067266986,-2.4035127,-0.050033454,1.5453503,0.7420013,0.04,0.039999545,-0.012013252037346156,0.03019265736318444,-0.03230111776952871,0.042244808846521834,-0.003017471886622207,0.0051756486705117205,0.999856906245329,0.016455709849882698,-0.003887546317631034,0.0005134495927028253
1284.6999999991604,-0.031838316,-0.85312897,-0.068917416,-2.4046695,-0.05126248,1.5447222,0.7409225,0.04,0.03999954,-0.013374961377232708,0.029487856914081623,-0.0327703628481224,0.0425791993827976,-0.0028163881452981654,0.005459463599367054,0.9998503779534834,0.016823669346635234,-0.003982825151281885,0.0005682955268083495
1284.716666665827,-0.032614004,-0.854793,-0.070587814,-2.4058406,-0.052506357,1.5440866,0.73983085,0.04,0.03999954,-0.01422530056989224,0.028793789999839725,-0.032657696021054505,0.04290396991751016,-0.0026157851798785867,0.00575190202241968,0.9998436426178259,0.017194572918050037,-0.004079861283708954,0.000625868028363673
1284.7333333324937,-0.03339891,-0.85647696,-0.07227803,-2.4070253,-0.053765018,1.5434433,0.7387262,0.04,0.039999537,-0.01315071264524903,0.028200403992009737,-0.03264004925780384,0.04321713108467336,-0.002417367471953341,0.0060514454558162345,0.9998367005023797,0.01756824507404155,-0.004178304351413825,0.0006861969687905074
1284.7499999991603,-0.03419296,-0.85818046,-0.07398794,-2.4082243,-0.055038348,1.5427928,0.7376086,0.04,0.039999533,-0.014827491075353194,0.027424501878051122,-0.032593202841857405,0.04351963614035116,-0.002216319827212536,0.006360397535848009,0.9998295483831987,0.017944551405656678,-0.004278515433645503,0.0007493733267676278
1284.766666665827,-0.034996092,-0.85990363,-0.07571742,-2.409437,-0.056326244,1.5421348,0.73647815,0.04,0.03999953,-0.013794905200348317,0.02681280747859338,-0.032656308162626324,0.043811397715542974,-0.0020178820567463562,0.006674692409851024,0.9998221850009881,0.018323406999618236,-0.004380201416413863,0.000815457741404899
1284.7833333324936,-0.035808228,-0.8616461,-0.077466294,-2.410663,-0.057628598,1.5414693,0.7353352,0.04,0.039999522,-0.013934605980892023,0.02608762226076755,-0.03237852579711653,0.044092379419589295,-0.00181717630876789,0.006994840246610581,0.9998146059393221,0.018704834700420923,-0.004483366627952661,0.0008844958491903465
1284.7999999991603,-0.036629304,-0.86340755,-0.079234466,-2.4119022,-0.0589453,1.5407965,0.7341796,0.04,0.03999952,-0.014518711401323436,0.025422306381503446,-0.03229626807148556,0.04436135919888434,-0.0016173694156117469,0.0073238371836245875,0.9998068092961255,0.01908867554725159,-0.0045881921976733695,0.0009565789615948857
1284.816666665827,-0.03745926,-0.86518824,-0.081021726,-2.413155,-0.06027624,1.5401165,0.7330115,0.04,0.039999515,-0.014756127278681141,0.02461398520800795,-0.032471585617566134,0.04461869761664665,-0.001417714962052917,0.0076605384192831305,0.999798795094791,0.0194747580005495,-0.0046945316559106505,0.0010317462653527056
1284.8333333324936,-0.038298026,-0.8669878,-0.08282794,-2.4144213,-0.06162129,1.5394294,0.7318309,0.04,0.039999515,-0.01493522239202072,0.02390837447781291,-0.03227327699524274,0.04486481722183025,-0.0012181638932054553,0.008003737058994306,0.9997905608038474,0.019863000071323897,-0.004802445633931149,0.0011100773072449006
1284.8499999991602,-0.039145507,-0.86880606,-0.08465294,-2.415701,-0.06298033,1.5387353,0.730638,0.04,0.039999504,-0.015352946951163737,0.02313398051965454,-0.032137773535390046,0.045099548091792604,-0.0010205462199102816,0.008353891184691292,0.9997821038823241,0.020253322710419828,-0.004911994732237877,0.0011916306356457842
1284.8666666658269,-0.04000164,-0.87064284,-0.08649658,-2.416993,-0.064353265,1.5380337,0.72943306,0.04,0.039999504,-0.014197394312986944,0.022529523813316632,-0.03203783770477919,0.04532227387351019,-0.000823187933414099,0.008711097234620865,0.999773422268615,0.020645697986468224,-0.005022942867568802,0.0012764501174751216
1284.8833333324935,-0.040866345,-0.8724981,-0.08835867,-2.4182987,-0.06573995,1.5373249,0.7282161,0.04,0.039999504,-0.016837455606566465,0.021517317336156028,-0.03256902803550066,0.045532137232328074,-0.00062515060617057,0.009074533147973116,0.9997645118198749,0.021039972331473755,-0.005135970954345084,0.0013646509495812604
1284.8999999991602,-0.041739542,-0.87437177,-0.09023907,-2.4196174,-0.06714027,1.5366093,0.7269871,0.04,0.039999504,-0.015363089307518507,0.020923982181447753,-0.031862124553549975,0.04573005897818913,-0.000433375824599104,0.009445216493179531,0.9997553756721352,0.021435985946520294,-0.0052503946355306735,0.0014562545586847692
1284.9166666658268,-0.04262115,-0.8762632,-0.092137575,-2.4209487,-0.06855405,1.535887,0.7257463,0.04,0.039999485,-0.01578914169408918,0.02014528822325834,-0.031380438110817366,0.04591616323524371,-0.0002409418694642798,0.009823455465117231,0.9997460111282321,0.021833662339844868,-0.005366360500761981,0.001551321048098335
1284.9333333324935,-0.043511074,-0.87817264,-0.094053976,-2.4222922,-0.06998121,1.5351573,0.7244937,0.04,0.039999492,-0.0151788489023863,0.019340799230460615,-0.03189864768886608,0.046089815085912644,-5.0414996551277624e-05,0.010206681529372291,0.9997364170447702,0.022232892024284252,-0.005483867302163413,0.0016498927644077754
1284.9499999991601,-0.044409238,-0.88009983,-0.095988125,-2.4236484,-0.07142158,1.5344219,0.72322965,0.04,0.039999485,-0.0159154630792413,0.018614945877862277,-0.03077077300701614,0.04625114039630403,0.00013862831547305915,0.010597191716294294,0.9997265931125308,0.022633652068990685,-0.005602434482456772,0.001752011844123471
1284.9666666658268,-0.045315538,-0.8820445,-0.097939834,-2.4250166,-0.072875015,1.533679,0.7219539,0.04,0.03999949,-0.01616958279111458,0.01771937825040537,-0.031786467031502674,0.04639902298844732,0.0003316815681032384,0.010994828134419002,0.9997165378218497,0.02303565613519296,-0.0057228596917922574,0.0018578021593992982
1284.9833333324934,-0.046229895,-0.88400644,-0.09990889,-2.426397,-0.07434138,1.5329299,0.7206669,0.04,0.03999949,-0.016144653807836917,0.01698831685568447,-0.030744616127154067,0.04653521872513999,0.0005183170764874179,0.011398055659029904,0.9997062511555161,0.023438904405442613,-0.005844573843786231,0.0019672614063814776
1284.99999999916,-0.047152225,-0.88598543,-0.10189512,-2.4277894,-0.07582053,1.5321743,0.71936864,0.04,0.039999478,-0.016260558589609175,0.016222293285383937,-0.03072970417488108,0.04665841000317489,0.0007059399844824635,0.011807898867529268,0.9996957314474547,0.02384329833573977,-0.005967689868826659,0.0020804633716943583
1285.0166666658267,-0.048082426,-0.88798136,-0.10389832,-2.4291935,-0.07731233,1.531412,0.71805924,0.04,0.03999947,-0.016286397772602434,0.015373849158378805,-0.030849705821101026,0.04676889628701633,0.0008920033654758949,0.012223775394461373,0.9996849784560616,0.02424868354166565,-0.006092320552180789,0.002197459007424862
1285.0333333324934,-0.04902041,-0.88999397,-0.10591825,-2.4306095,-0.078816585,1.5306436,0.71673894,0.04,0.03999946,-0.016896960986989562,0.014510815654042442,-0.030287779011217708,0.046866471969384815,0.0010750298747845416,0.01264534710732422,0.9996739916090255,0.024654984186476547,-0.006218337414060475,0.0023183043475067805
1285.04999999916,-0.049966075,-0.8920232,-0.10795477,-2.4320369,-0.08033317,1.5298687,0.7154078,0.04,0.039999463,-0.01646958533472187,0.01378209509861894,-0.030342588350085187,0.04695115454109519,0.001257108946147216,0.01307275940940529,0.9996627710597619,0.02506207627562509,-0.006345703203931406,0.0024430597046221
1285.0666666658267,-0.050919313,-0.8940685,-0.110007584,-2.433476,-0.08186195,1.5290875,0.714066,0.04,0.03999947,-0.01759637045852802,0.012824123965299306,-0.030009547007980863,0.04702247202265089,0.0014381200931769395,0.013505189188017505,0.9996513142720392,0.025469851625667162,-0.006474766578327605,0.002571756230159236
1285.0833333324933,-0.051880028,-0.89613,-0.11207652,-2.434927,-0.08340274,1.5283005,0.7127138,0.04,0.039999466,-0.017812239137060537,0.011980010237558347,-0.029860299850348326,0.047080591823640994,0.0016135017286975847,0.013943615247197547,0.9996396229856315,0.025878182987322806,-0.006605277044678328,0.002704462531141889
1285.09999999916,-0.052848134,-0.8982073,-0.11416137,-2.4363887,-0.084955364,1.5275072,0.7113511,0.04,0.039999455,-0.016672972281206455,0.011328624148515543,-0.0294451926805106,0.047125813427381605,0.0017863482551209453,0.014387288975605872,0.9996276975835197,0.026286968390356557,-0.0067371363903352055,0.0028412162842049566
1285.1166666658266,-0.053823523,-0.9003004,-0.11626187,-2.437861,-0.08651969,1.526708,0.70997804,0.04,0.039999463,-0.01624880503767745,0.010516825315809442,-0.02899014351975815,0.04715768551187223,0.0019565627474207176,0.014835973473210251,0.9996155425855959,0.02669603855941627,-0.006869948626031216,0.00298200476432543
1285.1333333324933,-0.054806087,-0.90240884,-0.11837784,-2.4393442,-0.088095516,1.5259029,0.70859504,0.04,0.039999455,-0.01767490705995023,0.009577640486402306,-0.02900720428355985,0.04717678546119079,0.002127525866880031,0.015289628794198526,0.9996031515670187,0.027105400050778636,-0.007004203129032917,0.003126948016544062
1285.14999999916,-0.055795707,-0.90453285,-0.12050908,-2.4408379,-0.089682706,1.5250918,0.7072021,0.04,0.03999945,-0.016887216658445503,0.00881844996110659,-0.02886800421668667,0.04718167247249694,0.002294451270372172,0.01574809654325461,0.9995905289946811,0.027514876113660647,-0.007139561021378121,0.003276065476358148
1285.1666666658266,-0.05679229,-0.90667135,-0.122655295,-2.4423425,-0.091281064,1.5242753,0.70579916,0.04,0.039999444,-0.018696536495599325,0.007865643558180313,-0.027977312265892174,0.04717346020296066,0.002461456779002398,0.016211118805684474,0.9995776753339463,0.027924236269817257,-0.00727648251683851,0.0034294029966595203
1285.1833333324932,-0.057795715,-0.90882474,-0.124816276,-2.4438574,-0.09289044,1.523453,0.70438665,0.04,0.039999444,-0.01741991172270474,0.007106623663793998,-0.02821081437633932,0.04715262092759988,0.0026217678629137098,0.016678727628236828,0.9995645901908022,0.028333493384313922,-0.007414627361380381,0.0035869890474727033
1285.19999999916,-0.058805887,-0.9109928,-0.12699178,-2.445383,-0.09451064,1.5226252,0.7029648,0.04,0.039999444,-0.018499800463733784,0.006145601101215092,-0.027922158541104913,0.04711847043313884,0.002779769180068857,0.017150310436702454,0.9995512726369348,0.028742545891652406,-0.007554155007778259,0.003748888857903439
1285.2166666658266,-0.0598227,-0.9131748,-0.12918155,-2.4469178,-0.09614148,1.5217917,0.7015336,0.04,0.039999444,-0.01662784523670524,0.005624212507515658,-0.0270095766336631,0.0470703663249412,0.0029324628604565847,0.017625547090319785,0.9995377258496082,0.02915130201069172,-0.007694698386879339,0.003915074866449878
1285.2333333324932,-0.060846027,-0.915371,-0.13138534,-2.448463,-0.097782776,1.5209532,0.70009315,0.04,0.03999944,-0.018726205312602495,0.004461089106372329,-0.027040991810522996,0.047008741397487064,0.0030834514415643277,0.018105544548731714,0.9995239539804817,0.029559478452368376,-0.00783647126642407,0.004085629809278544
1285.2499999991599,-0.06187575,-0.91758084,-0.133603,-2.4500167,-0.09943438,1.5201092,0.69864345,0.04,0.03999944,-0.016368812379741193,0.004100115049576747,-0.026319402987629026,0.04693475419415152,0.0032310676956331177,0.018588187745535778,0.9995099601558349,0.029967025024708376,-0.00797901709767874,0.004260545341233916
1285.2666666658265,-0.062911764,-0.9198042,-0.13583423,-2.4515812,-0.101096086,1.51926,0.69718516,0.04,0.03999944,-0.02008615851905038,0.0026839539368495036,-0.026669705270809807,0.046847232244958834,0.0033789858182135743,0.019074856786296515,0.9994957345024733,0.030373939798318494,-0.008123258415965097,0.004439951035446139
1285.2833333324932,-0.06395393,-0.92204094,-0.1380787,-2.4531543,-0.10276769,1.5184063,0.6957181,0.04,0.039999444,-0.016667938107928215,0.002272503742284382,-0.0252820017585087,0.046746431416687564,0.003516800656950425,0.019563888310939012,0.9994812920364632,0.030780006678228413,-0.008267966411669866,0.004623720301421172
1285.2999999991598,-0.065002166,-0.92429084,-0.14033625,-2.4547377,-0.10444902,1.5175472,0.6942424,0.04,0.03999944,-0.019947870374714682,0.0010421775992197624,-0.02614488516483604,0.04663218947598215,0.003657463743496625,0.020056986507369534,0.9994666263275758,0.031185030261910635,-0.00841432814510069,0.004812050166425375
1285.3166666658265,-0.06605634,-0.9265532,-0.14260657,-2.456329,-0.10613988,1.5166833,0.6927583,0.04,0.039999437,-0.01706570376593941,0.0007066436693292655,-0.024572533343891756,0.04650626478684802,0.003787804574983497,0.020552164826585506,0.9994517432387928,0.03158902209731828,-0.00856144234824178,0.005004830146071064
1285.333333332493,-0.06711634,-0.92882824,-0.14488935,-2.457929,-0.10784008,1.5158148,0.6912662,0.04,0.039999444,-0.017284841999698486,-0.00026955855432775344,-0.024448306202318193,0.04636636617100476,0.003918529882013071,0.021049973826928595,0.999436644194232,0.031991923628533876,-0.008709167412336441,0.005202063754143574
1285.3499999991598,-0.068182014,-0.93111557,-0.14718446,-2.4595385,-0.10954945,1.5149415,0.6897661,0.04,0.03999944,-0.020233721857998432,-0.0014042473251707488,-0.024704905065076055,0.04621313419585389,0.004047300903169987,0.02155094530826511,0.9994213250508015,0.03239352508910609,-0.008858451915340666,0.00540392409876631
1285.3666666658264,-0.06925326,-0.9334147,-0.14949155,-2.4611564,-0.11126777,1.5140635,0.68825823,0.04,0.039999448,-0.018364226357592273,-0.0019536297721556295,-0.0236752777666549,0.0460469834359299,0.004166032765587337,0.022052600369914604,0.999405791953077,0.03279374477255069,-0.009008744751325007,0.005610332649785803
1285.383333332493,-0.07032994,-0.9357257,-0.15181038,-2.4627821,-0.112994835,1.5131811,0.6867426,0.04,0.039999448,-0.017562689696748457,-0.0026648265892437184,-0.02318430055756604,0.04586763478133056,0.004280431979334948,0.022556235049459708,0.999390052038994,0.03319243204893262,-0.00915963613912744,0.005821289030157395
1285.3999999991597,-0.07141193,-0.9380482,-0.15414068,-2.4644158,-0.11473045,1.5122942,0.6852193,0.04,0.039999444,-0.018036702028934037,-0.003543545814777005,-0.022906531358724003,0.045676041415179974,0.0043928871618754695,0.023062466790102362,0.9993741079911308,0.0335894014944563,-0.009311337364102243,0.006036835318899542
1285.4166666658264,-0.07249911,-0.9403818,-0.15648219,-2.4660575,-0.11647439,1.5114033,0.6836885,0.04,0.039999444,-0.0186824198833202,-0.004380758615563085,-0.02218090364261016,0.04547232886631686,0.004500866016023564,0.023569111939946943,0.9993579619845813,0.03398455560642017,-0.009463821296970381,0.006256986872082255
1285.433333332493,-0.073591344,-0.9427262,-0.1588346,-2.467707,-0.118226506,1.510508,0.68215096,0.04,0.039999448,-0.01854296571350833,-0.00517846106320996,-0.0220381787401136,0.04525663319775644,0.004605668736246904,0.02407708447124618,0.9993416058937925,0.03437802398433485,-0.009617334470400104,0.00648174931886762
1285.4499999991597,-0.074688524,-0.9450815,-0.16119768,-2.4693637,-0.11998654,1.5096085,0.6806062,0.04,0.039999444,-0.017934199831204367,-0.005910431267108773,-0.021487763898109247,0.04502704640604391,0.004702232166700571,0.02458569138066033,0.9993250562636478,0.034769417775998214,-0.009771400190354489,0.006711128779507507
1285.4666666658263,-0.07579051,-0.94744706,-0.1635711,-2.471028,-0.12175432,1.5087051,0.6790548,0.04,0.039999444,-0.018915437471145324,-0.006803487505868677,-0.02096239724512783,0.04478624174738728,0.004796498968336088,0.02509407219450173,0.9993083065831637,0.03515879716380006,-0.009926349173056652,0.006945139881878766
1285.483333332493,-0.07689718,-0.9498226,-0.16595462,-2.4726987,-0.12352965,1.507798,0.67749673,0.04,0.039999448,-0.01691483405561467,-0.007177994827922696,-0.019980288455734296,0.04453282984938026,0.0048847915050568985,0.025603244987020934,0.9992913673376166,0.03554602096347548,-0.010081569195883879,0.007183698262691286
1285.4999999991596,-0.07800841,-0.95220816,-0.16834795,-2.4743762,-0.12531228,1.5068871,0.67593217,0.04,0.039999448,-0.018083135006596862,-0.00822356100486088,-0.019939130501589464,0.044266610050419916,0.004971914247352646,0.02611334575971494,0.9992742405647107,0.03593092596241393,-0.010237289768787607,0.007426883700054915
1285.5166666658263,-0.07912402,-0.954603,-0.17075083,-2.4760602,-0.12710199,1.5059726,0.67436135,0.04,0.039999444,-0.017967854990463827,-0.00893856300846485,-0.019070265763931893,0.04398905909734213,0.005055374085182293,0.026623283877015624,0.9992569281896423,0.03631342472567279,-0.010393543409279766,0.007674692507990425
1285.533333332493,-0.08024392,-0.9570072,-0.17316297,-2.4777513,-0.12889859,1.5050545,0.6727845,0.04,0.039999444,-0.019192834152370608,-0.009904751720651861,-0.01921304747538599,0.043699372737083284,0.005133371486467253,0.027131888997613318,0.9992394290518235,0.03669341025882578,-0.01055068160841081,0.007927180416833952
1285.5499999991596,-0.081367955,-0.9594204,-0.17558406,-2.4794488,-0.13070188,1.5041333,0.6712018,0.04,0.039999444,-0.01821598915328071,-0.010453847564645402,-0.017957818807479153,0.04339858588563872,0.005203350764302894,0.027639745202931193,0.9992217521494916,0.03707078385677238,-0.010708177358542854,0.008184250314003171
1285.5666666658262,-0.08249604,-0.96184224,-0.17801379,-2.481152,-0.13251168,1.5032089,0.6696134,0.04,0.039999448,-0.017391951470191458,-0.01106055875882972,-0.01761298697648961,0.043086157559808144,0.005270610984861507,0.028146883228486366,0.999203901132113,0.037445461167035426,-0.010865945828727432,0.008445864171402842
1285.5833333324929,-0.083627984,-0.9642724,-0.18045191,-2.4828613,-0.13432768,1.5022811,0.6680196,0.04,0.039999448,-0.018208106510941846,-0.011966139120478392,-0.01720508569513779,0.04276196572569997,0.005334247331929276,0.028653487262569874,0.9991858747504772,0.03781735271449772,-0.011024273947118902,0.008712113218380155
1285.5999999991595,-0.08476367,-0.96671057,-0.18289812,-2.4845762,-0.13614973,1.5013502,0.6664206,0.04,0.03999945,-0.01797819727009653,-0.012627442461765614,-0.0165598457089966,0.04242682646993208,0.00539050672934363,0.02915695562859083,0.9991676771790674,0.03818638451434793,-0.011183018131788357,0.008982929576334994
1285.6166666658262,-0.08590297,-0.9691566,-0.18535207,-2.4862967,-0.1379776,1.5004163,0.6648163,0.04,0.03999945,-0.017724112655148616,-0.013357875818914566,-0.016012897269657156,0.04207978545082916,0.005442251085708796,0.029659833638387895,0.9991493180464641,0.03855232916506801,-0.011342056740200362,0.00925828883411621
1285.6333333324928,-0.08704575,-0.9716101,-0.18781354,-2.488022,-0.13981105,1.4994794,0.6632072,0.04,0.03999945,-0.017336789817545828,-0.013916149975068404,-0.015377736596000613,0.04172273275059704,0.00548875948559939,0.030160624275671108,0.9991307965253278,0.0389152128437158,-0.011501330276145466,0.009538188815045676
1285.6499999991595,-0.08819185,-0.9740708,-0.19028221,-2.489753,-0.14164986,1.49854,0.6615933,0.04,0.03999945,-0.018250344325387857,-0.01480587948903267,-0.014726210768412074,0.0413546609653217,0.0055302175921707886,0.03065895816891781,0.9991121172780404,0.0392748661909859,-0.01166094983075739,0.00982263930500634
1285.6666666658261,-0.08934114,-0.9765384,-0.19275777,-2.4914882,-0.1434938,1.497598,0.65997493,0.04,0.03999945,-0.01647909897399824,-0.01519832808465349,-0.014033057268714177,0.04097643213306275,0.005565927263695841,0.031154467734906724,0.9990932875560354,0.039631257037249776,-0.01182044823286905,0.010111539432483045
1285.6833333324928,-0.09049348,-0.9790126,-0.19523989,-2.4932284,-0.1453427,1.4966534,0.6583523,0.04,0.039999455,-0.018008192514384902,-0.016180871976501088,-0.013751997048017106,0.04058762493651635,0.005598157236425955,0.03164672735818867,0.9990743051355176,0.039984267200858674,-0.01198035207799992,0.01040491991703595
1285.6999999991594,-0.09164874,-0.9814931,-0.19772829,-2.494973,-0.14719623,1.4957064,0.6567255,0.04,0.039999455,-0.016965304671900938,-0.016653369572050547,-0.012917788481592307,0.04018846148749286,0.0056244081089214665,0.03213593479334928,0.9990551786686356,0.04033379306470908,-0.012140270920183707,0.010702753588612559
1285.716666665826,-0.0928068,-0.98397964,-0.20022275,-2.496722,-0.1490543,1.4947572,0.65509474,0.04,0.039999466,-0.017578047226995963,-0.01730492421364027,-0.012476276229034244,0.03977973779037246,0.0056453329006058844,0.03262231606982231,0.9990359102966769,0.04067972528155774,-0.012300382925382452,0.011005020154281436
1285.7333333324927,-0.09396747,-0.9864718,-0.20272289,-2.4984746,-0.15091659,1.4938055,0.6534602,0.04,0.039999463,-0.016369906495139475,-0.017857208332677788,-0.01169122495124908,0.039361460793270436,0.005660289034950555,0.03310421760142658,0.9990165051875581,0.041022014352684474,-0.012460449209603298,0.011311671263812424
1285.7499999991594,-0.09513062,-0.98896927,-0.20522846,-2.5002313,-0.15278293,1.492852,0.6518222,0.04,0.039999455,-0.017192786000275184,-0.018557778634248345,-0.011073639269354452,0.038933365458812486,0.005670009571928647,0.033582558165824006,0.9989969650312612,0.041360594491307176,-0.012620555590366098,0.01162267861747955
1285.766666665826,-0.09629614,-0.99147207,-0.2077391,-2.5019908,-0.15465309,1.4918964,0.65018094,0.04,0.03999947,-0.015276676746811546,-0.01890081860297932,-0.010414255509361148,0.038496140184391625,0.005673849356927593,0.03405603356622949,0.998977298657695,0.041695442064274585,-0.012780174900239047,0.011937923067203942
1285.7833333324927,-0.09746386,-0.9939797,-0.2102545,-2.5037546,-0.15652679,1.4909393,0.6485365,0.04,0.03999947,-0.017839558352350515,-0.02004493754466652,-0.009931054731371347,0.038048765502665366,0.005676058541782603,0.034526509067537625,0.9989575072726483,0.042026297972815936,-0.012939966526808231,0.012257496016802078
1285.7999999991594,-0.09863366,-0.99649185,-0.21277437,-2.505521,-0.15840389,1.4899801,0.64688915,0.04,0.039999466,-0.015450508762593351,-0.020131387640598408,-0.009295746471771338,0.037593576196848194,0.005669449459077519,0.03499069905564918,0.9989375957401564,0.04235322682405875,-0.013099473693636099,0.012581247291724062
1285.816666665826,-0.09980536,-0.99900806,-0.21529841,-2.507291,-0.16028403,1.4890195,0.64523906,0.04,0.039999474,-0.017184344878673485,-0.021125753757844645,-0.008550552144825918,0.037129358170139834,0.005660594756838194,0.035451563545868314,0.9989175662685748,0.04267603446665123,-0.013259056134983755,0.01290927235277765
1285.8333333324927,-0.100978844,-1.0015281,-0.21782632,-2.5090632,-0.16216709,1.4880573,0.6435864,0.04,0.03999948,-0.014998614334116311,-0.021208704633363107,-0.007875818894154119,0.036657575283922286,0.005642523326262083,0.0359051452946713,0.99889742688264,0.04299474470729301,-0.013418199894094852,0.013241389896737878
1285.8499999991593,-0.10215395,-1.0040516,-0.22035775,-2.5108373,-0.16405283,1.487094,0.6419314,0.04,0.039999474,-0.014768477282101067,-0.02165780727603761,-0.00666162749642929,0.036177102161102384,0.005621288381736048,0.03635461236325818,0.9988771849851473,0.043309295744340434,-0.013576670842404492,0.013577489720640839
1285.866666665826,-0.10333057,-1.0065784,-0.22289242,-2.5126147,-0.16594101,1.4861294,0.64027435,0.04,0.039999478,-0.017069177658113333,-0.022879369375111702,-0.007153822738592552,0.03568867565406267,0.0055975723550562295,0.03679869526795118,0.9988568348732269,0.043619512325187154,-0.013735299756049955,0.01391772654435485
1285.8833333324926,-0.10450856,-1.0091083,-0.22543001,-2.5143943,-0.16783129,1.4851635,0.63861537,0.04,0.039999478,-0.015393851050871099,-0.02312401268092512,-0.006097098838608872,0.035192932866941126,0.005564534374522825,0.037235973760079644,0.9988363837272225,0.04392539066494384,-0.013893640347949612,0.014262024945241631
1285.8999999991593,-0.10568772,-1.0116408,-0.22797021,-2.516175,-0.16972357,1.4841965,0.6369547,0.04,0.039999485,-0.013942317976733953,-0.023210267964690612,-0.005031442780711881,0.034689950387420565,0.0055253472848338925,0.03766669164551914,0.9988158414286291,0.04422693013664161,-0.014051213811900066,0.01461016606068463
1285.916666665826,-0.10686796,-1.0141755,-0.23051277,-2.517957,-0.17161755,1.483229,0.6352925,0.04,0.03999948,-0.014048512954745185,-0.023706994915462243,-0.004256899861410091,0.03417940916548004,0.005484001475730013,0.03809118869893366,0.9987952141091216,0.04452401110546454,-0.014207977561454302,0.014962154972049996
1285.9333333324926,-0.10804911,-1.0167123,-0.23305726,-2.5197408,-0.17351303,1.4822606,0.6336289,0.04,0.03999948,-0.015373582714062195,-0.024719088725072558,-0.00421349541817051,0.03366154915434259,0.005440233546123288,0.03850920496524088,0.9987744993388201,0.044816494696418165,-0.014364542907892687,0.015318001849542125
1285.9499999991592,-0.109231025,-1.0192508,-0.23560342,-2.5215266,-0.17540976,1.4812914,0.63196427,0.04,0.03999949,-0.015491675350931544,-0.025200609665393392,-0.003511580795745317,0.03313794924715771,0.005388524769711939,0.03892010250604848,0.9987536995570704,0.04510433107645523,-0.014520935517116501,0.01567767109358006
1285.9666666658259,-0.110413566,-1.021791,-0.238151,-2.523313,-0.17730752,1.4803216,0.6302986,0.04,0.03999949,-0.013320234605918024,-0.0252396129816701,-0.0027723394330214646,0.032608746496338964,0.005328576789365755,0.039323488546866195,0.9987328287667997,0.04538749364277695,-0.014676421781865673,0.01604103512788004
1285.9833333324925,-0.11159657,-1.024332,-0.2406996,-2.5251,-0.17920613,1.4793518,0.62863237,0.04,0.03999949,-0.013425875783723562,-0.025565677891892236,-0.001539266036232334,0.03207344240309537,0.005266885448233893,0.0397190598821677,0.9987118866974884,0.045666018401995224,-0.014831107302354913,0.016407936757482998
1285.9999999991592,-0.11277991,-1.0268738,-0.24324895,-2.5268874,-0.18110533,1.4783814,0.6269657,0.04,0.039999504,-0.013497525746486438,-0.02616734501506568,-0.0013761739289130936,0.03153197165827329,0.005201055209488409,0.04010790281835733,0.9986908736854408,0.04593983051620764,-0.014985186661036641,0.01677840785911644
1286.0166666658258,-0.11396344,-1.029416,-0.24579872,-2.528675,-0.1830048,1.4774108,0.62529874,0.04,0.039999504,-0.013183051915111044,-0.02660054671582701,-0.0005789731724048508,0.030984629166407276,0.005129780263121803,0.0404887939169888,0.9986697965221609,0.046208835988224874,-0.015138564518000898,0.017152400862077463
1286.0333333324925,-0.11514702,-1.0319583,-0.24834864,-2.5304632,-0.18490435,1.4764401,0.6236316,0.04,0.039999515,-0.013494862724883205,-0.027116942502908303,-0.00014224675897178685,0.030432204412288527,0.005053225310784323,0.04086123038570354,0.9986486606713632,0.0464729097951064,-0.015291326465575544,0.017529875338735332
1286.0499999991591,-0.11633049,-1.0345006,-0.25089836,-2.532251,-0.18680388,1.4754696,0.62196463,0.04,0.03999951,-0.011977477640900958,-0.02706622750465737,0.0009056382774708105,0.029875684439449254,0.004969011158854564,0.041225225656094225,0.9986274731857248,0.04673215289684924,-0.015442998434858808,0.017910596965516713
1286.0666666658258,-0.117513716,-1.0370424,-0.2534475,-2.5340378,-0.18870303,1.4744995,0.6202981,0.04,0.039999515,-0.01165994198613074,-0.027541018238685933,0.0016331197999930325,0.02931377323002113,0.004884537617065657,0.041580745650450945,0.998606238154756,0.04698652283576127,-0.015593545531972652,0.01829451086947669
1286.0833333324924,-0.11869653,-1.0395831,-0.25599587,-2.5358243,-0.19060144,1.4735296,0.6186319,0.04,0.039999522,-0.012418007266878917,-0.0281385902577036,0.0021278760266807417,0.028746988586786995,0.004798020074162135,0.041929694323442776,0.9985849567832367,0.04723581780576549,-0.01574338470230025,0.01868174083315838
1286.099999999159,-0.11987881,-1.0421231,-0.25854304,-2.5376098,-0.19249901,1.4725599,0.6169664,0.04,0.039999522,-0.011164010863562446,-0.028369136140987683,0.0024719700712383386,0.02817730459864666,0.004703718165399537,0.04226776657750837,0.9985636380905556,0.0474800860480617,-0.01589209715555128,0.019072057052693093
1286.1166666658257,-0.1210604,-1.0446616,-0.26108876,-2.5393946,-0.19439559,1.471591,0.61530185,0.04,0.039999522,-0.011812841174441147,-0.02871271782968754,0.0034294984743055146,0.027603718817830483,0.004607638910399156,0.04259735972662089,0.9985422844820854,0.04771924737970767,-0.01603989576002223,0.019465386582851112
1286.1333333324924,-0.12224116,-1.0471984,-0.26363283,-2.541178,-0.19629084,1.4706227,0.61363846,0.04,0.039999522,-0.01083196276494558,-0.02880051344316681,0.004040476491484757,0.02702726193282301,0.004506886372478591,0.04291797468218517,0.998520894145967,0.04795340054333768,-0.016186629461479272,0.019861730965491584
1286.149999999159,-0.12342095,-1.049733,-0.2661748,-2.5429595,-0.19818462,1.4696553,0.6119764,0.04,0.03999953,-0.010004417063980142,-0.028963121080471943,0.004979400267812739,0.026447076737354178,0.004402490956314231,0.04322872019343402,0.9984994803066481,0.04818246632068847,-0.016332060297487426,0.02026083840931508
1286.1666666658257,-0.12459963,-1.0522653,-0.26871434,-2.5447395,-0.20007664,1.4686885,0.6103159,0.04,0.039999533,-0.010863133320482277,-0.029686396643013868,0.005081767250203484,0.025863771744117386,0.004295919387659913,0.043530911989152335,0.99847803644739,0.04840639634942332,-0.016476672086135707,0.02066278784658347
1286.1833333324923,-0.12577699,-1.054795,-0.2712512,-2.5465178,-0.20196658,1.4677228,0.6086572,0.04,0.039999537,-0.010245888532600667,-0.02993833681863567,0.005953219130760967,0.025278207800627256,0.004182486682549821,0.043822834160343424,0.9984565745600115,0.04862509905047504,-0.016620139738759556,0.021067496654414323
1286.199999999159,-0.12695304,-1.0573218,-0.27378508,-2.5482943,-0.20385437,1.4667584,0.6070004,0.04,0.03999954,-0.00996523387108983,-0.029917058228645654,0.006664105168296963,0.02469079542256293,0.004065659890196138,0.04410462845555306,0.9984350947588482,0.04883865562279638,-0.016762456963265133,0.021474806341439688
1286.2166666658256,-0.12812749,-1.0598452,-0.2763156,-2.5500686,-0.20573963,1.465795,0.6053458,0.04,0.03999955,-0.009684805769749616,-0.030453924640672092,0.007183067083038619,0.02410080062613415,0.003944208894073931,0.04437587204507523,0.9984136016513863,0.049046944979910606,-0.01690376678059728,0.02188469543474626
1286.2333333324923,-0.12930019,-1.0623652,-0.2788425,-2.5518398,-0.2076222,1.464833,0.6036936,0.04,0.039999552,-0.007990637181931604,-0.030215004815148383,0.007978970307565003,0.023510283145343563,0.0038187085247112645,0.0446368758906316,0.9983921025753576,0.04925009602758014,-0.017043535525414866,0.022296983052076235
1286.249999999159,-0.1304711,-1.0648807,-0.28136545,-2.553609,-0.20950183,1.4638727,0.6020439,0.04,0.039999545,-0.009901637545484121,-0.03085950479663202,0.008750110107880182,0.022917204252323825,0.0036919992526916745,0.04488842417680097,0.9983705942479987,0.04944793273185214,-0.017182491426992158,0.022711681527476265
1286.2666666658256,-0.13164003,-1.0673921,-0.28388414,-2.5553746,-0.21137834,1.462914,0.600397,0.04,0.039999556,-0.0075902861933707655,-0.030613284677838415,0.009297207601288715,0.022324422519336418,0.0035565845851908418,0.045128026617062986,0.9983490892329684,0.04964055907950853,-0.01731992743382043,0.023128576170256602
1286.2833333324922,-0.13280681,-1.0698993,-0.28639835,-2.5571373,-0.21325146,1.4619571,0.59875304,0.04,0.039999556,-0.007738256157852064,-0.030999955789168254,0.009691708084968997,0.021730116123421267,0.003420418086257579,0.04535802287372795,0.9983275904555854,0.049827927698305845,-0.017455869086513233,0.02354766211053804
1286.299999999159,-0.13397127,-1.0724019,-0.28890765,-2.5588958,-0.21512099,1.461002,0.5971123,0.04,0.039999563,-0.00629964200025146,-0.030897448514499715,0.010504662164723122,0.021135744242485696,0.003283453299142758,0.045576962008437444,0.9983061049354919,0.05001010290421665,-0.01759008630192707,0.023968715441743907
1286.3166666658256,-0.1351334,-1.0748991,-0.29141176,-2.5606515,-0.21698667,1.4600488,0.59547496,0.04,0.039999563,-0.00847104963495049,-0.03161905459468928,0.010906660761333953,0.020540343747186857,0.0031464243242144,0.04578653024666694,0.9982846218801615,0.05018697659043753,-0.01772341466684621,0.024391836151483146
1286.3333333324922,-0.13629296,-1.0773908,-0.29391044,-2.562403,-0.21884829,1.4590976,0.59384096,0.04,0.03999957,-0.006027210099013303,-0.031166558523776366,0.011736885987301271,0.01994592784451653,0.003000059205781655,0.045983503030857034,0.9982631602843429,0.05035853306785615,-0.017855150213387124,0.024816820449586895
1286.3499999991589,-0.13744979,-1.0798767,-0.29640323,-2.5641508,-0.22070561,1.4581491,0.5922108,0.04,0.039999574,-0.0069517455669965145,-0.03176892284130206,0.012566371655953201,0.019351996060551588,0.0028538964819207063,0.046169747440529485,0.9982417201199,0.05052478176951381,-0.017985512474419308,0.025243533434106236
1286.3666666658255,-0.13860378,-1.0823567,-0.29889,-2.5658944,-0.2225584,1.4572022,0.5905848,0.04,0.039999574,-0.005892103355820133,-0.0317442222151576,0.012309787509823256,0.018759675006550125,0.0027044492486250626,0.0463450113095885,0.998220292312888,0.050685858037046005,-0.01811459343186301,0.025672033706328957
1286.3833333324922,-0.13975485,-1.0848304,-0.30137038,-2.5676334,-0.22440644,1.4562579,0.5889628,0.04,0.039999586,-0.005324389139982344,-0.031594218726627155,0.013564973429425198,0.018167504907375953,0.0025500455135415573,0.04650836794223337,0.998198896355558,0.05084163958198127,-0.01824203743093624,0.026102089370972206
1286.3999999991588,-0.14090279,-1.0872973,-0.30384412,-2.5693674,-0.22624955,1.4553164,0.5873452,0.04,0.039999597,-0.004639520702420796,-0.03152177630896258,0.014293653381103333,0.01757710122351644,0.0023942343494897655,0.046660595214369216,0.9981775311258447,0.05099225575252216,-0.018367786607487196,0.026533575407858744
1286.4166666658255,-0.14204754,-1.0897577,-0.30631092,-2.571097,-0.2280874,1.4543772,0.5857323,0.04,0.039999593,-0.005083461226962349,-0.032128846341805684,0.014068348189699709,0.01698761054248124,0.002238275120748409,0.046802183917678944,0.9981561899535257,0.051137708445378176,-0.018492148297114114,0.026966566036004228
1286.433333332492,-0.1431888,-1.0922107,-0.30877045,-2.5728214,-0.22991988,1.4534408,0.58412385,0.04,0.039999593,-0.004499838314964144,-0.03193667001785139,0.015315901821399969,0.016399543821509724,0.00207861327982721,0.04693148415353626,0.998134894199789,0.051277759594313,-0.018615019524701924,0.02740082845205369
1286.4499999991588,-0.14432658,-1.094656,-0.31122237,-2.5745404,-0.23174672,1.4525075,0.5825206,0.04,0.0399996,-0.003568575745904745,-0.03177826127952477,0.01595225974045933,0.01581533537148376,0.0019158590035251721,0.04704891864123176,0.9981136342102431,0.051412780464633476,-0.01873616219941729,0.027836225220989105
1286.4666666658254,-0.14546068,-1.0970935,-0.3136664,-2.5762537,-0.23356773,1.4515774,0.5809226,0.04,0.039999604,-0.0030584595686056204,-0.03179154155480424,0.016511537309216173,0.015232289872747828,0.0017529885423627073,0.047155324330052165,0.9980924195926439,0.05154270189483696,-0.01885551511900643,0.028272626030816584
1286.483333332492,-0.14659102,-1.099523,-0.31610227,-2.577962,-0.23538266,1.4506503,0.57932985,0.04,0.03999961,-0.004066457198770301,-0.03235359642335123,0.01652238889034985,0.014651010452295193,0.0015895720979476613,0.04725090929331413,0.9980712488225855,0.05166736232831302,-0.018973566490843512,0.028710097846872017
1286.4999999991587,-0.14771731,-1.1019441,-0.31852973,-2.5796638,-0.2371913,1.4497262,0.5777425,0.04,0.039999615,-0.0018137176356791684,-0.031791120059065925,0.01731504538389217,0.014074311269119177,0.0014214830939149603,0.0473335833938545,0.9980501331636726,0.05178686664850397,-0.019089809074098685,0.02914843605100918
1286.5166666658254,-0.14883968,-1.1043564,-0.3209484,-2.5813594,-0.23899345,1.4488053,0.576161,0.04,0.039999615,-0.0021477142874148925,-0.0318502810528698,0.017804991631864553,0.013501167562511115,0.001252761191997645,0.04740450821397868,0.9980290622260696,0.051901417674764506,-0.01920447054735913,0.029587532957268355
1286.533333332492,-0.1499578,-1.1067598,-0.32335806,-2.5830483,-0.24078886,1.447888,0.57458544,0.04,0.039999627,-0.001129186845427732,-0.031715613298022305,0.018571830613578477,0.012930337705060593,0.0010822968311098302,0.04746409078172316,0.9980080520497996,0.052010937284794695,-0.01931719709453151,0.030027259997089266
1286.5499999991587,-0.15107156,-1.1091539,-0.32575843,-2.5847309,-0.24257734,1.4469743,0.5730158,0.04,0.03999963,-0.0014682462184056888,-0.03192123836579519,0.018937463956780753,0.012362489260616422,0.0009135245865753011,0.0475127845987178,0.997987104514104,0.05211534218535453,-0.01942826976313024,0.03046756745244559
1286.5666666658253,-0.15218082,-1.1115384,-0.32814917,-2.586407,-0.24435872,1.446064,0.57145244,0.04,0.03999963,-0.001365177386336569,-0.03204641052892976,0.019227373347074916,0.011799897027048034,0.0007422665206231333,0.0475487181110987,0.9979662176499164,0.05221468406319265,-0.01953786376803992,0.030908365810603
1286.583333332492,-0.15328552,-1.1139132,-0.33053002,-2.5880764,-0.2461327,1.4451575,0.56989557,0.04,0.03999964,-0.0007724259553976154,-0.03190570332933795,0.019868895455010804,0.011242645868757367,0.0005679696124546302,0.047573241771405136,0.9979453940671376,0.052309068993658586,-0.01964579478075934,0.03134955356355849
1286.5999999991586,-0.15438546,-1.1162776,-0.33290064,-2.5897384,-0.24789916,1.444255,0.56834507,0.04,0.039999638,0.00026617019968089295,-0.03153948802545603,0.020599845611712908,0.010689485126119447,0.00039277760155971564,0.04758498199289435,0.9979246475519107,0.05239842126291418,-0.01975196889450656,0.03179092610068929
1286.6166666658253,-0.15548056,-1.1186321,-0.33526087,-2.5913932,-0.24965782,1.4433564,0.5668018,0.04,0.039999638,0.0004871999138122973,-0.031727320476648835,0.0206064646572246,0.01014229200648871,0.00021680244193335307,0.04758522153359339,0.9979039651922305,0.05248307536264972,-0.019856251113603715,0.03223247346723039
1286.633333332492,-0.15657067,-1.1209756,-0.3376104,-2.593041,-0.25140846,1.4424617,0.5652652,0.04,0.03999965,4.078256472528352e-05,-0.03177817947386252,0.02128149581889227,0.00959814447816916,4.211207172422071e-05,0.04757368396140438,0.9978833570393851,0.05256268337407914,-0.01995915489255617,0.032674182412086035
1286.6499999991586,-0.15765569,-1.1233081,-0.33994895,-2.5946808,-0.25315094,1.4415716,0.56373584,0.04,0.03999965,0.0015283158492751525,-0.031182972759546956,0.02208698238014284,0.00906150739847486,-0.0001359894412881757,0.047549716379010745,0.997862826573391,0.05263759166393812,-0.020060132324669744,0.033115772343401975
1286.6666666658252,-0.15873542,-1.1256294,-0.34227616,-2.5963128,-0.25488505,1.4406859,0.56221396,0.04,0.039999656,0.001838425559586021,-0.031366050298975434,0.02230570020929079,0.008529849746041568,-0.00031377467041839024,0.047514945529452166,0.9978423799226045,0.05270776488750016,-0.020159242483655405,0.033557134762099344
1286.6833333324919,-0.15980981,-1.1279393,-0.34459198,-2.5979366,-0.25661054,1.4398046,0.5606997,0.04,0.03999966,0.0021668433709320922,-0.031091278229877783,0.022622155762153096,0.00800356996059573,-0.000490584984809958,0.04746774576740802,0.9978220099050763,0.05277333316771125,-0.02025653105894721,0.03399830591105121
1286.6999999991585,-0.16087869,-1.1302375,-0.34689578,-2.5995524,-0.25832725,1.4389274,0.5591932,0.04,0.03999966,0.0022937744413864536,-0.031371261148127605,0.02292321395692687,0.007482732735599504,-0.0006672464172370329,0.047409162077913417,0.997801723902017,0.05283419944159805,-0.020352311457422608,0.03443908485817611
1286.7166666658252,-0.16194195,-1.1325234,-0.3491877,-2.6011581,-0.26003498,1.4380547,0.55769455,0.04,0.03999966,0.0052160418550384335,-0.029938590308364876,0.023621191264278085,0.006969032499323194,-0.0008468565093799202,0.047339310089518125,0.9977815272779603,0.052890725562135824,-0.020445740831481752,0.034879315564148736
1286.7333333324918,-0.16299951,-1.1347973,-0.35146713,-2.6027558,-0.2617336,1.437187,0.55620414,0.04,0.039999664,0.002931253983340376,-0.031018479466859983,0.023962870507976408,0.00645925056235247,-0.0010206531086314058,0.04725736217493594,0.9977614243738633,0.052942726677355396,-0.020537388875547243,0.035318881374993026
1286.7499999991585,-0.16405116,-1.1370587,-0.3537341,-2.6043453,-0.26342276,1.4363241,0.55472165,0.04,0.03999967,0.00276570574402335,-0.031010500033645805,0.024263609227104244,0.00595579209347262,-0.0011933486301812096,0.047166026345007495,0.997741417044476,0.052989999053689105,-0.020627509112377606,0.035757944322764065
1286.7666666658251,-0.16509683,-1.1393073,-0.35598812,-2.6059256,-0.26510236,1.4354659,0.5532473,0.04,0.039999675,0.004697428959810068,-0.030387249406738093,0.024620521171703214,0.005462108603101992,-0.0013692518567167827,0.04706092386823377,0.9977215133480223,0.05303273263379105,-0.02071586673210982,0.03619618678069094
1286.7833333324918,-0.16613644,-1.1415428,-0.35822904,-2.6074963,-0.26677218,1.4346129,0.5517819,0.04,0.039999675,0.005358519523901428,-0.029997908666390405,0.025176363741674646,0.004976055554729783,-0.0015431398475345831,0.04694635388041847,0.9977016995905933,0.05307140515311066,-0.02080218808637811,0.03663350324409071
1286.7999999991584,-0.16716982,-1.1437646,-0.3604566,-2.6090581,-0.26843208,1.4337649,0.5503248,0.04,0.03999968,0.004089339100743494,-0.030368246207923555,0.025526441469980732,0.004495015017754872,-0.0017156621984155962,0.04681822646705948,0.9976819912322032,0.05310548683639518,-0.02088715673850187,0.03706991127851013
1286.816666665825,-0.16819686,-1.1459732,-0.36267048,-2.6106105,-0.27008185,1.4329219,0.54887694,0.04,0.039999686,0.005756707089821234,-0.03001756442141401,0.025487639919907767,0.004023936538393044,-0.0018899820980932402,0.04667959787731424,0.9976623782558922,0.05313549147750843,-0.02097033723359611,0.03750524649365808
1286.8333333324917,-0.16921748,-1.1481678,-0.36487046,-2.6121526,-0.27172127,1.4320842,0.5474383,0.04,0.039999682,0.006812174650372427,-0.029356112238088095,0.026323206824174772,0.0035594265214045073,-0.0020642924553953834,0.04652956055311715,0.9976428689049012,0.05316152134059404,-0.021051526504923482,0.037939320022430494
1286.8499999991584,-0.17023155,-1.150349,-0.36705643,-2.613685,-0.27335015,1.4312521,0.5460088,0.04,0.0399997,0.006694146412788982,-0.029495577647509208,0.02640710254564471,0.0031009620485515227,-0.002234717269645664,0.04637137884735747,0.9976234772735052,0.05318341067847457,-0.021130583737284027,0.038372136404509746
1286.866666665825,-0.17123893,-1.1525156,-0.369228,-2.6152072,-0.27496836,1.4304256,0.54458874,0.04,0.039999697,0.006697428426649665,-0.02926539767232894,0.026993451718859696,0.0026509730307589796,-0.002401683402006957,0.046199276716551635,0.9976041949623166,0.05320128598896947,-0.02120796022989522,0.03880355377533707
1286.8833333324917,-0.17223953,-1.1546674,-0.37138504,-2.616719,-0.27657565,1.4296044,0.54317814,0.04,0.039999705,0.007357750977687871,-0.028956412632974438,0.027046006747188933,0.002208588742158929,-0.0025664650787097926,0.04601694820645236,0.9975850167249877,0.05321523623569279,-0.021283777192897254,0.039233580853505715
1286.8999999991584,-0.17323321,-1.1568046,-0.37352723,-2.6182208,-0.27817193,1.428789,0.54177713,0.04,0.039999712,0.007340936516064822,-0.029024031284152763,0.027442091935936386,0.0017748395746617768,-0.002733702261351223,0.04582304987585095,0.9975659602082845,0.053225196375674126,-0.02135781336062795,0.03966203868873907
1286.916666665825,-0.17421988,-1.1589266,-0.37565434,-2.6197119,-0.279757,1.4279792,0.54038596,0.04,0.039999716,0.008273598180164043,-0.02852672599270578,0.027696805624177756,0.0013501107299332127,-0.0028979712462443297,0.04561967235192338,0.9975470190117226,0.05323136825446265,-0.021430161208390454,0.040088832424578356
1286.9333333324917,-0.1751995,-1.1610333,-0.3777661,-2.6211927,-0.28133067,1.4271753,0.53900474,0.04,0.039999716,0.007760688448077424,-0.028623624193668817,0.027976968726495244,0.0009343821427481996,-0.0030621411306158697,0.04540410537910897,0.9975281928552463,0.05323374729211364,-0.021501054601001303,0.040513914390377485
1286.9499999991583,-0.17617187,-1.1631248,-0.37986237,-2.6226618,-0.2828927,1.4263772,0.5376339,0.04,0.039999716,0.010360715195778525,-0.0277200427446056,0.028251142461510614,0.0005275079493710089,-0.003225732890767441,0.045178503938345896,0.9975094895029725,0.05323269462849053,-0.021569718817105205,0.04093709569888948
1286.966666665825,-0.17713691,-1.1652005,-0.3819429,-2.6241202,-0.2844431,1.4255852,0.5362731,0.04,0.039999716,0.008784472085343609,-0.027946180534599296,0.028585412081894024,0.00012779596604270416,-0.003383603211043376,0.04494330670328424,0.9974909133853345,0.0532279223383827,-0.021636866285738937,0.04135833669966986
1286.9833333324916,-0.17809455,-1.16726,-0.38400748,-2.6255674,-0.28598168,1.4247992,0.5349229,0.04,0.039999723,0.009639649559578523,-0.027524074618878736,0.028815441692353616,-0.0002619087916994334,-0.0035412411653257952,0.04469845614282196,0.9974724566906987,0.05321973723934813,-0.021702409330243685,0.04177754349958013
1286.9999999991583,-0.17904468,-1.1693037,-0.38605583,-2.6270037,-0.2875082,1.4240193,0.5335832,0.04,0.039999723,0.009676004293401874,-0.027654826805856292,0.028890908013146088,-0.0006430966987215764,-0.003697324257153689,0.04444295044413148,0.9974541273500629,0.053208058164904176,-0.02176640325779114,0.04219466871376172
1287.016666665825,-0.1799871,-1.1713312,-0.38808778,-2.6284277,-0.28902233,1.4232454,0.5322541,0.04,0.039999735,0.011637855967916444,-0.02691251591709909,0.029145998267665618,-0.0010142565021867694,-0.0038541499610203617,0.044176661960496195,0.9974359353489103,0.053193011452654336,-0.02182840780870098,0.04260961182385229
1287.0333333324916,-0.18092191,-1.1733419,-0.39010313,-2.6298409,-0.29052413,1.4224783,0.530936,0.04,0.039999727,0.009856220923820658,-0.02701019015519668,0.029750751538626385,-0.00137584249860144,-0.004004818387266518,0.04390080147097046,0.9974178664732101,0.053174763577749286,-0.021888971949418343,0.04302228568402515
1287.0499999991582,-0.18184888,-1.1753358,-0.39210168,-2.6312418,-0.29201347,1.4217175,0.5296289,0.04,0.03999973,0.011813398331961267,-0.026286428833721676,0.029683212091990985,-0.0017286749801208312,-0.004154696026350199,0.04361519525085886,0.9973999333160558,0.05315339015303942,-0.021947799129202493,0.043432525251824394
1287.0666666658249,-0.18276794,-1.1773131,-0.3940832,-2.632631,-0.2934901,1.4209629,0.5283329,0.04,0.039999735,0.011490090192500801,-0.026544795079719297,0.02955480676791744,-0.002072753795789792,-0.0043023766122967655,0.04332021217165635,0.9973821339523727,0.05312889025028441,-0.022005050437353898,0.0438403655166577
1287.0833333324915,-0.18367898,-1.1792727,-0.39604747,-2.6340082,-0.29495388,1.4202151,0.5270481,0.04,0.03999975,0.011898884775485286,-0.02588722960235046,0.03048353265910908,-0.0024062425406542465,-0.004447309303026004,0.043016337429665506,0.9973644692492104,0.0531013808702913,-0.022060829921253793,0.04424566207092672
1287.0999999991582,-0.18458197,-1.1812153,-0.39799428,-2.6353729,-0.2964047,1.4194739,0.5257748,0.04,0.039999757,0.012995374072044541,-0.025626230632613822,0.030095404654972846,-0.002730585544616082,-0.004590562013456756,0.042702090570955795,0.9973469490589054,0.05307101669083417,-0.02211475895326771,0.04464826790294467
1287.1166666658248,-0.18547675,-1.1831403,-0.3999235,-2.6367257,-0.2978424,1.4187394,0.524513,0.04,0.039999757,0.012115464764628214,-0.025630322503156222,0.03048247202652732,-0.0030456754423801857,-0.0047301071938105135,0.04237959609226971,0.997329565417969,0.05303778560758448,-0.022167313974460198,0.045048212308664834
1287.1333333324915,-0.18636326,-1.1850476,-0.4018351,-2.6380658,-0.29926687,1.4180115,0.5232628,0.04,0.03999975,0.013325294700461399,-0.025008269778925563,0.030386479378496922,-0.0033507110102073134,-0.004868339772428475,0.042047946480732144,0.9973123198636089,0.05300182885097447,-0.022218282489361064,0.045445469630552966
1287.1499999991581,-0.1872414,-1.1869367,-0.4037287,-2.639393,-0.300678,1.4172906,0.52202433,0.04,0.039999753,0.013757310683848445,-0.024600062244650722,0.0309260738222239,-0.003645977850052773,-0.005003610845449209,0.041706589946664846,0.9972952202953143,0.052963248608443786,-0.022267731930462588,0.04583978607753111
1287.1666666658248,-0.18811113,-1.1888076,-0.40560395,-2.6407075,-0.30207554,1.4165765,0.52079785,0.04,0.03999977,0.01407254541156977,-0.024570542601520806,0.03100578786608965,-0.00393169271375432,-0.00513679140846144,0.04135679605734019,0.9972782659136696,0.05292215620335804,-0.022315667932288504,0.046231122458221315
1287.1833333324914,-0.18897232,-1.1906606,-0.40746093,-2.642009,-0.30345953,1.4158694,0.5195834,0.04,0.03999977,0.014428696781365602,-0.02414302707074434,0.030806077091971584,-0.004208455997064195,-0.005265825859750432,0.04099998823029632,0.9972614632039299,0.05287862117792127,-0.022361952330920747,0.046619400667836576
1287.199999999158,-0.18982495,-1.192495,-0.4092994,-2.6432981,-0.30482966,1.4151695,0.51838094,0.04,0.039999772,0.013647854436582563,-0.024282232350547606,0.03129867925223406,-0.004475422184158827,-0.005392188110959019,0.04063460786693815,0.9972448086122078,0.05283255613842372,-0.02240697527908629,0.0470046823914774
1287.2166666658247,-0.19066891,-1.1943109,-0.41111916,-2.644574,-0.30618578,1.4144764,0.51719075,0.04,0.039999776,0.015290949958624012,-0.02365370243423426,0.031052953873988987,-0.004731367901880459,-0.005517325044747001,0.04026028819411511,0.9972283018086583,0.052784243694793585,-0.022450498186874387,0.047386842272399865
1287.2333333324914,-0.19150408,-1.196108,-0.41292006,-2.6458366,-0.3075279,1.4137907,0.51601285,0.04,0.039999772,0.015092252456772037,-0.02334135532345849,0.03154539898267972,-0.00497780184800603,-0.005638354128919061,0.03987795898976866,0.9972119533572189,0.05273366219360603,-0.022492562854074527,0.04776573635343705
1287.249999999158,-0.1923304,-1.1978862,-0.41470197,-2.6470854,-0.3088558,1.413112,0.5148474,0.04,0.039999787,0.016290850468614337,-0.022797336825508552,0.03134513200557798,-0.0052139744887304,-0.005755812210325548,0.03948755794766096,0.9971957594746184,0.05268104311500171,-0.022533022517992368,0.04814133232844632
1287.2666666658247,-0.19314784,-1.1996452,-0.41646475,-2.6483214,-0.3101695,1.4124408,0.5136946,0.04,0.03999979,0.01488542750820443,-0.023005403651377154,0.03160486766176085,-0.005441116313826905,-0.0058694212579517985,0.03909064339261153,0.9971797131043586,0.05262636010416137,-0.0225724172154864,0.048513626707825185
1287.2833333324913,-0.19395635,-1.2013848,-0.41820815,-2.649543,-0.3114688,1.4117769,0.51255417,0.04,0.039999798,0.017290855025575702,-0.021875578651919803,0.03170996225408951,-0.00565810582603412,-0.005981987347003143,0.038684775596317354,0.9971638371790592,0.05256975759505151,-0.022610116884483607,0.048882359018384405
1287.299999999158,-0.19475578,-1.203105,-0.41993216,-2.6507514,-0.3127536,1.4111205,0.5114264,0.04,0.0399998,0.015998974467246185,-0.022303624930941623,0.031768110385199666,-0.00586581007638122,-0.006088985170286922,0.03827432074511304,0.9971481205383438,0.05251119000665513,-0.022646563802063844,0.049247677903556504
1287.3166666658246,-0.19554609,-1.2048059,-0.4216365,-2.651946,-0.31402376,1.4104718,0.51031137,0.04,0.03999982,0.016730769761008624,-0.02190921032656501,0.03181777058025581,-0.006063055997338737,-0.006191399483449989,0.03785345296406254,0.9971325743721584,0.052450769775212784,-0.02268157646157931,0.04960939392047964
1287.3333333324913,-0.19632727,-1.2064868,-0.4233211,-2.653127,-0.31527922,1.4098303,0.50920963,0.04,0.039999805,0.016810416631107827,-0.021557399420057966,0.031673997753911554,-0.006249109904415129,-0.006292185275571155,0.037430176195157296,0.9971171711942407,0.05238886910006061,-0.022715537106753385,0.04996756626016326
1287.349999999158,-0.19709921,-1.2081478,-0.42498586,-2.654294,-0.31651986,1.4091965,0.50812083,0.04,0.039999828,0.017034698359896794,-0.02122893599629805,0.0319384791535926,-0.006427401692292722,-0.006390908959284687,0.03699680909823084,0.9971019298843848,0.05232532502221446,-0.022748350941965857,0.05032210559561135
1287.3666666658246,-0.19786191,-1.209789,-0.42663053,-2.6554472,-0.3177456,1.4085703,0.50704503,0.04,0.039999846,0.01750634952042418,-0.02103913984869976,0.03178776111484316,-0.006596256869049251,-0.006485074637954787,0.036547501519179126,0.9970868606601742,0.05226019677017804,-0.022779873548385832,0.050672887163654305
1287.3833333324912,-0.19861515,-1.2114104,-0.42825514,-2.656586,-0.31895632,1.4079517,0.5059824,0.04,0.03999984,0.01855528936460793,-0.020341140109092493,0.03191899079056926,-0.0067536443353843,-0.006580062730438291,0.03611164683510485,0.9970719639585994,0.05219367131793929,-0.02280991748564166,0.05101986893744797
1287.399999999158,-0.19935906,-1.2130114,-0.42985943,-2.6577103,-0.32015198,1.4073408,0.504933,0.04,0.03999987,0.01817338289515913,-0.020176408686489733,0.03188777053948488,-0.006903270995067719,-0.006664209183003769,0.03564787970742189,0.9970572331373385,0.05212585112163131,-0.022838866907884017,0.05136297938909199
1287.4166666658246,-0.2000935,-1.2145921,-0.4314434,-2.6588204,-0.32133248,1.4067378,0.5038971,0.04,0.039999854,0.018478482637829252,-0.019863122603713812,0.03208384548186727,-0.007041546406672088,-0.006752403286437475,0.0352019649107165,0.9970426726262048,0.05205685917705767,-0.02286651220291401,0.05170217591831571
1287.4333333324912,-0.20081843,-1.2161522,-0.43300688,-2.6599162,-0.32249764,1.4061426,0.50287455,0.04,0.039999872,0.018414010217826515,-0.019753485372020485,0.031967049142167525,-0.007173024578630324,-0.006830198043561095,0.03473009150853424,0.9970282760889938,0.051986706606623335,-0.022893150903383765,0.05203751201701548
1287.4499999991579,-0.2015338,-1.2176923,-0.4345499,-2.6609983,-0.32364753,1.4055551,0.50186545,0.04,0.03999989,0.01783628510767521,-0.01990600269249354,0.03164682222468462,-0.007294804882029993,-0.00690764139141492,0.03426075020678821,0.997014051727168,0.05191529261488742,-0.022918853210138115,0.05236897190912505
1287.4666666658245,-0.20223957,-1.219211,-0.43607202,-2.662065,-0.324782,1.4049755,0.5008698,0.04,0.03999989,0.020231654798075205,-0.018390932620893086,0.03219182560870726,-0.007404948451226981,-0.006984448861600143,0.03378689679956093,0.997000004693525,0.051843023480678416,-0.02294339416943658,0.052696225875090826
1287.4833333324912,-0.20293567,-1.2207093,-0.43757346,-2.663117,-0.32590118,1.4044037,0.4998879,0.04,0.03999992,0.019732389925830596,-0.01852439179340637,0.03164267588621206,-0.0075075398690290646,-0.007056604747561215,0.03330545648827352,0.9969861340657827,0.05176994656547773,-0.022966715489155427,0.05301934640122246
1287.4999999991578,-0.2036221,-1.2221873,-0.43905398,-2.664155,-0.32700452,1.40384,0.49891955,0.04,0.03999993,0.018682064089525774,-0.019188334326858403,0.03189197885258288,-0.007602132314354512,-0.00712365667775814,0.03282302698110866,0.9969724422535945,0.05169581717184183,-0.022989029922632662,0.05333850745057426
1287.5166666658245,-0.2042988,-1.2236431,-0.44051346,-2.665178,-0.32809234,1.4032842,0.49796495,0.04,0.039999977,0.019506881085629146,-0.017822951710788626,0.03218304155662155,-0.007685464864942003,-0.00718757669613488,0.0323304051002957,0.9969589125450039,0.05162104129525936,-0.023010838978867187,0.05365348154747397
1287.533333332491,-0.2049657,-1.2250793,-0.44195202,-2.666186,-0.32916442,1.4027365,0.49702412,0.04,0.039999995,0.021159008663773626,-0.01771127258703986,0.03148650444203538,-0.007760402469374761,-0.007254495960819549,0.031838336621960416,0.996945585133142,0.05154561853623089,-0.023030776800124275,0.05396418083541616
1287.5499999991578,-0.20562279,-1.2264932,-0.44336933,-2.6671793,-0.3302207,1.4021968,0.49609703,0.04,0.04,0.019401816274378092,-0.017656646528463327,0.03198133908189904,-0.00782739042186785,-0.0073080935439893205,0.03134476434250552,0.9969324185273617,0.051469565487357954,-0.02305045768059836,0.054270739062989515
1287.5666666658244,-0.2062701,-1.2278869,-0.4447655,-2.668158,-0.3312613,1.4016652,0.49518377,0.04,0.04,0.02038273041069516,-0.017352724414287923,0.03146947060309602,-0.007884834381028896,-0.007365571336710272,0.030844273836290466,0.996919447647172,0.05139295068632042,-0.023068859340639444,0.05457295347819201
1287.583333332491,-0.20690754,-1.2292591,-0.44614044,-2.669122,-0.33228603,1.4011418,0.49428436,0.04,0.04,0.02018158862027164,-0.017068504846007304,0.031692685424422606,-0.00793307580639454,-0.007417652103375437,0.030339680034835205,0.9969066538047521,0.05131586323530754,-0.02308652359399494,0.054870923161280845
1287.5999999991577,-0.20753507,-1.2306101,-0.44749403,-2.6700711,-0.33329487,1.4006264,0.4933989,0.04,0.04,0.020470111373960265,-0.016820094641201155,0.031530536642720985,-0.007972795349732643,-0.007467545632404857,0.02983474454433306,0.9968940431656634,0.05123837899600013,-0.02310337036563492,0.055164567399978055
1287.6166666658244,-0.20815268,-1.2319399,-0.44882625,-2.671005,-0.33428776,1.4001191,0.4925275,0.04,0.04,0.021260121133970245,-0.016265216850486208,0.031350222250103865,-0.008003327469068032,-0.007515172215810148,0.029323914004869292,0.9968816151622091,0.05116069850506386,-0.02311926618548914,0.05545383495398502
1287.633333332491,-0.2087604,-1.2332481,-0.45013714,-2.6719244,-0.33526474,1.3996196,0.49167016,0.04,0.04,0.02006010010102699,-0.016442791862680828,0.031145373881835692,-0.008026974081765045,-0.0075582508138635485,0.028810447129978704,0.9968693554666146,0.051082773743536765,-0.023134788257321567,0.05573885476516297
1287.6499999991577,-0.20935814,-1.234535,-0.45142657,-2.6728284,-0.33622563,1.3991288,0.49082685,0.04,0.04,0.021625208930564632,-0.015583313648481756,0.03167567544569705,-0.008041560846573065,-0.00760323432623515,0.028294263916181367,0.9968572930437101,0.051004753490443235,-0.023149116686846195,0.05601937900016867
1287.6666666658243,-0.20994592,-1.2358005,-0.4526945,-2.6737173,-0.33717066,1.3986458,0.48999754,0.04,0.04,0.02147556296434594,-0.015429383009046838,0.030794195119565604,-0.008049250820634735,-0.007640402995327034,0.02777384438951261,0.9968454163612506,0.050926681585821004,-0.02316276779780117,0.05629542761331958
1287.683333332491,-0.21052374,-1.2370446,-0.4539409,-2.6745913,-0.33809954,1.3981712,0.4891823,0.04,0.04,0.021034786257212446,-0.015477644695993664,0.031257537863838,-0.008048800902128214,-0.007676107511328974,0.027251580658737222,0.9968337280121383,0.05084856612152303,-0.02317565656911613,0.05656704838859804
1287.6999999991576,-0.2110915,-1.2382673,-0.45516568,-2.6754498,-0.3390124,1.3977047,0.48838112,0.04,0.04,0.022165593849177156,-0.014757507050677798,0.03088701590862053,-0.008040498882172571,-0.007708453607430339,0.026728000439121873,0.9968222372405037,0.050770545238275275,-0.02318763391044605,0.056834080556305705
1287.7166666658243,-0.21164927,-1.2394681,-0.45636892,-2.6762936,-0.33990923,1.3972466,0.48759404,0.04,0.04,0.020905083089006737,-0.014879241463927606,0.030999446466783986,-0.008024974196609282,-0.007735995901972083,0.026202398231761057,0.9968109274466083,0.05069262190662379,-0.023199207301962232,0.05709667054938804
1287.733333332491,-0.21219704,-1.2406473,-0.45755053,-2.6771224,-0.34078997,1.3967965,0.48682112,0.039999995,0.04,0.021498393719632247,-0.014599904986178913,0.030547073638287348,-0.008001645141366545,-0.007763857690936807,0.0256739466687406,0.9967998018159878,0.05061490462823138,-0.02321029640571008,0.0573547615271956
1287.7499999991576,-0.21273477,-1.2418056,-0.45871073,-2.6779356,-0.34165454,1.3963547,0.48606235,0.039999995,0.04,0.02260400139244556,-0.01390789165004458,0.03051819920314447,-0.007970951500224727,-0.007790739263890491,0.025143938968741224,0.9967888731324359,0.050537551948889516,-0.023220213129516595,0.057608332249786724
1287.7666666658242,-0.2132625,-1.2429419,-0.4598493,-2.6787336,-0.34250304,1.3959211,0.48531753,0.03999999,0.04,0.021865990081781916,-0.0138023611321203,0.030531006242773273,-0.007934768246033619,-0.0078084548706134765,0.02461259332361493,0.9967781359065198,0.050460480604197985,-0.023229647089121307,0.05785733464334292
1287.7833333324909,-0.21378024,-1.2440568,-0.46096617,-2.6795163,-0.3433355,1.3954958,0.48458698,0.039999995,0.04,0.02231283963154418,-0.01356131452474596,0.03023375568090847,-0.007890833039397423,-0.007826421768757044,0.024079503508826858,0.9967675946296307,0.05038390894765188,-0.023238347352972824,0.05810166286533859
1287.7999999991575,-0.21428795,-1.2451501,-0.46206155,-2.6802838,-0.3441519,1.3950785,0.48387063,0.039999995,0.04,0.02205866373381493,-0.013292183699820104,0.03008318303720503,-0.007841399818708284,-0.007840529069261935,0.02354792106000938,0.9967572373040023,0.05030786516864898,-0.023246544783464523,0.05834146672732866
1287.8166666658242,-0.21478564,-1.246222,-0.4631354,-2.6810362,-0.34495226,1.3946697,0.48316824,0.039999984,0.04,0.022079926395246474,-0.01318309415082597,0.030037461420961975,-0.007786049018750893,-0.007852172102251628,0.02301374773212481,0.9967470805764908,0.050232247384544966,-0.02325407870334686,0.05857667205124649
1287.8333333324908,-0.2152734,-1.2472725,-0.4641877,-2.681774,-0.34573647,1.394269,0.4824799,0.03999998,0.04,0.021699771432137638,-0.013135660820162709,0.029792122844357616,-0.007723616504449377,-0.00786060328220766,0.022477861298183868,0.9967371121852274,0.05015715020511068,-0.023261176753357198,0.058807373109198
1287.8499999991575,-0.21575116,-1.2483013,-0.46521845,-2.6824963,-0.34650475,1.3938764,0.48180568,0.03999998,0.04,0.0223122059604286,-0.012502175753958955,0.02964669717420154,-0.007654731833769815,-0.007867496620492229,0.021942575279591685,0.9967273354639197,0.05008273570557303,-0.023267864999447593,0.05903342088688642
1287.8666666658241,-0.2162189,-1.249309,-0.46622777,-2.683204,-0.34725687,1.3934922,0.4811454,0.039999977,0.04,0.02203224164110118,-0.012679342524413162,0.02957232767893947,-0.007580894283213506,-0.007871678627675086,0.021407685490759682,0.9967177578359566,0.05000886907163548,-0.02327391583625596,0.0592549497534709
1287.8833333324908,-0.21667674,-1.2502949,-0.46721566,-2.683896,-0.34799317,1.3931162,0.4804993,0.03999997,0.04,0.0227419455447464,-0.011652235956616241,0.029345926106499887,-0.007499605540272673,-0.007873849535929255,0.020871344793593857,0.9967083720476904,0.04993593270396759,-0.023279445102830955,0.05947176767788251
1287.8999999991574,-0.2171247,-1.2512598,-0.46818218,-2.6845737,-0.34871352,1.392748,0.47986707,0.039999966,0.04,0.02162420397324727,-0.012377966041443589,0.02873910263437862,-0.007415216215793552,-0.007872200155587487,0.020336415594604484,0.9966991727814453,0.04986365078147308,-0.02328478829259704,0.05968411800215292
