rsonawane2002/My_IMU/logs_2/traj_367/imu_400hz_367.csv
time,j1,j2,j3,j4,j5,j6,j7,gripper1,gripper2,imu_ax,imu_ay,imu_az,imu_gx,imu_gy,imu_gz
0.0,0.00016700293,-0.785875,4.0107683e-05,-2.3551247,9.29385e-05,1.570997,0.786,0.04,0.04,-9.514396,-0.002644209889695,0.104408056,1.6418531e-07,-0.0011641274904832,4.015342e-07
0.0025,0.0001670028595,-0.785857774,4.0107480500000005e-05,-2.35513919,9.29429046e-05,1.570996565,0.786,0.04,0.04,-9.562413250000043,-0.0021541762922419995,0.090104900949987,1.711026935000063e-07,-0.0013253227865790216,4.873107250000781e-07
0.005,0.000167002789,-0.785840548,4.0107278e-05,-2.3551536800000004,9.294730920000001e-05,1.57099613,0.786,0.04,0.04,-9.610430500000087,-0.0016641426947889987,0.07580174589997399,1.780200770000126e-07,-0.0014865180826748434,5.73087250000156e-07
0.0075,0.0001670027185,-0.7858233219999999,4.0107075500000004e-05,-2.3551681700000002,9.295171380000001e-05,1.570995695,0.786,0.04,0.04,-9.65844775000013,-0.001174109097335998,0.061498590849960975,1.8493746050001889e-07,-0.0016477133787706649,6.588637750002341e-07
0.01,0.000167002648,-0.785806096,4.0106873e-05,-2.35518266,9.295611840000002e-05,1.5709952600000001,0.786,0.04,0.04,-9.706465000000174,-0.0006840754998829971,0.04719543579994797,1.9185484400002516e-07,-0.0018089086748664866,7.44640300000312e-07
0.0125,0.0001670025775,-0.78578887,4.01066705e-05,-2.3551971500000004,9.296052300000002e-05,1.570994825,0.786,0.04,0.04,-9.754482250000217,-0.00019404190242999645,0.03289228074993496,1.9877222750003145e-07,-0.001970103970962308,8.304168250003901e-07
0.015,0.000167002507,-0.785771644,4.0106468e-05,-2.3552116400000003,9.296492760000003e-05,1.57099439,0.786,0.04,0.04,-9.80249950000026,0.0002959916950230042,0.018589125699921952,2.0568961100003775e-07,-0.0021312992670581296,9.161933500004682e-07
0.0175,0.00016700126649999997,-0.785754867,4.010338334999995e-05,-2.3552257350000003,9.296706529999998e-05,1.57099396,0.786,0.04,0.04,-9.834403649999997,0.0006169871543532763,0.008977972424998554,2.966935900016502e-07,-0.0022881935234190195,9.885380750002896e-07
0.02,0.00016699768599999997,-0.785738988,4.009453439999994e-05,-2.3552390400000003,9.296466919999998e-05,1.5709935400000001,0.786,0.04,0.04,-9.834081599999998,0.0005999063374473157,0.008750822699998348,5.558707600018858e-07,-0.002436485700310279,1.034019200000331e-06
0.0225,0.00016699410549999997,-0.7857231089999999,4.008568544999993e-05,-2.3552523450000002,9.296227309999998e-05,1.57099312,0.786,0.04,0.04,-9.833759549999996,0.0005828255205413552,0.00852367297499814,8.150479300021214e-07,-0.0025847778772015387,1.0795003250003723e-06
0.025,0.00016699052499999996,-0.7857072299999999,4.0076836499999924e-05,-2.35526565,9.295987699999998e-05,1.5709927,0.786,0.04,0.04,-9.833437499999997,0.0005657447036353947,0.008296523249997934,1.0742251000023573e-06,-0.0027330700540927986,1.1249814500004139e-06
0.0275,0.00016698694449999996,-0.7856913509999999,4.0067987549999913e-05,-2.355278955,9.295748089999998e-05,1.57099228,0.786,0.04,0.04,-9.833115449999996,0.0005486638867294341,0.008069373524997727,1.333402270002593e-06,-0.0028813622309840584,1.1704625750004552e-06
0.03,0.00016698336399999995,-0.7856754719999999,4.00591385999999e-05,-2.35529226,9.295508479999998e-05,1.57099186,0.786,0.04,0.04,-9.832793399999996,0.0005315830698234736,0.00784222379999752,1.5925794400028286e-06,-0.0030296544078753183,1.2159437000004966e-06
0.0325,0.00016697978349999995,-0.7856595929999999,4.00502896499999e-05,-2.355305565,9.295268869999998e-05,1.57099144,0.786,0.04,0.04,-9.832471349999997,0.000514502252917513,0.007615074074997313,1.8517566100030645e-06,-0.0031779465847665785,1.261424825000538e-06
0.035,0.0001669697579999997,-0.7856445729999997,4.002624259999931e-05,-2.3553181,9.293863299999957e-05,1.57099101,0.786,0.04,0.04,-9.832197999999995,0.00048820636002276543,0.007388756119995068,2.376552100014355e-06,-0.003318451577800472,1.2822439000001853e-06
0.0375,0.0001669565099999995,-0.7856299824999995,3.999459649999885e-05,-2.35533025,9.291874749999928e-05,1.570990575,0.786,0.04,0.04,-9.831948999999991,0.0004573029291338758,0.007162854049991781,3.0341567500239233e-06,-0.0034550629789058948,1.2907319500003088e-06
0.04,0.00016694326199999932,-0.7856153919999993,3.996295039999839e-05,-2.3553424000000005,9.289886199999899e-05,1.57099014,0.786,0.04,0.04,-9.831699999999987,0.000426399498244986,0.006936951979988494,3.691761400033493e-06,-0.003591674380011318,1.2992200000004323e-06
0.0425,0.00016693001399999913,-0.785600801499999,3.993130429999793e-05,-2.355354550000001,9.28789764999987e-05,1.570989705,0.786,0.04,0.04,-9.831450999999984,0.0003954960673560963,0.006711049909985207,4.349366050043063e-06,-0.003728285781116741,1.3077080500005558e-06
0.045,0.00016691676599999894,-0.7855862109999988,3.989965819999747e-05,-2.3553667000000007,9.285909099999842e-05,1.57098927,0.786,0.04,0.04,-9.83120199999998,0.0003645926364672067,0.00648514783998192,5.006970700052631e-06,-0.0038648971822221635,1.3161961000006794e-06
0.0475,0.00016690351799999875,-0.7855716204999986,3.986801209999701e-05,-2.355378850000001,9.283920549999812e-05,1.570988835,0.786,0.04,0.04,-9.830952999999978,0.0003336892055783169,0.006259245769978632,5.6645753500622015e-06,-0.004001508583327587,1.3246841500008029e-06
0.05,0.0001668902699999965,-0.7855570299999985,3.9836365999991845e-05,-2.3553910000000013,9.281931999999427e-05,1.5709884,0.786,0.04,0.04,-9.83070399999997,0.000302785774687973,0.006033343699978212,6.322180000134206e-06,-0.004138119984431776,1.3331721999953843e-06
0.0525,0.00016685827199999691,-0.7855436454999987,3.976164979999279e-05,-2.355402160000001,9.276678249999493e-05,1.57098798,0.786,0.04,0.04,-9.830420574999973,0.00025855833082025583,0.005833706254980754,7.551843850118546e-06,-0.004263424617250375,1.2908810649959228e-06
0.055,0.00016682627399999732,-0.7855302609999989,3.9686933599993747e-05,-2.355413320000001,9.271424499999561e-05,1.57098756,0.786,0.04,0.04,-9.830137149999977,0.00021433088695253853,0.005634068809983296,8.78150770010289e-06,-0.004388729250068974,1.2485899299964614e-06
0.0575,0.00016679427599999773,-0.785516876499999,3.96122173999947e-05,-2.355424480000001,9.266170749999628e-05,1.57098714,0.786,0.04,0.04,-9.82985372499998,0.00017010344308482123,0.0054344313649858375,1.0011171550087234e-05,-0.0045140338828875744,1.2062987949969998e-06
0.06,0.00016676227799999812,-0.7855034919999992,3.953750119999565e-05,-2.3554356400000005,9.260916999999694e-05,1.57098672,0.786,0.04,0.04,-9.829570299999984,0.00012587599921710406,0.0052347939199883795,1.1240835400071574e-05,-0.004639338515706174,1.1640076599975384e-06
0.0625,0.00016673027999999853,-0.7854901074999995,3.94627849999966e-05,-2.3554468000000006,9.255663249999761e-05,1.5709863,0.786,0.04,0.04,-9.829286874999987,8.164855534938676e-05,0.005035156474990921,1.2470499250055918e-05,-0.004764643148524773,1.1217165249980767e-06
0.065,0.00016669828199999894,-0.7854767229999996,3.9388068799997556e-05,-2.3554579600000003,9.250409499999829e-05,1.57098588,0.786,0.04,0.04,-9.829003449999991,3.742111148166943e-05,0.0048355190299934625,1.3700163100040263e-05,-0.004889947781343372,1.0794253899986153e-06
0.0675,0.00016665612149999846,-0.7854637229999998,3.9290372349996476e-05,-2.3554687800000003,9.243431799999744e-05,1.570985455,0.786,0.04,0.04,-9.828740024999995,-1.1142707081984848e-05,0.004634344039994983,1.5150209850046434e-05,-0.00501175909303409,1.0160670549974093e-06
0.07,0.0001665936359999984,-0.7854514919999998,3.9146715399996344e-05,-2.3554789200000004,9.233006199999735e-05,1.57098502,0.786,0.04,0.04,-9.828516599999995,-6.837927503656655e-05,0.004430093959994798,1.7041022400048157e-05,-0.005126583762469804,9.105743199973132e-07
0.0725,0.00016653115049999835,-0.7854392609999997,3.900305844999621e-05,-2.35548906,9.222580599999725e-05,1.570984585,0.786,0.04,0.04,-9.828293174999994,-0.00012561584299114792,0.004225843879994613,1.8931834950049867e-05,-0.005241408431905519,8.050815849972179e-07
0.075,0.00016646866499999828,-0.7854270299999997,3.885940149999608e-05,-2.3554992,9.212154999999716e-05,1.57098415,0.786,0.04,0.04,-9.828069749999994,-0.00018285241094572965,0.004021593799994427,2.0822647500051587e-05,-0.0053562331013412325,6.995888499971218e-07
0.0775,0.00016640617949999824,-0.7854147989999997,3.871574454999595e-05,-2.3555093400000002,9.201729399999706e-05,1.5709837150000001,0.786,0.04,0.04,-9.827846324999994,-0.00024008897890031135,0.0038173437199942413,2.2713460050053307e-05,-0.005471057770776947,5.940961149970258e-07
0.08,0.00016634369399999818,-0.7854025679999996,3.8572087599995816e-05,-2.3555194800000003,9.191303799999696e-05,1.57098328,0.786,0.04,0.04,-9.827622899999994,-0.00029732554685489305,0.0036130936399940555,2.460427260005503e-05,-0.005585882440212662,4.886033799969298e-07
0.0825,0.0001662812084999981,-0.7853903369999996,3.842843064999569e-05,-2.35552962,9.180878199999686e-05,1.570982845,0.786,0.04,0.04,-9.827399474999993,-0.00035456211480947475,0.00340884355999387,2.649508515005675e-05,-0.0057007071096483765,3.8311064499683374e-07
0.085,0.0001661889719999967,-0.7853788339999996,3.821824149999247e-05,-2.35553952,9.165588499999451e-05,1.57098241,0.7859998100000001,0.04,0.0399999995,-9.827155499999993,-0.00041637310642013225,0.003219912159994394,2.8860460900080486e-05,-0.005808783695104898,3.04336011997977e-07
0.08750000000000001,0.0001660818599999966,-0.7853676949999997,3.797478624999225e-05,-2.3555493000000003,9.147866749999436e-05,1.570981975,0.785999525,0.04,0.03999999875,-9.826901249999992,-0.00048047130985851564,0.003038640099994229,3.1463118250082855e-05,-0.005913486238572283,2.3892042999791746e-07
0.09,0.0001659747479999965,-0.7853565559999997,3.773133099999203e-05,-2.3555590800000004,9.130144999999419e-05,1.57098154,0.78599924,0.04,0.039999998,-9.826646999999992,-0.0005445695132968986,0.002857368039994065,3.406577560008521e-05,-0.006018188782039668,1.7350484799785827e-07
0.0925,0.0001658676359999964,-0.7853454169999996,3.748787574999181e-05,-2.3555688600000004,9.112423249999403e-05,1.570981105,0.785998955,0.04,0.03999999725,-9.826392749999991,-0.0006086677167352819,0.0026760959799939,3.666843295008758e-05,-0.006122891325507054,1.0808926599779871e-07
0.095,0.0001657605239999963,-0.7853342779999997,3.724442049999159e-05,-2.3555786400000005,9.094701499999388e-05,1.57098067,0.78599867,0.04,0.0399999965,-9.826138499999992,-0.0006727659201736653,0.002494823919993735,3.927109030008995e-05,-0.006227593868974438,4.267368399773913e-08
0.0975,0.0001656534119999962,-0.7853231389999996,3.7000965249991364e-05,-2.3555884200000006,9.076979749999372e-05,1.570980235,0.7859983850000001,0.04,0.03999999575,-9.82588424999999,-0.0007368641236120486,0.00231355185999357,4.187374765009232e-05,-0.006332296412441824,-2.27418980023204e-08
0.1,0.0001655462999999939,-0.7853119999999997,3.675750999998623e-05,-2.3555982000000006,9.059257999998981e-05,1.5709798,0.7859981,0.04,0.039999995,-9.825629999999995,-0.0008009623270510377,0.00213227979999317,4.447640500017205e-05,-0.006436998955908956,-8.815748001404512e-08
0.10250000000000001,0.00016537837499999375,-0.7853019199999997,3.6378990999985886e-05,-2.3556070650000005,9.031255549998957e-05,1.57097938,0.785997815,0.04,0.03999999575,-9.825496349999995,-0.0008817108057003014,0.0019445649099929995,4.920540775017636e-05,-0.006534753600139046,-4.742033330143965e-07
0.105,0.0001652104499999936,-0.7852918399999996,3.6000471999985545e-05,-2.3556159300000004,9.003253099998931e-05,1.57097896,0.78599753,0.04,0.0399999965,-9.825362699999994,-0.0009624592843495644,0.0017568500199928298,5.393441050018064e-05,-0.006632508244369134,-8.602491860147458e-07
0.1075,0.00016504252499999344,-0.7852817599999996,3.56219529999852e-05,-2.355624795,8.975250649998905e-05,1.57097854,0.785997245,0.04,0.03999999725,-9.825229049999995,-0.001043207762998828,0.0015691351299926587,5.8663413250184944e-05,-0.006730262888599223,-1.2462950390150972e-06
0.11,0.00016487459999999326,-0.7852716799999996,3.524343399998486e-05,-2.3556336600000005,8.947248199998879e-05,1.57097812,0.78599696,0.04,0.039999998,-9.825095399999995,-0.0011239562416480915,0.001381420239992488,6.339241600018924e-05,-0.0068280175328293115,-1.6323408920154487e-06
0.1125,0.0001647066749999931,-0.7852615999999996,3.486491499998451e-05,-2.3556425250000004,8.919245749998855e-05,1.5709777,0.785996675,0.04,0.03999999875,-9.824961749999995,-0.001204704720297355,0.001193705349992317,6.812141875019354e-05,-0.0069257721770594,-2.0183867450158002e-06
0.115,0.00016453874999999295,-0.7852515199999995,3.448639599998416e-05,-2.3556513900000002,8.891243299998829e-05,1.5709772800000001,0.78599639,0.04,0.0399999995,-9.824828099999994,-0.0012854531989466185,0.0010059904599921462,7.285042150019786e-05,-0.00702352682128949,-2.4044325980161517e-06
0.11750000000000001,0.00016434450549998944,-0.7852417649999995,3.404975269997637e-05,-2.355660165,8.858904049998247e-05,1.570976855,0.7859961050000001,0.04,0.04,-9.82466174999999,-0.0013665857084595712,0.0008248641669928203,7.7843304000236e-05,-0.007118185958828742,-2.780426135015214e-06
0.12,0.0001640976219999892,-0.7852326599999996,3.349686079997587e-05,-2.3556687600000004,8.81789119999821e-05,1.57097642,0.78599582,0.04,0.04,-9.824429999999989,-0.0014484862796997552,0.0006569150679926683,8.3363946000241e-05,-0.007206654082987502,-3.136315040015536e-06
0.1225,0.000163850738499989,-0.7852235549999996,3.294396889997536e-05,-2.3556773550000005,8.776878349998172e-05,1.570975985,0.785995535,0.04,0.04,-9.82419824999999,-0.00153038685093994,0.0004889659689925154,8.888458800024603e-05,-0.007295122207146262,-3.4922039450158603e-06
0.125,0.00016360385499998876,-0.7852144499999996,3.239107699997486e-05,-2.3556859500000003,8.735865499998135e-05,1.57097555,0.78599525,0.04,0.04,-9.82396649999999,-0.0016122874221801244,0.0003210168699923626,9.440523000025105e-05,-0.007383590331305023,-3.848092850016184e-06
0.1275,0.00016335697149998856,-0.7852053449999996,3.183818509997435e-05,-2.3556945450000004,8.694852649998098e-05,1.570975115,0.785994965,0.04,0.04,-9.82373474999999,-0.001694187993420309,0.00015306777099220964,9.992587200025608e-05,-0.007472058455463783,-4.203981755016508e-06
0.13,0.00016311008799998832,-0.7851962399999997,3.128529319997385e-05,-2.3557031400000006,8.65383979999806e-05,1.57097468,0.7859946800000001,0.04,0.04,-9.82350299999999,-0.0017760885646604936,-1.488132800794319e-05,0.00010544651400026112,-0.007560526579622544,-4.559870660016832e-06
0.1325,0.0001628632044999881,-0.7851871349999996,3.0732401299973344e-05,-2.3557117350000008,8.612826949998022e-05,1.570974245,0.785994395,0.04,0.04,-9.823271249999989,-0.0018579891359006783,-0.00018283042700809613,0.00011096715600026613,-0.007648994703781305,-4.915759565017156e-06
0.135,0.00016255047199998304,-0.7851787099999996,3.0034722599962174e-05,-2.3557197200000006,8.56089839999718e-05,1.5709738,0.78599392,0.0399999995,0.04,-9.823107199999994,-0.0019473956665069358,-0.000354484654008522,0.00011701128100030973,-0.007733445381749659,-5.417850980028252e-06
0.1375,0.00016220481499998272,-0.7851706249999997,2.9264650499961473e-05,-2.3557274000000006,8.503511999997129e-05,1.5709733499999998,0.78599335,0.03999999875,0.04,-9.822976999999995,-0.0020405551767954107,-0.00052799144500868,0.00012331714750031547,-0.007815887336623249,-5.993043650028775e-06
0.14,0.00016185915799998238,-0.7851625399999996,2.8494578399960775e-05,-2.3557350800000005,8.446125599997076e-05,1.5709729,0.7859927800000001,0.039999998,0.04,-9.822846799999994,-0.0021337146870838855,-0.000701498236008838,0.0001296230140003212,-0.00789832929149684,-6.5682363200292985e-06
0.14250000000000002,0.00016151350099998207,-0.7851544549999996,2.7724506299960074e-05,-2.3557427600000005,8.388739199997025e-05,1.57097245,0.78599221,0.03999999725,0.04,-9.822716599999994,-0.00222687419737236,-0.0008750050270089958,0.00013592888050032695,-0.007980771246370429,-7.143428990029822e-06
0.145,0.00016116784399998176,-0.7851463699999995,2.695443419995938e-05,-2.3557504400000004,8.331352799996973e-05,1.5709719999999998,0.78599164,0.0399999965,0.04,-9.822586399999993,-0.002320033707660834,-0.001048511818009152,0.0001422347470003326,-0.008063213201244018,-7.71862166003034e-06
0.1475,0.00016082218699998144,-0.7851382849999996,2.618436209995868e-05,-2.3557581200000004,8.273966399996921e-05,1.5709715499999999,0.78599107,0.03999999575,0.04,-9.822456199999994,-0.002413193217949309,-0.0012220186090093098,0.00014854061350033835,-0.008145655156117608,-8.293814330030864e-06
0.15,0.00016047652999997457,-0.7851301999999997,2.541428999994362e-05,-2.3557658000000004,8.216579999995792e-05,1.5709711,0.7859905,0.039999995,0.04,-9.82232599999999,-0.002506352728238249,-0.0013955254000090833,0.00015484648000045468,-0.008228097110990696,-8.869007000022946e-06
0.1525,0.00016001077249997415,-0.7851230899999996,2.4381042899942678e-05,-2.3557733450000002,8.139474899995722e-05,1.570970635,0.785989924,0.03999999395,0.0399999982,-9.822119674999989,-0.002608045365201317,-0.0015619860400092349,0.00016317900850046227,-0.008301339996982682,-9.289503200023328e-06
0.155,0.00015954501499997373,-0.7851159799999996,2.3347795799941737e-05,-2.3557808900000006,8.062369799995652e-05,1.5709701699999998,0.785989348,0.0399999929,0.0399999964,-9.821913349999988,-0.0027097380021643843,-0.0017284466800093865,0.00017151153700046984,-0.00837458288297467,-9.70999940002371e-06
0.1575,0.00015907925749997332,-0.7851088699999996,2.2314548699940796e-05,-2.3557884350000005,7.985264699995582e-05,1.570969705,0.785988772,0.03999999185,0.0399999946,-9.821707024999988,-0.0028114306391274517,-0.0018949073200095381,0.00017984406550047743,-0.008447825768966657,-1.0130495600024093e-05
0.16,0.00015861349999997287,-0.7851017599999995,2.1281301599939855e-05,-2.3557959800000003,7.908159599995511e-05,1.57096924,0.7859881959999999,0.0399999908,0.0399999928,-9.821500699999989,-0.0029131232760905195,-0.0020613679600096895,0.00018817659400048502,-0.008521068654958643,-1.0550991800024477e-05
0.1625,0.00015814774249997245,-0.7850946499999996,2.0248054499938914e-05,-2.3558035250000007,7.831054499995441e-05,1.5709687749999999,0.7859876199999999,0.03999998975,0.039999991,-9.821294374999988,-0.003014815913053587,-0.002227828600009841,0.0001965091225004926,-0.00859431154095063,-1.0971488000024859e-05
0.165,0.00015768198499997203,-0.7850875399999996,1.9214807399937973e-05,-2.3558110700000006,7.753949399995371e-05,1.5709683099999998,0.785987044,0.0399999887,0.0399999892,-9.821088049999988,-0.0031165085500166542,-0.0023942892400099927,0.00020484165100050018,-0.008667554426942616,-1.1391984200025241e-05
0.1675,0.0001571686579999629,-0.7850807474999996,1.8077586899918025e-05,-2.3558185450000004,7.669084699993881e-05,1.5709678349999998,0.7859863739999999,0.0399999878,0.0399999876,-9.820906874999993,-0.0032182700699256647,-0.002554736965009045,0.0002134183295005524,-0.008738957019526832,-1.184894075003229e-05
0.17,0.00015656019199996235,-0.7850745899999996,1.67324195999168e-05,-2.3558258800000007,7.56870079999379e-05,1.57096734,0.7859855159999999,0.0399999872,0.0399999864,-9.820775999999992,-0.0033201693557265224,-0.00270315886000918,0.00022248330800056067,-0.008806679025296507,-1.2378818000032772e-05
0.17250000000000001,0.00015595172599996182,-0.7850684324999996,1.5387252299915576e-05,-2.3558332150000005,7.4683168999937e-05,1.5709668449999998,0.785984658,0.0399999866,0.0399999852,-9.820645124999992,-0.00342206864152738,-0.0028515807550093153,0.00023154828650056891,-0.008874401031066185,-1.2908695250033255e-05
0.17500000000000002,0.00015534325999996126,-0.7850622749999996,1.4042084999914351e-05,-2.355840550000001,7.367932999993608e-05,1.57096635,0.7859837999999999,0.039999986,0.039999983999999995,-9.820514249999992,-0.003523967927328238,-0.0030000026500094502,0.00024061326500057718,-0.008942123036835862,-1.3438572500033737e-05
0.1775,0.0001547347939999607,-0.7850561174999996,1.2696917699913142e-05,-2.3558478850000006,7.267549099993519e-05,1.5709658549999999,0.7859829419999999,0.0399999854,0.0399999828,-9.820383374999992,-0.0036258672131290947,-0.003148424545009584,0.00024967824350058534,-0.009009845042605538,-1.3968449750034214e-05
0.18,0.00015412632799996015,-0.7850499599999996,1.1351750399911917e-05,-2.3558552200000005,7.167165199993427e-05,1.57096536,0.7859820839999999,0.0399999848,0.0399999816,-9.820252499999992,-0.0037277664989299525,-0.0032968464400097187,0.0002587432220005936,-0.009077567048375215,-1.4498327000034696e-05
0.1825,0.0001535178619999596,-0.7850438024999996,1.0006583099910692e-05,-2.3558625550000007,7.066781299993336e-05,1.5709648649999999,0.7859812259999999,0.039999984200000005,0.039999980399999996,-9.820121624999992,-0.00382966578473081,-0.003445268335009854,0.0002678082005006019,-0.00914528905414489,-1.5028204250035178e-05
0.185,0.00015279840399994786,-0.7850382809999996,8.419366669885032e-06,-2.3558694800000004,6.94832244999142e-05,1.5709640299999998,0.7859801759999999,0.039999983600000004,0.0399999797,-9.820004799999992,-0.003941866615795038,-0.0036007384100107008,0.0002781564380007397,-0.009209332149479946,-1.5721452900052155e-05
0.1875,0.00015202344999994715,-0.7850330774999996,6.711125674883477e-06,-2.3558762000000004,6.820826124991304e-05,1.570963025,0.7859790299999999,0.039999983,0.03999997925,-9.819894999999994,-0.004059218219489405,-0.0037597325750108454,0.00028914630500074964,-0.009271535789598244,-1.649638725005286e-05
0.19,0.00015124849599994645,-0.7850278739999996,5.002884679881922e-06,-2.3558829200000004,6.693329799991187e-05,1.5709620199999998,0.7859778839999999,0.0399999824,0.039999978799999995,-9.819785199999993,-0.004176569823183772,-0.00391872674001099,0.00030013617200075966,-0.009333739429716539,-1.7271321600053565e-05
0.1925,0.00015047354199994575,-0.7850226704999996,3.2946436848803673e-06,-2.3558896400000005,6.565833474991071e-05,1.570961015,0.7859767379999999,0.0399999818,0.03999997835,-9.819675399999992,-0.004293921426878138,-0.004077720905011135,0.00031112603900076963,-0.009395943069834836,-1.8046255950054272e-05
0.195,0.00014969858799994504,-0.7850174669999996,1.5864026898788124e-06,-2.3558963600000005,6.438337149990955e-05,1.57096001,0.7859755919999999,0.0399999812,0.0399999779,-9.819565599999992,-0.004411273030572505,-0.00423671507001128,0.00032211590600077965,-0.009458146709953133,-1.8821190300054975e-05
0.1975,0.00014892363399994434,-0.7850122634999996,-1.218383051227433e-07,-2.3559030800000005,6.310840824990839e-05,1.570959005,0.7859744459999999,0.0399999806,0.03999997745,-9.819455799999991,-0.004528624634266872,-0.004395709235011425,0.00033310577300078967,-0.00952035035007143,-1.9596124650055682e-05
0.2,0.0001481486799999297,-0.7850070599999996,-1.8300793001545938e-06,-2.3559098000000005,6.183344499988463e-05,1.570958,0.7859732999999999,0.03999998,0.039999977,-9.819345999999987,-0.004645976237960642,-0.004554703400009552,0.0003440956400009351,-0.009582553990189339,-2.0371059000055765e-05
0.2025,0.000147182457999942,-0.7850028359999998,-3.954671305127544e-06,-2.3559163550000006,6.024781434990481e-05,1.570956995,0.7859718749999999,0.03999997895,0.03999997535,-9.81917199999999,-0.004755128803669492,-0.00468596616500788,0.0003569474585007715,-0.00963944448158481,-2.113744575004601e-05
0.20500000000000002,0.0001462162359999543,-0.7849986119999998,-6.079263310100493e-06,-2.3559229100000003,5.8662183699925e-05,1.57095599,0.7859704499999999,0.0399999779,0.0399999737,-9.818997999999992,-0.004864281369378343,-0.004817228930006209,0.00036979927700060786,-0.00969633497298028,-2.190383250003625e-05
0.20750000000000002,0.0001452500139999666,-0.7849943879999999,-8.203855315073444e-06,-2.3559294650000004,5.707655304994519e-05,1.570954985,0.785969025,0.03999997685,0.03999997205,-9.818823999999994,-0.004973433935087193,-0.004948491695004538,0.00038265109550044427,-0.009753225464375752,-2.267021925002649e-05
0.21,0.0001442837919999789,-0.7849901639999999,-1.0328447320046369e-05,-2.35593602,5.5490922399965394e-05,1.57095398,0.7859676,0.0399999758,0.0399999704,-9.818649999999996,-0.005082586500796042,-0.005079754460002865,0.0003955029140002805,-0.009810115955771222,-2.3436606000016725e-05
0.2125,0.0001433175699999912,-0.78498594,-1.245303932501932e-05,-2.3559425750000003,5.3905291749985586e-05,1.570952975,0.785966175,0.03999997475,0.039999968749999996,-9.818475999999999,-0.005191739066504893,-0.005211017225001194,0.00040835473250011686,-0.009867006447166692,-2.420299275000697e-05
0.215,0.00014235134800000352,-0.784981716,-1.457763132999227e-05,-2.35594913,5.231966110000577e-05,1.5709519699999999,0.78596475,0.039999973700000004,0.0399999671,-9.818302000000001,-0.005300891632213743,-0.005342279989999523,0.00042120655099995327,-0.009923896938562164,-2.4969379499997214e-05
0.2175,0.0001413128310000086,-0.7849778150000001,-1.6859381399981112e-05,-2.3559556649999998,5.06167481500141e-05,1.570950955,0.785963225,0.03999997285,0.0399999657,-9.818148250000002,-0.005416455189696456,-0.0054794864099989155,0.00043462400849989414,-0.009978911280631627,-2.5819589949992596e-05
0.22,0.00014012972399999137,-0.78497456,-1.945544760001889e-05,-2.3559621600000002,4.86792705999859e-05,1.5709499199999999,0.7859615,0.0399999724,0.039999964799999996,-9.818035,-0.005544840730727594,-0.005628580140001085,0.0004491727440001059,-0.010030173324048873,-2.683744780000741e-05
0.2225,0.00013894661699997418,-0.784971305,-2.205151380005667e-05,-2.3559686550000003,4.6741793049957706e-05,1.570948885,0.785959775,0.039999971950000004,0.0399999639,-9.817921749999998,-0.005673226271758733,-0.005777673870003255,0.0004637214795003176,-0.01008143536746612,-2.785530565002222e-05
0.225,0.00013776350999995695,-0.7849680499999999,-2.464758000009445e-05,-2.3559751500000004,4.480431549992951e-05,1.5709478499999998,0.78595805,0.0399999715,0.039999963,-9.817808499999996,-0.005801611812789871,-0.005926767600005424,0.00047827021500052936,-0.010132697410883365,-2.8873163500037032e-05
0.2275,0.00013658040299993973,-0.7849647949999998,-2.724364620013223e-05,-2.3559816450000004,4.286683794990131e-05,1.5709468149999999,0.7859563249999999,0.03999997105,0.0399999621,-9.817695249999995,-0.005929997353821009,-0.006075861330007594,0.0004928189505007411,-0.010183959454300612,-2.9891021350051846e-05
0.23,0.00013539729599992253,-0.7849615399999998,-2.9839712400170007e-05,-2.3559881400000005,4.092936039987312e-05,1.5709457799999997,0.7859546,0.039999970600000004,0.0399999612,-9.817581999999993,-0.006058382894852148,-0.0062249550600097635,0.0005073676860009528,-0.010235221497717857,-3.0908879200066655e-05
0.2325,0.0001342141889999053,-0.7849582849999998,-3.243577860020778e-05,-2.3559946350000005,3.899188284984492e-05,1.5709447449999998,0.7859528749999999,0.03999997015,0.0399999603,-9.81746874999999,-0.0061867684358832865,-0.006374048790011934,0.0005219164215011645,-0.010286483541135103,-3.192673705008147e-05
0.23500000000000001,0.00013286888299987804,-0.7849556949999998,-3.538397110026712e-05,-2.3560011400000005,3.6791778399800665e-05,1.5709436199999998,0.7859509699999999,0.03999997,0.0399999598,-9.817350899999989,-0.00630589900539296,-0.006512213360011346,0.0005375831600013873,-0.010334317665551054,-3.2943156400086844e-05
0.23750000000000002,0.00013144247749987675,-0.7849534374999998,-3.850822675026996e-05,-2.3560076500000005,3.446036049979854e-05,1.5709424499999998,0.7859489749999998,0.03999997,0.0399999595,-9.81723074999999,-0.006420402089143669,-0.0066449133500114665,0.0005538089000014021,-0.01038043783046701,-3.395885650008777e-05
0.24,0.00013001607199987546,-0.7849511799999999,-4.1632482400272774e-05,-2.3560141600000004,3.212894259979645e-05,1.5709412799999998,0.7859469799999999,0.03999997,0.039999959200000004,-9.817110599999989,-0.006534905172894377,-0.006777613340011586,0.0005700346400014166,-0.010426557995382967,-3.497455660008868e-05
0.2425,0.00012858966649987417,-0.7849489224999998,-4.4756738050275615e-05,-2.3560206700000004,2.9797524699794328e-05,1.5709401099999998,0.7859449849999999,0.03999997,0.0399999589,-9.81699044999999,-0.006649408256645086,-0.006910313330011707,0.0005862603800014314,-0.010472678160298924,-3.5990256700089603e-05
0.245,0.00012716326099987288,-0.7849466649999998,-4.788099370027846e-05,-2.3560271800000003,2.7466106799792203e-05,1.5709389399999998,0.7859429899999999,0.03999997,0.0399999586,-9.816870299999989,-0.006763911340395796,-0.007043013320011828,0.0006024861200014462,-0.01051879832521488,-3.700595680009053e-05
0.2475,0.00012573685549987156,-0.7849444074999998,-5.1005249350281305e-05,-2.3560336900000003,2.513468889979008e-05,1.5709377699999998,0.7859409949999999,0.03999997,0.0399999583,-9.816750149999988,-0.006878414424146505,-0.007175713310011949,0.000618711860001461,-0.010564918490130838,-3.802165690009145e-05
0.25,0.0001243104499998457,-0.7849421499999999,-5.4129505000337456e-05,-2.3560402000000003,2.280327099974819e-05,1.5709365999999998,0.7859389999999998,0.03999997,0.039999958,-9.816629999999991,-0.006992917507899172,-0.007308413300012499,0.0006349376000016065,-0.010611038655046399,-3.9037357000115646e-05
0.2525,0.00012261373324984413,-0.7849409079999999,-5.783992300034084e-05,-2.3560467550000004,2.0034581304745667e-05,1.57093501,0.7859365474999999,0.03999997,0.039999958,-9.816540599999993,-0.0071289500687395455,-0.007445842355012625,0.0006526008290016226,-0.010652803862471201,-4.0308892450116806e-05
0.255,0.0001209170164998426,-0.7849396659999999,-6.155034100034422e-05,-2.3560533100000005,1.7265891609743147e-05,1.5709334199999998,0.7859340949999998,0.03999997,0.039999958,-9.816451199999992,-0.00726498262957992,-0.007583271410012749,0.0006702640580016386,-0.010694569069896005,-4.158042790011796e-05
0.2575,0.00011922029974984105,-0.7849384239999999,-6.52607590003476e-05,-2.356059865,1.4497201914740628e-05,1.57093183,0.7859316424999998,0.03999997,0.039999958,-9.816361799999992,-0.007401015190420294,-0.007720700465012874,0.0006879272870016547,-0.010736334277320807,-4.285196335011912e-05
0.26,0.0001175235829998395,-0.784937182,-6.897117700035097e-05,-2.3560664200000003,1.1728512219738108e-05,1.5709302399999998,0.7859291899999997,0.03999997,0.039999958,-9.816272399999992,-0.007537047751260668,-0.007858129520013,0.0007055905160016708,-0.010778099484745611,-4.412349880012028e-05
0.2625,0.00011582686624983796,-0.7849359399999999,-7.268159500035434e-05,-2.3560729750000005,8.959822524735588e-06,1.57092865,0.7859267374999998,0.03999997,0.039999958,-9.816182999999992,-0.007673080312101042,-0.007995558575013125,0.0007232537450016868,-0.010819864692170413,-4.539503425012143e-05
0.265,0.00011413014949983641,-0.7849346979999999,-7.639201300035773e-05,-2.3560795300000006,6.191132829733068e-06,1.5709270599999998,0.7859242849999997,0.03999997,0.039999958,-9.816093599999991,-0.007809112872941415,-0.00813298763001325,0.000740916974001703,-0.010861629899595217,-4.666656970012259e-05
0.2675,0.00011233415524980589,-0.784933798,-8.03175285504239e-05,-2.3560861150000005,3.2620484146837156e-06,1.5709254499999998,0.7859216974999996,0.039999970350000004,0.0399999584,-9.81599939999999,-0.00793948159554261,-0.008263025350011216,0.000759275342001922,-0.010902321059260527,-4.79811060001363e-05
0.27,0.00011033960599980408,-0.784933582,-8.467323920042786e-05,-2.3560927600000006,1.217455968075636e-08,1.5709237999999999,0.7859188399999997,0.0399999714,0.0399999596,-9.81589559999999,-0.008058522641670394,-0.008378280400011323,0.00077902398800194,-0.010940864123407786,-4.9381644000137574e-05
0.2725,0.00010834505674980225,-0.784933366,-8.902894985043183e-05,-2.3560994050000006,-3.237699295322202e-06,1.57092215,0.7859159824999997,0.039999972450000004,0.0399999608,-9.815791799999989,-0.008177563687798177,-0.008493535450011427,0.0007987726340019579,-0.010979407187555046,-5.078218200013885e-05
0.275,0.00010635050749980044,-0.78493315,-9.33846605004358e-05,-2.3561060500000006,-6.487573150325161e-06,1.5709205,0.7859131249999997,0.0399999735,0.039999962,-9.815687999999989,-0.00829660473392596,-0.008608790500011532,0.0008185212800019759,-0.011017950251702307,-5.2182720000140125e-05
0.2775,0.00010435595824979863,-0.784932934,-9.774037115043976e-05,-2.3561126950000006,-9.73744700532812e-06,1.57091885,0.7859102674999997,0.03999997455,0.0399999632,-9.81558419999999,-0.008415645780053743,-0.008724045550011637,0.0008382699260019939,-0.011056493315849566,-5.3583258000141405e-05
0.28,0.0001023614089997968,-0.784932718,-0.00010209608180044373,-2.3561193400000007,-1.298732086033108e-05,1.5709171999999998,0.7859074099999998,0.0399999756,0.0399999644,-9.81548039999999,-0.008534686826181527,-0.008839300600011743,0.0008580185720020119,-0.011095036379996827,-5.498379600014268e-05
0.28250000000000003,0.00010036685974979499,-0.784932502,-0.0001064517924504477,-2.3561259850000007,-1.623719471533404e-05,1.5709155499999998,0.7859045524999997,0.03999997665,0.0399999656,-9.815376599999988,-0.00865372787230931,-0.008954555650011848,0.0008777672180020298,-0.011133579444144085,-5.6384334000143956e-05
0.28500000000000003,9.81551119997594e-05,-0.7849330170000001,-0.0001112776894005248,-2.356132980000001,-1.983769380039153e-05,1.5709135699999999,0.7859013799999996,0.0399999766,0.0399999654,-9.81528339999999,-0.008787438459708925,-0.009083829400014133,0.0008987262800022361,-0.011169112194332958,-5.787223400015882e-05
0.28750000000000003,9.583476499975728e-05,-0.7849338975000001,-0.00011633867950052941,-2.3561401500000008,-2.361350550039497e-05,1.5709114249999998,0.7858980499999997,0.039999976,0.0399999645,-9.81519549999999,-0.008928483817741055,-0.009220112500014256,0.0009202905500022558,-0.011203139787543333,-5.9403815000160214e-05
0.29,9.351441799975522e-05,-0.7849347780000001,-0.0001213996696005339,-2.3561473200000007,-2.7389317200398324e-05,1.5709092799999997,0.7858947199999996,0.0399999754,0.0399999636,-9.81510759999999,-0.009069529175773179,-0.009356395600014377,0.000941854820002275,-0.011237167380753709,-6.093539600016157e-05
0.2925,9.119407099975311e-05,-0.7849356585000001,-0.0001264606597005385,-2.3561544900000007,-3.116512890040176e-05,1.5709071349999997,0.7858913899999996,0.0399999748,0.0399999627,-9.81501969999999,-0.009210574533805308,-0.009492678700014502,0.0009634190900022945,-0.011271194973964085,-6.246697700016296e-05
0.295,8.8873723999751e-05,-0.784936539,-0.00013152164980054313,-2.356161660000001,-3.4940940600405195e-05,1.5709049899999998,0.7858880599999997,0.0399999742,0.0399999618,-9.81493179999999,-0.009351619891837436,-0.009628961800014626,0.0009849833600023142,-0.01130522256717446,-6.399855800016436e-05
0.2975,8.655337699974888e-05,-0.7849374195000001,-0.00013658263990054773,-2.356168830000001,-3.871675230040864e-05,1.5709028449999998,0.7858847299999996,0.0399999736,0.0399999609,-9.814843899999989,-0.009492665249869565,-0.00976524490001475,0.0010065476300023337,-0.011339250160384838,-6.553013900016575e-05
0.3,8.423302999970813e-05,-0.7849383000000002,-0.00014164363000063594,-2.356176000000001,-4.249256400047439e-05,1.5709006999999997,0.7858813999999995,0.039999973,0.03999996,-9.814755999999994,-0.009633710607899427,-0.009901528000011746,0.0010281119000025475,-0.011373277753595102,-6.706172000016706e-05
0.3025,8.155860424970569e-05,-0.7849402650000001,-0.00014747063500064123,-2.356183455000001,-4.6839338400478344e-05,1.5708984949999998,0.7858775749999996,0.0399999736,0.03999996,-9.814710399999994,-0.00975398435258697,-0.010009161100011845,0.0010514545250025688,-0.011406290018934617,-6.859246250016845e-05
0.305,7.888417849970326e-05,-0.7849422300000002,-0.00015329764000064655,-2.356190910000001,-5.11861128004823e-05,1.5708962899999996,0.7858737499999996,0.0399999742,0.03999996,-9.814664799999994,-0.009874258097274515,-0.010116794200011943,0.00107479715000259,-0.011439302284274132,-7.012320500016984e-05
0.3075,7.620975274970082e-05,-0.7849441950000002,-0.00015912464500065186,-2.356198365000001,-5.553288720048626e-05,1.5708940849999997,0.7858699249999995,0.0399999748,0.03999996,-9.814619199999994,-0.00999453184196206,-0.01022442730001204,0.0010981397750026113,-0.011472314549613647,-7.165394750017123e-05
0.31,7.353532699969839e-05,-0.7849461600000002,-0.00016495165000065715,-2.356205820000001,-5.9879661600490213e-05,1.5708918799999998,0.7858660999999996,0.0399999754,0.03999996,-9.814573599999994,-0.010114805586649605,-0.010332060400012139,0.0011214824000026326,-0.011505326814953164,-7.318469000017262e-05
0.3125,7.086090124969595e-05,-0.7849481250000002,-0.00017077865500066247,-2.356213275000001,-6.422643600049416e-05,1.5708896749999997,0.7858622749999996,0.039999976,0.03999996,-9.814527999999994,-0.010235079331337148,-0.010439693500012236,0.0011448250250026537,-0.011538339080292679,-7.471543250017403e-05
0.315,6.818647549969352e-05,-0.7849500900000002,-0.00017660566000066776,-2.356220730000001,-6.857321040049813e-05,1.5708874699999997,0.7858584499999997,0.0399999766,0.03999996,-9.814482399999994,-0.010355353076024693,-0.010547326600012334,0.001168167650002675,-0.011571351345632194,-7.624617500017542e-05
0.3175,6.538450924964688e-05,-0.7849524250000003,-0.00018270841350076863,-2.356228230000001,-7.312557030057333e-05,1.5708850949999997,0.7858544399999995,0.039999977,0.0399999599,-9.814428799999991,-0.0104846051894298,-0.010664002800015566,0.0011921430300029156,-0.011603049980479764,-7.782069080019198e-05
0.32,6.23274619996441e-05,-0.7849555000000004,-0.0001893626640007747,-2.356235820000001,-7.808910120057784e-05,1.5708823799999998,0.7858500599999996,0.039999977,0.0399999596,-9.814359199999991,-0.010631814040260718,-0.010798765200015688,0.0012173839200029385,-0.011632121354344804,-7.94827532001935e-05
0.3225,5.927041474964132e-05,-0.7849585750000003,-0.00019601691450078074,-2.356243410000001,-8.305263210058236e-05,1.5708796649999996,0.7858456799999995,0.039999977,0.0399999593,-9.814289599999992,-0.010779022891091637,-0.010933527600015812,0.0012426248100029615,-0.011661192728209846,-8.1144815600195e-05
0.325,5.6213367499638534e-05,-0.7849616500000003,-0.0002026711650007868,-2.356251000000001,-8.801616300058688e-05,1.5708769499999997,0.7858412999999995,0.039999977,0.039999959,-9.814219999999992,-0.010926231741922556,-0.011068290000015933,0.0012678657000029844,-0.011690264102074887,-8.280687800019652e-05
0.3275,5.3156320249635754e-05,-0.7849647250000004,-0.00020932541550079285,-2.356258590000001,-9.29796939005914e-05,1.5708742349999998,0.7858369199999995,0.039999977,0.039999958700000005,-9.814150399999992,-0.011073440592753475,-0.011203052400016057,0.0012931065900030074,-0.011719335475939929,-8.446894040019803e-05
0.33,5.009927299963297e-05,-0.7849678000000003,-0.0002159796660007989,-2.356266180000001,-9.794322480059592e-05,1.5708715199999999,0.7858325399999995,0.039999977,0.0399999584,-9.814080799999992,-0.011220649443584394,-0.011337814800016178,0.0013183474800030305,-0.01174840684980497,-8.613100280019954e-05
0.3325,4.7042225749630186e-05,-0.7849708750000003,-0.00022263391650080496,-2.356273770000001,-0.00010290675570060044,1.5708688049999997,0.7858281599999994,0.039999977,0.0399999581,-9.814011199999992,-0.011367858294415313,-0.011472577200016302,0.0013435883700030533,-0.01177747822367001,-8.779306520020105e-05
0.335,4.371093849957727e-05,-0.7849747500000005,-0.00022988077000091935,-2.356281470000001,-0.00010831205240068572,1.5708659899999997,0.7858233899999993,0.039999977299999996,0.039999958200000005,-9.813923399999988,-0.011498305853471048,-0.011588496100012979,0.0013701102300033106,-0.011804669629785589,-8.962671740023394e-05
0.3375,4.024253124957411e-05,-0.7849790250000005,-0.00023742392500092623,-2.356289225000001,-0.00011393823200069084,1.5708631249999998,0.7858184249999994,0.03999997775,0.0399999585,-9.813826499999989,-0.011620372766643764,-0.011694993250013077,0.0013972725750033353,-0.011830921052026948,-9.154616450023569e-05
0.34,3.677412399957095e-05,-0.7849833000000005,-0.0002449670800009331,-2.356296980000001,-0.00011956441160069597,1.5708602599999997,0.7858134599999994,0.0399999782,0.0399999588,-9.813729599999988,-0.01174243967981648,-0.011801490400013173,0.00142443492000336,-0.011857172474268308,-9.346561160023744e-05
0.3425,3.330571674956779e-05,-0.7849875750000005,-0.00025251023500094,-2.356304735000001,-0.0001251905912007011,1.5708573949999998,0.7858084949999994,0.03999997865,0.0399999591,-9.813632699999989,-0.011864506592989196,-0.01190798755001327,0.0014515972650033847,-0.011883423896509666,-9.538505870023919e-05
0.34500000000000003,2.9837309499564638e-05,-0.7849918500000006,-0.00026005339000094685,-2.356312490000001,-0.0001308167708007062,1.5708545299999996,0.7858035299999994,0.0399999791,0.0399999594,-9.813535799999988,-0.011986573506161911,-0.012014484700013367,0.0014787596100034094,-0.011909675318751025,-9.730450580024094e-05
0.34750000000000003,2.636890224956148e-05,-0.7849961250000006,-0.0002675965450009537,-2.356320245000001,-0.00013644295040071133,1.5708516649999997,0.7857985649999993,0.039999979549999995,0.039999959700000004,-9.813438899999989,-0.012108640419334628,-0.012120981850013464,0.001505921955003434,-0.011935926740992383,-9.922395290024269e-05
0.35000000000000003,2.2900494999502268e-05,-0.7850004000000007,-0.00027513970000108166,-2.356328000000001,-0.0001420691300008067,1.5708487999999996,0.7857935999999993,0.03999998,0.03999996,-9.813341999999988,-0.012230707332511019,-0.012227479000015957,0.0015330843000036947,-0.011962178163233134,-0.00010114340000026116
0.3525,1.8991896054445475e-05,-0.7850058600000008,-0.0002836336495012051,-2.356336655000001,-0.00014840396900089875,1.5708454999999997,0.7857880304999992,0.03999998,0.03999996,-9.813240899999986,-0.012381624477005476,-0.012352786975017778,0.0015620985600041163,-0.011983642959970276,-0.00010319417990029095
0.355,1.5083297109388593e-05,-0.7850113200000008,-0.00029212759900132867,-2.3563453100000014,-0.00015473880800099095,1.5708421999999995,0.7857824609999992,0.03999998,0.03999996,-9.813139799999984,-0.012532541621499938,-0.012478094950019602,0.0015911128200045387,-0.012005107756707418,-0.0001052449598003208
0.3575,1.1174698164331711e-05,-0.785016780000001,-0.00030062154850145226,-2.3563539650000016,-0.00016107364700108313,1.5708388999999996,0.7857768914999991,0.03999998,0.03999996,-9.813038699999984,-0.012683458765994398,-0.012603402925021424,0.0016201270800049608,-0.01202657255344456,-0.00010729573970035064
0.36,7.26609921927483e-06,-0.785022240000001,-0.0003091154980015759,-2.356362620000002,-0.0001674084860011753,1.5708355999999994,0.785771321999999,0.03999998,0.03999996,-9.812937599999982,-0.01283437591048886,-0.012728710900023248,0.001649141340005383,-0.012048037350181702,-0.00010934651960038048
0.3625,3.357500274217948e-06,-0.7850277000000011,-0.0003176094475016995,-2.3563712750000017,-0.0001737433250012675,1.5708322999999995,0.7857657524999989,0.03999998,0.03999996,-9.81283649999998,-0.01298529305498332,-0.012854018875025072,0.0016781556000058052,-0.012069502146918844,-0.00011139729950041033
0.365,-5.510986708389304e-07,-0.7850331600000011,-0.00032610339700182313,-2.356379930000002,-0.0001800781640013597,1.5708289999999994,0.7857601829999988,0.03999998,0.03999996,-9.812735399999978,-0.013136210199477782,-0.012979326850026895,0.0017071698600062274,-0.012090966943655987,-0.00011344807940044018
0.3675,-4.616062735963509e-06,-0.7850390400000015,-0.00033493493650209235,-2.3563886450000022,-0.00018666453650156037,1.5708255599999992,0.7857543964999987,0.0399999802,0.03999996,-9.812666149999998,-0.013276983844142753,-0.013096071850021925,0.0017367861300067833,-0.012112429970880042,-0.00011549598620044947
0.37,-8.993757040907772e-06,-0.7850457600000014,-0.00034444165600197135,-2.356397480000002,-0.00019375397600147009,1.5708218399999994,0.7857481759999988,0.0399999808,0.03999996,-9.8126606,-0.013397470489169224,-0.013195690900020656,0.001767606420006391,-0.01213388945907793,-0.00011753814680042347
0.3725,-1.3371451345852034e-05,-0.7850524800000013,-0.0003539483755018503,-2.356406315000002,-0.00020084341550137983,1.5708181199999993,0.7857419554999988,0.0399999814,0.03999996,-9.812655049999998,-0.013517957134195695,-0.01329530995001939,0.0017984267100059985,-0.012155348947275817,-0.00011958030740039747
0.375,-1.77491456507963e-05,-0.7850592000000013,-0.00036345509500172924,-2.356415150000002,-0.00020793285500128958,1.5708143999999993,0.7857357349999989,0.039999982,0.03999996,-9.8126495,-0.013638443779222166,-0.01339492900001812,0.0018292470000056062,-0.012176808435473703,-0.00012162246800037147
0.3775,-2.2126839955740562e-05,-0.7850659200000012,-0.00037296181450160824,-2.3564239850000015,-0.0002150222945011993,1.5708106799999995,0.785729514499999,0.0399999826,0.03999996,-9.812643949999998,-0.013758930424248637,-0.013494548050016852,0.0018600672900052138,-0.01219826792367159,-0.00012366462860034547
0.38,-2.6504534260684825e-05,-0.7850726400000011,-0.0003824685340014872,-2.3564328200000015,-0.00022211173400110904,1.5708069599999994,0.7857232939999991,0.0399999832,0.03999996,-9.812638399999999,-0.013879417069275108,-0.013594167100015583,0.0018908875800048215,-0.012219727411869477,-0.00012570678920031947
0.3825,-3.088222856562909e-05,-0.785079360000001,-0.00039197525350136614,-2.3564416550000016,-0.00022920117350101876,1.5708032399999996,0.7857170734999992,0.0399999838,0.03999996,-9.812632849999998,-0.013999903714301579,-0.013693786150014316,0.001921707870004429,-0.012241186900067364,-0.00012774894980029347
0.385,-3.559189600068291e-05,-0.7850869500000012,-0.0004021984800014821,-2.3564511100000014,-0.0002368248160011052,1.5707993199999994,0.7857103729999991,0.039999984,0.0399999606,-9.812562399999985,-0.014132086001355872,-0.013800492150015442,0.001953742590004572,-0.012260132003577978,-0.00013014126300035962
0.3875,-4.0467550000687345e-05,-0.7850949750000011,-0.0004127799600014917,-2.3564608750000016,-0.0002447155600011124,1.5707952999999995,0.7857034324999991,0.039999984,0.0399999615,-9.812459499999985,-0.014270116109420408,-0.013910741625015542,0.0019863845250046018,-0.012277819914745743,-0.00013270865250036195
0.39,-4.534320400069179e-05,-0.7851030000000011,-0.00042336144000150135,-2.3564706400000017,-0.0002526063040011196,1.5707912799999995,0.785696491999999,0.039999984,0.0399999624,-9.812356599999985,-0.014408146217484943,-0.014020991100015643,0.0020190264600046313,-0.01229550782591351,-0.00013527604200036427
0.3925,-5.021885800069623e-05,-0.7851110250000012,-0.000433942920001511,-2.3564804050000014,-0.0002604970480011268,1.5707872599999995,0.7856895514999991,0.039999984,0.0399999633,-9.812253699999985,-0.014546176325549479,-0.014131240575015743,0.0020516683950046613,-0.012313195737081275,-0.00013784343150036662
0.395,-5.5094512000700664e-05,-0.7851190500000012,-0.00044452440000152064,-2.3564901700000016,-0.0002683877920011339,1.5707832399999995,0.785682610999999,0.039999984,0.0399999642,-9.812150799999985,-0.014684206433614014,-0.014241490050015843,0.002084310330004691,-0.012330883648249042,-0.00014041082100036895
0.3975,-5.99701660007051e-05,-0.7851270750000011,-0.0004551058800015302,-2.3564999350000018,-0.0002762785360011411,1.5707792199999993,0.7856756704999991,0.039999984,0.0399999651,-9.812047899999985,-0.014822236541678552,-0.014351739525015944,0.0021169522650047205,-0.012348571559416807,-0.0001429782105003713
0.4,-6.48458200007862e-05,-0.7851351000000013,-0.00046568736000170526,-2.3565097000000015,-0.00028416928000127154,1.5707751999999993,0.7856687299999989,0.039999984,0.039999966,-9.811944999999998,-0.01496026664974507,-0.014461989000017345,0.0021495942000050285,-0.012366259470584425,-0.00014554560000033253
0.4025,-7.024829425079113e-05,-0.7851444690000013,-0.00047740545600171596,-2.3565196750000017,-0.0002929066720012795,1.5707706999999993,0.7856610499999989,0.0399999846,0.039999966,-9.811935849999998,-0.015111928526334268,-0.014581184850017454,0.00218414922000506,-0.012382918223741095,-0.00014783060550033463
0.405,-7.565076850079605e-05,-0.7851538380000014,-0.0004891235520017266,-2.3565296500000015,-0.00030164406400128745,1.5707661999999993,0.7856533699999989,0.039999985200000004,0.039999966,-9.811926699999999,-0.015263590402923466,-0.014700380700017564,0.0022187042400050915,-0.012399576976897765,-0.0001501156110003367
0.40750000000000003,-8.105324275080097e-05,-0.7851632070000013,-0.0005008416480017373,-2.3565396250000017,-0.0003103814560012954,1.5707616999999994,0.7856456899999988,0.0399999858,0.039999966,-9.811917549999999,-0.015415252279512664,-0.014819576550017671,0.002253259260005123,-0.012416235730054435,-0.00015240061650033878
0.41000000000000003,-8.645571700080588e-05,-0.7851725760000013,-0.000512559744001748,-2.3565496000000015,-0.00031911884800130336,1.5707571999999992,0.7856380099999989,0.0399999864,0.039999966,-9.811908399999998,-0.015566914156101863,-0.01493877240001778,0.0022878142800051545,-0.012432894483211105,-0.00015468562200034085
0.41250000000000003,-9.18581912508108e-05,-0.7851819450000014,-0.0005242778400017587,-2.3565595750000017,-0.0003278562400013113,1.5707526999999992,0.7856303299999988,0.039999987,0.039999966,-9.811899249999998,-0.01571857603269106,-0.015057968250017888,0.002322369300005186,-0.012449553236367775,-0.00015697062750034296
0.41500000000000004,-9.726066550081572e-05,-0.7851913140000014,-0.0005359959360017693,-2.3565695500000015,-0.0003365936320013193,1.5707481999999993,0.7856226499999989,0.0399999876,0.039999966,-9.811890099999998,-0.015870237909280258,-0.015177164100017997,0.0023569243200052175,-0.012466211989524445,-0.00015925563300034503
0.4175,-0.00010284831325090489,-0.7852011390000015,-0.0005481134550019617,-2.356579870000002,-0.00034562870200146266,1.5707435199999993,0.7856147084999987,0.0399999881,0.0399999667,-9.811846549999983,-0.016011912375706983,-0.015287585750014106,0.002392084505005524,-0.012481549428777777,-0.00016179851150046454
0.42,-0.00010880630800091031,-0.7852118760000016,-0.0005610298200019734,-2.356590880000002,-0.0003552591280014714,1.5707384799999993,0.7856062439999987,0.0399999884,0.0399999688,-9.811734199999982,-0.016133612021822393,-0.01538045900001419,0.002428455020005557,-0.01249424424022624,-0.00016485713600046734
0.4225,-0.00011476430275091574,-0.7852226130000016,-0.0005739461850019852,-2.3566018900000016,-0.0003648895540014802,1.5707334399999993,0.7855977794999988,0.0399999887,0.0399999709,-9.811621849999982,-0.016255311667937804,-0.015473332250014274,0.00246482553500559,-0.012506939051674701,-0.00016791576050047011
0.425,-0.00012072229750092117,-0.7852333500000016,-0.0005868625500019969,-2.356612900000002,-0.00037451998000148895,1.5707283999999992,0.7855893149999987,0.039999989,0.039999973,-9.811509499999982,-0.016377011314053214,-0.01556620550001436,0.002501196050005623,-0.012519633863123162,-0.0001709743850004729
0.4275,-0.00012668029225092658,-0.7852440870000017,-0.0005997789150020088,-2.3566239100000015,-0.0003841504060014977,1.5707233599999992,0.7855808504999987,0.0399999893,0.039999975099999995,-9.811397149999982,-0.016498710960168625,-0.015659078750014443,0.0025375665650056566,-0.012532328674571625,-0.00017403300950047566
0.43,-0.00013263828700093203,-0.7852548240000017,-0.0006126952800020205,-2.3566349200000016,-0.00039378083200150647,1.5707183199999992,0.7855723859999987,0.0399999896,0.039999977199999995,-9.811284799999983,-0.016620410606284036,-0.01575195200001453,0.0025739370800056897,-0.012545023486020086,-0.00017709163400047846
0.4325,-0.00013859628175093744,-0.7852655610000017,-0.0006256116450020322,-2.3566459300000018,-0.00040341125800151523,1.5707132799999992,0.7855639214999987,0.0399999899,0.039999979299999995,-9.811172449999983,-0.016742110252399446,-0.015844825250014613,0.0026103075950057227,-0.012557718297468549,-0.00018015025850048124
0.435,-0.00014494368900103531,-0.7852772460000019,-0.0006393677400022434,-2.3566572800000016,-0.0004136672660016725,1.5707079699999993,0.7855549099999986,0.039999989799999996,0.0399999797,-9.811137400000002,-0.01688454914840487,-0.015952968700018322,0.002647906180006047,-0.012570595648141683,-0.00018292857800041747
0.4375,-0.00015148580250104126,-0.785289405000002,-0.0006535437000022563,-2.356668800000002,-0.00042423606500168213,1.5707025249999993,0.7855456249999985,0.0399999895,0.03999997925,-9.811141000000001,-0.017037357669347945,-0.016068747250018427,0.002686118800006082,-0.01258356426842709,-0.00018556674500041988
0.44,-0.0001580279160010472,-0.785301564000002,-0.0006677196600022692,-2.356680320000002,-0.00043480486400169176,1.570697079999999,0.7855363399999985,0.0399999892,0.039999978799999995,-9.8111446,-0.01719016619029102,-0.016184525800018532,0.0027243314200061167,-0.012596532888712497,-0.0001882049120004223
0.4425,-0.00016457002950105316,-0.785313723000002,-0.0006818956200022821,-2.3566918400000016,-0.0004453736630017014,1.570691634999999,0.7855270549999985,0.0399999889,0.03999997835,-9.8111482,-0.017342974711234093,-0.016300304350018637,0.0027625440400061516,-0.012609501508997903,-0.0001908430790004247
0.445,-0.00017111214300105914,-0.785325882000002,-0.000696071580002295,-2.356703360000002,-0.000455942462001711,1.570686189999999,0.7855177699999984,0.0399999886,0.0399999779,-9.811151800000001,-0.01749578323217717,-0.016416082900018742,0.002800756660006186,-0.01262247012928331,-0.0001934812460004271
0.4475,-0.0001776542565010651,-0.7853380410000019,-0.0007102475400023078,-2.356714880000002,-0.00046651126100172064,1.570680744999999,0.7855084849999985,0.0399999883,0.03999997745,-9.8111554,-0.017648591753120245,-0.016531861450018847,0.002838969280006221,-0.012635438749568717,-0.0001961194130004295
0.45,-0.00018419637000117133,-0.7853502000000022,-0.0007244235000025371,-2.356726400000002,-0.00047708006000189127,1.570675299999999,0.7854991999999983,0.039999988,0.039999977,-9.811158999999986,-0.017801400274056682,-0.01664764000001551,0.002877181900006552,-0.01264840736985361,-0.00019875758000038627
0.4525,-0.00019135101150117784,-0.7853638260000022,-0.0007399199625025511,-2.356738670000002,-0.0004886325485019018,1.570669389999999,0.7854890599999983,0.0399999883,0.03999997595,-9.811077099999986,-0.017913673631865364,-0.016742386000015597,0.0029172041200065885,-0.012658241158352854,-0.00020111705150038843
0.455,-0.00019850565300118435,-0.7853774520000023,-0.0007554164250025652,-2.356750940000002,-0.0005001850370019124,1.570663479999999,0.7854789199999983,0.0399999886,0.0399999749,-9.810995199999986,-0.018025946989674045,-0.016837132000015683,0.0029572263400066247,-0.012668074946852098,-0.00020347652300039057
0.4575,-0.00020566029450119086,-0.7853910780000023,-0.0007709128875025794,-2.356763210000002,-0.0005117375255019229,1.570657569999999,0.7854687799999983,0.0399999889,0.03999997385,-9.810913299999987,-0.018138220347482727,-0.01693187800001577,0.0029972485600066614,-0.012677908735351342,-0.00020583599450039273
0.46,-0.00021281493600119737,-0.7854047040000023,-0.0007864093500025934,-2.3567754800000023,-0.0005232900140019333,1.5706516599999991,0.7854586399999983,0.0399999892,0.0399999728,-9.810831399999985,-0.01825049370529141,-0.017026624000015856,0.0030372707800066976,-0.012687742523850586,-0.00020819546600039487
0.4625,-0.0002199695775012039,-0.7854183300000023,-0.0008019058125026075,-2.3567877500000023,-0.0005348425025019439,1.570645749999999,0.7854484999999983,0.0399999895,0.03999997175,-9.810749499999986,-0.018362767063100093,-0.017121370000015942,0.0030772930000067342,-0.01269757631234983,-0.00021055493750039703
0.465,-0.0002271242190012104,-0.7854319560000024,-0.0008174022750026216,-2.3568000200000023,-0.0005463949910019544,1.570639839999999,0.7854383599999983,0.039999989799999996,0.039999970700000005,-9.810667599999986,-0.018475040420908775,-0.01721611600001603,0.0031173152200067705,-0.012707410100849074,-0.00021291440900039917
0.4675,-0.00023449241100129045,-0.7854460830000025,-0.0008333590625027938,-2.3568126350000025,-0.0005582904175020827,1.570633759999999,0.7854279199999982,0.03999999025,0.039999970700000005,-9.810595599999992,-0.01860328102486989,-0.017317216800018843,0.0031579225150069157,-0.012716518947855833,-0.0002155604130005329
0.47000000000000003,-0.00024228770400119118,-0.7854612120000023,-0.0008502365000025789,-2.356825940000002,-0.0005708717200019225,1.570627339999999,0.7854168799999983,0.039999991,0.039999972800000005,-9.810543399999991,-0.018763456121111476,-0.017431027200017393,0.0031996999600063837,-0.01272417791187873,-0.0002187794820004919
0.47250000000000003,-0.0002500829970010919,-0.7854763410000022,-0.0008671139375023641,-2.356839245000002,-0.0005834530225017623,1.5706209199999992,0.7854058399999985,0.03999999175,0.039999974900000006,-9.810491199999992,-0.018923631217353062,-0.017544837600015944,0.0032414774050058518,-0.012731836875901627,-0.0002219985510004509
0.47500000000000003,-0.0002578782900009927,-0.785491470000002,-0.0008839913750021492,-2.356852550000002,-0.0005960343250016022,1.5706144999999991,0.7853947999999986,0.039999992500000005,0.039999977000000006,-9.810438999999993,-0.01908380631359465,-0.017658648000014494,0.00328325485000532,-0.012739495839924526,-0.00022521762000040992
0.47750000000000004,-0.00026567358300089345,-0.7855065990000017,-0.0009008688125019343,-2.356865855000002,-0.0006086156275014419,1.5706080799999993,0.7853837599999988,0.039999993250000004,0.0399999791,-9.810386799999993,-0.01924398140983623,-0.017772458400013045,0.003325032295004788,-0.012747154803947423,-0.00022843668900036893
0.48,-0.000273468876000794,-0.7855217280000015,-0.0009177462500017191,-2.3568791600000014,-0.0006211969300012815,1.5706016599999992,0.7853727199999989,0.039999994000000004,0.0399999812,-9.810334599999994,-0.019404156506077814,-0.017886268800011592,0.003366809740004255,-0.01275481376797032,-0.00023165575800032786
0.4825,-0.00028126416900069477,-0.7855368570000013,-0.0009346236875015043,-2.3568924650000014,-0.0006337782325011213,1.5705952399999994,0.7853616799999991,0.039999994750000004,0.0399999833,-9.810282399999995,-0.0195643316023194,-0.018000079200010143,0.003408587185003723,-0.012762472731993216,-0.0002348748270002869
0.485,-0.0002895051800008005,-0.7855530330000016,-0.0009524617200017326,-2.3569065100000017,-0.0006470752400012915,1.5705884499999994,0.7853500099999988,0.039999995,0.039999984,-9.810256949999998,-0.01969110611827218,-0.018098046800008517,0.0034515231300041157,-0.012769802380353827,-0.0002379060480002778
0.4875,-0.0002979690500009237,-0.7855697325000018,-0.0009707800500019991,-2.3569209250000016,-0.0006607301000014903,1.5705814749999991,0.7853380249999987,0.039999995,0.039999984,-9.810244874999999,-0.019801180344086938,-0.018188093000009828,0.003495038325004749,-0.012776967370883357,-0.00024084334500032055
0.49,-0.00030643292000104684,-0.7855864320000021,-0.0009890983800022657,-2.356935340000002,-0.0006743849600016889,1.570574499999999,0.7853260399999985,0.039999995,0.039999984,-9.810232799999998,-0.019911254569901695,-0.01827813920001114,0.0035385535200053823,-0.012784132361412886,-0.0002437806420003633
0.4925,-0.00031489679000117006,-0.7856031315000023,-0.0010074167100025324,-2.3569497550000023,-0.0006880398200018877,1.570567524999999,0.7853140549999983,0.039999995,0.039999984,-9.810220724999999,-0.02002132879571645,-0.01836818540001245,0.0035820687150060157,-0.012791297351942415,-0.00024671793900040605
0.495,-0.0003233606600012932,-0.7856198310000025,-0.0010257350400027989,-2.356964170000002,-0.0007016946800020864,1.5705605499999988,0.7853020699999982,0.039999995,0.039999984,-9.810208649999998,-0.020131403021531206,-0.01845823160001376,0.003625583910006649,-0.012798462342471945,-0.0002496552360004488
0.4975,-0.0003318245300014164,-0.7856365305000028,-0.0010440533700030654,-2.3569785850000025,-0.0007153495400022851,1.5705535749999988,0.785290084999998,0.039999995,0.039999984,-9.810196574999997,-0.020241477247345964,-0.01854827780001507,0.0036690991050072823,-0.012805627333001474,-0.00025259253300049156
0.5,-0.0003402884000016662,-0.7856532300000033,-0.0010623717000036049,-2.356993000000003,-0.000729004400002687,1.5705465999999986,0.7852780999999976,0.039999995,0.039999984,-9.810184499999998,-0.020351551473169045,-0.018638324000020565,0.0037126143000082504,-0.012812792323530916,-0.00025552983000054784
0.5025000000000001,-0.0003494485100016747,-0.7856715765000033,-0.0010821902100036235,-2.3570078500000027,-0.0007437764300027008,1.5705390549999985,0.7852651249999976,0.03999999575,0.0399999849,-9.810171224999998,-0.020507385022966715,-0.018751380800020673,0.003757971810008293,-0.012819477729500543,-0.0002585415435005506
0.505,-0.00035860862000168287,-0.7856899230000034,-0.001102008720003641,-2.357022700000003,-0.0007585484600027139,1.5705315099999986,0.7852521499999976,0.0399999965,0.0399999858,-9.810157949999997,-0.020663218572764378,-0.01886443760002077,0.003803329320008333,-0.012826163135470168,-0.0002615532570005533
0.5075000000000001,-0.0003677687300016914,-0.7857082695000034,-0.0011218272300036595,-2.357037550000003,-0.0007733204900027277,1.5705239649999987,0.7852391749999976,0.03999999725,0.039999986700000004,-9.810144674999998,-0.02081905212256205,-0.01897749440002088,0.0038486868300083754,-0.012832848541439793,-0.0002645649705005561
0.51,-0.00037692884000169955,-0.7857266160000034,-0.0011416457400036772,-2.357052400000003,-0.0007880925200027407,1.5705164199999986,0.7852261999999975,0.039999998,0.0399999876,-9.810131399999998,-0.02097488567235971,-0.019090551200020976,0.0038940443400084157,-0.01283953394740942,-0.0002675766840005588
0.5125,-0.0003860889500017077,-0.7857449625000035,-0.0011614642500036947,-2.3570672500000027,-0.0008028645500027539,1.5705088749999987,0.7852132249999976,0.03999999875,0.0399999885,-9.810118124999997,-0.021130719222157375,-0.019203608000021077,0.003939401850008456,-0.012846219353379046,-0.0002705883975005615
0.515,-0.00039524906000171624,-0.7857633090000035,-0.0011812827600037133,-2.357082100000003,-0.0008176365800027677,1.5705013299999986,0.7852002499999976,0.0399999995,0.0399999894,-9.810104849999997,-0.021286552771955045,-0.019316664800021185,0.003984759360008498,-0.012852904759348673,-0.00027360011100056425
0.5175,-0.0004046503575018606,-0.7857822080000039,-0.0012016209300040243,-2.357097300000003,-0.0008327958500029995,1.5704935849999986,0.7851869399999973,0.04,0.03999999,-9.810058049999979,-0.0214260957204006,-0.019420231800015925,0.0040306764000088546,-0.012858208315447433,-0.0002765993825005599
0.52,-0.0004145340300018698,-0.7858022120000038,-0.0012229984200040442,-2.3571132000000032,-0.0008487296000030144,1.5704854399999986,0.7851729599999974,0.04,0.03999999,-9.809944199999977,-0.021533057466169493,-0.019504819200016003,0.004077712500008899,-0.0128607481718068,-0.0002795737700005627
0.5225,-0.00042441770250187857,-0.7858222160000038,-0.0012443759100040632,-2.357129100000003,-0.0008646633500030285,1.5704772949999986,0.7851589799999973,0.04,0.03999999,-9.809830349999977,-0.021640019211938383,-0.01958940660001608,0.00412474860000894,-0.012863288028166168,-0.0002825481575005653
0.525,-0.00043430137500188783,-0.7858422200000038,-0.0012657534000040831,-2.357145000000003,-0.0008805971000030434,1.5704691499999983,0.7851449999999973,0.04,0.03999999,-9.809716499999977,-0.02174698095770728,-0.019673994000016157,0.0041717847000089835,-0.012865827884525534,-0.0002855225450005681
0.5275,-0.00044418504750189656,-0.7858622240000038,-0.0012871308900041021,-2.357160900000003,-0.0008965308500030575,1.5704610049999983,0.7851310199999973,0.04,0.03999999,-9.809602649999977,-0.021853942703476167,-0.019758581400016233,0.004218820800009026,-0.012868367740884902,-0.00028849693250057075
0.53,-0.0004540687200019058,-0.7858822280000038,-0.001308508380004122,-2.357176800000003,-0.0009124646000030724,1.5704528599999983,0.7851170399999973,0.04,0.03999999,-9.809488799999977,-0.021960904449245065,-0.01984316880001631,0.004265856900009069,-0.012870907597244269,-0.0002914713200005735
0.5325,-0.00046395239250191455,-0.7859022320000039,-0.001329885870004141,-2.357192700000003,-0.0009283983500030866,1.5704447149999983,0.7851030599999973,0.04,0.03999999,-9.809374949999977,-0.022067866195013955,-0.019927756200016383,0.004312893000009111,-0.012873447453603637,-0.00029444570750057614
0.535,-0.0004743364020020699,-0.7859233640000043,-0.0013523411900044757,-2.3572093500000033,-0.0009451349900033359,1.5704361499999981,0.785088359999997,0.0399999988,0.0399999857,-9.809322399999996,-0.02220504488798957,-0.020029514300021478,0.004361072860009489,-0.012875584978610646,-0.00029706016000047384
0.5375,-0.00048497058000207934,-0.7859450600000043,-0.001375335425004496,-2.3572263750000033,-0.000962273075003351,1.5704273749999982,0.785073299999997,0.039999997,0.03999997925,-9.809300499999996,-0.02235733205455535,-0.020139857750021577,0.004409824600009532,-0.012877521337941653,-0.000299494645000476
0.54,-0.0004956047580020892,-0.7859667560000043,-0.0013983296600045176,-2.3572434000000033,-0.000979411160003367,1.5704185999999982,0.785058239999997,0.0399999952,0.0399999728,-9.809278599999995,-0.022509619221121137,-0.02025020120002168,0.0044585763400095775,-0.01287945769727266,-0.0003019291300004783
0.5425,-0.0005062389360020986,-0.7859884520000043,-0.001421323895004538,-2.3572604250000033,-0.0009965492450033822,1.5704098249999983,0.785043179999997,0.0399999934,0.03999996635,-9.809256699999995,-0.02266190638768692,-0.020360544650021777,0.004507328080009621,-0.012881394056603667,-0.00030436361500048043
0.545,-0.0005168731140021086,-0.7860101480000043,-0.0014443181300045594,-2.3572774500000033,-0.0010136873300033982,1.570401049999998,0.785028119999997,0.0399999916,0.0399999599,-9.809234799999995,-0.022814193554252706,-0.02047088810002188,0.004556079820009666,-0.012883330415934674,-0.0003067981000004827
0.5475,-0.000527507292002118,-0.7860318440000044,-0.0014673123650045799,-2.3572944750000033,-0.0010308254150034135,1.5703922749999981,0.7850130599999969,0.039999989799999996,0.03999995345,-9.809212899999995,-0.022966480720818486,-0.020581231550021978,0.00460483156000971,-0.01288526677526568,-0.0003092325850004849
0.55,-0.0005381414700022835,-0.7860535400000047,-0.0014903066000049364,-2.3573115000000033,-0.0010479635000036787,1.5703834999999982,0.7849979999999968,0.039999988,0.039999947,-9.809190999999997,-0.023118767887374374,-0.02069157500001681,0.004653583300010097,-0.012887203134596521,-0.00031166707000048995
0.5525,-0.0005495528805022936,-0.7860770090000048,-0.0015149748350049583,-2.3573296650000035,-0.0010663476650036952,1.570374094999998,0.7849818599999967,0.039999988,0.03999994475,-9.809170149999996,-0.023221576120724983,-0.020775584150016884,0.004704042145010142,-0.012888316251337698,-0.0003141154795004921
0.555,-0.0005609642910023042,-0.7861004780000047,-0.0015396430700049812,-2.3573478300000037,-0.0010847318300037123,1.5703646899999981,0.7849657199999968,0.039999988,0.0399999425,-9.809149299999996,-0.0233243843540756,-0.020859593300016965,0.004754500990010189,-0.012889429368078874,-0.0003165638890004944
0.5575,-0.0005723757015023144,-0.7861239470000048,-0.0015643113050050031,-2.3573659950000034,-0.0011031159950037287,1.570355284999998,0.7849495799999967,0.039999988,0.03999994025,-9.809128449999996,-0.02342719258742621,-0.02094360245001704,0.004804959835010234,-0.01289054248482005,-0.0003190122985004966
0.56,-0.0005837871120023251,-0.7861474160000048,-0.001588979540005026,-2.3573841600000036,-0.0011215001600037458,1.570345879999998,0.7849334399999967,0.039999988,0.039999938,-9.809107599999995,-0.023530000820776827,-0.021027611600017117,0.004855418680010281,-0.012891655601561226,-0.00032146070800049886
0.5625,-0.0005951985225023353,-0.7861708850000048,-0.001613647775005048,-2.357402325000004,-0.001139884325003762,1.570336474999998,0.7849172999999967,0.039999988,0.03999993575,-9.809086749999995,-0.02363280905412744,-0.021111620750017192,0.0049058775250103255,-0.012892768718302403,-0.000323909117500501
0.5650000000000001,-0.0006066099330023459,-0.7861943540000048,-0.001638316010005071,-2.357420490000004,-0.0011582684900037791,1.570327069999998,0.7849011599999967,0.039999988,0.0399999335,-9.809065899999995,-0.023735617287478056,-0.02119562990001727,0.004956336370010373,-0.012893881835043579,-0.0003263575270005033
0.5675,-0.0006182891250025218,-0.7862184350000052,-0.0016635609950054501,-2.357439035000004,-0.0011770823950040617,1.570317434999998,0.7848846429999964,0.039999988,0.039999932,-9.809040249999992,-0.02385732522237607,-0.021287948700022492,0.005007321170010744,-0.012894603097811248,-0.00032912816000070505
0.5700000000000001,-0.0006305038800025332,-0.7862437400000052,-0.0016899594800054748,-2.357458340000004,-0.00119675578000408,1.5703073399999978,0.7848673719999965,0.039999988,0.039999932,-9.809004999999992,-0.02401683256033384,-0.021396886800022594,0.005059357880010792,-0.012894540652632628,-0.00033254324000070825
0.5725,-0.0006427186350025441,-0.7862690450000053,-0.0017163579650054982,-2.357477645000004,-0.0012164291650040976,1.570297244999998,0.7848501009999964,0.039999988,0.039999932,-9.808969749999992,-0.024176339898291602,-0.02150582490002269,0.005111394590010838,-0.012894478207454008,-0.0003359583200007113
0.5750000000000001,-0.0006549333900025554,-0.7862943500000052,-0.001742756450005523,-2.3574969500000043,-0.001236102550004116,1.5702871499999977,0.7848328299999964,0.039999988,0.039999932,-9.808934499999992,-0.02433584723624937,-0.021614763000022793,0.005163431300010886,-0.012894415762275386,-0.0003393734000007145
0.5775,-0.0006671481450025664,-0.7863196550000053,-0.0017691549350055463,-2.357516255000004,-0.0012557759350041334,1.5702770549999978,0.7848155589999963,0.039999988,0.039999932,-9.808899249999993,-0.024495354574207134,-0.021723701100022887,0.005215468010010933,-0.012894353317096766,-0.0003427884800007175
0.58,-0.0006793629000025772,-0.7863449600000053,-0.0017955534200055697,-2.357535560000004,-0.001275449320004151,1.5702669599999979,0.7847982879999963,0.039999988,0.039999932,-9.808863999999993,-0.024654861912164896,-0.021832639200022985,0.005267504720010979,-0.012894290871918146,-0.00034620356000072055
0.5825,-0.0006915776550025886,-0.7863702650000054,-0.0018219519050055944,-2.357554865000004,-0.0012951227050041693,1.5702568649999977,0.7847810169999964,0.039999988,0.039999932,-9.808828749999991,-0.024814369250122665,-0.021941577300023087,0.005319541430011027,-0.012894228426739526,-0.0003496186400007237
0.585,-0.0007043452560027759,-0.7863967940000057,-0.0018495410100059979,-2.3575749700000044,-0.0013156827500044699,1.5702463099999977,0.7847629569999961,0.0399999887,0.0399999328,-9.808799699999994,-0.024932587891837787,-0.022030996300016953,0.0053726737000114235,-0.012893663160502706,-0.0003529745760007079
0.5875,-0.000717389280002788,-0.7864239350000058,-0.001877725425006024,-2.3575954750000045,-0.0013366861250044893,1.5702355249999977,0.784744502499996,0.03999998975,0.039999934,-9.808773749999993,-0.025030162185451305,-0.022110655750017028,0.005426353750011474,-0.012892846483737026,-0.000356300940000711
0.59,-0.0007304333040027997,-0.7864510760000059,-0.001905909840006049,-2.3576159800000043,-0.0013576895000045079,1.5702247399999976,0.784726047999996,0.0399999908,0.0399999352,-9.808747799999994,-0.025127736479064824,-0.0221903152000171,0.005480033800011521,-0.012892029806971345,-0.00035962730400071393
0.5925,-0.0007434773280028117,-0.7864782170000059,-0.0019340942550060754,-2.3576364850000044,-0.0013786928750045275,1.5702139549999976,0.784707593499996,0.03999999185,0.0399999364,-9.808721849999994,-0.025225310772678342,-0.022269974650017173,0.0055337138500115715,-0.012891213130205663,-0.00036295366800071703
0.595,-0.0007565213520028234,-0.7865053580000059,-0.0019622786700061005,-2.3576569900000046,-0.0013996962500045461,1.5702031699999976,0.7846891389999959,0.0399999929,0.0399999376,-9.808695899999993,-0.02532288506629186,-0.022349634100017245,0.005587393900011619,-0.012890396453439982,-0.00036628003200072
0.5975,-0.0007695653760028356,-0.7865324990000059,-0.0019904630850061267,-2.3576774950000043,-0.0014206996250045658,1.5701923849999977,0.784670684499996,0.03999999395,0.039999938799999996,-9.808669949999993,-0.02542045935990538,-0.02242929355001732,0.005641073950011669,-0.012889579776674301,-0.0003696063960007231
0.6,-0.0007826094000030337,-0.7865596400000063,-0.0020186475000065532,-2.357698000000005,-0.0014417030000048836,1.5701815999999975,0.7846522299999956,0.039999995,0.03999994,-9.808643999999992,-0.025518033653531697,-0.02250895300002462,0.005694754000012078,-0.012888763099908409,-0.00037293276000084776
0.6025,-0.0007965081450030466,-0.7865886800000064,-0.0020486725650065815,-2.3577196600000048,-0.0014640774350049045,1.5701701399999974,0.7846325964999956,0.03999999575,0.0399999427,-9.808613699999993,-0.025674245785955962,-0.022621743250024726,0.005750087650012129,-0.012886974681168378,-0.0003768165885008514
0.605,-0.0008104068900030589,-0.7866177200000064,-0.002078697630006608,-2.357741320000005,-0.0014864518700049244,1.5701586799999974,0.7846129629999956,0.0399999965,0.0399999454,-9.808583399999993,-0.02583045791838022,-0.022734533500024825,0.005805421300012178,-0.012885186262428346,-0.0003807004170008548
0.6075,-0.0008243056350030719,-0.7866467600000064,-0.0021087226950066364,-2.357762980000005,-0.0015088263050049451,1.5701472199999975,0.7845933294999956,0.03999999725,0.0399999481,-9.808553099999992,-0.025986670050804486,-0.02284732375002493,0.00586075495001223,-0.012883397843688315,-0.0003845842455008584
0.61,-0.0008382043800030843,-0.7866758000000065,-0.002138747760006663,-2.3577846400000047,-0.0015312007400049652,1.5701357599999974,0.7845736959999956,0.039999998,0.0399999508,-9.808522799999993,-0.026142882183228744,-0.02296011400002503,0.005916088600012279,-0.012881609424948282,-0.00038846807400086186
0.6125,-0.0008521031250030973,-0.7867048400000065,-0.002168772825006691,-2.357806300000005,-0.001553575175004986,1.5701242999999974,0.7845540624999956,0.03999999875,0.039999953500000004,-9.808492499999993,-0.026299094315653013,-0.023072904250025134,0.005971422250012331,-0.01287982100620825,-0.0003923519025008655
0.615,-0.0008660018700031096,-0.7867338800000065,-0.002198797890006718,-2.3578279600000047,-0.0015759496100050058,1.5701128399999975,0.7845344289999956,0.0399999995,0.0399999562,-9.808462199999992,-0.02645530644807727,-0.023185694500025236,0.0060267559000123806,-0.01287803258746822,-0.00039623573100086893
0.6175,-0.0008801938750033874,-0.7867635755000071,-0.0022294543700073165,-2.3578500550000054,-0.0015987942650054518,1.5701011399999971,0.7845143809999952,0.04,0.039999958,-9.80843014999999,-0.02658954439686811,-0.02328838860001891,0.0060825511500130006,-0.012875797832383983,-0.0003999511095007744
0.62,-0.0008949724000036021,-0.7867945820000075,-0.0022613736800077802,-2.3578730200000058,-0.0016225793600057974,1.570088959999997,0.7844935039999948,0.04,0.039999958,-9.80839459999999,-0.026679833978436467,-0.02337089040002011,0.006139269600013825,-0.012872670404612237,-0.00040332958800082345
0.6225,-0.0009097509250038175,-0.786825588500008,-0.0022932929900082452,-2.357895985000006,-0.001646364455006144,1.5700767799999968,0.7844726269999946,0.04,0.039999958,-9.80835904999999,-0.02677012356000483,-0.023453392200021312,0.006195988050014652,-0.012869542976840492,-0.0004067080665008727
0.625,-0.0009245294500040323,-0.7868565950000085,-0.002325212300008709,-2.3579189500000064,-0.0016701495500064897,1.5700645999999967,0.7844517499999943,0.04,0.039999958,-9.80832349999999,-0.026860413141573187,-0.02353589400002251,0.0062527065000154754,-0.012866415549068746,-0.00041008654500092177
0.6275000000000001,-0.0009393079750042477,-0.7868876015000089,-0.0023571316100091744,-2.3579419150000067,-0.0016939346450068364,1.5700524199999966,0.784430872999994,0.04,0.039999958,-9.80828794999999,-0.026950702723141547,-0.023618395800023714,0.006309424950016302,-0.012863288121297,-0.00041346502350097104
0.63,-0.0009540865000044624,-0.7869186080000093,-0.002389050920009638,-2.357964880000007,-0.001717719740007182,1.5700402399999964,0.7844099959999937,0.04,0.039999958,-9.808252399999988,-0.027040992304709903,-0.02370089760002491,0.0063661434000171265,-0.012860160693525255,-0.00041684350200102015
0.6325000000000001,-0.0009688650250046778,-0.7869496145000098,-0.002420970230010103,-2.3579878450000074,-0.0017415048350075287,1.5700280599999963,0.7843891189999934,0.04,0.039999958,-9.808216849999988,-0.027131281886278263,-0.023783399400026113,0.006422861850017953,-0.01285703326575351,-0.00042022198050106936
0.635,-0.0009842464100049066,-0.7869819550000103,-0.0024541875800105956,-2.3580117800000076,-0.0017662566300078954,1.570015379999996,0.7843673779999931,0.04,0.0399999565,-9.808190799999993,-0.027241296507455565,-0.02387329050002928,0.006480622340018234,-0.012853481154887611,-0.00042344055400098194
0.6375000000000001,-0.0009999292250047072,-0.7870149625000099,-0.002488053950010165,-2.3580362000000075,-0.0017914917750075745,1.5700024499999963,0.7843452049999934,0.04,0.039999954250000004,-9.808169499999993,-0.02736117364842308,-0.02396687625002809,0.0065389038500174934,-0.012849716702474945,-0.0004265791750009421
0.64,-0.0010156120400045072,-0.7870479700000095,-0.002521920320009733,-2.358060620000007,-0.0018167269200072527,1.5699895199999963,0.7843230319999936,0.04,0.039999952000000005,-9.808148199999994,-0.027481050789390594,-0.024060462000026896,0.00659718536001675,-0.012845952250062279,-0.00042971779600090205
0.6425,-0.0010312948550043072,-0.787080977500009,-0.0025557866900093014,-2.358085040000007,-0.0018419620650069308,1.5699765899999965,0.7843008589999939,0.04,0.03999994975,-9.808126899999994,-0.027600927930358104,-0.024154047750025703,0.006655466870016007,-0.012842187797649611,-0.000432856417000862
0.645,-0.001046977670004108,-0.7871139850000086,-0.0025896530600088706,-2.3581094600000063,-0.00186719721000661,1.5699636599999967,0.7842786859999942,0.04,0.0399999475,-9.808105599999994,-0.02772080507132562,-0.024247633500024512,0.006713748380015266,-0.012838423345236945,-0.0004359950380008221
0.6475,-0.001062660485003908,-0.7871469925000082,-0.002623519430008439,-2.3581338800000062,-0.0018924323550062884,1.5699507299999966,0.7842565129999945,0.04,0.03999994525,-9.808084299999996,-0.027840682212293133,-0.024341219250023322,0.006772029890014523,-0.012834658892824277,-0.0004391336590007821
0.65,-0.0010783433000039282,-0.7871800000000083,-0.0026573858000084813,-2.358158300000006,-0.0019176675000063196,1.5699377999999966,0.7842343399999945,0.04,0.039999943,-9.808062999999997,-0.027960559353267578,-0.0244348050000266,0.0068303114000141515,-0.012830894440411527,-0.00044227228000073805
0.6525,-0.001094954570003943,-0.7872150550000083,-0.002693251055008513,-2.358184205000006,-0.0019443910650063431,1.5699241349999966,0.7842108799999945,0.04,0.03999994255,-9.808047699999998,-0.028109737951343826,-0.0245472879000267,0.006890156690014205,-0.012826780043541383,-0.00044539338700074084
0.655,-0.0011115658400039584,-0.7872501100000083,-0.0027291163100085464,-2.358210110000006,-0.001971114630006368,1.5699104699999966,0.7841874199999944,0.04,0.0399999421,-9.808032399999997,-0.02825891654942008,-0.024659770800026803,0.006950001980014261,-0.01282266564667124,-0.00044851449400074375
0.6575,-0.0011281771100039731,-0.7872851650000083,-0.0027649815650085782,-2.3582360150000063,-0.0019978381950063917,1.5698968049999966,0.7841639599999944,0.04,0.03999994165,-9.808017099999997,-0.028408095147496325,-0.024772253700026906,0.007009847270014314,-0.012818551249801096,-0.0004516356010007465
0.66,-0.0011447883800039887,-0.7873202200000085,-0.002800846820008612,-2.358261920000006,-0.0020245617600064165,1.5698831399999966,0.7841404999999944,0.04,0.0399999412,-9.808001799999998,-0.02855727374557258,-0.02488473660002701,0.00706969256001437,-0.012814436852930952,-0.0004547567080007494
0.6625,-0.0011613996500040033,-0.7873552750000085,-0.0028367120750086437,-2.3582878250000063,-0.0020512853250064405,1.5698694749999966,0.7841170399999944,0.04,0.03999994075,-9.807986499999997,-0.02870645234364883,-0.024997219500027108,0.0071295378500144235,-0.012810322456060808,-0.0004578778150007522
0.665,-0.0011780109200040189,-0.7873903300000085,-0.002872577330008677,-2.3583137300000065,-0.0020780088900064653,1.5698558099999966,0.7840935799999943,0.04,0.039999940299999995,-9.807971199999997,-0.028855630941725083,-0.025109702400027214,0.007189383140014479,-0.012806208059190664,-0.0004609989220007551
0.6675,-0.0011949395650042648,-0.787426080000009,-0.0029091258000092067,-2.3583400950000066,-0.0021052412700068596,1.5698418849999964,0.784069672999994,0.04,0.0399999395,-9.807957699999998,-0.02898270282896383,-0.025212371950020164,0.007249671365014855,-0.01280194926075522,-0.00046395829450064007
0.67,-0.0012125029600042812,-0.787463220000009,-0.002947040700009242,-2.358367380000007,-0.002133491280006886,1.5698274399999965,0.784044871999994,0.04,0.039999938,-9.807947799999997,-0.02906556129457584,-0.025295414800020243,0.007310845460014912,-0.012797401659189491,-0.00046659419800064255
0.6725,-0.0012300663550042967,-0.7875003600000091,-0.002984955600009276,-2.3583946650000067,-0.0021617412900069113,1.5698129949999964,0.7840200709999939,0.04,0.0399999365,-9.807937899999999,-0.02914841976018784,-0.025378457650020315,0.007372019555014967,-0.012792854057623763,-0.00046923010150064486
0.675,-0.001247629750004313,-0.7875375000000091,-0.0030228705000093113,-2.358421950000007,-0.0021899913000069378,1.5697985499999965,0.7839952699999939,0.04,0.039999935,-9.807927999999999,-0.02923127822579985,-0.025461500500020395,0.007433193650015024,-0.012788306456058033,-0.00047186600500064734
0.6775,-0.0012651931450043288,-0.7875746400000092,-0.003060785400009345,-2.358449235000007,-0.002218241310006963,1.5697841049999965,0.7839704689999939,0.04,0.0399999335,-9.807918099999998,-0.029314136691411852,-0.025544543350020467,0.0074943677450150775,-0.012783758854492304,-0.00047450190850064966
0.68,-0.0012827565400043452,-0.7876117800000092,-0.0030987003000093804,-2.3584765200000066,-0.002246491320006989,1.5697696599999964,0.7839456679999939,0.04,0.039999932,-9.807908199999998,-0.02939699515702386,-0.025627586200020546,0.0075555418400151345,-0.012779211252926574,-0.00047713781200065214
0.6825,-0.0013003199350043607,-0.7876489200000092,-0.003136615200009414,-2.358503805000007,-0.002274741330007014,1.5697552149999965,0.7839208669999937,0.04,0.0399999305,-9.807898299999998,-0.029479853622635863,-0.02571062905002062,0.007616715935015189,-0.012774663651360846,-0.00047977371550065445
0.685,-0.0013185335600046201,-0.7876875000000098,-0.0031759299400099727,-2.358531920000007,-0.0023040339400074304,1.569740229999996,0.7838951539999934,0.0399999995,0.039999929000000004,-9.807880999999995,-0.029607750289179568,-0.025815621900028903,0.007678831070015598,-0.012769780121742331,-0.00048268711500076063
0.6875,-0.0013370723000046367,-0.7877268000000098,-0.003215944600010008,-2.3585604500000072,-0.002333847850007457,1.5697249749999962,0.7838689849999935,0.03999999875,0.039999927500000004,-9.807859999999994,-0.02975816605616392,-0.025931589750029006,0.0077414167250156535,-0.012764728628097612,-0.0004857392625007634
0.6900000000000001,-0.001355611040004654,-0.7877661000000099,-0.0032559592600100453,-2.358588980000007,-0.0023636617600074844,1.569709719999996,0.7838428159999934,0.039999998,0.039999926000000005,-9.807838999999994,-0.029908581823148282,-0.026047557600029112,0.007804002380015712,-0.012759677134452892,-0.0004887914100007662
0.6925,-0.0013741497800046705,-0.7878054000000099,-0.003295973920010081,-2.3586175100000073,-0.0023934756700075112,1.569694464999996,0.7838166469999934,0.03999999725,0.0399999245,-9.807817999999996,-0.030058997590132634,-0.026163525450029215,0.007866588035015767,-0.012754625640808172,-0.0004918435575007689
0.6950000000000001,-0.0013926885200046877,-0.78784470000001,-0.0033359885800101183,-2.358646040000007,-0.002423289580007539,1.569679209999996,0.7837904779999934,0.0399999965,0.039999923,-9.807796999999995,-0.030209413357116997,-0.026279493300029325,0.007929173690015825,-0.012749574147163453,-0.0004948957050007718
0.6975,-0.0014112272600047043,-0.78788400000001,-0.0033760032400101535,-2.3586745700000074,-0.0024531034900075652,1.569663954999996,0.7837643089999933,0.03999999575,0.0399999215,-9.807775999999995,-0.03035982912410135,-0.02639546115002943,0.007991759345015882,-0.012744522653518733,-0.0004979478525007745
0.7000000000000001,-0.001429766000004976,-0.7879233000000105,-0.003416017900010738,-2.3587031000000076,-0.0024829174000080005,1.569648699999996,0.783738139999993,0.039999995,0.03999992,-9.807754999999988,-0.030510244891067604,-0.026511429000020383,0.00805434500001628,-0.012739471159873577,-0.0005010000000007681
0.7025,-0.0014493027950049932,-0.7879647750000106,-0.003458181040010776,-2.358733085000008,-0.0025143309400080284,1.5696326499999957,0.783710563999993,0.039999995,0.0399999179,-9.807705499999988,-0.030589574854841164,-0.02659145805002045,0.008118265850016336,-0.012732708640394786,-0.0005040158550007708
0.705,-0.0014688395900050106,-0.7880062500000107,-0.003500344180010813,-2.3587630700000077,-0.0025457444800080563,1.5696165999999958,0.7836829879999929,0.039999995,0.0399999158,-9.807655999999987,-0.030668904818614725,-0.026671487100020524,0.008182186700016393,-0.012725946120915994,-0.0005070317100007735
0.7075,-0.0014883763850050287,-0.7880477250000106,-0.0035425073200108523,-2.358793055000008,-0.002577158020008086,1.5696005499999959,0.7836554119999929,0.039999995,0.0399999137,-9.807606499999988,-0.03074823478238829,-0.0267515161500206,0.008246107550016452,-0.012719183601437204,-0.0005100475650007763
0.71,-0.001507913180005046,-0.7880892000000107,-0.00358467046001089,-2.358823040000008,-0.0026085715600081137,1.569584499999996,0.7836278359999929,0.039999995,0.0399999116,-9.807556999999987,-0.03082756474616185,-0.02683154520002067,0.00831002840001651,-0.012712421081958414,-0.000513063420000779
0.7125,-0.0015274499750050643,-0.7881306750000108,-0.0036268336000109293,-2.358853025000008,-0.002639985100008143,1.5695684499999958,0.7836002599999928,0.039999995,0.0399999095,-9.807507499999987,-0.030906894709935417,-0.026911574250020744,0.008373949250016569,-0.012705658562479622,-0.0005160792750007818
0.715,-0.0015469867700050816,-0.7881721500000108,-0.003668996740010967,-2.358883010000008,-0.0026713986400081708,1.5695523999999959,0.7835726839999928,0.039999995,0.0399999074,-9.807457999999988,-0.030986224673708977,-0.026991603300020813,0.008437870100016625,-0.012698896043000832,-0.0005190951300007845
0.7175,-0.001566863655005366,-0.7882143700000114,-0.0037118918750115794,-2.3589135350000086,-0.002703357250008627,1.5695360599999957,0.7835446299999924,0.039999995,0.039999905700000005,-9.807413799999992,-0.031087763980069048,-0.027083681300030325,0.008502225150017025,-0.0126918098889271,-0.0005220549425007433
0.72,-0.0015874207200053843,-0.7882580800000114,-0.003756251000011619,-2.3589451400000083,-0.002736406000008656,1.5695191399999955,0.7835156199999924,0.039999995,0.0399999048,-9.807380199999992,-0.03123372197155001,-0.027199857200030427,0.008567448600017083,-0.012684076465664254,-0.0005249026700007459
0.7225,-0.0016079777850054036,-0.7883017900000114,-0.00380061012501166,-2.3589767450000085,-0.0027694547500086873,1.5695022199999955,0.7834866099999924,0.039999995,0.0399999039,-9.807346599999992,-0.03137967996303098,-0.027316033100030536,0.008632672050017144,-0.012676343042401407,-0.0005277503975007486
0.725,-0.0016285348500054218,-0.7883455000000115,-0.0038449692500117,-2.3590083500000083,-0.0028025035000087163,1.5694852999999955,0.7834575999999924,0.039999995,0.039999902999999996,-9.807312999999992,-0.031525637954511944,-0.02743220900003064,0.008697895500017202,-0.01266860961913856,-0.000530598125000751
0.7275,-0.0016490919150054409,-0.7883892100000115,-0.0038893283750117413,-2.3590399550000085,-0.002835552250008747,1.5694683799999956,0.7834285899999923,0.039999995,0.0399999021,-9.80727939999999,-0.03167159594599292,-0.02754838490003075,0.008763118950017263,-0.012660876195875713,-0.0005334458525007537
0.73,-0.001669648980005459,-0.7884329200000115,-0.00393368750001178,-2.3590715600000083,-0.0028686010000087765,1.5694514599999954,0.7833995799999923,0.039999995,0.0399999012,-9.80724579999999,-0.03181755393747388,-0.027664560800030852,0.008828342400017323,-0.012653142772612867,-0.0005362935800007563
0.7325,-0.0016902060450054784,-0.7884766300000116,-0.003978046625011822,-2.3591031650000085,-0.0029016497500088073,1.5694345399999954,0.7833705699999923,0.039999995,0.039999900299999995,-9.80721219999999,-0.03196351192895485,-0.02778073670003096,0.008893565850017382,-0.01264540934935002,-0.0005391413075007589
0.735,-0.0017114577700057753,-0.7885218360000122,-0.004023901060012461,-2.359135780000009,-0.0029358123200092833,1.569417089999995,0.7833405799999918,0.039999994500000004,0.039999899,-9.807199199999998,-0.03206223547460654,-0.027872287800021187,0.00895965730001779,-0.01263771876692563,-0.0005421036850008074
0.7375,-0.0017330568250057954,-0.7885677900000123,-0.004070503150012505,-2.359168900000009,-0.002970531800009316,1.5693993749999953,0.7833100999999918,0.039999993750000004,0.0399998975,-9.807196499999998,-0.03213734179737195,-0.02795152650002126,0.00902618275001785,-0.012630049604920443,-0.0005451233875008102
0.74,-0.0017546558800058145,-0.7886137440000124,-0.004117105240012546,-2.359202020000009,-0.0030052512800093465,1.5693816599999952,0.7832796199999917,0.039999993000000005,0.039999896,-9.807193799999999,-0.032212448120137356,-0.028030765200021332,0.00909270820001791,-0.012622380442915256,-0.000548143090000813
0.7425,-0.0017762549350058346,-0.7886596980000123,-0.004163707330012589,-2.359235140000009,-0.003039970760009379,1.5693639449999952,0.7832491399999918,0.03999999225,0.0399998945,-9.807191099999999,-0.032287554442902766,-0.028110003900021406,0.009159233650017971,-0.012614711280910068,-0.0005511627925008157
0.745,-0.0017978539900058539,-0.7887056520000124,-0.004210309420012631,-2.359268260000009,-0.00307469024000941,1.5693462299999952,0.7832186599999917,0.0399999915,0.039999893,-9.8071884,-0.032362660765668176,-0.028189242600021477,0.00922575910001803,-0.012607042118904881,-0.0005541824950008185
0.7475,-0.001819453045005874,-0.7887516060000125,-0.004256911510012674,-2.359301380000009,-0.0031094097200094423,1.5693285149999951,0.7831881799999917,0.03999999075,0.0399998915,-9.8071857,-0.032437767088433586,-0.02826848130002155,0.009292284550018093,-0.012599372956899694,-0.0005572021975008213
0.75,-0.0018410521000061834,-0.7887975600000132,-0.00430351360001334,-2.3593345000000094,-0.003144129200009938,1.569310799999995,0.7831576999999912,0.03999999,0.03999989,-9.807182999999993,-0.03251287341121739,-0.028347720000033168,0.00935881000001847,-0.012591703794894304,-0.0005602219000008218
0.7525000000000001,-0.0018637144450062045,-0.7888458300000132,-0.004352404360013385,-2.3593690750000094,-0.003180552545009972,1.5692921699999949,0.7831257289999912,0.03999999075,0.03999988955,-9.807158399999993,-0.03265541549775918,-0.02846928435003328,0.009426502300018532,-0.01258328934199876,-0.0005632334140008245
0.755,-0.0018863767900062247,-0.7888941000000133,-0.004401295120013429,-2.3594036500000097,-0.0032169758900100045,1.5692735399999949,0.7830937579999911,0.0399999915,0.0399998891,-9.807133799999994,-0.03279795758430097,-0.02859084870003339,0.009494194600018593,-0.012574874889103218,-0.0005662449280008272
0.7575000000000001,-0.0019090391350062457,-0.7889423700000133,-0.004450185880013474,-2.3594382250000097,-0.0032533992350100385,1.5692549099999948,0.7830617869999912,0.03999999225,0.03999988865,-9.807109199999994,-0.03294049967084276,-0.028712413050033504,0.009561886900018655,-0.012566460436207676,-0.00056925644200083
0.76,-0.001931701480006266,-0.7889906400000134,-0.004499076640013518,-2.3594728000000096,-0.0032898225800100708,1.5692362799999948,0.7830298159999911,0.039999993000000005,0.0399998882,-9.807084599999994,-0.03308304175738455,-0.02883397740003361,0.009629579200018716,-0.012558045983312133,-0.0005722679560008326
0.7625000000000001,-0.001954363825006287,-0.7890389100000135,-0.004547967400013564,-2.3595073750000095,-0.0033262459250101048,1.5692176499999948,0.7829978449999911,0.039999993750000004,0.03999988775,-9.807059999999993,-0.03322558384392634,-0.028955541750033724,0.009697271500018778,-0.012549631530416591,-0.0005752794700008355
0.765,-0.0019770261700063074,-0.7890871800000134,-0.004596858160013607,-2.3595419500000094,-0.003362669270010137,1.569199019999995,0.7829658739999911,0.039999994500000004,0.039999887299999995,-9.807035399999993,-0.03336812593046813,-0.029077106100033834,0.00976496380001884,-0.012541217077521049,-0.0005782909840008381
0.7675000000000001,-0.0020000498600066313,-0.7891362520000142,-0.004646526700014304,-2.35957710000001,-0.0033996716550106563,1.5691800849999946,0.7829333919999907,0.03999999525,0.039999887,-9.807005999999989,-0.0334851080551927,-0.02918466990002222,0.009833062900019243,-0.012532400805500358,-0.0005811631720007242
0.77,-0.002023796240006652,-0.7891869280000142,-0.00469775080001435,-2.35961340000001,-0.0034378321200106902,1.5691605399999946,0.7828998879999907,0.039999996,0.039999887,-9.80696699999999,-0.03355097025634699,-0.02926423260002229,0.009901975600019304,-0.012522780895230385,-0.0005837567080007266
0.7725,-0.0020475426200066735,-0.7892376040000143,-0.004748974900014395,-2.35964970000001,-0.003475992585010724,1.5691409949999946,0.7828663839999906,0.03999999675,0.039999887,-9.806927999999989,-0.03361683245750128,-0.02934379530002236,0.009970888300019366,-0.012513160984960412,-0.0005863502440007288
0.775,-0.002071289000006695,-0.7892882800000143,-0.004800199000014443,-2.35968600000001,-0.0035141530500107598,1.5691214499999946,0.7828328799999905,0.0399999975,0.039999887,-9.80688899999999,-0.03368269465865557,-0.029423358000022434,0.01003980100001943,-0.012503541074690438,-0.0005889437800007313
0.7775,-0.0020950353800067165,-0.7893389560000144,-0.0048514231000144886,-2.3597223000000103,-0.003552313515010793,1.5691019049999946,0.7827993759999905,0.03999999825,0.039999887,-9.806849999999988,-0.033748556859809854,-0.029502920700022504,0.010108713700019492,-0.012493921164420465,-0.0005915373160007336
0.78,-0.0021187817600067387,-0.7893896320000143,-0.004902647200014537,-2.3597586000000104,-0.003590473980010829,1.5690823599999943,0.7827658719999905,0.039999999,0.039999887,-9.806810999999989,-0.03381441906096415,-0.029582483400022577,0.010177626400019556,-0.01248430125415049,-0.000594130852000736
0.7825,-0.0021425281400067595,-0.7894403080000144,-0.004953871300014582,-2.3597949000000105,-0.0036286344450108627,1.5690628149999943,0.7827323679999905,0.03999999975,0.039999887,-9.806771999999988,-0.033880281262118436,-0.029662046100022647,0.010246539100019618,-0.012474681343880517,-0.0005967243880007383
0.785,-0.002167010640006871,-0.7894925640000147,-0.005006679900014821,-2.3598322700000103,-0.0036679751800110408,1.5690426999999942,0.7826978249999903,0.04,0.0399998873,-9.806752999999997,-0.033996377140322574,-0.02976481430003162,0.010316239500019381,-0.01246508369222016,-0.0005993702050007388
0.7875,-0.002191861200006554,-0.789545610000014,-0.005060280750014137,-2.35987017500001,-0.0037079060500105317,1.5690222999999945,0.7826627624999908,0.04,0.03999988775,-9.806743999999997,-0.03413758985701942,-0.029879185250030162,0.010386333750018488,-0.012455497169864596,-0.0006020421625007047
0.79,-0.002216711760006238,-0.7895986560000133,-0.005113881600013456,-2.3599080800000096,-0.003747836920010024,1.5690018999999948,0.7826276999999912,0.04,0.0399998882,-9.806734999999998,-0.034278802573716266,-0.02999355620002871,0.010456428000017597,-0.012445910647509034,-0.0006047141200006708
0.7925,-0.0022415623200059214,-0.7896517020000127,-0.005167482450012772,-2.359945985000009,-0.003787767790009515,1.5689814999999951,0.7825926374999916,0.04,0.03999988865,-9.806725999999998,-0.034420015290413115,-0.03010792715002725,0.010526522250016702,-0.012436324125153471,-0.0006073860775006367
0.795,-0.0022664128800056055,-0.789704748000012,-0.005221083300012091,-2.3599838900000085,-0.0038276986600090076,1.5689610999999954,0.7825575749999921,0.04,0.039999889100000005,-9.806716999999997,-0.034561228007109965,-0.0302222981000258,0.010596616500015811,-0.012426737602797907,-0.0006100580350006027
0.7975,-0.0022912634400052887,-0.7897577940000113,-0.005274684150011408,-2.3600217950000077,-0.003867629530008498,1.5689406999999957,0.7825225124999925,0.04,0.03999988955,-9.806707999999999,-0.03470244072380681,-0.03033666905002434,0.010666710750014918,-0.012417151080442345,-0.0006127299925005686
0.8,-0.002316114000005198,-0.7898108400000111,-0.00532828500001121,-2.360059700000008,-0.003907560400008351,1.5689202999999958,0.7824874499999926,0.04,0.03999989,-9.806698999999995,-0.03484365344048765,-0.030451040000017335,0.010736805000014251,-0.01240756455808659,-0.0006154019500004915
0.8025,-0.0023420885400055754,-0.789866325000012,-0.005384304750012024,-2.3600993000000083,-0.003949292635008957,1.5688989549999954,0.7824508019999921,0.04,0.039999889100000005,-9.806673799999995,-0.034904848039163314,-0.030537672950018593,0.010808024250015287,-0.012397020682690196,-0.0006178581700005272
0.805,-0.002368063080005954,-0.7899218100000127,-0.005440324500012841,-2.360138900000009,-0.003991024870009565,1.568877609999995,0.7824141539999916,0.04,0.0399998882,-9.806648599999994,-0.034966042637838986,-0.030624305900019855,0.010879243500016325,-0.012386476807293803,-0.0006203143900005629
0.8075,-0.0023940376200063313,-0.7899772950000136,-0.005496344250013655,-2.3601785000000097,-0.004032757105010172,1.5688562649999949,0.782377505999991,0.04,0.0399998873,-9.806623399999994,-0.03502723723651466,-0.030710938850021116,0.01095046275001736,-0.01237593293189741,-0.0006227706100005987
0.81,-0.0024200121600067097,-0.7900327800000143,-0.005552364000014471,-2.36021810000001,-0.0040744893400107805,1.5688349199999945,0.7823408579999905,0.04,0.039999886400000004,-9.806598199999993,-0.03508843183519033,-0.030797571800022377,0.011021682000018398,-0.012365389056501017,-0.0006252268300006344
0.8125,-0.0024459867000070873,-0.7900882650000152,-0.005608383750015285,-2.3602577000000107,-0.004116221575011386,1.5688135749999943,0.78230420999999,0.04,0.0399998855,-9.806572999999993,-0.035149626433865995,-0.03088420475002364,0.011092901250019433,-0.012354845181104622,-0.0006276830500006701
0.8150000000000001,-0.0024719612400074657,-0.790143750000016,-0.005664403500016102,-2.360297300000011,-0.004157953810011995,1.568792229999994,0.7822675619999895,0.04,0.0399998846,-9.806547799999992,-0.03521082103254167,-0.0309708377000249,0.01116412050002047,-0.01234430130570823,-0.000630139270000706
0.8175,-0.002498316880008065,-0.7902000610000173,-0.005721243420017392,-2.3603374550000122,-0.004200296550012956,1.5687705699999934,0.7822303864999887,0.04,0.0399998833,-9.806522299999992,-0.03529657572511866,-0.03106897505003603,0.011235686650021491,-0.012333577545356429,-0.0006324936155006395
0.8200000000000001,-0.0025254347200080905,-0.7902580240000173,-0.005779723680017447,-2.3603787200000124,-0.0042438603000129966,1.5687482799999934,0.7821921559999886,0.04,0.0399998812,-9.806496199999993,-0.03543145060543266,-0.03119012120003614,0.011307946600021558,-0.012322494015094294,-0.0006346442120006416
0.8225,-0.0025525525600081146,-0.7903159870000174,-0.005838203940017499,-2.3604199850000125,-0.004287424050013035,1.5687259899999935,0.7821539254999885,0.04,0.039999879099999996,-9.806470099999991,-0.03556632548574664,-0.03131126735003625,0.011380206550021622,-0.012311410484832159,-0.0006367948085006435
0.8250000000000001,-0.0025796704000081395,-0.7903739500000174,-0.005896684200017554,-2.360461250000012,-0.004330987800013076,1.5687036999999933,0.7821156949999886,0.04,0.039999876999999996,-9.806443999999992,-0.03570120036606063,-0.03143241350003636,0.01145246650002169,-0.012300326954570022,-0.0006389454050006455
0.8275,-0.0026067882400081636,-0.7904319130000175,-0.005955164460017605,-2.3605025150000123,-0.004374551550013115,1.5686814099999933,0.7820774644999885,0.04,0.039999874899999996,-9.806417899999992,-0.03583607524637462,-0.03155355965003647,0.011524726450021753,-0.012289243424307887,-0.0006410960015006474
