rsonawane2002/My_IMU/logs_2/traj_2501/imu_2501.csv
time,j1,j2,j3,j4,j5,j6,j7,gripper1,gripper2,imu_ax,imu_ay,imu_az,imu_gx,imu_gy,imu_gz
12.083333333333513,0.00016700293,-0.785875,4.0107683e-05,-2.3551247,9.29385e-05,1.570997,0.786,0.04,0.04,-9.415240150143049,0.054102603657834925,0.8436749817735539,-0.007771615907306269,0.004829307137895806,-0.001990063378984013
12.10000000000018,0.0001670093,-0.78576016,4.0106373e-05,-2.3552213,9.2968156e-05,1.5709941,0.786,0.04,0.04,-9.944887353970039,0.09580123589902872,-0.4576031147241474,-0.002838472356101854,-0.0005945071915917732,-0.003569694598190698
12.116666666666848,0.00016703985,-0.78565425,4.0047693e-05,-2.35531,9.295456e-05,1.5709913,0.786,0.04,0.04,-10.023271703040136,-0.22490994135388606,0.09224413270814892,-0.0018397633832339258,-0.0032983727229394326,-0.002427948105290758
12.133333333333516,0.00016713227,-0.78555685,3.9837898e-05,-2.355391,9.284097e-05,1.5709884,0.786,0.04,0.039999995,-9.978715571973765,-0.1626765606237688,-0.08712555358909303,0.0033067124197054573,-0.0072179458107881934,0.0018477795832047691
12.150000000000183,0.00016734026,-0.7854671,3.934313e-05,-2.355465,9.2510265e-05,1.5709856,0.786,0.04,0.04,-9.685186525244038,0.007280567920392768,-0.039918789883214796,0.007580056060302409,-0.012834119189226745,0.0035377039000048945
12.16666666666685,0.00016773041,-0.7853845,3.8392376e-05,-2.3555317,9.1852606e-05,1.5709862,0.786,0.04,0.04,-9.907653438117103,-0.29569311759468603,0.10079992730802752,0.0014598687946126248,-0.012365013894054443,0.004416084918645026
12.183333333333518,0.00016838209,-0.7853083,3.6781883e-05,-2.3555923,9.071964e-05,1.570987,0.7860019,0.04,0.04,-9.954653569040028,-0.16638177018486902,-0.3631641361501975,0.0005536637413633457,-0.006611353210269289,-0.0027587874421552885
12.200000000000186,0.00016938552,-0.78523797,3.4278524e-05,-2.3556495,8.895286e-05,1.5709879,0.7860038,0.04,0.04,-9.679784196936188,-0.02319949048155314,0.3153938792910178,-0.001224479001882222,-0.0033030808754961247,-0.0007482974536792597
12.216666666666853,0.00017084085,-0.78517324,3.0622883e-05,-2.3557,8.636456e-05,1.5709922,0.78600764,0.04,0.04,-9.536760892307953,-0.3670026838819772,0.03300417554580869,0.0006613933754640545,-0.0055797895872672625,0.0008157245423524408
12.23333333333352,0.00017285699,-0.7851135,2.5532132e-05,-2.355744,8.27537e-05,1.570997,0.78601146,0.04,0.04,-9.555744944587833,-0.2451086219491298,-0.1900991076466142,-0.001046606618168932,-0.006861854554035543,-0.000572527079511047
12.250000000000188,0.00017555054,-0.78505826,1.8702814e-05,-2.3557854,7.790481e-05,1.5710052,0.7860172,0.04,0.04,-9.81592116194165,-0.017437900631445832,-0.022751932667666865,-0.004064977397956514,-0.00523476642418532,9.217286477390251e-05
12.266666666666856,0.00017904506,-0.7850069,9.813017e-06,-2.3558204,7.1589144e-05,1.5710138,0.7860248,0.04,0.04,-9.600176831773256,-0.07632375652441128,0.028040774676685913,0.0010472082844888123,-0.014914894252331778,0.007597747929876169
12.283333333333523,0.00018347013,-0.78495926,-1.4748175e-06,-2.3558495,6.3552776e-05,1.5710262,0.78603435,0.03999999,0.03999999,-10.018964111104319,0.185544397376365,-0.12274742262544565,0.004763535723052175,-0.01395887675480521,0.00107543650436618
12.30000000000019,0.0001889602,-0.7849149,-1.5512522e-05,-2.3558757,5.355837e-05,1.5710424,0.78604615,0.03999999,0.03999999,-9.774037948499576,0.15406477904055133,0.26301163700217944,0.003945124696959673,-0.012262636226682638,-0.0006484106248893034
12.316666666666858,0.00019565481,-0.7848735,-3.266408e-05,-2.3558953,4.134786e-05,1.5710624,0.78606117,0.039999984,0.03999998,-9.969977294707103,0.17198992336279595,-0.0013853261289844673,-0.0005848218724344043,-0.007575036859307186,-0.0030460584379347357
12.333333333333526,0.00020369692,-0.7848347,-5.3303644e-05,-2.3559098,2.6654314e-05,1.5710863,0.78607875,0.03999998,0.039999977,-9.638833549629066,0.14034702387644218,-0.07357356174639731,0.0029197604516413684,-0.013225036130180683,-0.00018213273962258355
12.350000000000193,0.00021323282,-0.7847982,-7.78141e-05,-2.35592,9.206495e-06,1.5711153,0.78609973,0.039999977,0.03999997,-10.03654451226073,0.015134544936424896,-0.14233304881279138,0.004564975567275672,-0.015415666059362967,0.0015035264946432893
12.36666666666686,0.00022441176,-0.7847637,-0.00010658551,-2.3559241,-1.12737225e-05,1.5711503,0.78612435,0.03999997,0.03999996,-9.86986891544218,0.1970095902255814,0.20838064531699038,-0.0008672173109620357,-0.015527777346638245,0.0022379286203690284
12.383333333333528,0.0002373849,-0.784731,-0.00014001415,-2.3559222,-3.5067118e-05,1.5711898,0.78615296,0.03999997,0.03999996,-9.90181067451435,-0.05757095130986552,0.0913553133029219,0.002462832999898569,-0.01979950431401511,-0.0005999586883861415
12.400000000000196,0.00025230536,-0.78469974,-0.00017850063,-2.3559158,-6.2458625e-05,1.5712363,0.786186,0.03999997,0.03999996,-9.79857427356359,-0.4147690373294514,0.16785904813069144,0.004246756214317168,-0.016493439002006116,-0.0016896794867302832
12.416666666666863,0.0002693275,-0.78466976,-0.00022244944,-2.3559043,-9.373494e-05,1.5712894,0.7862234,0.03999997,0.039999958,-9.960726514697713,0.3227936224192546,0.2951752204747806,0.005292968117576594,-0.016187770523804646,0.006549833717949697
12.43333333333353,0.0002886066,-0.7846409,-0.0002722674,-2.3558857,-0.000129186,1.5713496,0.786266,0.03999997,0.039999958,-9.503474290477936,0.06141376207742197,-0.010231461800259516,0.004593148857071628,-0.009506942876742489,-0.0007570149692586
12.450000000000198,0.00031029875,-0.7846128,-0.000328363,-2.3558617,-0.00016910148,1.5714176,0.7863139,0.039999973,0.03999996,-9.798381889461925,-0.06016130728359995,-0.03612472234592133,-0.0026330892008405624,-0.01196159406573376,-0.004135667606300877
12.466666666666866,0.00033456,-0.7845853,-0.0003911455,-2.3558319,-0.00021377152,1.5714935,0.7863675,0.039999977,0.03999996,-9.672275416846754,0.2551033837756349,-0.016583499500288076,0.003829115230449153,-0.020209898625654636,0.003052296309754898
12.483333333333533,0.0003615465,-0.7845583,-0.00046102394,-2.3557956,-0.00026348734,1.5715779,0.7864271,0.039999977,0.03999996,-10.391877750171595,0.23080162768535945,0.14251763297913764,0.00891989846695474,-0.018764171315617084,-0.0012472101838535328
12.5000000000002,0.00039141398,-0.7845316,-0.00053840666,-2.355753,-0.00031853816,1.571672,0.7864931,0.03999998,0.03999996,-10.058800983435333,-0.28147981076644063,0.32754613199444516,0.007725336936200654,-0.022382012869973846,0.0002790547903284015
12.516666666666868,0.00042431784,-0.78450483,-0.00062370044,-2.3557034,-0.000379214,1.5717752,0.78656596,0.03999998,0.03999996,-9.754899255381085,-0.5122804280832802,0.22614565324639044,0.0043958600247693495,-0.023062359492424626,0.0019846237920850087
12.533333333333536,0.00046041235,-0.78447807,-0.00071731047,-2.3556468,-0.00044580156,1.5718888,0.78664577,0.03999998,0.03999996,-9.526921560094072,0.2268276145269321,-0.04497647597365815,0.011902734956248166,-0.022606120416579074,0.001431838759234162
12.550000000000203,0.000499851,-0.7844511,-0.00081963855,-2.3555832,-0.0005185855,1.5720133,0.7867331,0.03999998,0.039999958,-10.385270839924935,-0.014145205813601833,-0.1898194233398642,0.009231719059083248,-0.02056878424340178,-0.0010158462858984268
12.56666666666687,0.0005427862,-0.7844239,-0.00093108416,-2.3555121,-0.0005978506,1.5721488,0.7868281,0.03999998,0.039999958,-9.82342363293893,-0.14218852272115357,-0.14983350223729328,0.00639847079875616,-0.0239149758384212,-0.008579755478093816
12.583333333333538,0.0005893685,-0.78439623,-0.0010520426,-2.3554335,-0.0006838757,1.5722957,0.7869312,0.039999984,0.039999958,-9.778357203659022,0.08220503121543828,0.19730330980290556,0.003139756342280274,-0.021332223655224875,-0.009166423599299521
12.600000000000206,0.00063974736,-0.78436786,-0.0011829053,-2.3553472,-0.0007769413,1.5724546,0.7870428,0.039999984,0.039999958,-9.865184225740759,-0.19010844595182164,0.10648471752307703,0.009787583769533833,-0.02839634258791764,-0.0023119737592966405
12.616666666666873,0.0006940706,-0.7843387,-0.0013240596,-2.355253,-0.00087732036,1.5726261,0.7871633,0.039999988,0.039999958,-9.904397277184152,-0.08956055256252161,-0.3233490173600145,0.008203217620805095,-0.03130284473832453,0.007542997026185746
12.63333333333354,0.000752484,-0.7843088,-0.0014758876,-2.3551505,-0.0009852841,1.5728106,0.7872928,0.039999988,0.039999958,-10.037578728272083,-0.06670859107295307,0.19981488896025526,0.008138453360793767,-0.0275124744948308,0.0019466943979708103
12.650000000000208,0.0008151316,-0.78427786,-0.0016387674,-2.35504,-0.0011011016,1.5730089,0.78743166,0.03999999,0.03999996,-9.674030020380059,-0.20200753171202604,-0.002556598044188209,0.012458681131297705,-0.027323169038259373,9.39796126636615e-05
12.666666666666876,0.00088215544,-0.78424597,-0.001813071,-2.3549204,-0.0012250366,1.5732206,0.78758025,0.03999999,0.039999958,-9.867693704695526,0.0725857681878373,-0.013340945376645114,0.015188482362953136,-0.03414773971828305,0.0005049886263201143
12.683333333333543,0.00095369515,-0.7842129,-0.0019991645,-2.3547912,-0.0013573484,1.5734468,0.78773886,0.039999995,0.03999996,-9.944931030465021,-0.05694900290475992,-0.2896177055639278,0.007642949253329721,-0.03492306601227547,-0.001001633190993659
12.70000000000021,0.0010298882,-0.7841785,-0.0021974086,-2.3546531,-0.0014982941,1.5736876,0.78790784,0.039999995,0.039999966,-10.159436123715732,-0.04801677416624429,-0.05476560433894249,0.010696226825971024,-0.03391415161878631,-0.0010505924910539943
12.716666666666878,0.0011108703,-0.78414273,-0.0024081583,-2.3545055,-0.0016481224,1.5739437,0.7880876,0.04,0.03999996,-9.455092211353989,-0.21530353448738684,0.3433056504324887,0.010417664539044429,-0.038895040657496494,0.0006424321126545651
12.733333333333546,0.0011967741,-0.78410566,-0.0026317632,-2.3543494,-0.0018070841,1.5742158,0.7882781,0.04,0.03999996,-9.49191275654894,0.08705707616595199,-0.04521173349280767,0.015631756586432812,-0.03841111413128143,-0.0028538113216901107
12.750000000000213,0.0012877302,-0.784067,-0.0028685634,-2.3541822,-0.0019754216,1.5745038,0.7884799,0.04,0.039999966,-10.03911709596972,0.13589321191805287,0.06706309379615699,0.019265359145425317,-0.04171340239000373,-0.0004300856967523931
12.76666666666688,0.0013838672,-0.7840265,-0.0031188962,-2.354005,-0.002153369,1.574808,0.7886933,0.04,0.039999954,-9.68204606075806,-0.1929806118392779,0.0409497457537287,0.01442973402643108,-0.042978035733957864,0.0013499030880635388
12.783333333333548,0.00148531,-0.7839845,-0.0033830893,-2.3538187,-0.002341165,1.5751294,0.7889185,0.04,0.039999954,-9.516481493912297,0.2232840898058334,0.07663429899491889,0.014456365539442476,-0.04021996454294571,-0.0007882531912580437
12.800000000000216,0.0015921819,-0.7839408,-0.003661468,-2.3536212,-0.002539035,1.5754678,0.78915566,0.039999995,0.03999994,-9.823976566273748,0.0824626788797836,0.11722142416993508,0.018087381986753557,-0.04157552090842186,-0.006612231246983792
12.816666666666883,0.0017046031,-0.78389513,-0.0039543454,-2.3534136,-0.0027472037,1.5758239,0.7894052,0.03999999,0.039999932,-9.802224296071964,-0.05268337331876156,-0.054466297819632095,0.022280577957179165,-0.05058357516375049,0.004608240797488995
12.83333333333355,0.0018226911,-0.78384763,-0.0042620306,-2.353194,-0.0029658894,1.576198,0.78966737,0.039999984,0.03999992,-9.975241578442471,-0.12357361036031117,0.3344734827133534,0.019304542800237887,-0.043551772638567715,-1.844370001432389e-05
12.850000000000218,0.0019465612,-0.7837983,-0.0045848237,-2.3529642,-0.0031953054,1.5765905,0.7899424,0.03999997,0.039999906,-10.051963310578792,-0.023587136967636216,-0.017026352645866077,0.020064413049007156,-0.048421138953509746,-0.0034358853369026777
12.866666666666886,0.002076326,-0.78374696,-0.0049230205,-2.3527224,-0.0034356618,1.5770018,0.7902305,0.039999966,0.0399999,-10.068965417252699,0.1278001873045147,0.3441090626458556,0.02539110131525387,-0.04961044120825357,0.00018919982550376043
12.883333333333553,0.0022120944,-0.7836937,-0.005276908,-2.3524702,-0.0036871617,1.5774319,0.7905321,0.03999996,0.039999895,-9.92077214646829,-0.5181542252051744,0.34901345765295866,0.02314349169908155,-0.05231761973570411,0.00019396458641305643
12.90000000000022,0.002353974,-0.7836381,-0.0056467657,-2.3522055,-0.0039500035,1.5778816,0.7908473,0.03999996,0.03999989,-9.646953011123754,-0.1546367817716292,-0.18049204675376457,0.02960677324351132,-0.05587474009795064,0.006134442253358847
12.916666666666888,0.002502069,-0.78358036,-0.0060328674,-2.3519301,-0.0042243814,1.5783511,0.79117626,0.039999966,0.03999989,-9.945691459045099,0.17182284110572285,0.10886943256899423,0.027714538460928438,-0.057580415918474154,0.002221640540799591
12.933333333333556,0.0026564796,-0.7835204,-0.00643548,-2.3516412,-0.0045104837,1.5788406,0.79151934,0.039999966,0.03999989,-9.86938401101703,-0.18225311733746677,0.17163808106998563,0.030548484173794365,-0.06086384904790968,0.0023989677199784073
12.950000000000223,0.002817305,-0.7834581,-0.0068548582,-2.3513412,-0.004808493,1.5793506,0.7918766,0.03999997,0.03999989,-9.804201230600704,-0.019924719814398313,-0.2851537386675984,0.028311047164124224,-0.05607327215521101,0.0038555702126070704
12.96666666666689,0.0029846404,-0.78339374,-0.007291257,-2.3510287,-0.005118586,1.579881,0.79224855,0.039999966,0.039999884,-9.547191852585128,-0.12532297850844717,0.14784782291897963,0.02698980868034664,-0.05394949107581527,0.00029481697093490197
12.983333333333558,0.003158579,-0.78332704,-0.007744917,-2.3507035,-0.0054409388,1.5804325,0.79263514,0.039999966,0.03999988,-9.696347293229987,-0.03931512923948195,-0.11216975749434535,0.02614170444930014,-0.061449014887436794,-0.005958088302311122
13.000000000000226,0.0033392117,-0.7832576,-0.008216075,-2.350366,-0.0057757176,1.5810056,0.7930365,0.03999997,0.03999988,-10.186043868714535,-0.013182085731176255,0.2515645958770564,0.027134937822981375,-0.06001059512924895,-0.0005081488301940356
13.016666666666893,0.0035266257,-0.7831858,-0.008704961,-2.3500156,-0.006123084,1.5816001,0.79345304,0.039999966,0.039999872,-9.729576495318861,-0.25173659101471685,0.21423683881195132,0.03297850316309906,-0.06869070541432236,0.005049496775708662
13.03333333333356,0.0037209045,-0.78311163,-0.009211797,-2.3496516,-0.006483194,1.5822163,0.7938848,0.03999995,0.039999854,-9.657539603374104,-0.010366888470077693,0.011917128677596145,0.028668601108754646,-0.06437011678333483,-0.0007513104324333715
13.050000000000228,0.0039221304,-0.7830349,-0.009736797,-2.3492749,-0.006856199,1.5828544,0.7943321,0.03999993,0.039999828,-9.983936723362461,-0.41977258517772487,0.549757224390812,0.03296310556739534,-0.06667150631761408,-0.003520701734030621
13.066666666666896,0.0041303826,-0.78295547,-0.010280167,-2.3488853,-0.0072422447,1.583515,0.794795,0.039999913,0.03999981,-10.067756198930851,-0.031124771892430278,0.15394704241974022,0.0400129191224995,-0.0669017824199135,0.0018202226348770947
13.083333333333563,0.004345739,-0.7828736,-0.010842106,-2.3484824,-0.0076414766,1.5841982,0.79527384,0.039999902,0.039999798,-9.916706209972643,-0.021929218389316635,0.036693463684668276,0.03804199443586039,-0.07420564830917259,0.009428517086733252
13.10000000000023,0.0045682713,-0.782789,-0.011422811,-2.3480656,-0.008054028,1.5849042,0.79576856,0.03999989,0.03999978,-9.632360816539103,-0.01920561661224504,0.05681570082988635,0.03771426737682825,-0.07261863864030729,-0.00027686152940247297
13.116666666666898,0.0047980496,-0.7827016,-0.012022462,-2.3476343,-0.00848003,1.5856333,0.7962794,0.039999876,0.039999764,-9.769764609947758,0.1487492646550872,0.0505733702000048,0.04089011706070531,-0.07881122621766169,-0.001500061551586719
13.133333333333566,0.0050351424,-0.7826116,-0.012641241,-2.3471894,-0.0089196125,1.5863856,0.79680645,0.03999986,0.039999742,-9.89878738168981,0.28827944788851656,0.22423485320586165,0.03951806986681052,-0.07514285234999035,0.007449554404439573
13.150000000000233,0.0052796137,-0.782519,-0.013279315,-2.3467312,-0.009372896,1.5871614,0.79734993,0.039999846,0.039999727,-9.936856705440158,0.24226954830577152,0.21502576048426247,0.044375200578920214,-0.08467001976695208,-0.0009245750061152396
13.1666666666669,0.0055315257,-0.78242356,-0.01393685,-2.3462598,-0.009839989,1.5879606,0.79791,0.03999983,0.03999971,-9.273384502966222,0.17746419896654161,0.40389582915471794,0.03987015328440857,-0.07946216776827218,-0.0022850834314616557
13.183333333333568,0.0057909396,-0.78232545,-0.014614,-2.3457737,-0.010321011,1.5887837,0.79848665,0.039999813,0.039999686,-9.873571933631679,-0.10638886083785475,0.26714434918381175,0.04770248247388558,-0.08470445985782223,-0.0027094454472290012
13.200000000000236,0.0060579116,-0.78222424,-0.015310917,-2.3452733,-0.010816059,1.5896308,0.7990803,0.039999798,0.039999664,-9.853225722266092,0.05951814024956112,0.3383029909979909,0.04964087284718586,-0.08643468749595122,0.003290163796208683
13.216666666666903,0.006332498,-0.78212035,-0.016027741,-2.3447585,-0.011325244,1.5905021,0.7996908,0.039999783,0.03999965,-9.65716364260244,0.10716163681717056,0.3181151768804382,0.056077370148009426,-0.09367701400675886,0.0014890340409521865
13.23333333333357,0.00661475,-0.7820134,-0.016764611,-2.344229,-0.0118486555,1.5913976,0.8003184,0.039999776,0.039999634,-9.886700113539913,-0.1231711310029692,0.5130573147256905,0.05123000150733274,-0.08807697852819148,0.003641970788442782
13.250000000000238,0.0069047133,-0.7819039,-0.017521655,-2.343685,-0.012386385,1.5923177,0.8009632,0.039999757,0.03999961,-10.015874528357559,0.17366027985621527,0.38987388103651505,0.05362558121737259,-0.09163892466650687,0.0008947807020056058
13.266666666666906,0.0072024367,-0.7817909,-0.018298995,-2.3431258,-0.012938516,1.5932624,0.8016253,0.039999742,0.039999593,-9.948225797269927,0.30941722037131364,0.5191604067179529,0.056897594276657394,-0.09619804452524967,-0.000303182539136212
13.283333333333573,0.007507964,-0.78167564,-0.019096741,-2.3425522,-0.013505137,1.5942322,0.8023048,0.039999735,0.039999582,-9.673874855078152,0.1771538579138118,0.09657219929422878,0.055087030836739506,-0.0966427885347858,0.0014166155633570088
13.30000000000024,0.0078213345,-0.78155714,-0.019914998,-2.341964,-0.0140863145,1.5952265,0.8030017,0.039999716,0.03999956,-9.594738154037634,-0.053324087334983034,0.19843478253752614,0.053790847515701685,-0.10177888515754242,-0.0025228650852228782
13.316666666666908,0.008142589,-0.7814359,-0.020753875,-2.3413608,-0.014682128,1.5962461,0.80371624,0.039999697,0.039999537,-9.908747570709322,0.05038777101607813,0.49249249900811953,0.05400555317667069,-0.10034732657624143,-0.0029434597501881918
13.333333333333576,0.008471759,-0.7813115,-0.02161346,-2.3407426,-0.01529264,1.5972908,0.8044478,0.03999968,0.039999515,-9.87366957373592,0.3213413276110276,0.3036336720066694,0.05671956039427089,-0.09953680451997289,1.0891203679445354e-05
13.350000000000243,0.008808884,-0.7811843,-0.022493847,-2.34011,-0.01591791,1.5983608,0.8051975,0.03999966,0.039999492,-10.008022773006866,-0.41357204812247916,0.4517483989790597,0.05954064327992513,-0.10538389702425276,-0.005395366269323771
13.36666666666691,0.009153993,-0.7810539,-0.02339511,-2.3394623,-0.016558003,1.5994563,0.8059652,0.03999964,0.03999947,-10.019672864485415,-0.03973327361384631,0.5538313218960979,0.05794601276236291,-0.10189082334193414,0.0024898530179200545
13.383333333333578,0.009507111,-0.7809207,-0.024317335,-2.3387992,-0.017212957,1.6005771,0.80675066,0.03999962,0.039999444,-9.712883346992557,-0.23983855619921327,0.5336896928476639,0.06001096005566043,-0.10813137519965704,-0.004065909765722447
13.400000000000245,0.009868263,-0.78078395,-0.025260579,-2.3381212,-0.017882828,1.6017236,0.807554,0.0399996,0.03999942,-10.125899072768714,0.07474841454781067,0.5756429789549765,0.06371543832882834,-0.11029426475719982,-0.0018843089111966473
13.416666666666913,0.010237478,-0.78064466,-0.026224898,-2.337428,-0.018567657,1.6028954,0.80837536,0.03999957,0.03999939,-9.87485660673513,0.13836293452016346,0.4498106732495651,0.07334294838965673,-0.11353813073810685,0.006593085253737389
13.43333333333358,0.010614771,-0.78050196,-0.027210357,-2.3367198,-0.019267488,1.6040928,0.8092147,0.03999955,0.039999362,-9.785311433176213,-0.19215690677933583,0.5487057418334449,0.06747843497591076,-0.11610442183408969,0.0015093997960837087
13.450000000000248,0.011000163,-0.7803567,-0.028216995,-2.3359964,-0.019982353,1.6053163,0.81007206,0.039999522,0.03999933,-9.711511121802221,-0.2544124015153392,0.4772818548559458,0.06809231903576818,-0.11879427171514662,0.0049037947103408985
13.466666666666915,0.011393668,-0.78020805,-0.029244857,-2.335258,-0.020712275,1.6065654,0.8109474,0.039999496,0.0399993,-9.469964108007824,-0.3600259073141046,0.5946436951189671,0.07251927162357534,-0.11881808845616107,0.003352464243908628
13.483333333333583,0.011795303,-0.7800564,-0.03029398,-2.3345044,-0.021457281,1.6078404,0.81184083,0.039999463,0.03999926,-9.861102529691602,0.08892549841778978,0.5103200561363406,0.07756854418418965,-0.1217733927191974,0.00016881315239397203
13.50000000000025,0.0122050755,-0.77990174,-0.031364396,-2.3337355,-0.022217397,1.6091412,0.81275237,0.03999943,0.039999224,-9.751619002978964,0.18911126169654582,0.5765070068542019,0.07346086279587105,-0.12570207985098472,-0.0007235274220519815
13.516666666666918,0.012622996,-0.77974415,-0.032456122,-2.3329508,-0.022992633,1.610468,0.81368196,0.039999392,0.039999183,-9.899105818768234,-0.01959582268235251,0.7221446603499075,0.06918416368433643,-0.12242061965970176,0.0015959119199127271
13.533333333333585,0.013049071,-0.7795834,-0.033569176,-2.3321507,-0.023783004,1.6118206,0.8146298,0.039999355,0.039999142,-9.869152016902982,-0.13195070169860917,0.6132843717259624,0.07639458596406457,-0.12616682996164144,-0.001905270175481082
13.550000000000253,0.013483302,-0.7794199,-0.034703583,-2.3313353,-0.024588512,1.6131992,0.81559587,0.039999314,0.039999098,-9.935379456823753,-0.2680455294052891,0.2870947908922514,0.07842718818624138,-0.1338023204555239,-0.0009669568802415611
13.56666666666692,0.013925695,-0.7792529,-0.035859324,-2.330505,-0.025409164,1.6146035,0.8165802,0.03999927,0.03999905,-9.501440862941475,0.2011192619046291,0.6020434504629615,0.08061119487152864,-0.13240314508754933,0.004422795959188768
13.583333333333588,0.014376245,-0.77908313,-0.037036408,-2.3296592,-0.026244959,1.6160338,0.81758267,0.039999224,0.039999,-9.848723671809994,0.05643719169981773,0.4071883700633344,0.0814103588162208,-0.13719539632581626,0.001674488311104577
13.600000000000255,0.014834951,-0.7789101,-0.03823483,-2.3287985,-0.027095897,1.6174898,0.8186032,0.039999183,0.039998952,-9.657090259692293,-0.12884601570909626,0.6873215863758331,0.08649232405910849,-0.1366085680148807,0.002539540936762477
13.616666666666923,0.015301806,-0.77873415,-0.03945458,-2.3279226,-0.02796196,1.6189725,0.8196418,0.039999146,0.03999891,-9.544341412596337,-0.008023487278002814,0.3093134632651514,0.08773456282810717,-0.13883486603011397,0.0013264327023077584
13.63333333333359,0.01577681,-0.778555,-0.040695623,-2.3270311,-0.028843125,1.6204805,0.82069856,0.039999105,0.039998867,-9.74317400291211,0.03342088595707264,0.9167534852651313,0.08908046934579972,-0.14234521936022174,0.0003282496819499092
13.650000000000258,0.01625994,-0.7783728,-0.041957945,-2.3261244,-0.029739391,1.6220144,0.8217735,0.039999068,0.039998826,-10.095978651515065,-0.06087283898205624,0.7378839436417972,0.08534975002649248,-0.14488368039592922,0.0015634725311783073
13.666666666666925,0.016751189,-0.7781876,-0.043241516,-2.325202,-0.030650722,1.6235745,0.82286656,0.039999027,0.03999878,-9.704102244872391,-0.058807857752681825,0.7466159123011068,0.08874257636072849,-0.14835272568675806,-0.0016955431356467123
13.683333333333593,0.017250553,-0.7779992,-0.044546302,-2.3242638,-0.031577103,1.6251597,0.8239777,0.039998986,0.039998736,-9.957518936448604,-0.09008716575087632,0.9173256314629565,0.08838887001542226,-0.15028071974295273,0.005526856945613293
13.70000000000026,0.017758004,-0.7778077,-0.04587225,-2.3233104,-0.03251849,1.6267707,0.8251067,0.039998945,0.03999869,-9.871029818045201,-0.09646457122219748,0.9036765566705399,0.09212904961778014,-0.14795790761551025,0.0033044206848601362
13.716666666666928,0.018273534,-0.7776134,-0.047219332,-2.322342,-0.033474863,1.6284075,0.82625365,0.0399989,0.039998643,-9.72099761592253,0.3574594569609557,0.4558109307732496,0.09260887085953415,-0.15354146655742096,-0.002754448186503317
13.733333333333595,0.018797114,-0.7774158,-0.048587482,-2.3213584,-0.034446184,1.63007,0.82741857,0.039998848,0.039998587,-10.073991399927312,0.11307188374992136,1.2493219386866052,0.09869573182897311,-0.15420842722915437,-0.00044656015065021575
13.750000000000263,0.019328723,-0.7772154,-0.04997664,-2.3203597,-0.03543239,1.631758,0.8286014,0.039998807,0.03999854,-9.591159768917564,-0.04102927945938917,1.0875106373077583,0.09878645313725913,-0.15579933396332576,0.003293354831458709
13.76666666666693,0.019868346,-0.7770119,-0.051386755,-2.3193464,-0.036433473,1.6334715,0.82980204,0.03999876,0.03999849,-9.863364740996104,-0.09500218244675494,0.9546340960999572,0.10268248533303244,-0.15676549500721831,-0.001252058257506393
13.783333333333598,0.02041595,-0.7768055,-0.052817736,-2.3183184,-0.037449345,1.6352104,0.8310205,0.039998718,0.039998446,-9.823863749955484,-0.2190007559156937,0.9863154704658447,0.09883141291820574,-0.1561468669900095,0.005921959719353973
13.800000000000265,0.020971505,-0.7765961,-0.054269522,-2.3172753,-0.03847998,1.6369745,0.83225656,0.03999868,0.039998405,-9.749673884530672,0.2273675774373637,0.9794572025993357,0.1036987580552225,-0.1666197625325054,0.0051161439035081815
13.816666666666933,0.021534983,-0.77638376,-0.055742033,-2.3162172,-0.039525308,1.6387637,0.83351034,0.03999864,0.03999836,-9.92733188009741,0.0664755906201577,1.3507308636335025,0.1059194412564397,-0.16134750031699832,0.0007453645120094457
13.8333333333336,0.022106346,-0.7761683,-0.057235185,-2.3151443,-0.04058527,1.6405782,0.8347815,0.0399986,0.03999831,-10.203317628061901,0.016780440472018848,0.7499069056444376,0.10687245697061551,-0.16491444059696855,0.004380272006535502
13.850000000000268,0.022685561,-0.77594984,-0.058748893,-2.3140562,-0.04165981,1.6424176,0.8360704,0.03999856,0.03999827,-9.5566290034531,-0.0018948823026385848,0.809537060946145,0.10615890438567878,-0.16362311121220977,0.0024886514529790034
13.866666666666935,0.02327259,-0.7757285,-0.060283057,-2.3129535,-0.042748842,1.6442814,0.8373766,0.03999852,0.039998226,-10.121181276914786,0.055758653682183815,0.9927302512867062,0.10568666179458876,-0.1670219067284077,0.0031091913975354393
13.883333333333603,0.023867402,-0.7755042,-0.061837573,-2.311836,-0.043852326,1.6461703,0.83870023,0.03999848,0.039998185,-10.017386257251081,-0.09414180926043231,0.36621971777080686,0.11677423909859712,-0.1773517973925122,0.007763479624949083
13.90000000000027,0.024469959,-0.7752769,-0.06341234,-2.310704,-0.04497016,1.6480838,0.84004104,0.039998427,0.03999813,-9.618819369724996,-0.14352089900485965,1.3368641665435521,0.11058760847584348,-0.1786605450184505,0.0016925967633165506
13.916666666666938,0.02508021,-0.77504677,-0.06500724,-2.309558,-0.046102278,1.6500214,0.8413989,0.039998375,0.039998073,-9.65824345459233,-0.28864905637054633,0.8533524559744561,0.11124083063975465,-0.17735622096972908,0.004000259628173504
13.933333333333605,0.025698116,-0.7748139,-0.06662218,-2.3083975,-0.04724859,1.6519834,0.84277403,0.039998334,0.03999803,-9.790998946392472,0.22259766367236708,0.7973246498202586,0.11492973193728476,-0.18125069279610329,0.0037949119309214005
13.950000000000273,0.026323626,-0.774578,-0.06825703,-2.3072228,-0.048409015,1.6539695,0.84416604,0.039998285,0.039997976,-9.833197508552004,0.3199414035545963,1.300980221258237,0.1153900622682014,-0.1849046639850675,0.00323799806795272
13.96666666666694,0.026956705,-0.7743392,-0.06991166,-2.3060336,-0.04958346,1.65598,0.8455748,0.039998233,0.03999792,-9.663211873679352,0.17233009612448758,1.273553548361832,0.1212951264088663,-0.18065552737463492,0.006310529281669491
13.983333333333608,0.027597293,-0.7740976,-0.07158592,-2.30483,-0.050771847,1.658014,0.84700024,0.039998185,0.03999787,-9.715541296026093,-0.023477219267652893,1.3992305595989607,0.11393677220196327,-0.1827328886758239,0.0051124141966774495
14.000000000000275,0.028245337,-0.7738533,-0.07327974,-2.3036127,-0.051974073,1.6600721,0.84844244,0.039998133,0.039997812,-10.027660294629738,0.2082500206500914,1.3811032128573264,0.1289518400606805,-0.19029592727639652,0.0036354455160119057
14.016666666666943,0.0289008,-0.7736062,-0.07499294,-2.3023818,-0.053190034,1.6621535,0.8499013,0.039998088,0.039997764,-9.57804413255931,0.2912670222085187,1.462605885558347,0.1285871448579729,-0.1914027881029224,0.010970893759505562
14.03333333333361,0.029563615,-0.77335614,-0.07672538,-2.3011365,-0.05441964,1.6642582,0.85137594,0.039998043,0.039997716,-10.045451816554596,-0.02855846700284574,1.4741258750201056,0.12511294773222853,-0.18840328172999318,0.0039883760234477724
14.050000000000278,0.030233728,-0.77310354,-0.07847693,-2.2998776,-0.05566277,1.6663865,0.85286736,0.039997995,0.039997663,-9.759681625881857,0.26912885221205407,1.073612064937648,0.12556691707817347,-0.18910675780094777,0.006651105334801188
14.066666666666945,0.030911086,-0.77284807,-0.08024741,-2.2986057,-0.056919325,1.6685375,0.8543749,0.039997943,0.039997607,-9.654197220992652,-0.12260412128962506,1.6679534840534331,0.12801961764404698,-0.19486119678512606,0.007509502152423764
14.083333333333613,0.03159562,-0.77259,-0.08203668,-2.29732,-0.058189195,1.6707113,0.8558982,0.039997887,0.039997548,-9.867326428007434,0.05407268009516317,1.5575747555335722,0.13156608590155652,-0.19991887764849742,0.010325791690934052
14.10000000000028,0.03228728,-0.7723293,-0.08384457,-2.2960205,-0.05947227,1.6729076,0.85743725,0.03999783,0.03999749,-9.56964357586013,0.14584530479103763,1.6773438983634454,0.12745958826744505,-0.19502101509495606,0.0040263776292489215
14.116666666666948,0.032985996,-0.7720658,-0.08567095,-2.294708,-0.060768444,1.6751264,0.85899216,0.03999777,0.03999742,-9.60277727319455,0.02628933505196923,1.0760559694507825,0.12916279257788865,-0.1956519784248396,0.001422107879538521
14.133333333333615,0.0336917,-0.7717997,-0.08751563,-2.2933826,-0.062077582,1.6773672,0.8605626,0.03999772,0.03999737,-9.725252815124877,-0.10781003119326048,0.977897547721393,0.13440145413356067,-0.19984948425671156,0.002986688722095445
14.150000000000283,0.034404345,-0.77153105,-0.089378454,-2.2920437,-0.06339959,1.6796306,0.8621485,0.03999767,0.039997317,-9.682238202922754,0.03375085943314442,1.8171646627321114,0.13279583110412188,-0.20569137106354946,0.0057585602464923485
14.16666666666695,0.03512384,-0.77125984,-0.09125923,-2.2906928,-0.06473429,1.6819156,0.8637496,0.03999763,0.03999727,-9.939470665371584,-0.2335263795644248,1.2605783147071672,0.13874289943688245,-0.20670544824653522,0.004139288750875317
14.183333333333618,0.03585013,-0.7709859,-0.09315775,-2.2893279,-0.06608158,1.6842222,0.8653658,0.039997578,0.039997216,-9.716627960000169,0.1850212772592747,1.5896520854784202,0.1371698375096397,-0.20737364552130427,0.0042411315298219576
14.200000000000285,0.03658315,-0.7707095,-0.09507389,-2.2879505,-0.067441344,1.6865501,0.86699694,0.039997526,0.03999716,-9.390909144431594,0.1896347305146689,1.5554183515862532,0.1384679232851397,-0.20715495578460152,0.00817349706160535
14.216666666666953,0.037322827,-0.7704307,-0.09700745,-2.286561,-0.06881342,1.688899,0.86864287,0.03999747,0.0399971,-9.783774723998883,0.3252083844884996,1.3954595839282704,0.1377722051010679,-0.20795859616043622,0.011807490038511568
14.23333333333362,0.038069073,-0.77014935,-0.09895821,-2.2851596,-0.07019769,1.6912689,0.8703036,0.03999742,0.039997045,-9.954872167536264,-0.2596032438012237,1.8912009223777064,0.14095122710338998,-0.213007652225456,0.008922775767190234
14.250000000000288,0.038821824,-0.76986563,-0.10092598,-2.2837458,-0.071594015,1.6936597,0.87197876,0.03999737,0.03999699,-9.805859580808264,0.2921298705412568,1.8152806236338663,0.14615023024764875,-0.21140101482191676,0.011390759181071236
14.266666666666955,0.039580993,-0.7695795,-0.102910586,-2.28232,-0.073002234,1.6960706,0.87366825,0.039997313,0.03999693,-9.879999028664532,0.36118687118092396,1.564531866988954,0.14645572541351326,-0.21505989202586856,0.002202643330307485
14.283333333333623,0.04034652,-0.769291,-0.10491178,-2.2808816,-0.074422225,1.698502,0.8753719,0.03999726,0.039996874,-9.421576621450177,0.32222427225075423,1.5121712500571198,0.14811185257744178,-0.2191154714937233,0.009692900363079368
14.30000000000029,0.04111832,-0.76900005,-0.106929414,-2.2794316,-0.075853854,1.7009526,0.87708944,0.03999721,0.039996818,-9.516977938153518,0.07327483647240032,1.862213348158781,0.1488406746451638,-0.21943178772829056,0.008045965040653111
14.316666666666958,0.041896313,-0.7687067,-0.10896326,-2.27797,-0.07729696,1.7034234,0.87882084,0.039997153,0.039996758,-9.675461858905603,-0.06438776448600333,1.8748556256124642,0.14602050995246615,-0.2134185510595957,0.009180628083847786
14.333333333333625,0.042680416,-0.7684111,-0.11101306,-2.2764974,-0.078751385,1.7059138,0.8805658,0.03999709,0.03999669,-10.014896692236794,-0.22136789484438912,1.7478930772907735,0.1488895756545148,-0.2188054172577886,-0.00016020452289202615
14.350000000000293,0.043470558,-0.76811326,-0.11307865,-2.2750132,-0.08021699,1.7084231,0.8823241,0.039997045,0.039996643,-9.453508092436774,0.037397967041094715,2.0212651055752224,0.1525882141146972,-0.22395878343369688,0.004806598167445731
14.36666666666696,0.044266626,-0.7678133,-0.115159795,-2.2735178,-0.08169362,1.7109512,0.8840958,0.039996993,0.039996587,-9.523911865185633,0.24302033890395366,2.0317095770961004,0.14993110089353043,-0.22514125522866477,0.00922192996600107
14.383333333333628,0.045068566,-0.76751095,-0.11725628,-2.2720115,-0.08318109,1.7134979,0.8858804,0.039996937,0.039996527,-9.601274034590364,0.003904833260038043,2.046002834879561,0.15329473064916324,-0.2255859382097873,0.005523169739930757
14.400000000000295,0.045876287,-0.7672064,-0.11936788,-2.2704937,-0.08467924,1.716063,0.8876779,0.039996885,0.03999647,-9.613465976226312,0.5732714279730657,1.6284379996015415,0.15896081281495608,-0.2217917775091431,0.011936782270693664
14.416666666666963,0.046689693,-0.7668999,-0.12149436,-2.2689655,-0.08618793,1.7186464,0.8894882,0.039996833,0.039996415,-9.501136505205032,0.2308082576277804,1.9384559419928873,0.15701060015071916,-0.2257213043309785,0.009900862488327982
14.43333333333363,0.047508698,-0.76659113,-0.12363549,-2.267427,-0.087706976,1.7212473,0.8913109,0.039996777,0.039996356,-9.562361922884348,0.7043498729239039,2.2088210263706447,0.15714290710708997,-0.22592037173312216,0.009287784775676228
14.450000000000298,0.048333194,-0.7662804,-0.12579104,-2.2658784,-0.08923625,1.7238656,0.89314574,0.039996736,0.03999631,-9.453013382263562,0.16841810135008023,2.2946954396489563,0.15561163240374076,-0.23172293880252276,0.007886214425671523
14.466666666666965,0.049163125,-0.76596767,-0.12796077,-2.2643194,-0.09077555,1.7265012,0.8949927,0.039996684,0.039996255,-9.75721430747641,0.05896010460349102,1.9108612787567099,0.16249029393653514,-0.23534114997003064,0.012329541886593704
14.483333333333633,0.04999838,-0.7656529,-0.13014442,-2.26275,-0.09232469,1.7291538,0.89685136,0.039996635,0.039996203,-9.38743922050848,-0.16522987616025825,1.8397505032799377,0.15978464087472372,-0.22969340428109,0.014373832374072432
14.5000000000003,0.05083888,-0.76533616,-0.13234177,-2.2611713,-0.093883544,1.731823,0.89872175,0.039996598,0.039996166,-9.887732175599549,-0.2379531923103311,2.2213920651268957,0.15529504470267708,-0.22874882844393016,0.005125634174938511
14.516666666666968,0.051684506,-0.76501745,-0.1345526,-2.2595828,-0.0954519,1.7345085,0.90060365,0.039996564,0.03999613,-9.46308990035071,0.4873104803850365,2.2278880932308063,0.1621039308072422,-0.2342573321161845,0.0053562092149895425
14.533333333333635,0.05253518,-0.76469684,-0.13677661,-2.2579849,-0.097029604,1.73721,0.9024969,0.03999652,0.03999608,-9.786896621623427,0.3384763017603925,2.343531245889491,0.16387769507206418,-0.23434639098629007,0.009844174938608223
14.550000000000303,0.0533908,-0.76437443,-0.13901356,-2.256377,-0.098616466,1.7399272,0.9044011,0.03999647,0.039996028,-9.131948907235092,0.2674809252121126,2.4558701421260243,0.16258450329279417,-0.23753341663881816,0.009750508831373754
14.56666666666697,0.054251283,-0.76405007,-0.14126326,-2.2547605,-0.1002123,1.7426596,0.90631604,0.039996438,0.039995994,-9.482941524741864,0.6067899757026948,2.5591492358527073,0.1687298569555517,-0.23782968215024397,0.003918852339426265
14.583333333333638,0.055116523,-0.7637242,-0.14352536,-2.2531352,-0.10181692,1.7454075,0.9082414,0.039996393,0.039995946,-9.326793194527097,0.26255582460794863,2.1929053650281722,0.15976817032371926,-0.23608421436121219,0.007064053729543757
14.600000000000305,0.055986393,-0.7633964,-0.14579967,-2.251501,-0.10343016,1.7481701,0.91017723,0.039996356,0.039995905,-9.714342264228593,0.4014566537119115,2.4241767795956988,0.1718679699943737,-0.23741406616609217,0.011649091761214021
14.616666666666973,0.056860838,-0.76306695,-0.14808586,-2.2498589,-0.10505182,1.750947,0.912123,0.039996315,0.03999586,-9.442445013743619,0.07607191063482055,2.054669264611209,0.17384372689305216,-0.23871582998028196,0.012313176632876531
14.63333333333364,0.057739723,-0.76273584,-0.15038373,-2.2482076,-0.10668172,1.753738,0.91407895,0.039996274,0.039995816,-9.373571921858078,0.5348631098690955,2.6388294231268024,0.17254274241969456,-0.2416556715838519,0.010205902793502059
14.650000000000308,0.058622967,-0.762403,-0.15269297,-2.246548,-0.108319655,1.7565433,0.91604453,0.039996237,0.03999578,-9.648384740358631,0.35835909706293295,2.6095644465526404,0.17064809038272613,-0.24247070996946973,0.008407536608600209
14.666666666666975,0.059510462,-0.76206845,-0.15501331,-2.2448807,-0.109965466,1.7593616,0.91801953,0.0399962,0.039995737,-9.52170707066829,-0.11171760173933831,2.8164647451344464,0.18204689530631504,-0.24077896980800056,0.013748468892952906
14.683333333333643,0.060402106,-0.7617323,-0.15734446,-2.2432053,-0.11161895,1.7621933,0.92000383,0.039996166,0.0399957,-9.78681511857692,0.47260650572980034,2.8413654594580167,0.17456330831371164,-0.24280682102848059,0.015593714575119393
14.70000000000031,0.06129778,-0.7613949,-0.15968621,-2.2415223,-0.11327991,1.7650378,0.9219972,0.03999612,0.039995655,-9.275101348852154,0.41453987154930244,2.51390722595569,0.17293769725312977,-0.24386820587901084,0.010907335393875308
14.716666666666978,0.062197413,-0.76105607,-0.16203827,-2.239832,-0.11494814,1.7678946,0.9239991,0.039996088,0.03999562,-9.158381326754263,0.08747686307583769,2.6804232264155368,0.17627628128133646,-0.24255647784586293,0.009152316762404265
14.733333333333645,0.063100874,-0.7607156,-0.16440035,-2.2381341,-0.11662343,1.7707639,0.9260094,0.039996058,0.039995585,-9.331392287337145,0.20874914497431052,2.1873086705731093,0.17676978591889558,-0.2463496430251903,0.010933095634507825
14.750000000000313,0.06400805,-0.7603737,-0.16677222,-2.23643,-0.118305616,1.7736449,0.9280282,0.039996028,0.039995555,-9.456591557630649,0.2744101631964428,3.0097854384561202,0.17498005803549105,-0.25242988366294566,0.012473717623065185
14.76666666666698,0.06491886,-0.7600307,-0.16915354,-2.2347188,-0.11999448,1.7765375,0.9300549,0.039995994,0.03999552,-9.41915463821571,0.49926882729705785,2.7210959101615453,0.17635018484464382,-0.24702292772000667,0.0059110766257064965
14.783333333333648,0.06583317,-0.7596863,-0.17154403,-2.2330017,-0.12168985,1.7794414,0.9320895,0.03999596,0.039995484,-9.297461580073689,0.588188159142516,3.249182754937727,0.18040756287495707,-0.2535124315844143,0.007340505587243868
14.800000000000315,0.06675089,-0.7593405,-0.17394345,-2.2312777,-0.12339148,1.7823561,0.9341316,0.03999592,0.039995443,-9.357704264669783,-0.10070282274503006,2.816943954928851,0.18172979577147705,-0.25028058628427075,0.009396023421210502
14.816666666666983,0.06767188,-0.7589937,-0.17635144,-2.229547,-0.12509918,1.7852803,0.936181,0.039995883,0.039995402,-9.687710241272972,0.4167062069305084,2.911022127963028,0.18619422647308312,-0.25271386183304845,0.016306907990602058
14.83333333333365,0.06859605,-0.75864553,-0.17876779,-2.2278104,-0.1268128,1.7882148,0.93823755,0.03999585,0.03999537,-9.5939047872685,0.12648473423677564,3.1005003506142805,0.18375901565670874,-0.24807541750728193,0.015985775097820617
14.850000000000318,0.06952329,-0.7582964,-0.18119213,-2.226068,-0.12853205,1.7911601,0.940301,0.039995834,0.03999535,-9.216968951967969,0.4316322938415017,2.6844592584928497,0.1791793440285817,-0.24969840797819354,0.013346435022401426
14.866666666666985,0.07045351,-0.7579461,-0.18362421,-2.224321,-0.13025679,1.7941133,0.94237095,0.039995804,0.03999532,-9.283717728503936,0.32741773699837634,3.2544707253692398,0.18692048046864898,-0.25553303957671497,0.014922454198850861
14.883333333333653,0.07138658,-0.75759465,-0.18606381,-2.222567,-0.13198674,1.7970766,0.94444734,0.039995767,0.03999528,-9.403491713000856,0.3291434815611578,3.3543630915971927,0.1853321891054508,-0.2531801061519525,0.00897673035689033
14.90000000000032,0.072322376,-0.7572423,-0.18851057,-2.220809,-0.13372177,1.8000488,0.9465298,0.039995737,0.03999525,-8.96046628330933,0.40966652315251806,3.071949728349538,0.18497240875610116,-0.2494957491095177,0.008808036852578228
14.916666666666988,0.07326082,-0.7568889,-0.19096416,-2.2190464,-0.13546158,1.8030287,0.94861805,0.039995696,0.039995205,-9.050198330933558,0.5959292050250671,3.2302873312482276,0.1816113930812621,-0.25148238629694925,0.013463677371133421
14.933333333333655,0.07420178,-0.75653464,-0.1934243,-2.217278,-0.1372061,1.8060163,0.95071185,0.039995663,0.03999517,-9.258654751287803,0.2583108270499386,2.7055100408318773,0.1856610711845476,-0.253663203924617,0.013052242619444163
14.950000000000323,0.07514512,-0.75617933,-0.19589068,-2.2155058,-0.13895498,1.8090116,0.9528111,0.039995626,0.03999513,-9.289366177782178,0.368499520860976,3.0367235710544254,0.18787069042794075,-0.2623564731006791,0.01627549358112468
14.96666666666699,0.076090746,-0.75582343,-0.19836307,-2.2137287,-0.14070807,1.8120145,0.9549153,0.039995603,0.039995104,-9.114627407742269,0.04932301804405703,3.0807029667549926,0.18622263047605644,-0.2588455564367594,0.013331401318392755
14.983333333333658,0.07703855,-0.7554665,-0.20084113,-2.2119486,-0.14246513,1.8150243,0.95702434,0.039995577,0.039995074,-9.202847962964356,0.6395001549643254,3.348654002657809,0.19321032895124607,-0.2580596306324316,0.01041011683610288
15.000000000000325,0.07798839,-0.75510913,-0.20332457,-2.2101638,-0.14422598,1.8180401,0.95913786,0.039995562,0.03999506,-8.891560458115556,0.4512538354465646,3.2271975850229158,0.18777589022509433,-0.256959637932965,0.012050715484111216
15.016666666666993,0.07894016,-0.7547507,-0.20581308,-2.2083762,-0.14599042,1.8210629,0.9612559,0.039995547,0.039995044,-9.166848972611053,0.7761449484419176,3.32890479048328,0.19293141917803308,-0.2567339381512212,0.01588149468710118
15.03333333333366,0.07989377,-0.75439185,-0.2083064,-2.2065837,-0.14775822,1.8240907,0.96337783,0.039995525,0.039995022,-9.063220773645547,0.7626319141607968,3.348343939972509,0.1886317495667559,-0.25657446997080774,0.011898842433262374
15.050000000000328,0.08084907,-0.7540322,-0.21080412,-2.204789,-0.14952913,1.827125,0.9655036,0.0399955,0.039994996,-9.254700138090541,0.7026928916393401,3.4635695903102666,0.18930175488465195,-0.2573584391632294,0.013506977738522852
15.066666666666995,0.08180596,-0.75367194,-0.21330601,-2.202991,-0.15130293,1.8301636,0.96763295,0.03999548,0.039994977,-9.145770585962676,0.47025914464440877,3.4583301260466492,0.19153285181275762,-0.25452146484825394,0.012940038172856376
15.083333333333663,0.08276434,-0.7533113,-0.21581176,-2.20119,-0.15307944,1.8332065,0.96976537,0.03999546,0.039994955,-9.098274338852752,0.4869090047519962,3.446991890441224,0.19220293706767297,-0.2546932444041886,0.011190857466147026
15.10000000000033,0.083724104,-0.75294995,-0.21832107,-2.1993868,-0.15485843,1.8362535,0.9719008,0.03999544,0.039994933,-9.14252887790443,0.8035966650122837,3.978416656458583,0.1965396061480843,-0.25934913132680176,0.011714534772307321
15.116666666666998,0.08468507,-0.7525883,-0.22083355,-2.1975815,-0.15663965,1.8393047,0.97403914,0.039995413,0.039994907,-9.014683442639793,0.4857989381964556,3.314221798241626,0.192967735531086,-0.2585847182731728,0.011568396394462598
15.133333333333665,0.08564714,-0.7522261,-0.22334902,-2.1957736,-0.15842296,1.8423593,0.9761799,0.0399954,0.039994888,-9.128417545530747,0.4478609488313191,3.5563239996503193,0.19485130567666087,-0.2576432139899167,0.01482846577664197
15.150000000000333,0.08661025,-0.7518637,-0.22586706,-2.1939638,-0.16020806,1.8454174,0.9783227,0.03999538,0.039994873,-8.997934023999127,0.5879444171762023,3.6617041735981806,0.18953528624947086,-0.26057696356524024,0.014461209656792219
15.166666666667,0.08757427,-0.751501,-0.22838742,-2.192153,-0.16199483,1.8484786,0.9804675,0.039995365,0.039994854,-9.199492029116387,0.8461697702186622,3.626704986610165,0.1930567828352734,-0.2623648631090445,0.011635046607214277
15.183333333333668,0.08853902,-0.7511379,-0.2309098,-2.1903403,-0.16378291,1.8515419,0.98261404,0.039995365,0.039994854,-9.320548116604503,0.6677913160345483,3.976726739584109,0.19052814315174288,-0.2601725228473228,0.010822334677634432
15.200000000000335,0.08950441,-0.7507746,-0.2334339,-2.1885266,-0.16557221,1.8546075,0.98476225,0.03999535,0.03999484,-9.011465927726686,0.8840841343093294,3.7030674101319065,0.1938348196203126,-0.25494002774569935,0.016073574392700636
15.216666666667003,0.09047035,-0.75041115,-0.23595934,-2.186712,-0.16736244,1.8576745,0.98691136,0.03999534,0.03999483,-8.834501398942288,0.43744032783282116,3.767587810333743,0.19790432443695136,-0.2578451850125423,0.012040436181516005
15.23333333333367,0.0914367,-0.7500477,-0.23848581,-2.184896,-0.16915338,1.8607427,0.98906165,0.03999533,0.03999482,-9.04629510552538,0.38065356734476924,3.6092426466663916,0.19283821300451365,-0.25952497309471123,0.010317260374792064
15.250000000000338,0.092403345,-0.74968404,-0.24101311,-2.1830797,-0.17094488,1.8638121,0.9912122,0.03999533,0.03999482,-9.248678900408548,0.9028964069514422,3.466296421118836,0.18842006920203297,-0.258203117279198,0.00824146580906229
15.266666666667005,0.09337017,-0.74932027,-0.24354084,-2.1812634,-0.17273664,1.866882,0.9933634,0.039995324,0.039994814,-8.898207667585098,0.6124652898620981,4.174483330256277,0.19271621808600975,-0.25706919486369206,0.011390606365252682
15.283333333333672,0.094337076,-0.74895656,-0.24606875,-2.1794467,-0.17452852,1.8699518,0.99551463,0.039995316,0.039994806,-8.901218588031679,0.7183335414281988,3.7921560460666535,0.19627779985460175,-0.257261256577945,0.015405317680326233
15.30000000000034,0.095303886,-0.7485929,-0.24859649,-2.17763,-0.17632021,1.8730216,0.99766564,0.039995313,0.039994802,-9.141157140153236,0.8622711267890201,4.035154898523149,0.19836440630870966,-0.25748958186375576,0.011678167799818453
15.316666666667007,0.09627055,-0.7482294,-0.2511237,-2.175814,-0.17811154,1.8760909,0.99981624,0.039995305,0.039994795,-9.06415491233048,0.733960718946586,3.822587117820464,0.19442341629060703,-0.257792712654305,0.009820586444213348
15.333333333333675,0.097236864,-0.7478659,-0.25365022,-2.173998,-0.17990227,1.8791589,1.0019661,0.0399953,0.03999479,-8.861954800694075,0.9138367035541617,3.8024711095022914,0.19192837731560963,-0.25936142363883175,0.015616739937506664
15.350000000000342,0.09820277,-0.7475026,-0.25617552,-2.1721833,-0.1816922,1.8822256,1.0041152,0.039995283,0.039994773,-9.03642090496471,0.8553288220998708,3.8098551096269633,0.1963482087635719,-0.2596374933859523,0.012876872648046076
15.36666666666701,0.099168144,-0.7471396,-0.25869936,-2.170369,-0.18348108,1.885291,1.0062631,0.039995287,0.039994776,-9.159703889875393,1.1919787071483965,4.336045982930635,0.19223353879723268,-0.25590897849914884,0.014341418666506702
15.383333333333677,0.10013287,-0.7467768,-0.26122156,-2.1685562,-0.18526879,1.8883538,1.0084093,0.039995283,0.039994773,-8.651724643772049,0.9193997620246326,4.17901973245287,0.19199513697555814,-0.2576207891817935,0.011856367872535382
15.400000000000345,0.10109683,-0.7464144,-0.2637417,-2.1667457,-0.18705496,1.8914142,1.0105538,0.039995283,0.039994773,-8.934553816351364,0.9383128451680295,4.2304629080736005,0.19403700156507356,-0.2566921661895142,0.013010490805035682
15.416666666667012,0.1020599,-0.7460524,-0.2662596,-2.1649363,-0.1888395,1.8944718,1.0126963,0.039995275,0.039994765,-8.883244959252847,0.9470580674925648,4.403796319392978,0.1930850038299812,-0.2591764680458129,0.016191864538533992
15.43333333333368,0.10302197,-0.7456909,-0.26877478,-2.1631284,-0.19062209,1.8975261,1.0148365,0.03999528,0.039994773,-8.660116115571537,1.0528411075087845,4.161986222954014,0.19339581166058856,-0.2514801396461652,0.012533415122495012
15.450000000000347,0.103982925,-0.7453297,-0.27128708,-2.1613226,-0.19240256,1.900577,1.0169744,0.039995275,0.03999477,-8.596746121402795,1.0433613568468423,4.1353454547958055,0.18944041141401496,-0.25798673023061774,0.010421611162419513
15.466666666667015,0.10494261,-0.74496883,-0.27379605,-2.1595197,-0.19418067,1.9036235,1.0191094,0.039995275,0.03999477,-8.683207104506984,0.9524604106465523,4.114973514657489,0.1946929241908231,-0.255985163668077,0.01214445569509565
15.483333333333682,0.10590092,-0.7446087,-0.2763014,-2.1577187,-0.19595625,1.9066658,1.0212414,0.039995275,0.03999477,-8.835741209304066,1.3425178651894394,4.091104367917686,0.19518847730800143,-0.258416573840353,0.014253335366519279
15.50000000000035,0.106857784,-0.7442491,-0.27880293,-2.155921,-0.19772907,1.909704,1.02337,0.03999528,0.039994773,-8.731531952970105,0.8256093389250174,4.445056970403715,0.19417275018654367,-0.2508157102263715,0.018323401852653732
15.516666666667017,0.107813045,-0.7438901,-0.2813003,-2.154126,-0.19949888,1.9127365,1.0254952,0.039995287,0.03999478,-8.865927913631896,1.01362466774079,4.427736221398189,0.19306417956228544,-0.252673546408111,0.012245995312673128
15.533333333333685,0.1087666,-0.7435317,-0.28379303,-2.152334,-0.2012655,1.9157634,1.0276165,0.039995283,0.03999478,-8.978582875445676,0.7612905029014356,4.257240872995087,0.19448745539546405,-0.25109944996827027,0.007902918020252047
15.550000000000352,0.10971831,-0.7431742,-0.28628105,-2.1505458,-0.20302868,1.9187849,1.0297337,0.039995287,0.039994787,-9.104710373322378,1.3792527057814419,4.46244594409961,0.18858907490499915,-0.25059551997038837,0.013434827890832607
15.56666666666702,0.1106681,-0.7428173,-0.2887641,-2.148761,-0.20478821,1.9218,1.0318465,0.039995294,0.039994795,-8.377243735973583,0.6934526443685778,4.876582256082484,0.18404830757363178,-0.2556887231708831,0.009927346285408563
15.583333333333687,0.111615814,-0.7424612,-0.29124156,-2.1469805,-0.20654386,1.9248079,1.0339545,0.039995305,0.039994806,-8.6819715302308,0.9409902917863687,4.5247066261911515,0.1874199678172391,-0.24919140329151362,0.008695586266615523
15.600000000000355,0.11256135,-0.742106,-0.2937134,-2.1452034,-0.20829552,1.9278097,1.0360581,0.039995316,0.039994817,-8.774748295326201,0.9902869829162261,4.553049489190262,0.1895086464207887,-0.24960709567451292,0.015267516531100169
15.616666666667022,0.11350462,-0.74175173,-0.29617926,-2.1434312,-0.21004288,1.9308047,1.0381564,0.039995328,0.039994832,-8.69826936095011,0.8493793879155781,4.98286535728773,0.19168398799413816,-0.251894237100731,0.012224009128199168
15.63333333333369,0.11444546,-0.74139845,-0.29863888,-2.141663,-0.21178575,1.9337921,1.0402492,0.03999534,0.039994843,-8.427219983456958,1.1605185751681093,4.7856870917719,0.18774482711795076,-0.2517634557002015,0.010974728132704736
15.650000000000357,0.11538379,-0.7410461,-0.30109185,-2.1398995,-0.21352391,1.9367718,1.0423367,0.039995357,0.039994862,-8.305788285717238,1.4124532208486877,4.837458639483236,0.18830110170913086,-0.2490927637002827,0.012746286522785035
15.666666666667025,0.11631949,-0.7406947,-0.30353794,-2.1381416,-0.21525717,1.9397413,1.0444179,0.039995376,0.039994884,-8.543698311034516,0.7151820481757656,4.39955503620256,0.18695405369099388,-0.25027792387361375,0.014168776444050705
15.683333333333692,0.11725243,-0.7403442,-0.3059768,-2.1363883,-0.2169853,1.9427022,1.0464929,0.03999539,0.039994903,-8.269183885448017,1.2348282660499361,4.767515658334048,0.1839524581376219,-0.24585262426851684,0.011213789070717245
15.70000000000036,0.11818251,-0.73999506,-0.3084082,-2.1346402,-0.21870813,1.9456551,1.0485618,0.039995417,0.03999493,-8.52483760624035,1.0245364500210576,4.68680126491215,0.18890358258304818,-0.2505813969064665,0.011232017859574749
15.716666666667027,0.11910964,-0.73964703,-0.31083182,-2.132898,-0.22042543,1.9485977,1.0506241,0.039995432,0.039994948,-8.502905946779386,1.2637729796281827,4.73455552953013,0.182999605813896,-0.24619834965021392,0.011622423437168065
15.733333333333695,0.1200337,-0.73930013,-0.31324738,-2.131162,-0.222137,1.9515312,1.0526793,0.039995458,0.039994974,-8.723953300331864,1.140371702987385,5.02675668237824,0.1863744798962804,-0.2377940405503236,0.0157121349006495
15.750000000000362,0.12095454,-0.7389545,-0.31565458,-2.1294317,-0.22384265,1.9544541,1.0547274,0.039995473,0.039994992,-8.327999565379017,1.2218034790720327,4.889677357197874,0.18929647916712677,-0.24615741534171778,0.01532395451576147
15.76666666666703,0.12187211,-0.7386101,-0.31805316,-2.1277077,-0.2255421,1.9573663,1.0567681,0.039995495,0.039995015,-8.618200226501523,1.4163921136006867,4.881422762918685,0.1885569613134797,-0.23910020657595735,0.010179911922773533
15.783333333333697,0.12278625,-0.73826694,-0.32044283,-2.12599,-0.22723526,1.9602678,1.0588012,0.03999551,0.039995033,-8.51841719469655,1.0577247361896285,4.757055081126146,0.1847818007171998,-0.23709649297502985,0.01289701623537678
15.800000000000365,0.12369686,-0.7379252,-0.32282326,-2.1242783,-0.22892182,1.963158,1.0608264,0.039995532,0.039995056,-8.332571199503462,1.34358956658259,4.985076798647166,0.181446565536028,-0.2365308476033033,0.013726246845162061
15.816666666667032,0.12460385,-0.7375848,-0.32519418,-2.1225736,-0.23060162,1.9660369,1.0628436,0.039995547,0.039995074,-8.526742963194053,1.3305893705341743,4.61587199618974,0.18470416765395326,-0.24078611985816994,0.018778147084079638
15.8333333333337,0.12550715,-0.73724604,-0.32755524,-2.1208763,-0.2322745,1.9689037,1.0648527,0.03999557,0.039995097,-8.23193079816177,1.2606703387450011,4.937345233423221,0.17812821671991885,-0.23573141388301572,0.01289496621458176
15.850000000000367,0.12640654,-0.73690856,-0.32990626,-2.119186,-0.23394026,1.9717585,1.0668532,0.039995596,0.039995126,-7.56379581754451,1.3398444089007515,4.978969415776718,0.1808584052796105,-0.23764588006928244,0.010566944732896046
15.866666666667035,0.12730198,-0.7365725,-0.332247,-2.1175032,-0.23559864,1.9746006,1.0688447,0.03999563,0.039995164,-8.282383264726185,1.1739936431638562,5.208787767322461,0.1762857259290162,-0.2312946181117017,0.010119390587266857
15.883333333333702,0.12819342,-0.736238,-0.3345771,-2.115828,-0.23724948,1.9774297,1.0708275,0.03999565,0.039995186,-8.093877784681773,1.656163829362912,4.819405940997456,0.17793705910213106,-0.23254097684462854,0.012009293513970001
15.90000000000037,0.12908065,-0.73590523,-0.33689636,-2.1141608,-0.23889261,1.9802458,1.0728008,0.039995678,0.039995216,-8.309286312288721,1.036544379898977,5.15535268099678,0.17797025930649726,-0.23240689784202762,0.012140640204143528
15.916666666667037,0.1299637,-0.735574,-0.3392044,-2.1125019,-0.24052782,1.9830484,1.0747647,0.039995704,0.039995242,-8.26086191575522,1.1726451605412591,4.686088762675726,0.17341195273104681,-0.2279283170166155,0.008847410785346167
15.933333333333705,0.13084237,-0.73524445,-0.3415011,-2.1108508,-0.24215494,1.9858369,1.0767187,0.039995726,0.039995268,-7.95291665214017,0.9832606743211822,5.1445323408655,0.1701892608372775,-0.23393563809451623,0.011311461187575146
15.950000000000372,0.13171652,-0.7349165,-0.34378606,-2.1092083,-0.24377377,1.9886111,1.0786628,0.03999576,0.039995305,-8.295300990680916,1.7315821901018151,4.9381166109031085,0.17267791832222185,-0.2329688701144715,0.014309268073696355
15.96666666666704,0.13258609,-0.73459035,-0.34605914,-2.107575,-0.24538411,1.9913709,1.0805967,0.03999579,0.03999534,-8.275600632131187,1.2662227805538,5.4658072264315205,0.17558586571951465,-0.22541211167753075,0.008546912005059495
15.983333333333707,0.13345104,-0.734266,-0.34831998,-2.1059499,-0.24698581,1.994116,1.0825202,0.039995827,0.03999538,-8.282257536770576,1.0429253004192232,5.339665179188644,0.1690357477000141,-0.22660605565351516,0.009496550302777445
16.000000000000373,0.13431123,-0.7339435,-0.35056832,-2.1043336,-0.24857864,1.9968458,1.0844336,0.039995864,0.03999542,-8.003376701707927,1.5617457196026165,5.377548314246011,0.17171082733475593,-0.22619284208309853,0.013346714827191875
16.01666666666704,0.13516657,-0.73362297,-0.35280392,-2.1027267,-0.25016236,1.9995601,1.0863361,0.0399959,0.039995458,-8.16671268317603,1.3787492935585033,5.097762253441772,0.16960205376910903,-0.22750663542174815,0.012431490800116731
16.033333333333704,0.13601695,-0.73330426,-0.35502657,-2.1011288,-0.2517369,2.0022585,1.0882272,0.03999594,0.0399955,-7.981641993473202,1.3156264587024713,5.225350399848726,0.16645226018223191,-0.22208693759920883,0.00858358550546566
16.05000000000037,0.13686226,-0.73298746,-0.35723603,-2.099541,-0.25330207,2.0049412,1.0901071,0.039995976,0.03999554,-7.972303993570562,1.6453616443144623,5.594484519126635,0.17032071400823506,-0.22144025635528553,0.005713097698888138
16.066666666667036,0.1377024,-0.73267263,-0.35943198,-2.097962,-0.2548577,2.0076077,1.0919752,0.039996002,0.039995566,-7.678984603208405,1.4610223487124447,5.250778640731714,0.1703525129718594,-0.2191161274622024,0.00976453064114391
16.0833333333337,0.13853732,-0.73235995,-0.3616142,-2.096393,-0.2564036,2.0102577,1.0938319,0.03999604,0.039995607,-8.08428540767715,1.974351153947681,5.3435171485828095,0.1695143555084778,-0.2214602620911505,0.013059613927664752
16.100000000000367,0.13936687,-0.73204917,-0.3637824,-2.0948346,-0.25793958,2.0128899,1.0956767,0.039996073,0.039995644,-8.009500371469596,1.6312906896591477,5.052901983575519,0.16241822566594424,-0.21904153484760297,0.012666446156595972
16.116666666667033,0.14019099,-0.73174036,-0.36593637,-2.0932858,-0.25946552,2.015505,1.0975089,0.039996102,0.039995678,-7.9962964336202775,1.198579661814078,5.523104248708419,0.1642476030388774,-0.21412031054811306,0.008439933403744215
16.1333333333337,0.1410096,-0.73143363,-0.36807597,-2.0917475,-0.26098123,2.0181031,1.0993292,0.03999614,0.03999572,-8.043978560192885,1.612289292741499,5.54084570448578,0.1649997254159645,-0.21780114069439768,0.012342375989627122
16.150000000000365,0.14182262,-0.73112917,-0.3702008,-2.0902205,-0.26248634,2.0206823,1.101137,0.03999618,0.03999576,-7.941284604249049,1.8186931970955686,5.364615658062426,0.1623473140224562,-0.21936504303206308,0.013799951298665552
16.16666666666703,0.14262988,-0.7308269,-0.37231076,-2.088703,-0.26398104,2.0232444,1.102932,0.039996225,0.03999581,-8.01426561793633,1.8415148991977026,5.6464231514793735,0.16594882315575288,-0.21040038956067858,0.00788115449774579
16.183333333333696,0.14343138,-0.73052686,-0.3744056,-2.087197,-0.26546493,2.0257869,1.1047143,0.03999627,0.039995857,-7.807754192508174,1.5020521153349633,4.870571199711088,0.15675688182994205,-0.21006285968296903,0.008145490420320518
16.20000000000036,0.14422701,-0.73022896,-0.37648505,-2.085702,-0.26693794,2.0283115,1.106483,0.039996307,0.039995898,-8.281662363577395,1.4352220760805459,5.470904111741378,0.1527936363337751,-0.20791876045316487,0.007769633280792464
16.216666666667027,0.14501669,-0.7299333,-0.37854892,-2.0842185,-0.26839998,2.030817,1.1082388,0.039996356,0.03999595,-8.011136174686387,1.3599833797025895,5.399749473774363,0.15522952802241646,-0.2080901804311491,0.010045149882789121
16.233333333333693,0.14580032,-0.72963977,-0.38059694,-2.0827463,-0.26985067,2.0333035,1.1099812,0.039996397,0.039995994,-7.378113044402378,1.4283581269412389,5.568482843508776,0.1572500387065303,-0.20398040367325043,0.00775896921660997
16.25000000000036,0.14657778,-0.7293485,-0.38262892,-2.0812852,-0.27129006,2.0357707,1.1117098,0.03999643,0.03999603,-7.860509414312237,1.5292710790388822,5.194604785989595,0.1496636452832115,-0.2016226280172817,0.011137081169979877
16.266666666667025,0.14734903,-0.72905993,-0.38464466,-2.0798361,-0.27271786,2.0382175,1.1134247,0.03999648,0.039996084,-7.884394700898969,1.8061557151821492,5.519068165905321,0.15133657477068835,-0.2020065232087192,0.01085434768104509
16.28333333333369,0.14811401,-0.7287736,-0.38664392,-2.078399,-0.27413404,2.0406446,1.1151253,0.039996523,0.039996132,-7.971329587109386,1.38351478704411,5.712607425213494,0.15656313429231508,-0.20333924455738717,0.012285108657752033
16.300000000000356,0.1488726,-0.72848964,-0.3886265,-2.0769737,-0.27553836,2.0430515,1.116812,0.039996557,0.03999617,-7.953540221562773,1.9201688852100869,5.561674434426678,0.15224619059618633,-0.2010413758439763,0.007844726414458564
16.31666666666702,0.1496247,-0.7282081,-0.39059222,-2.0755608,-0.2769308,2.045438,1.118484,0.039996598,0.039996214,-7.988373085995616,1.8644924997494372,5.5509633903496285,0.1469354794470122,-0.19750622008879515,0.007561349087780679
16.333333333333687,0.1503703,-0.7279292,-0.39254084,-2.07416,-0.27831113,2.047804,1.1201417,0.039996643,0.039996263,-7.441072038021105,1.7436082750787176,5.939439096060716,0.1490812580627113,-0.19597395531330913,0.010442044564068846
16.350000000000353,0.15110935,-0.7276527,-0.39447233,-2.0727713,-0.27967924,2.050149,1.1217848,0.03999669,0.039996315,-7.952838147235931,1.6772557007515312,5.846537629625422,0.15151367782806038,-0.19359525768470975,0.006873425294710177
16.36666666666702,0.15184166,-0.7273788,-0.39638633,-2.071395,-0.28103495,2.0524726,1.1234131,0.03999674,0.039996367,-7.663383160913114,1.6318431198618284,5.6105327949525705,0.14320973650342514,-0.190626275940348,0.006770686176088175
16.383333333333685,0.15256731,-0.7271074,-0.39828262,-2.0700316,-0.28237814,2.0547745,1.1250262,0.03999678,0.03999641,-8.146776241866977,1.8674455782569248,5.738370125520895,0.14307665919423065,-0.1954727527161637,0.005943786781813317
16.40000000000035,0.15328614,-0.7268385,-0.40016115,-2.068681,-0.2837087,2.057055,1.1266243,0.03999683,0.039996464,-7.679774120146128,1.863447168581102,5.867883224068932,0.14224749292689826,-0.19110244919869557,0.014226212202257118
16.416666666667016,0.15399812,-0.7265723,-0.4020216,-2.0673432,-0.28502655,2.0593133,1.1282072,0.03999687,0.03999651,-7.714470564379526,1.8813679797834788,5.694724942944641,0.13906336873892103,-0.18977430190090921,0.01235479065415426
16.43333333333368,0.15470311,-0.7263088,-0.40386394,-2.0660188,-0.28633153,2.0615494,1.1297746,0.03999691,0.039996553,-7.33551685242541,1.8349827144979827,6.085820776677716,0.13701409561845743,-0.1858770318468915,0.010968011851970626
16.450000000000347,0.15540105,-0.7260479,-0.4056879,-2.064708,-0.2876235,2.0637636,1.1313268,0.03999696,0.039996605,-7.780646930855847,1.9746775216098325,5.338181989415935,0.1369262375761274,-0.18411752105472223,0.007393238573014514
16.466666666667013,0.15609196,-0.7257897,-0.40749338,-2.0634093,-0.28890237,2.0659552,1.1328633,0.039997008,0.03999666,-7.750939303758171,1.8300814147525388,5.778168311239384,0.13539122106409757,-0.18673084459414352,0.014954256085915921
16.48333333333368,0.15677567,-0.72553426,-0.4092801,-2.0621247,-0.29016802,2.068124,1.1343837,0.039997056,0.039996713,-7.396653438560658,2.088501535247443,6.161582062105455,0.13532354992826354,-0.18581702909102563,0.011419336839799595
16.500000000000345,0.1574522,-0.72528136,-0.41104814,-2.0608535,-0.29142025,2.07027,1.1358869,0.0399971,0.03999676,-7.465819228689784,1.8422070391696321,5.5747443327902815,0.13473075481128374,-0.18130507155595843,0.009794768204356454
16.51666666666701,0.15812148,-0.72503114,-0.41279703,-2.059596,-0.29265913,2.0723934,1.1373742,0.03999714,0.039996807,-7.488673585387768,1.626613553696159,5.656107166531958,0.13136235912489988,-0.17846359668165782,0.009056293714806186
16.533333333333676,0.15878345,-0.72478384,-0.41452685,-2.058353,-0.2938844,2.0744932,1.1388454,0.039997183,0.03999685,-7.6015861617324365,2.048672876893318,5.818845361021259,0.1296579041684622,-0.1745059607100478,0.008376481230919542
16.55000000000034,0.159438,-0.7245392,-0.41623735,-2.0571232,-0.29509592,2.07657,1.1403006,0.039997227,0.0399969,-7.7450649645241345,2.1068827431659547,5.848187162110965,0.12994010536864553,-0.17343040421747535,0.009046512851694907
16.566666666667007,0.16008511,-0.7242975,-0.41792846,-2.0559075,-0.2962937,2.078623,1.1417391,0.039997272,0.039996948,-7.25820811500187,1.9778149308372057,5.901379400893744,0.1251668690986174,-0.17307105494804903,0.006170832551776789
16.583333333333673,0.16072474,-0.72405845,-0.41959992,-2.0547059,-0.2974776,2.0806525,1.1431608,0.039997324,0.039997004,-7.556777045605528,2.0107645695048477,6.188967089766703,0.11999056137671874,-0.16618264697942975,0.007064364455841164
16.60000000000034,0.16135687,-0.7238224,-0.42125174,-2.0535183,-0.29864755,2.082657,1.1445656,0.039997373,0.03999706,-7.512389208482812,2.1557666126262323,6.164348598899656,0.12441869328037027,-0.16731369968754708,0.007683003257870906
16.616666666667005,0.16198139,-0.72358906,-0.42288366,-2.0523448,-0.29980338,2.0846376,1.1459538,0.039997417,0.03999711,-7.293252895307798,2.0840671658688947,5.8308789848808775,0.12637737627821616,-0.17411429988589225,0.013052968489070194
16.63333333333367,0.16259827,-0.72335875,-0.4244957,-2.0511854,-0.30094516,2.0865946,1.1473249,0.03999746,0.039997153,-7.60624973797,2.4583593177083887,5.8051265777135,0.1203316585809137,-0.1624726236361513,0.008718899182037774
16.650000000000336,0.16320746,-0.72313124,-0.42608762,-2.0500402,-0.30207273,2.088527,1.148679,0.03999751,0.03999721,-7.229209037253989,2.185930670830956,5.63375586137621,0.11838888552957878,-0.16508899740937588,0.001702259643925691
16.666666666667002,0.16380893,-0.7229066,-0.42765945,-2.0489101,-0.303186,2.0904346,1.1500157,0.03999756,0.03999726,-7.333301957448571,1.8567870273178964,6.096704565905012,0.1105949585459093,-0.156495541101181,0.010572389356513537
16.683333333333668,0.16440262,-0.72268486,-0.42921087,-2.0477946,-0.30428484,2.0923178,1.1513355,0.039997607,0.039997313,-7.633625664799241,1.8360893291397993,6.0289075313895575,0.11316900161339422,-0.1597171947010395,0.011078361045221823
16.700000000000333,0.16498849,-0.7224662,-0.43074188,-2.0466933,-0.3053692,2.094176,1.1526375,0.03999765,0.039997358,-7.384228632260163,2.007252280148556,6.207012288866354,0.11169226100806454,-0.15796897007512475,0.004235098766441071
16.716666666667,0.16556653,-0.7222504,-0.4322524,-2.0456073,-0.30643904,2.0960093,1.1539223,0.039997693,0.03999741,-7.5202244245161864,2.1295518836471135,6.2393521055922285,0.10783434169688011,-0.1564507085917586,0.007864404929846443
16.733333333333665,0.16613668,-0.7220377,-0.4337423,-2.044536,-0.3074943,2.097818,1.1551894,0.039997738,0.03999746,-7.546312418888536,2.1786417907019673,5.943448603797333,0.1099982248327459,-0.1539273607380294,0.009482614051141789
16.75000000000033,0.16669896,-0.7218279,-0.43521148,-2.04348,-0.30853492,2.099601,1.156439,0.03999778,0.039997503,-7.1414860951342325,2.304822004630563,6.153786505257603,0.11560411824085778,-0.15353899947390406,0.009847737557704152
16.766666666666996,0.16725327,-0.72162104,-0.43665984,-2.0424385,-0.30956087,2.101359,1.1576705,0.039997835,0.039997563,-7.392143092102985,2.129283465144027,5.76617023041512,0.10700708055287682,-0.1458058745550252,0.01158074701788968
16.783333333333662,0.16779962,-0.7214172,-0.4380874,-2.041412,-0.31057197,2.1030915,1.1588843,0.039997876,0.039997607,-7.362221413879665,2.45697362150768,6.074792603282058,0.1075317090257051,-0.13924874257535125,0.003925714980719724
16.800000000000328,0.16833793,-0.7212163,-0.43949404,-2.040401,-0.31156826,2.1047983,1.1600809,0.039997913,0.03999765,-7.186678568511642,2.0306979879139266,5.951066348253985,0.10717227055685838,-0.1491253060373558,0.010327635116458646
16.816666666666993,0.16886818,-0.72101855,-0.44087952,-2.0394056,-0.31254956,2.1064796,1.161259,0.039997958,0.0399977,-6.890934679401886,2.0938383438822723,6.380759774199407,0.10540972477717256,-0.1407385040800143,0.009028244584148278
16.83333333333366,0.16939044,-0.72082376,-0.4422441,-2.0384252,-0.313516,2.1081357,1.1624196,0.039998006,0.039997753,-7.201072605467211,1.9789302495772438,6.381830862805725,0.10102624682757876,-0.14044217068482706,0.008291808414982003
16.850000000000325,0.16990457,-0.72063196,-0.44358754,-2.0374596,-0.31446746,2.109766,1.1635622,0.039998055,0.039997805,-7.817749142946688,2.396063296971483,6.192769328228383,0.09237202106068933,-0.13713893602612054,0.005886195580601479
16.86666666666699,0.17041063,-0.7204432,-0.44490975,-2.0365095,-0.3154039,2.1113703,1.1646864,0.039998095,0.03999785,-7.235750876189693,2.2129896977280934,6.28801950598626,0.09889887452886403,-0.1388923956701913,0.007096475578022764
16.883333333333656,0.17090853,-0.72025764,-0.4462107,-2.0355744,-0.3163253,2.1129494,1.1657925,0.039998136,0.039997894,-6.681327774933638,2.1782945029300556,6.180302299113571,0.09675241820017674,-0.13260641596787964,0.00993835237433012
16.900000000000322,0.17139825,-0.720075,-0.4474904,-2.0346544,-0.3172317,2.1145031,1.1668808,0.03999818,0.039997946,-7.172616218299587,2.068646193219295,6.2518929810158,0.0924974599840526,-0.13344090401753575,0.01393567062992752
16.916666666666988,0.1718799,-0.7198954,-0.44874886,-2.0337493,-0.31812298,2.1160305,1.1679511,0.039998226,0.039997995,-7.357962511384763,2.3262346164411243,6.1735618679821505,0.09417383377259837,-0.127374355276493,0.006711308215274454
16.933333333333653,0.17235336,-0.71971893,-0.4499859,-2.0328598,-0.31899914,2.117531,1.1690029,0.03999827,0.039998043,-7.142891714902635,2.089466688176991,6.282038641759479,0.09530651348086855,-0.13033144114016446,0.009988832197364312
16.95000000000032,0.1728186,-0.7195456,-0.45120162,-2.0319853,-0.3198601,2.1190069,1.1700366,0.039998308,0.039998084,-6.988577392526493,2.261012633077529,6.433959152166587,0.09323313271010766,-0.12575823451905013,0.006086621180210472
16.966666666666985,0.17327566,-0.71937525,-0.45239586,-2.0311263,-0.3207059,2.1204562,1.1710523,0.039998356,0.039998136,-7.211248147795363,2.6334988008132942,6.332469844503573,0.0887743167190685,-0.1287484082601805,0.008625772450721629
16.98333333333365,0.17372455,-0.719208,-0.45356876,-2.0302825,-0.3215366,2.1218793,1.1720501,0.03999841,0.039998192,-7.016863297592554,1.916849541587478,6.219524999472985,0.08101318364478312,-0.11951426969661458,0.005111691764605762
17.000000000000316,0.17416528,-0.7190439,-0.4547202,-2.0294545,-0.32235208,2.123277,1.1730294,0.03999845,0.039998237,-7.301799099145631,2.3861231243007497,6.2923230772063645,0.08065119655155191,-0.12217282898346878,0.003715574385330738
17.016666666666982,0.17459777,-0.71888274,-0.45585027,-2.028642,-0.3231525,2.124648,1.1739901,0.039998494,0.039998285,-6.978336989453457,2.0064473943672225,6.0366697389717885,0.07807137066407442,-0.11511339941626197,0.00797956503599864
17.033333333333648,0.1750221,-0.71872485,-0.45695907,-2.0278451,-0.32393768,2.125994,1.1749326,0.039998535,0.039998334,-7.155187899757193,2.249236712592236,6.173183514166104,0.0794225747422879,-0.11778559396142153,0.008986209358096584
17.050000000000313,0.17543823,-0.7185697,-0.45804635,-2.0270636,-0.32470787,2.1273131,1.1758573,0.039998583,0.039998382,-7.24630149271986,2.518875824847527,6.565601202609508,0.07718304998475504,-0.11723695319213469,0.010314679328052941
17.06666666666698,0.17584616,-0.71841806,-0.45911226,-2.0262976,-0.32546264,2.1286068,1.1767635,0.039998624,0.039998427,-7.314138624986472,2.5893442146838517,6.301786975643528,0.08085215027806547,-0.11296303263923754,0.008714966043257333
17.083333333333645,0.17624597,-0.718269,-0.46015677,-2.0255473,-0.32620236,2.1298742,1.1776516,0.03999867,0.039998475,-6.812080747311968,2.3783348482937376,6.130790814534289,0.07756344133316406,-0.11753560502364677,0.015327097488362031
17.10000000000031,0.17663765,-0.7181233,-0.46118,-2.0248117,-0.32692698,2.1311154,1.1785219,0.03999871,0.039998516,-7.136130453929895,2.341260253030948,6.435078916604514,0.07547662278926909,-0.10964787892824616,0.012631574165138373
17.116666666666976,0.17702115,-0.71798044,-0.4621819,-2.0240915,-0.3276365,2.1323311,1.1793736,0.03999876,0.03999857,-7.179527019857788,2.4144176553375956,6.238866349524209,0.06848251013323324,-0.10617024302200494,0.004418849455374943
17.133333333333642,0.17739652,-0.71784085,-0.4631626,-2.0233862,-0.32833105,2.1335208,1.1802073,0.0399988,0.039998613,-6.983886455725314,2.6162436115366576,6.386423213257497,0.06501439995173122,-0.0994412915784289,0.006287911813178392
17.150000000000308,0.17776377,-0.717704,-0.46412212,-2.0226963,-0.32901046,2.134685,1.1810226,0.039998844,0.039998658,-7.4016934121375995,2.0483205688720014,6.604271685567285,0.0641418241005761,-0.10202293373078224,0.005141133403095307
17.166666666666973,0.17812292,-0.71757054,-0.4650604,-2.0220213,-0.3296748,2.1358237,1.1818204,0.039998878,0.039998695,-7.031834661898852,2.3261724557622405,6.611363712513361,0.06236792390979419,-0.09647120947181821,0.007364441064948281
17.18333333333364,0.17847402,-0.7174397,-0.46597776,-2.021361,-0.33032438,2.136937,1.1826001,0.039998915,0.039998736,-7.4099877429624845,2.9563085277149015,6.5322324759699555,0.06205548634351033,-0.09153550229156934,-0.00012763763091769957
17.200000000000305,0.17881706,-0.7173123,-0.466874,-2.020716,-0.330959,2.1380239,1.1833621,0.039998956,0.039998777,-6.945144446822546,2.4668011717972282,6.500817475742128,0.062358685364125865,-0.09918061283619736,0.004908064231578761
17.21666666666697,0.17915209,-0.71718764,-0.46774924,-2.0200863,-0.3315788,2.1390862,1.1841065,0.039999,0.039998822,-7.232941935997368,2.4535364455693345,6.383233876548732,0.06598367168087421,-0.09577520816110625,0.010939905166247762
17.233333333333636,0.1794791,-0.71706617,-0.46860373,-2.0194721,-0.33218384,2.1401224,1.1848329,0.039999038,0.039998867,-7.05633894238109,2.5183293178169235,6.462119589284579,0.0648889203241433,-0.09955949071618929,0.009699440931467178
17.250000000000302,0.17979817,-0.7169476,-0.4694373,-2.0188723,-0.33277413,2.1411335,1.1855417,0.039999083,0.03999891,-6.848458267896764,2.3969910291208194,6.045104258859366,0.06327956480540611,-0.09234307817109481,0.009276276321377971
17.266666666666968,0.18010932,-0.71683204,-0.47025037,-2.0182874,-0.3333499,2.1421196,1.1862329,0.03999913,0.03999896,-6.544032584565455,2.6886157122295904,6.21650363806522,0.05777198987064839,-0.08880024393570031,0.008146063704592454
17.283333333333633,0.18041265,-0.7167193,-0.47104278,-2.0177174,-0.33391097,2.1430807,1.1869067,0.03999917,0.039999,-7.098976986758818,2.0796721829655014,6.536772333127892,0.05650647426269007,-0.08864287167728004,0.011277030032695652
17.3000000000003,0.18070811,-0.71660924,-0.47181463,-2.0171623,-0.33445755,2.1440177,1.1875627,0.039999202,0.039999034,-7.00102620624033,2.7341920535097577,6.426123764210995,0.04762269893795217,-0.08838692956598025,0.008097839672305235
17.316666666666965,0.18099579,-0.7165025,-0.47256622,-2.016622,-0.3349897,2.1449287,1.1882017,0.039999228,0.039999064,-7.1124366508942805,2.665798080933347,6.479139978260385,0.04687210906837497,-0.08375563679656825,0.004569704766235199
17.33333333333363,0.18127574,-0.7163984,-0.4732976,-2.0160964,-0.3355075,2.1458163,1.1888235,0.039999276,0.039999112,-7.032734748282198,2.3203016791901794,6.783694797758863,0.046307563141197085,-0.0797836568896256,0.00866266508561975
17.350000000000296,0.18154794,-0.71629745,-0.47400886,-2.015585,-0.3360111,2.1466792,1.189428,0.039999325,0.039999165,-7.229235908172242,2.314465515423927,6.4082823526775465,0.04787425739455529,-0.08054058392167547,0.010922135218741712
17.366666666666962,0.1818126,-0.71619904,-0.47470015,-2.0150878,-0.33650053,2.1475174,1.1900156,0.03999937,0.039999213,-7.076601308152734,2.573322554928065,6.399790552687289,0.04690749799946263,-0.07687469195626727,0.010499832558558386
17.383333333333628,0.1820696,-0.71610373,-0.47537157,-2.0146055,-0.33697596,2.1483316,1.1905863,0.039999407,0.03999926,-6.925353303442146,2.333861979334446,6.695726398936789,0.044202659878434296,-0.07334181335874072,0.007383724962314691
17.400000000000293,0.18231909,-0.71601117,-0.4760234,-2.0141377,-0.33743748,2.1491227,1.1911398,0.03999946,0.03999933,-6.812550788957873,2.4545765745499617,6.275098071764746,0.042649339466767175,-0.07469515726342356,0.008198377887833728
17.41666666666696,0.1825611,-0.7159211,-0.47665575,-2.0136843,-0.33788517,2.1498902,1.1916772,0.039999504,0.039999392,-6.797911475960362,2.6176292239990158,6.182131228700609,0.04629849593863457,-0.07489232927665043,0.0076181002807693176
17.433333333333625,0.18279576,-0.71583414,-0.47726873,-2.0132442,-0.33831912,2.1506336,1.192198,0.03999954,0.039999463,-6.789628930760143,2.628123774660076,6.044336564504166,0.043436561532774955,-0.07061703966270359,0.00534681731960089
17.45000000000029,0.1830231,-0.71574974,-0.47786245,-2.0128171,-0.33873945,2.1513536,1.1927028,0.039999582,0.039999537,-6.795823077227198,2.9021693866941414,6.711391293660121,0.043790831784880954,-0.06819949038038894,0.008312021721286521
17.466666666666956,0.18324313,-0.7156679,-0.47843727,-2.012404,-0.3391463,2.1520505,1.1931914,0.039999627,0.039999638,-6.660967370987363,2.384786899531464,6.328749751797848,0.03589957553642005,-0.0680843189697758,0.006654006766188693
17.483333333333622,0.18345596,-0.71558905,-0.4789933,-2.0120046,-0.33953983,2.152725,1.1936642,0.039999664,0.039999735,-7.107811932354258,2.8058475322995426,6.218900800582353,0.040343489815772446,-0.06631100636459421,0.0057468007770324235
17.500000000000288,0.18366173,-0.7155128,-0.47953066,-2.011619,-0.3399203,2.1533768,1.1941205,0.039999694,0.03999986,-6.9982930980679,2.7471525234819762,6.582482007888039,0.03570086586002285,-0.06597917620410029,0.00748040629248801
17.516666666666953,0.1838604,-0.71543884,-0.48004976,-2.0112467,-0.34028774,2.1540062,1.1945615,0.039999716,0.039999977,-7.034071319992252,2.4269994500957175,6.565151644703032,0.030191139069519576,-0.06128281698216344,0.004763086738478932
17.53333333333362,0.18405217,-0.71536773,-0.48055053,-2.0108864,-0.3406421,2.1546135,1.1949868,0.039999716,0.04,-6.848289346752908,2.2073825517666235,6.478551494476558,0.02923090557000383,-0.057290927243495535,0.011188418107921903
17.550000000000285,0.18423705,-0.7152994,-0.48103353,-2.0105395,-0.3409838,2.1551988,1.195397,0.039999727,0.04,-6.77288096053647,2.5751059614869165,6.823614102941087,0.032707527494251716,-0.06365032696085862,0.009838982663324796
17.56666666666695,0.18441513,-0.7152334,-0.4814986,-2.0102057,-0.34131286,2.1557624,1.1957922,0.039999727,0.04,-6.962758509495252,2.335637555206225,6.487047798293427,0.02764166132535602,-0.06063479141237278,0.007241641580761131
17.583333333333616,0.18458655,-0.71516967,-0.48194617,-2.0098836,-0.34162948,2.1563048,1.1961725,0.039999727,0.04,-6.7766206458229705,2.7651991925000483,6.536880157020051,0.026481687839155804,-0.05564639994157195,0.002226916650945767
17.600000000000282,0.18475135,-0.7151087,-0.48237655,-2.0095744,-0.34193397,2.156827,1.1965379,0.039999723,0.04,-6.776186564710741,2.61596863969424,6.299295113346195,0.028910646907729022,-0.054669861121355794,0.009802683572677662
17.616666666666948,0.1849096,-0.71505016,-0.4827899,-2.0092776,-0.3422262,2.1573288,1.1968889,0.039999723,0.04,-6.874652962401504,2.526080397328018,6.403342129256562,0.02595828729686142,-0.05032601328224096,0.008910374406303878
17.633333333333614,0.1850615,-0.714994,-0.48318654,-2.0089927,-0.34250665,2.1578097,1.1972262,0.039999723,0.04,-6.668553649377226,2.1600413320600254,6.61704327149026,0.02293566251400073,-0.04520484473535012,0.0020970817049110464
17.65000000000028,0.18520705,-0.71493995,-0.48356673,-2.0087202,-0.34277543,2.1582701,1.1975491,0.039999716,0.04,-6.892395638219499,2.7144852890606725,6.454944360264677,0.025054399023639196,-0.04868271437296296,0.010743596879748414
17.666666666666945,0.18534642,-0.7148882,-0.4839307,-2.0084589,-0.34303284,2.1587117,1.197858,0.039999712,0.04,-6.527655456002927,2.4731184193582325,6.255329054232132,0.023039818662675352,-0.04864668203280655,0.002203102972240968
17.68333333333361,0.18547975,-0.7148388,-0.48427877,-2.0082095,-0.34327897,2.159134,1.1981537,0.039999712,0.04,-6.976361844577585,2.6404260068895313,6.8265348305826725,0.023699377750859264,-0.045196252389898085,0.009484464540084116
17.700000000000276,0.18560708,-0.71479183,-0.48461124,-2.0079708,-0.34351403,2.1595368,1.1984359,0.039999705,0.04,-6.783686009735967,2.460903516405929,6.601261643418227,0.02089295859015135,-0.045452862884126706,0.009110176265145558
17.716666666666942,0.18572852,-0.71474713,-0.48492834,-2.0077434,-0.34373817,2.1599212,1.198705,0.0399997,0.04,-6.851257518357472,2.895166980836093,6.530383638565378,0.02048303832180727,-0.04112390310915575,0.009683493022925507
17.733333333333608,0.18584429,-0.71470445,-0.48523048,-2.0075262,-0.3439518,2.1602876,1.1989615,0.039999694,0.04,-7.064529019312653,2.4700616037531233,6.715427947625109,0.017285683261146715,-0.034256981783320414,0.00659423527624436
17.750000000000274,0.18595439,-0.71466386,-0.48551792,-2.0073192,-0.34415495,2.1606357,1.1992055,0.03999969,0.04,-6.8898651833676565,2.3852987287271423,6.454850059985168,0.024164888257265205,-0.0440900344031207,0.008244392661754118
17.76666666666694,0.18605904,-0.7146253,-0.48579106,-2.007123,-0.34434792,2.1609666,1.1994371,0.039999686,0.04,-6.846318616746889,2.412729915496209,6.264712930143888,0.01794773317201943,-0.0402517851333489,0.010974040527531086
17.783333333333605,0.18615831,-0.71458864,-0.4860501,-2.006937,-0.34453094,2.1612806,1.1996572,0.039999686,0.04,-6.505645009073156,2.7887933450909843,6.75479444180889,0.010351198557499245,-0.03122720545860295,0.0003406136396475631
17.80000000000027,0.18625237,-0.7145539,-0.4862955,-2.0067601,-0.34470433,2.161578,1.1998656,0.039999686,0.04,-6.7080999562301855,2.6716860131222226,6.542676476735157,0.011219407271666449,-0.038809375734565915,0.007760652183328709
17.816666666666936,0.18634133,-0.71452105,-0.4865276,-2.006594,-0.34486824,2.161859,1.2000626,0.039999682,0.04,-6.855534420040766,2.6092751008541994,6.671393150298938,0.011382838644684805,-0.03758394458810205,0.01048265487632521
17.833333333333602,0.18642534,-0.71449006,-0.4867467,-2.0064373,-0.34502307,2.1621242,1.2002487,0.039999682,0.04,-7.049545589045921,2.4354212096420866,6.425363450778018,0.017088057348429206,-0.03332937182780612,0.005329805418602991
17.850000000000268,0.18650453,-0.71446085,-0.48695323,-2.0062892,-0.34516895,2.162374,1.2004241,0.03999968,0.04,-7.152304078262275,2.7528467092390865,6.534724659242882,0.010371506554451126,-0.030403087568761332,0.0014241817447479214
17.866666666666934,0.18657908,-0.7144335,-0.48714748,-2.0061495,-0.34530616,2.162609,1.2005886,0.03999968,0.04,-6.649940821334727,2.866242455502158,6.763053139718823,0.012536401656728494,-0.03447545237713237,0.01177805246440896
17.8833333333336,0.18664905,-0.71440774,-0.48733,-2.0060182,-0.345435,2.16283,1.2007432,0.03999967,0.04,-6.965738474630121,2.6413198633993202,6.496340247612303,0.016439032536909495,-0.035524471260443155,0.008081261847289349
17.900000000000265,0.18671472,-0.7143835,-0.48750103,-2.005895,-0.34555572,2.1630378,1.2008882,0.03999966,0.04,-6.592066500873125,2.6253873528959972,6.419511575757821,0.010696554299282166,-0.0292943580026943,0.007885287742377857
17.91666666666693,0.18677616,-0.71436095,-0.4876611,-2.0057793,-0.3456687,2.1632314,1.2010238,0.03999966,0.04,-7.023056864175599,2.7240061618614715,6.55858432198604,0.006912665849383581,-0.03201812691563217,0.004489729143970253
17.933333333333596,0.18683353,-0.7143399,-0.48781052,-2.0056715,-0.34577405,2.1634116,1.2011502,0.039999664,0.04,-7.163140919990391,2.6233791708059884,6.465371637906938,0.0067577542101486575,-0.02755016239323652,0.005336630072645045
17.950000000000262,0.18688704,-0.71432036,-0.48794976,-2.005571,-0.34587234,2.1635807,1.2012683,0.039999664,0.04,-6.871241127773556,2.787163369934876,6.854152533800587,0.009914699084037405,-0.028454768844745796,0.005753759404783861
17.966666666666928,0.18693683,-0.71430194,-0.48807925,-2.0054777,-0.34596366,2.163737,1.201378,0.039999664,0.04,-6.996811785658117,2.7208192421473743,6.422058056381998,0.0073995797701978,-0.0265074625617613,0.0018915192481317614
17.983333333333594,0.18698305,-0.714285,-0.48819956,-2.0053914,-0.34604847,2.1638827,1.2014797,0.039999664,0.04,-6.604464530675681,3.0517101819731685,6.626529770386228,0.0005286461381564172,-0.026229935944191554,0.005837610200442344
18.00000000000026,0.18702587,-0.7142695,-0.488311,-2.005312,-0.34612697,2.1640172,1.2015738,0.039999664,0.04,-6.733081142818329,2.840619414730599,6.643500761593422,0.004845147437912838,-0.023598944403284087,0.011887107767230712
18.016666666666925,0.18706554,-0.7142548,-0.4884139,-2.0052388,-0.3461996,2.1641417,1.2016609,0.039999656,0.04,-6.678834478054168,2.277133077627525,6.65140374500948,0.008787611509963815,-0.02176896226865288,0.011275539740531783
18.03333333333359,0.18710215,-0.71424156,-0.48850903,-2.0051713,-0.34626663,2.1642563,1.2017416,0.039999656,0.04,-6.7255183744453335,2.8728942412215144,7.010539421729483,0.003357563688047069,-0.024473497939293782,0.008484682015755897
18.050000000000257,0.18713595,-0.7142291,-0.4885967,-2.0051076,-0.3463284,2.1643617,1.2018161,0.039999653,0.04,-6.915075466939109,2.090754216249172,6.420462986999949,0.004007229250143148,-0.02044210155837313,0.004222256028989131
18.066666666666922,0.18716717,-0.7142178,-0.48867738,-2.00505,-0.3463852,2.164459,1.2018844,0.039999653,0.04,-7.326197583626453,2.687331061900636,6.849688830057201,-0.00041049722648810237,-0.022574560214838623,0.004396722640376773
18.083333333333588,0.18719588,-0.7142073,-0.48875168,-2.0049973,-0.3464376,2.1645484,1.2019476,0.039999653,0.04,-7.027876630413257,2.6754982158690277,6.700170084429383,0.006804727556375894,-0.016490895653018693,0.006367040439170952
18.100000000000254,0.18722238,-0.7141978,-0.48882005,-2.004948,-0.34648582,2.1646304,1.2020049,0.039999653,0.04,-6.807722073261713,2.8712864451537468,6.567388611738377,0.004868907720223108,-0.023953557278957455,0.006360094181876951
18.11666666666692,0.18724677,-0.7141889,-0.48888296,-2.0049036,-0.34653008,2.164706,1.202058,0.039999653,0.04,-6.8629963959532,2.3889022775451187,6.496717299649379,-0.0021672625218937926,-0.021678337412229187,0.005637758299904475
18.133333333333585,0.18726927,-0.71418065,-0.4889409,-2.0048616,-0.34657082,2.164776,1.2021071,0.039999656,0.04,-6.698058604469732,2.1643859033224055,6.544095975781123,-0.004496188983487101,-0.0216504315329395,0.007717694759494945
18.15000000000025,0.18728997,-0.7141731,-0.48899418,-2.0048237,-0.34660822,2.164842,1.2021524,0.039999656,0.04,-6.799080964003936,2.4945400834300546,6.353242933069502,-0.002508902960984245,-0.019031567179089045,0.007767700795710043
18.166666666666917,0.18730907,-0.71416616,-0.48904327,-2.0047889,-0.3466427,2.1649005,1.2021939,0.039999653,0.04,-6.822022855804974,3.123963671326156,6.728158315790782,0.0016848897150667996,-0.014823184398026771,0.005176272145939921
18.183333333333582,0.18732662,-0.71415985,-0.48908845,-2.004756,-0.34667438,2.1649551,1.2022316,0.03999964,0.04,-6.983822709192912,2.380127860302755,6.816955537524186,-0.006662634171136716,-0.015413281121853617,0.006444102822047249
18.200000000000248,0.18734282,-0.714154,-0.48913002,-2.0047274,-0.3467036,2.1650057,1.2022668,0.03999964,0.04,-6.9054585199181595,2.579817000141482,6.542174576734739,-6.990330731875745e-05,-0.015537177679112595,0.00404762922719042
18.216666666666914,0.18735777,-0.7141486,-0.48916835,-2.0047002,-0.3467304,2.1650512,1.2022998,0.03999964,0.04,-7.021846835942496,2.498239196358125,6.458430993495933,0.0035635852563423126,-0.01742409174705122,0.008481612639564214
18.23333333333358,0.18737152,-0.7141437,-0.48920357,-2.004674,-0.34675515,2.1650941,1.2023295,0.03999964,0.04,-6.987167132632831,2.2321680221587687,6.487135172233722,0.0015762670650523577,-0.015617491579503318,0.005586150183290359
18.250000000000245,0.1873842,-0.71413916,-0.48923597,-2.004651,-0.3467779,2.1651335,1.2023567,0.03999964,0.04,-6.615328164512625,2.8387676228097387,6.690562757068004,-0.0028608489592695917,-0.015506664660882515,0.0006460125171564367
18.26666666666691,0.18739587,-0.7141349,-0.48926583,-2.0046313,-0.34679878,2.165169,1.2023824,0.039999645,0.04,-6.788553555090788,2.649168312228739,6.362119638762193,-0.003371242556424332,-0.01564560084266086,0.004882842082657792
18.283333333333577,0.18740663,-0.714131,-0.48929328,-2.0046117,-0.34681812,2.1652036,1.202405,0.039999645,0.04,-6.561519192188933,2.4891064738295965,6.605424262952799,-0.001736021104003122,-0.01646649570703848,0.013599539218308466
18.300000000000242,0.18741654,-0.7141275,-0.4893186,-2.0045927,-0.34683582,2.1652324,1.2024268,0.03999965,0.04,-6.2678452749865485,2.7912152641526156,6.5680208996664735,0.0001176355078445939,-0.019629216716027298,0.008750557917790213
18.316666666666908,0.18742567,-0.7141243,-0.4893419,-2.0045753,-0.346852,2.16526,1.2024459,0.03999964,0.04,-6.8308424528244185,2.667686291064223,6.510607957802575,-0.004091174716380373,-0.016980788130103546,0.0010464368160159332
18.333333333333574,0.18743409,-0.7141214,-0.48936334,-2.0045602,-0.34686697,2.165287,1.202464,0.039999645,0.04,-7.089865754870104,2.878282116868699,6.545675978108218,-0.0025888058732628106,-0.018993083549371105,0.008315265825802375
18.35000000000024,0.18744186,-0.71411866,-0.48938304,-2.004548,-0.3468808,2.165311,1.2024814,0.039999645,0.04,-6.986442618536772,2.5652451105355962,6.626121896313849,0.0018916536297512458,-0.020002529153804353,0.013092573602878022
18.366666666666905,0.18744901,-0.7141161,-0.4894011,-2.0045362,-0.34689352,2.1653314,1.2024962,0.039999645,0.04,-7.287625845775433,2.736665613822816,6.482025570865861,0.0024131293732865696,-0.016512875589121626,0.00714556754911852
18.38333333333357,0.1874556,-0.7141136,-0.48941782,-2.0045242,-0.34690517,2.1653514,1.2025105,0.039999645,0.04,-6.80937978467898,2.5916560766209007,6.714383938327753,-0.006190524561075523,-0.01857000310636693,0.005845595387808311
18.400000000000237,0.18746167,-0.71411145,-0.4894331,-2.0045125,-0.3469159,2.1653707,1.2025241,0.039999645,0.04,-6.891607483931488,2.5132260085594544,6.354699860090841,-0.005133622596118542,-0.016697987470815863,0.009575993407059289
18.416666666666902,0.18746726,-0.7141094,-0.48944718,-2.0045013,-0.3469258,2.1653895,1.2025352,0.039999645,0.04,-6.8620629316873485,2.70950797903973,6.825360335504207,-0.007167983912411191,-0.015247188008265676,0.00905054610309451
18.433333333333568,0.18747239,-0.71410763,-0.48946023,-2.0044909,-0.3469349,2.165404,1.2025456,0.039999645,0.04,-6.795460605341837,2.41305534726945,6.56961423318546,-0.006652143060613254,-0.01103784649007424,-0.0009025632796051851
18.450000000000234,0.18747713,-0.71410596,-0.48947218,-2.0044818,-0.34694323,2.1654167,1.202556,0.03999964,0.04,-6.342376528251727,2.762432720145936,6.416639984931768,-0.0006272377894315648,-0.017278801401969697,0.0017980795547543464
18.4666666666669,0.1874815,-0.7141044,-0.4894832,-2.0044742,-0.34695098,2.1654294,1.2025658,0.03999964,0.04,-7.113735500494637,2.1750489236245802,6.5209125829026116,-0.006230775588318069,-0.015665687123168622,0.009064093512845426
18.483333333333565,0.18748552,-0.71410316,-0.48949334,-2.0044675,-0.34695807,2.1654418,1.202575,0.03999964,0.04,-6.9205716917877265,2.9967912130883008,6.347735283517305,-0.0026521279318923122,-0.01762999114962023,0.005992145405127885
18.50000000000023,0.18748921,-0.7141019,-0.48950267,-2.0044618,-0.3469645,2.1654537,1.2025821,0.03999964,0.04,-6.461818309719229,2.5572826811683855,6.558667822773194,-0.00174782836363226,-0.0024343683287655717,0.0002606611283635641
18.516666666666897,0.18748921,-0.7141019,-0.48950267,-2.0044618,-0.3469645,2.1654537,1.2025821,0.03999964,0.04,-7.129883766569368,2.7038532491349687,6.595780377848272,-0.0012120777946915016,0.004302357221106122,-0.001408375725839294
18.533333333333562,0.18748921,-0.7141019,-0.48950267,-2.0044618,-0.3469645,2.1654537,1.2025821,0.03999964,0.04,-6.7578459320948365,2.2355004438492516,6.435780082232674,0.001273792716133889,-0.003475003247598909,0.0014156717141828314
18.550000000000228,0.18748921,-0.7141019,-0.48950267,-2.0044618,-0.3469645,2.1654537,1.2025821,0.03999964,0.04,-7.036733558261397,2.353406327441416,6.456224794240081,0.0022536914080770994,0.0011570571811519326,-0.0010271911225403977
18.566666666666894,0.18748921,-0.7141019,-0.48950267,-2.0044618,-0.3469645,2.1654537,1.2025821,0.03999964,0.04,-6.4643504642551655,2.6707464130685485,6.555203639559401,-0.004273655390385118,0.0035763884487751705,0.0006856533225226391
18.58333333333356,0.18748921,-0.7141019,-0.48950267,-2.0044618,-0.3469645,2.1654537,1.2025821,0.03999964,0.04,-6.686396112062123,2.4354064815935508,6.663484738271647,0.0007972615927524785,0.002683895801236599,-0.0041206413900273945
18.600000000000225,0.18748921,-0.7141019,-0.48950267,-2.0044618,-0.3469645,2.1654537,1.2025821,0.03999964,0.04,-6.609683143289231,2.546639114933962,6.344217814337617,0.0010785617796822142,0.0008972083579409996,-4.764886082431641e-05
18.61666666666689,0.18748921,-0.7141019,-0.48950267,-2.0044618,-0.3469645,2.1654537,1.2025821,0.03999964,0.04,-6.394076107190495,2.492717601507657,6.383030351937278,-0.0006511696098407681,-0.0033404885933982307,0.00303359180687514
18.633333333333557,0.18748921,-0.7141019,-0.48950267,-2.0044618,-0.3469645,2.1654537,1.2025821,0.03999964,0.04,-6.83204505120974,2.352518911349021,6.695713657643555,-0.0010542934399737575,0.00023558135098299392,-0.00047528662219126325
18.650000000000222,0.18748921,-0.7141019,-0.48950267,-2.0044618,-0.3469645,2.1654537,1.2025821,0.03999964,0.04,-7.04540221288615,2.7789866662934157,6.745250693168825,-0.0004983023551359479,-0.0059433444190964465,0.0005596300191897071
18.666666666666888,0.18748921,-0.7141019,-0.48950267,-2.0044618,-0.3469645,2.1654537,1.2025821,0.03999964,0.04,-6.935135348717593,2.4485793681019286,6.7219652559325995,0.0016690600445664419,-0.0032559932860830375,0.002565830950493118
18.683333333333554,0.18748921,-0.7141019,-0.48950267,-2.0044618,-0.3469645,2.1654537,1.2025821,0.03999964,0.04,-6.904219356615843,2.4307553869826393,6.557222168504919,0.004332418803763129,-0.00341558173850634,0.002899338262130849
18.70000000000022,0.18748921,-0.7141019,-0.48950267,-2.0044618,-0.3469645,2.1654537,1.2025821,0.03999964,0.04,-6.94985895620283,2.3863992236726874,6.991732375404424,-0.0013151296767387065,0.001075450967450805,-0.0009899129509528522
18.716666666666885,0.18748921,-0.7141019,-0.48950267,-2.0044618,-0.3469645,2.1654537,1.2025821,0.03999964,0.04,-7.059700762398671,2.477382859133365,6.5914291404900105,-0.004344752473768128,0.0013464991910626183,-0.0014220503207038326
18.73333333333355,0.18748921,-0.7141019,-0.48950267,-2.0044618,-0.3469645,2.1654537,1.2025821,0.03999964,0.04,-6.704441953493822,2.755110161951789,6.9006823672862865,0.0003212310574969043,-0.0013634566705992346,0.002964724787422856
18.750000000000217,0.18748921,-0.7141019,-0.48950267,-2.0044618,-0.3469645,2.1654537,1.2025821,0.03999964,0.04,-6.916420607638408,2.3935606594668015,6.448821041583141,0.0022471802922173494,-0.0024410865820921395,0.001835308468036591
18.766666666666882,0.18748921,-0.7141019,-0.48950267,-2.0044618,-0.3469645,2.1654537,1.2025821,0.03999964,0.04,-6.911306118311292,2.2468638099638527,6.53657534142878,-0.0014149085096430967,-0.0016243350906426065,-0.0018164871977459393
18.783333333333548,0.18748921,-0.7141019,-0.48950267,-2.0044618,-0.3469645,2.1654537,1.2025821,0.03999964,0.04,-6.596998125870719,2.298762992873077,6.654396203288241,-0.0060979380383120105,0.002613840106767675,-0.0013634060299897131
18.800000000000214,0.18748921,-0.7141019,-0.48950267,-2.0044618,-0.3469645,2.1654537,1.2025821,0.03999964,0.04,-6.5675462789224754,2.7926238060301993,6.433456658655823,0.004913601607986051,-0.002658601360355882,-0.001216056313764867
18.81666666666688,0.18748921,-0.7141019,-0.48950267,-2.0044618,-0.3469645,2.1654537,1.2025821,0.03999964,0.04,-6.656809944147519,2.896651746066157,6.708266384995836,0.0001740268154415598,0.0003134592760702015,0.0034639759405259694
18.833333333333545,0.18748921,-0.7141019,-0.48950267,-2.0044618,-0.3469645,2.1654537,1.2025821,0.03999964,0.04,-6.216614617745153,2.3743415709587907,6.499441780295106,0.0032739764730846765,-0.0019199995757020404,0.0025680847444764046
18.85000000000021,0.18748921,-0.7141019,-0.48950267,-2.0044618,-0.3469645,2.1654537,1.2025821,0.03999964,0.04,-6.500787725490115,2.4830400912341557,7.031600177715716,0.0014214916184041252,0.001618691055088828,0.0013282137402400869
18.866666666666877,0.18748921,-0.7141019,-0.48950267,-2.0044618,-0.3469645,2.1654537,1.2025821,0.03999964,0.04,-6.833380921406004,2.6345509054461616,6.50959255952678,0.0007673258943251993,-0.0017309883515576993,0.00022831059033518868
18.883333333333542,0.18748921,-0.7141019,-0.48950267,-2.0044618,-0.3469645,2.1654537,1.2025821,0.03999964,0.04,-6.945587603977162,2.3163997644585836,6.405880448039202,-0.0003961850718199835,-0.0037160628006581106,0.004503591797374552
18.900000000000208,0.18748921,-0.7141019,-0.48950267,-2.0044618,-0.3469645,2.1654537,1.2025821,0.03999964,0.04,-6.912196894570546,2.8258565425371334,6.684492309520922,0.00032050417936130244,0.0021570368352973115,0.002033084536195534
18.916666666666874,0.18748921,-0.7141019,-0.48950267,-2.0044618,-0.3469645,2.1654537,1.2025821,0.03999964,0.04,-7.522691258983581,2.531437591841578,6.641396731288345,0.00224116181856832,0.0044826622619283515,0.0005000949803230502
18.93333333333354,0.18748921,-0.7141019,-0.48950267,-2.0044618,-0.3469645,2.1654537,1.2025821,0.03999964,0.04,-6.933449154917614,2.7314237932204044,6.484625264904898,-0.0002832152785028295,-0.000993366321960624,0.0007956835870847163
18.950000000000205,0.18748921,-0.7141019,-0.48950267,-2.0044618,-0.3469645,2.1654537,1.2025821,0.03999964,0.04,-6.810615360878078,2.832327536818256,6.797160038267202,-9.563103511814455e-05,-0.005848949470663589,-0.00012666495500068833
18.96666666666687,0.18748921,-0.7141019,-0.48950267,-2.0044618,-0.3469645,2.1654537,1.2025821,0.03999964,0.04,-6.528236812544706,2.5277925062027493,6.89891914736656,0.0020278548922716627,-0.002567073949938242,0.0072016335599174005
18.983333333333537,0.18748921,-0.7141019,-0.48950267,-2.0044618,-0.3469645,2.1654537,1.2025821,0.03999964,0.04,-7.067321388600521,2.5748716832727663,6.455165507149428,0.004566406149010503,-0.005401620782971259,0.0009900509971077173
19.000000000000203,0.18748921,-0.7141019,-0.48950267,-2.0044618,-0.3469645,2.1654537,1.2025821,0.03999964,0.04,-6.427036086426298,2.552884918899463,6.361134377440137,0.0058848770803105795,-0.004756355744662042,-0.0035435844430339895
19.01666666666687,0.18748921,-0.7141019,-0.48950267,-2.0044618,-0.3469645,2.1654537,1.2025821,0.03999964,0.04,-7.0284478537878945,2.5279145625623762,6.537717904716846,-0.0021038464351315835,-6.248944079630808e-05,-0.003009979987756708
19.033333333333534,0.18748921,-0.7141019,-0.48950267,-2.0044618,-0.3469645,2.1654537,1.2025821,0.03999964,0.04,-6.924440689431594,2.9663316112258014,6.617330483942599,-0.0023987858447091716,-0.002160415667128402,-0.004508598006633479
19.0500000000002,0.18748921,-0.7141019,-0.48950267,-2.0044618,-0.3469645,2.1654537,1.2025821,0.03999964,0.04,-6.817321539559046,2.8876224445829903,6.533843481038496,-0.002369664053860957,-0.00041223655187700125,-0.004525429043267807
