rsonawane2002/My_IMU/logs_2/traj_405/imu_400hz_405.csv
time,j1,j2,j3,j4,j5,j6,j7,gripper1,gripper2,imu_ax,imu_ay,imu_az,imu_gx,imu_gy,imu_gz
0.0,0.00016700293,-0.785875,4.0107683e-05,-2.3551247,9.29385e-05,1.570997,0.786,0.04,0.04,-9.503997,0.0280053243041038,0.0955368,-3.2690488e-07,-0.0011641274904832,5.3882013e-07
0.0025,0.0001670023675,-0.7858577739999998,4.010923205000002e-05,-2.3551391900000005,9.294387060000009e-05,1.570996565,0.786,0.04,0.04,-9.553572750000722,0.023898822811255962,0.08256640334981126,-2.1415376799835925e-07,-0.0013252449745801197,5.88230760000719e-07
0.005,0.00016700180499999996,-0.7858405479999995,4.011078110000005e-05,-2.355153680000001,9.294924120000017e-05,1.57099613,0.786,0.04,0.04,-9.603148500001444,0.019792321318408124,0.06959600669962251,-1.0140265599671851e-07,-0.0014863624586770392,6.37641390001438e-07
0.0075,0.00016700124249999996,-0.7858233219999993,4.011233015000007e-05,-2.3551681700000007,9.295461180000023e-05,1.570995695,0.786,0.04,0.04,-9.652724250002164,0.01568581982556029,0.05662561004943377,1.134845600492223e-08,-0.0016474799427739588,6.87052020002157e-07
0.01,0.00016700067999999996,-0.7858060959999991,4.011387920000009e-05,-2.355182660000001,9.295998240000031e-05,1.57099526,0.786,0.04,0.04,-9.702300000002886,0.01157931833271245,0.043655213399245024,1.24099568006563e-07,-0.0018085974268708784,7.364626500028761e-07
0.0125,0.00016700011749999996,-0.7857888699999988,4.011542825000011e-05,-2.3551971500000013,9.29653530000004e-05,1.570994825,0.786,0.04,0.04,-9.751875750003608,0.007472816839864612,0.03068481674905628,2.3685068000820376e-07,-0.0019697149109677977,7.85873280003595e-07
0.015,0.00016699955499999993,-0.7857716439999985,4.0116977300000136e-05,-2.3552116400000016,9.297072360000047e-05,1.57099439,0.786,0.04,0.04,-9.80145150000433,0.003366315347016778,0.017714420098867534,3.496017920098445e-07,-0.0021308323950647175,8.352839100043141e-07
0.0175,0.0001669967219999993,-0.7857548669999985,4.011967150000046e-05,-2.355225735000001,9.297604780000049e-05,1.57099396,0.786,0.04,0.04,-9.834400049999973,0.0006281529524129123,0.008993981564979542,5.881229900454626e-07,-0.002287922112750651,8.474461449942172e-07
0.02,0.0001669893479999994,-0.7857389879999988,4.01246560000004e-05,-2.355239040000001,9.298127920000042e-05,1.57099354,0.786,0.04,0.04,-9.834094199999976,0.0006266687531022812,0.00877345925998235,1.0781843600392224e-06,-0.002436956297618128,7.85111589995011e-07
0.0225,0.0001669819739999995,-0.785723108999999,4.0129640500000336e-05,-2.355252345000001,9.298651060000036e-05,1.57099312,0.786,0.04,0.04,-9.83378834999998,0.0006251845537916501,0.008552936954985157,1.5682457300329821e-06,-0.0025859904824856055,7.227770349958048e-07
0.025,0.0001669745999999996,-0.7857072299999992,4.013462500000027e-05,-2.3552656500000007,9.299174200000029e-05,1.5709927,0.786,0.04,0.04,-9.833482499999985,0.000623700354481019,0.008332414649987966,2.0583071000267427e-06,-0.002735024667353083,6.604424799965983e-07
0.0275,0.00016696722599999968,-0.7856913509999993,4.013960950000021e-05,-2.3552789550000006,9.299697340000021e-05,1.57099228,0.786,0.04,0.04,-9.833176649999988,0.0006222161551703879,0.008111892344990775,2.5483684700205026e-06,-0.0028840588522205603,5.981079249973921e-07
0.03,0.00016695985199999977,-0.7856754719999995,4.014459400000014e-05,-2.35529226,9.300220480000015e-05,1.57099186,0.786,0.04,0.04,-9.832870799999991,0.0006207319558597568,0.007891370039993581,3.0384298400142626e-06,-0.0030330930370880377,5.357733699981858e-07
0.0325,0.00016695247799999988,-0.7856595929999998,4.014957850000008e-05,-2.355305565,9.300743620000008e-05,1.57099144,0.786,0.04,0.04,-9.832564949999995,0.0006192477565491257,0.00767084773499639,3.5284912100080225e-06,-0.003182127221955515,4.734388149989795e-07
0.035,0.00016693312799999967,-0.7856445699999999,4.016069500000018e-05,-2.3553181,9.301287740000008e-05,1.57099101,0.786,0.04,0.04,-9.832312699999997,0.0006160788761916889,0.007456242039997305,4.620409100017737e-06,-0.003324045706542062,2.6787447699647027e-07
0.0375,0.00016690778999999966,-0.7856299749999998,4.017487750000019e-05,-2.35533025,9.301842350000008e-05,1.570990575,0.786,0.04,0.04,-9.832087249999997,0.0006120676553108953,0.007244594649997113,6.013255250019001e-06,-0.0034624063409883377,-9.304752503781306e-09
0.04,0.00016688245199999964,-0.7856153799999998,4.0189060000000205e-05,-2.3553424,9.302396960000008e-05,1.57099014,0.786,0.04,0.04,-9.831861799999997,0.0006080564344301016,0.00703294725999692,7.40610140002027e-06,-0.0036007669754346138,-2.864839820040337e-07
0.0425,0.0001668571139999996,-0.7856007849999997,4.020324250000022e-05,-2.35535455,9.302951570000008e-05,1.5709897050000001,0.786,0.04,0.04,-9.831636349999997,0.000604045213549308,0.006821299869996727,8.798947550021537e-06,-0.00373912760988089,-5.63663211504286e-07
0.045,0.00016683177599999957,-0.7855861899999997,4.021742500000023e-05,-2.3553667000000003,9.303506180000009e-05,1.57098927,0.786,0.04,0.04,-9.831410899999996,0.0006000339926685144,0.006609652479996535,1.0191793700022802e-05,-0.0038774882443271654,-8.408424410045375e-07
0.0475,0.00016680643799999955,-0.7855715949999997,4.0231607500000244e-05,-2.35537885,9.304060790000009e-05,1.570988835,0.786,0.04,0.04,-9.831185449999996,0.0005960227717877206,0.006398005089996342,1.158463985002407e-05,-0.004015848878773441,-1.1180216705047899e-06
0.05,0.0001667810999999989,-0.7855569999999997,4.0245790000000575e-05,-2.355391,9.304615400000012e-05,1.5709884,0.786,0.04,0.04,-9.830959999999994,0.0005920115509069079,0.006186357699996735,1.297748600004796e-05,-0.004154209513219538,-1.3952009000105927e-06
0.0525,0.00016672182899999887,-0.7855435749999997,4.0277422000000605e-05,-2.3554021300000003,9.305269250000012e-05,1.57098798,0.786,0.04,0.04,-9.830704249999995,0.0005869522952705983,0.006006864474996571,1.5613909100050354e-05,-0.004282718896868285,-1.977495665011121e-06
0.055,0.0001666625579999988,-0.7855301499999997,4.0309054000000634e-05,-2.35541326,9.305923100000013e-05,1.57098756,0.786,0.04,0.04,-9.830448499999994,0.0005818930396342888,0.005827371249996409,1.8250332200052754e-05,-0.004411228280517031,-2.5597904300116516e-06
0.0575,0.00016660328699999875,-0.7855167249999997,4.0340686000000664e-05,-2.35542439,9.306576950000013e-05,1.57098714,0.786,0.04,0.04,-9.830192749999995,0.0005768337839979792,0.005647878024996245,2.0886755300055155e-05,-0.004539737664165778,-3.1420851950121817e-06
0.06,0.0001665440159999987,-0.7855032999999997,4.037231800000069e-05,-2.3554355200000003,9.307230800000014e-05,1.57098672,0.786,0.04,0.04,-9.829936999999994,0.0005717745283616696,0.005468384799996082,2.352317840005755e-05,-0.004668247047814525,-3.72437996001271e-06
0.0625,0.00016648474499999865,-0.7854898749999997,4.0403950000000716e-05,-2.35544665,9.307884650000015e-05,1.5709863,0.786,0.04,0.04,-9.829681249999993,0.00056671527272536,0.0052888915749959185,2.6159601500059946e-05,-0.004796756431463272,-4.30667472501324e-06
0.065,0.0001664254739999986,-0.7854764499999997,4.0435582000000746e-05,-2.35545778,9.308538500000015e-05,1.57098588,0.786,0.04,0.04,-9.829425499999994,0.0005616560170890503,0.005109398349995756,2.8796024600062347e-05,-0.0049252658151120185,-4.88896949001377e-06
0.0675,0.00016634812649999722,-0.7854633899999997,4.047652600000146e-05,-2.35546854,9.309301630000023e-05,1.570985455,0.786,0.04,0.03999999975,-9.829197649999996,0.000555989277199576,0.004930796264995658,3.1995970000106267e-05,-0.0050510438391968,-5.5617702000209685e-06
0.07,0.00016623462599999711,-0.7854510599999996,4.0536094000001514e-05,-2.3554785600000003,9.310283320000025e-05,1.57098502,0.786,0.04,0.039999999,-9.829025599999996,0.0005491075688039048,0.004753976459995497,3.6322960000110204e-05,-0.0051713591441542445,-6.415582800021745e-06
0.0725,0.000166121125499997,-0.7854387299999996,4.059566200000157e-05,-2.3554885800000003,9.311265010000025e-05,1.570984585,0.786,0.04,0.03999999825,-9.828853549999996,0.0005422258604082335,0.004577156654995336,4.064995000011412e-05,-0.0052916744491116885,-7.269395400022518e-06
0.075,0.0001660076249999969,-0.7854263999999996,4.0655230000001625e-05,-2.3554986,9.312246700000027e-05,1.57098415,0.786,0.04,0.0399999975,-9.828681499999995,0.0005353441520125622,0.004400336849995176,4.497694000011806e-05,-0.0054119897540691325,-8.123208000023296e-06
0.0775,0.0001658941244999968,-0.7854140699999996,4.071479800000168e-05,-2.35550862,9.313228390000027e-05,1.5709837150000001,0.786,0.04,0.03999999675,-9.828509449999995,0.000528462443616891,0.004223517044995015,4.9303930000121996e-05,-0.005532305059026577,-8.977020600024073e-06
0.08,0.0001657806239999967,-0.7854017399999996,4.077436600000173e-05,-2.3555186400000006,9.314210080000029e-05,1.57098328,0.786,0.04,0.039999996,-9.828337399999995,0.0005215807352212197,0.004046697239994854,5.363092000012593e-05,-0.0056526203639840214,-9.83083320002485e-06
0.0825,0.0001656671234999966,-0.7853894099999996,4.0833934000001784e-05,-2.3555286600000005,9.315191770000029e-05,1.570982845,0.786,0.04,0.03999999525,-9.828165349999995,0.0005146990268255485,0.003869877434994693,5.795791000012987e-05,-0.005772935668941466,-1.0684645800025626e-05
0.085,0.00016550135699999405,-0.7853777549999996,4.092046860000309e-05,-2.3555381200000003,9.316247260000034e-05,1.5709827,0.78600008,0.04,0.0399999955,-9.827965499999994,0.0005060074385251832,0.003710584929995345,6.358913840019432e-05,-0.00588805405423392,-1.2000366700047831e-05
0.08750000000000001,0.00016530945749999387,-0.7853664374999996,4.102048650000318e-05,-2.3555473000000005,9.317339650000035e-05,1.5709827,0.7860002,0.04,0.03999999625,-9.827751749999994,0.0004964109102725945,0.0035600560749952078,6.987248600020003e-05,-0.006000573979694232,-1.354704175004924e-05
0.09,0.0001651175579999937,-0.7853551199999996,4.112050440000327e-05,-2.35555648,9.318432040000036e-05,1.5709827,0.7860003200000001,0.04,0.039999997,-9.827537999999993,0.0004868143820200058,0.0034095272199950715,7.615583360020571e-05,-0.006113093905154544,-1.509371680005064e-05
0.0925,0.00016492565849999353,-0.7853438024999996,4.1220522300003366e-05,-2.3555656600000003,9.319524430000037e-05,1.5709827,0.78600044,0.04,0.03999999775,-9.827324249999993,0.00047721785376741706,0.0032589983649949344,8.243918120021144e-05,-0.006225613830614857,-1.6640391850052047e-05
0.095,0.00016473375899999336,-0.7853324849999995,4.1320540200003454e-05,-2.3555748400000005,9.320616820000037e-05,1.5709827,0.7860005600000001,0.04,0.0399999985,-9.827110499999993,0.00046762132551482835,0.0031084695099947977,8.872252880021716e-05,-0.006338133756075169,-1.8187066900053457e-05
0.0975,0.0001645418594999932,-0.7853211674999996,4.142055810000355e-05,-2.3555840200000002,9.321709210000038e-05,1.5709827,0.78600068,0.04,0.03999999925,-9.826896749999992,0.0004580247972622396,0.0029579406549946606,9.500587640022288e-05,-0.0064506536815354815,-1.9733741950054864e-05
0.1,0.00016434995999998917,-0.7853098499999996,4.152057600000563e-05,-2.3555932000000004,9.322801600000053e-05,1.5709827,0.7860008,0.04,0.04,-9.826682999999994,0.0004484282690096689,0.0028074117999941904,0.00010128922400029543,-0.006563173606995522,-2.1280417000070833e-05
0.10250000000000001,0.0001640519504999889,-0.7852995074999995,4.167533130000577e-05,-2.3556018250000004,9.324266710000055e-05,1.570982775,0.7860010850000001,0.04,0.04,-9.826558499999996,0.0004393273993624256,0.002647733199994045,0.00010940963840030283,-0.006668223580349358,-2.322735925007261e-05
0.105,0.0001637539409999886,-0.7852891649999996,4.183008660000591e-05,-2.3556104500000004,9.325731820000056e-05,1.57098285,0.78600137,0.04,0.04,-9.826433999999995,0.0004302265297151824,0.002488054599993901,0.00011753005280031018,-0.0067732735537031925,-2.5174301500074367e-05
0.1075,0.00016345593149998835,-0.7852788224999996,4.198484190000605e-05,-2.3556190750000003,9.327196930000057e-05,1.570982925,0.7860016550000001,0.04,0.04,-9.826309499999995,0.00042112566006793906,0.0023283759999937555,0.00012565046720031757,-0.006878323527057029,-2.712124375007614e-05
0.11,0.00016315792199998809,-0.7852684799999996,4.2139597200006194e-05,-2.3556277000000003,9.328662040000058e-05,1.570983,0.7860019400000001,0.04,0.04,-9.826184999999995,0.0004120247904206958,0.00216869739999361,0.00013377088160032496,-0.006983373500410864,-2.9068186000077916e-05
0.1125,0.00016285991249998782,-0.7852581374999996,4.2294352500006335e-05,-2.3556363250000003,9.33012715000006e-05,1.570983075,0.786002225,0.04,0.04,-9.826060499999995,0.0004029239207734525,0.0020090187999934647,0.00014189129600033235,-0.007088423473764699,-3.1015128250079685e-05
0.115,0.00016256190299998753,-0.7852477949999996,4.244910780000648e-05,-2.3556449500000003,9.331592260000061e-05,1.57098315,0.7860025100000001,0.04,0.04,-9.825935999999995,0.00039382305112620924,0.0018493401999933193,0.00015001171040033973,-0.007193473447118535,-3.296207050008146e-05
0.11750000000000001,0.0001622182629999814,-0.7852377399999996,4.2627409100009637e-05,-2.355653225,9.333229800000085e-05,1.57098323,0.786002795,0.04,0.04,-9.825814949999996,0.0003839912053075522,0.0017023215999947977,0.00015875516950042705,-0.007297108927745864,-3.5102026900107986e-05
0.12,0.00016178336199998102,-0.7852282599999996,4.285280240000984e-05,-2.3556608000000003,9.335212200000086e-05,1.5709833199999998,0.7860030800000001,0.04,0.04,-9.825700799999995,0.000372697407146347,0.0015806229999946874,0.00016874471800043607,-0.007397915422920721,-3.762801160011027e-05
0.1225,0.00016134846099998064,-0.7852187799999996,4.307819570001005e-05,-2.3556683750000005,9.337194600000088e-05,1.57098341,0.7860033650000001,0.04,0.04,-9.825586649999995,0.00036140360898514166,0.0014589243999945766,0.00017873426650044517,-0.007498721918095577,-4.0153996300112567e-05
0.125,0.00016091355999998022,-0.7852092999999996,4.330358900001025e-05,-2.35567595,9.339177000000091e-05,1.5709835,0.78600365,0.04,0.04,-9.825472499999995,0.0003501098108239364,0.0013372257999944657,0.00018872381500045427,-0.007599528413270434,-4.267998100011487e-05
0.1275,0.00016047865899997983,-0.7851998199999995,4.352898230001045e-05,-2.3556835250000003,9.341159400000092e-05,1.57098359,0.7860039350000001,0.04,0.04,-9.825358349999995,0.00033881601266273114,0.001215527199994355,0.00019871336350046337,-0.007700334908445291,-4.520596570011717e-05
0.13,0.00016004375799997945,-0.7851903399999995,4.3754375600010656e-05,-2.3556911000000005,9.343141800000094e-05,1.57098368,0.78600422,0.04,0.04,-9.825244199999995,0.0003275222145015258,0.0010938285999942442,0.00020870291200047246,-0.007801141403620148,-4.7731950400119465e-05
0.1325,0.00015960885699997903,-0.7851808599999995,4.397976890001086e-05,-2.355698675,9.345124200000095e-05,1.57098377,0.7860045050000001,0.04,0.04,-9.825130049999995,0.00031622841634032056,0.0009721299999941334,0.00021869246050048154,-0.007901947898795005,-5.025793510012177e-05
0.135,0.00015906031999997027,-0.7851719499999995,4.426382120001539e-05,-2.35570571,9.347526000000129e-05,1.57098388,0.7860048300000001,0.04,0.04,-9.825002699999994,0.0003039492177770427,0.000852756818994194,0.00023068131900063797,-0.007999395951633294,-5.3205271000155106e-05
0.1375,0.00015845496499996973,-0.7851633249999995,4.457720300001567e-05,-2.3557124750000002,9.35013750000013e-05,1.5709840000000002,0.786005175,0.04,0.04,-9.824868749999993,0.00029117731901283605,0.0007345463474940863,0.00024366983250064978,-0.008095164783303667,-5.636328250015798e-05
0.14,0.00015784960999996916,-0.7851546999999995,4.489058480001596e-05,-2.3557192400000004,9.352749000000134e-05,1.57098412,0.78600552,0.04,0.04,-9.824734799999993,0.0002784054202486294,0.0006163358759939787,0.0002566583460006616,-0.008190933614974038,-5.9521294000160854e-05
0.14250000000000002,0.0001572442549999686,-0.7851460749999996,4.520396660001624e-05,-2.355726005,9.355360500000135e-05,1.57098424,0.786005865,0.04,0.04,-9.824600849999992,0.0002656335214844228,0.0004981254044938711,0.00026964685950067345,-0.00828670244664441,-6.267930550016373e-05
0.145,0.00015663889999996807,-0.7851374499999996,4.5517348400016524e-05,-2.3557327700000004,9.357972000000137e-05,1.57098436,0.78600621,0.04,0.04,-9.824466899999994,0.0002528616227202163,0.0003799149329937648,0.00028263537300068513,-0.008382471278314782,-6.583731700016657e-05
0.1475,0.00015603354499996752,-0.7851288249999996,4.583073020001681e-05,-2.355739535,9.36058350000014e-05,1.5709844800000001,0.7860065549999999,0.04,0.04,-9.824332949999993,0.0002400897239560097,0.00026170446149365717,0.0002956238865006969,-0.008478240109985154,-6.899532850016945e-05
0.15,0.0001554281899999557,-0.7851201999999996,4.6144112000022914e-05,-2.3557463000000003,9.363195000000194e-05,1.5709846,0.7860069,0.04,0.04,-9.824198999999995,0.00022731782519176796,0.00014349398999410028,0.0003086124000008706,-0.008574008941655317,-7.215334000020301e-05
0.1525,0.00015461635249995495,-0.7851123549999997,4.656405680002329e-05,-2.3557525850000003,9.366754890000197e-05,1.57098472,0.786007476,0.04,0.03999999925,-9.824114849999996,0.00021390262409031575,3.537637649400186e-05,0.0003245660895008851,-0.00866594025865698,-7.587392650020641e-05
0.155,0.0001538045149999542,-0.7851045099999996,4.698400160002368e-05,-2.3557588700000003,9.370314780000201e-05,1.5709848400000002,0.786008052,0.04,0.0399999985,-9.824030699999996,0.00020048742298886353,-7.274123700609658e-05,0.0003405197790008996,-0.008757871575658644,-7.95945130002098e-05
0.1575,0.00015299267749995348,-0.7850966649999996,4.7403946400024057e-05,-2.3557651550000003,9.373874670000204e-05,1.57098496,0.786008628,0.04,0.03999999775,-9.823946549999995,0.00018707222188741132,-0.000180858850506195,0.0003564734685009141,-0.008849802892660307,-8.331509950021319e-05
0.16,0.00015218083999995273,-0.7850888199999996,4.782389120002444e-05,-2.3557714400000003,9.377434560000207e-05,1.57098508,0.7860092040000001,0.04,0.039999997,-9.823862399999996,0.0001736570207859591,-0.0002889764640062934,0.0003724271580009287,-0.008941734209661972,-8.703568600021658e-05
0.1625,0.000151369002499952,-0.7850809749999996,4.824383600002483e-05,-2.3557777250000003,9.38099445000021e-05,1.5709852000000002,0.7860097800000001,0.04,0.03999999625,-9.823778249999995,0.0001602418196845069,-0.0003970940775063918,0.0003883808475009432,-0.009033665526663634,-9.075627250021996e-05
0.165,0.00015055716499995126,-0.7850731299999996,4.8663780800025206e-05,-2.3557840100000003,9.384554340000214e-05,1.5709853200000001,0.786010356,0.04,0.0399999955,-9.823694099999996,0.00014682661858305467,-0.0005052116910064903,0.0004043345370009577,-0.009125596843665299,-9.447685900022335e-05
0.1675,0.00014966378599994042,-0.7850655314999997,4.91258308000308e-05,-2.3557899800000004,9.388359620000242e-05,1.57098545,0.786011003,0.04,0.03999999525,-9.823622599999998,0.0001321148578416996,-0.0006065726600049539,0.00042112497850104125,-0.00921723963693288,-9.854383100026842e-05
0.17,0.00014860732399995386,-0.7850584259999998,4.9672091200023846e-05,-2.3557953200000004,9.392655680000188e-05,1.5709856,0.786011792,0.04,0.039999996,-9.823576399999999,0.00011480997782124633,-0.0006944203400038355,0.00043958892400080613,-0.009308305382732456,-0.00010330357400020782
0.17250000000000001,0.00014755086199996732,-0.7850513204999998,5.0218351600016896e-05,-2.3558006600000003,9.396951740000132e-05,1.57098575,0.786012581,0.04,0.03999999675,-9.823530199999999,9.750509780079305e-05,-0.000782268020002717,0.00045805286950057107,-0.009399371128532032,-0.00010806331700014721
0.17500000000000002,0.00014649439999998078,-0.7850442149999999,5.076461200000994e-05,-2.3558060000000003,9.401247800000078e-05,1.5709859000000002,0.78601337,0.04,0.0399999975,-9.823484,8.02002177803398e-05,-0.0008701157000015984,0.00047651681500033595,-0.009490436874331607,-0.00011282306000008662
0.1775,0.00014543793799999424,-0.7850371095,5.1310872400002975e-05,-2.3558113400000003,9.405543860000024e-05,1.5709860500000001,0.786014159,0.04,0.03999999825,-9.8234378,6.289533775988672e-05,-0.000957963380000479,0.0004949807605001007,-0.009581502620131181,-0.00011758280300002596
0.18,0.0001443814760000077,-0.7850300040000001,5.1857132799996025e-05,-2.35581668,9.40983991999997e-05,1.5709862,0.786014948,0.04,0.039999999,-9.8233916,4.559045773943346e-05,-0.0010458110599993605,0.0005134447059998656,-0.009672568365930757,-0.00012234254599996535
0.1825,0.00014332501400002114,-0.7850228985000002,5.240339319998907e-05,-2.3558220199999997,9.414135979999914e-05,1.57098635,0.786015737,0.04,0.03999999975,-9.823345400000001,2.828557771898019e-05,-0.001133658739998242,0.0005319086514996305,-0.009763634111730334,-0.00012710228899990477
0.185,0.00014207874600001953,-0.7850162800000001,5.304764459998991e-05,-2.35582704,9.41918209999992e-05,1.57098649,0.78601657,0.04,0.04,-9.823277500000001,1.2042350135972278e-05,-0.0012220022999987106,0.0005522566299996901,-0.00985264992341263,-0.00013216015299992423
0.1875,0.000140737575,-0.785009905,5.37408915e-05,-2.3558319,9.42460325e-05,1.570986625,0.786017425,0.04,0.04,-9.82319875,-3.6700512282550335e-06,-0.0013105938,0.000573546625,-0.009940640768036175,-0.00013736707750000002
0.19,0.0001393964039999805,-0.7850035299999999,5.443413840001009e-05,-2.35583676,9.430024400000079e-05,1.57098676,0.7860182800000001,0.04,0.04,-9.82312,-1.9382452592482343e-05,-0.0013991853000012893,0.0005948366200003098,-0.010028631612659721,-0.00014257400200007577
0.1925,0.00013805523299996098,-0.7849971549999998,5.512738530002018e-05,-2.35584162,9.435445550000158e-05,1.570986895,0.7860191350000001,0.04,0.04,-9.823041249999998,-3.509485395670965e-05,-0.0014877768000025784,0.0006161266150006196,-0.010116622457283267,-0.00014778092650015155
0.195,0.00013671406199994144,-0.7849907799999998,5.5820632200030266e-05,-2.3558464800000003,9.440866700000237e-05,1.5709870300000002,0.7860199900000001,0.04,0.04,-9.822962499999997,-5.080725532093696e-05,-0.0015763683000038678,0.0006374166100009295,-0.010204613301906812,-0.00015298785100022734
0.1975,0.00013537289099992193,-0.7849844049999997,5.6513879100040355e-05,-2.35585134,9.446287850000315e-05,1.570987165,0.7860208450000001,0.04,0.04,-9.822883749999995,-6.651965668516427e-05,-0.0016649598000051569,0.0006587066050012393,-0.010292604146530358,-0.0001581947755003031
0.2,0.00013403171999987865,-0.7849780299999995,5.720712600006271e-05,-2.3558562000000003,9.451709000000486e-05,1.5709873,0.7860217000000002,0.04,0.04,-9.822804999999999,-8.223205804955008e-05,-0.0017535513000047883,0.000679996600001819,-0.010380594991153902,-0.0001634017000004424
0.2025,0.00013236411749987715,-0.7849723164999995,5.806890960006349e-05,-2.3558602800000004,9.458398700000492e-05,1.5709879750000002,0.7860228460000002,0.04,0.04,-9.822777099999998,-0.00010012268030681913,-0.001819356405004848,0.0007049959525018418,-0.010468557896098997,-0.00016948156450044793
0.20500000000000002,0.00013069651499987561,-0.7849666029999995,5.893069320006428e-05,-2.3558643600000004,9.465088400000499e-05,1.57098865,0.7860239920000002,0.04,0.04,-9.822749199999999,-0.00011801330256408817,-0.001885161510004908,0.0007299953050018646,-0.010556520801044092,-0.00017556142900045346
0.20750000000000002,0.0001290289124998741,-0.7849608894999995,5.979247680006506e-05,-2.3558684400000005,9.471778100000505e-05,1.5709893250000002,0.7860251380000001,0.04,0.04,-9.822721299999998,-0.0001359039248213572,-0.001950966615004968,0.0007549946575018873,-0.010644483705989187,-0.000181641293500459
0.21,0.0001273613099998726,-0.7849551759999995,6.0654260400065835e-05,-2.3558725200000006,9.47846780000051e-05,1.57099,0.7860262840000001,0.04,0.04,-9.822693399999999,-0.00015379454707862607,-0.002016771720005027,0.0007799940100019098,-0.01073244661093428,-0.00018772115800046448
0.2125,0.00012569370749987107,-0.7849494624999995,6.151604400006662e-05,-2.3558766,9.485157500000517e-05,1.570990675,0.7860274300000001,0.04,0.04,-9.822665499999998,-0.0001716851693358951,-0.002082576825005087,0.0008049933625019326,-0.010820409515879375,-0.00019380102250047
0.215,0.00012402610499986957,-0.7849437489999995,6.23778276000674e-05,-2.3558806800000003,9.491847200000523e-05,1.5709913500000001,0.7860285760000001,0.04,0.04,-9.822637599999997,-0.00018957579159316416,-0.002148381930005147,0.0008299927150019553,-0.01090837242082447,-0.00019988088700047556
0.2175,0.0001222353109998388,-0.7849382504999995,6.330322200008329e-05,-2.3558845200000005,9.499015000000643e-05,1.5709920300000002,0.7860298180000002,0.04,0.04,-9.822604949999997,-0.00020851859008127037,-0.002217552230006006,0.0008559993225022172,-0.010995274549356823,-0.000206229956000545
0.22,0.00012019813399983695,-0.7849331819999996,6.435583800008424e-05,-2.3558878800000005,9.50713900000065e-05,1.57099272,0.7860312520000001,0.04,0.04,-9.822562799999996,-0.00022956574103030454,-0.002293452920006075,0.0008840204400022427,-0.011080055125064445,-0.00021311743400055126
0.2225,0.0001181609569998351,-0.7849281134999996,6.54084540000852e-05,-2.3558912400000005,9.515263000000658e-05,1.57099341,0.7860326860000001,0.04,0.04,-9.822520649999996,-0.0002506128919793387,-0.002369353610006144,0.0009120415575022682,-0.011164835700772067,-0.00022000491200055753
0.225,0.00011612377999983324,-0.7849230449999995,6.646107000008616e-05,-2.3558946000000005,9.523387000000665e-05,1.5709941,0.7860341200000002,0.04,0.04,-9.822478499999997,-0.00027166004292837284,-0.002445254300006213,0.0009400626750022937,-0.01124961627647969,-0.0002268923900005638
0.2275,0.00011408660299983139,-0.7849179764999996,6.751368600008711e-05,-2.3558979600000005,9.531511000000672e-05,1.57099479,0.7860355540000001,0.04,0.04,-9.822436349999997,-0.00029270719387740704,-0.002521154990006282,0.0009680837925023192,-0.011334396852187312,-0.00023377986800057006
0.23,0.00011204942599982954,-0.7849129079999996,6.856630200008807e-05,-2.35590132,9.539635000000681e-05,1.57099548,0.7860369880000001,0.04,0.04,-9.822394199999996,-0.0003137543448264412,-0.0025970556800063516,0.0009961049100023448,-0.011419177427894934,-0.0002406673460005763
0.2325,0.00011001224899982769,-0.7849078394999995,6.961891800008903e-05,-2.35590468,9.547759000000688e-05,1.5709961700000001,0.7860384220000001,0.04,0.04,-9.822352049999997,-0.0003348014957754754,-0.0026729563700064207,0.0010241260275023702,-0.011503958003602556,-0.0002475548240005826
0.23500000000000001,0.00010769911699979044,-0.7849032049999995,7.081402760010826e-05,-2.3559077000000004,9.556958000000833e-05,1.57099688,0.7860400400000002,0.04,0.04,-9.822312099999998,-0.0003552543232234433,-0.002727146250003705,0.0010542731200026683,-0.011588641628630155,-0.00025499493300065973
0.23750000000000002,0.0001052480074997882,-0.7848987874999996,7.208038400010942e-05,-2.3559105500000004,9.566694500000842e-05,1.5709976,0.7860417500000001,0.04,0.04,-9.822273249999997,-0.00037540998892099164,-0.0027704807250037446,0.0010854832000026968,-0.011673276778317762,-0.00026271135750066676
0.24,0.000102796897999786,-0.7848943699999996,7.334674040011056e-05,-2.3559134000000004,9.57643100000085e-05,1.5709983200000002,0.7860434600000001,0.04,0.04,-9.822234399999997,-0.0003955656546185398,-0.0028138152000037834,0.0011166932800027248,-0.01175791192800537,-0.0002704277820006737
0.2425,0.00010034578849978377,-0.7848899524999996,7.461309680011171e-05,-2.3559162500000004,9.586167500000859e-05,1.57099904,0.7860451700000002,0.04,0.04,-9.822195549999996,-0.0004157213203160881,-0.002857149675003823,0.0011479033600027533,-0.011842547077692977,-0.00027814420650068073
0.245,9.789467899978154e-05,-0.7848855349999996,7.587945320011286e-05,-2.3559191000000004,9.595904000000868e-05,1.57099976,0.7860468800000001,0.04,0.04,-9.822156699999997,-0.00043587698601363643,-0.0029004841500038622,0.0011791134400027817,-0.011927182227380583,-0.00028586063100068777
0.2475,9.54435694997793e-05,-0.7848811174999996,7.714580960011402e-05,-2.3559219500000004,9.605640500000877e-05,1.5710004800000001,0.7860485900000002,0.04,0.04,-9.822117849999996,-0.0004560326517111848,-0.0029438186250039015,0.00121032352000281,-0.01201181737706819,-0.00029357705550069475
0.25,9.299245999973529e-05,-0.7848766999999996,7.841216600013674e-05,-2.3559248,9.615377000001047e-05,1.5710012,0.7860503000000002,0.04,0.04,-9.822079000000002,-0.00047618831740913104,-0.0029871531000033808,0.0012415336000031472,-0.012096452526755903,-0.0003012934800007788
0.2525,9.008200624973265e-05,-0.7848728899999996,7.991573060013811e-05,-2.355926705,9.626900750001059e-05,1.57100228,0.7860523100000002,0.04,0.04,-9.822101350000002,-0.0005007194151425684,-0.0030243254850034146,0.0012761368300031786,-0.012182250805206957,-0.0003098568420007866
0.255,8.717155249972999e-05,-0.7848690799999997,8.141929520013948e-05,-2.3559286100000003,9.63842450000107e-05,1.5710033600000002,0.7860543200000002,0.04,0.04,-9.822123700000002,-0.0005252505128760058,-0.0030614978700034485,0.0013107400600032102,-0.01226804908365801,-0.0003184202040007944
0.2575,8.426109874972735e-05,-0.7848652699999996,8.292285980014085e-05,-2.3559305150000003,9.64994825000108e-05,1.57100444,0.7860563300000002,0.04,0.04,-9.822146050000002,-0.000549781610609443,-0.0030986702550034823,0.0013453432900032416,-0.012353847362109063,-0.0003269835660008022
0.26,8.135064499972469e-05,-0.7848614599999997,8.442642440014222e-05,-2.3559324200000002,9.66147200000109e-05,1.5710055200000002,0.7860583400000002,0.04,0.04,-9.822168400000002,-0.0005743127083428804,-0.003135842640003516,0.001379946520003273,-0.012439645640560116,-0.00033554692800081003
0.2625,7.844019124972205e-05,-0.7848576499999996,8.592998900014359e-05,-2.355934325,9.672995750001102e-05,1.5710066,0.7860603500000002,0.04,0.04,-9.822190750000003,-0.0005988438060763177,-0.00317301502500355,0.0014145497500033047,-0.01252544391901117,-0.0003441102900008178
0.265,7.55297374997194e-05,-0.7848538399999997,8.743355360014496e-05,-2.35593623,9.684519500001112e-05,1.5710076800000001,0.7860623600000002,0.04,0.04,-9.822213100000003,-0.0006233749038097551,-0.003210187410003584,0.001449152980003336,-0.012611242197462222,-0.00035267365200082563
0.2675,7.245075784966754e-05,-0.7848502274999997,8.902415300017174e-05,-2.355938,9.696700725001314e-05,1.571008825,0.7860644615000002,0.04,0.04,-9.822207149999995,-0.0006477133196335961,-0.0032446400850028234,0.0014849796000037249,-0.012696363218136813,-0.0003615258335009177
0.27,6.903472639966444e-05,-0.7848470099999997,9.078882200017334e-05,-2.3559395000000003,9.710196900001326e-05,1.5710101,0.7860667460000003,0.04,0.04,-9.822144599999994,-0.000671666371638413,-0.00327365334000285,0.0015232530000037596,-0.012780129723259068,-0.0003709556540009263
0.2725,6.561869494966133e-05,-0.7848437924999997,9.255349100017496e-05,-2.355941,9.723693075001339e-05,1.571011375,0.7860690305000002,0.04,0.04,-9.822082049999995,-0.0006956194236432298,-0.0033026665950028765,0.0015615264000037946,-0.012863896228381326,-0.0003803854745009349
0.275,6.220266349965821e-05,-0.7848405749999997,9.431816000017656e-05,-2.3559425000000003,9.737189250001351e-05,1.5710126500000001,0.7860713150000003,0.04,0.04,-9.822019499999994,-0.0007195724756480466,-0.003331679850002903,0.0015997998000038293,-0.012947662733503581,-0.0003898152950009435
0.2775,5.87866320496551e-05,-0.7848373574999997,9.608282900017816e-05,-2.355944,9.750685425001363e-05,1.5710139250000001,0.7860735995000002,0.04,0.04,-9.821956949999993,-0.0007435255276528634,-0.003360693105002929,0.0016380732000038643,-0.013031429238625837,-0.00039924511550095207
0.28,5.5370600599651996e-05,-0.7848341399999997,9.784749800017978e-05,-2.3559455000000002,9.764181600001376e-05,1.5710152000000002,0.7860758840000002,0.04,0.04,-9.821894399999994,-0.0007674785796576802,-0.003389706360002956,0.001676346600003899,-0.013115195743748094,-0.00040867493600096064
0.28250000000000003,5.195456914964888e-05,-0.7848309224999998,9.961216700018138e-05,-2.355947,9.777677775001388e-05,1.5710164750000002,0.7860781685000002,0.04,0.04,-9.821831849999993,-0.000791431631662497,-0.0034187196150029823,0.001714620000003934,-0.01319896224887035,-0.0004181047565009692
0.28500000000000003,4.8170180799588484e-05,-0.7848280949999997,0.00010156706750021257,-2.35594793,9.792532350001612e-05,1.5710177600000002,0.7860807300000002,0.0399999995,0.04,-9.821845100000006,-0.0008181446464760831,-0.0034385336900015777,0.0017554390300043648,-0.013284088484951757,-0.00042819978700108126
0.28750000000000003,4.4201613999584864e-05,-0.7848254624999997,0.00010361708375021444,-2.355948575,9.808066125001625e-05,1.57101905,0.7860834300000002,0.03999999875,0.04,-9.821896250000005,-0.0008462376426934137,-0.0034537481750015918,0.001797530875004403,-0.013369894586512426,-0.0004386274225010908
0.29,4.023304719958134e-05,-0.7848228299999997,0.00010566710000021627,-2.3559492200000003,9.823599900001639e-05,1.5710203400000002,0.7860861300000003,0.039999998,0.04,-9.821947400000006,-0.0008743306389107436,-0.0034689626600016054,0.0018396227200044404,-0.01345570068807309,-0.00044905505800110003
0.2925,3.6264480399577734e-05,-0.7848201974999998,0.00010771711625021814,-2.3559498650000004,9.839133675001653e-05,1.5710216300000002,0.7860888300000003,0.03999999725,0.04,-9.821998550000005,-0.0009024236351280742,-0.003484177145001619,0.0018817145650044788,-0.01354150678963376,-0.0004594826935011095
0.295,3.2295913599574114e-05,-0.7848175649999998,0.00010976713250022,-2.35595051,9.854667450001667e-05,1.57102292,0.7860915300000003,0.0399999965,0.04,-9.822049700000006,-0.0009305166313454047,-0.003499391630001633,0.001923806410004517,-0.013627312891194428,-0.000469910329001119
0.2975,2.8327346799570504e-05,-0.7848149324999998,0.00011181714875022186,-2.355951155,9.870201225001682e-05,1.57102421,0.7860942300000003,0.03999999575,0.04,-9.822100850000007,-0.0009586096275627353,-0.0035146061150016466,0.0019658982550045554,-0.013713118992755097,-0.0004803379645011285
0.3,2.4358779999501406e-05,-0.7848122999999998,0.00011386716500025756,-2.3559518,9.885735000001953e-05,1.5710255000000002,0.7860969300000004,0.039999995,0.04,-9.822151999999999,-0.0009867026237799295,-0.003529820599999474,0.002007990100004968,-0.013798925094315887,-0.0004907656000012066
0.3025,1.9790168439559574e-05,-0.7848102209999999,0.00011622708725022751,-2.3559518,9.903623550001725e-05,1.5710273000000001,0.7861000605000004,0.039999994250000004,0.0399999985,-9.822133849999998,-0.0010135465767259527,-0.003524998759999535,0.0020535128800043883,-0.013885852275424564,-0.0005018214025010657
0.305,1.5221556879617742e-05,-0.7848081419999998,0.00011858700950019746,-2.3559518,9.921512100001497e-05,1.5710291,0.7861031910000003,0.039999993500000004,0.039999997,-9.8221157,-0.001040390529671976,-0.0035201769199995968,0.002099035660003809,-0.013972779456533243,-0.000512877205000925
0.3075,1.065294531967591e-05,-0.7848060629999999,0.00012094693175016741,-2.3559518,9.939400650001269e-05,1.5710309000000002,0.7861063215000003,0.039999992750000005,0.0399999955,-9.822097549999999,-0.0010672344826179994,-0.003515355079999658,0.002144558440003229,-0.014059706637641922,-0.0005239330075007843
0.31,6.084333759734078e-06,-0.7848039839999998,0.00012330685400013737,-2.3559518,9.957289200001041e-05,1.5710327000000002,0.7861094520000002,0.039999992,0.039999994,-9.8220794,-0.0010940784355640226,-0.0035105332399997195,0.0021900812200026498,-0.014146633818750599,-0.0005349888100006435
0.3125,1.5157221997922463e-06,-0.7848019049999999,0.00012566677625010732,-2.3559518,9.975177750000813e-05,1.5710345000000001,0.7861125825000002,0.03999999125,0.0399999925,-9.82206125,-0.0011209223885100459,-0.0035057113999997806,0.00223560400000207,-0.014233560999859278,-0.0005460446125005028
0.315,-3.0528893601495856e-06,-0.7847998259999999,0.00012802669850007727,-2.3559518,9.993066300000586e-05,1.5710363,0.786115713,0.0399999905,0.039999991,-9.8220431,-0.001147766341456069,-0.003500889559999842,0.0022811267800014906,-0.014320488180967955,-0.0005571004150003619
0.3175,-7.837487880175553e-06,-0.7847979365,0.00013049817400009067,-2.35595161,0.00010011793800000687,1.57103812,0.786118983,0.0399999899,0.0399999899,-9.822039750000002,-0.0011765095521706,-0.0034974542199999775,0.002327838000001652,-0.014407429471614826,-0.0005684970475004064
0.32,-1.3054060320322636e-05,-0.7847964259999999,0.00013319275600016665,-2.3559510400000003,0.00010032199200001261,1.5710399800000001,0.7861225320000002,0.0399999896,0.0399999896,-9.822066000000003,-0.0012090512784217328,-0.003496791879999959,0.002376926100003036,-0.014494398981338079,-0.000580575340000747
0.3225,-1.827063276046972e-05,-0.7847949154999999,0.00013588733800024263,-2.3559504700000002,0.00010052604600001838,1.5710418400000001,0.7861260810000003,0.0399999893,0.0399999893,-9.822092250000003,-0.0012415930046728652,-0.0034961295399999403,0.00242601420000442,-0.014581368491061331,-0.0005926536325010876
0.325,-2.34872052006168e-05,-0.7847934049999998,0.0001385819200003186,-2.3559499,0.00010073010000002412,1.5710437000000002,0.7861296300000004,0.039999989,0.039999989,-9.822118500000004,-0.0012741347309239977,-0.0034954671999999215,0.002475102300005804,-0.014668338000784582,-0.0006047319250014282
0.3275,-2.8703777640763882e-05,-0.7847918944999998,0.0001412765020003946,-2.35594933,0.00010093415400002988,1.5710455600000004,0.7861331790000005,0.0399999887,0.0399999887,-9.822144750000003,-0.0013066764571751303,-0.003494804859999903,0.002524190400007188,-0.014755307510507834,-0.0006168102175017687
0.33,-3.3920350080910963e-05,-0.7847903839999998,0.00014397108400047054,-2.35594876,0.00010113820800003563,1.5710474200000004,0.7861367280000006,0.0399999884,0.0399999884,-9.822171000000004,-0.0013392181834262628,-0.0034941425199998843,0.0025732785000085723,-0.014842277020231087,-0.0006288885100021092
0.3325,-3.9136922521058045e-05,-0.7847888734999997,0.00014666566600054652,-2.35594819,0.00010134226200004139,1.5710492800000004,0.7861402770000007,0.0399999881,0.0399999881,-9.822197250000006,-0.0013717599096773952,-0.0034934801799998655,0.0026223666000099563,-0.01492924652995434,-0.0006409668025024498
0.335,-4.481761300120463e-05,-0.7847877229999998,0.00014959997500062225,-2.35594702,0.00010156443400004711,1.5710514100000004,0.7861441540000008,0.0399999876,0.039999987199999996,-9.822227700000006,-0.0014033962506864333,-0.0034718708099934635,0.002673950800010764,-0.01501831365751067,-0.0006535577700026175
0.3375,-5.073036250112935e-05,-0.7847867524999999,0.00015265414750058337,-2.35594555,0.00010179566500004416,1.5710536750000004,0.7861481950000008,0.039999987,0.039999986,-9.822260250000006,-0.001434579899074856,-0.003439787924993872,0.002726783050010091,-0.015108429593982536,-0.0006664050750024539
0.34,-5.664311200105407e-05,-0.7847857819999998,0.00015570832000054446,-2.35594408,0.00010202689600004123,1.5710559400000004,0.7861522360000007,0.0399999864,0.0399999848,-9.822292800000005,-0.001465763547463279,-0.0034077050399942805,0.0027796153000094184,-0.015198545530454405,-0.0006792523800022902
0.3425,-6.255586150097879e-05,-0.7847848114999999,0.00015876249250050558,-2.35594261,0.00010225812700003828,1.5710582050000004,0.7861562770000007,0.0399999858,0.0399999836,-9.822325350000005,-0.001496947195851702,-0.003375622154994689,0.0028324475500087457,-0.015288661466926272,-0.0006920996850021267
0.34500000000000003,-6.84686110009035e-05,-0.7847838409999999,0.0001618166650004667,-2.35594114,0.00010248935800003534,1.5710604700000004,0.7861603180000006,0.039999985200000004,0.039999982399999995,-9.822357900000005,-0.001528130844240125,-0.0033435392699950974,0.002885279800008073,-0.01537877740339814,-0.0007049469900019631
0.34750000000000003,-7.438136050082822e-05,-0.7847828704999998,0.0001648708375004278,-2.35593967,0.00010272058900003239,1.5710627350000002,0.7861643590000006,0.0399999846,0.0399999812,-9.822390450000006,-0.001559314492628548,-0.003311456384995506,0.0029381120500074002,-0.015468893339870008,-0.0007177942950017996
0.35000000000000003,-8.029411000084776e-05,-0.7847819,0.0001679250100004379,-2.3559381999999998,0.00010295182000003314,1.5710650000000002,0.7861684000000005,0.039999984,0.03999998,-9.822423000000002,-0.0015904981410177533,-0.0032793734999961963,0.002990944300007184,-0.015559009276341905,-0.0007306416000017672
0.3525,-8.695145200085367e-05,-0.7847814799999999,0.00017136377500044094,-2.35593607,0.00010321199950003337,1.5710674300000003,0.7861729060000006,0.0399999834,0.039999979549999995,-9.822436650000002,-0.0016278250608640315,-0.0032495025749961696,0.0030473608000072343,-0.01564935292118449,-0.0007445195550017796
0.355,-9.360879400085973e-05,-0.7847810599999999,0.00017480254000044407,-2.35593394,0.0001034721790000336,1.5710698600000004,0.7861774120000006,0.0399999828,0.0399999791,-9.822450300000002,-0.0016651519807103104,-0.0032196316499961426,0.0031037773000072858,-0.015739696566027077,-0.0007583975100017922
0.3575,-0.0001002661360008658,-0.7847806399999999,0.0001782413050004472,-2.35593181,0.00010373235850003383,1.5710722900000003,0.7861819180000006,0.0399999822,0.03999997865,-9.822463950000001,-0.0017024789005565895,-0.003189760724996115,0.003160193800007337,-0.015830040210869666,-0.0007722754650018049
0.36,-0.00010692347800087185,-0.7847802199999999,0.00018168007000045035,-2.3559296799999996,0.00010399253800003408,1.5710747200000004,0.7861864240000006,0.0399999816,0.0399999782,-9.822477600000003,-0.0017398058204028683,-0.003159889799996088,0.0032166103000073882,-0.01592038385571225,-0.0007861534200018174
0.3625,-0.00011358082000087792,-0.7847797999999999,0.00018511883500045348,-2.3559275499999996,0.00010425271750003431,1.5710771500000003,0.7861909300000006,0.039999981,0.03999997775,-9.822491250000002,-0.0017771327402491474,-0.003130018874996061,0.0032730268000074397,-0.01601072750055484,-0.0008000313750018301
0.365,-0.00012023816200088398,-0.7847793799999999,0.0001885576000004566,-2.3559254199999997,0.00010451289700003456,1.5710795800000004,0.7861954360000006,0.039999980399999996,0.039999977299999996,-9.822504900000002,-0.0018144596600954263,-0.0031001479499960334,0.003329443300007491,-0.016101071145397428,-0.0008139093300018427
0.3675,-0.0001271598610009961,-0.7847791399999999,0.0001921329170005145,-2.3559230399999995,0.00010478338650003893,1.5710821400000003,0.7862001230000008,0.03999997985,0.039999976799999996,-9.822523900000004,-0.0018512031121692364,-0.0030614218849924547,0.0033871656050080664,-0.016192361060542334,-0.000828088088001976
0.37,-0.00013461027400100286,-0.78477926,0.000195981338000518,-2.3559201599999997,0.00010507449600003918,1.5710849600000005,0.7862051720000007,0.039999979399999996,0.0399999762,-9.822553600000004,-0.0018867796286988086,-0.003004985539992403,0.0034474995200081213,-0.016285543516290742,-0.0008428684520019895
0.3725,-0.00014206068700100963,-0.78477938,0.0001998297590005215,-2.3559172799999994,0.00010536560550003945,1.5710877800000005,0.7862102210000007,0.03999997895,0.0399999756,-9.822583300000003,-0.001922356145228381,-0.002948549194992352,0.0035078334350081763,-0.016378725972039154,-0.000857648816002003
0.375,-0.00014951110000101643,-0.7847795,0.000203678180000525,-2.3559143999999996,0.00010565671500003972,1.5710906000000004,0.7862152700000007,0.0399999785,0.039999975,-9.822613000000004,-0.0019579326617579535,-0.0028921128499923006,0.003568167350008231,-0.016471908427787563,-0.0008724291800020164
0.3775,-0.0001569615130010232,-0.78477962,0.0002075266010005285,-2.3559115199999994,0.00010594782450003999,1.5710934200000004,0.7862203190000007,0.039999978049999996,0.0399999744,-9.822642700000003,-0.001993509178287526,-0.0028356765049922495,0.003628501265008286,-0.01656509088353597,-0.0008872095440020299
0.38,-0.00016441192600102997,-0.78477974,0.000211375022000532,-2.3559086399999996,0.00010623893400004024,1.5710962400000004,0.7862253680000006,0.0399999776,0.0399999738,-9.822672400000004,-0.0020290856948170983,-0.002779240159992198,0.003688835180008341,-0.016658273339284383,-0.0009019899080020433
0.3825,-0.00017186233900103677,-0.78477986,0.00021522344300053552,-2.3559057599999993,0.00010653004350004051,1.5710990600000003,0.7862304170000007,0.03999997715,0.039999973200000004,-9.822702100000003,-0.0020646622113466707,-0.0027228038149921465,0.003749169095008396,-0.01675145579503279,-0.0009167702720020569
0.385,-0.00017987378600116142,-0.7847803540000001,0.0002193616670005999,-2.355902349999999,0.00010684308260004538,1.5711020000000004,0.7862358560000008,0.0399999766,0.0399999723,-9.822732900000004,-0.0021027448587174,-0.002662082159991195,0.0038118946900089533,-0.01684567555786502,-0.0009320667040021787
0.3875,-0.00018816575000116898,-0.7847810350000001,0.00022364479250060383,-2.3558986749999993,0.00010716708650004568,1.5711050000000004,0.7862414900000008,0.039999976,0.03999997125,-9.822764250000004,-0.0021420805715079206,-0.002599217849991138,0.003875816125009011,-0.01694041397423883,-0.0009476211700021928
0.39,-0.00019645771400117652,-0.7847817160000001,0.00022792791800060772,-2.3558949999999994,0.00010749109040004597,1.5711080000000004,0.7862471240000007,0.0399999754,0.0399999702,-9.822795600000005,-0.0021814162842984414,-0.0025363535399910804,0.00393973756000907,-0.01703515239061264,-0.000963175636002207
0.3925,-0.0002047496780011841,-0.7847823970000001,0.00023221104350061163,-2.3558913249999995,0.00010781509430004627,1.5711110000000004,0.7862527580000008,0.0399999748,0.03999996915,-9.822826950000003,-0.002220751997088962,-0.0024734892299910233,0.004003658995009127,-0.017129890806986455,-0.0009787301020022213
0.395,-0.00021304164200119162,-0.7847830780000001,0.00023649416900061552,-2.3558876499999992,0.00010813909820004655,1.5711140000000006,0.7862583920000008,0.0399999742,0.0399999681,-9.822858300000004,-0.002260087709879483,-0.002410624919990966,0.004067580430009186,-0.017224629223360266,-0.0009942845680022353
0.3975,-0.0002213336060011992,-0.7847837590000001,0.00024077729450061944,-2.3558839749999994,0.00010846310210004685,1.5711170000000005,0.7862640260000008,0.0399999736,0.03999996705,-9.822889650000004,-0.0022994234226700037,-0.0023477606099909084,0.004131501865009244,-0.017319367639734077,-0.0010098390340022496
0.4,-0.00022962557000133624,-0.7847844400000002,0.0002450604200006902,-2.3558802999999995,0.00010878710600005219,1.5711200000000005,0.7862696600000009,0.039999973,0.039999966,-9.822921000000006,-0.0023387591354614044,-0.002284896299987875,0.004195423300009836,-0.017414106056108287,-0.0010253935000024133
0.4025,-0.0002388074585013446,-0.7847856550000002,0.00024980327600069457,-2.3558758599999994,0.00010914575435005252,1.5711235550000007,0.7862759060000009,0.03999997195,0.039999964799999996,-9.822972750000007,-0.002384143578826496,-0.0022015803899877993,0.004263010855009897,-0.01751158786939016,-0.0010419765700024285
0.405,-0.00024798934700135294,-0.7847868700000002,0.00025454613200069886,-2.3558714199999993,0.00010950440270005284,1.5711271100000006,0.786282152000001,0.0399999709,0.0399999636,-9.823024500000008,-0.0024295280221915874,-0.0021182644799877235,0.004330598410009959,-0.017609069682672035,-0.0010585596400024436
0.40750000000000003,-0.0002571712355013613,-0.7847880850000002,0.00025928898800070316,-2.355866979999999,0.00010986305105005317,1.5711306650000005,0.7862883980000009,0.03999996985,0.0399999624,-9.823076250000007,-0.0024749124655566784,-0.0020349485699876478,0.0043981859650100204,-0.017706551495953907,-0.0010751427100024586
0.41000000000000003,-0.00026635312400136965,-0.7847893000000001,0.0002640318440007075,-2.3558625399999995,0.0001102216994000535,1.5711342200000005,0.7862946440000009,0.0399999688,0.0399999612,-9.823128000000008,-0.00252029690892177,-0.0019516326599875718,0.004465773520010082,-0.01780403330923578,-0.0010917257800024738
0.41250000000000003,-0.000275535012501378,-0.7847905150000002,0.0002687747000007118,-2.3558580999999994,0.00011058034775005383,1.5711377750000004,0.7863008900000009,0.03999996775,0.03999996,-9.823179750000008,-0.0025656813522868614,-0.0018683167499874958,0.004533361075010144,-0.017901515122517656,-0.0011083088500024889
0.41500000000000004,-0.00028471690100138636,-0.7847917300000001,0.00027351755600071615,-2.3558536599999993,0.00011093899610005415,1.5711413300000006,0.786307136000001,0.0399999667,0.0399999588,-9.823231500000007,-0.0026110657956519524,-0.00178500083998742,0.004600948630010205,-0.017998996935799528,-0.001124891920002504
0.4175,-0.000294211497001537,-0.7847931280000002,0.00027842195600079393,-2.3558489699999994,0.00011130986025006003,1.5711449250000005,0.7863136020000011,0.0399999656,0.039999957600000004,-9.823275150000004,-0.0026559336343846625,-0.0016989513749861005,0.0046697428500108145,-0.018097015935942675,-0.0011417738050026548
0.42,-0.00030433150800154624,-0.7847948920000003,0.0002836494440007987,-2.3558437799999994,0.00011170515600006039,1.5711486000000006,0.7863205080000011,0.0399999644,0.0399999564,-9.823302600000005,-0.002699768263853317,-0.0016074347999860171,0.004740950400010879,-0.01819610930980764,-0.0011592533200026707
0.4225,-0.0003144515190015554,-0.7847966560000003,0.00028887693200080344,-2.3558385899999994,0.00011210045175006075,1.5711522750000004,0.7863274140000011,0.0399999632,0.0399999552,-9.823330050000004,-0.0027436028933219723,-0.001515918224985934,0.004812157950010944,-0.018295202683672605,-0.0011767328350026866
0.425,-0.00032457153000156467,-0.7847984200000002,0.0002941044200008082,-2.3558333999999994,0.00011249574750006112,1.5711559500000005,0.7863343200000011,0.039999962,0.039999954,-9.823357500000004,-0.002787437522790627,-0.0014244016499858506,0.004883365500011009,-0.01839429605753757,-0.0011942123500027027
0.4275,-0.00033469154100157386,-0.7848001840000003,0.000299331908000813,-2.3558282099999994,0.00011289104325006148,1.5711596250000006,0.7863412260000011,0.0399999608,0.0399999528,-9.823384950000005,-0.002831272152259282,-0.0013328850749857674,0.004954573050011075,-0.018493389431402538,-0.0012116918650027185
0.43,-0.0003448115520015831,-0.7848019480000002,0.00030455939600081773,-2.3558230199999994,0.00011328633900006184,1.5711633000000005,0.7863481320000011,0.0399999596,0.0399999516,-9.823412400000004,-0.002875106781727937,-0.001241368499985684,0.005025780600011139,-0.018592482805267502,-0.0012291713800027344
0.4325,-0.00035493156300159235,-0.7848037120000003,0.0003097868840008225,-2.3558178299999994,0.0001136816347500622,1.5711669750000006,0.7863550380000011,0.0399999584,0.0399999504,-9.823439850000005,-0.002918941411196592,-0.0011498519249856006,0.005096988150011204,-0.018691576179132467,-0.0012466508950027503
0.435,-0.00036570896200175757,-0.7848058400000004,0.0003153539920009079,-2.3558119899999994,0.00011410258500006865,1.5711709600000006,0.7863623830000012,0.039999958,0.03999995,-9.82349765000001,-0.0029671303462316403,-0.0010430468039818882,0.005170573900011834,-0.018793249875323284,-0.0012647243900029072
0.4375,-0.0003768150550017677,-0.7848081500000004,0.0003210909100009131,-2.355805824999999,0.00011453636250006904,1.5711751000000007,0.7863699475000012,0.039999958,0.03999995,-9.823570625000011,-0.0030174964340483413,-0.000928597409981784,0.005245348750011901,-0.018896213732676113,-0.0012830948750029239
0.44,-0.00038792114800177777,-0.7848104600000004,0.00032682782800091834,-2.3557996599999993,0.00011497014000006944,1.5711792400000006,0.7863775120000012,0.039999958,0.03999995,-9.823643600000011,-0.0030678625218650423,-0.0008141480159816798,0.005320123600011969,-0.01899917759002894,-0.0013014653600029406
0.4425,-0.0003990272410017879,-0.7848127700000004,0.0003325647460009235,-2.355793494999999,0.00011540391750006984,1.5711833800000006,0.7863850765000012,0.039999958,0.03999995,-9.823716575000011,-0.003118228609681743,-0.0006996986219815756,0.005394898450012038,-0.01910214144738177,-0.0013198358450029573
0.445,-0.000410133334001798,-0.7848150800000003,0.00033830166400092873,-2.355787329999999,0.00011583769500007023,1.5711875200000007,0.7863926410000012,0.039999958,0.03999995,-9.823789550000011,-0.003168594697498444,-0.0005852492279814715,0.005469673300012105,-0.0192051053047346,-0.001338206330002974
0.4475,-0.00042123942700180805,-0.7848173900000004,0.00034403858200093395,-2.355781164999999,0.00011627147250007063,1.5711916600000007,0.7864002055000012,0.039999958,0.03999995,-9.823862525000012,-0.0032189607853151444,-0.0004707998339813673,0.005544448150012173,-0.01930806916208743,-0.0013565768150029908
0.45,-0.00043234552000198743,-0.7848197000000005,0.0003497755000010266,-2.3557749999999986,0.00011670525000007763,1.5711958000000006,0.7864077700000013,0.039999958,0.03999995,-9.823935500000001,-0.0032693268731315336,-0.00035635043997933017,0.0056192230000128365,-0.019411033019440502,-0.001374947300003153
0.4525,-0.0004444853410021641,-0.7848225950000005,0.0003560464750011179,-2.3557680399999987,0.00011717940300008453,1.5712004500000007,0.7864160395000014,0.039999958,0.03999995,-9.823947425000002,-0.003317788802095899,-0.0002300942189774928,0.005697636505013978,-0.019515492208320565,-0.0013942064150034331
0.455,-0.0004566251620023408,-0.7848254900000006,0.00036231745000120917,-2.3557610799999984,0.00011765355600009143,1.571205100000001,0.7864243090000016,0.039999958,0.03999995,-9.82395935,-0.0033662507310602643,-0.00010383799797565542,0.005776050010015119,-0.019619951397200623,-0.0014134655300037135
0.4575,-0.0004687649830025174,-0.7848283850000006,0.0003685884250013004,-2.3557541199999985,0.00011812770900009833,1.5712097500000008,0.7864325785000017,0.039999958,0.03999995,-9.823971275000002,-0.0034147126600246294,2.2418223026181956e-05,0.00585446351501626,-0.019724410586080682,-0.0014327246450039938
0.46,-0.0004809048040026941,-0.7848312800000006,0.00037485940000139167,-2.3557471599999986,0.00011860186200010523,1.571214400000001,0.7864408480000018,0.039999958,0.03999995,-9.823983200000002,-0.003463174588988995,0.00014867444402801928,0.005932877020017402,-0.019828869774960744,-0.001451983760004274
0.4625,-0.0004930446250028707,-0.7848341750000006,0.00038113037500148297,-2.3557401999999983,0.00011907601500011212,1.5712190500000012,0.7864491175000019,0.039999958,0.03999995,-9.823995125000001,-0.00351163651795336,0.0002749306650298567,0.006011290525018543,-0.019933328963840802,-0.0014712428750045543
0.465,-0.0005051844460030474,-0.7848370700000007,0.0003874013500015742,-2.3557332399999984,0.00011955016800011903,1.5712237000000011,0.786457387000002,0.039999958,0.03999995,-9.824007050000002,-0.0035600984469177253,0.000401186886031694,0.006089704030019684,-0.020037788152720865,-0.0014905019900048346
0.4675,-0.000517684597003391,-0.7848401450000009,0.0003938585050017517,-2.355725989999998,0.00012003839000013244,1.5712284550000013,0.7864659050000022,0.039999958,0.03999995,-9.824037050000017,-0.0036115072202083875,0.0005326326900363765,0.0061693123150210315,-0.02014304222541802,-0.0015100542850051653
0.47000000000000003,-0.0005309054080032227,-0.7848435800000008,0.0004006880200016648,-2.355718159999998,0.00012055475000012587,1.5712334200000013,0.7864749200000022,0.039999958,0.03999995,-9.824103200000016,-0.0036688096821447277,0.0006744576600345707,0.006251310160019988,-0.020249886065747503,-0.0015301929400049089
0.47250000000000003,-0.0005441262190030543,-0.7848470150000008,0.0004075175350015778,-2.355710329999998,0.00012107111000011929,1.5712383850000011,0.786483935000002,0.039999958,0.03999995,-9.824169350000014,-0.0037261121440810684,0.000816282630032765,0.006333308005018944,-0.020356729906076988,-0.0015503315950046526
0.47500000000000003,-0.0005573470300028861,-0.7848504500000008,0.0004143470500014908,-2.3557024999999983,0.00012158747000011272,1.5712433500000011,0.786492950000002,0.039999958,0.03999995,-9.824235500000015,-0.0037834146060174087,0.0009581076000309593,0.0064153058500178994,-0.020463573746406474,-0.0015704702500043961
0.47750000000000004,-0.0005705678410027177,-0.7848538850000006,0.0004211765650014039,-2.3556946699999983,0.00012210383000010614,1.571248315000001,0.7865019650000018,0.039999958,0.03999995,-9.824301650000013,-0.003840717067953749,0.0010999325700291535,0.006497303695016856,-0.02057041758673596,-0.0015906089050041396
0.48,-0.0005837886520025491,-0.7848573200000006,0.00042800608000131675,-2.3556868399999984,0.00012262019000009957,1.571253280000001,0.7865109800000017,0.039999958,0.03999995,-9.824367800000012,-0.0038980195298900884,0.0012417575400273447,0.00657930154001581,-0.02067726142706544,-0.001610747560003883
0.4825,-0.0005970094630023808,-0.7848607550000006,0.0004348355950012298,-2.355679009999999,0.000123136550000093,1.571258245000001,0.7865199950000016,0.039999958,0.03999995,-9.824433950000012,-0.003955321991826429,0.0013835825100255391,0.006661299385014766,-0.020784105267394926,-0.0016308862150036265
0.485,-0.0006109821600025317,-0.7848645900000008,0.0004420535830013078,-2.3556706099999984,0.0001236823100000989,1.571263450000001,0.7865295100000017,0.039999958,0.03999995,-9.824480900000006,-0.004011381417522621,0.0015419071700293898,0.00674564850001509,-0.020893074385841214,-0.0016516049000037066
0.4875,-0.0006253308000025447,-0.7848686250000008,0.00044946580750131453,-2.3556619249999984,0.0001242427700000994,1.571268775000001,0.7865392750000018,0.039999958,0.03999995,-9.824518250000006,-0.0040668193250992316,0.0017084816750295414,0.006831173250015168,-0.021003106143345062,-0.0016726136000037258
0.49,-0.0006396794400025578,-0.7848726600000008,0.00045687803200132127,-2.3556532399999983,0.0001248032300000999,1.571274100000001,0.7865490400000017,0.039999958,0.03999995,-9.824555600000007,-0.004122257232675842,0.0018750561800296931,0.006916698000015245,-0.021113137900848913,-0.001693622300003745
0.4925,-0.0006540280800025708,-0.7848766950000008,0.00046429025650132806,-2.3556445549999983,0.00012536369000010043,1.5712794250000008,0.7865588050000017,0.039999958,0.03999995,-9.824592950000007,-0.004177695140252452,0.002041630685029845,0.007002222750015323,-0.021223169658352765,-0.001714631000003764
0.495,-0.0006683767200025839,-0.7848807300000008,0.0004717024810013348,-2.355635869999998,0.00012592415000010093,1.571284750000001,0.7865685700000018,0.039999958,0.03999995,-9.824630300000006,-0.004233133047829063,0.0022082051900299965,0.007087747500015401,-0.021333201415856616,-0.0017356397000037832
0.4975,-0.000682725360002597,-0.7848847650000008,0.00047911470550134153,-2.355627184999998,0.00012648461000010143,1.571290075000001,0.7865783350000017,0.039999958,0.03999995,-9.824667650000007,-0.004288570955405673,0.002374779695030148,0.007173272250015479,-0.021443233173360464,-0.0017566484000038024
0.5,-0.0006970740000028236,-0.7848888000000009,0.00048652693000145864,-2.355618499999998,0.0001270450700001103,1.571295400000001,0.7865881000000019,0.039999958,0.03999995,-9.824705000000014,-0.004344008862983659,0.0025413542000329737,0.00725879700001621,-0.021553264930864915,-0.001777657100003955
0.5025000000000001,-0.0007125968850028381,-0.7848934050000009,0.0004945458700014661,-2.3556088249999982,0.00012765148850011086,1.571301265000001,0.7865986600000019,0.0399999583,0.03999995,-9.824781125000014,-0.004407009342696798,0.0027226285250331428,0.007347913950016293,-0.021666600275805446,-0.0017993993750039753
0.505,-0.0007281197700028519,-0.7848980100000009,0.0005025648100014733,-2.355599149999998,0.0001282579070001114,1.571307130000001,0.786609220000002,0.0399999586,0.03999995,-9.824857250000013,-0.004470009822409934,0.0029039028500333036,0.007437030900016372,-0.021779935620745972,-0.0018211416500039945
0.5075000000000001,-0.0007436426550028664,-0.7849026150000009,0.0005105837500014807,-2.355589474999998,0.00012886432550011196,1.571312995000001,0.786619780000002,0.0399999589,0.03999995,-9.824933375000013,-0.004533010302123074,0.0030851771750334727,0.007526147850016455,-0.021893270965686502,-0.0018428839250040148
0.51,-0.0007591655400028801,-0.7849072200000009,0.0005186026900014879,-2.3555797999999983,0.00012947074400011251,1.5713188600000012,0.786630340000002,0.039999959200000004,0.03999995,-9.825009500000014,-0.004596010781836209,0.003266451500033634,0.007615264800016535,-0.02200660631062703,-0.001864626200004034
0.5125,-0.0007746884250028939,-0.7849118250000009,0.000526621630001495,-2.355570124999998,0.00013007716250011306,1.571324725000001,0.786640900000002,0.0399999595,0.03999995,-9.825085625000014,-0.004659011261549345,0.0034477258250337948,0.007704381750016614,-0.022119941655567556,-0.0018863684750040533
0.515,-0.0007902113100029084,-0.7849164300000009,0.0005346405700015024,-2.3555604499999983,0.00013068358100011362,1.5713305900000012,0.786651460000002,0.0399999598,0.03999995,-9.825161750000014,-0.0047220117412624845,0.003629000150033964,0.007793498700016697,-0.022233277000508086,-0.0019081107500040736
0.5175,-0.0008061408750031519,-0.784921230000001,0.0005428696400016283,-2.355550474999998,0.00013130587500012313,1.5713366200000012,0.7866622980000022,0.0399999603,0.0399999502,-9.825220275000003,-0.00478480898310666,0.0038151818400368963,0.007883765000017424,-0.02234727870675112,-0.001930180620004278
0.52,-0.0008228838000031675,-0.784926420000001,0.0005515189700016364,-2.355539899999998,0.00013195992000012373,1.5713429800000012,0.7866736920000021,0.0399999612,0.039999950799999996,-9.825243600000004,-0.004847199749213263,0.004011178260037079,0.00797633000001751,-0.02246261313559806,-0.0019529056800042992
0.5225,-0.0008396267250031824,-0.784931610000001,0.000560168300001644,-2.3555293249999982,0.0001326139650001243,1.5713493400000011,0.7866850860000022,0.0399999621,0.0399999514,-9.825266925000003,-0.004909590515319863,0.004207174680037253,0.008068895000017593,-0.022577947564444992,-0.0019756307400043195
0.525,-0.0008563696500031979,-0.784936800000001,0.0005688176300016521,-2.355518749999998,0.0001332680100001249,1.5713557000000011,0.7866964800000023,0.039999963,0.039999952,-9.825290250000004,-0.004971981281426467,0.004403171100037436,0.00816146000001768,-0.022693281993291927,-0.0019983558000043404
0.5275,-0.0008731125750032128,-0.784941990000001,0.0005774669600016598,-2.355508174999998,0.0001339220550001255,1.5713620600000011,0.7867078740000022,0.0399999639,0.0399999526,-9.825313575000004,-0.005034372047533067,0.00459916752003761,0.008254025000017762,-0.022808616422138862,-0.002021080860004361
0.53,-0.0008898555000032284,-0.784947180000001,0.0005861162900016678,-2.355497599999998,0.00013457610000012612,1.5713684200000013,0.7867192680000022,0.039999964799999996,0.0399999532,-9.825336900000003,-0.00509676281363967,0.004795163940037792,0.008346590000017848,-0.022923950850985798,-0.002043805920004382
0.5325,-0.0009065984250032433,-0.784952370000001,0.0005947656200016755,-2.355487024999998,0.0001352301450001267,1.5713747800000013,0.7867306620000022,0.0399999657,0.039999953799999995,-9.825360225000004,-0.005159153579746271,0.004991160360037966,0.00843915500001793,-0.02303928527983273,-0.0020665309800044023
0.535,-0.0009241849000035052,-0.7849579650000011,0.0006038508440018108,-2.355475749999998,0.00013591716900013693,1.5713814600000013,0.7867426240000024,0.039999966399999996,0.039999954399999996,-9.825417200000013,-0.005228035757332099,0.005200617700042079,0.0085340603000187,-0.023156559094809615,-0.002089819240004588
0.5375,-0.0009421931500035212,-0.7849637625000011,0.0006131540150018191,-2.355464124999998,0.00013662068250013754,1.5713883000000013,0.7867548700000024,0.039999967,0.039999955,-9.825491000000014,-0.005300163640654703,0.005416805500042272,0.008630135750018786,-0.02327480260285062,-0.0021133891000046086
0.54,-0.000960201400003538,-0.7849695600000012,0.0006224571860018277,-2.3554524999999975,0.0001373241960001382,1.5713951400000012,0.7867671160000024,0.0399999676,0.0399999556,-9.825564800000015,-0.005372291523977311,0.005632993300042474,0.008726211200018876,-0.02339304611089163,-0.002136958960004631
0.5425,-0.000978209650003554,-0.7849753575000011,0.000631760357001836,-2.3554408749999975,0.00013802770950013883,1.5714019800000012,0.7867793620000024,0.0399999682,0.0399999562,-9.825638600000014,-0.005444419407299914,0.005849181100042665,0.008822286650018961,-0.023511289618932635,-0.0021605288200046515
0.545,-0.0009962179000035708,-0.7849811550000012,0.0006410635280018447,-2.3554292499999976,0.0001387312230001395,1.5714088200000014,0.7867916080000025,0.0399999688,0.0399999568,-9.825712400000015,-0.005516547290622522,0.006065368900042867,0.008918362100019051,-0.023629533126973648,-0.002184098680004674
0.5475,-0.0010142261500035868,-0.7849869525000012,0.0006503666990018529,-2.3554176249999976,0.0001394347365001401,1.5714156600000013,0.7868038540000024,0.0399999694,0.0399999574,-9.825786200000016,-0.005588675173945126,0.006281556700043059,0.009014437550019136,-0.02374777663501465,-0.0022076685400046945
0.55,-0.0010322344000038657,-0.7849927500000013,0.0006596698700019971,-2.3554059999999972,0.00014013825000015103,1.5714225000000015,0.7868161000000027,0.03999997,0.039999958,-9.825860000000006,-0.005660803057267028,0.006497744500048363,0.0091105130000199,-0.023866020143056173,-0.002231238400004883
0.5525,-0.001051552690003883,-0.7849991625000013,0.000669649989502006,-2.3553934599999975,0.0001408929705001517,1.5714298200000014,0.7868292550000027,0.039999970450000005,0.0399999583,-9.825888050000007,-0.005729406978948729,0.006739429375048578,0.009209951600019988,-0.02398681398483551,-0.0022556396650049047
0.555,-0.001070870980003901,-0.7850055750000013,0.0006796301090020153,-2.3553809199999973,0.0001416476910001524,1.5714371400000013,0.7868424100000027,0.0399999709,0.0399999586,-9.825916100000006,-0.005798010900630433,0.006981114250048803,0.00930939020002008,-0.024107607826614853,-0.0022800409300049273
0.5575,-0.001090189270003918,-0.7850119875000013,0.0006896102285020242,-2.355368379999997,0.00014240241150015307,1.5714444600000015,0.7868555650000026,0.03999997135,0.0399999589,-9.825944150000007,-0.005866614822312134,0.007222799125049017,0.009408828800020167,-0.02422840166839419,-0.002304442195004949
0.56,-0.001109507560003936,-0.7850184000000013,0.0006995903480020335,-2.3553558399999974,0.00014315713200015377,1.5714517800000014,0.7868687200000027,0.0399999718,0.039999959200000004,-9.825972200000006,-0.005935218743993838,0.007464484000049243,0.00950826740002026,-0.024349195510173532,-0.0023288434600049718
0.5625,-0.0011288258500039533,-0.7850248125000013,0.0007095704675020424,-2.3553432999999973,0.00014391185250015444,1.5714591000000016,0.7868818750000027,0.03999997225,0.0399999595,-9.826000250000007,-0.006003822665675539,0.007706168875049458,0.009607706000020349,-0.02446998935195287,-0.002353244725004993
0.5650000000000001,-0.0011481441400039711,-0.7850312250000013,0.0007195505870020517,-2.3553307599999975,0.00014466657300015514,1.5714664200000015,0.7868950300000027,0.039999972700000004,0.0399999598,-9.826028300000006,-0.006072426587357242,0.007947853750049683,0.00970714460002044,-0.024590783193732212,-0.002377645990005016
0.5675,-0.001167913810004268,-0.7850378420000015,0.000729763967002205,-2.3553178699999973,0.00014543895200016675,1.5714739200000016,0.786908490000003,0.039999973,0.03999996,-9.826075150000019,-0.006144739384779325,0.008194550100053,0.00980768345002121,-0.024712689872856648,-0.002402320595005207
0.5700000000000001,-0.0011885862400042872,-0.7850448680000015,0.0007404438680022149,-2.3553042799999973,0.00014624664800016752,1.5714817800000016,0.7869225600000029,0.039999973,0.03999996,-9.826159600000018,-0.006224469933675295,0.008451269400053241,0.009910422800021306,-0.024836822226669223,-0.0024275418800052307
0.5725,-0.0012092586700043057,-0.7850518940000014,0.0007511237690022244,-2.3552906899999972,0.00014705434400016823,1.5714896400000016,0.7869366300000029,0.039999973,0.03999996,-9.82624405000002,-0.006304200482571261,0.008707988700053468,0.010013162150021399,-0.024960954580481795,-0.0024527631650052527
0.5750000000000001,-0.001229931100004325,-0.7850589200000014,0.0007618036700022344,-2.3552770999999972,0.000147862040000169,1.5714975000000015,0.786950700000003,0.039999973,0.03999996,-9.826328500000018,-0.0063839310314672305,0.008964708000053709,0.010115901500021495,-0.02508508693429437,-0.0024779844500052764
0.5775,-0.0012506035300043432,-0.7850659460000015,0.0007724835710022438,-2.3552635099999972,0.0001486697360001697,1.5715053600000017,0.786964770000003,0.039999973,0.03999996,-9.826412950000018,-0.006463661580363197,0.009221427300053937,0.010218640850021585,-0.02520921928810694,-0.002503205735005299
0.58,-0.0012712759600043617,-0.7850729720000015,0.0007831634720022533,-2.355249919999997,0.0001494774320001704,1.5715132200000017,0.786978840000003,0.039999973,0.03999996,-9.826497400000019,-0.006543392129259162,0.009478146600054164,0.010321380200021676,-0.02533335164191951,-0.0025284270200053214
0.5825,-0.001291948390004381,-0.7850799980000015,0.0007938433730022632,-2.355236329999997,0.00015028512800017117,1.5715210800000017,0.7869929100000029,0.039999973,0.03999996,-9.826581850000018,-0.006623122678155131,0.009734865900054405,0.010424119550021772,-0.025457483995732087,-0.0025536483050053447
0.585,-0.0013135524700046968,-0.7850874260000016,0.0008050047300024265,-2.3552220399999966,0.0001511292710001835,1.5715292800000018,0.7870076300000032,0.039999973,0.03999996,-9.826630200000007,-0.006700568553076458,0.01000749085005971,0.010529068600022569,-0.02558338157835314,-0.00257941059000554
0.5875,-0.0013356223750047172,-0.7850950550000017,0.0008164068150024371,-2.3552073999999967,0.00015199163750018432,1.5715376500000018,0.7870226750000032,0.039999973,0.03999996,-9.826660500000006,-0.006776872091011559,0.010288068625059972,0.010635122500022668,-0.025710161775377598,-0.002605443375005564
0.59,-0.0013576922800047368,-0.7851026840000016,0.0008278089000024472,-2.355192759999997,0.0001528540040001851,1.5715460200000018,0.7870377200000032,0.039999973,0.03999996,-9.826690800000007,-0.006853175628946657,0.01056864640006022,0.010741176400022763,-0.02583694197240205,-0.002631476160005587
0.5925,-0.0013797621850047575,-0.7851103130000017,0.0008392109850024578,-2.355178119999997,0.0001537163705001859,1.5715543900000017,0.7870527650000032,0.039999973,0.03999996,-9.826721100000007,-0.006929479166881758,0.010849224175060481,0.01084723030002286,-0.02596372216942651,-0.0026575089450056114
0.595,-0.001401832090004777,-0.7851179420000016,0.000850613070002468,-2.3551634799999968,0.00015457873700018665,1.5715627600000017,0.7870678100000033,0.039999973,0.03999996,-9.826751400000006,-0.007005782704816856,0.011129801950060731,0.010953284200022955,-0.02609050236645096,-0.0026835417300056347
0.5975,-0.0014239019950047975,-0.7851255710000017,0.0008620151550024787,-2.355148839999997,0.00015544110350018746,1.5715711300000017,0.7870828550000033,0.039999973,0.03999996,-9.826781700000007,-0.007082086242751957,0.011410379725060992,0.011059338100023054,-0.02621728256347542,-0.002709574515005659
0.6,-0.0014459719000051315,-0.7851332000000018,0.0008734172400026512,-2.3551341999999966,0.0001563034700002005,1.571579500000002,0.7870979000000035,0.039999973,0.03999996,-9.826812000000018,-0.007158389780689536,0.011690957500064983,0.01116539200002383,-0.026344062760500556,-0.002735607300005855
0.6025,-0.0014694820450051535,-0.7851414350000018,0.0008855636190026625,-2.3551185399999968,0.00015722219750020138,1.5715884250000018,0.7871138990000035,0.0399999736,0.0399999609,-9.826889850000017,-0.007246061204951833,0.01198867142506526,0.011274571150023931,-0.026473970524995106,-0.00276243316500588
0.605,-0.0014929921900051744,-0.7851496700000018,0.0008977099980026733,-2.355102879999997,0.0001581409250002022,1.571597350000002,0.7871298980000035,0.0399999742,0.0399999618,-9.826967700000017,-0.007333732629214126,0.012286385350065524,0.01138375030002403,-0.026603878289489652,-0.002789259030005904
0.6075,-0.0015165023350051962,-0.7851579050000018,0.0009098563770026846,-2.3550872199999966,0.00015905965250020306,1.571606275000002,0.7871458970000036,0.0399999748,0.0399999627,-9.827045550000017,-0.0074214040534764224,0.012584099275065801,0.011492929450024131,-0.0267337860539842,-0.002816084895005929
0.61,-0.001540012480005217,-0.7851661400000018,0.0009220027560026954,-2.3550715599999967,0.00015997838000020388,1.5716152000000019,0.7871618960000036,0.0399999754,0.0399999636,-9.827123400000017,-0.007509075477738715,0.012881813200066067,0.011602108600024228,-0.026863693818478748,-0.002842910760005953
0.6125,-0.001563522625005239,-0.7851743750000019,0.0009341491350027068,-2.3550558999999964,0.00016089710750020472,1.571624125000002,0.7871778950000036,0.039999976,0.0399999645,-9.827201250000018,-0.007596746902001012,0.013179527125066344,0.01171128775002433,-0.0269936015829733,-0.002869736625005978
0.615,-0.00158703277000526,-0.7851826100000019,0.0009462955140027176,-2.3550402399999966,0.00016181583500020553,1.571633050000002,0.7871938940000036,0.0399999766,0.0399999654,-9.827279100000016,-0.007684418326263305,0.013477241050066608,0.011820466900024426,-0.027123509347467847,-0.0028965624900060016
0.6175,-0.001611036975005615,-0.785191073000002,0.000958697215002901,-2.355024234999996,0.0001627538875002194,1.5716421600000021,0.7872102320000038,0.039999977,0.039999966,-9.827344600000009,-0.007771120546404614,0.013782681750072094,0.01193074755002527,-0.027254455257237017,-0.0029236496000062027
0.62,-0.001636029300005637,-0.785199992000002,0.0009716095600029124,-2.3550075399999963,0.0001637305900002203,1.5716516400000022,0.7872272480000039,0.039999977,0.039999966,-9.827385400000008,-0.0078558843583059,0.01410357600007238,0.012043231200025371,-0.027387477457553325,-0.002951259200006227
0.6225,-0.0016610216250056604,-0.785208911000002,0.0009845219050029245,-2.354990844999996,0.0001647072925002212,1.5716611200000021,0.7872442640000039,0.039999977,0.039999966,-9.827426200000009,-0.007940648170207188,0.014424470250072678,0.012155714850025475,-0.027520499657869638,-0.002978868800006253
0.625,-0.0016860139500056825,-0.785217830000002,0.000997434250002936,-2.3549741499999963,0.00016568399500022207,1.5716706000000022,0.7872612800000038,0.039999977,0.039999966,-9.82746700000001,-0.008025411982108472,0.014745364500072963,0.012268198500025576,-0.027653521858185946,-0.0030064784000062776
0.6275000000000001,-0.0017110062750057059,-0.785226749000002,0.001010346595002948,-2.354957454999996,0.000166660697500223,1.5716800800000021,0.7872782960000039,0.039999977,0.039999966,-9.827507800000008,-0.008110175794009761,0.015066258750073263,0.01238068215002568,-0.02778654405850226,-0.0030340880000063034
0.63,-0.0017359986000057281,-0.785235668000002,0.0010232589400029596,-2.3549407599999963,0.00016763740000022386,1.5716895600000023,0.7872953120000039,0.039999977,0.039999966,-9.827548600000009,-0.008194939605911047,0.015387153000073548,0.01249316580002578,-0.027919566258818567,-0.003061697600006328
0.6325000000000001,-0.0017609909250057513,-0.785244587000002,0.0010361712850029715,-2.354924064999996,0.00016861410250022476,1.5716990400000022,0.7873123280000038,0.039999977,0.039999966,-9.82758940000001,-0.008279703417812336,0.015708047250073846,0.012605649450025886,-0.02805258845913488,-0.003089307200006354
0.635,-0.0017869989400061256,-0.7852539380000022,0.001049608520003165,-2.354906619999996,0.00016963058800023941,1.5717089300000024,0.7873300400000042,0.039999977,0.039999966,-9.827642600000013,-0.008369638770840003,0.01604653450008023,0.012720179700026694,-0.02818759959194223,-0.0031174304800065562
0.6375000000000001,-0.0018135148000061503,-0.7852635050000022,0.0010633082000031777,-2.354888799999996,0.0001706669650002404,1.5717190250000024,0.7873481000000041,0.039999977,0.039999966,-9.827702000000015,-0.008462159894428185,0.01639381825008055,0.012835733250026803,-0.02832360519099407,-0.003145810600006583
0.64,-0.0018400306600061737,-0.7852730720000022,0.0010770078800031897,-2.354870979999996,0.00017170334200024132,1.5717291200000023,0.7873661600000041,0.039999977,0.039999966,-9.827761400000014,-0.008554681018016362,0.01674110200008086,0.012951286800026905,-0.028459610790045907,-0.003174190720006608
0.6425,-0.0018665465200061974,-0.7852826390000023,0.001090707560003202,-2.354853159999996,0.00017273971900024223,1.5717392150000025,0.7873842200000042,0.039999977,0.039999966,-9.827820800000014,-0.00864720214160454,0.01708838575008117,0.013066840350027007,-0.02859561638909774,-0.0032025708400066333
0.645,-0.001893062380006222,-0.7852922060000023,0.0011044072400032147,-2.3548353399999957,0.0001737760960002432,1.5717493100000024,0.7874022800000042,0.039999977,0.039999966,-9.827880200000013,-0.008739723265192722,0.01743566950008149,0.013182393900027116,-0.028731621988149582,-0.00323095096000666
0.6475,-0.0019195782400062457,-0.7853017730000023,0.0011181069200032268,-2.3548175199999957,0.0001748124730002441,1.5717594050000023,0.7874203400000043,0.039999977,0.039999966,-9.827939600000015,-0.008832244388780898,0.0177829532500818,0.013297947450027218,-0.02886762758720142,-0.0032593310800066847
0.65,-0.0019460941000066403,-0.7853113400000025,0.0011318066000034308,-2.3547996999999956,0.0001758488500002596,1.5717695000000025,0.7874384000000045,0.039999977,0.039999966,-9.827999000000018,-0.008924765512370989,0.01813023700008597,0.013413501000028055,-0.029003633186253937,-0.00328771120000686
0.6525,-0.001974173935006665,-0.7853215490000024,0.0011463146900034438,-2.3547807549999957,0.00017694651100026056,1.5717801650000025,0.7874575250000045,0.039999977,0.0399999651,-9.828075950000018,-0.009025358408713352,0.018493778350086292,0.01353213795002816,-0.029142500087651756,-0.003316720120006886
0.655,-0.0020022537700066915,-0.7853317580000024,0.0011608227800034572,-2.3547618099999954,0.00017804417200026156,1.5717908300000025,0.7874766500000046,0.039999977,0.0399999642,-9.828152900000019,-0.009125951305055722,0.018857319700086632,0.013650774900028272,-0.02928136698904958,-0.0033457290400069127
0.6575,-0.0020303336050067162,-0.7853419670000025,0.0011753308700034701,-2.3547428649999955,0.00017914183300026256,1.5718014950000025,0.7874957750000046,0.039999977,0.0399999633,-9.82822985000002,-0.009226544201398085,0.019220861050086954,0.013769411850028376,-0.0294202338904474,-0.0033747379600069386
0.66,-0.0020584134400067427,-0.7853521760000024,0.0011898389600034835,-2.354723919999995,0.00018023949400026355,1.5718121600000026,0.7875149000000046,0.039999977,0.0399999624,-9.828306800000018,-0.009327137097740454,0.019584402400087294,0.013888048800028486,-0.029559100791845223,-0.0034037468800069658
0.6625,-0.0020864932750067674,-0.7853623850000024,0.0012043470500034965,-2.3547049749999953,0.00018133715500026452,1.5718228250000026,0.7875340250000047,0.039999977,0.0399999615,-9.828383750000018,-0.009427729994082819,0.019947943750087616,0.014006685750028593,-0.02969796769324304,-0.003432755800006991
0.665,-0.002114573110006794,-0.7853725940000025,0.0012188551400035101,-2.3546860299999954,0.00018243481600026555,1.5718334900000026,0.7875531500000047,0.039999977,0.0399999606,-9.828460700000019,-0.009528322890425187,0.020311485100087956,0.014125322700028703,-0.029836834594640867,-0.0034617647200070184
0.6675,-0.002143187575007208,-0.7853830400000026,0.0012336394900037241,-2.354666689999995,0.00018355339350028177,1.5718443650000027,0.787572637500005,0.039999977,0.03999996,-9.828523700000009,-0.009628114290559252,0.02068426625009501,0.01424495035002953,-0.029976719711010263,-0.0034910630500072553
0.67,-0.002172871300007236,-0.7853939600000026,0.0012489763600037384,-2.354646559999995,0.00018471380400028286,1.5718556600000029,0.787592850000005,0.039999977,0.03999996,-9.828558800000009,-0.009726302698278474,0.021075527000095375,0.014366559400029644,-0.030118641257320593,-0.003520940200007283
0.6725,-0.002202555025007262,-0.7854048800000026,0.0012643132300037521,-2.354626429999995,0.0001858742145002839,1.5718669550000028,0.787613062500005,0.039999977,0.03999996,-9.828593900000008,-0.009824491105997693,0.021466787750095723,0.014488168450029752,-0.03026056280363092,-0.0035508173500073095
0.675,-0.00223223875000729,-0.7854158000000027,0.0012796501000037664,-2.354606299999995,0.00018703462500028496,1.5718782500000028,0.787633275000005,0.039999977,0.03999996,-9.828629000000008,-0.009922679513716913,0.021858048500096088,0.014609777500029864,-0.030402484349941254,-0.0035806945000073373
0.6775,-0.0022619224750073164,-0.7854267200000027,0.00129498697000378,-2.354586169999995,0.000188195035500286,1.5718895450000028,0.787653487500005,0.039999977,0.03999996,-9.82866410000001,-0.010020867921436132,0.02224930925009643,0.014731386550029972,-0.03054440589625158,-0.003610571650007364
0.68,-0.002291606200007344,-0.7854376400000027,0.0013103238400037943,-2.354566039999995,0.0001893554460002871,1.5719008400000027,0.787673700000005,0.039999977,0.03999996,-9.82869920000001,-0.010119056329155352,0.022640570000096796,0.014852995600030085,-0.03068632744256191,-0.0036404488000073916
0.6825,-0.0023212899250073704,-0.7854485600000027,0.001325660710003808,-2.3545459099999952,0.0001905158565002881,1.571912135000003,0.787693912500005,0.039999977,0.03999996,-9.82873430000001,-0.01021724473687457,0.023031830750097144,0.014974604650030194,-0.030828248988872237,-0.0036703259500074185
0.685,-0.0023520687300078074,-0.7854599350000029,0.001341563600004034,-2.3545249799999945,0.00019171917200030525,1.571923820000003,0.7877148720000053,0.039999977,0.03999996,-9.828793700000018,-0.010323856584755311,0.023438050700103102,0.01509817450003104,-0.0309719178825977,-0.003700692360007629
0.6875,-0.0023833950750078354,-0.785471537500003,0.0013577495000040483,-2.3545036499999945,0.00019294394000030632,1.571935700000003,0.7877362050000053,0.039999977,0.03999996,-9.82886525000002,-0.010434680152712093,0.02385175025010347,0.015222724750031152,-0.03111646045002975,-0.0037313034000076564
0.6900000000000001,-0.0024147214200078643,-0.785483140000003,0.0013739354000040632,-2.354482319999995,0.00019416870800030748,1.5719475800000031,0.7877575380000054,0.039999977,0.03999996,-9.828936800000019,-0.010545503720668882,0.024265449800103856,0.015347275000031267,-0.031261003017461805,-0.0037619144400076847
0.6925,-0.0024460477650078923,-0.785494742500003,0.0013901213000040778,-2.354460989999995,0.00019539347600030856,1.571959460000003,0.7877788710000053,0.039999977,0.03999996,-9.829008350000018,-0.010656327288625665,0.024679149350104224,0.015471825250031377,-0.031405545584893856,-0.0037925254800077117
0.6950000000000001,-0.0024773741100079217,-0.7855063450000029,0.0014063072000040928,-2.354439659999995,0.0001966182440003097,1.571971340000003,0.7878002040000054,0.039999977,0.03999996,-9.82907990000002,-0.010767150856582454,0.02509284890010461,0.015596375500031495,-0.03155008815232591,-0.0038231365200077404
0.6975,-0.0025087004550079493,-0.7855179475000029,0.0014224931000041071,-2.354418329999995,0.0001978430120003108,1.571983220000003,0.7878215370000053,0.039999977,0.03999996,-9.829151450000019,-0.010877974424539237,0.025506548450104978,0.015720925750031606,-0.03169463071975796,-0.0038537475600077674
0.7000000000000001,-0.0025400268000084067,-0.7855295500000031,0.0014386790000043435,-2.3543969999999943,0.00019906778000032871,1.5719951000000032,0.7878428700000057,0.039999977,0.03999996,-9.829223000000008,-0.010988797992495051,0.025920248000112254,0.015845476000032464,-0.031839173287190735,-0.0038843586000079774
0.7025,-0.002573033880008436,-0.7855418425000031,0.0014557337000043588,-2.354374439999994,0.00020035835600032984,1.5720076100000033,0.7878653385000057,0.039999977,0.03999996,-9.829253600000008,-0.01109579270708308,0.026361002300112645,0.015972938650032575,-0.03198654782030767,-0.003915681360008005
0.705,-0.002606040960008465,-0.7855541350000032,0.0014727884000043739,-2.3543518799999945,0.000201648932000331,1.5720201200000032,0.7878878070000057,0.039999977,0.03999996,-9.829284200000009,-0.01120278742167111,0.026801756600113035,0.01610040130003269,-0.03213392235342462,-0.003947004120008033
0.7075,-0.002639048040008496,-0.7855664275000032,0.0014898431000043898,-2.3543293199999944,0.0002029395080003322,1.5720326300000032,0.7879102755000058,0.039999977,0.03999996,-9.82931480000001,-0.011309782136259145,0.027242510900113447,0.016227863950032808,-0.03228129688654156,-0.003978326880008062
0.71,-0.0026720551200085253,-0.7855787200000032,0.0015068978000044048,-2.3543067599999943,0.00020423008400033334,1.5720451400000033,0.7879327440000058,0.039999977,0.03999996,-9.829345400000008,-0.011416776850847176,0.027683265200113837,0.016355326600032923,-0.0324286714196585,-0.00400964964000809
0.7125,-0.002705062200008556,-0.7855910125000032,0.0015239525000044208,-2.354284199999994,0.00020552066000033455,1.5720576500000032,0.7879552125000058,0.039999977,0.03999996,-9.829376000000009,-0.01152377156543521,0.02812401950011425,0.01648278925003304,-0.03257604595277545,-0.004040972400008119
0.715,-0.002738069280008585,-0.7856033050000032,0.001541007200004436,-2.3542616399999945,0.0002068112360003357,1.572070160000003,0.7879776810000059,0.039999977,0.03999996,-9.82940660000001,-0.01163076628002324,0.028564773800114643,0.016610251900033155,-0.03272342048589239,-0.0040722951600081474
0.7175,-0.0027716491100090645,-0.7856158370000034,0.0015583579350046837,-2.354238639999994,0.00020812424650035446,1.5720828800000033,0.7880005420000061,0.039999977,0.03999996,-9.829450700000018,-0.011742088012428578,0.029012183750120265,0.016738674050034024,-0.03287170454863642,-0.004103851700008359
0.72,-0.0028063744400090955,-0.7856288480000034,0.0015763007400046995,-2.354214759999994,0.00020948212600035567,1.5720960200000034,0.7880241880000062,0.039999977,0.03999996,-9.82952180000002,-0.011862063780458364,0.02947290500012067,0.01686901520003414,-0.033021807670632494,-0.0041358758000083875
0.7225,-0.0028410997700091278,-0.7856418590000034,0.0015942435450047162,-2.3541908799999938,0.00021084000550035693,1.5721091600000034,0.7880478340000062,0.039999977,0.03999996,-9.82959290000002,-0.011982039548488156,0.029933626250121102,0.016999356350034262,-0.033171910792628566,-0.004167899900008418
0.725,-0.0028758251000091588,-0.7856548700000034,0.0016121863500047323,-2.3541669999999937,0.00021219788500035814,1.5721223000000035,0.7880714800000063,0.039999977,0.03999996,-9.829664000000019,-0.012102015316517943,0.030394347500121512,0.017129697500034378,-0.03332201391462464,-0.004199924000008446
0.7275,-0.002910550430009191,-0.7856678810000034,0.001630129155004749,-2.3541431199999936,0.0002135557645003594,1.5721354400000034,0.7880951260000062,0.039999977,0.03999996,-9.829735100000018,-0.012221991084547735,0.03085506875012194,0.0172600386500345,-0.03347211703662071,-0.004231948100008476
0.73,-0.002945275760009222,-0.7856808920000035,0.001648071960004765,-2.354119239999994,0.00021491364400036061,1.5721485800000035,0.7881187720000062,0.039999977,0.03999996,-9.829806200000018,-0.01234196685257752,0.03131579000012235,0.017390379800034616,-0.03362222015861678,-0.004263972200008504
0.7325,-0.0029800010900092543,-0.7856939030000034,0.0016660147650047817,-2.354095359999994,0.00021627152350036188,1.5721617200000035,0.7881424180000063,0.039999977,0.03999996,-9.82987730000002,-0.012461942620607312,0.03177651125012278,0.01752072095003474,-0.03377232328061285,-0.004295996300008534
0.735,-0.0030158962800097546,-0.7857073860000037,0.0016845622100050402,-2.354070629999993,0.00021767527500038148,1.5721753000000036,0.7881668530000067,0.039999977,0.0399999598,-9.829914500000005,-0.012579275202037029,0.03225862250013176,0.017652855600035572,-0.033924084901850456,-0.004328392540008712
0.7375,-0.0030523764000097886,-0.7857211050000037,0.0017034119750050578,-2.3540454749999933,0.0002191019625003828,1.5721891000000037,0.7881916825000067,0.039999977,0.0399999595,-9.829934750000005,-0.012695286190168303,0.032751428750132226,0.017785887000035697,-0.03407667577270784,-0.004360974850008742
0.74,-0.003088856520009821,-0.7857348240000037,0.0017222617400050745,-2.3540203199999934,0.00022052865000038408,1.5722029000000037,0.7882165120000066,0.039999977,0.039999959200000004,-9.829955000000005,-0.01281129717829957,0.03324423500013266,0.017918918400035812,-0.034229266643565216,-0.004393557160008771
0.7425,-0.003125336640009855,-0.7857485430000037,0.001741111505005092,-2.353995164999993,0.0002219553375003854,1.5722167000000038,0.7882413415000067,0.039999977,0.0399999589,-9.829975250000006,-0.012927308166430843,0.033737041250133125,0.018051949800035938,-0.0343818575144226,-0.004426139470008802
0.745,-0.003161816760009887,-0.7857622620000038,0.0017599612700051088,-2.353970009999993,0.00022338202500038669,1.5722305000000036,0.7882661710000067,0.039999977,0.0399999586,-9.829995500000004,-0.01304331915456211,0.03422984750013356,0.018184981200036057,-0.03453444838527998,-0.004458721780008831
0.7475,-0.003198296880009921,-0.7857759810000038,0.0017788110350051263,-2.3539448549999933,0.00022480871250038801,1.5722443000000037,0.7882910005000068,0.039999977,0.0399999583,-9.830015750000005,-0.013159330142693385,0.034722653750134023,0.01831801260003618,-0.03468703925613736,-0.00449130409000886
0.75,-0.003234777000010442,-0.785789700000004,0.0017976608000053957,-2.353919699999993,0.0002262354000004084,1.572258100000004,0.7883158300000072,0.039999977,0.039999958,-9.83003600000002,-0.013275341130828632,0.03521546000014006,0.018451044000037053,-0.034839630126995445,-0.004523886400009109
0.7525000000000001,-0.0032730475500099554,-0.7858041450000037,0.0018174360800051444,-2.353893314999993,0.00022773214350038935,1.572272620000004,0.7883418955000068,0.039999977,0.039999958,-9.830105750000017,-0.013405939145047568,0.035728795100133534,0.018586846800035327,-0.03499482888732414,-0.0045572713000086845
0.755,-0.0033113181000094674,-0.7858185900000035,0.001837211360004892,-2.3538669299999935,0.00022922888700037028,1.5722871400000036,0.7883679610000065,0.039999977,0.039999958,-9.830175500000017,-0.013536537159266497,0.03624213020012699,0.018722649600033597,-0.03515002764765284,-0.0045906562000082585
0.7575000000000001,-0.0033495886500089812,-0.7858330350000033,0.0018569866400046408,-2.353840544999994,0.00023072563050035124,1.5723016600000035,0.7883940265000061,0.039999977,0.039999958,-9.830245250000017,-0.013667135173485433,0.036755465300120464,0.01885845240003187,-0.035305226407981546,-0.004624041100007834
0.76,-0.0033878592000084933,-0.7858474800000032,0.0018767619200043884,-2.3538141599999944,0.00023222237400033214,1.5723161800000034,0.7884200920000058,0.039999977,0.039999958,-9.830315000000015,-0.013797733187704362,0.03726880040011392,0.01899425520003014,-0.03546042516831024,-0.004657426000007409
0.7625000000000001,-0.0034261297500080066,-0.785861925000003,0.0018965372000041372,-2.3537877749999945,0.00023371911750031313,1.572330700000003,0.7884461575000055,0.039999977,0.039999958,-9.830384750000015,-0.013928331201923298,0.037782135500107394,0.019130058000028413,-0.03561562392863894,-0.004690810900006985
0.765,-0.0034644003000075187,-0.7858763700000028,0.001916312480003885,-2.353761389999995,0.00023521586100029403,1.572345220000003,0.7884722230000052,0.039999977,0.039999958,-9.830454500000014,-0.014058929216142227,0.03829547060010085,0.01926586080002668,-0.035770822688967634,-0.004724195800006559
0.7675000000000001,-0.0035032792650077325,-0.7858910650000029,0.0019364022500039954,-2.353734574999995,0.00023673649750030243,1.572359980000003,0.7884987065000053,0.039999977,0.039999958,-9.830511950000007,-0.014188400935406088,0.03881823760010445,0.01940250885002668,-0.035926942527324576,-0.0047577981000065635
0.77,-0.003543375060008315,-0.7859062600000032,0.0019571210000042965,-2.3537068999999944,0.00023830492000032524,1.5723752200000032,0.7885260260000057,0.039999977,0.039999958,-9.830544800000007,-0.014315620064761702,0.03935986840011232,0.019540847400028687,-0.03608490452173643,-0.004791835200007058
0.7725,-0.0035834708550088975,-0.7859214550000033,0.0019778397500045974,-2.353679224999994,0.00023987334250034803,1.5723904600000034,0.7885533455000061,0.039999977,0.039999958,-9.830577650000007,-0.014442839194117315,0.03990149920012019,0.0196791859500307,-0.03624286651614829,-0.004825872300007553
0.775,-0.003623566650009482,-0.7859366500000036,0.0019985585000048996,-2.3536515499999937,0.0002414417650003709,1.5724057000000036,0.7885806650000065,0.039999977,0.039999958,-9.830610500000008,-0.014570058323472935,0.040443130000128086,0.019817524500032716,-0.03640082851056015,-0.004859909400008049
0.7775,-0.0036636624450100646,-0.7859518450000038,0.0020192772500052004,-2.353623874999993,0.00024301018750039368,1.5724209400000038,0.7886079845000069,0.039999977,0.039999958,-9.830643350000008,-0.014697277452828549,0.04098476080013595,0.019955863050034724,-0.03655879050497201,-0.004893946500008544
0.78,-0.003703758240010649,-0.7859670400000041,0.0020399960000055026,-2.3535961999999926,0.0002445786100004165,1.572436180000004,0.7886353040000073,0.039999977,0.039999958,-9.830676200000008,-0.014824496582184167,0.04152639160014385,0.02009420160003674,-0.03671675249938387,-0.004927983600009039
0.7825,-0.0037438540350112313,-0.7859822350000043,0.0020607147500058035,-2.3535685249999925,0.0002461470325004393,1.5724514200000042,0.7886626235000077,0.039999977,0.039999958,-9.830709050000008,-0.014951715711539781,0.04206802240015172,0.020232540150038753,-0.03687471449379572,-0.004962020700009534
0.785,-0.003785189340011982,-0.7859979230000046,0.0020820742500061917,-2.3535400099999917,0.00024776400100046873,1.5724671300000046,0.7886907670000082,0.039999977,0.039999958,-9.83076830000002,-0.015087847597937132,0.04262650340016191,0.020372549100040226,-0.03703430816535758,-0.004996487160009905
0.7875,-0.0038271444000120194,-0.7860138575000046,0.002103754125006211,-2.3535110749999917,0.0002494052425004702,1.5724830750000045,0.7887193225000082,0.039999977,0.039999958,-9.83084075000002,-0.015228435862849625,0.043193409500162414,0.02051339325004035,-0.03719471767549338,-0.005031168300009935
0.79,-0.0038690994600120584,-0.7860297920000047,0.002125434000006231,-2.3534821399999917,0.0002510464840004717,1.5724990200000046,0.7887478780000082,0.039999977,0.039999958,-9.83091320000002,-0.015369024127762127,0.04376031560016294,0.020654237400040482,-0.03735512718562918,-0.005065849440009968
0.7925,-0.003911054520012096,-0.7860457265000046,0.00214711387500625,-2.3534532049999917,0.00025268772550047315,1.5725149650000045,0.7887764335000083,0.039999977,0.039999958,-9.83098565000002,-0.015509612392674621,0.04432722170016344,0.020795081550040607,-0.03751553669576498,-0.005100530580009999
0.795,-0.003953009580012135,-0.7860616610000046,0.0021687937500062707,-2.3534242699999917,0.00025432896700047466,1.5725309100000047,0.7888049890000083,0.039999977,0.039999958,-9.831058100000021,-0.015650200657587123,0.04489412780016397,0.020935925700040738,-0.037675946205900784,-0.005135211720010031
0.7975,-0.003994964640012172,-0.7860775955000047,0.00219047362500629,-2.3533953349999917,0.0002559702085004761,1.5725468550000046,0.7888335445000083,0.039999977,0.039999958,-9.83113055000002,-0.01579078892249962,0.045461033900164476,0.021076769850040863,-0.037836355716036586,-0.005169892860010062
0.8,-0.004036919700012762,-0.7860935300000049,0.0022121535000065944,-2.353366399999991,0.00025761145000049925,1.572562800000005,0.7888621000000087,0.039999977,0.039999958,-9.83120300000001,-0.015931377187410903,0.04602794000017396,0.021217614000041764,-0.03799676522617325,-0.005204574000010242
0.8025,-0.004080767040012801,-0.7861102580000049,0.0022348115250066147,-2.3533361899999914,0.0002593268545005008,1.572579420000005,0.7888919455000087,0.039999977,0.0399999574,-9.83123450000001,-0.016067787352989152,0.046625628500174494,0.02136110385004189,-0.038160112872767445,-0.005239762305010273
0.805,-0.004124614380012842,-0.786126986000005,0.002257469550006636,-2.353305979999991,0.00026104225900050237,1.572596040000005,0.7889217910000088,0.039999977,0.0399999568,-9.83126600000001,-0.01620419751856741,0.04722331700017505,0.021504593700042023,-0.03832346051936164,-0.005274950610010306
0.8075,-0.004168461720012881,-0.7861437140000049,0.002280127575006656,-2.3532757699999913,0.0002627576635005039,1.5726126600000048,0.7889516365000088,0.039999977,0.0399999562,-9.831297500000009,-0.01634060768414566,0.04782100550017558,0.021648083550042153,-0.03848680816595584,-0.005310138915010337
0.81,-0.004212309060012922,-0.7861604420000049,0.002302785600006677,-2.353245559999991,0.0002644730680005055,1.5726292800000048,0.7889814820000088,0.039999977,0.0399999556,-9.831329000000009,-0.01647701784972392,0.048418694000176135,0.021791573400042286,-0.03865015581255004,-0.00534532722001037
0.8125,-0.004256156400012961,-0.786177170000005,0.0023254436250066974,-2.3532153499999913,0.00026618847250050703,1.5726459000000048,0.7890113275000088,0.039999977,0.039999955,-9.83136050000001,-0.01661342801530217,0.04901638250017667,0.021935063250042415,-0.038813503459144236,-0.005380515525010401
0.8150000000000001,-0.0043000037400130016,-0.7861938980000049,0.0023481016500067186,-2.353185139999991,0.0002679038770005086,1.5726625200000048,0.7890411730000089,0.039999977,0.039999954399999996,-9.831392000000008,-0.016749838180880428,0.04961407100017723,0.022078553100042548,-0.03897685110573844,-0.005415703830010434
0.8175,-0.004344492600013614,-0.7862108855000052,0.0023710913250070344,-2.3531544199999908,0.0002696444590005326,1.572679395000005,0.7890714530000092,0.039999977,0.039999954,-9.83143685000002,-0.0168915547430968,0.05022089230018591,0.0222228541000434,-0.03914109226321151,-0.005451131715010679
0.8200000000000001,-0.004390264500013656,-0.7862283920000052,0.0023947443000070564,-2.3531226799999905,0.0002714353960005343,1.5726967800000051,0.7891026020000094,0.039999977,0.039999954,-9.83150840000002,-0.017043884098575223,0.050845979200186485,0.022368777400043536,-0.039307120442439974,-0.005487038760010712
0.8225,-0.004436036400013697,-0.7862458985000053,0.0024183972750070775,-2.3530909399999906,0.0002732263330005359,1.5727141650000052,0.7891337510000094,0.039999977,0.039999954,-9.831579950000021,-0.017196213454053644,0.05147106610018704,0.022514700700043664,-0.039473148621668425,-0.005522945805010744
0.8250000000000001,-0.004481808300013739,-0.7862634050000052,0.0024420502500070995,-2.353059199999991,0.00027501727000053757,1.5727315500000052,0.7891649000000094,0.039999977,0.039999954,-9.83165150000002,-0.01734854280953207,0.05209615300018763,0.022660624000043803,-0.03963917680089688,-0.005558852850010778
0.8275,-0.00452758020001378,-0.7862809115000052,0.0024657032250071207,-2.3530274599999905,0.00027680820700053913,1.5727489350000052,0.7891960490000094,0.039999977,0.039999954,-9.83172305000002,-0.017500872165010492,0.05272123990018818,0.02280654730004393,-0.03980520498012534,-0.00559475989501081
0.8300000000000001,-0.004573352100013822,-0.7862984180000052,0.0024893562000071427,-2.3529957199999907,0.0002785991440005408,1.5727663200000053,0.7892271980000094,0.039999977,0.039999954,-9.831794600000022,-0.01765320152048892,0.05334632680018876,0.022952470600044066,-0.039971233159353796,-0.005630666940010844
0.8325,-0.004619124000013863,-0.7863159245000053,0.002513009175007164,-2.3529639799999904,0.0002803900810005424,1.5727837050000053,0.7892583470000094,0.039999977,0.039999954,-9.831866150000021,-0.01780553087596734,0.05397141370018932,0.023098393900044197,-0.040137261338582246,-0.005666573985010875
0.835,-0.0046662000300144975,-0.7863339490000055,0.002537336250007492,-2.35293136999999,0.0002822321570005673,1.5728015900000056,0.7892903910000099,0.039999977,0.039999954,-9.8318925,-0.017954612150833053,0.054614695900198164,0.023245893500045044,-0.0403043668717655,-0.005702887900011093
0.8375,-0.004713928125014542,-0.7863522325000055,0.0025620003750075147,-2.35289832499999,0.00028409980250056904,1.5728197250000056,0.7893228825000099,0.039999977,0.039999954,-9.831896250000002,-0.018102069385394628,0.05526707575019877,0.023394181250045182,-0.04047201108192543,-0.005739405250011127
0.84,-0.004761656220014584,-0.7863705160000056,0.002586664500007537,-2.35286527999999,0.0002859674480005707,1.5728378600000057,0.7893553740000099,0.039999977,0.039999954,-9.831900000000001,-0.0182495266199562,0.05591945560019935,0.023542469000045314,-0.040639655292085346,-0.005775922600011159
0.8425,-0.004809384315014629,-0.7863887995000056,0.0026113286250075596,-2.35283223499999,0.0002878350935005725,1.5728559950000056,0.7893878655000099,0.039999977,0.039999954,-9.83190375,-0.018396983854517778,0.05657183545019996,0.023690756750045453,-0.04080729950224528,-0.005812439950011193
