rsonawane2002/My_IMU/logs_3/traj_254/imu_254.csv
time,j1,j2,j3,j4,j5,j6,j7,gripper1,gripper2,imu_ax,imu_ay,imu_az,imu_gx,imu_gy,imu_gz
34.183333333332676,0.00016700293,-0.785875,4.0107683e-05,-2.3551247,9.29385e-05,1.570997,0.786,0.04,0.04,-9.468356,0.07079081982374191,0.0999966,3.1807467e-08,-0.0011641276068985462,3.1266583e-07
34.19999999999934,0.00016699547,-0.78576016,4.012524e-05,-2.3552213,9.296434e-05,1.5709941,0.786,0.04,0.04,-9.834406,0.0006379519472829998,0.009083718,-5.0414855e-07,-0.0022378878202289343,-2.9306537e-09
34.21666666666601,0.00016691776,-0.7856543,4.0215527e-05,-2.35531,9.292068e-05,1.5709913,0.786,0.04,0.04,-9.8325,0.000638371508102864,0.0075115506,-4.001501e-06,-0.0032277479767799377,-6.4184383e-06
34.23333333333267,0.00016665593,-0.78555703,4.0498962e-05,-2.355391,9.2698116e-05,1.5709884,0.786,0.04,0.04,-9.830779,0.0006441001314669847,0.006044921,-1.2824011e-05,-0.004140354227274656,-2.4104063e-05
34.24999999999934,0.00016604789,-0.7854678,4.114822e-05,-2.3554652,9.2138485e-05,1.5709856,0.786,0.04,0.04,-9.829197,0.0006480795564129949,0.004655647,-2.9873065e-05,-0.004980216734111309,-5.7895548e-05
34.266666666666005,0.000164888,-0.78538615,4.2382733e-05,-2.355532,9.104439e-05,1.5709827,0.7859981,0.04,0.04,-9.827729,0.0006563261267729104,0.0033261222,-5.8118912e-05,-0.005751470103859901,-0.00011217237
34.28333333333267,0.00016293165,-0.78531176,4.446424e-05,-2.3555956,8.9187546e-05,1.5709797,0.7859962,0.04,0.039999995,-9.826335,0.0006536000873893499,0.0020483672,-9.15307e-05,-0.006456007715314627,-0.00019008933
34.299999999999336,0.00015989931,-0.7852444,4.7692174e-05,-2.3556538,8.628631e-05,1.5709766,0.7859924,0.04,0.039999995,-9.825543,0.0006341948173940182,0.00082883984,-0.00014169552,-0.007115944288671017,-0.00029670246
34.316666666666,0.00015548037,-0.78518367,5.239988e-05,-2.3557053,8.202823e-05,1.570973,0.78598857,0.04,0.04,-9.824518,0.0005951512139290571,-0.00034760404,-0.00020268417,-0.007722241338342428,-0.00043511137
34.33333333333267,0.00014933602,-0.7851296,5.8950256e-05,-2.355755,7.609542e-05,1.5709664,0.78598285,0.04,0.04,-9.823382,0.0005498909158632159,-0.0014901389,-0.00028562863,-0.008271576836705208,-0.0006065268
34.34999999999933,0.00014110334,-0.7850819,6.773309e-05,-2.3557987,6.813227e-05,1.5709596,0.7859742,0.039999995,0.04,-9.822994,0.00046111439587548375,-0.0025115188,-0.00038496006,-0.008799930103123188,-0.0008148019
34.366666666666,0.00013039725,-0.7850405,7.916139e-05,-2.3558407,5.7766334e-05,1.5709517,0.78596276,0.03999999,0.03999999,-9.822032,0.0003518337616696954,-0.0035963873,-0.00049872394,-0.009275058284401894,-0.0010603808
34.383333333332665,0.00011681421,-0.7850055,9.366899e-05,-2.3558776,4.460301e-05,1.5709411,0.78594875,0.039999988,0.039999988,-9.821697,0.0001935405598487705,-0.004621651,-0.0006299363,-0.009721988812088966,-0.0013469281
34.39999999999933,9.993379e-05,-0.78497666,0.00011170749,-2.3559124,2.823296e-05,1.5709276,0.78593135,0.039999984,0.039999984,-9.821046,-1.214792428072542e-05,-0.0055578025,-0.0007824541,-0.010135132819414139,-0.00167552
34.416666666665996,7.932124e-05,-0.78495413,0.0001337438,-2.3559449,8.233062e-06,1.5709128,0.78590995,0.03999998,0.039999977,-9.82073,-0.00026810806593857706,-0.0064972714,-0.0009552329,-0.010526291094720364,-0.0020467397
34.43333333333266,5.452975e-05,-0.78493834,0.00016025818,-2.3559728,-1.5833184e-05,1.5708945,0.78588414,0.03999998,0.039999977,-9.820457,-0.0005996802356094122,-0.0074367328,-0.0011480808,-0.010890054516494274,-0.0024635503
34.44999999999933,2.5102028e-05,-0.78492904,0.00019174213,-2.356,-4.4411066e-05,1.5708724,0.7858535,0.039999977,0.039999973,-9.81989,-0.0009834007360041142,-0.008271531,-0.0013616631,-0.011222870089113712,-0.0029261438
34.46666666666599,-9.4277775e-06,-0.78492665,0.0002286965,-2.3560252,-7.795483e-05,1.5708466,0.7858177,0.039999977,0.039999973,-9.819905,-0.0014536557719111443,-0.009095313,-0.0015963466,-0.011545658111572266,-0.0034353903
34.48333333333266,-4.953248e-05,-0.78493106,0.0002716298,-2.356047,-0.00011692548,1.5708171,0.78577596,0.039999977,0.039999973,-9.819727,-0.0020129946060478687,-0.009903143,-0.0018533748,-0.011850295588374138,-0.003992012
34.499999999999325,-9.569045e-05,-0.78494275,0.00032105623,-2.356067,-0.00016178955,1.5707835,0.785728,0.039999973,0.03999997,-9.819426,-0.0026695551350712776,-0.010697294,-0.0021320896,-0.012130815535783768,-0.004596599
34.51666666666599,-0.00014838424,-0.78496176,0.00037749493,-2.356086,-0.00021301761,1.5707458,0.7856731,0.039999973,0.03999997,-9.819345,-0.003425351344048977,-0.011426648,-0.002432658,-0.012396545149385929,-0.0052495794
34.533333333332656,-0.00020809952,-0.7849883,0.0004414681,-2.3561037,-0.0002710835,1.5707035,0.7856109,0.03999997,0.039999966,-9.819345,-0.004283946938812733,-0.012156421,-0.0027549933,-0.01264851912856102,-0.0059512835
34.54999999999932,-0.00027532366,-0.7850226,0.0005134999,-2.3561187,-0.00033646225,1.5706557,0.785541,0.039999973,0.03999997,-9.819343,-0.005272237583994865,-0.012855448,-0.0030998194,-0.012888050638139248,-0.006701926
34.56666666666599,-0.00035054475,-0.78506494,0.00059411576,-2.3561318,-0.00040963065,1.5706022,0.7854628,0.03999997,0.039999966,-9.819228,-0.006388011388480663,-0.013495278,-0.0034667922,-0.013112766668200493,-0.0075016147
34.583333333332654,-0.00043425124,-0.7851158,0.00068384054,-2.356144,-0.0004910644,1.5705428,0.7853757,0.039999973,0.03999997,-9.819169,-0.007633663713932037,-0.014121581,-0.003856126,-0.013324976898729801,-0.008350378
34.59999999999932,-0.00052693,-0.78517514,0.0007831984,-2.3561554,-0.00058123906,1.5704771,0.7852793,0.039999973,0.03999997,-9.819264,-0.009027053602039814,-0.014700904,-0.004267205,-0.013528421521186829,-0.0092481505
34.616666666665985,-0.0006290663,-0.78524345,0.00089271186,-2.3561668,-0.00068062736,1.5704045,0.78517306,0.039999973,0.039999966,-9.81938,-0.010573359206318855,-0.015272586,-0.00469996,-0.01372577529400587,-0.010193931
34.63333333333265,-0.0007411433,-0.78532094,0.0010129003,-2.356176,-0.00078970176,1.5703251,0.7850565,0.039999973,0.039999966,-9.819641,-0.012281774543225765,-0.015801676,-0.005154618,-0.013922704383730888,-0.011189243
34.64999999999932,-0.0008636405,-0.78540796,0.0011442798,-2.3561835,-0.00090892916,1.5702384,0.784929,0.03999997,0.03999996,-9.819563,-0.014157582074403763,-0.01632356,-0.0056303274,-0.014105916023254395,-0.012232942
34.66666666666598,-0.0009970341,-0.7855048,0.0012873628,-2.35619,-0.0010387744,1.5701439,0.78479016,0.039999973,0.039999966,-9.819615,-0.01621534302830696,-0.016804688,-0.0061270064,-0.01428067684173584,-0.013324736
34.68333333333265,-0.0011417954,-0.7856117,0.0014426566,-2.3561952,-0.0011796986,1.5700417,0.78463954,0.039999973,0.039999966,-9.819727,-0.018451299518346786,-0.01725271,-0.006644332,-0.014448915608227253,-0.014464312
34.699999999999314,-0.0012983916,-0.7857291,0.0016106644,-2.3561995,-0.0013321557,1.5699307,0.7844766,0.039999973,0.039999966,-9.81982,-0.020889872685074806,-0.017673533,-0.007182566,-0.014610212296247482,-0.01565108
34.71666666666598,-0.0014672846,-0.78585714,0.0017918822,-2.3562038,-0.001496598,1.5698109,0.78430086,0.039999973,0.03999997,-9.81994,-0.02353454753756523,-0.018049806,-0.0077405344,-0.014767034910619259,-0.016886454
34.733333333332645,-0.00164893,-0.7859962,0.0019868014,-2.3562076,-0.0016734683,1.5696821,0.78411186,0.039999973,0.03999997,-9.820195,-0.02637030929327011,-0.018412024,-0.008318465,-0.014923923648893833,-0.018166361
34.74999999999931,-0.0018437782,-0.7861467,0.0021959064,-2.3562114,-0.0018632024,1.5695442,0.783909,0.039999973,0.039999995,-9.820406,-0.029462162405252457,-0.018753203,-0.008915565,-0.015078679658472538,-0.019497057
34.76666666666598,-0.002052273,-0.78630865,0.0024196745,-2.356214,-0.0020662374,1.5693965,0.783692,0.039999977,0.04,-9.820642,-0.03272330388426781,-0.019074565,-0.009531299,-0.015231624245643616,-0.020867992
34.78333333333264,-0.0022748515,-0.78648275,0.002658577,-2.3562152,-0.0022829715,1.5692389,0.7834604,0.039999973,0.039999995,-9.82077,-0.03624379262328148,-0.019372813,-0.010165177,-0.015380985103547573,-0.0222837
34.79999999999931,-0.0025119437,-0.786669,0.0029130757,-2.3562157,-0.0025138573,1.569071,0.7832134,0.039999977,0.039999995,-9.820808,-0.040001675486564636,-0.019632977,-0.010817376,-0.015521797351539135,-0.023742532
34.816666666665974,-0.0027639717,-0.786868,0.0031836268,-2.3562157,-0.002759307,1.5688925,0.7829511,0.03999998,0.04,-9.820955,-0.04401775822043419,-0.019868853,-0.011485655,-0.01565963216125965,-0.025245614
34.83333333333264,-0.003031352,-0.7870798,0.0034706772,-2.3562143,-0.0030197136,1.568703,0.78267276,0.03999998,0.04,-9.821141,-0.04828086495399475,-0.020054571,-0.012172123,-0.015795579180121422,-0.026791522
34.849999999999305,-0.0033144925,-0.78730476,0.0037746662,-2.3562121,-0.0032954833,1.5685024,0.782378,0.03999998,0.04,-9.821211,-0.05281858891248703,-0.020233307,-0.012874541,-0.015925118699669838,-0.028380286
34.86666666666597,-0.0036137942,-0.78754294,0.004096026,-2.3562098,-0.003587,1.5682904,0.78206635,0.039999977,0.04,-9.821329,-0.05761798843741417,-0.020382803,-0.013592789,-0.016050921753048897,-0.030010425
34.88333333333264,-0.003929648,-0.7877951,0.0044351765,-2.3562064,-0.0038946513,1.5680668,0.7817375,0.039999973,0.04,-9.821525,-0.06268977373838425,-0.020519752,-0.014325697,-0.016175562515854836,-0.031681303
34.8999999999993,-0.004262439,-0.78806126,0.004792531,-2.356203,-0.004218816,1.5678313,0.781391,0.03999997,0.04,-9.821605,-0.06804738938808441,-0.020597745,-0.0150734475,-0.01629379577934742,-0.033392105
34.91666666666597,-0.0046125413,-0.7883419,0.0051684976,-2.3561995,-0.004559855,1.5675833,0.7810267,0.039999966,0.04,-9.821831,-0.07369793951511383,-0.020676648,-0.015835341,-0.016412658616900444,-0.035142217
34.933333333332634,-0.0049803257,-0.7886369,0.00556347,-2.3561957,-0.0049181287,1.567323,0.7806439,0.039999958,0.039999995,-9.821994,-0.07964393496513367,-0.020700742,-0.01661156,-0.016529887914657593,-0.036930867
34.9499999999993,-0.0053661494,-0.78894687,0.005977837,-2.3561919,-0.0052940054,1.5670499,0.7802422,0.03999995,0.039999995,-9.822143,-0.08590157330036163,-0.020746484,-0.017400067,-0.016644587740302086,-0.03875813
34.966666666665965,-0.005770365,-0.7892719,0.006411974,-2.3561878,-0.005687821,1.5667638,0.77982134,0.03999995,0.04,-9.822325,-0.09245312213897705,-0.020748638,-0.018200478,-0.016758093610405922,-0.040621538
34.98333333333263,-0.006193313,-0.7896124,0.006866252,-2.3561826,-0.0060999016,1.5664641,0.7793809,0.039999954,0.04,-9.822439,-0.09933368861675262,-0.020744817,-0.019012356,-0.01686912216246128,-0.042521305
34.9999999999993,-0.006635328,-0.7899687,0.0073410273,-2.3561764,-0.0065305694,1.5661513,0.7789206,0.039999954,0.04,-9.822435,-0.10653188079595566,-0.020688638,-0.019834802,-0.016974331811070442,-0.04445666
35.01666666666596,-0.0070967353,-0.7903407,0.007836654,-2.3561697,-0.0069801365,1.5658246,0.7784401,0.039999954,0.04,-9.822437,-0.1140584647655487,-0.020634612,-0.02066717,-0.01707119680941105,-0.04642685
35.03333333333263,-0.0075778523,-0.790729,0.00835347,-2.3561625,-0.0074489093,1.5654838,0.777939,0.039999954,0.04,-9.822523,-0.12191777676343918,-0.02055381,-0.021509493,-0.017165904864668846,-0.048430383
35.049999999999294,-0.008078987,-0.7911336,0.008891807,-2.3561552,-0.0079371715,1.5651288,0.7774172,0.039999954,0.04,-9.8225355,-0.13011059165000916,-0.020439547,-0.022360362,-0.017255477607250214,-0.050466534
35.06666666666596,-0.008600437,-0.7915548,0.009451989,-2.356147,-0.008445251,1.5647595,0.7768742,0.039999954,0.04,-9.822603,-0.138675257563591,-0.020322628,-0.023219492,-0.017342621460556984,-0.052537855
35.083333333332625,-0.009142491,-0.79199296,0.010034324,-2.3561382,-0.008973428,1.5643758,0.7763098,0.039999947,0.04,-9.822573,-0.14756694436073303,-0.020180643,-0.02408658,-0.01742275431752205,-0.054640915
35.09999999999929,-0.009705438,-0.79244816,0.01063912,-2.356129,-0.009521966,1.5639772,0.7757236,0.039999947,0.04,-9.822524,-0.15681490302085876,-0.020024193,-0.024960896,-0.01749546453356743,-0.056774244
35.11666666666596,-0.010289543,-0.79292053,0.011266669,-2.3561194,-0.010091127,1.5635638,0.7751153,0.039999943,0.04,-9.822463,-0.16643275320529938,-0.01984745,-0.02584088,-0.017561649903655052,-0.058937892
35.13333333333262,-0.010895073,-0.7934106,0.011917254,-2.3561087,-0.010681188,1.563135,0.77448475,0.039999943,0.04,-9.822449,-0.17641954123973846,-0.019672114,-0.026726313,-0.017623642459511757,-0.061132025
35.14999999999929,-0.011522284,-0.79391813,0.012591156,-2.3560977,-0.011292371,1.5626907,0.77383137,0.039999936,0.04,-9.822265,-0.1867658644914627,-0.019446757,-0.027616821,-0.017676228657364845,-0.06335417
35.166666666665954,-0.012171423,-0.7944438,0.013288637,-2.3560867,-0.011924934,1.5622313,0.7731554,0.039999932,0.04,-9.82221,-0.1974966824054718,-0.019244129,-0.028510021,-0.017724445089697838,-0.06560442
35.18333333333262,-0.012842727,-0.7949873,0.014009948,-2.3560755,-0.012579119,1.5617558,0.77245593,0.03999993,0.04,-9.822116,-0.20861321687698364,-0.019015243,-0.029407803,-0.017765354365110397,-0.067882754
35.199999999999285,-0.013536425,-0.79554915,0.014755341,-2.356064,-0.013255136,1.561265,0.7717337,0.03999993,0.04,-9.822014,-0.22010688483715057,-0.018788053,-0.03030651,-0.01780291087925434,-0.07018702
35.21666666666595,-0.014252737,-0.7961295,0.015525056,-2.3560526,-0.013953212,1.5607575,0.7709875,0.03999993,0.04,-9.821806,-0.23200033605098724,-0.018573131,-0.031209568,-0.017829464748501778,-0.07251791
35.23333333333262,-0.014991875,-0.7967282,0.016319316,-2.3560407,-0.01467352,1.5602342,0.7702174,0.03999993,0.04,-9.821687,-0.24426963925361633,-0.018310927,-0.03211197,-0.017854170873761177,-0.07487237
35.24999999999928,-0.015754046,-0.797346,0.017138341,-2.356028,-0.015416275,1.5596946,0.76942354,0.03999993,0.04,-9.821413,-0.2569597363471985,-0.018102936,-0.033014465,-0.017868854105472565,-0.07725298
35.26666666666595,-0.016539441,-0.79798245,0.017982343,-2.3560147,-0.016181698,1.5591387,0.7686056,0.039999932,0.04,-9.821062,-0.27008795738220215,-0.017857786,-0.033917762,-0.017870843410491943,-0.07966455
35.283333333332614,-0.017348247,-0.7986378,0.018851522,-2.3560011,-0.016969964,1.5585661,0.7677632,0.03999994,0.04,-9.820731,-0.2835433781147003,-0.017637778,-0.034820437,-0.017864057794213295,-0.0820941
35.29999999999928,-0.018180646,-0.7993125,0.019746074,-2.3559866,-0.017781211,1.5579767,0.76689625,0.039999936,0.04,-9.8204155,-0.2974250316619873,-0.017421234,-0.03572146,-0.01784968376159668,-0.08454321
35.316666666665945,-0.019036805,-0.8000066,0.02066617,-2.3559718,-0.01861561,1.5573705,0.7660045,0.039999932,0.04,-9.819946,-0.31173375248908997,-0.017189298,-0.03662023,-0.017822640016674995,-0.08701297
35.33333333333261,-0.019916886,-0.8007201,0.021611994,-2.3559566,-0.019473335,1.5567473,0.76508784,0.03999993,0.04,-9.819509,-0.3264618217945099,-0.016964745,-0.03751591,-0.01778482086956501,-0.0895035
35.34999999999928,-0.020821039,-0.80145323,0.022583699,-2.3559403,-0.020354543,1.556107,0.76414603,0.03999993,0.04,-9.819044,-0.3416263163089752,-0.016768858,-0.038408,-0.01773735322058201,-0.09201554
35.36666666666594,-0.021749405,-0.80220604,0.023581458,-2.3559237,-0.02125935,1.5554497,0.7631791,0.03999992,0.04,-9.818435,-0.35719242691993713,-0.016574753,-0.039295305,-0.01767547056078911,-0.09454602
35.38333333333261,-0.022702128,-0.8029787,0.024605405,-2.3559062,-0.022187915,1.5547749,0.7621868,0.039999913,0.04,-9.817825,-0.37319421768188477,-0.01639964,-0.040178146,-0.017600903287529945,-0.09709498
35.399999999999274,-0.02367934,-0.8037712,0.025655678,-2.3558884,-0.023140345,1.5540829,0.761169,0.03999991,0.04,-9.817194,-0.38962191343307495,-0.016233157,-0.041055154,-0.017514413222670555,-0.09966169
35.41666666666594,-0.024681145,-0.8045836,0.02673241,-2.35587,-0.02411674,1.5533736,0.7601256,0.039999906,0.04,-9.816483,-0.406482458114624,-0.016110314,-0.041925795,-0.017413504421710968,-0.10224462
35.433333333332605,-0.025707671,-0.8054163,0.02783572,-2.3558514,-0.025117222,1.5526468,0.75905645,0.039999902,0.04,-9.815775,-0.42378029227256775,-0.01600188,-0.042789366,-0.0173001941293478,-0.10484394
35.44999999999927,-0.026759017,-0.806269,0.02896572,-2.3558323,-0.026141923,1.5519016,0.75796145,0.0399999,0.04,-9.814961,-0.44152969121932983,-0.015899159,-0.043645214,-0.017172494903206825,-0.10746043
35.46666666666594,-0.027835274,-0.80714196,0.030122519,-2.355813,-0.027190903,1.551139,0.7568404,0.03999989,0.04,-9.814137,-0.45970433950424194,-0.01585754,-0.044492472,-0.017034461721777916,-0.110090934
35.4833333333326,-0.02893653,-0.8080353,0.031306203,-2.3557935,-0.02826426,1.5503591,0.7556932,0.039999887,0.04,-9.813235,-0.4783232510089874,-0.015843678,-0.04533031,-0.01688210852444172,-0.11273566
35.49999999999927,-0.030062877,-0.808949,0.03251687,-2.3557737,-0.02936207,1.5495616,0.75452,0.039999884,0.04,-9.8123,-0.49740153551101685,-0.015872665,-0.046157856,-0.01671445555984974,-0.11539457
35.516666666665934,-0.031214375,-0.8098832,0.033754576,-2.355754,-0.030484414,1.5487462,0.7533206,0.03999988,0.04,-9.811249,-0.516908586025238,-0.015962534,-0.046975695,-0.016530577093362808,-0.11806596
35.5333333333326,-0.03239111,-0.81083775,0.03501941,-2.3557334,-0.03163134,1.5479128,0.7520948,0.039999876,0.04,-9.810185,-0.5368682742118835,-0.016068727,-0.047782,-0.01633303239941597,-0.12074863
35.549999999999265,-0.033593107,-0.81181276,0.036311433,-2.3557122,-0.0328029,1.5470614,0.75084275,0.039999872,0.04,-9.808944,-0.5572769641876221,-0.016245188,-0.048576582,-0.016117988154292107,-0.12344245
35.56666666666593,-0.03482043,-0.8128083,0.037630692,-2.3556902,-0.03399915,1.5461923,0.74956435,0.039999865,0.04,-9.807675,-0.5781436562538147,-0.016466657,-0.049359195,-0.0158866997808218,-0.12614745
35.5833333333326,-0.036073122,-0.8138245,0.038977217,-2.355668,-0.035220142,1.5453053,0.7482594,0.039999858,0.04,-9.8063,-0.5994682908058167,-0.016756525,-0.05012891,-0.015636304393410683,-0.12886369
35.59999999999926,-0.03735122,-0.81486124,0.04035106,-2.3556457,-0.036465958,1.5444002,0.74692816,0.039999876,0.04,-9.804892,-0.6212894916534424,-0.017075308,-0.05088497,-0.015368588268756866,-0.13159636
35.61666666666593,-0.038654745,-0.815919,0.041752264,-2.3556223,-0.037736524,1.5434769,0.7455703,0.039999876,0.04,-9.80337,-0.6434448957443237,-0.01748586,-0.051627252,-0.015082724392414093,-0.13432655
35.633333333332594,-0.039983716,-0.8169973,0.04318084,-2.3555982,-0.0390319,1.5425359,0.7441859,0.03999987,0.04,-9.801726,-0.6661386489868164,-0.017916784,-0.05235488,-0.01477714255452156,-0.13706562
35.64999999999926,-0.041338164,-0.81809646,0.04463677,-2.3555737,-0.040352087,1.5415766,0.74277514,0.03999987,0.04,-9.79996,-0.6892739534378052,-0.018462423,-0.053066887,-0.014448678120970726,-0.13981041
35.666666666665925,-0.042718057,-0.8192162,0.046120107,-2.3555486,-0.04169711,1.5405992,0.74133795,0.039999865,0.04,-9.798158,-0.7128758430480957,-0.019041501,-0.053764194,-0.014100845903158188,-0.1425622
35.68333333333259,-0.04412343,-0.82035655,0.047630828,-2.355523,-0.04306693,1.539604,0.7398741,0.039999854,0.04,-9.796317,-0.7369372248649597,-0.019735323,-0.05444558,-0.013735386542975903,-0.14531925
35.69999999999926,-0.045554258,-0.8215177,0.04916892,-2.355497,-0.044461586,1.5385907,0.7383838,0.039999843,0.04,-9.794288,-0.7614539265632629,-0.02051964,-0.05510964,-0.013347415253520012,-0.14808051
35.71666666666592,-0.047010545,-0.8226995,0.050734375,-2.3554702,-0.045881048,1.5375596,0.7368668,0.039999835,0.04,-9.792161,-0.7864232659339905,-0.021360002,-0.05575676,-0.012937169522047043,-0.15084608
35.73333333333259,-0.048492238,-0.82390183,0.05232716,-2.355443,-0.047325287,1.5365106,0.7353233,0.039999835,0.04,-9.789914,-0.8118478655815125,-0.0223139,-0.056385,-0.012502784840762615,-0.15361293
35.749999999999254,-0.04999931,-0.8251249,0.053947255,-2.3554156,-0.04879429,1.5354434,0.7337534,0.03999983,0.04,-9.787632,-0.8377594351768494,-0.023351224,-0.056995276,-0.012048552744090557,-0.15638429
35.76666666666592,-0.051531743,-0.8263685,0.055594597,-2.3553882,-0.050287995,1.5343583,0.7321572,0.039999824,0.04,-9.785228,-0.8641053438186646,-0.024482356,-0.057586394,-0.011573410592973232,-0.15915534
35.783333333332585,-0.053089485,-0.8276328,0.05726915,-2.3553607,-0.05180637,1.533255,0.7305345,0.039999824,0.04,-9.782713,-0.8909050822257996,-0.025749877,-0.05815887,-0.011077376082539558,-0.16192639
35.79999999999925,-0.05467248,-0.8289176,0.058970854,-2.355333,-0.05334938,1.5321338,0.7288854,0.039999813,0.04,-9.780102,-0.918222188949585,-0.027099531,-0.058711033,-0.010560810565948486,-0.16470383
35.81666666666592,-0.056280676,-0.8302228,0.060699686,-2.3553054,-0.054916978,1.5309949,0.7272103,0.039999824,0.04,-9.777311,-0.9459415674209595,-0.02857519,-0.059242565,-0.010021359659731388,-0.16747938
35.83333333333258,-0.057914015,-0.83154833,0.062455535,-2.3552766,-0.056509074,1.5298384,0.7255089,0.039999817,0.04,-9.774461,-0.9741111397743225,-0.030205648,-0.059754215,-0.00946125015616417,-0.17025007
35.84999999999925,-0.059572417,-0.8328941,0.06423833,-2.355247,-0.05812559,1.5286639,0.72378135,0.039999817,0.04,-9.7712965,-1.0027252435684204,-0.031936005,-0.060245167,-0.00887230969965458,-0.17301539
35.866666666665914,-0.061255824,-0.83426064,0.066048004,-2.355217,-0.059766453,1.5274715,0.7220278,0.039999813,0.04,-9.768043,-1.0318149328231812,-0.03379312,-0.06071399,-0.008259368129074574,-0.17577815
35.88333333333258,-0.06296413,-0.8356472,0.06788444,-2.3551862,-0.06143162,1.5262617,0.7202482,0.0399998,0.04,-9.764662,-1.0613645315170288,-0.035742864,-0.06116178,-0.007619509473443031,-0.17853934
35.899999999999245,-0.06469727,-0.8370537,0.06974758,-2.355155,-0.06312096,1.5250342,0.71844274,0.039999798,0.04,-9.761146,-1.0913374423980713,-0.037888654,-0.06158738,-0.006953761447221041,-0.18129198
35.91666666666591,-0.06645514,-0.8384804,0.0716373,-2.355123,-0.06483437,1.5237894,0.71661156,0.03999978,0.04,-9.757521,-1.1217944622039795,-0.04016659,-0.06199006,-0.006264298222959042,-0.18404154
35.93333333333258,-0.06823764,-0.8399271,0.07355351,-2.3550909,-0.06657182,1.5225271,0.7147547,0.03999978,0.04,-9.753644,-1.1526628732681274,-0.042575553,-0.062370826,-0.005545291118323803,-0.18678276
35.94999999999924,-0.07004466,-0.8413937,0.07549609,-2.3550577,-0.06833318,1.5212475,0.7128723,0.039999772,0.04,-9.749747,-1.1840102672576904,-0.045140386,-0.062728025,-0.004802555777132511,-0.18951805
35.96666666666591,-0.07187606,-0.84288025,0.07746488,-2.3550243,-0.070118316,1.5199504,0.7109646,0.039999764,0.04,-9.745501,-1.2157692909240723,-0.04785016,-0.063062586,-0.004029427655041218,-0.19224396
35.983333333332574,-0.07373175,-0.8443865,0.079459794,-2.3549907,-0.07192716,1.5186363,0.7090315,0.03999977,0.04,-9.74127,-1.2480252981185913,-0.050712608,-0.0633738,-0.0032319591846317053,-0.19496752
35.99999999999924,-0.075611606,-0.8459122,0.08148067,-2.3549569,-0.07375954,1.517305,0.70707315,0.03999976,0.04,-9.736794,-1.280663251876831,-0.053756468,-0.0636606,-0.002406730316579342,-0.19767791
36.016666666665905,-0.07751549,-0.8474574,0.08352737,-2.3549225,-0.07561535,1.5159566,0.7050899,0.039999753,0.04,-9.732203,-1.3137333393096924,-0.05700288,-0.06392251,-0.001556895673274994,-0.20037517
36.03333333333257,-0.079443276,-0.8490223,0.085599765,-2.354888,-0.07749444,1.5145913,0.7030817,0.039999742,0.04,-9.727387,-1.3472397327423096,-0.060395956,-0.064161375,-0.000680311641190201,-0.20306017
36.04999999999924,-0.081394814,-0.8506063,0.087697715,-2.3548532,-0.07939669,1.5132093,0.70104885,0.03999974,0.04,-9.7223625,-1.3811852931976318,-0.063955314,-0.06437535,0.0002249034441774711,-0.2057326
36.0666666666659,-0.08336995,-0.85220957,0.08982104,-2.354818,-0.081321925,1.5118107,0.6989915,0.03999974,0.04,-9.717208,-1.4155607223510742,-0.06774563,-0.064564504,0.0011566700413823128,-0.20839182
36.08333333333257,-0.08536855,-0.8538317,0.09196957,-2.3547823,-0.08327,1.5103956,0.69690955,0.039999723,0.04,-9.711844,-1.4503579139709473,-0.07168828,-0.06472958,0.00211538840085268,-0.21103817
36.099999999999234,-0.08739043,-0.855473,0.0941431,-2.3547466,-0.085240774,1.5089636,0.69480336,0.03999972,0.04,-9.7062,-1.485554575920105,-0.07586544,-0.06486917,0.003105059266090393,-0.21366763
36.1166666666659,-0.08943546,-0.857133,0.09634151,-2.3547103,-0.087234065,1.5075155,0.692673,0.039999705,0.04,-9.700442,-1.5211846828460693,-0.08017888,-0.06498353,0.004120034631341696,-0.21628425
36.133333333332565,-0.091503434,-0.85881156,0.0985646,-2.354674,-0.08924976,1.5060513,0.6905186,0.039999705,0.04,-9.694474,-1.557235836982727,-0.08475484,-0.06507244,0.005163570400327444,-0.21888565
36.14999999999923,-0.093594186,-0.8605086,0.100812174,-2.3546367,-0.09128767,1.5045696,0.6883411,0.03999971,0.04,-9.68827,-1.5937004089355469,-0.089526564,-0.0651354,0.00623597064986825,-0.22147422
36.1666666666659,-0.09570754,-0.8622242,0.10308406,-2.3545988,-0.09334759,1.5030726,0.6861394,0.039999697,0.04,-9.681814,-1.6304861307144165,-0.09448108,-0.06517541,0.00733252102509141,-0.22403634
36.18333333333256,-0.09784336,-0.86395794,0.10538001,-2.3545604,-0.09542939,1.50156,0.6839144,0.039999682,0.04,-9.675082,-1.667728304862976,-0.09967037,-0.065188065,0.008463987149298191,-0.22658189
36.19999999999923,-0.10000136,-0.8657096,0.107699856,-2.354521,-0.09753285,1.5000316,0.6816663,0.03999967,0.04,-9.668249,-1.7053498029708862,-0.10509874,-0.06517544,0.009622870944440365,-0.22910656
36.216666666665894,-0.10218142,-0.86747944,0.110043414,-2.3544815,-0.0996578,1.4984878,0.6793957,0.039999664,0.04,-9.661065,-1.743342399597168,-0.1107375,-0.065137796,0.010813726112246513,-0.23160869
36.23333333333256,-0.104383305,-0.8692669,0.112410426,-2.3544412,-0.10180397,1.4969282,0.6771021,0.039999653,0.04,-9.65371,-1.7817413806915283,-0.11657896,-0.06507682,0.012035073712468147,-0.23408966
36.249999999999226,-0.106606826,-0.871072,0.11480069,-2.3544009,-0.10397122,1.4953533,0.674786,0.039999638,0.04,-9.646096,-1.8205199241638184,-0.12267652,-0.06498928,0.013284781947731972,-0.23654905
36.26666666666589,-0.10885176,-0.87289447,0.11721394,-2.3543599,-0.106159344,1.4937636,0.67244756,0.03999963,0.04,-9.6383505,-1.8596508502960205,-0.12901631,-0.06487652,0.014561407268047333,-0.23898336
36.28333333333256,-0.11111792,-0.87473416,0.119649984,-2.3543186,-0.108368136,1.492159,0.67008704,0.039999615,0.04,-9.630244,-1.8991962671279907,-0.13558578,-0.06473879,0.015869265422225,-0.24139988
36.29999999999922,-0.113405064,-0.8765909,0.12210859,-2.3542771,-0.1105974,1.4905396,0.66770464,0.03999961,0.04,-9.621942,-1.9390532970428467,-0.14240701,-0.06457568,0.017205962911248207,-0.24379018
36.31666666666589,-0.11571298,-0.8784647,0.12458951,-2.3542354,-0.11284692,1.4889051,0.6653008,0.03999962,0.04,-9.61337,-1.9792495965957642,-0.14948049,-0.06438738,0.018571335822343826,-0.24615072
36.333333333332554,-0.1180414,-0.88035506,0.12709251,-2.3541934,-0.11511638,1.4872563,0.6628755,0.0399996,0.04,-9.604548,-2.0198161602020264,-0.15677175,-0.06417487,0.019963214173913002,-0.24848454
36.34999999999922,-0.12039014,-0.88226175,0.1296173,-2.354151,-0.117405646,1.4855931,0.660429,0.039999593,0.04,-9.595485,-2.0607285499572754,-0.16437042,-0.06393677,0.021383563056588173,-0.25079027
36.366666666665886,-0.12275895,-0.88418484,0.13216366,-2.354108,-0.119714476,1.4839157,0.65796155,0.039999574,0.04,-9.586112,-2.101964235305786,-0.17221716,-0.06367407,0.0228312686085701,-0.2530682
36.38333333333255,-0.1251476,-0.8861241,0.13473132,-2.3540652,-0.12204263,1.4822242,0.6554735,0.03999956,0.04,-9.576481,-2.1435341835021973,-0.18031938,-0.0633865,0.02430705353617668,-0.25531772
36.39999999999922,-0.12755586,-0.8880794,0.13732003,-2.354022,-0.124389835,1.4805188,0.6529651,0.039999545,0.04,-9.566573,-2.1854135990142822,-0.18868604,-0.06307477,0.02581043913960457,-0.2575353
36.41666666666588,-0.12998341,-0.8900503,0.13992949,-2.3539782,-0.12675586,1.4787996,0.6504364,0.03999953,0.04,-9.556397,-2.2276225090026855,-0.19730747,-0.06273957,0.027340859174728394,-0.25972396
36.43333333333255,-0.13243006,-0.89203674,0.14255941,-2.3539338,-0.12914051,1.4770674,0.6478879,0.03999952,0.04,-9.545883,-2.2701494693756104,-0.20622496,-0.062379025,0.02889951504766941,-0.26188314
36.449999999999214,-0.13489553,-0.89403844,0.14520957,-2.3538892,-0.1315435,1.4753214,0.64532,0.03999952,0.04,-9.535089,-2.3129405975341797,-0.21542083,-0.06199595,0.03048720210790634,-0.26400945
36.46666666666588,-0.13737959,-0.8960553,0.14787969,-2.353844,-0.13396457,1.4735625,0.6427326,0.039999515,0.04,-9.524071,-2.3560545444488525,-0.22487643,-0.061589878,0.03209913149476051,-0.2661028
36.483333333332546,-0.1398819,-0.89808697,0.15056947,-2.3537986,-0.13640341,1.4717906,0.64012617,0.039999492,0.04,-9.512629,-2.3994038105010986,-0.23461251,-0.061160654,0.033741194754838943,-0.26815847
36.49999999999921,-0.1424022,-0.90013325,0.15327857,-2.353753,-0.13885981,1.4700059,0.63750094,0.03999948,0.04,-9.501039,-2.443084478378296,-0.24463509,-0.06070737,0.03540603071451187,-0.27017966
36.51666666666588,-0.14494035,-0.902194,0.15600677,-2.3537076,-0.14133352,1.4682083,0.6348573,0.039999455,0.04,-9.48906,-2.4870054721832275,-0.2549488,-0.060231958,0.03709758445620537,-0.27216536
36.53333333333254,-0.14749594,-0.9042691,0.15875372,-2.3536618,-0.14382426,1.4663986,0.6321954,0.03999945,0.04,-9.476864,-2.5312020778656006,-0.26554468,-0.05973454,0.0388106107711792,-0.27411556
36.54999999999921,-0.15006873,-0.9063582,0.16151914,-2.353616,-0.14633171,1.4645767,0.62951565,0.03999943,0.04,-9.464287,-2.575651168823242,-0.27643195,-0.05921509,0.04054943099617958,-0.27602863
36.566666666665874,-0.15265846,-0.90846115,0.16430275,-2.3535697,-0.1488557,1.4627427,0.62681824,0.039999414,0.04,-9.45142,-2.620342254638672,-0.2876118,-0.058673866,0.042311832308769226,-0.27790397
36.58333333333254,-0.15526475,-0.91057724,0.16710418,-2.3535228,-0.15139584,1.460897,0.6241035,0.0399994,0.04,-9.438194,-2.66526198387146,-0.29906988,-0.058111276,0.044097550213336945,-0.2797404
36.599999999999206,-0.1578874,-0.9127066,0.16992314,-2.3534753,-0.15395188,1.4590397,0.62137175,0.039999392,0.04,-9.424604,-2.7104039192199707,-0.3108626,-0.057528026,0.04590905085206032,-0.2815391
36.61666666666587,-0.16052614,-0.9148494,0.17275934,-2.3534276,-0.15652357,1.4571712,0.6186232,0.039999373,0.04,-9.410754,-2.755786657333374,-0.32293049,-0.056924265,0.047744061797857285,-0.28329998
36.63333333333254,-0.1631806,-0.9170049,0.17561248,-2.3533792,-0.1591106,1.4552916,0.6158584,0.039999366,0.04,-9.396565,-2.8013486862182617,-0.3352439,-0.05630049,0.04960189759731293,-0.28501835
36.6499999999992,-0.16585054,-0.9191727,0.17848217,-2.3533309,-0.16171265,1.453401,0.61307764,0.039999347,0.04,-9.381969,-2.847109794616699,-0.3478846,-0.055658177,0.05148453637957573,-0.28669342
36.66666666666587,-0.16853563,-0.9213531,0.18136813,-2.3532822,-0.16432947,1.4514996,0.610281,0.03999933,0.04,-9.367188,-2.8930716514587402,-0.3608456,-0.054996774,0.05338525399565697,-0.2883252
36.683333333332534,-0.17123556,-0.92354566,0.18427,-2.3532333,-0.16696075,1.4495875,0.60746896,0.039999306,0.04,-9.352027,-2.9392402172088623,-0.37406248,-0.05431616,0.05530642718076706,-0.2899161
36.6999999999992,-0.17395002,-0.92574996,0.18718746,-2.3531837,-0.16960612,1.4476655,0.6046419,0.03999928,0.04,-9.336492,-2.985553741455078,-0.3875822,-0.053617813,0.05724739283323288,-0.29146266
36.716666666665866,-0.17667867,-0.9279658,0.19012022,-2.3531342,-0.17226537,1.4457332,0.6018,0.03999927,0.04,-9.320549,-3.0320332050323486,-0.40140733,-0.052902777,0.05921164155006409,-0.29296473
36.73333333333253,-0.17942123,-0.9301929,0.19306785,-2.3530838,-0.17493814,1.4437912,0.59894365,0.039999243,0.04,-9.304418,-3.078700542449951,-0.4155432,-0.05216924,0.061191584914922714,-0.29442325
36.7499999999992,-0.18217736,-0.9324311,0.19603004,-2.3530335,-0.1776241,1.4418395,0.5960731,0.039999228,0.04,-9.2878,-3.125469923019409,-0.42996642,-0.051419545,0.06319234520196915,-0.29583633
36.76666666666586,-0.18494678,-0.9346799,0.19900647,-2.352983,-0.18032296,1.4398783,0.5931885,0.039999213,0.04,-9.270947,-3.1723968982696533,-0.4446854,-0.05065309,0.06520870327949524,-0.29720253
36.78333333333253,-0.18772914,-0.9369394,0.20199677,-2.3529325,-0.18303446,1.4379084,0.59029067,0.039999183,0.04,-9.253726,-3.219468832015991,-0.45971417,-0.049869478,0.06724058836698532,-0.29852536
36.799999999999194,-0.19052415,-0.9392092,0.2050007,-2.3528817,-0.18575817,1.4359293,0.58737963,0.03999916,0.04,-9.236124,-3.2666265964508057,-0.47502542,-0.049071338,0.06928995996713638,-0.2997998
36.81666666666586,-0.1933314,-0.941489,0.20801777,-2.3528306,-0.18849391,1.4339415,0.5844558,0.039999142,0.04,-9.218195,-3.313932180404663,-0.4906212,-0.04825839,0.0713527500629425,-0.3010287
36.833333333332526,-0.19615065,-0.94377846,0.21104763,-2.3527792,-0.19124122,1.4319452,0.58151954,0.039999127,0.04,-9.199911,-3.361297845840454,-0.5065279,-0.047430504,0.07342904806137085,-0.3022084
36.84999999999919,-0.19898154,-0.9460776,0.21408997,-2.3527277,-0.19399993,1.4299406,0.5785713,0.039999112,0.04,-9.181208,-3.408757448196411,-0.52271616,-0.04658952,0.07552067935466766,-0.3033409
36.86666666666586,-0.2018237,-0.9483857,0.21714443,-2.3526762,-0.19676958,1.4279281,0.57561123,0.039999086,0.04,-9.162237,-3.4562995433807373,-0.5391768,-0.045736164,0.07762276381254196,-0.30442408
36.88333333333252,-0.20467687,-0.9507029,0.22021063,-2.3526244,-0.19954991,1.4259077,0.5726398,0.03999907,0.04,-9.14288,-3.5039162635803223,-0.5559723,-0.04486882,0.07973652333021164,-0.3054589
36.89999999999919,-0.2075406,-0.9530286,0.22328821,-2.3525727,-0.20234053,1.42388,0.56965715,0.03999905,0.04,-9.12317,-3.5515823364257812,-0.5730151,-0.043989886,0.08185996860265732,-0.3064438
36.916666666665854,-0.2104146,-0.9553626,0.22637682,-2.35252,-0.20514111,1.4218447,0.566664,0.039999023,0.04,-9.103105,-3.5992934703826904,-0.590377,-0.043098073,0.08399318903684616,-0.30737785
36.93333333333252,-0.21329856,-0.95770484,0.2294761,-2.3524673,-0.20795135,1.4198027,0.5636602,0.039998997,0.04,-9.082559,-3.647043466567993,-0.60796916,-0.042196807,0.08613765984773636,-0.30826208
36.949999999999186,-0.21619214,-0.9600548,0.2325856,-2.3524146,-0.2107709,1.4177538,0.5606466,0.03999897,0.04,-9.061808,-3.6948208808898926,-0.6258651,-0.04128382,0.08828938752412796,-0.30909446
36.96666666666585,-0.21909492,-0.9624124,0.23570497,-2.352362,-0.21359947,1.4156986,0.55762327,0.03999894,0.04,-9.040647,-3.7426369190216064,-0.64404666,-0.040361356,0.09044844657182693,-0.30987862
36.98333333333252,-0.2220066,-0.96477735,0.2388339,-2.3523092,-0.21643667,1.4136369,0.554591,0.03999892,0.04,-9.019143,-3.7904391288757324,-0.6624914,-0.039429083,0.0926136001944542,-0.31060842
36.99999999999918,-0.22492683,-0.96714944,0.24197201,-2.3522565,-0.21928217,1.4115692,0.5515496,0.03999888,0.04,-8.997272,-3.8382620811462402,-0.6811972,-0.038489565,0.09478268772363663,-0.31128848
37.01666666666585,-0.22785522,-0.96952796,0.24511884,-2.3522036,-0.22213562,1.4094957,0.5484998,0.039998855,0.04,-8.975027,-3.8860676288604736,-0.7001615,-0.037540685,0.09695672243833542,-0.31191546
37.033333333332514,-0.2307915,-0.97191286,0.24827406,-2.3521504,-0.2249967,1.4074168,0.545442,0.039998826,0.04,-8.952458,-3.933850049972534,-0.7194306,-0.036584448,0.09913147240877151,-0.3124923
37.04999999999918,-0.2337353,-0.974304,0.2514373,-2.352097,-0.22786504,1.4053324,0.54237634,0.03999881,0.04,-8.929478,-3.9815728664398193,-0.7389172,-0.035622176,0.10131021589040756,-0.31301418
37.066666666665846,-0.23668617,-0.976701,0.2546082,-2.3520436,-0.2307403,1.403243,0.5393032,0.039998773,0.04,-8.906148,-4.029301643371582,-0.75867397,-0.034653716,0.10348986089229584,-0.31348678
37.08333333333251,-0.23964381,-0.9791035,0.25778627,-2.35199,-0.2336221,1.401149,0.536223,0.03999875,0.04,-8.882503,-4.076961040496826,-0.77866524,-0.033678405,0.10566887259483337,-0.3139049
37.09999999999918,-0.24260789,-0.9815112,0.26097125,-2.3519363,-0.23651014,1.3990505,0.5331361,0.03999872,0.04,-8.858436,-4.12453556060791,-0.7989244,-0.032698352,0.10784902423620224,-0.3142695
37.11666666666584,-0.245578,-0.9839239,0.26416272,-2.3518825,-0.23940405,1.3969475,0.530043,0.039998706,0.04,-8.834086,-4.172080039978027,-0.8194031,-0.031713378,0.11002559959888458,-0.31458125
37.13333333333251,-0.24855381,-0.98634124,0.26736024,-2.3518286,-0.24230348,1.3948404,0.52694404,0.03999867,0.04,-8.8093405,-4.2195539474487305,-0.84014493,-0.030724114,0.11219958961009979,-0.3148419
37.149999999999174,-0.2515349,-0.988763,0.27056345,-2.3517745,-0.24520804,1.3927296,0.5238395,0.03999864,0.04,-8.784269,-4.26690673828125,-0.8610782,-0.029732067,0.11436775326728821,-0.31504875
37.16666666666584,-0.254521,-0.9911888,0.27377197,-2.3517203,-0.24811739,1.3906155,0.52072984,0.039998617,0.04,-8.758808,-4.314168930053711,-0.8822786,-0.028736513,0.11653254926204681,-0.3152014
37.183333333332506,-0.25751168,-0.99361837,0.27698535,-2.351666,-0.2510312,1.3884982,0.5176153,0.039998572,0.04,-8.733052,-4.361339092254639,-0.9036807,-0.027739063,0.11869041621685028,-0.31530443
37.19999999999917,-0.2605065,-0.99605143,0.28020325,-2.3516114,-0.25394908,1.3863778,0.5144965,0.039998554,0.04,-8.706903,-4.408351898193359,-0.9252954,-0.02673972,0.12084267288446426,-0.31535098
37.21666666666584,-0.26350525,-0.9984875,0.28342527,-2.3515568,-0.25687066,1.3842547,0.51137376,0.039998524,0.04,-8.680399,-4.455273151397705,-0.94711846,-0.02573941,0.1229872778058052,-0.3153456
37.2333333333325,-0.26650757,-1.0009266,0.28665096,-2.3515022,-0.25979564,1.3821291,0.50824726,0.039998494,0.04,-8.653654,-4.502070426940918,-0.96917903,-0.024738481,0.12512028217315674,-0.31528932
37.24999999999917,-0.2695129,-1.0033685,0.28988,-2.3514476,-0.26272368,1.3800014,0.50511754,0.039998468,0.04,-8.626515,-4.548686504364014,-0.99139476,-0.023737688,0.1272425800561905,-0.31517863
37.266666666665834,-0.27252102,-1.0058124,0.29311204,-2.3513927,-0.26565433,1.3778716,0.5019849,0.03999843,0.04,-8.599039,-4.595184803009033,-1.0138112,-0.022736797,0.12935411930084229,-0.31501454
37.2833333333325,-0.27553168,-1.0082585,0.29634655,-2.351338,-0.26858732,1.3757404,0.49884996,0.039998394,0.04,-8.571214,-4.641518592834473,-1.0364429,-0.021736778,0.13145293295383453,-0.31480023
37.299999999999166,-0.2785443,-1.0107061,0.29958326,-2.351283,-0.2715223,1.3736075,0.49571285,0.039998367,0.04,-8.54312,-4.687641143798828,-1.0592289,-0.020740163,0.1335374414920807,-0.31453145
37.31666666666583,-0.28155857,-1.0131547,0.30282164,-2.3512282,-0.27445886,1.3714736,0.49257398,0.03999834,0.04,-8.514663,-4.733636856079102,-1.082211,-0.019744277,0.13560612499713898,-0.31421039
37.3333333333325,-0.2845741,-1.0156046,0.30606133,-2.3511734,-0.27739662,1.3693389,0.4894338,0.039998315,0.04,-8.485935,-4.779414653778076,-1.105379,-0.018750327,0.137657031416893,-0.31383935
37.34999999999916,-0.28759047,-1.0180553,0.30930206,-2.3511186,-0.28033525,1.3672034,0.48629263,0.039998278,0.04,-8.456844,-4.825016498565674,-1.1286856,-0.01775961,0.1396925300359726,-0.31341612
37.36666666666583,-0.29060745,-1.0205066,0.3125433,-2.351064,-0.28327432,1.3650675,0.48315102,0.039998256,0.04,-8.427443,-4.870396137237549,-1.1521438,-0.016771864,0.1417086273431778,-0.31293973
37.383333333332494,-0.29362458,-1.0229582,0.3157847,-2.3510091,-0.28621358,1.3629316,0.48000914,0.039998215,0.04,-8.397783,-4.915579795837402,-1.1757352,-0.015788922,0.143704354763031,-0.31241292
37.39999999999916,-0.29664153,-1.0254096,0.31902575,-2.3509538,-0.2891526,1.3607959,0.47686765,0.03999817,0.04,-8.367767,-4.960535526275635,-1.1994829,-0.014810697,0.1456809937953949,-0.31183532
37.416666666665826,-0.29965797,-1.0278605,0.32226613,-2.3508987,-0.29209104,1.3586602,0.4737266,0.039998133,0.04,-8.337424,-5.005265712738037,-1.2233502,-0.013839095,0.14763839542865753,-0.3112089
37.43333333333249,-0.30267346,-1.0303108,0.3255055,-2.3508434,-0.2950285,1.3565255,0.47058657,0.039998107,0.04,-8.3068695,-5.049737930297852,-1.2473658,-0.012872441,0.14957034587860107,-0.3105306
37.44999999999916,-0.30568773,-1.03276,0.32874346,-2.3507886,-0.29796475,1.3543919,0.467448,0.03999807,0.04,-8.275956,-5.093995571136475,-1.2714975,-0.011911768,0.15148092806339264,-0.30980268
37.46666666666582,-0.30870014,-1.035208,0.33197948,-2.350734,-0.30089918,1.3522593,0.46431112,0.03999804,0.04,-8.244851,-5.138014316558838,-1.2957455,-0.010958542,0.15336540341377258,-0.3090245
37.48333333333249,-0.31171048,-1.0376543,0.33521336,-2.3506794,-0.30383158,1.3501282,0.4611764,0.039998002,0.04,-8.213484,-5.181793212890625,-1.320114,-0.010010335,0.15522223711013794,-0.3082025
37.499999999999154,-0.31471854,-1.0400985,0.33844462,-2.3506248,-0.3067617,1.3479989,0.45804426,0.039997976,0.04,-8.181756,-5.225284576416016,-1.3445654,-0.009069241,0.15705308318138123,-0.30732968
37.51666666666582,-0.31772366,-1.0425408,0.34167284,-2.3505702,-0.309689,1.3458716,0.45491505,0.03999794,0.04,-8.149817,-5.268492221832275,-1.3691211,-0.008137184,0.15885497629642487,-0.30640957
37.533333333332486,-0.32072574,-1.0449806,0.3448975,-2.3505163,-0.31261328,1.3437464,0.45178923,0.039997905,0.04,-8.117562,-5.311440467834473,-1.3937396,-0.007212649,0.16063036024570465,-0.30544138
37.54999999999915,-0.32372424,-1.0474173,0.34811848,-2.3504624,-0.3155339,1.3416238,0.44866696,0.039997872,0.04,-8.085188,-5.354118824005127,-1.4184542,-0.0062974887,0.16237148642539978,-0.3044286
37.56666666666582,-0.3267189,-1.0498508,0.3513351,-2.3504086,-0.3184508,1.3395041,0.4455488,0.039997846,0.04,-8.052461,-5.396478652954102,-1.4432739,-0.0053895093,0.16408199071884155,-0.30336767
37.58333333333248,-0.3297092,-1.052281,0.35454717,-2.3503544,-0.3213635,1.3373873,0.44243506,0.039997805,0.04,-8.019496,-5.4385223388671875,-1.468124,-0.0044917497,0.16576141119003296,-0.30226034
37.59999999999915,-0.33269504,-1.0547074,0.35775423,-2.3503003,-0.32427165,1.3352737,0.43932617,0.03999776,0.04,-7.9862776,-5.480301380157471,-1.493003,-0.0036038416,0.16740897297859192,-0.3011078
37.616666666665814,-0.3356758,-1.0571302,0.36095586,-2.350246,-0.3271749,1.3331635,0.43622258,0.039997727,0.04,-7.9528613,-5.521761894226074,-1.5179633,-0.0027264599,0.16902190446853638,-0.29991168
37.63333333333248,-0.33865112,-1.0595489,0.36415172,-2.3501916,-0.33007297,1.3310572,0.43312454,0.039997693,0.04,-7.919162,-5.562890529632568,-1.5428942,-0.0018616439,0.17060284316539764,-0.2986697
37.649999999999146,-0.3416207,-1.0619625,0.36734137,-2.3501375,-0.3329655,1.328955,0.43003252,0.039997656,0.04,-7.88531,-5.603740215301514,-1.5679034,-0.0010074471,0.1721489429473877,-0.29738402
37.66666666666581,-0.34458423,-1.0643711,0.37052447,-2.3500829,-0.33585197,1.3268574,0.42694682,0.03999762,0.04,-7.8512855,-5.644253253936768,-1.5929939,-0.00016345596,0.17365744709968567,-0.2960564
37.68333333333248,-0.34754142,-1.0667746,0.3737006,-2.3500285,-0.3387322,1.324764,0.42386785,0.039997593,0.04,-7.8169556,-5.684426784515381,-1.6180388,0.0006680061,0.1751326471567154,-0.29468694
37.69999999999914,-0.35049176,-1.0691729,0.37686944,-2.3499744,-0.34160578,1.3226756,0.42079592,0.039997548,0.04,-7.78254,-5.724294662475586,-1.6430982,0.0014873736,0.17656683921813965,-0.29327828
37.71666666666581,-0.35343492,-1.071565,0.38003054,-2.3499205,-0.34447232,1.3205923,0.41773143,0.03999752,0.04,-7.7478976,-5.763805389404297,-1.6681702,0.0022948852,0.17796359956264496,-0.2918264
37.733333333332475,-0.35637066,-1.0739511,0.3831835,-2.3498666,-0.3473316,1.3185142,0.41467482,0.03999749,0.04,-7.71314,-5.802994251251221,-1.6932721,0.003091209,0.17931896448135376,-0.29033563
37.74999999999914,-0.3592985,-1.0763314,0.38632795,-2.349813,-0.35018313,1.3164415,0.41162643,0.039997447,0.04,-7.678135,-5.841792106628418,-1.7183188,0.003873695,0.1806338131427765,-0.2888029
37.766666666665806,-0.36221805,-1.0787046,0.3894635,-2.3497596,-0.35302657,1.3143752,0.40858665,0.039997414,0.04,-7.6430087,-5.880285739898682,-1.7433116,0.0046422696,0.18190699815750122,-0.28723234
37.78333333333247,-0.36512905,-1.0810709,0.3925899,-2.3497064,-0.35586157,1.3123149,0.40555578,0.03999737,0.04,-7.607738,-5.918428421020508,-1.7683871,0.0053989366,0.18313920497894287,-0.28562492
37.79999999999914,-0.36803114,-1.0834299,0.3957066,-2.3496535,-0.35868794,1.3102607,0.40253425,0.03999733,0.04,-7.572287,-5.956199645996094,-1.7933682,0.006142318,0.18432939052581787,-0.2839803
37.8166666666658,-0.37092397,-1.0857816,0.39881334,-2.3496008,-0.36150515,1.3082131,0.39952242,0.039997302,0.04,-7.5367584,-5.993603229522705,-1.8183204,0.006872198,0.1854732632637024,-0.28229803
37.83333333333247,-0.3738072,-1.0881256,0.40190962,-2.3495476,-0.36431295,1.3061726,0.3965207,0.03999727,0.04,-7.501072,-6.030670166015625,-1.8432186,0.007588089,0.18657313287258148,-0.28058302
37.849999999999135,-0.37668043,-1.0904617,0.4049952,-2.3494947,-0.367111,1.304139,0.3935293,0.039997227,0.04,-7.4651647,-6.067320823669434,-1.8680159,0.008287451,0.18763333559036255,-0.27883244
37.8666666666658,-0.3795434,-1.0927892,0.4080696,-2.3494418,-0.369899,1.3021127,0.39054856,0.039997205,0.04,-7.4292135,-6.103634834289551,-1.892779,0.008972782,0.1886480152606964,-0.27704626
37.883333333332466,-0.38239574,-1.0951084,0.41113263,-2.3493896,-0.37267658,1.3000939,0.38757902,0.039997164,0.04,-7.393211,-6.139552116394043,-1.9175017,0.00964431,0.1896149069070816,-0.275227
37.89999999999913,-0.385237,-1.0974182,0.41418377,-2.3493376,-0.37544355,1.298083,0.38462102,0.03999712,0.04,-7.3570905,-6.175143241882324,-1.9421368,0.010301112,0.19053514301776886,-0.27337477
37.9166666666658,-0.38806692,-1.099719,0.41722268,-2.3492858,-0.37819934,1.2960799,0.3816748,0.03999709,0.04,-7.3209395,-6.210331439971924,-1.966752,0.010944692,0.19140517711639404,-0.27149215
37.93333333333246,-0.39088523,-1.1020105,0.42024907,-2.3492346,-0.38094383,1.2940851,0.37874064,0.039997052,0.04,-7.28461,-6.245154857635498,-1.9911966,0.011573195,0.192229226231575,-0.26957953
37.94999999999913,-0.39369145,-1.1042922,0.42326248,-2.3491836,-0.38367662,1.2920989,0.3758191,0.039997023,0.04,-7.2482667,-6.279562950134277,-2.015584,0.012186819,0.1930035948753357,-0.26763362
37.966666666665795,-0.39648536,-1.1065638,0.42626262,-2.3491337,-0.38639718,1.2901214,0.37291035,0.039996993,0.04,-7.211861,-6.313626766204834,-2.039873,0.012785541,0.19372883439064026,-0.26566198
37.98333333333246,-0.39926666,-1.1088251,0.42924923,-2.349084,-0.3891055,1.2881528,0.37001488,0.039996956,0.04,-7.1754684,-6.347324848175049,-2.0641196,0.01337127,0.19440273940563202,-0.26366442
37.999999999999126,-0.40203497,-1.1110758,0.4322219,-2.349034,-0.39180112,1.2861936,0.36713287,0.039996926,0.04,-7.1389422,-6.38058614730835,-2.0881855,0.013941248,0.1950259655714035,-0.261637
38.01666666666579,-0.40478992,-1.1133159,0.43518007,-2.348984,-0.3944837,1.284244,0.3642648,0.03999689,0.04,-7.102339,-6.413446426391602,-2.1121392,0.014496155,0.19560083746910095,-0.25958127
38.03333333333246,-0.40753126,-1.1155449,0.43812367,-2.3489337,-0.397153,1.2823037,0.3614109,0.039996855,0.04,-7.065703,-6.445920467376709,-2.1359136,0.015033792,0.1961292028427124,-0.25750014
38.04999999999912,-0.41025868,-1.1177627,0.44105223,-2.3488836,-0.39980868,1.2803733,0.35857156,0.039996807,0.04,-7.0290294,-6.478030204772949,-2.1595912,0.0155553855,0.19660864770412445,-0.2553947
38.06666666666579,-0.41297185,-1.1199687,0.4439654,-2.3488338,-0.4024505,1.2784532,0.355747,0.039996784,0.04,-6.992427,-6.509723663330078,-2.183144,0.016061096,0.1970362514257431,-0.2532623
38.083333333332455,-0.4156704,-1.1221633,0.44686288,-2.3487842,-0.40507808,1.2765435,0.35293767,0.03999674,0.04,-6.9558325,-6.541062831878662,-2.2065759,0.016552147,0.19741305708885193,-0.25110993
38.09999999999912,-0.41835406,-1.1243459,0.44974434,-2.3487349,-0.4076911,1.2746441,0.35014385,0.039996713,0.04,-6.9192057,-6.571993827819824,-2.2297966,0.01702628,0.19774021208286285,-0.24893163
38.116666666665786,-0.42102247,-1.1265156,0.45260954,-2.3486857,-0.41028938,1.2727557,0.34736595,0.039996684,0.04,-6.8826084,-6.6025614738464355,-2.252894,0.017484156,0.19801586866378784,-0.246735
38.13333333333245,-0.42367542,-1.1286731,0.45545796,-2.348637,-0.41287252,1.2708783,0.34460413,0.03999665,0.04,-6.846035,-6.632694721221924,-2.2759066,0.01792815,0.19823946058750153,-0.24451466
38.14999999999912,-0.4263126,-1.1308179,0.45828947,-2.3485887,-0.41544023,1.269012,0.34185874,0.03999661,0.04,-6.8095603,-6.662466049194336,-2.2986968,0.018356543,0.19841012358665466,-0.24227557
38.16666666666578,-0.42893365,-1.1329497,0.4611036,-2.3485405,-0.4179922,1.2671572,0.33913016,0.03999658,0.04,-6.773031,-6.6918182373046875,-2.321292,0.01876846,0.1985296905040741,-0.24001509
38.18333333333245,-0.43153828,-1.1350683,0.4639001,-2.3484926,-0.4205282,1.265314,0.33641863,0.039996553,0.04,-6.736619,-6.72081184387207,-2.3437438,0.019164268,0.1985982358455658,-0.23773701
38.199999999999115,-0.43412632,-1.137173,0.46667868,-2.348445,-0.423048,1.2634825,0.33372447,0.03999652,0.04,-6.700211,-6.749393463134766,-2.3660095,0.019544471,0.19861556589603424,-0.23544161
38.21666666666578,-0.43669745,-1.139264,0.46943897,-2.3483977,-0.42555118,1.2616628,0.33104795,0.039996486,0.04,-6.663968,-6.777592182159424,-2.388148,0.019910479,0.1985778957605362,-0.2331297
38.233333333332446,-0.43925127,-1.1413412,0.47218072,-2.348351,-0.4280376,1.2598556,0.3283894,0.039996464,0.04,-6.6277547,-6.805400371551514,-2.410074,0.020261005,0.19848725199699402,-0.23080228
38.24999999999911,-0.44178757,-1.1434041,0.47490358,-2.3483047,-0.43050686,1.2580608,0.32574922,0.03999643,0.04,-6.5916142,-6.832808971405029,-2.4317768,0.02059553,0.19834569096565247,-0.22845733
38.26666666666578,-0.44430596,-1.1454526,0.47760725,-2.3482592,-0.43295887,1.2562786,0.32312748,0.03999639,0.04,-6.555589,-6.859874248504639,-2.4533293,0.020914782,0.19815215468406677,-0.22610232
38.28333333333244,-0.44680637,-1.1474864,0.4802915,-2.3482144,-0.43539318,1.2545091,0.3205247,0.03999636,0.04,-6.5197372,-6.886523723602295,-2.4747045,0.021220934,0.19790293276309967,-0.22373234
38.29999999999911,-0.44928843,-1.1495057,0.48295614,-2.3481696,-0.43780968,1.2527525,0.317941,0.039996337,0.04,-6.4839244,-6.912775039672852,-2.495864,0.021511532,0.19760100543498993,-0.22134879
38.316666666665775,-0.45175183,-1.15151,0.4856008,-2.3481247,-0.4402079,1.2510092,0.31537667,0.039996307,0.04,-6.4481797,-6.938675880432129,-2.5167549,0.02178524,0.19724880158901215,-0.21895353
38.33333333333244,-0.45419642,-1.1534984,0.48822498,-2.34808,-0.4425878,1.2492797,0.31283206,0.03999627,0.04,-6.412555,-6.964149475097656,-2.5374665,0.022043731,0.1968471109867096,-0.21654518
38.349999999999106,-0.4566218,-1.1554711,0.49082866,-2.3480353,-0.4449491,1.2475631,0.31030735,0.039996244,0.04,-6.3771367,-6.989230155944824,-2.5580401,0.022287756,0.19639506936073303,-0.21412762
38.36666666666577,-0.45902783,-1.1574285,0.49341145,-2.347991,-0.44729134,1.2458605,0.3078029,0.03999621,0.04,-6.341837,-7.013969421386719,-2.57834,0.022517882,0.19588950276374817,-0.2117004
38.38333333333244,-0.4614142,-1.1593697,0.4959732,-2.3479471,-0.44961452,1.244172,0.30531883,0.03999618,0.04,-6.3066735,-7.038305282592773,-2.5983875,0.022731343,0.1953354924917221,-0.20926264
38.3999999999991,-0.4637806,-1.1612952,0.49851358,-2.3479035,-0.4519182,1.2424973,0.30285543,0.03999616,0.04,-6.271729,-7.062304973602295,-2.6182952,0.022931581,0.19472980499267578,-0.2068172
38.41666666666577,-0.466127,-1.163204,0.5010323,-2.3478606,-0.45420226,1.2408366,0.30041307,0.039996136,0.04,-6.2368965,-7.085918426513672,-2.6379158,0.023117049,0.1940753161907196,-0.20436426
38.433333333332435,-0.46845302,-1.1650964,0.5035291,-2.3478174,-0.45646653,1.2391903,0.2979919,0.039996102,0.04,-6.202325,-7.10915470123291,-2.6573672,0.023288855,0.1933666169643402,-0.2019055
38.4499999999991,-0.47075835,-1.166972,0.50600374,-2.347775,-0.4587107,1.2375593,0.29559228,0.039996073,0.04,-6.1678233,-7.13199520111084,-2.6765401,0.02344537,0.19261160492897034,-0.1994413
38.466666666665766,-0.4730429,-1.1688309,0.508456,-2.3477328,-0.4609346,1.2359434,0.29321432,0.03999605,0.04,-6.133609,-7.154481410980225,-2.695552,0.02358843,0.1918078362941742,-0.19696839
38.48333333333243,-0.47530648,-1.1706729,0.51088554,-2.347691,-0.46313804,1.2343422,0.2908583,0.039996028,0.04,-6.0995483,-7.176609516143799,-2.7142832,0.02371688,0.1909569650888443,-0.19449034
38.4999999999991,-0.47754872,-1.1724973,0.51329225,-2.3476503,-0.46532065,1.2327554,0.28852442,0.039995987,0.04,-6.0657105,-7.198376178741455,-2.7327585,0.02383041,0.19005745649337769,-0.19200908
38.51666666666576,-0.47976944,-1.1743039,0.51567596,-2.3476102,-0.46748245,1.2311838,0.28621292,0.039995957,0.04,-6.0322027,-7.219817161560059,-2.7511156,0.023934003,0.18910327553749084,-0.18952766
38.53333333333243,-0.48196852,-1.1760932,0.51803625,-2.3475711,-0.46962306,1.2296273,0.28392404,0.03999594,0.04,-5.998821,-7.240855693817139,-2.769196,0.024026064,0.188099667429924,-0.18704225
38.549999999999095,-0.48414567,-1.1778644,0.52037287,-2.347532,-0.47174227,1.2280868,0.28165787,0.03999592,0.04,-5.965733,-7.26155948638916,-2.7870157,0.024104904,0.187045618891716,-0.18455617
38.56666666666576,-0.48630074,-1.1796179,0.5226859,-2.347493,-0.47383994,1.226562,0.27941483,0.039995894,0.04,-5.9327645,-7.281861782073975,-2.8046188,0.024171336,0.18594874441623688,-0.18206857
38.583333333332426,-0.48843342,-1.1813532,0.52497524,-2.3474538,-0.47591585,1.225053,0.27719504,0.039995868,0.04,-5.9000235,-7.301832675933838,-2.8219283,0.0242233,0.18480800092220306,-0.179578
38.59999999999909,-0.49054363,-1.1830703,0.52724004,-2.3474147,-0.47796988,1.2235596,0.2749987,0.039995838,0.04,-5.8675528,-7.321506500244141,-2.8390205,0.02426295,0.18362198770046234,-0.17708763
38.61666666666576,-0.49263117,-1.1847688,0.52948046,-2.347376,-0.4800018,1.2220827,0.27282584,0.039995816,0.04,-5.835335,-7.340738296508789,-2.8558161,0.024287779,0.18239372968673706,-0.17459819
38.63333333333242,-0.49469584,-1.1864488,0.53169644,-2.347338,-0.4820115,1.2206218,0.27067682,0.039995793,0.04,-5.8034506,-7.359691143035889,-2.8724709,0.024302682,0.1811208575963974,-0.17210945
38.64999999999909,-0.49673748,-1.1881106,0.53388774,-2.3473003,-0.48399866,1.2191774,0.26855177,0.039995763,0.04,-5.7717896,-7.378299236297607,-2.8888211,0.024304727,0.17980410158634186,-0.16962196
38.666666666665755,-0.4987559,-1.1897535,0.5360542,-2.3472629,-0.48596323,1.2177494,0.26645082,0.03999575,0.04,-5.740435,-7.396588325500488,-2.904924,0.024294147,0.178444966673851,-0.16713637
38.68333333333242,-0.500751,-1.1913775,0.53819543,-2.3472261,-0.48790503,1.2163378,0.26437435,0.03999572,0.04,-5.709317,-7.414536476135254,-2.9207962,0.024272252,0.1770448535680771,-0.16465223
38.699999999999086,-0.50272256,-1.1929821,0.5403115,-2.3471901,-0.48982397,1.214943,0.2623223,0.03999569,0.04,-5.6785846,-7.432140350341797,-2.9364576,0.024239182,0.17559994757175446,-0.16217168
38.71666666666575,-0.5046704,-1.1945673,0.54240197,-2.3471544,-0.49171993,1.2135649,0.26029497,0.03999565,0.04,-5.6480913,-7.449443817138672,-2.9519033,0.024196807,0.17411430180072784,-0.15969649
38.73333333333242,-0.50659436,-1.1961334,0.54446685,-2.347119,-0.49359256,1.2122035,0.25829244,0.039995637,0.04,-5.61788,-7.466339588165283,-2.96704,0.024142662,0.17258837819099426,-0.15722254
38.74999999999908,-0.50849444,-1.1976799,0.54650587,-2.3470845,-0.49544182,1.2108592,0.2563148,0.03999562,0.04,-5.5880203,-7.483005046844482,-2.9819567,0.024078606,0.1710216999053955,-0.15475619
38.76666666666575,-0.51037025,-1.1992065,0.548519,-2.347051,-0.49726766,1.2095319,0.2543624,0.03999559,0.04,-5.5584373,-7.499307632446289,-2.9966276,0.024003882,0.16941727697849274,-0.15229508
38.783333333332415,-0.512222,-1.2007138,0.55050635,-2.347018,-0.49906987,1.208222,0.2524352,0.039995566,0.04,-5.5292645,-7.515328407287598,-3.01114,0.023922153,0.16777119040489197,-0.14984223
38.79999999999908,-0.51404935,-1.202202,0.5524672,-2.346985,-0.5008484,1.2069294,0.2505333,0.039995544,0.04,-5.5003166,-7.531038761138916,-3.0253248,0.023829287,0.16608822345733643,-0.14739445
38.816666666665746,-0.5158522,-1.2036688,0.55440193,-2.3469522,-0.502603,1.205654,0.24865696,0.039995518,0.04,-5.471641,-7.546367168426514,-3.0391822,0.023723304,0.16437244415283203,-0.14495033
38.83333333333241,-0.51763046,-1.2051163,0.5563103,-2.3469193,-0.5043337,1.2043961,0.24680623,0.039995495,0.04,-5.4433627,-7.561413288116455,-3.052984,0.023611983,0.16261963546276093,-0.14251679
38.84999999999908,-0.5193841,-1.2065444,0.5581921,-2.3468864,-0.5060402,1.2031555,0.24498127,0.039995473,0.04,-5.4153385,-7.576160430908203,-3.0663743,0.02348859,0.16083556413650513,-0.1400866
38.86666666666574,-0.52111274,-1.2079515,0.56004727,-2.346854,-0.5077228,1.2019324,0.2431821,0.039995454,0.04,-5.387683,-7.59064245223999,-3.0794947,0.023352135,0.15902060270309448,-0.13766783
38.88333333333241,-0.52281666,-1.2093387,0.5618756,-2.3468223,-0.50938094,1.2007269,0.24140885,0.039995432,0.04,-5.3604302,-7.604789733886719,-3.092539,0.023210406,0.1571708619594574,-0.13525486
38.899999999999075,-0.52449536,-1.2107055,0.5636773,-2.346791,-0.5110148,1.1995393,0.23966166,0.039995413,0.04,-5.333549,-7.6186747550964355,-3.1052835,0.023059638,0.15528880059719086,-0.13285413
38.91666666666574,-0.5261491,-1.212052,0.5654519,-2.34676,-0.5126241,1.1983693,0.23794061,0.039995395,0.04,-5.3069663,-7.632269382476807,-3.1177907,0.022900876,0.1533770114183426,-0.13046004
38.933333333332406,-0.52777773,-1.2133781,0.56719965,-2.34673,-0.5142088,1.1972172,0.2362457,0.039995372,0.04,-5.280761,-7.645545482635498,-3.1300523,0.022733752,0.1514359414577484,-0.12807754
38.94999999999907,-0.52938116,-1.2146837,0.56892014,-2.3467004,-0.51576906,1.1960831,0.23457709,0.039995357,0.04,-5.254975,-7.658590793609619,-3.142126,0.022559874,0.14946390688419342,-0.12570578
38.96666666666574,-0.5309592,-1.2159686,0.57061356,-2.3466718,-0.5173047,1.1949666,0.23293479,0.039995342,0.04,-5.229487,-7.671281814575195,-3.1539097,0.022377748,0.14746400713920593,-0.12334312
38.9833333333324,-0.53251183,-1.2172331,0.5722798,-2.346644,-0.5188158,1.193868,0.2313189,0.039995313,0.04,-5.204446,-7.683793544769287,-3.1655447,0.022190744,0.14543436467647552,-0.1209961
38.99999999999907,-0.5340392,-1.2184765,0.57391864,-2.3466172,-0.52030224,1.1927875,0.22972944,0.039995287,0.04,-5.1796885,-7.695953369140625,-3.1768756,0.021995787,0.14337927103042603,-0.11865703
39.016666666665735,-0.535541,-1.2196996,0.5755301,-2.3465912,-0.5217638,1.191725,0.22816645,0.039995275,0.04,-5.155439,-7.707859516143799,-3.188085,0.021796932,0.14129437506198883,-0.116332285
39.0333333333324,-0.53701746,-1.2209018,0.57711416,-2.3465652,-0.52320063,1.1906806,0.22662999,0.03999526,0.04,-5.1314607,-7.719492435455322,-3.1989808,0.021592142,0.13918575644493103,-0.114018805
39.049999999999066,-0.5384685,-1.2220831,0.5786707,-2.3465393,-0.52461255,1.1896542,0.22512007,0.039995253,0.04,-5.107813,-7.730830669403076,-3.2096195,0.021379037,0.13705547153949738,-0.11171771
39.06666666666573,-0.5398937,-1.2232441,0.5802001,-2.346513,-0.52599955,1.188646,0.22363673,0.039995246,0.04,-5.084556,-7.741899013519287,-3.220079,0.021160405,0.13490472733974457,-0.10942996
39.0833333333324,-0.5412934,-1.2243841,0.5817023,-2.3464868,-0.5273617,1.1876559,0.22218002,0.039995234,0.04,-5.061599,-7.7527618408203125,-3.2302053,0.02093302,0.13273899257183075,-0.10715351
39.09999999999906,-0.5426677,-1.225503,0.5831768,-2.3464606,-0.528699,1.1866837,0.22074993,0.039995216,0.04,-5.039079,-7.76336145401001,-3.2402027,0.02070003,0.13055525720119476,-0.10488953
39.11666666666573,-0.5440163,-1.2266016,0.5846238,-2.3464348,-0.53001124,1.1857297,0.21934648,0.0399952,0.04,-5.017007,-7.773645877838135,-3.2499714,0.020461317,0.12835222482681274,-0.10264127
39.133333333332395,-0.5453393,-1.2276791,0.5860436,-2.3464098,-0.531299,1.1847937,0.21796964,0.03999519,0.04,-4.9952936,-7.783749103546143,-3.2594774,0.020215632,0.12613509595394135,-0.100405745
39.14999999999906,-0.5466368,-1.2287356,0.5874358,-2.3463852,-0.5325615,1.1838762,0.21661936,0.039995175,0.04,-4.974049,-7.793605804443359,-3.268868,0.019967327,0.12389786541461945,-0.098183565
39.166666666665726,-0.54790884,-1.229772,0.58880067,-2.3463612,-0.5337993,1.1829762,0.21529563,0.039995167,0.04,-4.953137,-7.803187370300293,-3.278031,0.019715436,0.1216483786702156,-0.09597893
39.18333333333239,-0.5491553,-1.2307873,0.5901381,-2.3463378,-0.53501225,1.1820943,0.21399842,0.03999516,0.04,-4.9326367,-7.812575817108154,-3.2868938,0.019456934,0.11938357353210449,-0.09378843
39.19999999999906,-0.5503765,-1.2317816,0.5914482,-2.3463151,-0.5362003,1.1812307,0.21272776,0.03999515,0.04,-4.9125714,-7.821680545806885,-3.2956278,0.019195996,0.11710422486066818,-0.0916142
39.21666666666572,-0.55157197,-1.2327558,0.59273106,-2.346293,-0.5373639,1.1803849,0.21148354,0.039995145,0.04,-4.8928823,-7.830570220947266,-3.3042002,0.01893266,0.11481309682130814,-0.08945655
39.23333333333239,-0.55274236,-1.233709,0.5939867,-2.346272,-0.5385027,1.1795568,0.21026571,0.039995126,0.04,-4.873544,-7.839231014251709,-3.3124497,0.018664075,0.1125124841928482,-0.08731266
39.249999999999055,-0.55388725,-1.2346418,0.5952151,-2.3462517,-0.5396167,1.1787468,0.20907427,0.039995115,0.04,-4.8547196,-7.8476691246032715,-3.3206272,0.018394826,0.11019725352525711,-0.085188605
39.26666666666572,-0.555007,-1.235554,0.5964164,-2.3462317,-0.5407061,1.1779549,0.20790909,0.039995108,0.04,-4.836233,-7.85590124130249,-3.3285453,0.018122805,0.1078748106956482,-0.08308318
39.283333333332386,-0.5561015,-1.2364458,0.5975906,-2.3462117,-0.54177123,1.1771808,0.2067701,0.039995093,0.04,-4.818054,-7.863848686218262,-3.3362453,0.0178473,0.10554783791303635,-0.08099284
39.29999999999905,-0.557171,-1.2373173,0.598738,-2.346192,-0.5428117,1.1764245,0.20565727,0.03999509,0.04,-4.800319,-7.871591091156006,-3.3437257,0.017567854,0.10321605205535889,-0.0789199
39.31666666666572,-0.5582153,-1.2381684,0.59985864,-2.346172,-0.5438278,1.1756858,0.20457044,0.039995078,0.04,-4.7829494,-7.879134178161621,-3.3510222,0.0172851,0.1008823961019516,-0.07686419
39.333333333332384,-0.55923474,-1.2389991,0.60095245,-2.3461525,-0.5448199,1.1749644,0.2035096,0.039995067,0.04,-4.766004,-7.886475086212158,-3.3581333,0.017000709,0.09854583442211151,-0.07482784
39.34999999999905,-0.5602295,-1.2398094,0.6020197,-2.3461332,-0.5457877,1.1742609,0.20247453,0.039995063,0.04,-4.7494316,-7.893557071685791,-3.3650258,0.016712533,0.09620843082666397,-0.0728078
39.366666666665715,-0.56119937,-1.2405999,0.60306036,-2.3461146,-0.5467314,1.1735752,0.20146516,0.03999506,0.04,-4.7332935,-7.900467872619629,-3.371813,0.01642392,0.09387043863534927,-0.07080685
39.38333333333238,-0.5621448,-1.2413704,0.6040747,-2.3460968,-0.54765123,1.1729062,0.20048136,0.039995056,0.04,-4.717572,-7.907171249389648,-3.378363,0.01613374,0.09153497964143753,-0.06882441
39.39999999999905,-0.56306577,-1.2421206,0.60506284,-2.3460796,-0.5485474,1.1722546,0.19952293,0.039995044,0.04,-4.7022896,-7.9137067794799805,-3.384767,0.015843553,0.08919698745012283,-0.066864595
39.41666666666571,-0.56396234,-1.2428517,0.60602486,-2.346063,-0.54941994,1.1716202,0.19858985,0.039995037,0.04,-4.6873493,-7.920005798339844,-3.391016,0.01555399,0.08686168491840363,-0.06492482
39.43333333333238,-0.56483483,-1.2435628,0.60696095,-2.3460467,-0.55026877,1.171003,0.19768192,0.03999503,0.04,-4.6727905,-7.926115036010742,-3.396985,0.015260676,0.0845317542552948,-0.063003115
39.449999999999044,-0.56568336,-1.2442542,0.6078713,-2.3460312,-0.55109423,1.1704028,0.19679894,0.03999502,0.04,-4.6586576,-7.932042121887207,-3.4028997,0.014969517,0.08220603317022324,-0.061104175
39.46666666666571,-0.56650794,-1.2449266,0.6087561,-2.3460166,-0.55189687,1.1698196,0.19594078,0.039995015,0.04,-4.6449056,-7.9377593994140625,-3.4086196,0.014679293,0.07988665252923965,-0.059226025
39.483333333332375,-0.56730884,-1.2455796,0.60961545,-2.3460028,-0.552676,1.1692529,0.19510722,0.039995007,0.04,-4.6315355,-7.943314075469971,-3.4141319,0.014387959,0.07757524400949478,-0.057367127
39.49999999999904,-0.5680863,-1.2462134,0.61044985,-2.3459897,-0.55343246,1.1687031,0.19429812,0.039994996,0.04,-4.618577,-7.948668479919434,-3.419502,0.01409829,0.07527156174182892,-0.05553269
39.51666666666571,-0.56884074,-1.2468281,0.6112592,-2.3459766,-0.5541664,1.1681695,0.19351326,0.039994996,0.04,-4.605971,-7.953861236572266,-3.4247587,0.013811074,0.07297751307487488,-0.05371865
39.53333333333237,-0.56957203,-1.2474242,0.6120436,-2.3459635,-0.55487794,1.1676525,0.19275247,0.039994996,0.04,-4.593716,-7.958823204040527,-3.4297771,0.013523011,0.07069453597068787,-0.05192642
39.54999999999904,-0.57028013,-1.2480017,0.6128035,-2.3459506,-0.555567,1.1671517,0.19201541,0.03999499,0.04,-4.581807,-7.963597774505615,-3.43459,0.013233426,0.06842786818742752,-0.0501561
39.566666666665704,-0.5709657,-1.2485607,0.6135391,-2.3459377,-0.5562342,1.1666667,0.191302,0.03999499,0.04,-4.570281,-7.968246936798096,-3.439286,0.012946084,0.06617888808250427,-0.04840782
39.58333333333237,-0.571629,-1.2491013,0.6142506,-2.3459249,-0.5568794,1.1661979,0.19061193,0.039994977,0.04,-4.5591564,-7.972711086273193,-3.4438288,0.012658469,0.06394500285387039,-0.046685036
39.599999999999035,-0.5722699,-1.2496241,0.6149382,-2.3459122,-0.55750304,1.1657444,0.18994497,0.03999497,0.04,-4.5483804,-7.9769978523254395,-3.448246,0.012372459,0.06173035874962807,-0.044984907
39.6166666666657,-0.57288903,-1.2501287,0.6156023,-2.3458996,-0.55810535,1.1653066,0.1893008,0.039994966,0.04,-4.5379734,-7.981125354766846,-3.452412,0.012085874,0.05953482910990715,-0.043308172
39.63333333333237,-0.5734864,-1.2506162,0.61624306,-2.3458872,-0.5586864,1.1648841,0.18867925,0.039994963,0.04,-4.5279408,-7.985082149505615,-3.4565492,0.011802123,0.05735912546515465,-0.04165562
39.64999999999903,-0.5740625,-1.2510859,0.6168608,-2.3458755,-0.55924654,1.1644766,0.18808,0.039994963,0.04,-4.5182376,-7.988896369934082,-3.460455,0.011518761,0.055207185447216034,-0.040026985
39.6666666666657,-0.57461715,-1.2515385,0.6174559,-2.3458648,-0.5597861,1.1640842,0.18750283,0.039994963,0.04,-4.508987,-7.9925665855407715,-3.4643145,0.0112386,0.053074292838573456,-0.03842515
39.683333333332364,-0.57515097,-1.251974,0.6180286,-2.3458543,-0.56030536,1.1637064,0.18694738,0.03999496,0.04,-4.500083,-7.99610710144043,-3.468022,0.010963012,0.05096457526087761,-0.036849942
39.69999999999903,-0.5756644,-1.2523925,0.6185792,-2.3458443,-0.5608045,1.1633432,0.18641335,0.03999496,0.04,-4.491475,-7.999454021453857,-3.4715889,0.010690422,0.048878662288188934,-0.03530083
39.716666666665695,-0.5761573,-1.2527947,0.61910796,-2.3458347,-0.56128395,1.1629946,0.18590046,0.03999495,0.04,-4.483211,-8.002650260925293,-3.475027,0.010421264,0.046818170696496964,-0.033778522
39.73333333333236,-0.57663035,-1.2531809,0.6196154,-2.345826,-0.5617439,1.1626604,0.18540838,0.03999495,0.04,-4.4752874,-8.005709648132324,-3.4783092,0.010155368,0.04478764906525612,-0.032282412
39.74999999999903,-0.57708365,-1.2535504,0.6201017,-2.3458176,-0.5621848,1.1623397,0.18493678,0.03999495,0.04,-4.467713,-8.008646011352539,-3.4814901,0.00989247,0.04278412461280823,-0.030813107
39.76666666666569,-0.5775178,-1.2539046,0.6205672,-2.3458102,-0.562607,1.1620326,0.18448524,0.039994948,0.04,-4.4604597,-8.011412620544434,-3.4845653,0.0096353395,0.040809836238622665,-0.029373704
39.78333333333236,-0.5779329,-1.2542433,0.6210123,-2.345804,-0.5630106,1.1617397,0.18405354,0.039994948,0.04,-4.4535937,-8.014081001281738,-3.4875236,0.009382624,0.03886253386735916,-0.027963985
39.799999999999024,-0.5783292,-1.2545669,0.62143743,-2.345798,-0.56339604,1.1614591,0.18364121,0.039994948,0.04,-4.447009,-8.016584396362305,-3.4903886,0.009135077,0.03694940358400345,-0.026582435
39.81666666666569,-0.5787071,-1.2548755,0.62184286,-2.345792,-0.56376386,1.1611924,0.18324786,0.03999494,0.04,-4.4407105,-8.018986701965332,-3.4930556,0.008892002,0.03506707772612572,-0.025231931
39.833333333332355,-0.5790674,-1.2551696,0.6222293,-2.345786,-0.56411433,1.1609378,0.18287319,0.039994933,0.04,-4.4346237,-8.021195411682129,-3.4956336,0.008652958,0.03322611749172211,-0.023908988
39.84999999999902,-0.5794099,-1.2554492,0.6225969,-2.3457801,-0.5644476,1.160695,0.18251675,0.039994925,0.04,-4.4289045,-8.023324012756348,-3.4980924,0.008416931,0.031418729573488235,-0.02261693
39.86666666666569,-0.57973534,-1.2557151,0.62294614,-2.3457742,-0.564764,1.1604645,0.18217814,0.03999492,0.04,-4.423449,-8.02531623840332,-3.5004265,0.008186875,0.029649613425135612,-0.021356959
39.88333333333235,-0.5800441,-1.2559674,0.6232773,-2.3457685,-0.5650644,1.1602463,0.18185689,0.039994925,0.04,-4.418291,-8.027191162109375,-3.5026462,0.007959855,0.027921952307224274,-0.020127516
39.89999999999902,-0.5803366,-1.2562062,0.62359095,-2.345763,-0.5653489,1.1600394,0.18155262,0.039994925,0.04,-4.413407,-8.028923988342285,-3.5047941,0.0077376063,0.02623699977993965,-0.01892876
39.916666666665684,-0.5806131,-1.2564322,0.6238875,-2.3457575,-0.56561786,1.1598437,0.181265,0.03999492,0.04,-4.4088554,-8.030571937561035,-3.5068803,0.0075218463,0.024591710418462753,-0.017763982
39.93333333333235,-0.5808741,-1.2566456,0.6241674,-2.345752,-0.5658719,1.1596587,0.18099342,0.039994918,0.04,-4.404508,-8.03211498260498,-3.508778,0.007309216,0.022991813719272614,-0.016632454
39.949999999999015,-0.5811202,-1.2568465,0.62443125,-2.3457465,-0.5661111,1.1594849,0.1807375,0.039994918,0.04,-4.4004593,-8.033529281616211,-3.5106387,0.0071025104,0.021435614675283432,-0.015534655
39.96666666666568,-0.5813516,-1.2570359,0.6246795,-2.345741,-0.56633615,1.159322,0.18049671,0.039994918,0.04,-4.3966146,-8.034860610961914,-3.5124207,0.006901888,0.019928457215428352,-0.014469923
39.98333333333235,-0.5815689,-1.2572136,0.6249126,-2.345736,-0.5665474,1.1591679,0.1802706,0.039994914,0.04,-4.3930063,-8.036072731018066,-3.5140839,0.0067058937,0.01847247965633869,-0.013437435
39.99999999999901,-0.5817727,-1.2573801,0.625131,-2.3457313,-0.5667455,1.1590245,0.1800587,0.039994914,0.04,-4.3897433,-8.037236213684082,-3.5156713,0.006517266,0.01705928146839142,-0.012445387
40.01666666666568,-0.58196336,-1.257536,0.62533545,-2.3457267,-0.56693095,1.1588897,0.17986043,0.03999491,0.04,-4.3866515,-8.038251876831055,-3.5172317,0.006334672,0.015699204057455063,-0.011487196
40.033333333332344,-0.5821414,-1.2576813,0.62552625,-2.3457227,-0.56710386,1.1587636,0.17967534,0.03999491,0.04,-4.383789,-8.03921890258789,-3.5186594,0.0061586197,0.014387254603207111,-0.010566902
40.04999999999901,-0.58230716,-1.2578173,0.6257041,-2.345719,-0.56726515,1.1586461,0.17950287,0.03999491,0.04,-4.381193,-8.040077209472656,-3.5200992,0.005991843,0.01312560960650444,-0.009686246
40.066666666665675,-0.5824615,-1.2579433,0.62586945,-2.3457158,-0.5674152,1.1585371,0.17934248,0.03999491,0.04,-4.3787646,-8.04089069366455,-3.5213614,0.005830171,0.011917183175683022,-0.008842742
40.08333333333234,-0.58260465,-1.2580607,0.62602293,-2.3457131,-0.56755424,1.1584361,0.17919363,0.03999491,0.04,-4.376521,-8.041553497314453,-3.5226603,0.0056769187,0.0107633201405406,-0.0080384435
40.09999999999901,-0.5827372,-1.2581695,0.62616515,-2.3457105,-0.5676833,1.1583421,0.17905575,0.03999491,0.04,-4.374505,-8.042207717895508,-3.5238423,0.005531008,0.009664976969361305,-0.0072737276
40.11666666666567,-0.5828599,-1.2582695,0.62629664,-2.3457081,-0.56780237,1.1582552,0.17892826,0.039994907,0.04,-4.372603,-8.042747497558594,-3.5249367,0.0053916113,0.008623659610748291,-0.0065496
40.13333333333234,-0.58297306,-1.2583619,0.62641793,-2.345706,-0.5679126,1.1581752,0.17881058,0.039994907,0.04,-4.370955,-8.043220520019531,-3.5261002,0.005263536,0.007638502400368452,-0.0058691977
40.149999999999004,-0.58307743,-1.2584473,0.62652975,-2.3457043,-0.56801397,1.1581016,0.17870212,0.039994907,0.04,-4.3693967,-8.043610572814941,-3.5271158,0.0051422496,0.006714622490108013,-0.0052294424
40.16666666666567,-0.5831735,-1.2585262,0.62663275,-2.345703,-0.5681075,1.1580337,0.17860219,0.039994907,0.04,-4.3680277,-8.04397964477539,-3.5281,0.005029153,0.00585143594071269,-0.004632822
40.183333333332335,-0.58326197,-1.258599,0.62672746,-2.3457015,-0.56819344,1.1579711,0.1785103,0.039994903,0.04,-4.366783,-8.044269561767578,-3.5290108,0.0049232226,0.0050506917759776115,-0.004079462
40.199999999999,-0.5833433,-1.2586654,0.6268145,-2.3457003,-0.5682725,1.1579137,0.17842574,0.039994903,0.04,-4.3656535,-8.044506072998047,-3.529865,0.004824205,0.004312962293624878,-0.0035699517
40.21666666666567,-0.58341813,-1.2587271,0.6268949,-2.3456993,-0.5683453,1.157861,0.17834787,0.039994903,0.04,-4.364663,-8.044698715209961,-3.530754,0.0047358233,0.0036332427989691496,-0.0031027861
40.23333333333233,-0.5834871,-1.258784,0.62696844,-2.3456984,-0.56841236,1.1578125,0.17827624,0.039994903,0.04,-4.3636804,-8.04493236541748,-3.5314817,0.0046533183,0.003008452942594886,-0.0026699642
40.249999999999,-0.5835505,-1.258836,0.6270361,-2.3456974,-0.56847394,1.1577678,0.17821033,0.0399949,0.04,-4.362835,-8.045077323913574,-3.532136,0.00457507,0.002433866262435913,-0.0022737724
40.266666666665664,-0.58360875,-1.2588838,0.62709814,-2.3456967,-0.5685305,1.1577269,0.17814972,0.0399949,0.04,-4.3620434,-8.045234680175781,-3.532814,0.0045051035,0.001904771663248539,-0.0019101821
40.28333333333233,-0.5836625,-1.2589278,0.62715596,-2.3456962,-0.5685828,1.157689,0.1780939,0.039994903,0.04,-4.361331,-8.045370101928711,-3.5334044,0.004441005,0.0014187936903908849,-0.0015758611
40.299999999998995,-0.58371204,-1.2589686,0.62720877,-2.3456957,-0.56863064,1.157654,0.17804259,0.039994903,0.04,-4.3606253,-8.04556941986084,-3.5339828,0.0043828725,0.0009682127856649458,-0.0012660661
40.31666666666566,-0.58375734,-1.2590066,0.62725735,-2.3456955,-0.5686747,1.1576219,0.17799535,0.039994903,0.04,-4.3600197,-8.045675277709961,-3.534441,0.0043275673,0.0005545687163248658,-0.0009833231
40.33333333333233,-0.5837991,-1.2590412,0.62730217,-2.3456953,-0.5687152,1.1575923,0.1779519,0.039994903,0.04,-4.3594465,-8.045816421508789,-3.5348532,0.004275765,0.00017489356105215847,-0.0007224344
40.34999999999899,-0.5838378,-1.2590723,0.6273435,-2.345695,-0.56875277,1.157565,0.1779119,0.039994903,0.04,-4.3589168,-8.045917510986328,-3.5353203,0.0042295307,-0.0001755312259774655,-0.00048236753
40.36666666666566,-0.5838732,-1.2591016,0.62738144,-2.3456948,-0.56878704,1.1575401,0.17787512,0.039994903,0.04,-4.3584533,-8.045990943908691,-3.5357804,0.004189047,-0.0005008014850318432,-0.00026214903
40.383333333332324,-0.5839059,-1.2591286,0.6274165,-2.3456945,-0.5688187,1.1575171,0.17784125,0.039994903,0.04,-4.357976,-8.046102523803711,-3.5360756,0.004149782,-0.000796884938608855,-5.8781046e-05
40.39999999999899,-0.5839358,-1.2591523,0.6274486,-2.3456943,-0.5688478,1.1574961,0.17781004,0.039994903,0.04,-4.3575573,-8.046182632446289,-3.536408,0.004113481,-0.0010702030267566442,0.00012881345
40.416666666665655,-0.58396345,-1.2591751,0.6274783,-2.345694,-0.5688746,1.1574765,0.17778134,0.039994903,0.04,-4.357201,-8.046231269836426,-3.536809,0.0040848134,-0.0013219636166468263,0.00030003127
40.43333333333232,-0.5839889,-1.259195,0.6275056,-2.3456938,-0.5688993,1.1574587,0.17775498,0.039994903,0.04,-4.35683,-8.046324729919434,-3.5369983,0.004054297,-0.001553851761855185,0.0004587984
40.44999999999899,-0.58401227,-1.2592143,0.6275306,-2.3456938,-0.56892204,1.1574421,0.17773071,0.039994903,0.04,-4.35653,-8.04636287689209,-3.5373507,0.0040300717,-0.0017682923935353756,0.00060358853
40.46666666666565,-0.5840338,-1.2592328,0.6275536,-2.3456938,-0.568943,1.1574268,0.17770837,0.039994903,0.04,-4.3562374,-8.046440124511719,-3.5375009,0.004004231,-0.0019651728216558695,0.0007372833
40.48333333333232,-0.5840536,-1.2592486,0.6275748,-2.3456936,-0.5689622,1.1574128,0.17768782,0.039994903,0.04,-4.355943,-8.046509742736816,-3.5376494,0.003977491,-0.002145347185432911,0.0008615071
40.499999999998984,-0.5840718,-1.2592638,0.6275944,-2.3456936,-0.56897986,1.1574,0.17766893,0.039994903,0.04,-4.355698,-8.046536445617676,-3.5379465,0.003957303,-0.0023119973484426737,0.00097421824
40.51666666666565,-0.5840887,-1.2592784,0.6276124,-2.3456936,-0.56899613,1.1573881,0.17765152,0.039994903,0.04,-4.3554616,-8.046602249145508,-3.5381005,0.0039369506,-0.0024646332021802664,0.0010791827
40.533333333332315,-0.58410406,-1.2592906,0.6276289,-2.3456936,-0.569011,1.1573771,0.17763552,0.039994903,0.04,-4.3552403,-8.046653747558594,-3.538198,0.003915036,-0.0026051755994558334,0.0011762974
40.54999999999898,-0.5841182,-1.2593023,0.627644,-2.3456936,-0.56902474,1.1573671,0.17762075,0.039994903,0.04,-4.3550816,-8.046671867370605,-3.5384755,0.0039007147,-0.002735601970925927,0.0012630194
40.56666666666565,-0.5841314,-1.2593133,0.6276581,-2.3456936,-0.5690373,1.1573579,0.17760722,0.039994903,0.04,-4.354891,-8.046704292297363,-3.538569,0.0038854785,-0.002854518126696348,0.0013437464
40.58333333333231,-0.58414334,-1.2593241,0.62767094,-2.3456936,-0.5690489,1.1573496,0.17759474,0.039994907,0.04,-4.3547053,-8.046756744384766,-3.5386825,0.003869778,-0.00296431640163064,0.001419013
40.59999999999898,-0.5841546,-1.2593324,0.6276828,-2.3456936,-0.5690596,1.1573418,0.17758325,0.039994907,0.04,-4.3105206,-7.941533088684082,-3.446056,0.0,-0.0,0.0
40.616666666665644,-0.5841546,-1.2593324,0.6276828,-2.3456936,-0.5690596,1.1573418,0.17758325,0.039994907,0.04,-4.355083,-8.046255111694336,-3.5393689,0.0,-0.0,0.0
40.63333333333231,-0.5841546,-1.2593324,0.6276828,-2.3456936,-0.5690596,1.1573418,0.17758325,0.039994907,0.04,-4.355083,-8.046255111694336,-3.5393689,0.0,-0.0,0.0
40.649999999998975,-0.5841546,-1.2593324,0.6276828,-2.3456936,-0.5690596,1.1573418,0.17758325,0.039994907,0.04,-4.355083,-8.046255111694336,-3.5393689,0.0,-0.0,0.0
40.66666666666564,-0.5841546,-1.2593324,0.6276828,-2.3456936,-0.5690596,1.1573418,0.17758325,0.039994907,0.04,-4.355083,-8.046255111694336,-3.5393689,0.0,-0.0,0.0
40.68333333333231,-0.5841546,-1.2593324,0.6276828,-2.3456936,-0.5690596,1.1573418,0.17758325,0.039994907,0.04,-4.355083,-8.046255111694336,-3.5393689,0.0,-0.0,0.0
40.69999999999897,-0.5841546,-1.2593324,0.6276828,-2.3456936,-0.5690596,1.1573418,0.17758325,0.039994907,0.04,-4.355083,-8.046255111694336,-3.5393689,0.0,-0.0,0.0
40.71666666666564,-0.5841546,-1.2593324,0.6276828,-2.3456936,-0.5690596,1.1573418,0.17758325,0.039994907,0.04,-4.355083,-8.046255111694336,-3.5393689,0.0,-0.0,0.0
40.733333333332304,-0.5841546,-1.2593324,0.6276828,-2.3456936,-0.5690596,1.1573418,0.17758325,0.039994907,0.04,-4.355083,-8.046255111694336,-3.5393689,0.0,-0.0,0.0
40.74999999999897,-0.5841546,-1.2593324,0.6276828,-2.3456936,-0.5690596,1.1573418,0.17758325,0.039994907,0.04,-4.355083,-8.046255111694336,-3.5393689,0.0,-0.0,0.0
40.766666666665635,-0.5841546,-1.2593324,0.6276828,-2.3456936,-0.5690596,1.1573418,0.17758325,0.039994907,0.04,-4.355083,-8.046255111694336,-3.5393689,0.0,-0.0,0.0
40.7833333333323,-0.5841546,-1.2593324,0.6276828,-2.3456936,-0.5690596,1.1573418,0.17758325,0.039994907,0.04,-4.355083,-8.046255111694336,-3.5393689,0.0,-0.0,0.0
40.79999999999897,-0.5841546,-1.2593324,0.6276828,-2.3456936,-0.5690596,1.1573418,0.17758325,0.039994907,0.04,-4.355083,-8.046255111694336,-3.5393689,0.0,-0.0,0.0
40.81666666666563,-0.5841546,-1.2593324,0.6276828,-2.3456936,-0.5690596,1.1573418,0.17758325,0.039994907,0.04,-4.355083,-8.046255111694336,-3.5393689,0.0,-0.0,0.0
40.8333333333323,-0.5841546,-1.2593324,0.6276828,-2.3456936,-0.5690596,1.1573418,0.17758325,0.039994907,0.04,-4.355083,-8.046255111694336,-3.5393689,0.0,-0.0,0.0
40.849999999998964,-0.5841546,-1.2593324,0.6276828,-2.3456936,-0.5690596,1.1573418,0.17758325,0.039994907,0.04,-4.355083,-8.046255111694336,-3.5393689,0.0,-0.0,0.0
40.86666666666563,-0.5841546,-1.2593324,0.6276828,-2.3456936,-0.5690596,1.1573418,0.17758325,0.039994907,0.04,-4.355083,-8.046255111694336,-3.5393689,0.0,-0.0,0.0
40.883333333332295,-0.5841546,-1.2593324,0.6276828,-2.3456936,-0.5690596,1.1573418,0.17758325,0.039994907,0.04,-4.355083,-8.046255111694336,-3.5393689,0.0,-0.0,0.0
40.89999999999896,-0.5841546,-1.2593324,0.6276828,-2.3456936,-0.5690596,1.1573418,0.17758325,0.039994907,0.04,-4.355083,-8.046255111694336,-3.5393689,0.0,-0.0,0.0
40.91666666666563,-0.5841546,-1.2593324,0.6276828,-2.3456936,-0.5690596,1.1573418,0.17758325,0.039994907,0.04,-4.355083,-8.046255111694336,-3.5393689,0.0,-0.0,0.0
40.93333333333229,-0.5841546,-1.2593324,0.6276828,-2.3456936,-0.5690596,1.1573418,0.17758325,0.039994907,0.04,-4.355083,-8.046255111694336,-3.5393689,0.0,-0.0,0.0
40.94999999999896,-0.5841546,-1.2593324,0.6276828,-2.3456936,-0.5690596,1.1573418,0.17758325,0.039994907,0.04,-4.355083,-8.046255111694336,-3.5393689,0.0,-0.0,0.0
40.966666666665624,-0.5841546,-1.2593324,0.6276828,-2.3456936,-0.5690596,1.1573418,0.17758325,0.039994907,0.04,-4.355083,-8.046255111694336,-3.5393689,0.0,-0.0,0.0
40.98333333333229,-0.5841546,-1.2593324,0.6276828,-2.3456936,-0.5690596,1.1573418,0.17758325,0.039994907,0.04,-4.355083,-8.046255111694336,-3.5393689,0.0,-0.0,0.0
40.999999999998956,-0.5841546,-1.2593324,0.6276828,-2.3456936,-0.5690596,1.1573418,0.17758325,0.039994907,0.04,-4.355083,-8.046255111694336,-3.5393689,0.0,-0.0,0.0
41.01666666666562,-0.5841546,-1.2593324,0.6276828,-2.3456936,-0.5690596,1.1573418,0.17758325,0.039994907,0.04,-4.355083,-8.046255111694336,-3.5393689,0.0,-0.0,0.0
41.03333333333229,-0.5841546,-1.2593324,0.6276828,-2.3456936,-0.5690596,1.1573418,0.17758325,0.039994907,0.04,-4.355083,-8.046255111694336,-3.5393689,0.0,-0.0,0.0
41.04999999999895,-0.5841546,-1.2593324,0.6276828,-2.3456936,-0.5690596,1.1573418,0.17758325,0.039994907,0.04,-4.355083,-8.046255111694336,-3.5393689,0.0,-0.0,0.0
41.06666666666562,-0.5841546,-1.2593324,0.6276828,-2.3456936,-0.5690596,1.1573418,0.17758325,0.039994907,0.04,-4.355083,-8.046255111694336,-3.5393689,0.0,-0.0,0.0
41.083333333332284,-0.5841546,-1.2593324,0.6276828,-2.3456936,-0.5690596,1.1573418,0.17758325,0.039994907,0.04,-4.355083,-8.046255111694336,-3.5393689,0.0,-0.0,0.0
41.09999999999895,-0.5841546,-1.2593324,0.6276828,-2.3456936,-0.5690596,1.1573418,0.17758325,0.039994907,0.04,-4.355083,-8.046255111694336,-3.5393689,0.0,-0.0,0.0
41.116666666665616,-0.5841546,-1.2593324,0.6276828,-2.3456936,-0.5690596,1.1573418,0.17758325,0.039994907,0.04,-4.355083,-8.046255111694336,-3.5393689,0.0,-0.0,0.0
41.13333333333228,-0.5841546,-1.2593324,0.6276828,-2.3456936,-0.5690596,1.1573418,0.17758325,0.039994907,0.04,-4.355083,-8.046255111694336,-3.5393689,0.0,-0.0,0.0
41.14999999999895,-0.5841546,-1.2593324,0.6276828,-2.3456936,-0.5690596,1.1573418,0.17758325,0.039994907,0.04,-4.355083,-8.046255111694336,-3.5393689,0.0,-0.0,0.0
41.16666666666561,-0.5841546,-1.2593324,0.6276828,-2.3456936,-0.5690596,1.1573418,0.17758325,0.039994907,0.04,-4.355083,-8.046255111694336,-3.5393689,0.0,-0.0,0.0
41.18333333333228,-0.5841546,-1.2593324,0.6276828,-2.3456936,-0.5690596,1.1573418,0.17758325,0.039994907,0.04,-4.355083,-8.046255111694336,-3.5393689,0.0,-0.0,0.0
41.199999999998944,-0.5841546,-1.2593324,0.6276828,-2.3456936,-0.5690596,1.1573418,0.17758325,0.039994907,0.04,-4.355083,-8.046255111694336,-3.5393689,0.0,-0.0,0.0
41.21666666666561,-0.5841546,-1.2593324,0.6276828,-2.3456936,-0.5690596,1.1573418,0.17758325,0.039994907,0.04,-4.355083,-8.046255111694336,-3.5393689,0.0,-0.0,0.0
41.233333333332276,-0.5841546,-1.2593324,0.6276828,-2.3456936,-0.5690596,1.1573418,0.17758325,0.039994907,0.04,-4.355083,-8.046255111694336,-3.5393689,0.0,-0.0,0.0
41.24999999999894,-0.5841546,-1.2593324,0.6276828,-2.3456936,-0.5690596,1.1573418,0.17758325,0.039994907,0.04,-4.355083,-8.046255111694336,-3.5393689,0.0,-0.0,0.0
41.26666666666561,-0.5841546,-1.2593324,0.6276828,-2.3456936,-0.5690596,1.1573418,0.17758325,0.039994907,0.04,-4.355083,-8.046255111694336,-3.5393689,0.0,-0.0,0.0
41.28333333333227,-0.5841546,-1.2593324,0.6276828,-2.3456936,-0.5690596,1.1573418,0.17758325,0.039994907,0.04,-4.355083,-8.046255111694336,-3.5393689,0.0,-0.0,0.0
41.29999999999894,-0.5841546,-1.2593324,0.6276828,-2.3456936,-0.5690596,1.1573418,0.17758325,0.039994907,0.04,-4.355083,-8.046255111694336,-3.5393689,0.0,-0.0,0.0
41.316666666665604,-0.5841546,-1.2593324,0.6276828,-2.3456936,-0.5690596,1.1573418,0.17758325,0.039994907,0.04,-4.355083,-8.046255111694336,-3.5393689,0.0,-0.0,0.0
41.33333333333227,-0.5841546,-1.2593324,0.6276828,-2.3456936,-0.5690596,1.1573418,0.17758325,0.039994907,0.04,-4.355083,-8.046255111694336,-3.5393689,0.0,-0.0,0.0
41.349999999998936,-0.5841546,-1.2593324,0.6276828,-2.3456936,-0.5690596,1.1573418,0.17758325,0.039994907,0.04,-4.355083,-8.046255111694336,-3.5393689,0.0,-0.0,0.0
41.3666666666656,-0.5841546,-1.2593324,0.6276828,-2.3456936,-0.5690596,1.1573418,0.17758325,0.039994907,0.04,-4.355083,-8.046255111694336,-3.5393689,0.0,-0.0,0.0
41.38333333333227,-0.5841546,-1.2593324,0.6276828,-2.3456936,-0.5690596,1.1573418,0.17758325,0.039994907,0.04,-4.355083,-8.046255111694336,-3.5393689,0.0,-0.0,0.0
41.39999999999893,-0.5841546,-1.2593324,0.6276828,-2.3456936,-0.5690596,1.1573418,0.17758325,0.039994907,0.04,-4.355083,-8.046255111694336,-3.5393689,0.0,-0.0,0.0
41.4166666666656,-0.5841546,-1.2593324,0.6276828,-2.3456936,-0.5690596,1.1573418,0.17758325,0.039994907,0.04,-4.355083,-8.046255111694336,-3.5393689,0.0,-0.0,0.0
41.433333333332264,-0.5841546,-1.2593324,0.6276828,-2.3456936,-0.5690596,1.1573418,0.17758325,0.039994907,0.04,-4.355083,-8.046255111694336,-3.5393689,0.0,-0.0,0.0
41.44999999999893,-0.5841546,-1.2593324,0.6276828,-2.3456936,-0.5690596,1.1573418,0.17758325,0.039994907,0.04,-4.355083,-8.046255111694336,-3.5393689,0.0,-0.0,0.0
41.466666666665596,-0.5841546,-1.2593324,0.6276828,-2.3456936,-0.5690596,1.1573418,0.17758325,0.039994907,0.04,-4.355083,-8.046255111694336,-3.5393689,0.0,-0.0,0.0
41.48333333333226,-0.5841546,-1.2593324,0.6276828,-2.3456936,-0.5690596,1.1573418,0.17758325,0.039994907,0.04,-4.355083,-8.046255111694336,-3.5393689,0.0,-0.0,0.0
41.49999999999893,-0.5841546,-1.2593324,0.6276828,-2.3456936,-0.5690596,1.1573418,0.17758325,0.039994907,0.04,-4.355083,-8.046255111694336,-3.5393689,0.0,-0.0,0.0
41.51666666666559,-0.5841546,-1.2593324,0.6276828,-2.3456936,-0.5690596,1.1573418,0.17758325,0.039994907,0.04,-4.355083,-8.046255111694336,-3.5393689,0.0,-0.0,0.0
41.53333333333226,-0.5841546,-1.2593324,0.6276828,-2.3456936,-0.5690596,1.1573418,0.17758325,0.039994907,0.04,-4.355083,-8.046255111694336,-3.5393689,0.0,-0.0,0.0
41.549999999998924,-0.5841546,-1.2593324,0.6276828,-2.3456936,-0.5690596,1.1573418,0.17758325,0.039994907,0.04,-4.355083,-8.046255111694336,-3.5393689,0.0,-0.0,0.0
41.56666666666559,-0.5841546,-1.2593324,0.6276828,-2.3456936,-0.5690596,1.1573418,0.17758325,0.039994907,0.04,-4.355083,-8.046255111694336,-3.5393689,0.0,-0.0,0.0
41.583333333332256,-0.5841546,-1.2593324,0.6276828,-2.3456936,-0.5690596,1.1573418,0.17758325,0.039994907,0.04,-4.355083,-8.046255111694336,-3.5393689,0.0,-0.0,0.0
41.59999999999892,-0.5841546,-1.2593324,0.6276828,-2.3456936,-0.5690596,1.1573418,0.17758325,0.039994907,0.04,-4.355083,-8.046255111694336,-3.5393689,0.0,-0.0,0.0
41.61666666666559,-0.5841546,-1.2593324,0.6276828,-2.3456936,-0.5690596,1.1573418,0.17758325,0.039994907,0.04,-4.355083,-8.046255111694336,-3.5393689,0.0,-0.0,0.0
41.63333333333225,-0.5841546,-1.2593324,0.6276828,-2.3456936,-0.5690596,1.1573418,0.17758325,0.039994907,0.04,-4.355083,-8.046255111694336,-3.5393689,0.0,-0.0,0.0
41.64999999999892,-0.5841546,-1.2593324,0.6276828,-2.3456936,-0.5690596,1.1573418,0.17758325,0.039994907,0.04,-4.355083,-8.046255111694336,-3.5393689,0.0,-0.0,0.0
41.666666666665584,-0.5841546,-1.2593324,0.6276828,-2.3456936,-0.5690596,1.1573418,0.17758325,0.039994907,0.04,-4.355083,-8.046255111694336,-3.5393689,0.0,-0.0,0.0
41.68333333333225,-0.5841546,-1.2593324,0.6276828,-2.3456936,-0.5690596,1.1573418,0.17758325,0.039994907,0.04,-4.355083,-8.046255111694336,-3.5393689,0.0,-0.0,0.0
41.699999999998916,-0.5841546,-1.2593324,0.6276828,-2.3456936,-0.5690596,1.1573418,0.17758325,0.039994907,0.04,-4.355083,-8.046255111694336,-3.5393689,0.0,-0.0,0.0
41.71666666666558,-0.5841546,-1.2593324,0.6276828,-2.3456936,-0.5690596,1.1573418,0.17758325,0.039994907,0.04,-4.355083,-8.046255111694336,-3.5393689,0.0,-0.0,0.0
41.73333333333225,-0.5841546,-1.2593324,0.6276828,-2.3456936,-0.5690596,1.1573418,0.17758325,0.039994907,0.04,-4.355083,-8.046255111694336,-3.5393689,0.0,-0.0,0.0
41.74999999999891,-0.5841546,-1.2593324,0.6276828,-2.3456936,-0.5690596,1.1573418,0.17758325,0.039994907,0.04,-4.355083,-8.046255111694336,-3.5393689,0.0,-0.0,0.0
41.76666666666558,-0.5841546,-1.2593324,0.6276828,-2.3456936,-0.5690596,1.1573418,0.17758325,0.039994907,0.04,-4.355083,-8.046255111694336,-3.5393689,0.0,-0.0,0.0
41.783333333332244,-0.5841546,-1.2593324,0.6276828,-2.3456936,-0.5690596,1.1573418,0.17758325,0.039994907,0.04,-4.355083,-8.046255111694336,-3.5393689,0.0,-0.0,0.0
41.79999999999891,-0.5841546,-1.2593324,0.6276828,-2.3456936,-0.5690596,1.1573418,0.17758325,0.039994907,0.04,-4.355083,-8.046255111694336,-3.5393689,0.0,-0.0,0.0
41.816666666665576,-0.5841546,-1.2593324,0.6276828,-2.3456936,-0.5690596,1.1573418,0.17758325,0.039994907,0.04,-4.355083,-8.046255111694336,-3.5393689,0.0,-0.0,0.0
41.83333333333224,-0.5841546,-1.2593324,0.6276828,-2.3456936,-0.5690596,1.1573418,0.17758325,0.039994907,0.04,-4.355083,-8.046255111694336,-3.5393689,0.0,-0.0,0.0
41.84999999999891,-0.5841546,-1.2593324,0.6276828,-2.3456936,-0.5690596,1.1573418,0.17758325,0.039994907,0.04,-4.355083,-8.046255111694336,-3.5393689,0.0,-0.0,0.0
41.86666666666557,-0.5841546,-1.2593324,0.6276828,-2.3456936,-0.5690596,1.1573418,0.17758325,0.039994907,0.04,-4.355083,-8.046255111694336,-3.5393689,0.0,-0.0,0.0
41.88333333333224,-0.5841546,-1.2593324,0.6276828,-2.3456936,-0.5690596,1.1573418,0.17758325,0.039994907,0.04,-4.355083,-8.046255111694336,-3.5393689,0.0,-0.0,0.0
41.899999999998904,-0.5841546,-1.2593324,0.6276828,-2.3456936,-0.5690596,1.1573418,0.17758325,0.039994907,0.04,-4.355083,-8.046255111694336,-3.5393689,0.0,-0.0,0.0
41.91666666666557,-0.5841546,-1.2593324,0.6276828,-2.3456936,-0.5690596,1.1573418,0.17758325,0.039994907,0.04,-4.355083,-8.046255111694336,-3.5393689,0.0,-0.0,0.0
41.933333333332236,-0.5841546,-1.2593324,0.6276828,-2.3456936,-0.5690596,1.1573418,0.17758325,0.039994907,0.04,-4.355083,-8.046255111694336,-3.5393689,0.0,-0.0,0.0
41.9499999999989,-0.5841546,-1.2593324,0.6276828,-2.3456936,-0.5690596,1.1573418,0.17758325,0.039994907,0.04,-4.355083,-8.046255111694336,-3.5393689,0.0,-0.0,0.0
41.96666666666557,-0.5841546,-1.2593324,0.6276828,-2.3456936,-0.5690596,1.1573418,0.17758325,0.039994907,0.04,-4.355083,-8.046255111694336,-3.5393689,0.0,-0.0,0.0
41.98333333333223,-0.5841546,-1.2593324,0.6276828,-2.3456936,-0.5690596,1.1573418,0.17758325,0.039994907,0.04,-4.355083,-8.046255111694336,-3.5393689,0.0,-0.0,0.0
41.9999999999989,-0.5841546,-1.2593324,0.6276828,-2.3456936,-0.5690596,1.1573418,0.17758325,0.039994907,0.04,-4.355083,-8.046255111694336,-3.5393689,0.0,-0.0,0.0
42.016666666665564,-0.5841546,-1.2593324,0.6276828,-2.3456936,-0.5690596,1.1573418,0.17758325,0.039994907,0.04,-4.355083,-8.046255111694336,-3.5393689,0.0,-0.0,0.0
42.03333333333223,-0.5841546,-1.2593324,0.6276828,-2.3456936,-0.5690596,1.1573418,0.17758325,0.039994907,0.04,-4.355083,-8.046255111694336,-3.5393689,0.0,-0.0,0.0
42.049999999998896,-0.5841546,-1.2593324,0.6276828,-2.3456936,-0.5690596,1.1573418,0.17758325,0.039994907,0.04,-4.355083,-8.046255111694336,-3.5393689,0.0,-0.0,0.0
42.06666666666556,-0.5841546,-1.2593324,0.6276828,-2.3456936,-0.5690596,1.1573418,0.17758325,0.039994907,0.04,-4.355083,-8.046255111694336,-3.5393689,0.0,-0.0,0.0
42.08333333333223,-0.5841546,-1.2593324,0.6276828,-2.3456936,-0.5690596,1.1573418,0.17758325,0.039994907,0.04,-4.355083,-8.046255111694336,-3.5393689,0.0,-0.0,0.0
42.09999999999889,-0.5841546,-1.2593324,0.6276828,-2.3456936,-0.5690596,1.1573418,0.17758325,0.039994907,0.04,-4.355083,-8.046255111694336,-3.5393689,0.0,-0.0,0.0
42.11666666666556,-0.5841546,-1.2593324,0.6276828,-2.3456936,-0.5690596,1.1573418,0.17758325,0.039994907,0.04,-4.355083,-8.046255111694336,-3.5393689,0.0,-0.0,0.0
42.133333333332224,-0.5841546,-1.2593324,0.6276828,-2.3456936,-0.5690596,1.1573418,0.17758325,0.039994907,0.04,-4.355083,-8.046255111694336,-3.5393689,0.0,-0.0,0.0
42.14999999999889,-0.5841546,-1.2593324,0.6276828,-2.3456936,-0.5690596,1.1573418,0.17758325,0.039994907,0.04,-4.355083,-8.046255111694336,-3.5393689,0.0,-0.0,0.0
42.166666666665556,-0.5841546,-1.2593324,0.6276828,-2.3456936,-0.5690596,1.1573418,0.17758325,0.039994907,0.04,-4.355083,-8.046255111694336,-3.5393689,0.0,-0.0,0.0
42.18333333333222,-0.5841546,-1.2593324,0.6276828,-2.3456936,-0.5690596,1.1573418,0.17758325,0.039994907,0.04,-4.355083,-8.046255111694336,-3.5393689,0.0,-0.0,0.0
42.19999999999889,-0.5841546,-1.2593324,0.6276828,-2.3456936,-0.5690596,1.1573418,0.17758325,0.039994907,0.04,-4.355083,-8.046255111694336,-3.5393689,0.0,-0.0,0.0
