rsonawane2002/My_IMU/logs_2/traj_301/imu_400hz_301.csv
time,j1,j2,j3,j4,j5,j6,j7,gripper1,gripper2,imu_ax,imu_ay,imu_az,imu_gx,imu_gy,imu_gz
0.0,0.00016700293,-0.785875,4.0107683e-05,-2.3551247,9.29385e-05,1.570997,0.786,0.04,0.04,-9.527608,0.0153914531692862,0.08596422,1.10834044e-07,-0.0011641276068985,7.264245e-08
0.0025,0.00016700439099999998,-0.785857774,4.0108801100000006e-05,-2.35513919,9.294312150000001e-05,1.570996565,0.786,0.04,0.04,-9.573625600000042,0.013179357285842103,0.07443177059998951,5.458769439994885e-08,-0.0013250713585876864,1.6657635150008544e-07
0.005,0.000167005852,-0.785840548,4.01099192e-05,-2.3551536800000004,9.294774300000002e-05,1.57099613,0.786,0.04,0.04,-9.619643200000084,0.010967261402398006,0.06289932119997901,-1.6586552001023035e-09,-0.001486015110276873,2.605102530001709e-07
0.0075,0.000167007313,-0.7858233219999999,4.0111037300000005e-05,-2.3551681700000002,9.295236450000002e-05,1.570995695,0.786,0.04,0.04,-9.665660800000126,0.00875516551895391,0.05136687179996854,-5.790500480015346e-08,-0.0016469588619660593,3.544441545002563e-07
0.01,0.000167008774,-0.785806096,4.01121554e-05,-2.35518266,9.295698600000003e-05,1.5709952600000001,0.786,0.04,0.04,-9.711678400000167,0.006543069635509812,0.03983442239995805,-1.141513544002046e-07,-0.0018079026136552457,4.4837805600034176e-07
0.0125,0.000167010235,-0.78578887,4.0113273500000005e-05,-2.3551971500000004,9.296160750000003e-05,1.570994825,0.786,0.04,0.04,-9.757696000000209,0.004330973752065715,0.028301972999947557,-1.7039770400025578e-07,-0.001968846365344432,5.423119575004272e-07
0.015,0.00016701169600000001,-0.785771644,4.011439160000001e-05,-2.3552116400000003,9.296622900000002e-05,1.57099439,0.786,0.04,0.04,-9.80371360000025,0.002118877868621619,0.01676952359993708,-2.2664405360030692e-07,-0.0021297901170336184,6.362458590005126e-07
0.0175,0.00016701558600000006,-0.7857548569999999,4.011567465000001e-05,-2.3552257350000003,9.2969092e-05,1.57099396,0.786,0.04,0.04,-9.834294349999997,0.0006460121192503807,0.009008050914998603,-2.83198379000364e-07,-0.002286341844593096,6.197179019984882e-07
0.02,0.00016702433400000007,-0.7857389479999999,4.011728760000001e-05,-2.3552390400000003,9.296843799999999e-05,1.5709935400000001,0.786,0.04,0.04,-9.834001399999998,0.0006516066379845208,0.008788531659998404,-3.4036865600041596e-07,-0.0024341095238933955,3.8226622799827223e-07
0.0225,0.00016703308200000008,-0.785723039,4.0118900550000014e-05,-2.3552523450000002,9.2967784e-05,1.57099312,0.786,0.04,0.04,-9.833708449999998,0.0006572011567186608,0.008569012404998204,-3.975389330004679e-07,-0.0025818772031936947,1.4481455399805642e-07
0.025,0.0001670418300000001,-0.7857071299999999,4.012051350000002e-05,-2.35526565,9.296713e-05,1.5709927,0.786,0.04,0.04,-9.833415499999997,0.0006627956754528009,0.008349493149998003,-4.5470921000052e-07,-0.0027296448824939944,-9.263712000215988e-08
0.0275,0.0001670505780000001,-0.7856912209999999,4.0122126450000014e-05,-2.355278955,9.2966476e-05,1.57099228,0.786,0.04,0.04,-9.833122549999997,0.000668390194186941,0.008129973894997804,-5.118794870005719e-07,-0.0028774125617942936,-3.3008879400237564e-07
0.03,0.0001670593260000001,-0.7856753119999998,4.012373940000002e-05,-2.35529226,9.2965822e-05,1.57099186,0.786,0.04,0.04,-9.832829599999997,0.0006739847129210811,0.007910454639997604,-5.690497640006239e-07,-0.003025180241094593,-5.675404680025915e-07
0.0325,0.00016706807400000012,-0.7856594029999998,4.012535235000002e-05,-2.355305565,9.2965168e-05,1.57099144,0.786,0.04,0.04,-9.832536649999998,0.0006795792316552212,0.007690935384997404,-6.262200410006759e-07,-0.0031729479203948924,-8.049921420028078e-07
0.035,0.00016708977700000038,-0.7856443399999998,4.012794520000004e-05,-2.3553181,9.295572599999982e-05,1.57099101,0.786,0.04,0.04,-9.832253099999997,0.0006891569762957074,0.007487714139997516,-7.770924700025179e-07,-0.003312074067072747,-1.3776236900094261e-06
0.0375,0.0001671179575000004,-0.7856296999999998,4.013102800000004e-05,-2.35533025,9.294188999999981e-05,1.570990575,0.786,0.04,0.04,-9.831974249999996,0.0007007263338892579,0.007292641899997339,-9.748159750026974e-07,-0.0034468794474396144,-2.117845175010098e-06
0.04,0.0001671461380000004,-0.7856150599999998,4.013411080000005e-05,-2.3553424,9.29280539999998e-05,1.57099014,0.786,0.04,0.04,-9.831695399999996,0.0007122956914828083,0.007097569659997161,-1.1725394800028772e-06,-0.003581684827806482,-2.8580666600107717e-06
0.0425,0.00016717431850000043,-0.7856004199999997,4.013719360000005e-05,-2.35535455,9.291421799999978e-05,1.5709897050000001,0.786,0.04,0.04,-9.831416549999997,0.0007238650490763588,0.006902497419996983,-1.3702629850030573e-06,-0.0037164902081733495,-3.598288145011446e-06
0.045,0.00016720249900000048,-0.7855857799999998,4.0140276400000054e-05,-2.3553667000000003,9.290038199999977e-05,1.57098927,0.786,0.04,0.04,-9.831137699999996,0.0007354344066699094,0.006707425179996806,-1.567986490003237e-06,-0.003851295588540217,-4.338509630012117e-06
0.0475,0.0001672306795000005,-0.7855711399999997,4.014335920000005e-05,-2.35537885,9.288654599999976e-05,1.570988835,0.786,0.04,0.04,-9.830858849999995,0.0007470037642634599,0.006512352939996628,-1.7657099950034168e-06,-0.003986100968907085,-5.0787311150127915e-06
0.05,0.0001672588600000012,-0.7855564999999998,4.014644200000011e-05,-2.355391,9.287270999999929e-05,1.5709884,0.786,0.04,0.04,-9.830579999999994,0.0007585731218570964,0.00631728069999688,-1.9634335000046215e-06,-0.0041209063492737156,-5.818952600026519e-06
0.0525,0.00016732397350000124,-0.7855429699999997,4.0152420100000113e-05,-2.3554021300000003,9.283430099999926e-05,1.57098798,0.786,0.04,0.04,-9.830310749999994,0.0007748669740978911,0.006145791984996724,-2.217476575004852e-06,-0.004242679895835426,-7.276742360027842e-06
0.055,0.0001673890870000013,-0.7855294399999997,4.015839820000012e-05,-2.35541326,9.279589199999922e-05,1.57098756,0.786,0.04,0.04,-9.830041499999995,0.000791160826338686,0.005974303269996569,-2.4715196500050834e-06,-0.004364453442397137,-8.73453212002917e-06
0.0575,0.00016745420050000135,-0.7855159099999997,4.016437630000013e-05,-2.35542439,9.27574829999992e-05,1.57098714,0.786,0.04,0.04,-9.829772249999994,0.0008074546785794808,0.005802814554996412,-2.7255627250053143e-06,-0.004486226988958847,-1.0192321880030496e-05
0.06,0.0001675193140000014,-0.7855023799999997,4.0170354400000134e-05,-2.3554355200000003,9.271907399999917e-05,1.57098672,0.786,0.04,0.04,-9.829502999999994,0.0008237485308202756,0.005631325839996256,-2.9796058000055448e-06,-0.004608000535520558,-1.1650111640031819e-05
0.0625,0.00016758442750000146,-0.7854888499999997,4.017633250000014e-05,-2.35544665,9.268066499999913e-05,1.5709863,0.786,0.04,0.04,-9.829233749999993,0.0008400423830610704,0.005459837124996101,-3.233648875005776e-06,-0.004729774082082269,-1.3107901400033146e-05
0.065,0.00016764954100000155,-0.7854753199999996,4.018231060000014e-05,-2.35545778,9.26422559999991e-05,1.57098588,0.786,0.04,0.04,-9.828964499999994,0.0008563362353018653,0.005288348409995944,-3.4876919500060075e-06,-0.00485154762864398,-1.4565691160034474e-05
0.0675,0.00016773442150000304,-0.7854621224999997,4.018986430000027e-05,-2.35546854,9.25909074999981e-05,1.570985455,0.786,0.04,0.04,-9.828702074999994,0.0008743276179306852,0.005122966449996238,-3.776429165008795e-06,-0.0049691797466975204,-1.632762995005821e-05
0.07,0.00016785883600000317,-0.7854495899999997,4.020056920000027e-05,-2.3554785600000003,9.251367999999803e-05,1.57098502,0.786,0.04,0.04,-9.828453299999994,0.0008957140613351847,0.004969797999996099,-4.134554660009121e-06,-0.005078529007735625,-1.869786680006037e-05
0.0725,0.00016798325050000328,-0.7854370574999996,4.0211274100000284e-05,-2.3554885800000003,9.243645249999797e-05,1.570984585,0.786,0.04,0.04,-9.828204524999993,0.000917100504739684,0.0048166295499959605,-4.492680155009446e-06,-0.005187878268773729,-2.1068103650062514e-05
0.075,0.00016810766500000338,-0.7854245249999996,4.0221979000000296e-05,-2.3554986,9.23592249999979e-05,1.57098415,0.786,0.04,0.04,-9.827955749999994,0.0009384869481441835,0.0046634610999958205,-4.8508056500097715e-06,-0.005297227529811833,-2.343834050006467e-05
0.0775,0.00016823207950000352,-0.7854119924999996,4.02326839000003e-05,-2.35550862,9.228199749999782e-05,1.5709837150000001,0.786,0.04,0.04,-9.827706974999993,0.000959873391548683,0.004510292649995681,-5.2089311450100975e-06,-0.005406576790849938,-2.580857735006683e-05
0.08,0.00016835649400000362,-0.7853994599999996,4.0243388800000313e-05,-2.3555186400000006,9.220476999999776e-05,1.57098328,0.786,0.04,0.04,-9.827458199999993,0.0009812598349531825,0.004357124199995542,-5.5670566400104235e-06,-0.0055159260518880425,-2.8178814200068986e-05
0.0825,0.00016848090850000373,-0.7853869274999996,4.0254093700000325e-05,-2.3555286600000005,9.212754249999769e-05,1.570982845,0.786,0.04,0.04,-9.827209424999992,0.001002646278357682,0.004203955749995403,-5.925182135010749e-06,-0.005625275312926147,-3.054905105007115e-05
0.085,0.0001686626580000065,-0.7853749749999996,4.0269400000000547e-05,-2.3555381400000006,9.201304799999589e-05,1.5709824000000001,0.78600019,0.04,0.04,-9.826958449999992,0.001025638706051456,0.004059717659995678,-6.281297070010982e-06,-0.005726040527227493,-3.3641537500106806e-05
0.08750000000000001,0.0001688730750000067,-0.7853633124999997,4.0287007000000564e-05,-2.3555473500000006,9.187991999999577e-05,1.57098195,0.786000475,0.04,0.04,-9.826706374999992,0.0010494341258897575,0.00391994474999555,-6.636406725011306e-06,-0.005822513718161046,-3.709514875010995e-05
0.09,0.0001690834920000069,-0.7853516499999996,4.0304614000000575e-05,-2.3555565600000006,9.174679199999564e-05,1.5709815,0.7860007600000001,0.04,0.04,-9.826454299999991,0.001073229545728059,0.0037801718399954236,-6.991516380011627e-06,-0.005918986909094598,-4.054876000011307e-05
0.0925,0.0001692939090000071,-0.7853399874999997,4.032222100000059e-05,-2.3555657700000006,9.161366399999552e-05,1.57098105,0.786001045,0.04,0.04,-9.82620222499999,0.0010970249655663606,0.0036403989299952965,-7.34662603501195e-06,-0.006015460100028151,-4.400237125011622e-05
0.095,0.00016950432600000727,-0.7853283249999996,4.033982800000061e-05,-2.3555749800000005,9.14805359999954e-05,1.5709806000000002,0.78600133,0.04,0.04,-9.825950149999992,0.0011208203854046624,0.0035006260199951693,-7.701735690012273e-06,-0.006111933290961704,-4.745598250011936e-05
0.0975,0.00016971474300000748,-0.7853166624999997,4.035743500000063e-05,-2.3555841900000005,9.134740799999528e-05,1.57098015,0.786001615,0.04,0.04,-9.825698074999991,0.001144615805242964,0.003360853109995042,-8.056845345012596e-06,-0.006208406481895257,-5.090959375012251e-05
0.1,0.0001699251600000119,-0.7853049999999996,4.037504200000098e-05,-2.3555934000000005,9.12142799999924e-05,1.5709797,0.7860019,0.04,0.04,-9.825445999999992,0.001168411225081412,0.003221080199995538,-8.411955000060348e-06,-0.006304879672828406,-5.43632050001708e-05
0.10250000000000001,0.0001702521210000122,-0.7852941099999996,4.040206120000101e-05,-2.3556020550000003,9.100545899999222e-05,1.5709792200000001,0.7860021850000001,0.04,0.04,-9.825246499999992,0.0011962258548019623,0.0030984377999954266,-1.0070670000061857e-05,-0.006390241603370174,-5.905780750017507e-05
0.105,0.0001705790820000125,-0.7852832199999996,4.042908040000103e-05,-2.3556107100000006,9.079663799999203e-05,1.5709787400000002,0.78600247,0.04,0.04,-9.825046999999993,0.0012240404845225124,0.0029757953999953153,-1.1729385000063359e-05,-0.006475603533911941,-6.375241000017932e-05
0.1075,0.00017090604300001278,-0.7852723299999996,4.045609960000106e-05,-2.3556193650000004,9.058781699999183e-05,1.57097826,0.786002755,0.04,0.04,-9.824847499999992,0.0012518551142430628,0.0028531529999952037,-1.3388100000064867e-05,-0.006560965464453708,-6.844701250018359e-05
0.11,0.0001712330040000131,-0.7852614399999996,4.048311880000108e-05,-2.3556280200000006,9.037899599999165e-05,1.57097778,0.7860030400000001,0.04,0.04,-9.824647999999993,0.0012796697439636131,0.002730510599995092,-1.5046815000066378e-05,-0.006646327394995476,-7.314161500018787e-05
0.1125,0.00017155996500001338,-0.7852505499999995,4.0510138000001105e-05,-2.3556366750000004,9.017017499999145e-05,1.5709773,0.786003325,0.04,0.04,-9.824448499999992,0.0013074843736841635,0.002607868199994981,-1.6705530000067888e-05,-0.006731689325537244,-7.783621750019214e-05
0.115,0.00017188692600001367,-0.7852396599999996,4.053715720000113e-05,-2.3556453300000006,8.996135399999127e-05,1.57097682,0.7860036100000001,0.04,0.04,-9.824248999999991,0.0013352990034047139,0.0024852257999948687,-1.8364245000069398e-05,-0.0068170512560790115,-8.253082000019642e-05
0.11750000000000001,0.0001722640850000204,-0.7852289899999996,4.056824120000168e-05,-2.3556536300000004,8.972061749998699e-05,1.570976305,0.786003965,0.04,0.03999999975,-9.824058049999993,0.0013639927317866218,0.0023659465549951885,-1.996533565006352e-05,-0.006898901355455969,-8.764618025025464e-05
0.12,0.00017274164000002085,-0.7852187599999996,4.060745480000171e-05,-2.3556612200000004,8.941604999998671e-05,1.5709757199999999,0.78600446,0.04,0.039999999,-9.823884199999993,0.0013944446574909095,0.0022533936199950868,-2.145117760006486e-05,-0.006973727792504647,-9.360305600026003e-05
0.1225,0.00017321919500002127,-0.7852085299999996,4.0646668400001745e-05,-2.3556688100000005,8.911148249998642e-05,1.5709751349999999,0.786004955,0.04,0.03999999825,-9.823710349999992,0.0014248965831951971,0.002140840684994984,-2.2937019550066214e-05,-0.0070485542295533245,-9.955993175026546e-05
0.125,0.0001736967500000217,-0.7851982999999996,4.068588200000178e-05,-2.3556764000000006,8.880691499998616e-05,1.5709745499999999,0.78600545,0.04,0.0399999975,-9.823536499999992,0.0014553485088994848,0.002028287749994882,-2.4422861500067567e-05,-0.007123380666602003,-0.00010551680750027088
0.1275,0.00017417430500002215,-0.7851880699999996,4.072509560000182e-05,-2.3556839900000006,8.850234749998587e-05,1.5709739649999999,0.786005945,0.04,0.03999999675,-9.823362649999993,0.0014858004346037725,0.0019157348149947792,-2.590870345006892e-05,-0.007198207103650681,-0.0001114736832502763
0.13,0.0001746518600000226,-0.7851778399999995,4.0764309200001857e-05,-2.3556915800000002,8.819777999998559e-05,1.5709733799999999,0.78600644,0.04,0.039999996,-9.823188799999992,0.0015162523603080603,0.0018031818799946768,-2.7394545400070273e-05,-0.0072730335406993585,-0.00011743055900028172
0.1325,0.000175129415000023,-0.7851676099999995,4.0803522800001894e-05,-2.3556991700000003,8.789321249998531e-05,1.5709727949999999,0.786006935,0.04,0.03999999525,-9.823014949999992,0.001546704286012348,0.0016906289449945744,-2.8880387350071626e-05,-0.007347859977748037,-0.00012338743475028715
0.135,0.00017573211200003268,-0.7851577399999995,4.0852912600002676e-05,-2.3557063000000005,8.7506813999979e-05,1.5709719299999998,0.78600748,0.04,0.0399999955,-9.822807199999989,0.0015777274267762878,0.0015859418699950513,-3.084249320010807e-05,-0.007414542138579495,-0.000130503962000378
0.1375,0.00017639738000003327,-0.7851480499999995,4.090739050000273e-05,-2.3557132000000003,8.707949999997862e-05,1.570970925,0.78600805,0.04,0.03999999625,-9.822582499999989,0.0016090361750699914,0.0014851877249949597,-3.304273100011007e-05,-0.007477152161303232,-0.00013820031500038501
0.14,0.0001770626480000339,-0.7851383599999995,4.0961868400002775e-05,-2.3557201,8.665218599997823e-05,1.57096992,0.7860086199999999,0.04,0.039999997,-9.82235779999999,0.0016403449233636947,0.001384433579994868,-3.524296880011207e-05,-0.007539762184026969,-0.00014589666800039202
0.14250000000000002,0.0001777279160000345,-0.7851286699999995,4.101634630000283e-05,-2.3557270000000003,8.622487199997785e-05,1.570968915,0.78600919,0.04,0.03999999775,-9.82213309999999,0.0016716536716573983,0.0012836794349947761,-3.744320660011408e-05,-0.0076023722067507064,-0.00015359302100039903
0.145,0.0001783931840000351,-0.7851189799999995,4.1070824200002875e-05,-2.3557339,8.579755799997746e-05,1.57096791,0.78600976,0.04,0.0399999985,-9.82190839999999,0.0017029624199511014,0.0011829252899946856,-3.964344440011606e-05,-0.007664982229474442,-0.00016128937400040596
0.1475,0.0001790584520000357,-0.7851092899999995,4.112530210000292e-05,-2.3557408,8.537024399997707e-05,1.570966905,0.78601033,0.04,0.03999999925,-9.821683699999989,0.001734271168244805,0.0010821711449945938,-4.184368220011806e-05,-0.007727592252198179,-0.00016898572700041296
0.15,0.00017972372000004872,-0.7850995999999995,4.1179780000003985e-05,-2.3557477000000002,8.494292999996876e-05,1.5709659,0.7860109,0.04,0.04,-9.821458999999992,0.001765579916538651,0.0009814169999953757,-4.404392000012085e-05,-0.00779020227492141,-0.00017668208000049505
0.1525,0.00018061652300004955,-0.7850903899999995,4.125277855000405e-05,-2.35575406,8.437036259996823e-05,1.57096485,0.786011761,0.04,0.03999999925,-9.821293699999991,0.0017994991038013267,0.0008966728889952987,-4.625860520012287e-05,-0.0078435370232939,-0.00018575422850050332
0.155,0.00018150932600005036,-0.7850811799999995,4.132577710000412e-05,-2.35576042,8.37977951999677e-05,1.5709638,0.786012622,0.04,0.0399999985,-9.82112839999999,0.0018334182910640026,0.0008119287779952215,-4.847329040012488e-05,-0.007896871771666387,-0.00019482637700051156
0.1575,0.00018240212900005117,-0.7850719699999995,4.1398775650004186e-05,-2.35576678,8.32252277999672e-05,1.5709627499999999,0.7860134830000001,0.04,0.03999999775,-9.820963099999991,0.0018673374783266783,0.0007271846669951443,-5.06879756001269e-05,-0.007950206520038876,-0.00020389852550051983
0.16,0.00018329493200005197,-0.7850627599999995,4.1471774200004246e-05,-2.35577314,8.265266039996667e-05,1.5709617,0.786014344,0.04,0.039999997,-9.82079779999999,0.0019012566655893543,0.0006424405559950671,-5.290266080012891e-05,-0.008003541268411365,-0.00021297067400052807
0.1625,0.00018418773500005278,-0.7850535499999994,4.154477275000431e-05,-2.3557795000000006,8.208009299996614e-05,1.57096065,0.7860152050000001,0.04,0.03999999625,-9.82063249999999,0.0019351758528520302,0.00055769644499499,-5.511734600013093e-05,-0.008056876016783853,-0.00022204282250053633
0.165,0.0001850805380000536,-0.7850443399999995,4.161777130000438e-05,-2.3557858600000006,8.150752559996563e-05,1.5709596,0.7860160660000001,0.04,0.0399999955,-9.82046719999999,0.001969095040114706,0.0004729523339949129,-5.7332031200132944e-05,-0.008110210765156342,-0.0002311149710005446
0.1675,0.00018606327600007084,-0.7850352274999994,4.169810665000579e-05,-2.3557918950000003,8.08769835499545e-05,1.5709583749999998,0.7860170180000001,0.04,0.039999995,-9.82030739999999,0.002002576563974897,0.00038691441699459914,-5.980636960018243e-05,-0.008160133706408357,-0.0002407966600006643
0.17,0.0001872258840000719,-0.7850263099999994,4.179311560000588e-05,-2.3557972800000004,8.013049219995383e-05,1.5709567999999998,0.7860181520000001,0.04,0.039999995,-9.82015859999999,0.0020351827610303563,0.0002982888879945185,-6.280001440018515e-05,-0.008203233033421286,-0.0002516974300006742
0.17250000000000001,0.00018838849200007295,-0.7850173924999995,4.1888124550005966e-05,-2.3558026650000006,7.938400084995315e-05,1.5709552249999998,0.786019286,0.04,0.039999995,-9.82000979999999,0.002067788958085816,0.00020966335899443776,-6.579365920018788e-05,-0.008246332360434216,-0.00026259820000068415
0.17500000000000002,0.00018955110000007402,-0.7850084749999994,4.198313350000605e-05,-2.3558080500000003,7.863750949995247e-05,1.5709536499999999,0.78602042,0.04,0.039999995,-9.81986099999999,0.002100395155141276,0.0001210378299943571,-6.878730400019061e-05,-0.008289431687447144,-0.0002734989700006941
0.1775,0.00019071370800007506,-0.7849995574999994,4.2078142450006136e-05,-2.3558134350000004,7.78910181499518e-05,1.570952075,0.7860215540000001,0.04,0.039999995,-9.819712199999989,0.002133001352196735,3.241230099427741e-05,-7.17809488001933e-05,-0.008332531014460073,-0.00028439974000070385
0.18,0.00019187631600007613,-0.7849906399999994,4.2173151400006224e-05,-2.3558188200000005,7.714452679995112e-05,1.5709505,0.7860226880000001,0.04,0.039999995,-9.81956339999999,0.002165607549252195,-5.621322800580331e-05,-7.477459360019603e-05,-0.008375630341473001,-0.0002953005100007138
0.1825,0.00019303892400007717,-0.7849817224999993,4.2268160350006306e-05,-2.3558242050000002,7.639803544995044e-05,1.570948925,0.786023822,0.04,0.039999995,-9.81941459999999,0.0021982137463076546,-0.00014483875700588397,-7.776823840019876e-05,-0.008418729668485931,-0.0003062012800007237
0.185,0.00019441096800009938,-0.7849729549999994,4.238026140000812e-05,-2.3558294200000005,7.551673249993615e-05,1.57094731,0.7860251100000001,0.04,0.039999995,-9.819237799999987,0.002231795527043193,-0.00022434310000504385,-8.120167400024588e-05,-0.008455035649242165,-0.0003182967760008542
0.1875,0.00019588773000010074,-0.7849642624999994,4.250090850000823e-05,-2.3558345500000004,7.456802374993528e-05,1.570945675,0.7860264750000001,0.04,0.039999995,-9.819046999999987,0.002265865099618624,-0.00029928685000511204,-8.485500500024921e-05,-0.00848794495687107,-0.0003309896350008658
0.19,0.00019736449200010207,-0.7849555699999994,4.262155560000834e-05,-2.3558396800000003,7.361931499993442e-05,1.5709440399999999,0.78602784,0.04,0.039999995,-9.818856199999987,0.0022999346721940548,-0.00037423060000518033,-8.850833600025252e-05,-0.008520854264499975,-0.00034368249400087736
0.1925,0.00019884125400010342,-0.7849468774999994,4.274220270000845e-05,-2.3558448100000002,7.267060624993355e-05,1.570942405,0.7860292050000001,0.04,0.039999995,-9.818665399999986,0.0023340042447694857,-0.0004491743500052485,-9.216166700025585e-05,-0.00855376357212888,-0.0003563753530008889
0.195,0.00020031801600010475,-0.7849381849999993,4.286284980000856e-05,-2.35584994,7.172189749993269e-05,1.57094077,0.7860305700000001,0.04,0.039999995,-9.818474599999986,0.002368073817344917,-0.0005241181000053168,-9.581499800025918e-05,-0.008586672879757784,-0.00036906821200090046
0.1975,0.0002017947780001061,-0.7849294924999993,4.2983496900008666e-05,-2.3558550700000005,7.077318874993183e-05,1.570939135,0.7860319350000001,0.04,0.039999995,-9.818283799999985,0.002402143389920348,-0.000599061850005385,-9.94683290002625e-05,-0.00861958218738669,-0.000381761071000912
0.2,0.00020327154000013368,-0.7849207999999993,4.310414400001092e-05,-2.3558602000000004,6.982447999991394e-05,1.5709374999999999,0.7860333000000002,0.04,0.039999995,-9.818092999999992,0.002436212962495529,-0.0006740056000060057,-0.00010312166000027698,-0.008652491495014951,-0.00039445393000107513
0.2025,0.00020510867850013535,-0.7849122094999993,4.325427510001106e-05,-2.3558643700000004,6.864178639991286e-05,1.57093534,0.7860349950000002,0.04,0.03999999575,-9.817992949999992,0.002466849132908892,-0.0007565421550060808,-0.00010692833150028045,-0.008676551189275327,-0.0004092299080010886
0.20500000000000002,0.00020694581700013702,-0.7849036189999994,4.3404406200011195e-05,-2.3558685400000003,6.745909279991179e-05,1.57093318,0.7860366900000002,0.04,0.0399999965,-9.817892899999991,0.002497485303322255,-0.0008390787100061559,-0.00011073500300028392,-0.008700610883535706,-0.00042400588600110205
0.20750000000000002,0.0002087829555001387,-0.7848950284999994,4.355453730001134e-05,-2.3558727100000003,6.62763991999107e-05,1.57093102,0.7860383850000001,0.04,0.03999999725,-9.817792849999991,0.002528121473735618,-0.0009216152650062311,-0.00011454167450028738,-0.008724670577796082,-0.0004387818640011155
0.21,0.00021062009400014034,-0.7848864379999994,4.370466840001147e-05,-2.3558768800000003,6.509370559990965e-05,1.5709288599999998,0.7860400800000001,0.04,0.039999998,-9.81769279999999,0.0025587576441489807,-0.0010041518200063055,-0.00011834834600029081,-0.008748730272056459,-0.0004535578420011288
0.2125,0.000212457232500142,-0.7848778474999993,4.385479950001161e-05,-2.3558810500000003,6.391101199990857e-05,1.5709266999999998,0.7860417750000002,0.04,0.03999999875,-9.817592749999992,0.0025893938145623435,-0.0010866883750063805,-0.00012215501750029428,-0.008772789966316835,-0.00046833382000114227
0.215,0.00021429437100014368,-0.7848692569999993,4.4004930600011744e-05,-2.3558852200000007,6.27283183999075e-05,1.5709245399999998,0.7860434700000001,0.04,0.0399999995,-9.817492699999992,0.0026200299849757063,-0.0011692249300064557,-0.00012596168900029774,-0.008796849660577212,-0.00048310979800115573
0.2175,0.00021626754300017767,-0.7848606734999993,4.416618625001452e-05,-2.3558891750000006,6.145818104988566e-05,1.5709222449999998,0.7860452675000001,0.04,0.04,-9.817367499999985,0.002652126445903351,-0.001248901810005852,-0.00012996102150034694,-0.008817536104471533,-0.0004984585225013052
0.22,0.0002185127820001797,-0.7848521039999993,4.4349691000014686e-05,-2.3558927000000005,6.001315619988435e-05,1.5709196799999996,0.7860472700000002,0.04,0.04,-9.817191999999984,0.0026871434878585226,-0.0013228593400059193,-0.00013434567600035093,-0.008831476047636136,-0.0005149527400013201
0.2225,0.00022075802100018175,-0.7848435344999993,4.453319575001485e-05,-2.3558962250000004,5.856813134988303e-05,1.5709171149999996,0.7860492725000001,0.04,0.04,-9.817016499999985,0.0027221605298136946,-0.0013968168700059867,-0.00013873033050035494,-0.008845415990800739,-0.0005314469575013351
0.225,0.00022300326000018378,-0.7848349649999993,4.471670050001502e-05,-2.3558997500000003,5.712310649988172e-05,1.5709145499999997,0.7860512750000002,0.04,0.04,-9.816840999999984,0.002757177571768866,-0.0014707744000060539,-0.00014311498500035893,-0.00885935593396534,-0.0005479411750013501
0.2275,0.00022524849900018584,-0.7848263954999993,4.4900205250015186e-05,-2.355903275,5.56780816498804e-05,1.5709119849999997,0.7860532775000002,0.04,0.04,-9.816665499999985,0.002792194613724038,-0.0015447319300061213,-0.00014749963950036292,-0.008873295877129943,-0.0005644353925013651
0.23,0.00022749373800018787,-0.7848178259999993,4.508371000001535e-05,-2.3559068,5.4233056799879084e-05,1.5709094199999998,0.7860552800000001,0.04,0.04,-9.816489999999984,0.00282721165567921,-0.0016186894600061885,-0.0001518842940003669,-0.008887235820294546,-0.0005809296100013801
0.2325,0.0002297389770001899,-0.7848092564999993,4.526721475001552e-05,-2.3559103250000004,5.278803194987777e-05,1.5709068549999996,0.7860572825000002,0.04,0.04,-9.816314499999985,0.0028622286976343818,-0.001692646990006256,-0.0001562689485003709,-0.008901175763459149,-0.0005974238275013951
0.23500000000000001,0.00023228905100023105,-0.7848006199999993,4.5475667300018886e-05,-2.35591343,5.1147708299851405e-05,1.5709040699999997,0.7860595410000002,0.04,0.04,-9.816169599999988,0.002894611377271596,-0.0017672867000064108,-0.00016079215500039266,-0.008908977173269154,-0.0006151554500015689
0.23750000000000002,0.0002349915425002335,-0.7847919499999992,4.5696593750019085e-05,-2.3559163250000004,4.940973524984982e-05,1.5709011749999997,0.7860619275000003,0.04,0.04,-9.816039999999989,0.002925676875750334,-0.001842267500006479,-0.00016538463750039682,-0.008913709316403033,-0.0006335057750015856
0.24,0.00023769403400023594,-0.7847832799999993,4.5917520200019285e-05,-2.35591922,4.7671762199848265e-05,1.5708982799999998,0.7860643140000002,0.04,0.04,-9.815910399999987,0.0029567423742290723,-0.0019172483000065464,-0.00016997712000040095,-0.008918441459536913,-0.0006518561000016021
0.2425,0.00024039652550023838,-0.7847746099999993,4.613844665001949e-05,-2.3559221150000003,4.593378914984668e-05,1.5708953849999996,0.7860667005000003,0.04,0.04,-9.815780799999988,0.0029878078727078104,-0.001992229100006615,-0.00017456960250040513,-0.008923173602670791,-0.0006702064250016188
0.245,0.00024309901700024085,-0.7847659399999992,4.635937310001969e-05,-2.35592501,4.41958160998451e-05,1.5708924899999996,0.7860690870000002,0.04,0.04,-9.815651199999987,0.0030188733711865486,-0.002067209900006683,-0.00017916208500040932,-0.008927905745804671,-0.0006885567500016356
0.2475,0.0002458015085002433,-0.7847572699999993,4.658029955001989e-05,-2.355927905,4.2457843049843514e-05,1.5708895949999997,0.7860714735000002,0.04,0.04,-9.815521599999988,0.003049938869665287,-0.0021421907000067513,-0.0001837545675004135,-0.008932637888938551,-0.0007069070750016522
0.25,0.00024850400000029195,-0.7847485999999992,4.680122600002387e-05,-2.3559308,4.0719869999812414e-05,1.5708866999999997,0.7860738600000002,0.04,0.04,-9.815391999999989,0.0030810043681438397,-0.0022171715000070626,-0.00018834705000045785,-0.008937370032071566,-0.0007252574000018544
0.2525,0.00025171401500029484,-0.7847397499999992,4.706369420002411e-05,-2.3559329300000003,3.8657328299810534e-05,1.5708832649999998,0.7860767220000002,0.04,0.03999999925,-9.815267199999989,0.003110028314406766,-0.0022948259750071335,-0.00019338112950046242,-0.00893259332515249,-0.000745646726001873
0.255,0.0002549240300002978,-0.7847308999999992,4.732616240002435e-05,-2.35593506,3.659478659980866e-05,1.5708798299999995,0.7860795840000002,0.04,0.0399999985,-9.815142399999988,0.0031390522606696927,-0.002372480450007204,-0.00019841520900046702,-0.008927816618233417,-0.0007660360520018915
0.2575,0.0002581340450003007,-0.7847220499999992,4.758863060002459e-05,-2.35593719,3.453224489980678e-05,1.5708763949999995,0.7860824460000002,0.04,0.03999999775,-9.815017599999988,0.0031680762069326187,-0.002450134925007275,-0.00020344928850047158,-0.008923039911314342,-0.00078642537800191
0.26,0.0002613440600003036,-0.7847131999999991,4.785109880002483e-05,-2.35593932,3.24697031998049e-05,1.5708729599999995,0.7860853080000002,0.04,0.039999997,-9.814892799999988,0.0031971001531955453,-0.0025277894000073457,-0.00020848336800047618,-0.008918263204395269,-0.0008068147040019287
0.2625,0.00026455407500030654,-0.7847043499999992,4.811356700002507e-05,-2.3559414500000004,3.0407161499803028e-05,1.5708695249999995,0.7860881700000002,0.04,0.03999999625,-9.814767999999988,0.0032261240994584718,-0.002605443875007416,-0.00021351744750048075,-0.008913486497476194,-0.0008272040300019472
0.265,0.0002677640900003095,-0.7846954999999991,4.837603520002531e-05,-2.3559435800000004,2.834461979980115e-05,1.5708660899999995,0.7860910320000002,0.04,0.0399999955,-9.814643199999988,0.0032551480457213983,-0.002683098350007487,-0.00021855152700048534,-0.00890870979055712,-0.0008475933560019658
0.2675,0.00027116035650036677,-0.7846865549999991,4.865376730003e-05,-2.35594558,2.6162496799764356e-05,1.5708624599999996,0.7860940580000003,0.04,0.039999995,-9.814515349999986,0.0032831813208783504,-0.002759843935007292,-0.00022376564100054248,-0.008900896972043909,-0.0008687139430021978
0.27,0.0002749291260003702,-0.7846774199999991,4.896202720003028e-05,-2.3559473200000003,2.3741211199762152e-05,1.5708584399999996,0.7860974120000003,0.04,0.039999995,-9.814381399999988,0.003309233253824219,-0.0028347717400073603,-0.00022933982400054754,-0.008887011930345077,-0.0008912970520022184
0.2725,0.0002786978955003736,-0.7846682849999991,4.9270287100030565e-05,-2.3559490600000004,2.1319925599759948e-05,1.5708544199999996,0.7861007660000003,0.04,0.039999995,-9.814247449999987,0.003335285186770088,-0.0029096995450074285,-0.00023491400700055264,-0.008873126888646244,-0.0009138801610022389
0.275,0.0002824666650003771,-0.7846591499999991,4.957854700003085e-05,-2.3559508,1.8898639999757747e-05,1.5708503999999996,0.7861041200000003,0.04,0.039999995,-9.814113499999987,0.0033613371197159566,-0.0029846273500074966,-0.0002404881900005577,-0.008859241846947412,-0.0009364632700022595
0.2775,0.00028623543450038047,-0.7846500149999991,4.988680690003112e-05,-2.35595254,1.647735439975554e-05,1.5708463799999997,0.7861074740000003,0.04,0.039999995,-9.813979549999987,0.003387389052661825,-0.003059555155007565,-0.0002460623730005628,-0.008845356805248578,-0.00095904637900228
0.28,0.0002900042040003839,-0.784640879999999,5.0195066800031404e-05,-2.35595428,1.4056068799753337e-05,1.5708423599999997,0.7861108280000003,0.04,0.039999995,-9.813845599999986,0.0034134409856076938,-0.0031344829600076334,-0.00025163655600056787,-0.008831471763549746,-0.0009816294880023006
0.28250000000000003,0.0002937729735003874,-0.784631744999999,5.0503326700031686e-05,-2.3559560200000003,1.163478319975113e-05,1.5708383399999997,0.7861141820000003,0.04,0.039999995,-9.813711649999986,0.003439492918553563,-0.0032094107650077015,-0.00025721073900057293,-0.008817586721850913,-0.0010042125970023213
0.28500000000000003,0.00029794892300045414,-0.784622359999999,5.0844955400037156e-05,-2.35595719,8.95206079970826e-06,1.5708338699999995,0.7861178900000003,0.04,0.039999995,-9.813611049999992,0.0034628184046618274,-0.00328832643000839,-0.00026314700300063433,-0.008798737917093128,-0.0010281989800025601
0.28750000000000003,0.0003023284625004581,-0.784612849999999,5.120326850003748e-05,-2.3559580749999998,6.1386199997057e-06,1.5708291749999996,0.7861217750000004,0.04,0.039999995,-9.813527124999991,0.0034847806673519222,-0.0033692360250084635,-0.0002692643075006399,-0.008777407230807019,-0.0010528870000025825
0.29,0.000306708002000462,-0.784603339999999,5.15615816000378e-05,-2.35595896,3.3251791997032012e-06,1.5708244799999995,0.7861256600000004,0.04,0.039999995,-9.813443199999991,0.0035067429300420167,-0.0034501456200085353,-0.0002753816120006453,-0.00875607654452091,-0.0010775750200026045
0.2925,0.000311087541500466,-0.7845938299999989,5.1919894700038126e-05,-2.355959845,5.117383997006391e-07,1.5708197849999994,0.7861295450000004,0.04,0.039999995,-9.813359274999991,0.003528705192732112,-0.003531055215008609,-0.0002814989165006509,-0.008734745858234801,-0.0011022630400026269
0.295,0.00031546708100047,-0.784584319999999,5.227820780003845e-05,-2.35596073,-2.301702400301922e-06,1.5708150899999995,0.7861334300000004,0.04,0.039999995,-9.81327534999999,0.003550667455422207,-0.0036119648100086826,-0.00028761622100065645,-0.008713415171948692,-0.0011269510600026495
0.2975,0.00031984662050047396,-0.784574809999999,5.263652090003878e-05,-2.355961615,-5.115143200304482e-06,1.5708103949999994,0.7861373150000004,0.04,0.039999995,-9.81319142499999,0.0035726297181123017,-0.003692874405008756,-0.00029373352550066204,-0.008692084485662582,-0.001151639080002672
0.3,0.00032422616000055035,-0.7845652999999989,5.2994834000045044e-05,-2.3559625,-7.928584000353674e-06,1.5708056999999993,0.7861412000000004,0.04,0.039999995,-9.813107499999985,0.003594591980802111,-0.003773784000009303,-0.0002998508300007177,-0.008670753799375484,-0.0011763271000029393
0.3025,0.000329269097000555,-0.7845552994999989,5.340755000004542e-05,-2.355963025,-1.1169286900356624e-05,1.5708002399999994,0.7861456700000005,0.04,0.03999999575,-9.812976174999985,0.003613931266593053,-0.0038590252050093804,-0.00030642708050072367,-0.008640362694856097,-0.0012032603650029639
0.305,0.00033431203400055955,-0.7845452989999989,5.38202660000458e-05,-2.3559635500000002,-1.4409989800359574e-05,1.5707947799999993,0.7861501400000005,0.04,0.0399999965,-9.812844849999985,0.003633270552383996,-0.003944266410009458,-0.00031300333100072966,-0.008609971590336708,-0.0012301936300029884
0.3075,0.0003393549710005641,-0.7845352984999989,5.423298200004617e-05,-2.355964075,-1.7650692700362523e-05,1.5707893199999994,0.7861546100000004,0.04,0.03999999725,-9.812713524999985,0.0036526098381749385,-0.004029507615009535,-0.00031957958150073565,-0.00857958048581732,-0.001257126895003013
0.31,0.0003443979080005687,-0.7845252979999988,5.4645698000046545e-05,-2.3559646,-2.0891395600365475e-05,1.5707838599999995,0.7861590800000005,0.04,0.039999998,-9.812582199999985,0.0036719491239658813,-0.004114748820009614,-0.00032615583200074164,-0.008549189381297933,-0.0012840601600030374
0.3125,0.0003494408450005733,-0.7845152974999988,5.505841400004692e-05,-2.355965125,-2.4132098500368424e-05,1.5707783999999994,0.7861635500000005,0.04,0.03999999875,-9.812450874999985,0.0036912884097568236,-0.004199990025009691,-0.00033273208250074763,-0.008518798276778546,-0.001310993425003062
0.315,0.0003544837820005779,-0.7845052969999988,5.54711300000473e-05,-2.35596565,-2.7372801400371372e-05,1.5707729399999995,0.7861680200000005,0.04,0.0399999995,-9.812319549999986,0.0037106276955477663,-0.004285231230009769,-0.0003393083330007536,-0.008488407172259156,-0.0013379266900030865
0.3175,0.00035976554500066527,-0.7844951034999987,5.590343430005446e-05,-2.35596585,-3.076669715042741e-05,1.5707672249999993,0.7861727100000006,0.04,0.04,-9.812211924999993,0.003729037835730287,-0.004372857700010673,-0.0003460464375008157,-0.008455899776886606,-0.0013655368800033455
0.32,0.0003655249600006705,-0.7844845239999988,5.6374915200054887e-05,-2.3559654,-3.446697860043078e-05,1.5707609999999994,0.7861778400000006,0.04,0.04,-9.812151699999992,0.003745589684696927,-0.004465254700010757,-0.0003531082500008221,-0.008419159799809922,-0.001394500920003372
0.3225,0.00037128437500067574,-0.7844739444999987,5.684639610005532e-05,-2.35596495,-3.816726005043415e-05,1.5707547749999993,0.7861829700000006,0.04,0.04,-9.812091474999992,0.003762141533663567,-0.004557651700010841,-0.00036017006250082856,-0.00838241982273324,-0.0014234649600033983
0.325,0.00037704379000068095,-0.7844633649999987,5.731787700005575e-05,-2.3559645,-4.186754150043752e-05,1.5707485499999994,0.7861881000000006,0.04,0.04,-9.812031249999992,0.003778693382630207,-0.0046500487000109255,-0.000367231875000835,-0.008345679845656555,-0.0014524290000034247
0.3275,0.0003828032050006862,-0.7844527854999988,5.7789357900056175e-05,-2.35596405,-4.5567822950440886e-05,1.5707423249999992,0.7861932300000006,0.04,0.04,-9.811971024999993,0.003795245231596847,-0.004742445700011009,-0.0003742936875008414,-0.008308939868579873,-0.001481393040003451
0.33,0.0003885626200006915,-0.7844422059999987,5.82608388000566e-05,-2.3559636,-4.926810440044425e-05,1.5707360999999993,0.7861983600000007,0.04,0.04,-9.811910799999993,0.0038117970805634873,-0.004834842700011093,-0.00038135550000084785,-0.008272199891503188,-0.0015103570800034773
0.3325,0.0003943220350006967,-0.7844316264999986,5.8732319700057036e-05,-2.35596315,-5.296838585044763e-05,1.5707298749999992,0.7862034900000007,0.04,0.04,-9.811850574999992,0.0038283489295301274,-0.004927239700011177,-0.0003884173125008543,-0.008235459914426506,-0.0015393211200035038
0.335,0.0004005947230007958,-0.7844206199999986,5.924591100006516e-05,-2.35596228,-5.699703170051103e-05,1.570723169999999,0.7862090830000007,0.04,0.0399999995,-9.811738149999982,0.0038410413078976617,-0.005026927370012595,-0.000395896368000937,-0.008192595653230283,-0.0015696551300037806
0.3375,0.0004071240475008017,-0.7844093999999986,5.9780557500065644e-05,-2.3559612,-6.118985975051484e-05,1.570716224999999,0.7862149075000008,0.04,0.03999999875,-9.811599624999982,0.003851803950966697,-0.005130260375012689,-0.00040358404500094396,-0.00814666924997596,-0.0016006741250038088
0.34,0.0004136533720008077,-0.7843981799999986,6.0315204000066135e-05,-2.3559601199999998,-6.538268780051865e-05,1.570709279999999,0.7862207320000008,0.04,0.039999998,-9.811461099999983,0.0038625665940357316,-0.0052335933800127825,-0.000411271722000951,-0.008100742846721638,-0.001631693120003837
0.3425,0.00042018269650081363,-0.7843869599999986,6.084985050006662e-05,-2.3559590399999997,-6.957551585052248e-05,1.5707023349999991,0.7862265565000007,0.04,0.03999999725,-9.811322574999982,0.0038733292371047664,-0.005336926385012876,-0.000418959399000958,-0.008054816443467318,-0.0016627121150038654
0.34500000000000003,0.00042671202100081956,-0.7843757399999987,6.13844970000671e-05,-2.3559579599999996,-7.376834390052629e-05,1.5706953899999991,0.7862323810000007,0.04,0.0399999965,-9.811184049999982,0.003884091880173801,-0.005440259390012971,-0.00042664707600096496,-0.008008890040212996,-0.0016937311100038936
0.34750000000000003,0.00043324134550082555,-0.7843645199999986,6.19191435000676e-05,-2.35595688,-7.79611719505301e-05,1.5706884449999992,0.7862382055000007,0.04,0.03999999575,-9.811045524999983,0.003894854523242836,-0.005543592395013065,-0.000434334753000972,-0.007962963636958673,-0.0017247501050039217
0.35000000000000003,0.0004397706700009363,-0.7843532999999985,6.245379000007669e-05,-2.3559558,-8.215400000060154e-05,1.570681499999999,0.7862440300000008,0.04,0.039999995,-9.81090699999999,0.0039056171663110024,-0.005646925400014135,-0.00044202243000105525,-0.00791703723370335,-0.0017557691000042721
0.3525,0.00044712352450094285,-0.7843413299999985,6.305601450007722e-05,-2.3559540899999996,-8.687786075060575e-05,1.570673609999999,0.7862505655000008,0.04,0.03999999575,-9.810820749999989,0.003909560083412086,-0.005757930440014234,-0.0004503091455010626,-0.007863246789195118,-0.0017893174850043018
0.355,0.0004544763790009496,-0.7843293599999984,6.365823900007776e-05,-2.3559523799999997,-9.160172150061004e-05,1.570665719999999,0.7862571010000008,0.04,0.0399999965,-9.81073449999999,0.003913503000513169,-0.005868935480014335,-0.00045859586100107015,-0.007809456344686884,-0.0018228658700043324
0.3575,0.0004618292335009563,-0.7843173899999984,6.426046350007832e-05,-2.3559506699999995,-9.632558225061434e-05,1.570657829999999,0.7862636365000009,0.04,0.03999999725,-9.81064824999999,0.003917445917614253,-0.0059799405200144365,-0.0004668825765010777,-0.00775566590017865,-0.001856414255004363
0.36,0.00046918208800096297,-0.7843054199999984,6.486268800007887e-05,-2.3559489599999996,-0.00010104944300061864,1.570649939999999,0.7862701720000008,0.04,0.039999998,-9.810561999999988,0.003921388834715336,-0.006090945560014538,-0.0004751692920010852,-0.007701875455670416,-0.0018899626400043935
0.3625,0.00047653494250096966,-0.7842934499999984,6.546491250007941e-05,-2.3559472499999994,-0.00010577330375062294,1.570642049999999,0.7862767075000009,0.04,0.03999999875,-9.81047574999999,0.00392533175181642,-0.006201950600014638,-0.0004834560075010928,-0.007648085011162182,-0.001923511025004424
0.365,0.00048388779700097635,-0.7842814799999984,6.606713700007997e-05,-2.3559455399999996,-0.00011049716450062724,1.570634159999999,0.7862832430000009,0.04,0.0399999995,-9.810389499999989,0.003929274668917504,-0.006312955640014739,-0.0004917427230011003,-0.007594294566653948,-0.0019570594100044546
0.3675,0.0004915330600011003,-0.7842692349999982,6.669335450009014e-05,-2.3559435999999994,-0.00011540759875070638,1.5706259849999988,0.786290045000001,0.04,0.03999999975,-9.81030384999999,0.003932637511752759,-0.006426808900015984,-0.0005001612200011607,-0.007538134884081064,-0.001991180415004715
0.37,0.0004997631400011078,-0.7842564399999983,6.736755800009075e-05,-2.3559411999999993,-0.00012069118000071118,1.5706172399999987,0.7862973800000009,0.04,0.039999999,-9.810219399999989,0.003934840206057056,-0.006546358600016092,-0.0005088432800011687,-0.007477236725381723,-0.002026446660004747
0.3725,0.0005079932200011153,-0.7842436449999982,6.804176150009137e-05,-2.3559387999999997,-0.000125974761250716,1.5706084949999988,0.786304715000001,0.04,0.03999999825,-9.81013494999999,0.003937042900361353,-0.006665908300016201,-0.0005175253400011765,-0.007416338566682383,-0.002061712905004779
0.375,0.0005162233000011228,-0.7842308499999983,6.871596500009198e-05,-2.3559363999999996,-0.0001312583425007208,1.5705997499999989,0.786312050000001,0.04,0.0399999975,-9.810050499999988,0.00393924559466565,-0.00678545800001631,-0.0005262074000011844,-0.007355440407983043,-0.002096979150004811
0.3775,0.0005244533800011303,-0.7842180549999982,6.939016850009259e-05,-2.3559339999999995,-0.0001365419237507256,1.5705910049999987,0.786319385000001,0.04,0.03999999675,-9.809966049999987,0.003941448288969947,-0.006905007700016418,-0.0005348894600011923,-0.0072945422492837015,-0.002132245395004843
0.38,0.0005326834600011377,-0.7842052599999982,7.00643720000932e-05,-2.3559315999999995,-0.00014182550500073043,1.5705822599999988,0.786326720000001,0.04,0.039999996,-9.809881599999988,0.003943650983274244,-0.0070245574000165276,-0.0005435715200012003,-0.007233644090584361,-0.0021675116400048755
0.3825,0.0005409135400011452,-0.7841924649999982,7.073857550009381e-05,-2.3559291999999994,-0.00014710908625073524,1.5705735149999986,0.786334055000001,0.04,0.03999999525,-9.809797149999987,0.003945853677578541,-0.007144107100016637,-0.0005522535800012081,-0.007172745931885021,-0.0022027778850049074
0.385,0.0005497642400012832,-0.784179063999998,7.146372200010513e-05,-2.3559263999999995,-0.00015279069000082365,1.5705640899999986,0.7863419400000011,0.04,0.039999995,-9.809715499999989,0.003941763914189186,-0.007273302700018772,-0.000561364014001306,-0.007106870878478155,-0.0022396659000052804
0.3875,0.0005589252500012915,-0.784165359999998,7.221434000010583e-05,-2.3559233999999996,-0.00015867130500082902,1.5705543249999987,0.7863501000000012,0.04,0.039999995,-9.809635249999989,0.0039345279219549795,-0.007407321250018893,-0.0005706886350013145,-0.007038507377719088,-0.0022773648000053146
0.39,0.0005680862600012999,-0.784151655999998,7.29649580001065e-05,-2.3559203999999996,-0.00016455192000083436,1.5705445599999985,0.7863582600000012,0.04,0.039999995,-9.809554999999989,0.003927291929720774,-0.007541339800019016,-0.000580013256001323,-0.00697014387696002,-0.002315063700005349
0.3925,0.0005772472700013082,-0.784137951999998,7.371557600010718e-05,-2.3559173999999996,-0.00017043253500083973,1.5705347949999986,0.7863664200000011,0.04,0.039999995,-9.809474749999989,0.003920055937486567,-0.007675358350019137,-0.0005893378770013315,-0.006901780376200953,-0.0023527626000053835
0.395,0.0005864082800013165,-0.784124247999998,7.446619400010788e-05,-2.3559143999999996,-0.00017631315000084507,1.5705250299999987,0.7863745800000012,0.04,0.039999995,-9.80939449999999,0.00391281994525236,-0.0078093769000192595,-0.0005986624980013401,-0.006833416875441886,-0.0023904615000054177
0.3975,0.0005955692900013248,-0.784110543999998,7.521681200010856e-05,-2.3559113999999997,-0.00018219376500085044,1.5705152649999987,0.7863827400000012,0.04,0.039999995,-9.809314249999987,0.0039055839530181538,-0.007943395450019382,-0.0006079871190013485,-0.006765053374682819,-0.002428160400005452
0.4,0.0006047303000014765,-0.7840968399999979,7.596743000012101e-05,-2.3559083999999997,-0.00018807438000094804,1.5705054999999986,0.7863909000000013,0.04,0.039999995,-9.80923399999999,0.003898347960782946,-0.008077414000020943,-0.0006173117400014312,-0.006696689873922799,-0.0024658593000058387
0.4025,0.0006148758800014857,-0.7840821189999979,7.679891600012176e-05,-2.3559045299999997,-0.000194589028500954,1.5704946999999985,0.7863999390000014,0.03999999925,0.03999999575,-9.80916574999999,0.0038842344772980985,-0.008221322650021073,-0.0006271459215014401,-0.006621781643469011,-0.002505978825005875
0.405,0.0006250214600014949,-0.7840673979999978,7.763040200012252e-05,-2.3559006599999996,-0.0002011036770009599,1.5704838999999986,0.7864089780000013,0.0399999985,0.0399999965,-9.80909749999999,0.0038701209938132503,-0.008365231300021205,-0.000636980103001449,-0.006546873413015223,-0.0025460983500059115
0.40750000000000003,0.0006351670400015041,-0.7840526769999978,7.846188800012328e-05,-2.3558967899999996,-0.00020761832550096585,1.5704730999999985,0.7864180170000014,0.03999999775,0.03999999725,-9.80902924999999,0.0038560075103284026,-0.008509139950021337,-0.000646814284501458,-0.006471965182561434,-0.002586217875005948
0.41000000000000003,0.0006453126200015134,-0.7840379559999978,7.929337400012403e-05,-2.3558929199999996,-0.00021413297400097177,1.5704622999999984,0.7864270560000014,0.039999997,0.039999998,-9.80896099999999,0.0038418940268435545,-0.008653048600021467,-0.0006566484660014669,-0.006397056952107646,-0.002626337400005985
0.41250000000000003,0.0006554582000015227,-0.7840232349999978,8.012486000012479e-05,-2.3558890499999996,-0.00022064762250097772,1.5704514999999983,0.7864360950000013,0.03999999625,0.03999999875,-9.80889274999999,0.003827780543358707,-0.008796957250021598,-0.0006664826475014759,-0.006322148721653858,-0.002666456925006021
0.41500000000000004,0.0006656037800015319,-0.7840085139999978,8.095634600012555e-05,-2.3558851799999996,-0.00022716227100098363,1.5704406999999985,0.7864451340000014,0.0399999955,0.0399999995,-9.80882449999999,0.003813667059873859,-0.008940865900021728,-0.0006763168290014848,-0.00624724049120007,-0.0027065764500060576
0.4175,0.0006760953400016985,-0.7839934549999976,8.181624525013924e-05,-2.3558810749999997,-0.00023389913250109067,1.5704295349999982,0.7864544770000016,0.039999994750000004,0.04,-9.808749549999986,0.003797877999019658,-0.009091160850024767,-0.000686316605501569,-0.006169869028950621,-0.0027473833850064065
0.42,0.0006872788600017087,-0.7839777199999977,8.273297100014007e-05,-2.3558764999999995,-0.00024108042000109723,1.5704176399999983,0.7864644280000015,0.039999994000000004,0.04,-9.808661199999985,0.0037787377834290355,-0.009254228400024916,-0.0006966475720015784,-0.006087571103113206,-0.002789565140006445
0.4225,0.0006984623800017188,-0.7839619849999976,8.36496967501409e-05,-2.3558719249999993,-0.00024826170750110376,1.5704057449999982,0.7864743790000015,0.039999993250000004,0.04,-9.808572849999987,0.0037595975678384134,-0.009417295950025063,-0.0007069785385015879,-0.006005273177275791,-0.0028317468950064834
0.425,0.000709645900001729,-0.7839462499999976,8.456642250014174e-05,-2.355867349999999,-0.0002554429950011103,1.570393849999998,0.7864843300000015,0.0399999925,0.04,-9.808484499999986,0.003740457352247791,-0.009580363500025212,-0.0007173095050015972,-0.005922975251438376,-0.0028739286500065217
0.4275,0.0007208294200017393,-0.7839305149999976,8.548314825014257e-05,-2.3558627749999994,-0.00026262428250111683,1.5703819549999982,0.7864942810000015,0.03999999175,0.04,-9.808396149999986,0.0037213171366571682,-0.009743431050025361,-0.0007276404715016067,-0.005840677325600961,-0.00291611040500656
0.43,0.0007320129400017495,-0.7839147799999975,8.63998740001434e-05,-2.3558581999999992,-0.00026980557000112336,1.5703700599999981,0.7865042320000015,0.039999991,0.04,-9.808307799999985,0.003702176921066546,-0.00990649860002551,-0.0007379714380016161,-0.005758379399763546,-0.0029582921600065986
0.4325,0.0007431964600017597,-0.7838990449999975,8.731659975014424e-05,-2.355853624999999,-0.0002769868575011299,1.570358164999998,0.7865141830000015,0.03999999025,0.04,-9.808219449999985,0.0036830367054759235,-0.010069566150025657,-0.0007483024045016255,-0.005676081473926131,-0.003000473915006637
0.435,0.0007551073300019425,-0.7838825199999973,8.829306410015925e-05,-2.355848569999999,-0.0002846350900012473,1.5703455199999978,0.7865247900000018,0.039999989799999996,0.04,-9.808137299999988,0.0036589932395102473,-0.01023733000002692,-0.0007589529640017108,-0.005589011684045893,-0.003044112070007021
0.4375,0.0007673818750019536,-0.7838655999999973,8.929939775016017e-05,-2.355843274999999,-0.0002925167950012545,1.570332499999998,0.7865357250000017,0.0399999895,0.04,-9.808058249999988,0.0036324981483587832,-0.010407442000027075,-0.0007697633200017207,-0.005499555962145937,-0.003088478425007061
0.44,0.0007796564200019648,-0.7838486799999973,9.030573140016108e-05,-2.355837979999999,-0.00030039850000126165,1.570319479999998,0.7865466600000017,0.0399999892,0.04,-9.807979199999988,0.003606003057207319,-0.010577554000027231,-0.0007805736760017305,-0.00541010024024598,-0.0031328447800071015
0.4425,0.000791930965001976,-0.7838317599999972,9.1312065050162e-05,-2.355832684999999,-0.0003082802050012688,1.5703064599999979,0.7865575950000018,0.0399999889,0.04,-9.807900149999988,0.003579507966055855,-0.010747666000027386,-0.0007913840320017404,-0.005320644518346024,-0.0031772111350071423
0.445,0.0008042055100019872,-0.7838148399999972,9.231839870016291e-05,-2.355827389999999,-0.000316161910001276,1.570293439999998,0.7865685300000018,0.0399999886,0.04,-9.807821099999988,0.0035530128749043906,-0.01091777800002754,-0.0008021943880017502,-0.005231188796446067,-0.0032215774900071826
0.4475,0.0008164800550019984,-0.7837979199999972,9.332473235016383e-05,-2.3558220949999993,-0.0003240436150012832,1.570280419999998,0.7865794650000018,0.0399999883,0.04,-9.807742049999987,0.0035265177837529266,-0.011087890000027694,-0.0008130047440017599,-0.005141733074546111,-0.003265943845007223
0.45,0.0008287546000021968,-0.783780999999997,9.433106600018012e-05,-2.355816799999999,-0.0003319253200014104,1.5702673999999979,0.786590400000002,0.039999988,0.04,-9.80766299999999,0.003500022692599409,-0.011258002000032222,-0.0008238151000018716,-0.005052277352645119,-0.00331031020000762
0.4525,0.000842173030002209,-0.7837628394999969,9.543133370018112e-05,-2.355810679999999,-0.00034054031800141824,1.5702531949999978,0.7866023250000019,0.0399999874,0.04,-9.80760314999999,0.0034609842928992984,-0.011454828250032401,-0.000835247224001882,-0.004956493852644202,-0.0033568565200076624
0.455,0.0008555914600022212,-0.783744678999997,9.653160140018212e-05,-2.355804559999999,-0.0003491553160014261,1.5702389899999978,0.786614250000002,0.0399999868,0.04,-9.80754329999999,0.003421945893199188,-0.01165165450003258,-0.0008466793480018924,-0.004860710352643284,-0.003403402840007705
0.4575,0.0008690098900022334,-0.783726518499997,9.763186910018312e-05,-2.355798439999999,-0.00035777031400143394,1.5702247849999977,0.786626175000002,0.039999986200000004,0.04,-9.80748344999999,0.0033829074934990776,-0.01184848075003276,-0.0008581114720019029,-0.004764926852642367,-0.0034499491600077474
0.46,0.0008824283200022456,-0.7837083579999969,9.873213680018413e-05,-2.355792319999999,-0.00036638531200144177,1.5702105799999977,0.786638100000002,0.0399999856,0.04,-9.80742359999999,0.003343869093798967,-0.01204530700003294,-0.0008695435960019133,-0.00466914335264145,-0.0034964954800077897
0.4625,0.0008958467500022578,-0.7836901974999969,9.983240450018513e-05,-2.355786199999999,-0.00037500031000144965,1.5701963749999976,0.786650025000002,0.039999985,0.04,-9.80736374999999,0.0033048306940988564,-0.01224213325003312,-0.0008809757200019236,-0.004573359852640533,-0.003543041800007832
0.465,0.0009092651800022701,-0.7836720369999969,0.00010093267220018614,-2.355780079999999,-0.0003836153080014575,1.5701821699999976,0.786661950000002,0.0399999844,0.04,-9.80730389999999,0.003265792294398746,-0.012438959500033299,-0.0008924078440019341,-0.004477576352639615,-0.003589588120007874
0.4675,0.0009230823250024857,-0.7836534234999967,0.00010206569880020385,-2.355773699999999,-0.0003924858780015957,1.5701675349999975,0.7866742350000022,0.0399999838,0.03999999975,-9.807240249999987,0.003227019868784551,-0.012639173350035206,-0.0009039557670020036,-0.004379607946594468,-0.0036368140200082636
0.47000000000000003,0.000937696900002499,-0.7836339039999967,0.00010326424320020495,-2.3557667999999987,-0.00040186759200160424,1.5701520399999973,0.7866872400000022,0.0399999832,0.039999999,-9.807168999999988,0.003188779391341781,-0.012846162400035395,-0.0009157352880020143,-0.0042772697284642,-0.0036853990800083075
0.47250000000000003,0.0009523114750025123,-0.7836143844999967,0.00010446278760020603,-2.355759899999999,-0.0004112493060016128,1.5701365449999973,0.7867002450000022,0.0399999826,0.03999999825,-9.807097749999988,0.003150538913899011,-0.013053151450035582,-0.000927514809002025,-0.004174931510333932,-0.003733984140008352
0.47500000000000003,0.0009669260500025257,-0.7835948649999966,0.00010566133200020713,-2.3557529999999987,-0.0004206310200016213,1.5701210499999974,0.7867132500000023,0.039999981999999996,0.0399999975,-9.807026499999989,0.0031122984364562417,-0.013260140500035772,-0.0009392943300020358,-0.004072593292203664,-0.003782569200008396
0.47750000000000004,0.000981540625002539,-0.7835753454999966,0.00010685987640020823,-2.355746099999999,-0.0004300127340016299,1.5701055549999974,0.7867262550000023,0.0399999814,0.03999999675,-9.806955249999987,0.0030740579590134718,-0.013467129550035959,-0.0009510738510020465,-0.003970255074073396,-0.0038311542600084404
0.48,0.000996155200002552,-0.7835558259999966,0.00010805842080020928,-2.3557391999999986,-0.0004393944480016382,1.5700900599999972,0.7867392600000023,0.0399999808,0.039999996,-9.806883999999988,0.0030358174815707027,-0.013674118600036143,-0.0009628533720020569,-0.00386791685594313,-0.0038797393200084834
0.4825,0.0010107697750025653,-0.7835363064999966,0.00010925696520021038,-2.355732299999999,-0.00044877616200164676,1.5700745649999972,0.7867522650000023,0.0399999802,0.03999999525,-9.806812749999988,0.0029975770041279328,-0.013881107650036332,-0.0009746328930020677,-0.003765578637812862,-0.003928324380008528
0.485,0.0010262164500027986,-0.7835158399999964,0.00011052386800022957,-2.3557248299999984,-0.0004586912200017964,1.570058189999997,0.7867660030000025,0.0399999797,0.039999994500000004,-9.80674919999999,0.0029503869824020145,-0.01410377920004067,-0.000986761740002171,-0.0036591928219230525,-0.003978348390008953
0.4875,0.0010420791750028132,-0.7834948999999963,0.00011182495000023075,-2.3557170749999985,-0.0004688729500018057,1.570041374999997,0.7867801075000025,0.03999997925,0.039999993750000004,-9.80668949999999,0.0028987221885380626,-0.01433429200004088,-0.000999065250002182,-0.003550783207155074,-0.004029091875008999
0.49,0.0010579419000028276,-0.7834739599999964,0.00011312603200023193,-2.3557093199999986,-0.00047905468000181497,1.570024559999997,0.7867942120000025,0.039999978799999995,0.039999993000000005,-9.806629799999989,0.0028470573946741103,-0.01456480480004109,-0.0010113687600021932,-0.0034423735923870954,-0.0040798353600090456
0.4925,0.001073804625002842,-0.7834530199999963,0.00011442711400023312,-2.3557015649999986,-0.0004892364100018243,1.570007744999997,0.7868083165000025,0.03999997835,0.03999999225,-9.80657009999999,0.0027953926008101584,-0.0147953176000413,-0.0010236722700022044,-0.0033339639776191164,-0.0041305788450090915
0.495,0.0010896673500028565,-0.7834320799999963,0.0001157281960002343,-2.3556938099999987,-0.0004994181400018334,1.569990929999997,0.7868224210000025,0.0399999779,0.0399999915,-9.80651039999999,0.0027437278069462065,-0.01502583040004151,-0.0010359757800022158,-0.003225554362851138,-0.0041813223300091375
0.4975,0.0011055300750028709,-0.7834111399999962,0.00011702927800023548,-2.3556860549999987,-0.0005095998700018427,1.5699741149999968,0.7868365255000026,0.03999997745,0.03999999075,-9.806450699999989,0.0026920630130822546,-0.01525634320004172,-0.001048279290002227,-0.0031171447480831593,-0.0042320658150091835
0.5,0.0011213928000031218,-0.7833901999999959,0.00011833036000025609,-2.3556782999999983,-0.0005197816000020036,1.5699572999999967,0.7868506300000028,0.039999977,0.03999999,-9.806390999999987,0.0026403982192164687,-0.015486856000045396,-0.0010605828000023346,-0.003008735133314038,-0.004282809300009644
0.5025000000000001,0.0011385550350031378,-0.783367824499996,0.00011973819550025739,-2.3556697499999983,-0.0005307962950020137,1.5699391049999967,0.7868659015000028,0.0399999764,0.03999999,-9.806322149999987,0.002578651392821021,-0.015736418650045627,-0.0010734171150023465,-0.002894044015535516,-0.004335826905009693
0.505,0.001155717270003153,-0.7833454489999959,0.00012114603100025864,-2.3556611999999983,-0.0005418109900020236,1.5699209099999967,0.7868811730000028,0.0399999758,0.03999999,-9.806253299999987,0.002516904566425576,-0.01598598130004585,-0.001086251430002358,-0.002779352897756999,-0.00438884451000974
0.5075000000000001,0.001172879505003169,-0.7833230734999959,0.00012255386650025996,-2.3556526499999983,-0.0005528256850020339,1.5699027149999967,0.7868964445000028,0.0399999752,0.03999999,-9.806184449999988,0.0024551577400301287,-0.01623554395004608,-0.00109908574500237,-0.0026646617799784772,-0.004441862115009789
0.51,0.0011900417400031844,-0.7833006979999959,0.0001239617020002612,-2.3556440999999984,-0.0005638403800020436,1.5698845199999967,0.7869117160000029,0.0399999746,0.03999999,-9.806115599999988,0.002393410913634684,-0.016485106600046304,-0.0011119200600023813,-0.00254997066219996,-0.004494879720009837
0.5125,0.0012072039750031995,-0.7832783224999958,0.00012536953750026246,-2.3556355499999984,-0.0005748550750020534,1.5698663249999967,0.7869269875000028,0.039999974,0.03999999,-9.806046749999988,0.0023316640872392386,-0.016734669250046526,-0.0011247543750023928,-0.002435279544421443,-0.004547897325009884
0.515,0.0012243662100032155,-0.7832559469999958,0.00012677737300026377,-2.3556269999999984,-0.0005858697700020637,1.5698481299999967,0.7869422590000028,0.0399999734,0.03999999,-9.805977899999988,0.002269917260843791,-0.01698423190004676,-0.0011375886900024047,-0.0023205884266429212,-0.004600914930009933
0.5175,0.001241978530003485,-0.7832330634999956,0.0001282221950002859,-2.3556181649999983,-0.0005971729300022363,1.5698294699999964,0.7869579280000031,0.03999997285,0.0399999899,-9.80591489999999,0.002205394976759104,-0.01724006145005052,-0.001150587435002509,-0.0022039642906520377,-0.004654600615010358
0.52,0.0012604910200035022,-0.7832091639999955,0.00012974099000028733,-2.355608759999998,-0.0006090530200022475,1.5698098799999962,0.7869743920000031,0.0399999724,0.0399999896,-9.805863599999991,0.0021353217773006235,-0.017508424800050767,-0.0011639150400025214,-0.0020834741182396855,-0.004709622460010409
0.5225,0.0012790035100035187,-0.7831852644999955,0.00013125978500028867,-2.3555993549999985,-0.000620933110002258,1.5697902899999963,0.7869908560000032,0.039999971950000004,0.0399999893,-9.80581229999999,0.002065248577842146,-0.017776788150051008,-0.0011772426450025332,-0.001962983945827338,-0.004764644305010458
0.525,0.0012975160000035359,-0.7831613649999954,0.0001327785800002901,-2.3555899499999984,-0.0006328132000022692,1.5697706999999963,0.7870073200000032,0.0399999715,0.039999989,-9.80576099999999,0.001995175378383666,-0.018045151500051256,-0.0011905702500025457,-0.0018424937734149859,-0.004819666150010509
0.5275,0.0013160284900035524,-0.7831374654999954,0.00013429737500029144,-2.3555805449999982,-0.0006446932900022797,1.5697511099999961,0.7870237840000032,0.03999997105,0.0399999887,-9.80570969999999,0.0019251021789251886,-0.018313514850051494,-0.0012038978550025575,-0.0017220036010026389,-0.004874687995010557
0.53,0.0013345409800035696,-0.7831135659999954,0.00013581617000029287,-2.3555711399999986,-0.0006565733800022907,1.5697315199999962,0.7870402480000032,0.039999970600000004,0.0399999884,-9.80565839999999,0.0018550289794667084,-0.018581878200051746,-0.0012172254600025698,-0.0016015134285902867,-0.004929709840010609
0.5325,0.001353053470003586,-0.7830896664999953,0.00013733496500029421,-2.3555617349999984,-0.0006684534700023014,1.5697119299999962,0.7870567120000033,0.03999997015,0.0399999881,-9.80560709999999,0.0017849557800082311,-0.018850241550051983,-0.0012305530650025818,-0.0014810232561779397,-0.004984731685010658
0.535,0.0013724996100038759,-0.783064739999995,0.00013893047300031803,-2.355551709999998,-0.0006809319300024871,1.5696913399999959,0.7870740100000035,0.03999997,0.039999988,-9.805552999999989,0.0017078152857563373,-0.019132517400056295,-0.001244212540002691,-0.0013566393870614304,-0.005041164420011121
0.5375,0.0013924125750038934,-0.783039299999995,0.00014056433750031947,-2.3555413749999983,-0.0006937095750024985,1.5696702499999957,0.7870917250000035,0.03999997,0.039999988,-9.805497499999989,0.0016271411441108256,-0.019421749500056554,-0.0012580379500027033,-0.001230308669594548,-0.005098302600011172
0.54,0.0014123255400039121,-0.783013859999995,0.000142198202000321,-2.355531039999998,-0.0007064872200025104,1.5696491599999958,0.7871094400000035,0.03999997,0.039999988,-9.805441999999989,0.0015464670024653104,-0.019710981600056823,-0.0012718633600027163,-0.0011039779521276605,-0.005155440780011226
0.5425,0.00143223850500393,-0.782988419999995,0.00014383206650032246,-2.355520704999998,-0.0007192648650025217,1.5696280699999958,0.7871271550000035,0.03999997,0.039999988,-9.80538649999999,0.0014657928608197987,-0.02000021370005708,-0.0012856887700027284,-0.0009776472346607781,-0.005212578960011276
0.545,0.0014521514700039484,-0.782962979999995,0.00014546593100032398,-2.355510369999998,-0.0007320425100025336,1.5696069799999959,0.7871448700000035,0.03999997,0.039999988,-9.80533099999999,0.0013851187191742836,-0.02028944580005735,-0.0012995141800027413,-0.0008513165171938903,-0.005269717140011329
0.5475,0.0014720644350039661,-0.7829375399999949,0.00014709979550032542,-2.355500034999998,-0.000744820155002545,1.5695858899999957,0.7871625850000036,0.03999997,0.039999988,-9.80527549999999,0.0013044445775287719,-0.02057867790005761,-0.0013133395900027536,-0.0007249857997270082,-0.00532685532001138
0.55,0.0014919774000042747,-0.7829120999999946,0.0001487336600003508,-2.355489699999998,-0.0007575978000027428,1.5695647999999955,0.7871803000000038,0.03999997,0.039999988,-9.805219999999988,0.0012237704358813491,-0.02086791000006144,-0.001327165000002857,-0.0005986550822588854,-0.005383993500011854
0.5525,0.0015133402350042938,-0.7828849649999945,0.00015048668900035235,-2.3554784949999976,-0.0007713046800027551,1.5695422249999955,0.7871992990000038,0.03999997,0.039999988,-9.805153999999987,0.001133564463798359,-0.02117494470006171,-0.0013414428250028696,-0.00046615297030323273,-0.005443233825011907
0.555,0.0015347030700043137,-0.7828578299999945,0.000152239718000354,-2.3554672899999978,-0.0007850115600027677,1.5695196499999955,0.7872182980000039,0.03999997,0.039999988,-9.805087999999987,0.001043358491715365,-0.021481979400062,-0.001355720650002883,-0.0003336508583475742,-0.005502474150011962
0.5575,0.0015560659050043327,-0.7828306949999945,0.00015399274700035555,-2.355456084999998,-0.00079871844000278,1.5694970749999955,0.7872372970000039,0.03999997,0.039999988,-9.805021999999987,0.0009531525196323748,-0.02178901410006227,-0.0013699984750028956,-0.00020114874639192147,-0.005561714475012015
0.56,0.0015774287400043526,-0.7828035599999944,0.00015574577600035717,-2.3554448799999976,-0.0008124253200027928,1.5694744999999954,0.7872562960000039,0.03999997,0.039999988,-9.804955999999986,0.0008629465475493807,-0.022096048800062558,-0.001384276300002909,-6.864663443626286e-05,-0.0056209548000120705
0.5625,0.0015987915750043716,-0.7827764249999944,0.00015749880500035872,-2.355433674999998,-0.0008261322000028049,1.5694519249999954,0.7872752950000039,0.03999997,0.039999988,-9.804889999999986,0.0007727405754663905,-0.02240308350006283,-0.0013985541250029216,6.385547751938973e-05,-0.005680195125012123
0.5650000000000001,0.0016201544100043915,-0.7827492899999944,0.00015925183400036037,-2.3554224699999975,-0.0008398390800028177,1.5694293499999954,0.787294294000004,0.03999997,0.039999988,-9.804823999999986,0.0006825346033833964,-0.022710118200063117,-0.001412831950002935,0.0001963575894750484,-0.005739435450012178
0.5675,0.00164201685500472,-0.782721559999994,0.00016104592050038735,-2.355410974999997,-0.0008538661470030282,1.569406244999995,0.7873137400000042,0.03999997,0.0399999881,-9.804763449999989,0.0005883971228984279,-0.02302748985006979,-0.0014272473000030328,0.0003307086503184712,-0.005799414475012688
0.5700000000000001,0.0016648785200047414,-0.7826926399999939,0.0001629221220003891,-2.3553988999999973,-0.0008685335880030419,1.569382079999995,0.7873340800000043,0.03999997,0.0399999884,-9.80471379999999,0.0004863966256167929,-0.023365535400070105,-0.0014419377000030465,0.00046875760893400997,-0.0058608709000127455
0.5725,0.0016877401850047616,-0.782663719999994,0.00016479832350039077,-2.3553868249999974,-0.0008832010290030549,1.569357914999995,0.7873544200000042,0.03999997,0.0399999887,-9.804664149999988,0.0003843961283351625,-0.023703580950070406,-0.0014566281000030596,0.0006068065675495426,-0.0059223273250128
0.5750000000000001,0.0017106018500047829,-0.782634799999994,0.0001666745250003925,-2.3553747499999975,-0.0008978684700030686,1.5693337499999949,0.7873747600000043,0.03999997,0.039999989,-9.804614499999989,0.0002823956310535275,-0.02404162650007072,-0.0014713185000030733,0.0007448555261650813,-0.005983783750012858
0.5775,0.0017334635150048033,-0.7826058799999939,0.0001685507265003942,-2.3553626749999976,-0.0009125359110030816,1.569309584999995,0.7873951000000042,0.03999997,0.0399999893,-9.80456484999999,0.00018039513377189707,-0.024379672050071022,-0.0014860089000030864,0.000882904484780614,-0.0060452401750129125
0.58,0.0017563251800048235,-0.7825769599999939,0.00017042692800039585,-2.3553505999999973,-0.0009272033520030946,1.5692854199999948,0.7874154400000043,0.03999997,0.0399999896,-9.80451519999999,7.83946364902666e-05,-0.024717717600071323,-0.0015006993000030995,0.0010209534433961466,-0.006106696600012967
0.5825,0.0017791868450048448,-0.7825480399999938,0.0001723031295003976,-2.3553385249999974,-0.0009418707930031083,1.5692612549999947,0.7874357800000044,0.03999997,0.0399999899,-9.804465549999989,-2.3605860791368416e-05,-0.02505576315007164,-0.0015153897000031132,0.0011590024020116853,-0.006168153025013024
0.585,0.0018030797300051943,-0.7825179399999934,0.00017426406400042633,-2.355325779999997,-0.0009571990760033323,1.5692359899999944,0.7874570380000047,0.03999997,0.03999999,-9.804419349999991,-0.00013221148403879413,-0.025410946900077412,-0.0015304315400032384,0.0013004955835945174,-0.006230903080013492
0.5875,0.001827488225005217,-0.7824872499999934,0.00017626736500042818,-2.355312699999997,-0.0009728577800033469,1.5692101749999945,0.7874787550000046,0.03999997,0.03999999,-9.80437487499999,-0.00024411967026596862,-0.025774699750077748,-0.0015456491000032525,0.001443710876659361,-0.006294299950013551
0.59,0.0018518967200052386,-0.7824565599999934,0.00017827066600042998,-2.355299619999997,-0.0009885164840033609,1.5691843599999944,0.7875004720000046,0.03999997,0.03999999,-9.80433039999999,-0.00035602785649313816,-0.026138452600078074,-0.0015608666600032662,0.001586926169724198,-0.006357696820013607
0.5925,0.0018763052150052614,-0.7824258699999933,0.00018027396700043182,-2.355286539999997,-0.0010041751880033754,1.5691585449999943,0.7875221890000047,0.03999997,0.03999999,-9.804285924999991,-0.0004679360427203126,-0.026502205450078413,-0.0015760842200032803,0.0017301414627890416,-0.006421093690013666
0.595,0.0019007137100052831,-0.7823951799999933,0.00018227726800043362,-2.355273459999997,-0.0010198338920033893,1.5691327299999944,0.7875439060000047,0.03999997,0.03999999,-9.80424144999999,-0.0005798442289474821,-0.026865958300078735,-0.0015913017800032938,0.001873356755853879,-0.006484490560013722
0.5975,0.001925122205005306,-0.7823644899999933,0.0001842805690004355,-2.355260379999997,-0.001035492596003404,1.5691069149999943,0.7875656230000047,0.03999997,0.03999999,-9.804196974999991,-0.0006917524151746566,-0.027229711150079074,-0.001606519340003308,0.0020165720489187227,-0.006547887430013781
0.6,0.0019495307000056755,-0.7823337999999929,0.00018628387000046585,-2.3552472999999967,-0.0010511513000036408,1.569081099999994,0.787587340000005,0.03999997,0.03999999,-9.804152499999988,-0.0008036606014044141,-0.02759346400008378,-0.001621736900003426,0.002159787341984748,-0.006611284300014285
0.6025,0.0019755333050056998,-0.7823012499999928,0.00018841820350046784,-2.3552332749999967,-0.0010678315850036564,1.569053604999994,0.7876104700000051,0.03999997,0.03999999,-9.804095274999987,-0.0009274252690645295,-0.027977290600084137,-0.001637433845003441,0.002308447205028457,-0.006676733905014346
0.605,0.0020015359100057227,-0.7822686999999928,0.00019055253700046975,-2.3552192499999967,-0.0010845118700036711,1.569026109999994,0.787633600000005,0.03999997,0.03999999,-9.804038049999988,-0.0010511899367246394,-0.02836111720008448,-0.0016531307900034548,0.0024571070680721586,-0.0067421835100144045
0.6075,0.0020275385150057474,-0.7822361499999928,0.00019268687050047175,-2.3552052249999966,-0.0011011921550036867,1.568998614999994,0.787656730000005,0.03999997,0.03999999,-9.803980824999988,-0.0011749546043847549,-0.028744943800084834,-0.0016688277350034694,0.0026057669311158674,-0.006807633115014466
0.61,0.0020535411200057704,-0.7822035999999928,0.00019482120400047363,-2.355191199999997,-0.0011178724400037014,1.5689711199999938,0.7876798600000051,0.03999997,0.03999999,-9.803923599999987,-0.0012987192720448648,-0.029128770400085175,-0.0016845246800034834,0.002754426794159569,-0.006873082720014524
0.6125,0.0020795437250057947,-0.7821710499999927,0.00019695553750047562,-2.355177174999997,-0.001134552725003717,1.568943624999994,0.7877029900000051,0.03999997,0.03999999,-9.803866374999988,-0.00142248393970498,-0.029512597000085534,-0.001700221625003498,0.002903086657203278,-0.006938532325014585
0.615,0.0021055463300058176,-0.7821384999999926,0.0001990898710004775,-2.355163149999997,-0.0011512330100037318,1.5689161299999939,0.7877261200000052,0.03999997,0.03999999,-9.803809149999987,-0.0015462486073650901,-0.029896423600085875,-0.001715918570003512,0.0030517465202469798,-0.007003981930014644
0.6175,0.0021320958450062105,-0.7821052999999922,0.0002012691615005098,-2.355148779999997,-0.0011682637700039836,1.5688880599999935,0.7877497355000055,0.0399999698,0.03999999,-9.80375714999999,-0.0016741710715301229,-0.03028938310009239,-0.0017317455250036142,0.0032020844868728944,-0.00707015233001519
0.62,0.002159739180006235,-0.7820707999999922,0.00020353836600051181,-2.355133719999997,-0.0011859954800039995,1.5688588399999934,0.7877743220000055,0.0399999692,0.03999999,-9.80371559999999,-0.0018104091286965888,-0.03070060840009275,-0.0017478325000036285,0.003355778660659826,-0.00713776432001525
0.6225,0.002187382515006261,-0.7820362999999921,0.00020580757050051393,-2.3551186599999965,-0.001203727190004016,1.5688296199999934,0.7877989085000056,0.0399999686,0.03999999,-9.80367404999999,-0.001946647185863061,-0.031111833700093138,-0.0017639194750036435,0.0035094728344467643,-0.007205376310015313
0.625,0.0022150258500062857,-0.7820017999999921,0.00020807677500051596,-2.3551035999999965,-0.0012214589000040317,1.5688003999999933,0.7878234950000056,0.039999968,0.03999999,-9.80363249999999,-0.002082885243029527,-0.0315230590000935,-0.0017800064500036578,0.003663167008233696,-0.007272988300015373
0.6275000000000001,0.002242669185006311,-0.7819672999999921,0.00021034597950051807,-2.3550885399999966,-0.0012391906100040484,1.5687711799999933,0.7878480815000056,0.0399999674,0.03999999,-9.803590949999991,-0.002219123300195999,-0.03193428430009389,-0.0017960934250036728,0.003816861182020634,-0.007340600290015436
0.63,0.0022703125200063358,-0.7819327999999921,0.0002126151840005201,-2.3550734799999966,-0.001256922320004064,1.5687419599999932,0.7878726680000057,0.0399999668,0.03999999,-9.80354939999999,-0.002355361357362465,-0.032345509600094254,-0.0018121804000036871,0.0039705553558075654,-0.007408212280015496
0.6325000000000001,0.0022979558550063617,-0.781898299999992,0.0002148843885005222,-2.3550584199999967,-0.0012746540300040807,1.5687127399999932,0.7878972545000057,0.0399999662,0.03999999,-9.80350784999999,-0.002491599414528937,-0.03275673490009463,-0.001828267375003702,0.004124249529594504,-0.007475824270015559
0.635,0.0023267233200067756,-0.7818624799999916,0.00021724599200055624,-2.3550426699999965,-0.001293106080004346,1.5686823299999928,0.787922845000006,0.0399999654,0.039999989799999996,-9.803456399999988,-0.002634890098158627,-0.033186996000101596,-0.0018446340900038134,0.004281499562821737,-0.007544696840016056
0.6375000000000001,0.0023560528500068028,-0.7818259999999916,0.0002196537950005585,-2.355026574999996,-0.0013119183000043636,1.5686513249999927,0.787948937500006,0.0399999645,0.0399999895,-9.803399999999987,-0.002781707095016279,-0.033626775000102006,-0.0018611406750038287,0.004440527525767286,-0.007614199700016121
0.64,0.002385382380006829,-0.7817895199999915,0.00022206159800056062,-2.3550104799999962,-0.0013307305200043803,1.5686203199999929,0.7879750300000061,0.0399999636,0.0399999892,-9.803343599999987,-0.0029285240918739243,-0.034066554000102396,-0.0018776472600038434,0.004599555488712827,-0.0076837025600161825
0.6425,0.002414711910006855,-0.7817530399999915,0.00022446940100056276,-2.3549943849999964,-0.001349542740004397,1.5685893149999928,0.7880011225000061,0.0399999627,0.0399999889,-9.803287199999987,-0.00307534108873157,-0.034506333000102786,-0.0018941538450038579,0.004758583451658369,-0.007753205420016244
0.645,0.002444041440006882,-0.7817165599999915,0.000226877204000565,-2.354978289999996,-0.0013683549600044145,1.5685583099999927,0.7880272150000062,0.0399999618,0.0399999886,-9.803230799999987,-0.0032221580855892216,-0.0349461120001032,-0.0019106604300038734,0.004917611414603917,-0.00782270828001631
0.6475,0.002473370970006908,-0.7816800799999915,0.00022928500700056714,-2.354962194999996,-0.0013871671800044312,1.5685273049999928,0.7880533075000061,0.0399999609,0.0399999883,-9.803174399999987,-0.0033689750824468672,-0.035385891000103586,-0.001927167015003888,0.005076639377549459,-0.007892211140016371
0.65,0.002502700500007345,-0.7816435999999909,0.00023169281000060305,-2.354946099999996,-0.0014059794000047111,1.5684962999999923,0.7880794000000065,0.03999996,0.039999988,-9.803117999999989,-0.0035157920793077377,-0.035825670000110284,-0.0019436736000039993,0.0052356673404961316,-0.00796171400001691
0.6525,0.0025337614650073727,-0.7816050649999908,0.00023424294350060532,-2.3549290449999956,-0.0014259010650047288,1.5684634799999924,0.7881070150000066,0.0399999591,0.0399999868,-9.80307629999999,-0.0036762200296305203,-0.0362920470001107,-0.0019605858150040143,0.005399449518920572,-0.008033218700016973
0.655,0.0025648224300074017,-0.7815665299999908,0.0002367930770006077,-2.3549119899999957,-0.0014458227300047472,1.5684306599999922,0.7881346300000066,0.0399999582,0.039999985599999996,-9.80303459999999,-0.00383664797995331,-0.03675842400011113,-0.00197749803000403,0.0055632316973450195,-0.00810472340001704
0.6575,0.0025958833950074293,-0.7815279949999908,0.00023934321050060996,-2.354894934999996,-0.001465744395004765,1.5683978399999923,0.7881622450000066,0.0399999573,0.0399999844,-9.802992899999989,-0.003997075930276092,-0.03722480100011155,-0.001994410245004045,0.00572701387576946,-0.008176228100017103
0.66,0.0026269443600074583,-0.7814894599999908,0.00024189334400061233,-2.3548778799999956,-0.0014856660600047835,1.5683650199999921,0.7881898600000067,0.0399999564,0.0399999832,-9.80295119999999,-0.004157503880598882,-0.037691178000111986,-0.0020113224600040607,0.005890796054193907,-0.00824773280001717
0.6625,0.002658005325007486,-0.7814509249999907,0.0002444434775006146,-2.354860824999996,-0.0015055877250048013,1.5683321999999922,0.7882174750000066,0.039999955499999996,0.039999981999999996,-9.80290949999999,-0.0043179318309216645,-0.0381575550001124,-0.002028234675004076,0.006054578232618348,-0.008319237500017233
0.665,0.002689066290007515,-0.7814123899999906,0.00024699361100061695,-2.3548437699999956,-0.0015255093900048197,1.568299379999992,0.7882450900000066,0.0399999546,0.039999980799999994,-9.802867799999989,-0.004478359781244454,-0.03862393200011283,-0.0020451468900040915,0.006218360411042796,-0.0083907422000173
0.6675,0.0027207190050079736,-0.7813731449999901,0.0002495923935006547,-2.3548263799999956,-0.0015458102400051138,1.5682659299999915,0.7882732350000071,0.039999953799999995,0.03999998,-9.80282674999999,-0.004643327184063729,-0.03910045440012064,-0.002062193065004204,0.006383680831681787,-0.008462949400017874
0.67,0.0027535552200080044,-0.7813324799999901,0.0002522884740006572,-2.3548083199999956,-0.0015668694600051334,1.5682312199999915,0.7883024400000072,0.0399999532,0.03999998,-9.80278699999999,-0.004817373491866086,-0.039597267600121104,-0.0020795071600042203,0.006552077736746528,-0.008536561600017943
0.6725,0.0027863914350080335,-0.78129181499999,0.00025498455450065956,-2.3547902599999957,-0.001587928680005152,1.5681965099999915,0.7883316450000072,0.0399999526,0.03999998,-9.80274724999999,-0.004991419799668435,-0.04009408080012154,-0.0020968212550042356,0.006720474641811263,-0.008610173800018009
0.675,0.002819227650008064,-0.78125114999999,0.0002576806350006621,-2.3547721999999958,-0.0016089879000051716,1.5681617999999915,0.7883608500000072,0.039999952,0.03999998,-9.80270749999999,-0.005165466107470792,-0.04059089400012201,-0.0021141353500042518,0.006888871546876005,-0.008683786000018078
0.6775,0.002852063865008093,-0.78121048499999,0.0002603767155006645,-2.3547541399999954,-0.0016300471200051904,1.5681270899999915,0.7883900550000073,0.0399999514,0.03999998,-9.802667749999989,-0.0053395124152731425,-0.04108770720012245,-0.0021314494450042675,0.007057268451940739,-0.008757398200018142
0.68,0.002884900080008124,-0.7811698199999899,0.000263072796000667,-2.3547360799999955,-0.00165110634000521,1.5680923799999915,0.7884192600000072,0.039999950799999996,0.03999998,-9.80262799999999,-0.0055135587230755,-0.041584520400122914,-0.0021487635400042836,0.007225665357005482,-0.008831010400018212
0.6825,0.002917736295008153,-0.7811291549999899,0.0002657688765006694,-2.3547180199999955,-0.0016721655600052288,1.5680576699999915,0.7884484650000072,0.0399999502,0.03999998,-9.802588249999989,-0.005687605030877849,-0.04208133360012335,-0.002166077635004299,0.007394062262070216,-0.008904622600018277
0.685,0.002951784780008637,-0.7810870659999893,0.00026856460300070915,-2.3546992699999953,-0.0016940015600055388,1.568021669999991,0.7884787540000077,0.0399999497,0.0399999797,-9.80255279999999,-0.005869293678598103,-0.04259782320013117,-0.002183669550004419,0.007565318560270737,-0.008979459900018805
0.6875,0.0029864394000086677,-0.7810442649999894,0.0002714101525007117,-2.3546801749999955,-0.0017162259500055586,1.567985024999991,0.7885095850000077,0.03999994925,0.03999997925,-9.802519499999992,-0.006054803496273023,-0.04312415100013164,-0.0022014003750044347,0.00773800455503754,-0.009054909750018872
0.6900000000000001,0.0030210940200086998,-0.7810014639999893,0.0002742557020007144,-2.354661079999995,-0.0017384503400055794,1.567948379999991,0.7885404160000077,0.0399999488,0.039999978799999995,-9.802486199999992,-0.006240313313947951,-0.04365047880013213,-0.002219131200004451,0.007910690549804351,-0.009130359600018942
0.6925,0.0030557486400087305,-0.7809586629999892,0.0002771012515007169,-2.3546419849999953,-0.0017606747300055992,1.567911734999991,0.7885712470000077,0.03999994835,0.03999997835,-9.802452899999992,-0.006425823131622871,-0.044176806600132595,-0.002236862025004467,0.008083376544571155,-0.009205809450019009
0.6950000000000001,0.003090403260008763,-0.7809158619999892,0.0002799468010007196,-2.3546228899999955,-0.00178289912000562,1.5678750899999907,0.7886020780000078,0.0399999479,0.0399999779,-9.802419599999991,-0.0066113329492977985,-0.044703134400133085,-0.0022545928500044836,0.008256062539337966,-0.009281259300019079
0.6975,0.003125057880008794,-0.7808730609999891,0.0002827923505007221,-2.354603794999995,-0.0018051235100056396,1.5678384449999907,0.7886329090000078,0.039999947450000004,0.03999997745,-9.802386299999991,-0.006796842766972719,-0.045229462200133554,-0.002272323675004499,0.008428748534104769,-0.009356709150019146
0.7000000000000001,0.0031597125000093,-0.7808302599999886,0.0002856379000007637,-2.354584699999995,-0.001827347900005964,1.5678017999999903,0.7886637400000083,0.039999947,0.039999977,-9.802352999999991,-0.006982352584653196,-0.045755790000142564,-0.00229005450000462,0.008601434528872678,-0.009432159000019745
0.7025,0.0031962278400093323,-0.7807852269999885,0.00028863642250076635,-2.354564524999995,-0.0018507646100059847,1.5677632499999903,0.7886962240000083,0.0399999464,0.039999977,-9.802319249999991,-0.007189653394796736,-0.04631556600014306,-0.002308195095004636,0.008778434339955921,-0.009509685375019814
0.705,0.0032327431800093648,-0.7807401939999885,0.000291634945000769,-2.354544349999995,-0.0018741813200060056,1.56772469999999,0.7887287080000083,0.0399999458,0.039999977,-9.802285499999991,-0.007396954204940275,-0.04687534200014356,-0.0023263356900046525,0.008955434151039164,-0.009587211750019883
0.7075,0.003269258520009399,-0.7806951609999884,0.0002946334675007718,-2.354524174999995,-0.0018975980300060273,1.5676861499999901,0.7887611920000083,0.039999945200000005,0.039999977,-9.802251749999991,-0.007604255015083823,-0.04743511800014408,-0.0023444762850046695,0.009132433962122414,-0.009664738125019955
0.71,0.0033057738600094314,-0.7806501279999883,0.00029763199000077447,-2.354503999999995,-0.0019210147400060482,1.5676475999999901,0.7887936760000084,0.039999944600000004,0.039999977,-9.802217999999991,-0.007811555825227362,-0.047994894000144575,-0.0023626168800046855,0.009309433773205656,-0.009742264500020024
0.7125,0.003342289200009465,-0.7806050949999883,0.0003006305125007773,-2.3544838249999946,-0.0019444314500060699,1.56760904999999,0.7888261600000084,0.039999944,0.039999977,-9.802184249999991,-0.00801885663537091,-0.0485546700001451,-0.0023807574750047025,0.009486433584288906,-0.009819790875020096
0.715,0.0033788045400094976,-0.7805600619999883,0.00030362903500078,-2.3544636499999947,-0.0019678481600060907,1.56757049999999,0.7888586440000084,0.0399999434,0.039999977,-9.80215049999999,-0.00822615744551445,-0.0491144460001456,-0.0023988980700047186,0.009663433395372149,-0.009897317250020165
0.7175,0.003415953895010028,-0.7805142564999876,0.00030667968750082355,-2.3544430949999944,-0.0019916711000064306,1.5675312649999895,0.7888916870000089,0.039999942850000005,0.039999976799999996,-9.802112924999989,-0.008433279488289657,-0.04968250500015261,-0.0024171548400048265,0.00984194236812261,-0.009975444375020709
0.72,0.0034543712800100624,-0.7804669059999876,0.00030983460000082635,-2.3544217799999942,-0.0020163065000064527,1.5674906599999894,0.788925848000009,0.0399999424,0.0399999762,-9.802067699999988,-0.008640043996328596,-0.05026713000015313,-0.002435643960004843,0.010023469664203947,-0.010054773000020778
0.7225,0.0034927886650100983,-0.7804195554999875,0.0003129895125008293,-2.3544004649999946,-0.0020409419000064757,1.5674500549999892,0.788960009000009,0.03999994195,0.0399999756,-9.802022474999989,-0.008846808504367544,-0.050851755000153674,-0.00245413308000486,0.010204996960285291,-0.010134101625020852
0.725,0.0035312060500101326,-0.7803722049999876,0.0003161444250008321,-2.3543791499999944,-0.0020655773000064974,1.5674094499999893,0.788994170000009,0.0399999415,0.039999975,-9.801977249999988,-0.009053573012406483,-0.05143638000015419,-0.0024726222000048767,0.010386524256366627,-0.010213430250020923
0.7275,0.003569623435010168,-0.7803248544999876,0.00031929933750083505,-2.3543578349999943,-0.0020902127000065203,1.5673688449999892,0.789028331000009,0.03999994105,0.0399999744,-9.801932024999989,-0.00926033752044543,-0.05202100500015474,-0.002491111320004894,0.010568051552447971,-0.010292758875020997
0.73,0.0036080408200102024,-0.7802775039999875,0.00032245425000083786,-2.354336519999994,-0.002114848100006542,1.567328239999989,0.7890624920000091,0.0399999406,0.0399999738,-9.801886799999988,-0.00946710202848437,-0.05260563000015526,-0.00250960044000491,0.010749578848529309,-0.010372087500021068
0.7325,0.0036464582050102384,-0.7802301534999875,0.0003256091625008408,-2.354315204999994,-0.002139483500006565,1.5672876349999891,0.7890966530000091,0.039999940149999996,0.039999973200000004,-9.801841574999989,-0.009673866536523317,-0.053190255000155805,-0.0025280895600049273,0.010931106144610653,-0.01045141612502114
0.735,0.0036861704400107916,-0.7801812729999867,0.0003288705390008863,-2.3542931799999938,-0.00216494861000692,1.5672456599999884,0.7891319760000096,0.0399999396,0.039999972700000004,-9.801803649999991,-0.009894531779052031,-0.05379966250016626,-0.002546799030005032,0.011115194391508706,-0.010532020200021724
0.7375,0.0037265301000108295,-0.7801316274999868,0.00033218514750088936,-2.354270799999994,-0.002190828575006944,1.5672029999999884,0.7891678800000097,0.039999939,0.03999997225,-9.801769374999992,-0.0101221473888173,-0.05442146125016684,-0.0025656186750050497,0.011300563113813588,-0.010613262000021799
0.74,0.0037668897600108653,-0.7800819819999867,0.0003354997560008923,-2.354248419999994,-0.002216708540006967,1.5671603399999885,0.7892037840000097,0.0399999384,0.0399999718,-9.801735099999991,-0.010349762998582555,-0.0550432600001674,-0.0025844383200050664,0.011485931836118462,-0.010694503800021871
0.7425,0.0038072494200109028,-0.7800323364999866,0.0003388143645008954,-2.3542260399999937,-0.002242588505006991,1.5671176799999884,0.7892396880000098,0.039999937799999996,0.03999997135,-9.80170082499999,-0.010577378608347822,-0.05566505875016797,-0.002603257965005084,0.011671300558423345,-0.010775745600021947
0.745,0.003847609080010939,-0.7799826909999865,0.00034212897300089836,-2.354203659999994,-0.0022684684700070143,1.5670750199999883,0.7892755920000097,0.0399999372,0.0399999709,-9.801666549999991,-0.01080499421811308,-0.05628685750016853,-0.0026220776100051007,0.01185666928072822,-0.01085698740002202
0.7475,0.0038879687400109764,-0.7799330454999865,0.00034544358150090143,-2.354181279999994,-0.002294348435007038,1.5670323599999882,0.7893114960000098,0.0399999366,0.039999970450000005,-9.80163227499999,-0.011032609827878346,-0.05690865625016911,-0.0026408972550051183,0.012042038003033103,-0.010938229200022093
0.75,0.003928328400011553,-0.7798833999999858,0.00034875819000094885,-2.3541588999999936,-0.0023202284000074075,1.5669896999999877,0.7893474000000104,0.039999936,0.03999997,-9.801597999999991,-0.011260225437647943,-0.0575304550001777,-0.0026597169000052573,0.012227406725339077,-0.011019471000022719
0.7525000000000001,0.003970670340011593,-0.7798313649999857,0.0003522357540009521,-2.3541353349999934,-0.002347378565007433,1.5669450149999877,0.7893850500000104,0.0399999354,0.03999997,-9.80156274999999,-0.011503740819237693,-0.05818173505017831,-0.002678984175005275,0.012416807841561394,-0.011102739300022797
0.755,0.00401301228001163,-0.7797793299999857,0.00035571331800095517,-2.354111769999993,-0.002374528730007457,1.5669003299999877,0.7894227000000104,0.0399999348,0.03999997,-9.80152749999999,-0.011747256200827436,-0.05883301510017889,-0.002698251450005292,0.012606208957783702,-0.011186007600022871
0.7575000000000001,0.00405535422001167,-0.7797272949999856,0.00035919088200095844,-2.3540882049999934,-0.0024016788950074826,1.5668556449999878,0.7894603500000104,0.039999934200000004,0.03999997,-9.80149224999999,-0.011990771582417188,-0.05948429515017949,-0.00271751872500531,0.012795610074006019,-0.011269275900022949
0.76,0.0040976961600117075,-0.7796752599999855,0.0003626684460009615,-2.354064639999993,-0.0024288290600075067,1.5668109599999878,0.7894980000000105,0.0399999336,0.03999997,-9.80145699999999,-0.01223428696400693,-0.06013557520018007,-0.0027367860000053275,0.012985011190228327,-0.011352544200023022
0.7625000000000001,0.004140038100011747,-0.7796232249999855,0.00036614601000096477,-2.3540410749999934,-0.002455979225007532,1.5667662749999876,0.7895356500000105,0.039999933,0.03999997,-9.80142174999999,-0.012477802345596681,-0.06078685525018068,-0.0027560532750053454,0.013174412306450644,-0.0114358125000231
0.765,0.004182380040011784,-0.7795711899999855,0.0003696235740009678,-2.354017509999993,-0.0024831293900075564,1.5667215899999876,0.7895733000000105,0.0399999324,0.03999997,-9.80138649999999,-0.012721317727186423,-0.06143813530018126,-0.0027753205500053624,0.013363813422672953,-0.011519080800023174
0.7675000000000001,0.004225395500012388,-0.7795183464999847,0.00037315651250101746,-2.3539935349999928,-0.002510711005007943,1.566676174999987,0.789611550000011,0.039999932,0.03999997,-9.80135064999999,-0.01296927342198502,-0.06210144615019195,-0.0027946710300054503,0.013554604165310017,-0.01160293245002374
0.77,0.004269758000012428,-0.7794638859999847,0.0003768002000010207,-2.353968739999993,-0.002539155520007968,1.566629299999987,0.7896510000000111,0.039999932,0.03999997,-9.80131359999999,-0.013226109743190148,-0.06278881860019256,-0.0028141879200054673,0.013748174160773084,-0.011687950800023815
0.7725,0.004314120500012467,-0.7794094254999846,0.00038044388750102396,-2.353943944999993,-0.0025676000350079936,1.566582424999987,0.7896904500000111,0.039999932,0.03999997,-9.80127654999999,-0.013482946064395276,-0.06347619105019317,-0.002833704810005485,0.013941744156236151,-0.01177296915002389
0.775,0.004358483000012508,-0.7793549649999846,0.00038408757500102734,-2.3539191499999927,-0.00259604455000802,1.5665355499999867,0.7897299000000112,0.039999932,0.03999997,-9.80123949999999,-0.013739782385600415,-0.06416356350019381,-0.0028532217000055028,0.014135314151699227,-0.01185798750002397
0.7775,0.004402845500012548,-0.7793005044999846,0.0003877312625010306,-2.353894354999993,-0.002624489065008045,1.5664886749999867,0.7897693500000112,0.039999932,0.03999997,-9.80120244999999,-0.013996618706805544,-0.06485093595019442,-0.0028727385900055202,0.014328884147162295,-0.011943005850024046
0.78,0.004447208000012589,-0.7792460439999845,0.000391374950001034,-2.353869559999993,-0.0026529335800080716,1.5664417999999867,0.7898088000000112,0.039999932,0.03999997,-9.80116539999999,-0.014253455028010682,-0.06553830840019506,-0.002892255480005538,0.014522454142625369,-0.012028024200024126
0.7825,0.004491570500012629,-0.7791915834999844,0.0003950186375010372,-2.3538447649999927,-0.002681378095008097,1.5663949249999867,0.7898482500000112,0.039999932,0.03999997,-9.80112834999999,-0.01451029134921581,-0.06622568085019567,-0.0029117723700055557,0.014716024138088436,-0.0121130425500242
0.785,0.004537305000013258,-0.7791354469999837,0.00039877515700108897,-2.3538191899999923,-0.0027107018900085003,1.566346599999986,0.7898889200000119,0.0399999324,0.039999970700000005,-9.801084049999986,-0.014778451994139581,-0.0669335645002051,-0.0029315052400056664,0.014912279881593342,-0.012199389700024849
0.7875,0.004583725500013299,-0.7790784724999836,0.00040258809250109235,-2.3537932249999924,-0.0027404653250085267,1.5662975499999858,0.7899302000000119,0.039999933,0.03999997175,-9.801036124999987,-0.015052274800915396,-0.06765170375020574,-0.002951346100005684,0.015109878499117433,-0.012286401250024927
0.79,0.0046301460000133425,-0.7790214979999835,0.00040640102800109594,-2.3537672599999926,-0.0027702287600085544,1.566248499999986,0.7899714800000118,0.0399999336,0.0399999728,-9.800988199999987,-0.01532609760769122,-0.0683698430002064,-0.0029711869600057023,0.015307477116641531,-0.012373412800025008
0.7925,0.004676566500013383,-0.7789645234999836,0.0004102139635010993,-2.3537412949999923,-0.002799992195008581,1.5661994499999858,0.7900127600000119,0.039999934200000004,0.03999997385,-9.800940274999986,-0.015599920414467033,-0.06908798225020704,-0.0029910278200057203,0.015505075734165623,-0.012460424350025085
0.795,0.004722987000013426,-0.7789075489999835,0.00041402689900110285,-2.3537153299999924,-0.002829755630008609,1.5661503999999857,0.7900540400000119,0.0399999348,0.0399999749,-9.800892349999987,-0.01587374322124286,-0.06980612150020771,-0.0030108686800057387,0.015702674351689722,-0.012547435900025166
0.7975,0.004769407500013468,-0.7788505744999834,0.0004178398345011062,-2.353689364999992,-0.0028595190650086352,1.5661013499999856,0.7900953200000119,0.0399999354,0.03999997595,-9.800844424999987,-0.016147566028018673,-0.07052426075020835,-0.003030709540005756,0.015900272969213813,-0.012634447450025243
0.8,0.004815828000014121,-0.7787935999999827,0.00042165277000115995,-2.353663399999992,-0.0028892825000090537,1.566052299999985,0.7901366000000125,0.039999936,0.039999977,-9.800796499999993,-0.01642138883479828,-0.0712424000002203,-0.0030505504000058635,0.016097871586738872,-0.012721459000025827
0.8025,0.004864343505014164,-0.7787341099999826,0.0004256379370011635,-2.3536361599999918,-0.0029203880900090812,1.566001059999985,0.7901797550000126,0.03999993705,0.03999997805,-9.800770024999993,-0.01670821644374152,-0.07199927240022096,-0.003070695010005881,0.016298769600748046,-0.012810196150025906
0.805,0.004912859010014209,-0.7786746199999826,0.0004296231040011672,-2.353608919999992,-0.00295149368000911,1.5659498199999848,0.7902229100000127,0.0399999381,0.0399999791,-9.800743549999993,-0.016995044052684774,-0.07275614480022168,-0.0030908396200059,0.016499667614757227,-0.012898933300025988
0.8075,0.004961374515014252,-0.7786151299999825,0.0004336082710011707,-2.353581679999992,-0.0029825992700091377,1.565898579999985,0.7902660650000126,0.039999939150000004,0.03999998015,-9.800717074999993,-0.017281871661628014,-0.07351301720022234,-0.0031109842300059178,0.0167005656287664,-0.012987670450026068
0.81,0.005009890020014298,-0.7785556399999825,0.00043759343800117446,-2.353554439999992,-0.0030137048600091666,1.5658473399999848,0.7903092200000127,0.0399999402,0.0399999812,-9.800690599999992,-0.017568699270571267,-0.07426988960022306,-0.0031311288400059367,0.016901463642775585,-0.01307640760002615
0.8125,0.00505840552501434,-0.7784961499999824,0.000441578605001178,-2.353527199999992,-0.003044810450009194,1.5657960999999847,0.7903523750000128,0.039999941250000004,0.03999998225,-9.800664124999992,-0.017855526879514506,-0.07502676200022372,-0.0031512734500059544,0.01710236165678476,-0.013165144750026229
0.8150000000000001,0.0051069210300143855,-0.7784366599999823,0.0004455637720011817,-2.3534999599999917,-0.0030759160400092235,1.5657448599999848,0.7903955300000127,0.0399999423,0.0399999833,-9.800637649999992,-0.01814235448845776,-0.07578363440022443,-0.0031714180600059733,0.01730325967079394,-0.013253881900026313
0.8175,0.005156146715015062,-0.7783763199999816,0.00044960733600123734,-2.3534722849999916,-0.003107476655009657,1.565692859999984,0.7904393150000134,0.039999943200000006,0.039999984200000005,-9.800602399999985,-0.018434938695372095,-0.0765511422002346,-0.0031916982600061123,0.017505569662959748,-0.013343229450026936
0.8200000000000001,0.00520679276001511,-0.7783142799999815,0.0004537676940012412,-2.3534437399999915,-0.0031399473200096873,1.565639339999984,0.7904843600000134,0.0399999438,0.0399999848,-9.800549599999984,-0.018739036098213244,-0.07733992080023533,-0.0032122496400061313,0.01771070361143506,-0.01343379780002702
0.8225,0.005257438805015155,-0.7782522399999814,0.0004579280520012449,-2.3534151949999913,-0.003172417985009716,1.565585819999984,0.7905294050000135,0.0399999444,0.0399999854,-9.800496799999985,-0.01904313350105438,-0.07812869940023603,-0.0032328010200061495,0.01791583755991036,-0.013524366150027101
0.8250000000000001,0.005308084850015202,-0.7781901999999814,0.00046208841000124876,-2.3533866499999916,-0.0032048886500097465,1.565532299999984,0.7905744500000135,0.039999945,0.039999986,-9.800443999999985,-0.019347230903895528,-0.07891747800023677,-0.003253352400006169,0.018120971508385673,-0.013614934500027185
0.8275,0.005358730895015247,-0.7781281599999813,0.0004662487680012525,-2.3533581049999914,-0.003237359315009775,1.5654787799999839,0.7906194950000135,0.0399999456,0.0399999866,-9.800391199999984,-0.019651328306736663,-0.07970625660023746,-0.003273903780006187,0.018326105456860975,-0.013705502850027265
0.8300000000000001,0.005409376940015294,-0.7780661199999812,0.00047040912600125633,-2.3533295599999913,-0.003269829980009805,1.5654252599999838,0.7906645400000136,0.039999946200000004,0.0399999872,-9.800338399999985,-0.019955425709577812,-0.08049503520023821,-0.003294455160006206,0.018531239405336287,-0.01379607120002735
0.8325,0.0054600229850153385,-0.7780040799999812,0.00047456948400126,-2.3533010149999916,-0.0033023006450098344,1.5653717399999838,0.7907095850000136,0.0399999468,0.0399999878,-9.800285599999984,-0.020259523112418947,-0.0812838138002389,-0.0033150065400062243,0.01873637335381159,-0.01388663955002743
0.835,0.005512112770016042,-0.7779402899999803,0.0004788485590013178,-2.3532716899999913,-0.0033356963400102847,1.565316689999983,0.7907559100000142,0.0399999473,0.0399999887,-9.80024349999999,-0.020574799366392785,-0.0820945334002496,-0.0033357332600063225,0.018943827040556797,-0.013978508000028103
0.8375,0.005564924425016091,-0.7778756249999803,0.0004831869925013219,-2.353241974999991,-0.0033695545500103162,1.565260874999983,0.7908028750000143,0.03999994775,0.03999998975,-9.800206749999989,-0.020895665045925365,-0.08291622350025037,-0.003356547650006342,0.019152440596435387,-0.01407102650002819
0.84,0.005617736080016138,-0.7778109599999802,0.00048752542600132573,-2.353212259999991,-0.003403412760010346,1.565205059999983,0.7908498400000143,0.0399999482,0.0399999908,-9.800169999999989,-0.02121653072545793,-0.0837379136002511,-0.0033773620400063607,0.019361054152313966,-0.014163545000028272
