rsonawane2002/My_IMU/logs_2/traj_410/imu_410.csv
time,j1,j2,j3,j4,j5,j6,j7,gripper1,gripper2,imu_ax,imu_ay,imu_az,imu_gx,imu_gy,imu_gz
1757.9833333320632,0.00016700293,-0.785875,4.0107683e-05,-2.3551247,9.29385e-05,1.570997,0.786,0.04,0.04,-9.516397,-0.05182681605219841,0.105008475,-5.906072e-08,-0.001164127024821937,1.1188133e-06
1757.99999999873,0.00016700124,-0.78576016,4.0109484e-05,-2.3552213,9.298049e-05,1.5709941,0.786,0.04,0.04,-9.83449,0.0006311940378509462,0.009053358,6.863022e-07,-0.002237326931208372,1.5726446e-06
1758.0166666653965,0.00016696802,-0.78565425,4.0075367e-05,-2.35531,9.3064045e-05,1.5709913,0.786,0.04,0.04,-9.832405,0.0005640266463160515,0.00760065,7.1248382e-06,-0.003224686486646533,6.00844e-06
1758.0333333320632,0.00016684957,-0.78555685,3.9946935e-05,-2.355391,9.326172e-05,1.5709884,0.786,0.04,0.04,-9.830836,0.0004465312813408673,0.0061875344,2.3903085e-05,-0.004131213296204805,1.6967073e-05
1758.0499999987298,0.00016656784,-0.7854671,3.9640225e-05,-2.355465,9.36763e-05,1.5709856,0.786,0.04,0.04,-9.829004,0.0002906888839788735,0.004990321,5.620684e-05,-0.0049559553153812885,3.728654e-05
1758.0666666653965,0.00016602283,-0.7853843,3.9048384e-05,-2.3555317,9.444094e-05,1.5709826,0.786,0.04,0.04,-9.827653,8.470367174595594e-05,0.003803804,0.00010843063,-0.00570579431951046,6.951329e-05
1758.0833333320631,0.0001650945,-0.78530794,3.804377e-05,-2.3555927,9.57227e-05,1.5709796,0.7860019,0.04,0.039999995,-9.826112,-0.00014339055633172393,0.0027763983,0.00018501535,-0.0063815852627158165,0.00011670031
1758.0999999987298,0.00016364547,-0.7852373,3.648058e-05,-2.35565,9.768996e-05,1.5709764,0.7860038,0.04,0.039999995,-9.825035,-0.00042235630098730326,0.0017509433,0.00028086893,-0.006989080458879471,0.00017935199
1758.1166666653965,0.00016152245,-0.7851721,3.4196466e-05,-2.3557005,0.000100531746,1.5709697,0.78600764,0.04,0.04,-9.824118,-0.0007069087587296963,0.00086703245,0.0004088054,-0.007541583850979805,0.00025933463
1758.133333332063,0.00015855781,-0.7851115,3.1014075e-05,-2.3557448,0.000104477054,1.5709629,0.78601146,0.04,0.04,-9.823054,-0.001003987854346633,6.7354646e-05,0.00056363846,-0.008040351793169975,0.00035987524
1758.1499999987298,0.00015457188,-0.78505534,2.67434e-05,-2.3557868,0.00010975206,1.5709553,0.7860172,0.04,0.04,-9.822098,-0.001331212231889367,-0.00080529996,0.00075757276,-0.0084722600877285,0.00048075413
1758.1666666653964,0.00014937366,-0.785003,2.1182786e-05,-2.355822,0.000116620045,1.5709447,0.7860248,0.04,0.04,-9.821558,-0.001612521824426949,-0.0015313749,0.0009848365,-0.008859187364578247,0.0006257737
1758.183333332063,0.00014276286,-0.78495383,1.4120567e-05,-2.3558524,0.00012533127,1.5709316,0.78603435,0.04,0.04,-9.820738,-0.0019463511416688561,-0.0022529364,0.0012485769,-0.00919157825410366,0.0007935189
1758.1999999987297,0.00013453065,-0.7849077,5.3363633e-06,-2.355879,0.00013615696,1.5709165,0.78604645,0.04,0.04,-9.820064,-0.0022188276052474976,-0.002922201,0.0015515349,-0.009477294981479645,0.000985814
1758.2166666653964,0.00012446116,-0.7848641,-5.397521e-06,-2.355899,0.00014936579,1.570898,0.7860617,0.039999995,0.04,-9.8196945,-0.0025247735902667046,-0.00360529,0.0018935961,-0.009718474000692368,0.0012027062
1758.233333332063,0.000112332076,-0.78482264,-1.8315637e-05,-2.3559155,0.00016525436,1.5708758,0.7860795,0.03999999,0.03999999,-9.81889,-0.002740258350968361,-0.0042052506,0.002274277,-0.009908122010529041,0.0014474582
1758.2499999987297,9.7915894e-05,-0.784783,-3.3658023e-05,-2.3559272,0.00018411923,1.5708497,0.7861007,0.039999988,0.039999984,-9.818722,-0.002992181107401848,-0.004841048,0.0026992722,-0.010064302012324333,0.0017189459
1758.2666666653963,8.098112e-05,-0.7847448,-5.166902e-05,-2.3559332,0.0002062586,1.5708191,0.78612566,0.039999984,0.03999998,-9.818263,-0.0031460439786314964,-0.005434272,0.003166551,-0.010180006735026836,0.0020168216
1758.283333332063,6.129226e-05,-0.78470784,-7.259687e-05,-2.355935,0.00023197754,1.5707837,0.7861547,0.039999977,0.03999997,-9.817892,-0.003320618998259306,-0.0060576303,0.0036767155,-0.01025463081896305,0.0023432227
1758.2999999987296,3.8611288e-05,-0.7846717,-9.6692704e-05,-2.3559315,0.0002615831,1.5707424,0.78618795,0.03999997,0.03999996,-9.8176565,-0.0033701483625918627,-0.006630757,0.0042305756,-0.010296945460140705,0.002696766
1758.3166666653963,1.2697919e-05,-0.7846361,-0.00012420981,-2.3559222,0.000295386,1.5706961,0.7862258,0.03999996,0.039999954,-9.817421,-0.003451103577390313,-0.007248111,0.004828867,-0.010305851697921753,0.003078561
1758.333333332063,-1.6689508e-05,-0.78460073,-0.0001554032,-2.3559084,0.0003336995,1.570643,0.7862687,0.03999996,0.03999995,-9.817086,-0.003366689896211028,-0.007873413,0.0054722726,-0.010276556946337223,0.0034896317
1758.3499999987296,-4.9793663e-05,-0.7845655,-0.00019052875,-2.3558893,0.00037683608,1.5705839,0.78631705,0.03999996,0.03999995,-9.817094,-0.0033297277987003326,-0.008515391,0.0061603026,-0.010223131626844406,0.0039283996
1758.3666666653962,-8.6857675e-05,-0.78453,-0.00022984296,-2.3558636,0.0004251106,1.570518,0.7863711,0.03999996,0.03999995,-9.816867,-0.003100187983363867,-0.009171758,0.006892705,-0.010135950520634651,0.0043957587
1758.3833333320629,-0.00012812458,-0.7844941,-0.00027360205,-2.3558326,0.00047883706,1.5704446,0.7864314,0.03999996,0.03999995,-9.816621,-0.002849901095032692,-0.009873692,0.007670004,-0.010014685802161694,0.0048917006
1758.3999999987295,-0.00017383693,-0.7844576,-0.00032206194,-2.3557956,0.0005383295,1.5703633,0.78649807,0.039999966,0.03999995,-9.81663,-0.0025739683769643307,-0.010581144,0.008491291,-0.009867686778306961,0.005417037
1758.4166666653962,-0.00022423627,-0.7844201,-0.00037547763,-2.355753,0.00060389924,1.5702735,0.7865715,0.03999997,0.039999954,-9.816496,-0.002084487583488226,-0.0113061275,0.009356983,-0.009693048894405365,0.005969955
1758.4333333320628,-0.0002795632,-0.78438145,-0.00043410264,-2.3557036,0.00067585753,1.5701754,0.7866522,0.039999973,0.039999958,-9.816522,-0.0016336841508746147,-0.012110619,0.010267207,-0.009494911879301071,0.006551168
1758.4499999987295,-0.0003400566,-0.7843416,-0.000498189,-2.3556478,0.00075451366,1.5700682,0.7867404,0.039999973,0.039999954,-9.816403,-0.0009263958781957626,-0.012925275,0.011220404,-0.009269148111343384,0.0071613514
1758.4666666653961,-0.00040595327,-0.7843,-0.00056798675,-2.355585,0.0008401733,1.5699514,0.7868364,0.03999998,0.03999996,-9.816421,-0.00027817022055387497,-0.0138017135,0.012216888,-0.00901806727051735,0.0077985646
1758.4833333320628,-0.00047748836,-0.78425694,-0.00064374355,-2.3555157,0.0009331401,1.5698246,0.78694063,0.039999984,0.039999966,-9.816356,0.0006522107869386673,-0.014721679,0.013256684,-0.008744195103645325,0.0084634265
1758.4999999987294,-0.0005548941,-0.784212,-0.000725705,-2.3554394,0.0010337156,1.5696874,0.78705335,0.03999998,0.039999958,-9.816387,0.0015310728922486305,-0.015681552,0.014338411,-0.008447062224149704,0.009156513
1758.516666665396,-0.0006384004,-0.7841648,-0.000814114,-2.3553555,0.001142196,1.5695395,0.7871748,0.03999998,0.039999958,-9.816419,0.0027054687961935997,-0.016695911,0.015462578,-0.008130539208650589,0.009875801
1758.5333333320627,-0.00072823436,-0.78411543,-0.0009092094,-2.3552644,0.001258875,1.5693806,0.7873056,0.039999988,0.039999966,-9.816427,0.003822122700512409,-0.0178141,0.016628334,-0.007790064439177513,0.010621802
1758.5499999987294,-0.00082462025,-0.7840638,-0.0010112284,-2.3551655,0.0013840433,1.5692102,0.7874459,0.039999984,0.039999958,-9.816434,0.005272935144603252,-0.018943883,0.017834183,-0.007429840974509716,0.011395062
1758.566666665396,-0.0009277786,-0.78400964,-0.0011204035,-2.3550587,0.0015179849,1.5690278,0.78759605,0.039999988,0.03999996,-9.816506,0.006653673946857452,-0.020157428,0.019080082,-0.007048813160508871,0.012193447
1758.5833333320627,-0.0010379273,-0.7839528,-0.0012369647,-2.3549435,0.0016609825,1.5688334,0.7877563,0.039999988,0.039999958,-9.816502,0.008389469236135483,-0.021418553,0.020365342,-0.006648510694503784,0.0130183045
1758.5999999987293,-0.0011552802,-0.7838931,-0.0013611378,-2.3548207,0.0018133123,1.568626,0.78792703,0.039999988,0.039999958,-9.816561,0.01004949864000082,-0.022789955,0.021689313,-0.006226592231541872,0.013867502
1758.616666665396,-0.0012800476,-0.7838304,-0.0014931452,-2.3546898,0.0019752472,1.5684057,0.7881084,0.03999999,0.039999958,-9.816641,0.012088285759091377,-0.024193276,0.023051525,-0.005790455732494593,0.014742355
1758.6333333320626,-0.0014124367,-0.78376484,-0.0016332057,-2.35455,0.0021470534,1.5681719,0.7883009,0.03999999,0.039999958,-9.816769,0.014167402870953083,-0.02571272,0.024451312,-0.005338472779840231,0.015640723
1758.6499999987293,-0.0015526505,-0.783696,-0.0017815335,-2.3544018,0.0023289947,1.5679241,0.7885048,0.04,0.03999996,-9.816839,0.016294628381729126,-0.027277218,0.025887676,-0.00486863125115633,0.016563823
1758.666666665396,-0.0017008883,-0.7836238,-0.0019383386,-2.3542452,0.002521329,1.5676625,0.78872025,0.039999995,0.039999958,-9.816938,0.01881253719329834,-0.028952662,0.027359324,-0.0043852790258824825,0.017509332
1758.6833333320626,-0.0018573452,-0.7835483,-0.0021038277,-2.3540783,0.0027243083,1.5673864,0.78894764,0.04,0.03999996,-9.817099,0.021271420642733574,-0.030727042,0.028866066,-0.00388645613566041,0.018479107
1758.6999999987293,-0.0020222128,-0.7834692,-0.002278202,-2.3539023,0.0029381793,1.5670953,0.7891872,0.04,0.039999958,-9.816997,0.02413187362253666,-0.032564074,0.030407198,-0.0033674545120447874,0.019470075
1758.716666665396,-0.0021956775,-0.7833864,-0.0024616602,-2.3537166,0.0031631857,1.5667892,0.7894393,0.04,0.039999954,-9.8171835,0.026929300278425217,-0.034497906,0.031981643,-0.0028368313796818256,0.02048394
1758.7333333320626,-0.0023779222,-0.78329986,-0.0026543946,-2.3535216,0.0033995623,1.5664676,0.78970414,0.04,0.03999996,-9.817156,0.03015686385333538,-0.036525756,0.033588108,-0.0022896702867001295,0.021518923
1758.7499999987292,-0.0025691257,-0.78320944,-0.0028565947,-2.3533163,0.0036475419,1.5661304,0.78998196,0.04,0.039999954,-9.8173485,0.033307239413261414,-0.038665175,0.03522665,-0.001730155199766159,0.022575358
1758.7666666653959,-0.0027694637,-0.7831149,-0.0030684448,-2.3531008,0.0039073494,1.5657771,0.7902731,0.04,0.039999958,-9.817337,0.03690376132726669,-0.040891923,0.036895934,-0.0011559204431250691,0.023651896
1758.7833333320625,-0.0029791058,-0.7830164,-0.0032901238,-2.3528757,0.004179206,1.5654072,0.79057765,0.04,0.039999954,-9.817449,0.04043048247694969,-0.043227475,0.038594916,-0.0005683579365722835,0.024748897
1758.7999999987292,-0.0031982183,-0.7829138,-0.003521809,-2.3526392,0.004463327,1.5650204,0.7908959,0.04,0.039999958,-9.817573,0.044418416917324066,-0.045648083,0.040322762,2.7250804123468697e-05,0.025865046
1758.8166666653958,-0.0034269628,-0.78280675,-0.0037636699,-2.3523932,0.0047599217,1.5646169,0.7912281,0.04,0.039999958,-9.817552,0.04831896722316742,-0.048190296,0.042079594,0.0006400730344466865,0.027000565
1758.8333333320625,-0.0036654966,-0.7826952,-0.0040158737,-2.3521354,0.005069191,1.5641963,0.7915746,0.04,0.039999958,-9.8177185,0.05270901322364807,-0.050855808,0.043863393,0.0012594634899869561,0.02815423
1758.8499999987291,-0.0039139735,-0.78257954,-0.004278583,-2.3518674,0.005391337,1.563758,0.7919354,0.04,0.039999954,-9.817735,0.05701412260532379,-0.053656258,0.045673456,0.0018938519060611725,0.029326297
1758.8666666653958,-0.004172543,-0.7824595,-0.004551953,-2.3515878,0.0057265493,1.5633022,0.79231113,0.04,0.039999954,-9.817767,0.06181297451257706,-0.0564815,0.04750952,0.0025382796302437782,0.030515786
1758.8833333320624,-0.0044413456,-0.78233445,-0.004836137,-2.3512974,0.0060750153,1.562828,0.79270154,0.04,0.039999947,-9.817765,0.06667044758796692,-0.059467543,0.049368594,0.003195639466866851,0.031721707
1758.899999998729,-0.0047205254,-0.7822049,-0.0051312842,-2.3509953,0.0064369193,1.5623357,0.793107,0.04,0.03999994,-9.817959,0.07159490138292313,-0.06262475,0.051252544,0.00385876651853323,0.03294472
1758.9166666653957,-0.0050102165,-0.7820711,-0.0054375357,-2.3506823,0.0068124314,1.5618248,0.79352766,0.04,0.039999954,-9.817878,0.07702633738517761,-0.065835506,0.053159267,0.004534994252026081,0.03418299
1758.9333333320624,-0.0053105517,-0.781932,-0.0057550333,-2.3503568,0.0072017256,1.561295,0.7939638,0.04,0.03999995,-9.81801,0.08237170428037643,-0.06917508,0.055087917,0.005219577345997095,0.03543718
1758.949999998729,-0.005621657,-0.78178847,-0.006083909,-2.350021,0.007604967,1.5607467,0.79441553,0.04,0.039999947,-9.817932,0.08823706209659576,-0.07267787,0.057037394,0.005913247354328632,0.03670571
1758.9666666653957,-0.0059436536,-0.7816396,-0.0064242943,-2.349672,0.008022311,1.560179,0.794883,0.04,0.039999943,-9.81811,0.09401796758174896,-0.07627795,0.05900724,0.006614635232836008,0.0379892
1758.9833333320623,-0.0062766615,-0.7814859,-0.006776315,-2.3493116,0.008453915,1.559592,0.7953664,0.04,0.04,-9.81799,0.1003367155790329,-0.08003775,0.060996536,0.0073256646282970905,0.039287217
1758.999999998729,-0.006620794,-0.78132707,-0.007140089,-2.3489392,0.0088999225,1.5589852,0.79586613,0.04,0.04,-9.818064,0.10654520988464355,-0.08390236,0.06300457,0.008045362308621407,0.04059771
1759.0166666653956,-0.0069761607,-0.78116333,-0.0075157336,-2.348554,0.009360474,1.5583587,0.79638207,0.04,0.04,-9.818043,0.11331478506326675,-0.08790052,0.065029055,0.008769354782998562,0.04192144
1759.0333333320623,-0.007342867,-0.7809944,-0.007903361,-2.3481567,0.009835714,1.5577123,0.7969146,0.04,0.04,-9.818018,0.11997196078300476,-0.09204098,0.067070685,0.009504176676273346,0.043256238
1759.049999998729,-0.0077210143,-0.78082013,-0.008303077,-2.347747,0.010325769,1.5570458,0.79746354,0.04,0.04,-9.817934,0.12719905376434326,-0.09630736,0.069127195,0.010246043093502522,0.044603556
1759.0666666653956,-0.008110703,-0.78064084,-0.008714985,-2.3473248,0.010830761,1.5563589,0.79802936,0.04,0.04,-9.8180065,0.13431338965892792,-0.100760065,0.071199104,0.010992608964443207,0.04596177
1759.0833333320622,-0.008512022,-0.7804561,-0.009139182,-2.3468904,0.011350814,1.5556517,0.79861194,0.04,0.04,-9.817824,0.14200589060783386,-0.10527656,0.07328434,0.011747807264328003,0.047331136
1759.099999998729,-0.00892506,-0.780266,-0.009575763,-2.3464425,0.011886042,1.5549239,0.79921144,0.04,0.04,-9.817937,0.1495792269706726,-0.11001683,0.07538306,0.012505662627518177,0.048710283
1759.1166666653955,-0.009349898,-0.7800705,-0.010024816,-2.345982,0.012436553,1.5541748,0.7998281,0.04,0.04,-9.817637,0.15773259103298187,-0.114857845,0.0774944,0.01327430084347725,0.050100256
1759.1333333320622,-0.009786621,-0.7798696,-0.010486426,-2.3455088,0.0130024515,1.5534049,0.800462,0.04,0.04,-9.817637,0.16594496369361877,-0.119837105,0.0796165,0.014043274335563183,0.051498238
1759.1499999987288,-0.010235307,-0.77966344,-0.010960675,-2.3450227,0.013583833,1.5526145,0.8011133,0.04,0.04,-9.817582,0.17422251403331757,-0.12500359,0.08174925,0.014818626455962658,0.05290521
1759.1666666653955,-0.010696019,-0.7794518,-0.011447634,-2.3445232,0.014180797,1.5518025,0.801782,0.04,0.04,-9.817348,0.18308617174625397,-0.13028176,0.08389126,0.015601572580635548,0.054320697
1759.1833333320621,-0.011168833,-0.77923465,-0.01194738,-2.3440108,0.014793424,1.550969,0.80246836,0.04,0.04,-9.817259,0.19183513522148132,-0.13573405,0.086041994,0.016388528048992157,0.055743728
1759.1999999987288,-0.011653807,-0.77901167,-0.012459978,-2.343485,0.015421798,1.5501143,0.8031721,0.04,0.04,-9.817069,0.2011728286743164,-0.14132053,0.08820017,0.017177073284983635,0.0571741
1759.2166666653955,-0.012151006,-0.7787832,-0.012985496,-2.3429463,0.016065996,1.5492382,0.80389404,0.04,0.04,-9.816924,0.21038728952407837,-0.14712495,0.090366326,0.01797126978635788,0.058610994
1759.233333332062,-0.012660483,-0.77854913,-0.013523985,-2.3423939,0.016726097,1.5483403,0.80463314,0.04,0.04,-9.81663,0.22020190954208374,-0.15302595,0.09253629,0.018769823014736176,0.060054094
1759.2499999987288,-0.013182286,-0.77830946,-0.0140755065,-2.3418283,0.017402157,1.547421,0.80539024,0.04,0.04,-9.816484,0.22989803552627563,-0.15911551,0.09471468,0.01957090198993683,0.061503336
1759.2666666653954,-0.013716467,-0.77806413,-0.014640105,-2.3412495,0.018094253,1.5464797,0.8061655,0.04,0.04,-9.816146,0.2401892989873886,-0.16535017,0.09689677,0.020376600325107574,0.0629582
1759.283333332062,-0.014263071,-0.7778131,-0.015217831,-2.340657,0.018802425,1.5455165,0.8069589,0.04,0.04,-9.815973,0.2503604590892792,-0.17176828,0.099081494,0.021183405071496964,0.06441852
1759.2999999987287,-0.01482214,-0.7775565,-0.01580873,-2.3400507,0.019526722,1.5445315,0.80777043,0.04,0.04,-9.815581,0.2611253261566162,-0.1783218,0.101268336,0.021992620080709457,0.06588246
1759.3166666653954,-0.015393703,-0.7772941,-0.016412832,-2.3394308,0.020267207,1.5435244,0.8085999,0.04,0.04,-9.815252,0.2717684209346771,-0.18506259,0.10345718,0.02280830219388008,0.067349724
1759.333333332062,-0.015977792,-0.777026,-0.017030174,-2.338798,0.021023916,1.5424951,0.8094475,0.04,0.04,-9.814828,0.2830135226249695,-0.19196656,0.1056477,0.023624492809176445,0.06882091
1759.3499999987287,-0.016574442,-0.77675205,-0.017660793,-2.338151,0.021796877,1.5414436,0.81031334,0.04,0.04,-9.814594,0.2941327691078186,-0.19905242,0.10783866,0.024440038949251175,0.07029526
1759.3666666653953,-0.01718367,-0.7764723,-0.018304711,-2.33749,0.022586137,1.54037,0.81119746,0.04,0.04,-9.814027,0.3058459162712097,-0.20628713,0.110029206,0.025258565321564674,0.07177145
1759.383333332062,-0.017805496,-0.77618665,-0.018961942,-2.336816,0.023391716,1.5392743,0.8120998,0.04,0.04,-9.813548,0.31761208176612854,-0.21371882,0.112218186,0.026079395785927773,0.07324969
1759.3999999987286,-0.018439952,-0.7758954,-0.019632505,-2.3361282,0.024213629,1.5381562,0.8130205,0.04,0.04,-9.813251,0.329447478055954,-0.22134316,0.11440522,0.02689836546778679,0.07473015
1759.4166666653953,-0.01908704,-0.77559847,-0.020316431,-2.335427,0.025051905,1.5370159,0.8139596,0.04,0.04,-9.812579,0.34186625480651855,-0.2290912,0.116589375,0.02771986834704876,0.07621122
1759.433333332062,-0.019746771,-0.7752956,-0.02101372,-2.334712,0.025906548,1.5358533,0.8149169,0.04,0.04,-9.812185,0.35416799783706665,-0.23705636,0.11876932,0.028539815917611122,0.077693455
1759.4499999987286,-0.020419149,-0.774987,-0.021724373,-2.333983,0.026777564,1.5346684,0.8158925,0.04,0.04,-9.811476,0.3670497238636017,-0.24518648,0.12094542,0.02936076559126377,0.07917551
1759.4666666653952,-0.021104183,-0.77467257,-0.022448404,-2.3332398,0.02766496,1.5334612,0.81688654,0.04,0.04,-9.810902,0.3798076808452606,-0.2535067,0.12311687,0.03018348477780819,0.0806579
1759.4833333320619,-0.021801863,-0.7743524,-0.023185804,-2.3324835,0.028568737,1.5322318,0.817899,0.04,0.04,-9.810085,0.39316919445991516,-0.26199985,0.12528215,0.031007492914795876,0.08214141
1759.4999999987285,-0.02251219,-0.7740264,-0.023936572,-2.3317137,0.02948889,1.53098,0.81892973,0.04,0.04,-9.809539,0.40637171268463135,-0.2706949,0.12744004,0.03182916343212128,0.08362053
1759.5166666653952,-0.023235152,-0.77369463,-0.024700692,-2.3309305,0.030425398,1.5297061,0.81997883,0.04,0.04,-9.808734,0.4201790988445282,-0.27954432,0.12959094,0.032648831605911255,0.08509986
1759.5333333320618,-0.023970746,-0.77335715,-0.025478164,-2.3301334,0.031378258,1.5284103,0.8210463,0.04,0.04,-9.808061,0.4338564872741699,-0.2886208,0.13173386,0.0334666408598423,0.08657698
1759.5499999987285,-0.024718948,-0.7730139,-0.026268963,-2.3293223,0.03234745,1.5270922,0.822132,0.04,0.04,-9.807104,0.4481092691421509,-0.2978623,0.13386726,0.034286051988601685,0.08805207
1759.5666666653951,-0.025479747,-0.7726647,-0.027073076,-2.3284972,0.03333294,1.5257521,0.82323587,0.04,0.04,-9.806256,0.46222564578056335,-0.30729568,0.13599212,0.035105884075164795,0.08952447
1759.5833333320618,-0.026253115,-0.7723099,-0.027890477,-2.3276584,0.034334697,1.5243897,0.824358,0.04,0.04,-9.805173,0.47691765427589417,-0.31691688,0.13810657,0.03592660278081894,0.09099372
1759.5999999987284,-0.027039034,-0.7719493,-0.028721144,-2.3268065,0.035352714,1.5230054,0.82549846,0.04,0.04,-9.804303,0.49148067831993103,-0.32672366,0.14021054,0.03674420714378357,0.09245881
1759.616666665395,-0.027837474,-0.77158284,-0.029565044,-2.325941,0.036386926,1.521599,0.826657,0.04,0.04,-9.803216,0.5066124200820923,-0.33671662,0.14230193,0.03755911439657211,0.09392045
1759.6333333320617,-0.028648397,-0.7712108,-0.030422146,-2.325062,0.037437297,1.5201707,0.8278337,0.04,0.04,-9.802132,0.5217782855033875,-0.3469236,0.14438148,0.03837169334292412,0.095377535
1759.6499999987284,-0.029471774,-0.7708329,-0.03129241,-2.3241696,0.038503796,1.5187201,0.82902855,0.04,0.04,-9.801073,0.5370243191719055,-0.35732082,0.14644766,0.03918306902050972,0.09683449
1759.666666665395,-0.030307569,-0.77044946,-0.032175794,-2.3232636,0.039586384,1.5172467,0.8302413,0.04,0.04,-9.799803,0.5527522563934326,-0.3679021,0.14850019,0.03998938947916031,0.09828185
1759.6833333320617,-0.031155737,-0.77006036,-0.033072267,-2.3223443,0.040685005,1.5157531,0.8314721,0.04,0.04,-9.798642,0.5683860182762146,-0.3786734,0.15053849,0.040789034217596054,0.099723846
1759.6999999987283,-0.032016225,-0.76966566,-0.033981767,-2.3214114,0.041799575,1.5142369,0.83272064,0.04,0.04,-9.7972,0.5845542550086975,-0.38969222,0.15256193,0.041593555361032486,0.101158656
1759.716666665395,-0.032888997,-0.7692652,-0.03490426,-2.3204648,0.04293004,1.5126997,0.8339871,0.04,0.04,-9.795934,0.6005991101264954,-0.40085858,0.15457027,0.04239093139767647,0.10258753
1759.7333333320616,-0.033773996,-0.76885915,-0.035839677,-2.3195052,0.044076357,1.5111406,0.8352712,0.04,0.04,-9.794329,0.6171818375587463,-0.41226676,0.1565624,0.04318961501121521,0.104011565
1759.7499999987283,-0.034671184,-0.7684476,-0.03678797,-2.318533,0.04523842,1.5095602,0.8365729,0.04,0.04,-9.792971,0.6336196660995483,-0.42383358,0.15853816,0.04398120567202568,0.10542694
1759.766666665395,-0.0355805,-0.7680304,-0.03774909,-2.3175473,0.04641619,1.5079582,0.8378922,0.04,0.04,-9.7913475,0.650600254535675,-0.43562216,0.1604967,0.044769324362277985,0.10683718
1759.7833333320616,-0.03650187,-0.7676077,-0.038722944,-2.3165479,0.04760959,1.506335,0.83922905,0.04,0.04,-9.78979,0.6674320697784424,-0.44761786,0.16243713,0.04555230215191841,0.108238816
1759.7999999987283,-0.03743524,-0.7671794,-0.039709494,-2.315536,0.048818525,1.5046908,0.8405834,0.04,0.04,-9.787898,0.6847469806671143,-0.45979932,0.16435894,0.04633498191833496,0.10962856
1759.816666665395,-0.03838054,-0.7667458,-0.04070868,-2.3145115,0.050042905,1.5030255,0.84195495,0.04,0.04,-9.786316,0.7019675374031067,-0.47221416,0.16626157,0.047110579907894135,0.111010626
1759.8333333320616,-0.03933773,-0.76630664,-0.041720398,-2.3134737,0.051282622,1.5013392,0.8433436,0.04,0.04,-9.784385,0.719687819480896,-0.48480168,0.16814479,0.04788075387477875,0.11238539
1759.8499999987282,-0.040306702,-0.76586205,-0.042744596,-2.312423,0.05253763,1.4996324,0.84474945,0.04,0.04,-9.782524,0.7372769713401794,-0.49761254,0.17000829,0.04864722117781639,0.11375322
1759.8666666653949,-0.041287396,-0.7654123,-0.043781184,-2.3113601,0.05380781,1.4979048,0.84617233,0.04,0.04,-9.780423,0.7553285956382751,-0.51062596,0.1718509,0.04940975829958916,0.11510932
1759.8833333320615,-0.042279743,-0.76495695,-0.044830095,-2.3102844,0.055093076,1.4961566,0.8476122,0.04,0.04,-9.778385,0.7734264135360718,-0.523832,0.17367202,0.05016607418656349,0.116456896
1759.8999999987282,-0.04328366,-0.7644964,-0.04589123,-2.3091955,0.056393314,1.4943882,0.8490686,0.04,0.04,-9.776341,0.7915304899215698,-0.53727293,0.17547086,0.0509161651134491,0.11779375
1759.9166666653948,-0.04429905,-0.7640304,-0.046964515,-2.308095,0.057708427,1.4925992,0.8505416,0.04,0.04,-9.773883,0.8100942969322205,-0.5508984,0.17724906,0.05166666582226753,0.11911958
1759.9333333320615,-0.04532585,-0.7635593,-0.04804986,-2.3069818,0.059038326,1.4907904,0.8520315,0.04,0.04,-9.77183,0.8285473585128784,-0.5647539,0.17900434,0.05240381136536598,0.1204366
1759.9499999987281,-0.046363965,-0.763083,-0.04914717,-2.3058562,0.06038285,1.4889616,0.85353756,0.04,0.04,-9.769272,0.8474299907684326,-0.57879114,0.18073462,0.053138379007577896,0.12174078
1759.9666666653948,-0.047413304,-0.7626016,-0.05025636,-2.3047185,0.061741915,1.4871129,0.85506,0.04,0.04,-9.766873,0.8661855459213257,-0.59304494,0.18244264,0.053867634385824203,0.12303328
1759.9833333320614,-0.048473787,-0.762115,-0.051377326,-2.303569,0.063115396,1.4852449,0.8565987,0.04,0.04,-9.764203,0.8853966593742371,-0.6074981,0.18412611,0.054590918123722076,0.1243153
1759.999999998728,-0.04954529,-0.7616234,-0.05250996,-2.3024075,0.06450313,1.4833573,0.8581533,0.04,0.04,-9.761728,0.904456615447998,-0.62219346,0.18578404,0.05530546233057976,0.12558404
1760.0166666653947,-0.05062775,-0.76112664,-0.053654164,-2.301234,0.06590507,1.4814507,0.85972387,0.04,0.04,-9.7588,0.923945963382721,-0.63704956,0.18741797,0.05601619929075241,0.1268417
1760.0333333320614,-0.05172106,-0.76062495,-0.05480985,-2.3000484,0.067321025,1.4795247,0.8613101,0.04,0.04,-9.756094,0.9433006048202515,-0.6521624,0.18902548,0.0567203164100647,0.12808521
1760.049999998728,-0.052825104,-0.76011825,-0.055976886,-2.2988515,0.06875088,1.47758,0.8629119,0.04,0.04,-9.7530155,0.9630581736564636,-0.6674363,0.19060737,0.0574181042611599,0.12931547
1760.0666666653947,-0.053939782,-0.75960666,-0.057155166,-2.2976434,0.070194535,1.4756166,0.86452913,0.04,0.04,-9.75014,0.982700765132904,-0.6829584,0.19216305,0.058107536286115646,0.1305336
1760.0833333320613,-0.055065006,-0.7590906,-0.05834459,-2.2964237,0.0716518,1.4736346,0.8661616,0.04,0.04,-9.746935,1.0027118921279907,-0.6986646,0.1936918,0.058789778500795364,0.13173701
1760.099999998728,-0.05620065,-0.75856954,-0.059545044,-2.2951927,0.073122546,1.4716343,0.8678092,0.04,0.04,-9.74377,1.0225802659988403,-0.71455586,0.19519408,0.05946708843111992,0.13292287
1760.1166666653946,-0.057346597,-0.7580436,-0.060756408,-2.29395,0.07460664,1.4696157,0.8694717,0.04,0.04,-9.740411,1.0428682565689087,-0.73069555,0.19666815,0.060134366154670715,0.13409778
1760.1333333320613,-0.05850273,-0.75751334,-0.06197854,-2.2926967,0.07610393,1.4675791,0.871149,0.04,0.04,-9.736895,1.0631247758865356,-0.7470207,0.19811496,0.060797318816185,0.13525859
1760.149999998728,-0.05966897,-0.75697833,-0.06321135,-2.2914321,0.07761425,1.4655248,0.87284094,0.04,0.04,-9.7335005,1.0833606719970703,-0.7635312,0.19953385,0.06145218759775162,0.13640335
1760.1666666653946,-0.060845155,-0.7564387,-0.06445469,-2.2901573,0.07913747,1.463453,0.87454736,0.04,0.04,-9.729772,1.1039782762527466,-0.78026634,0.2009239,0.06209942325949669,0.13753533
1760.1833333320612,-0.062031187,-0.7558946,-0.06570845,-2.288871,0.08067345,1.4613638,0.8762681,0.04,0.04,-9.72622,1.1244601011276245,-0.79723054,0.20228453,0.06273648142814636,0.13865289
1760.199999998728,-0.06322693,-0.75534594,-0.06697251,-2.2875752,0.08222199,1.4592574,0.87800294,0.04,0.04,-9.72214,1.1452380418777466,-0.81434476,0.20361643,0.06337026506662369,0.13975295
1760.2166666653945,-0.06443228,-0.75479275,-0.06824672,-2.2862685,0.08378296,1.4571341,0.87975174,0.04,0.04,-9.718478,1.1659237146377563,-0.8317165,0.20491818,0.0639893114566803,0.14083792
1760.2333333320612,-0.065647095,-0.75423545,-0.06953096,-2.2849517,0.0853562,1.4549941,0.8815143,0.04,0.04,-9.714235,1.1869009733200073,-0.84925884,0.2061901,0.06460283696651459,0.14190738
1760.2499999987278,-0.066871285,-0.7536738,-0.07082507,-2.2836246,0.0869415,1.4528375,0.8832903,0.04,0.04,-9.710222,1.207758903503418,-0.86701125,0.20743184,0.06520694494247437,0.14295986
1760.2666666653945,-0.06810469,-0.75310796,-0.07212893,-2.2822876,0.08853873,1.450665,0.8850797,0.04,0.04,-9.705824,1.2289137840270996,-0.88495183,0.20864357,0.06580263376235962,0.14399622
1760.2833333320611,-0.069347166,-0.7525379,-0.0734424,-2.2809403,0.09014774,1.4484763,0.88688225,0.04,0.04,-9.701554,1.2499414682388306,-0.9031134,0.20982479,0.06639134883880615,0.14501607
1760.2999999987278,-0.0705986,-0.7519638,-0.07476533,-2.2795842,0.09176832,1.446272,0.88869774,0.04,0.04,-9.696889,1.2712334394454956,-0.92143524,0.2109752,0.06697215139865875,0.14601886
1760.3166666653945,-0.07185883,-0.75138557,-0.076097585,-2.2782176,0.09340029,1.4440522,0.890526,0.04,0.04,-9.692494,1.292405366897583,-0.9399929,0.21209422,0.06754110008478165,0.14700346
1760.333333332061,-0.07312776,-0.75080323,-0.07743904,-2.2768419,0.09504351,1.4418172,0.89236695,0.04,0.04,-9.687539,1.313841700553894,-0.95871454,0.21318261,0.06810525804758072,0.14797209
1760.3499999987278,-0.074405216,-0.750217,-0.07878953,-2.2754571,0.09669775,1.4395666,0.89422035,0.04,0.04,-9.682876,1.3351283073425293,-0.9776635,0.21423854,0.06865799427032471,0.14892016
1760.3666666653944,-0.07569106,-0.7496271,-0.08014892,-2.2740629,0.09836286,1.437302,0.89608574,0.04,0.04,-9.677845,1.3567031621932983,-0.99675566,0.2152619,0.06919868290424347,0.1498534
1760.383333332061,-0.076985165,-0.7490335,-0.08151704,-2.2726605,0.100038655,1.4350224,0.8979634,0.04,0.04,-9.672656,1.3781927824020386,-1.0160611,0.21625516,0.06973648071289062,0.15076688
1760.3999999987277,-0.07828736,-0.748436,-0.08289373,-2.2712495,0.10172492,1.4327286,0.89985263,0.04,0.04,-9.667703,1.399682879447937,-1.035563,0.21721397,0.0702584907412529,0.15166366
1760.4166666653944,-0.07959752,-0.7478349,-0.08427886,-2.2698286,0.10342152,1.4304209,0.9017532,0.04,0.04,-9.662295,1.4213587045669556,-1.0552696,0.21814121,0.07077125459909439,0.15254079
1760.433333332061,-0.08091548,-0.7472303,-0.08567226,-2.268399,0.10512819,1.4280994,0.90366524,0.04,0.04,-9.656817,1.4429042339324951,-1.0751107,0.2190379,0.07127949595451355,0.15339918
1760.4499999987277,-0.08224113,-0.7466221,-0.087073766,-2.266961,0.10684483,1.4257643,0.9055884,0.04,0.04,-9.651114,1.4646495580673218,-1.0951442,0.21990122,0.07177919894456863,0.15423654
1760.4666666653943,-0.08357429,-0.74601054,-0.08848323,-2.2655156,0.10857115,1.4234161,0.90752244,0.04,0.04,-9.645529,1.48628830909729,-1.1153755,0.22073206,0.07226946949958801,0.15505673
1760.483333332061,-0.08491483,-0.74539554,-0.0899005,-2.2640622,0.11030697,1.4210548,0.90946716,0.04,0.04,-9.639691,1.508089542388916,-1.1357567,0.22152983,0.07274783402681351,0.15585577
1760.4999999987276,-0.086262584,-0.7447771,-0.0913254,-2.262601,0.112052135,1.4186809,0.9114225,0.04,0.04,-9.633903,1.529799461364746,-1.1563674,0.22229418,0.07321442663669586,0.15663886
1760.5166666653943,-0.087617375,-0.74415547,-0.09275776,-2.2611322,0.11380641,1.4162945,0.9133879,0.04,0.04,-9.627749,1.551619052886963,-1.1771314,0.2230243,0.07367102801799774,0.1574001
1760.533333332061,-0.08897908,-0.7435308,-0.094197474,-2.2596564,0.11556964,1.4138957,0.9153635,0.04,0.04,-9.62168,1.573343276977539,-1.1980629,0.22372238,0.07411664724349976,0.15814328
1760.5499999987276,-0.090347506,-0.74290276,-0.0956443,-2.258173,0.11734158,1.4114854,0.91734874,0.04,0.04,-9.615351,1.5952081680297852,-1.2191485,0.22438584,0.07454915344715118,0.15886596
1760.5666666653942,-0.09172254,-0.742272,-0.097098105,-2.2566822,0.11912203,1.4090633,0.91934353,0.04,0.04,-9.608958,1.616929531097412,-1.2404621,0.22501673,0.07497482746839523,0.15956901
1760.5833333320609,-0.093103975,-0.7416381,-0.09855872,-2.2551844,0.12091076,1.4066302,0.92134774,0.04,0.04,-9.602291,1.6387865543365479,-1.2618414,0.22561438,0.07539023458957672,0.16025113
1760.5999999987275,-0.094491675,-0.7410016,-0.100025944,-2.25368,0.12270755,1.4041858,0.923361,0.04,0.04,-9.595705,1.6605141162872314,-1.2834717,0.22617784,0.0757957473397255,0.16091277
1760.6166666653942,-0.095885485,-0.74036205,-0.10149964,-2.2521687,0.12451228,1.4017308,0.92538303,0.04,0.04,-9.588825,1.682354211807251,-1.305184,0.22670783,0.07618965208530426,0.16155486
1760.6333333320608,-0.097285196,-0.7397199,-0.102979615,-2.2506511,0.12632464,1.3992649,0.92741364,0.04,0.04,-9.581862,1.7041069269180298,-1.3271196,0.2272049,0.07657403498888016,0.16217534
1760.6499999987275,-0.098690696,-0.739075,-0.104465716,-2.2491274,0.1281445,1.3967891,0.9294528,0.04,0.04,-9.574949,1.7258199453353882,-1.3491858,0.22766837,0.07694485783576965,0.16277583
1760.6666666653941,-0.10010182,-0.73842764,-0.105957724,-2.247598,0.1299716,1.3943037,0.9315,0.04,0.04,-9.5676565,1.74759042263031,-1.371401,0.2280973,0.0773058533668518,0.16335571
1760.6833333320608,-0.101518385,-0.73777777,-0.10745548,-2.2460625,0.13180572,1.3918083,0.93355507,0.04,0.04,-9.560476,1.7692596912384033,-1.3937793,0.22849278,0.07765574008226395,0.16391441
1760.6999999987274,-0.1029402,-0.7371253,-0.108958825,-2.2445207,0.13364664,1.3893039,0.9356177,0.04,0.04,-9.552972,1.79096519947052,-1.4162751,0.2288546,0.07799260318279266,0.1644526
1760.716666665394,-0.10436711,-0.73647076,-0.110467575,-2.242974,0.13549417,1.3867904,0.9376878,0.04,0.04,-9.545387,1.8125474452972412,-1.4389484,0.22918384,0.07832323759794235,0.16496825
1760.7333333320607,-0.10579895,-0.7358139,-0.11198154,-2.2414217,0.13734801,1.3842684,0.93976504,0.04,0.04,-9.537726,1.8341994285583496,-1.461716,0.22947872,0.07863784581422806,0.16546373
1760.7499999987274,-0.10723555,-0.73515475,-0.11350059,-2.239864,0.13920803,1.3817381,0.9418492,0.04,0.04,-9.529915,1.8557028770446777,-1.4846623,0.22974052,0.07894545793533325,0.16593604
1760.766666665394,-0.10867672,-0.7344936,-0.11502448,-2.238302,0.14107394,1.3791996,0.94394,0.04,0.04,-9.52191,1.8772565126419067,-1.5077186,0.22996841,0.07924091070890427,0.16638817
1760.7833333320607,-0.11012231,-0.7338303,-0.116553046,-2.2367349,0.14294556,1.3766534,0.9460371,0.04,0.04,-9.513955,1.8986830711364746,-1.5309232,0.23016302,0.07952449470758438,0.16681813
1760.7999999987273,-0.11157213,-0.733165,-0.118086115,-2.2351632,0.14482264,1.3740999,0.94814044,0.04,0.04,-9.50569,1.92010498046875,-1.5542368,0.23032449,0.07979551702737808,0.16722661
1760.816666665394,-0.11302599,-0.73249793,-0.1196235,-2.233587,0.14670499,1.371539,0.9502497,0.04,0.04,-9.497461,1.941430926322937,-1.5776999,0.23045239,0.08005576580762863,0.16761316
1760.8333333320606,-0.11448373,-0.73182917,-0.121164985,-2.2320068,0.1485923,1.3689713,0.95236456,0.04,0.04,-9.488904,1.9627209901809692,-1.6012366,0.23054706,0.08030567318201065,0.16797727
1760.8499999987273,-0.11594519,-0.7311586,-0.122710384,-2.2304225,0.1504844,1.3663971,0.95448476,0.04,0.04,-9.480454,1.9839273691177368,-1.6249232,0.23060912,0.08054330945014954,0.16832083
1760.866666665394,-0.11741018,-0.73048663,-0.12425955,-2.2288342,0.15238106,1.3638167,0.95661,0.04,0.04,-9.471698,2.005084276199341,-1.6487056,0.23063807,0.08076859265565872,0.16864204
1760.8833333320606,-0.11887852,-0.7298129,-0.12581226,-2.2272425,0.15428206,1.3612305,0.9587402,0.04,0.04,-9.4628525,2.0261545181274414,-1.6725712,0.23063512,0.08098425716161728,0.16894136
1760.8999999987273,-0.12035003,-0.7291378,-0.12736832,-2.2256467,0.15618716,1.3586385,0.960875,0.04,0.04,-9.454027,2.0471279621124268,-1.6966176,0.23059909,0.08118753135204315,0.16921768
1760.916666665394,-0.121824555,-0.7284613,-0.1289276,-2.2240481,0.15809616,1.3560413,0.9630142,0.04,0.04,-9.444854,2.068039655685425,-1.7206826,0.23053059,0.08138030022382736,0.16947225
1760.9333333320606,-0.12330191,-0.7277835,-0.13048987,-2.222447,0.16000877,1.3534393,0.9651575,0.04,0.04,-9.435822,2.0888848304748535,-1.744916,0.23042914,0.08155981451272964,0.16970512
1760.9499999987272,-0.12478186,-0.72710454,-0.13205495,-2.2208424,0.16192476,1.3508325,0.96730465,0.04,0.04,-9.4265,2.109626531600952,-1.7692071,0.23029484,0.08172651380300522,0.16991556
1760.9666666653939,-0.12626427,-0.7264244,-0.13362263,-2.2192352,0.16384397,1.3482213,0.9694553,0.04,0.04,-9.417098,2.1302616596221924,-1.7935798,0.23012914,0.08188331127166748,0.17010291
1760.9833333320605,-0.12774895,-0.7257433,-0.13519272,-2.2176256,0.16576605,1.3456061,0.9716092,0.04,0.04,-9.407551,2.1508166790008545,-1.8180472,0.22993164,0.08202730119228363,0.17026845
1760.9999999987272,-0.12923573,-0.72506124,-0.13676502,-2.2160137,0.16769084,1.3429871,0.97376615,0.04,0.04,-9.397966,2.171269655227661,-1.8426085,0.22970293,0.08215972781181335,0.17041148
1761.0166666653938,-0.1307244,-0.72437817,-0.1383394,-2.2143998,0.16961813,1.3403648,0.97592586,0.04,0.04,-9.388166,2.191622734069824,-1.8672116,0.22944234,0.08227936178445816,0.17053297
1761.0333333320605,-0.13221486,-0.7236943,-0.1399156,-2.2127843,0.1715476,1.3377396,0.97808814,0.04,0.04,-9.378389,2.211886405944824,-1.89196,0.22915085,0.08238694816827774,0.17063169
1761.0499999987271,-0.13370687,-0.7230098,-0.14149345,-2.2111666,0.17347904,1.3351117,0.9802525,0.04,0.04,-9.368362,2.232006549835205,-1.916716,0.22882722,0.08248279243707657,0.17070723
1761.0666666653938,-0.1352002,-0.7223248,-0.14307275,-2.2095475,0.17541228,1.3324814,0.9824189,0.04,0.04,-9.358302,2.2520580291748047,-1.9415636,0.22847362,0.08256834000349045,0.17076077
1761.0833333320604,-0.13669463,-0.7216392,-0.14465332,-2.2079275,0.17734703,1.329849,0.984587,0.04,0.04,-9.348055,2.271958589553833,-1.9664383,0.2280896,0.08264198899269104,0.1707926
1761.099999998727,-0.13819009,-0.7209531,-0.14623496,-2.2063065,0.17928305,1.3272148,0.9867566,0.04,0.04,-9.337865,2.2917845249176025,-1.9914366,0.22767487,0.08270255476236343,0.17080288
1761.1166666653937,-0.13968648,-0.7202665,-0.14781748,-2.204684,0.18122011,1.3245794,0.9889274,0.04,0.04,-9.327396,2.3114421367645264,-2.0164225,0.22723019,0.08275093138217926,0.17079008
1761.1333333320604,-0.14118345,-0.7195798,-0.1494007,-2.2030613,0.18315795,1.3219428,0.9910992,0.04,0.04,-9.316852,2.330993175506592,-2.0414908,0.22675465,0.08278898149728775,0.17075384
1761.149999998727,-0.14268076,-0.7188928,-0.15098433,-2.201438,0.18509637,1.3193054,0.99327147,0.04,0.04,-9.306364,2.350484609603882,-2.0666335,0.22624895,0.08281289041042328,0.17069668
1761.1666666653937,-0.14417844,-0.7182057,-0.15256831,-2.199814,0.18703513,1.3166673,0.99544406,0.04,0.04,-9.29557,2.3697330951690674,-2.0917602,0.22571503,0.08282601088285446,0.17061697
1761.1833333320603,-0.14567615,-0.7175185,-0.1541524,-2.1981902,0.18897395,1.3140292,0.99761677,0.04,0.04,-9.284775,2.3889522552490234,-2.1169531,0.22515263,0.08282791823148727,0.17051515
1761.199999998727,-0.1471737,-0.71683145,-0.15573636,-2.1965668,0.19091263,1.3113912,0.9997893,0.04,0.04,-9.2738695,2.4079675674438477,-2.1421547,0.22456047,0.08281610906124115,0.17039105
1761.2166666653936,-0.14867108,-0.7161445,-0.15732002,-2.194944,0.19285092,1.3087538,1.0019615,0.04,0.04,-9.262931,2.4269187450408936,-2.1674287,0.22394027,0.0827919989824295,0.1702452
1761.2333333320603,-0.15016785,-0.71545786,-0.15890323,-2.1933212,0.19478859,1.3061174,1.004133,0.04,0.04,-9.251833,2.4456727504730225,-2.1927023,0.22329086,0.08275502920150757,0.17007795
1761.249999998727,-0.15166405,-0.71477157,-0.1604857,-2.1916993,0.19672538,1.303482,1.0063037,0.04,0.04,-9.2406435,2.4643325805664062,-2.2180042,0.22261356,0.08270838856697083,0.16988817
1761.2666666653936,-0.15315941,-0.71408546,-0.16206731,-2.1900783,0.19866104,1.300848,1.0084729,0.04,0.04,-9.229349,2.482789993286133,-2.2432764,0.22190845,0.08264919370412827,0.16967621
1761.2833333320602,-0.15465374,-0.7133998,-0.16364789,-2.1884582,0.20059536,1.298216,1.0106407,0.04,0.04,-9.218034,2.5011916160583496,-2.2686422,0.2211757,0.08257652819156647,0.16944313
1761.299999998727,-0.15614684,-0.7127149,-0.16522719,-2.1868393,0.20252812,1.2955859,1.0128068,0.04,0.04,-9.206558,2.5193560123443604,-2.2939544,0.22041564,0.08249299228191376,0.16918765
1761.3166666653935,-0.1576385,-0.7120304,-0.16680501,-2.1852224,0.20445906,1.2929585,1.014971,0.04,0.04,-9.195027,2.537442922592163,-2.319282,0.21962948,0.08239822089672089,0.16891064
1761.3333333320602,-0.1591286,-0.71134675,-0.1683812,-2.1836066,0.20638794,1.290334,1.0171328,0.04,0.04,-9.183466,2.555314302444458,-2.3446207,0.21881509,0.08228954672813416,0.1686129
1761.3499999987268,-0.16061696,-0.71066403,-0.16995554,-2.1819928,0.20831457,1.2877123,1.019292,0.04,0.04,-9.17173,2.5731184482574463,-2.3699484,0.21797653,0.08217267692089081,0.16829251
1761.3666666653935,-0.16210335,-0.7099821,-0.17152788,-2.1803815,0.21023867,1.285094,1.0214485,0.04,0.04,-9.159922,2.5906689167022705,-2.395211,0.21711174,0.08204448968172073,0.16795038
1761.3833333320601,-0.1635876,-0.70930094,-0.17309794,-2.1787724,0.21215998,1.2824796,1.0236019,0.04,0.04,-9.148202,2.6081364154815674,-2.420544,0.21622017,0.08189959079027176,0.16758859
1761.3999999987268,-0.16506957,-0.70862114,-0.1746656,-2.1771662,0.2140783,1.2798691,1.0257522,0.04,0.04,-9.136278,2.6254868507385254,-2.445865,0.2153036,0.08174490928649902,0.1672067
1761.4166666653934,-0.16654903,-0.70794237,-0.17623064,-2.1755626,0.21599336,1.2772632,1.0278986,0.04,0.04,-9.124343,2.642578363418579,-2.4710913,0.21436037,0.0815759152173996,0.16680351
1761.43333333206,-0.16802584,-0.7072648,-0.17779286,-2.1739616,0.21790496,1.274662,1.0300411,0.04,0.04,-9.1123,2.6596105098724365,-2.4963598,0.21339457,0.08139671385288239,0.16637808
1761.4499999987268,-0.16949983,-0.7065885,-0.1793521,-2.172364,0.21981293,1.2720658,1.0321796,0.04,0.04,-9.100161,2.676353693008423,-2.5215323,0.21240458,0.08120739459991455,0.16593228
1761.4666666653934,-0.17097074,-0.7059139,-0.18090817,-2.1707695,0.22171697,1.2694745,1.0343138,0.04,0.04,-9.088052,2.6930902004241943,-2.5467362,0.21138963,0.08100368082523346,0.16546477
1761.48333333206,-0.17243847,-0.70524055,-0.18246083,-2.169178,0.22361678,1.2668891,1.036443,0.04,0.04,-9.075755,2.7095088958740234,-2.5717888,0.21035203,0.08079018443822861,0.16497712
1761.4999999987267,-0.17390281,-0.7045688,-0.1840099,-2.1675909,0.22551225,1.26431,1.0385675,0.04,0.04,-9.06347,2.725905418395996,-2.5969229,0.20929207,0.08056608587503433,0.16446841
1761.5166666653934,-0.17536362,-0.70389855,-0.18555528,-2.166007,0.22740315,1.261737,1.040687,0.04,0.04,-9.051216,2.74200701713562,-2.6219566,0.20820826,0.0803288072347641,0.16394012
1761.53333333206,-0.17682064,-0.7032301,-0.18709673,-2.1644278,0.22928913,1.2591707,1.0428005,0.04,0.04,-9.038758,2.7580745220184326,-2.6469545,0.20710184,0.08008192479610443,0.16338995
1761.5499999987267,-0.1782738,-0.7025634,-0.18863401,-2.162852,0.23117,1.256611,1.0449089,0.04,0.04,-9.026384,2.7738518714904785,-2.6718662,0.20597456,0.07982216775417328,0.16282177
1761.5666666653933,-0.17972285,-0.7018986,-0.19016705,-2.161281,0.23304558,1.2540586,1.0470109,0.04,0.04,-9.013861,2.7895901203155518,-2.6967473,0.20482397,0.07955175638198853,0.16223353
1761.58333333206,-0.18116762,-0.7012358,-0.19169554,-2.1597152,0.23491569,1.251514,1.049107,0.04,0.04,-9.001361,2.8050243854522705,-2.7215242,0.20365374,0.07926926016807556,0.16162567
1761.5999999987266,-0.1826079,-0.70057523,-0.19321938,-2.1581535,0.23678003,1.248977,1.0511966,0.04,0.04,-8.988817,2.8204233646392822,-2.7463095,0.20246118,0.07897636294364929,0.16099747
1761.6166666653933,-0.18404357,-0.6999167,-0.19473834,-2.1565971,0.23863831,1.2464482,1.0532794,0.04,0.04,-8.976192,2.8355047702789307,-2.7709024,0.20124903,0.07867269963026047,0.16034973
1761.63333333206,-0.18547447,-0.6992604,-0.19625223,-2.1550462,0.24049039,1.2439271,1.0553552,0.04,0.04,-8.963559,2.8505072593688965,-2.795496,0.20001662,0.07835909724235535,0.1596842
1761.6499999987266,-0.18690045,-0.69860613,-0.19776087,-2.1535,0.2423361,1.2414154,1.0574237,0.04,0.04,-8.950973,2.865428924560547,-2.820043,0.19876409,0.0780278891324997,0.1590008
1761.6666666653932,-0.1883213,-0.6979543,-0.19926414,-2.15196,0.24417515,1.2389127,1.0594848,0.04,0.04,-8.9382105,2.879969358444214,-2.8444493,0.19749308,0.07769099622964859,0.1582973
1761.6833333320599,-0.18973678,-0.69730496,-0.20076184,-2.1504254,0.24600731,1.2364192,1.0615383,0.04,0.04,-8.925511,2.8945446014404297,-2.8688283,0.19620183,0.0773412361741066,0.15757369
1761.6999999987265,-0.1911468,-0.696658,-0.20225374,-2.148897,0.24783239,1.2339352,1.0635841,0.04,0.04,-8.912776,2.9087703227996826,-2.8930264,0.19489284,0.07698196172714233,0.15683442
1761.7166666653932,-0.19255123,-0.6960137,-0.20373967,-2.1473744,0.24965018,1.2314612,1.0656219,0.04,0.04,-8.900021,2.92299485206604,-2.9172232,0.19356358,0.07660973072052002,0.15607597
1761.7333333320598,-0.19394983,-0.695372,-0.20521949,-2.145858,0.25146043,1.2289973,1.0676513,0.04,0.04,-8.88725,2.9368488788604736,-2.9412587,0.19221549,0.0762273371219635,0.15529886
1761.7499999987265,-0.19534251,-0.6947331,-0.20669304,-2.1443481,0.253263,1.2265443,1.0696719,0.04,0.04,-8.874408,2.9507529735565186,-2.9652278,0.19085024,0.07583573460578918,0.15450568
1761.7666666653931,-0.19672906,-0.694097,-0.20816012,-2.1428454,0.25505757,1.224102,1.0716835,0.04,0.04,-8.861645,2.964257001876831,-2.9890556,0.18946803,0.07543369382619858,0.15369275
1761.7833333320598,-0.19810927,-0.69346374,-0.20962058,-2.141349,0.25684398,1.2216709,1.0736862,0.04,0.04,-8.848849,2.9778363704681396,-3.0128438,0.1880681,0.07501915842294693,0.1528649
1761.7999999987264,-0.19948302,-0.69283354,-0.2110742,-2.13986,0.25862205,1.219251,1.0756795,0.04,0.04,-8.836019,2.9910032749176025,-3.0364316,0.1866522,0.07459716498851776,0.15202078
1761.816666665393,-0.20085014,-0.6922063,-0.21252082,-2.1383777,0.26039156,1.2168428,1.077663,0.04,0.04,-8.823164,3.0041935443878174,-3.0599606,0.18522003,0.0741635113954544,0.15115747
1761.8333333320597,-0.20221055,-0.6915823,-0.2139603,-2.1369028,0.2621523,1.2144463,1.0796368,0.04,0.04,-8.810361,3.0170066356658936,-3.0833206,0.18377419,0.07372031360864639,0.15027642
1761.8499999987264,-0.20356397,-0.6909613,-0.21539249,-2.1354353,0.26390404,1.212062,1.0816005,0.04,0.04,-8.79751,3.0298876762390137,-3.1066077,0.18231109,0.07326627522706985,0.14937942
1761.866666665393,-0.20491037,-0.69034356,-0.2168172,-2.1339755,0.26564664,1.2096905,1.0835539,0.04,0.04,-8.784731,3.042341470718384,-3.1297417,0.18083328,0.0728021040558815,0.14846438
1761.8833333320597,-0.20624945,-0.6897293,-0.21823427,-2.1325235,0.26737988,1.2073317,1.0854967,0.04,0.04,-8.771916,3.0548009872436523,-3.152747,0.17934163,0.07233034074306488,0.14753778
1761.8999999987263,-0.2075812,-0.6891184,-0.21964353,-2.1310797,0.26910353,1.2049859,1.0874288,0.04,0.04,-8.759074,3.0671184062957764,-3.175639,0.17783602,0.07184761017560959,0.14658912
1761.916666665393,-0.20890537,-0.6885109,-0.22104481,-2.1296444,0.27081746,1.2026532,1.0893501,0.04,0.04,-8.746349,3.0791091918945312,-3.1983647,0.17631657,0.0713563859462738,0.14562897
1761.9333333320596,-0.21022183,-0.68790704,-0.22243798,-2.1282177,0.2725213,1.2003341,1.0912602,0.04,0.04,-8.733578,3.0911567211151123,-3.2210057,0.17478226,0.07085275650024414,0.14465664
1761.9499999987263,-0.21153045,-0.68730664,-0.22382283,-2.126799,0.274215,1.1980289,1.0931588,0.04,0.04,-8.720925,3.1027395725250244,-3.2434459,0.17323491,0.0703379213809967,0.1436629
1761.966666665393,-0.21283107,-0.6867099,-0.22519922,-2.1253889,0.2758984,1.1957377,1.0950457,0.04,0.04,-8.708106,3.114434242248535,-3.2658002,0.17167534,0.06981631368398666,0.14265689
1761.9833333320596,-0.21412353,-0.68611693,-0.22656697,-2.1239889,0.27757117,1.1934607,1.0969208,0.04,0.04,-8.695446,3.125710964202881,-3.2879221,0.17010526,0.06928613036870956,0.1416363
1761.9999999987263,-0.21540771,-0.68552786,-0.22792602,-2.1225972,0.27923325,1.1911986,1.0987841,0.04,0.04,-8.682878,3.137087821960449,-3.3100195,0.16852061,0.06873992085456848,0.14060347
1762.016666665393,-0.21668348,-0.6849426,-0.22927615,-2.1212137,0.28088444,1.1889508,1.1006349,0.04,0.04,-8.670219,3.1480236053466797,-3.331847,0.16692498,0.0681895762681961,0.13955508
1762.0333333320596,-0.21795064,-0.6843613,-0.23061724,-2.1198404,0.28252462,1.1867182,1.1024733,0.04,0.04,-8.657459,3.159029006958008,-3.3535285,0.16532019,0.0676322728395462,0.13849251
1762.0499999987262,-0.21920909,-0.683784,-0.23194917,-2.118476,0.28415343,1.1845014,1.1042993,0.04,0.04,-8.645071,3.1696598529815674,-3.3751168,0.1637036,0.06706279516220093,0.13741678
1762.0666666653929,-0.22045872,-0.68321085,-0.23327173,-2.117121,0.28577077,1.1823001,1.1061125,0.04,0.04,-8.632403,3.1803524494171143,-3.3964932,0.16207628,0.06648880243301392,0.13632725
1762.0833333320595,-0.22169936,-0.6826417,-0.23458482,-2.1157763,0.28737646,1.1801149,1.1079123,0.04,0.04,-8.62,3.19063138961792,-3.4177005,0.16043866,0.06590639054775238,0.13522436
1762.0999999987262,-0.22293088,-0.68207663,-0.23588829,-2.1144414,0.28897038,1.1779453,1.1096992,0.04,0.04,-8.607528,3.201017141342163,-3.438809,0.15879197,0.0653151273727417,0.1341095
1762.1166666653928,-0.22415312,-0.68151593,-0.23718196,-2.113116,0.2905523,1.1757922,1.1114725,0.04,0.04,-8.59523,3.210977077484131,-3.4596756,0.15713494,0.06471391767263412,0.13298246
1762.1333333320595,-0.22536597,-0.68095964,-0.23846579,-2.1118014,0.29212213,1.1736556,1.113232,0.04,0.04,-8.582845,3.2208986282348633,-3.4803731,0.1554708,0.06410844624042511,0.1318436
1762.1499999987261,-0.22656938,-0.68040746,-0.23973952,-2.110497,0.29367965,1.171536,1.1149781,0.04,0.04,-8.570558,3.230830430984497,-3.5009587,0.15379798,0.06349159777164459,0.13069476
1762.1666666653928,-0.22776312,-0.6798599,-0.24100307,-2.1092029,0.2952247,1.169433,1.1167102,0.04,0.04,-8.558386,3.2402710914611816,-3.521324,0.15211478,0.06286844611167908,0.12953082
1762.1833333320594,-0.22894712,-0.6793169,-0.24225631,-2.1079195,0.29675716,1.1673472,1.118428,0.04,0.04,-8.546127,3.2498457431793213,-3.5415058,0.15042464,0.06223692372441292,0.12835519
1762.199999998726,-0.23012123,-0.67877805,-0.24349912,-2.1066465,0.2982769,1.1652789,1.1201314,0.04,0.04,-8.534138,3.259025812149048,-3.5615008,0.14872734,0.061597976833581924,0.12716904
1762.2166666653927,-0.23128535,-0.67824405,-0.24473137,-2.1053843,0.2997835,1.1632283,1.1218202,0.04,0.04,-8.52199,3.268280029296875,-3.5813715,0.14702336,0.06095147877931595,0.12597173
1762.2333333320594,-0.23243935,-0.6777147,-0.24595293,-2.1041334,0.30127707,1.1611953,1.1234946,0.04,0.04,-8.510095,3.2771430015563965,-3.6009698,0.14531285,0.06029994413256645,0.12476397
1762.249999998726,-0.23358315,-0.67719007,-0.24716367,-2.102893,0.3027573,1.1591805,1.1251543,0.04,0.04,-8.498117,3.2861034870147705,-3.620439,0.14359494,0.05963953211903572,0.1235455
1762.2666666653927,-0.23471656,-0.6766702,-0.24836347,-2.1016643,0.30422422,1.1571842,1.1267986,0.04,0.04,-8.486349,3.2946441173553467,-3.6396875,0.14187026,0.058974795043468475,0.122317664
1762.2833333320593,-0.23583955,-0.67615503,-0.24955218,-2.100447,0.30567762,1.1552062,1.1284279,0.04,0.04,-8.474513,3.3033182621002197,-3.6587884,0.14014146,0.058303795754909515,0.12107963
1762.299999998726,-0.23695193,-0.6756447,-0.2507297,-2.0992408,0.30711737,1.1532468,1.1300417,0.04,0.04,-8.462988,3.3115575313568115,-3.6776881,0.1384071,0.0576237253844738,0.11983342
1762.3166666653926,-0.23805365,-0.67513925,-0.25189602,-2.0980465,0.30854326,1.1513062,1.1316402,0.04,0.04,-8.451231,3.3199174404144287,-3.6963563,0.13666788,0.056939151138067245,0.118577465
1762.3333333320593,-0.23914458,-0.67463875,-0.253051,-2.0968637,0.3099552,1.1493843,1.1332229,0.04,0.04,-8.439879,3.327880382537842,-3.7148798,0.1349233,0.05624645575881004,0.11731338
1762.349999998726,-0.2402247,-0.67414325,-0.25419444,-2.095693,0.31135312,1.1474816,1.1347903,0.04,0.04,-8.4283,3.3359549045562744,-3.733166,0.13317464,0.055547796189785004,0.11603984
1762.3666666653926,-0.24129377,-0.67365277,-0.25532633,-2.094534,0.31273675,1.1455979,1.1363417,0.04,0.04,-8.417111,3.343608856201172,-3.751292,0.13141938,0.05484185367822647,0.11475853
1762.3833333320592,-0.24235179,-0.6731675,-0.25644648,-2.093387,0.31410614,1.143734,1.1378766,0.04,0.04,-8.405823,3.3512609004974365,-3.7691772,0.12966126,0.05413082614541054,0.11346992
1762.399999998726,-0.24339865,-0.6726871,-0.25755474,-2.092252,0.31546098,1.1418898,1.1393952,0.04,0.04,-8.394537,3.3589107990264893,-3.786863,0.12790218,0.053414393216371536,0.1121728
1762.4166666653925,-0.24443427,-0.67221195,-0.25865114,-2.0911293,0.3168013,1.1400654,1.1408974,0.04,0.04,-8.383603,3.3661255836486816,-3.8044064,0.12613991,0.05269225686788559,0.11086918
1762.4333333320592,-0.2454585,-0.6717421,-0.25973555,-2.090019,0.31812704,1.138261,1.1423838,0.04,0.04,-8.372501,3.373504638671875,-3.8217041,0.124375775,0.05196479335427284,0.10955817
1762.4499999987258,-0.2464713,-0.67127764,-0.2608079,-2.0889213,0.31943786,1.1364768,1.1438541,0.04,0.04,-8.361729,3.3804500102996826,-3.8387802,0.12260625,0.05123242735862732,0.10824052
1762.4666666653925,-0.24747258,-0.6708182,-0.26186815,-2.0878358,0.32073373,1.1347127,1.1453066,0.04,0.04,-8.350837,3.387556314468384,-3.8556705,0.1208323,0.05049538612365723,0.10691654
1762.4833333320591,-0.24846229,-0.6703641,-0.26291606,-2.0867627,0.3220146,1.1329693,1.1467426,0.04,0.04,-8.340281,3.3942391872406006,-3.8723667,0.11906117,0.04975276067852974,0.105587
1762.4999999987258,-0.24944028,-0.66991526,-0.26395166,-2.0857024,0.3232804,1.1312463,1.1481615,0.04,0.04,-8.32954,3.40105938911438,-3.8888354,0.11728746,0.049007710069417953,0.10425169
1762.5166666653924,-0.25040656,-0.669472,-0.26497477,-2.0846546,0.32453093,1.1295439,1.1495636,0.04,0.04,-8.319229,3.4074723720550537,-3.9051208,0.115513235,0.04825708270072937,0.10291205
1762.533333332059,-0.25136092,-0.6690343,-0.26598546,-2.0836194,0.3257662,1.1278626,1.1509484,0.04,0.04,-8.308683,3.414022922515869,-3.9211264,0.113738194,0.047503285109996796,0.10156531
1762.5499999987258,-0.2523034,-0.66860193,-0.26698345,-2.0825977,0.326986,1.1262021,1.1523161,0.04,0.04,-8.298525,3.420175313949585,-3.936948,0.11196336,0.04674788564443588,0.10021331
1762.5666666653924,-0.2532339,-0.66817516,-0.2679688,-2.0815892,0.3281904,1.1245627,1.153666,0.04,0.04,-8.288352,3.4264907836914062,-3.9526212,0.11018681,0.045983850955963135,0.09885837
1762.583333332059,-0.2541523,-0.6677539,-0.2689415,-2.080593,0.32937917,1.1229448,1.1549988,0.04,0.04,-8.278434,3.432379961013794,-3.968046,0.108412914,0.04521722346544266,0.09749867
1762.5999999987257,-0.2550587,-0.6673381,-0.26990134,-2.0796103,0.33055237,1.1213478,1.1563141,0.04,0.04,-8.2683325,3.438426971435547,-3.9832268,0.106639,0.044449809938669205,0.09613353
1762.6166666653924,-0.25595295,-0.6669279,-0.27084836,-2.0786414,0.33170983,1.1197723,1.1576117,0.04,0.04,-8.258664,3.444073438644409,-3.9982183,0.104864515,0.043677229434251785,0.09476595
1762.633333332059,-0.25683498,-0.6665233,-0.27178246,-2.0776854,0.33285156,1.1182183,1.1588916,0.04,0.04,-8.249075,3.449753999710083,-4.0130496,0.103090934,0.042898260056972504,0.093395695
1762.6499999987257,-0.25770476,-0.66612405,-0.2727035,-2.0767422,0.33397728,1.1166862,1.1601539,0.04,0.04,-8.239312,3.455437183380127,-4.027581,0.10131981,0.04211796820163727,0.092021346
1762.6666666653923,-0.2585622,-0.6657306,-0.27361166,-2.0758128,0.33508718,1.115175,1.1613982,0.04,0.04,-8.229962,3.4606869220733643,-4.041948,0.09954927,0.04133836179971695,0.09064508
1762.683333332059,-0.2594072,-0.66534287,-0.2745067,-2.0748968,0.33618096,1.1136866,1.1626244,0.04,0.04,-8.220561,3.4661705493927,-4.0560746,0.097780876,0.04055008292198181,0.08926666
1762.6999999987256,-0.26023987,-0.66496086,-0.27538854,-2.0739942,0.3372586,1.1122192,1.1638325,0.04,0.04,-8.211466,3.471187114715576,-4.070026,0.09601636,0.039764612913131714,0.08788535
1762.7166666653923,-0.26106006,-0.6645845,-0.27625734,-2.0731049,0.33832017,1.1107739,1.1650226,0.04,0.04,-8.202239,3.4764130115509033,-4.0836782,0.09425483,0.03897455707192421,0.08650326
1762.733333332059,-0.26186782,-0.6642139,-0.27711284,-2.072229,0.33936557,1.1093509,1.1661947,0.04,0.04,-8.193405,3.4812214374542236,-4.0971837,0.09249636,0.03818375989794731,0.085119605
1762.7499999987256,-0.262663,-0.663849,-0.27795506,-2.0713668,0.3403948,1.1079501,1.1673486,0.04,0.04,-8.184424,3.4862282276153564,-4.110442,0.09074147,0.03739340230822563,0.0837359
1762.7666666653922,-0.2634456,-0.6634899,-0.27878416,-2.0705185,0.34140784,1.1065712,1.1684847,0.04,0.04,-8.175895,3.490790367126465,-4.123519,0.08898986,0.03660045564174652,0.08235162
1762.7833333320589,-0.2642157,-0.6631366,-0.2795999,-2.0696838,0.34240448,1.1052142,1.1696023,0.04,0.04,-8.167212,3.495574712753296,-4.13636,0.08723978,0.035803914070129395,0.080966346
1762.7999999987255,-0.26497316,-0.6627891,-0.28040236,-2.0688624,0.3433849,1.1038796,1.1707015,0.04,0.04,-8.158878,3.4999499320983887,-4.1489706,0.08549604,0.03500764071941376,0.079581626
1762.8166666653922,-0.26571804,-0.66244745,-0.2811913,-2.0680552,0.34434897,1.102567,1.1717824,0.04,0.04,-8.150424,3.504490375518799,-4.161367,0.08375681,0.034210726618766785,0.07819576
1762.8333333320588,-0.26645023,-0.6621116,-0.28196692,-2.067261,0.3452968,1.1012768,1.1728449,0.04,0.04,-8.142427,3.508629083633423,-4.1735673,0.08202322,0.03341124579310417,0.07681217
1762.8499999987255,-0.26716974,-0.66178155,-0.28272918,-2.0664804,0.34622815,1.100009,1.173889,0.04,0.04,-8.134153,3.51296329498291,-4.1854835,0.080295876,0.03261478245258331,0.075428545
1762.8666666653921,-0.26787668,-0.6614572,-0.28347796,-2.0657136,0.3471432,1.0987636,1.1749151,0.04,0.04,-8.126407,3.5169053077697754,-4.1972685,0.07857405,0.031818535178899765,0.07404569
1762.8833333320588,-0.2685709,-0.6611386,-0.28421333,-2.0649612,0.34804177,1.0975407,1.1759225,0.04,0.04,-8.118627,3.520874261856079,-4.208811,0.07685729,0.03102211281657219,0.07266392
1762.8999999987254,-0.2692524,-0.66082585,-0.28493538,-2.0642226,0.3489239,1.0963402,1.1769116,0.04,0.04,-8.110909,3.5249383449554443,-4.220175,0.07514565,0.030223999172449112,0.07128537
1762.916666665392,-0.26992127,-0.660519,-0.28564394,-2.0634973,0.34978953,1.095162,1.1778823,0.04,0.04,-8.103556,3.528571844100952,-4.231302,0.07344149,0.029425758868455887,0.0699089
1762.9333333320587,-0.27057743,-0.6602178,-0.2863391,-2.062786,0.35063875,1.0940062,1.1788344,0.04,0.04,-8.095981,3.532397985458374,-4.242135,0.071744084,0.028631487861275673,0.068534374
1762.9499999987254,-0.27122092,-0.65992254,-0.28702086,-2.0620883,0.35147157,1.0928726,1.1797682,0.04,0.04,-8.08896,3.5358493328094482,-4.252879,0.070053734,0.027834968641400337,0.06716492
1762.966666665392,-0.27185166,-0.6596331,-0.28768924,-2.0614047,0.35228804,1.0917611,1.1806835,0.04,0.04,-8.081673,3.5394845008850098,-4.263301,0.06837184,0.027042029425501823,0.06579733
1762.9833333320587,-0.2724698,-0.6593495,-0.28834414,-2.060735,0.35308817,1.0906718,1.1815804,0.04,0.04,-8.074951,3.5427465438842773,-4.2736077,0.06669777,0.026245489716529846,0.064434886
1762.9999999987253,-0.2730753,-0.6590716,-0.2889858,-2.0600786,0.35387188,1.0896046,1.182459,0.04,0.04,-8.067971,3.5461792945861816,-4.2836127,0.06503265,0.02545127458870411,0.06307591
1763.016666665392,-0.27366817,-0.6587995,-0.28961408,-2.0594358,0.35463926,1.0885597,1.1833194,0.039999995,0.04,-8.0614395,3.5492796897888184,-4.2934937,0.063375264,0.024658851325511932,0.061724152
1763.0333333320586,-0.27424842,-0.65853316,-0.290229,-2.0588067,0.35539055,1.087537,1.1841615,0.039999995,0.04,-8.05474,3.5525293350219727,-4.303086,0.061726272,0.023869328200817108,0.060375117
1763.0499999987253,-0.27481613,-0.6582727,-0.2908307,-2.058191,0.35612547,1.0865365,1.1849856,0.03999998,0.04,-8.048496,3.555389404296875,-4.3125243,0.06008804,0.023081276565790176,0.059031226
1763.066666665392,-0.27537128,-0.6580179,-0.29141903,-2.057589,0.35684413,1.085558,1.1857914,0.039999973,0.04,-8.042072,3.558488368988037,-4.321689,0.058457665,0.02229689247906208,0.057690788
1763.0833333320586,-0.27591404,-0.6577689,-0.29199418,-2.0570006,0.3575467,1.0846018,1.1865789,0.039999966,0.04,-8.03612,3.561187505722046,-4.330732,0.056838457,0.021514954045414925,0.05635796
1763.0999999987253,-0.27644438,-0.6575256,-0.29255608,-2.056425,0.35823303,1.0836673,1.1873484,0.039999954,0.04,-8.029973,3.5641086101531982,-4.3394804,0.05523023,0.020737575367093086,0.0550298
1763.116666665392,-0.27696222,-0.657288,-0.29310492,-2.0558634,0.3589034,1.0827546,1.1881003,0.039999954,0.04,-8.02427,3.5666401386260986,-4.3480716,0.053632345,0.019963914528489113,0.053709615
1763.1333333320586,-0.27746767,-0.65705603,-0.29364067,-2.0553155,0.3595577,1.081864,1.1888337,0.039999943,0.04,-8.018601,3.569242000579834,-4.356462,0.052043233,0.01919282227754593,0.05239593
1763.1499999987252,-0.27796087,-0.65682966,-0.29416344,-2.0547807,0.3601961,1.0809952,1.1895496,0.03999994,0.04,-8.012944,3.571910858154297,-4.3646617,0.05046761,0.01842375285923481,0.051089928
1763.1666666653919,-0.27844182,-0.6566088,-0.29467317,-2.054259,0.36081865,1.0801476,1.1902478,0.03999994,0.04,-8.0076475,3.5742030143737793,-4.372658,0.04890241,0.017660509794950485,0.049790923
1763.1833333320585,-0.27891055,-0.6563937,-0.29517,-2.0537505,0.3614254,1.0793216,1.1909279,0.039999936,0.04,-8.002208,3.5766825675964355,-4.3803935,0.047348935,0.016901424154639244,0.048500653
1763.1999999987252,-0.27936718,-0.6561843,-0.29565412,-2.0532553,0.3620165,1.078517,1.1915904,0.039999925,0.04,-7.9972253,3.5788192749023438,-4.387978,0.045809947,0.016146693378686905,0.047218375
1763.2166666653918,-0.2798117,-0.65598035,-0.29612535,-2.0527735,0.36259198,1.0777335,1.1922357,0.03999992,0.04,-7.992097,3.5811879634857178,-4.395326,0.044283066,0.015396066941320896,0.04594504
1763.2333333320585,-0.28024423,-0.6557818,-0.296584,-2.0523043,0.36315194,1.0769712,1.1928636,0.03999991,0.04,-7.987416,3.5831427574157715,-4.4025636,0.042768598,0.014649078249931335,0.044681624
1763.2499999987251,-0.2806648,-0.65558875,-0.29703015,-2.0518475,0.36369646,1.0762296,1.1934739,0.039999902,0.04,-7.982544,3.585339069366455,-4.4095235,0.041267652,0.013907266780734062,0.04342777
1763.2666666653918,-0.28107354,-0.6554012,-0.29746366,-2.0514042,0.36422578,1.075509,1.1940674,0.039999906,0.04,-7.97803,3.587158203125,-4.416302,0.039782424,0.013173718936741352,0.04218313
1763.2833333320584,-0.2814706,-0.6552188,-0.29788467,-2.050974,0.36473984,1.074809,1.1946437,0.039999902,0.04,-7.973534,3.589203357696533,-4.422911,0.0383097,0.012442142702639103,0.040949777
1763.299999998725,-0.28185597,-0.6550416,-0.2982934,-2.0505552,0.36523882,1.0741297,1.1952034,0.039999895,0.04,-7.969404,3.590876579284668,-4.4293923,0.036851384,0.011714991182088852,0.03972817
1763.3166666653917,-0.28222972,-0.65487,-0.29868984,-2.0501502,0.3657228,1.0734707,1.1957461,0.03999989,0.04,-7.9649935,3.5927393436431885,-4.4355574,0.035407387,0.010998457670211792,0.038516454
1763.3333333320584,-0.2825921,-0.65470374,-0.2990742,-2.049757,0.36619207,1.0728321,1.196272,0.039999884,0.04,-7.961187,3.594302177429199,-4.4416523,0.033980325,0.010284974239766598,0.037317626
1763.349999998725,-0.28294313,-0.6545425,-0.2994466,-2.0493758,0.3666466,1.0722133,1.1967819,0.03999988,0.04,-7.957092,3.596050977706909,-4.447432,0.032569572,0.009581014513969421,0.03612906
1763.3666666653917,-0.28328297,-0.6543864,-0.29980713,-2.0490077,0.36708656,1.071614,1.197275,0.039999876,0.04,-7.9534492,3.597459316253662,-4.4531446,0.0311731,0.008883791044354439,0.03495335
1763.3833333320583,-0.28361166,-0.6542355,-0.30015582,-2.0486512,0.36751217,1.0710347,1.1977522,0.039999872,0.04,-7.9498954,3.598959445953369,-4.458682,0.02979402,0.008188792504370213,0.033791624
1763.399999998725,-0.2839293,-0.6540897,-0.30049288,-2.0483065,0.3679235,1.0704746,1.1982136,0.039999865,0.04,-7.9462075,3.6004791259765625,-4.46394,0.028431484,0.007504290901124477,0.032642175
1763.4166666653916,-0.28423604,-0.653949,-0.30081838,-2.0479736,0.36832067,1.0699341,1.198659,0.039999865,0.04,-7.9429264,3.601682186126709,-4.4690723,0.02708705,0.006829483900219202,0.03150617
1763.4333333320583,-0.28453204,-0.6538129,-0.30113247,-2.047652,0.36870402,1.0694125,1.1990888,0.039999865,0.04,-7.939574,3.603099822998047,-4.4740252,0.025761021,0.006163227837532759,0.030383859
1763.449999998725,-0.2848174,-0.653682,-0.30143532,-2.047343,0.36907366,1.068909,1.1995033,0.039999858,0.04,-7.93656,3.6041669845581055,-4.478848,0.024452388,0.005505003500729799,0.02927673
1763.4666666653916,-0.28509215,-0.65355563,-0.30172703,-2.0470443,0.36942953,1.0684247,1.1999023,0.039999858,0.04,-7.9335265,3.6054766178131104,-4.4834504,0.023161987,0.004850736819207668,0.028185004
1763.4833333320582,-0.28535655,-0.6534341,-0.3020077,-2.0467582,0.3697721,1.0679584,1.2002864,0.039999846,0.04,-7.9307003,3.6064066886901855,-4.48792,0.02189284,0.0042104702442884445,0.027108027
1763.499999998725,-0.2856107,-0.6533173,-0.30227757,-2.0464818,0.37010145,1.0675098,1.2006557,0.03999985,0.04,-7.9279747,3.6075830459594727,-4.492245,0.020640992,0.0035719622392207384,0.02604868
1763.5166666653915,-0.28585485,-0.6532047,-0.3025368,-2.0462167,0.37041774,1.0670791,1.2010101,0.039999843,0.04,-7.9253225,3.608405113220215,-4.496303,0.019411363,0.002949613379314542,0.025004169
1763.5333333320582,-0.2860891,-0.65309715,-0.30278558,-2.0459623,0.37072122,1.0666659,1.2013502,0.03999984,0.04,-7.9227724,3.6094367504119873,-4.5003242,0.018202206,0.002333433600142598,0.023977652
1763.5499999987248,-0.28631362,-0.652994,-0.30302402,-2.0457184,0.37101206,1.0662699,1.2016765,0.03999984,0.04,-7.9204803,3.6102092266082764,-4.504108,0.017014375,0.0017294384306296706,0.022967419
1763.5666666653915,-0.28652856,-0.652895,-0.30325228,-2.0454853,0.3712905,1.0658908,1.2019889,0.03999984,0.04,-7.918099,3.6111080646514893,-4.507737,0.015846862,0.001135977334342897,0.0219741
1763.5833333320581,-0.28673404,-0.6528007,-0.30347052,-2.0452619,0.37155676,1.0655284,1.2022873,0.03999983,0.04,-7.916109,3.611748218536377,-4.5113177,0.0146993585,0.0005509466864168644,0.021000305
1763.5999999987248,-0.28693026,-0.6527105,-0.30367902,-2.0450487,0.37181103,1.0651823,1.2025723,0.03999983,0.04,-7.913907,3.6125335693359375,-4.514566,0.013578706,-1.968374999705702e-05,0.020043619
1763.6166666653914,-0.28711745,-0.6526243,-0.3038779,-2.044846,0.37205353,1.064852,1.2028445,0.03999982,0.04,-7.912125,3.613072395324707,-4.517819,0.012479964,-0.0005804497632198036,0.01910674
1763.633333332058,-0.28729582,-0.6525422,-0.30406737,-2.0446522,0.3722846,1.0645374,1.2031035,0.039999828,0.04,-7.910407,3.6136772632598877,-4.520961,0.011401323,-0.0011344219092279673,0.018191038
1763.6499999987248,-0.28746545,-0.65246415,-0.3042477,-2.0444682,0.37250444,1.0642383,1.2033502,0.039999824,0.04,-7.9084826,3.6142849922180176,-4.5238028,0.010349005,-0.001671821577474475,0.017293092
1763.6666666653914,-0.2876266,-0.65239,-0.304419,-2.044293,0.3727133,1.0639539,1.2035843,0.03999982,0.04,-7.9070444,3.614692449569702,-4.526639,0.009320288,-0.002198436763137579,0.01641603
1763.683333332058,-0.2877793,-0.65231967,-0.30458152,-2.0441277,0.37291142,1.063684,1.2038063,0.039999817,0.04,-7.9054136,3.615216016769409,-4.529241,0.008317719,-0.0027123121544718742,0.015559513
1763.6999999987247,-0.28792396,-0.6522531,-0.30473542,-2.0439713,0.3730991,1.0634285,1.2040166,0.03999982,0.04,-7.9042335,3.6155190467834473,-4.5318456,0.0073403833,-0.0032183427829295397,0.014726595
1763.7166666653914,-0.28806072,-0.65219,-0.30488095,-2.0438228,0.37327647,1.0631872,1.2042155,0.039999813,0.04,-7.902836,3.615949869155884,-4.5342264,0.006389041,-0.003710094140842557,0.013915086
1763.733333332058,-0.2881899,-0.6521306,-0.30501837,-2.0436826,0.37344393,1.0629592,1.2044033,0.039999813,0.04,-7.901688,3.6161365509033203,-4.536517,0.0054644793,-0.004186003468930721,0.013124961
1763.7499999987247,-0.28831154,-0.65207446,-0.30514786,-2.0435505,0.37360176,1.0627443,1.2045802,0.03999981,0.04,-7.90049,3.6164891719818115,-4.5386167,0.0045670155,-0.004647847265005112,0.012358376
1763.7666666653913,-0.28842586,-0.6520217,-0.30526972,-2.043426,0.37375024,1.062542,1.2047466,0.03999981,0.04,-7.899588,3.6165919303894043,-4.540697,0.0036982473,-0.005096412729471922,0.011614993
1763.783333332058,-0.28853324,-0.65197235,-0.30538413,-2.0433092,0.37388968,1.0623521,1.2049031,0.039999805,0.04,-7.89857,3.61683988571167,-4.542577,0.0028578823,-0.005530396942049265,0.010896617
1763.7999999987246,-0.2886338,-0.6519259,-0.30549142,-2.0431998,0.37402034,1.0621743,1.2050496,0.0399998,0.04,-7.89783,3.6168837547302246,-4.5443926,0.0020463981,-0.005948791280388832,0.010201443
1763.8166666653913,-0.28872782,-0.6518825,-0.30559176,-2.0430975,0.37414253,1.0620081,1.2051871,0.0399998,0.04,-7.897043,3.617051124572754,-4.5461307,0.001264088,-0.006352955475449562,0.009532025
1763.833333332058,-0.28881565,-0.6518419,-0.3056855,-2.043002,0.37425658,1.0618528,1.2053149,0.039999794,0.04,-7.8964453,3.617007255554199,-4.5477457,0.0005102921,-0.006740699987858534,0.008888191
1763.8499999987246,-0.28889745,-0.6518041,-0.30577296,-2.042913,0.37436292,1.0617079,1.2054341,0.039999794,0.04,-7.895812,3.6170945167541504,-4.5492487,-0.00021046774,-0.00711436290293932,0.008270343
1763.8666666653912,-0.28897357,-0.65176874,-0.3058542,-2.0428302,0.3744618,1.061573,1.2055452,0.039999794,0.04,-7.8953714,3.6170132160186768,-4.5506577,-0.0009008289,-0.007472450844943523,0.007679427
1763.8833333320579,-0.2890441,-0.6517362,-0.30592966,-2.042753,0.37455356,1.0614483,1.2056481,0.039999798,0.04,-7.8949757,3.616936206817627,-4.552032,-0.0015608293,-0.007815469056367874,0.007116162
1763.8999999987245,-0.28910944,-0.651706,-0.30599967,-2.0426812,0.37463862,1.0613325,1.2057433,0.03999979,0.04,-7.894486,3.6168882846832275,-4.5532055,-0.0021855151,-0.008136807009577751,0.006579196
1763.9166666653912,-0.28916967,-0.65167797,-0.30606428,-2.0426157,0.3747172,1.0612252,1.2058316,0.03999979,0.04,-7.8942575,3.616711378097534,-4.5543613,-0.0027770058,-0.008442267775535583,0.0060696336
1763.9333333320578,-0.28922537,-0.65165204,-0.3061239,-2.0425549,0.37478977,1.0611265,1.2059133,0.03999979,0.04,-7.894074,3.6165900230407715,-4.55548,-0.0033367234,-0.008734889328479767,0.0055920673
1763.9499999987245,-0.28927657,-0.651628,-0.3061789,-2.042498,0.37485668,1.0610354,1.2059882,0.039999794,0.04,-7.8939342,3.6163368225097656,-4.556506,-0.0038625288,-0.00900696124881506,0.0051426655
1763.9666666653911,-0.28932375,-0.6516059,-0.30622953,-2.0424469,0.37491828,1.0609516,1.2060573,0.039999794,0.04,-7.8937383,3.616135835647583,-4.557411,-0.004349506,-0.00925910659134388,0.0047228737
1763.9833333320578,-0.28936705,-0.65158564,-0.30627605,-2.0423992,0.37497497,1.0608742,1.2061207,0.03999979,0.04,-7.893826,3.6158652305603027,-4.558366,-0.0048043053,-0.009496408514678478,0.004334489
1763.9999999987244,-0.28940693,-0.6515671,-0.30631888,-2.0423563,0.37502712,1.0608032,1.2061794,0.039999794,0.04,-7.89375,3.6156182289123535,-4.55913,-0.0052205054,-0.009714141488075256,0.0039771856
1764.016666665391,-0.28944346,-0.6515501,-0.3063585,-2.0423155,0.37507507,1.060738,1.2062333,0.03999979,0.04,-7.893885,3.615344524383545,-4.559953,-0.0056061493,-0.009917662478983402,0.003648431
1764.0333333320577,-0.28947708,-0.65153444,-0.30639482,-2.0422795,0.37511924,1.060678,1.2062829,0.03999979,0.04,-7.893718,3.6151363849639893,-4.56057,-0.0059584035,-0.010098683647811413,0.003344637
1764.0499999987244,-0.28950804,-0.65151983,-0.30642816,-2.0422447,0.37515983,1.0606225,1.2063286,0.03999979,0.04,-7.8939176,3.614896297454834,-4.561311,-0.0062845536,-0.010271835140883923,0.0030661828
1764.066666665391,-0.28953645,-0.6515066,-0.3064589,-2.0422132,0.37519717,1.0605712,1.206371,0.03999979,0.04,-7.893744,3.614696502685547,-4.5618005,-0.0065831994,-0.010425965301692486,0.0028099779
1764.0833333320577,-0.2895626,-0.6514942,-0.30648732,-2.0421855,0.37523153,1.0605241,1.2064096,0.039999783,0.04,-7.893836,3.614496946334839,-4.5623612,-0.006859066,-0.010570161044597626,0.0025749253
1764.0999999987243,-0.28958666,-0.651483,-0.30651334,-2.0421581,0.3752631,1.0604807,1.2064449,0.03999979,0.04,-7.893937,3.6143927574157715,-4.5629773,-0.007114384,-0.010708918794989586,0.0023595663
1764.116666665391,-0.28960878,-0.65147245,-0.3065373,-2.0421333,0.3752923,1.0604404,1.206477,0.03999979,0.04,-7.8937707,3.6141579151153564,-4.5632997,-0.0073443498,-0.010827703401446342,0.0021598854
1764.1333333320576,-0.28962907,-0.651463,-0.30655938,-2.0421112,0.37531906,1.0604038,1.2065077,0.03999979,0.04,-7.8938427,3.6140286922454834,-4.5637617,-0.0075555374,-0.01094153430312872,0.0019771762
1764.1499999987243,-0.28964767,-0.6514541,-0.30657968,-2.0420911,0.3753437,1.0603709,1.2065352,0.03999979,0.04,-7.893865,3.6139328479766846,-4.564179,-0.007755056,-0.011045927181839943,0.0018087024
1764.166666665391,-0.2896649,-0.651446,-0.3065984,-2.0420713,0.37536636,1.0603402,1.2065605,0.03999979,0.04,-7.8939157,3.6137773990631104,-4.5646033,-0.007936105,-0.011141235940158367,0.0016529899
1764.1833333320576,-0.2896805,-0.65143853,-0.30661568,-2.0420532,0.37538725,1.0603114,1.2065839,0.03999979,0.04,-7.8937716,3.6136794090270996,-4.5648246,-0.008100879,-0.011224601417779922,0.0015089741
1764.1999999987243,-0.28969494,-0.65143156,-0.3066315,-2.0420368,0.37540656,1.0602863,1.2066053,0.039999783,0.04,-7.8938203,3.613564968109131,-4.565126,-0.008252266,-0.011303956620395184,0.0013774547
1764.216666665391,-0.28970835,-0.6514252,-0.3066461,-2.0420222,0.37542415,1.0602616,1.2066249,0.039999787,0.04,-7.893816,3.6134679317474365,-4.5654545,-0.0083917305,-0.011373038403689861,0.0012541309
1764.2333333320576,-0.28972065,-0.6514195,-0.30665964,-2.0420098,0.37544054,1.0602403,1.206644,0.039999787,0.04,-7.8939214,3.613417625427246,-4.565707,-0.008521074,-0.011445019394159317,0.0011439468
1764.2499999987242,-0.28973192,-0.6514141,-0.30667207,-2.0419977,0.37545535,1.0602194,1.2066603,0.039999787,0.04,-7.8939524,3.6133604049682617,-4.566016,-0.008646184,-0.011509074829518795,0.0010400608
1764.2666666653909,-0.2897423,-0.6514091,-0.30668354,-2.0419855,0.375469,1.0602018,1.2066759,0.039999787,0.04,-7.89393,3.613267421722412,-4.5661883,-0.0087542655,-0.011570588685572147,0.00094737654
1764.2833333320575,-0.2897519,-0.6514044,-0.3066941,-2.0419736,0.37548167,1.0601844,1.2066911,0.039999787,0.04,-7.8937893,3.6131818294525146,-4.566365,-0.008855739,-0.011616605333983898,0.0008581874
1764.2999999987242,-0.2897606,-0.6514002,-0.3067038,-2.0419633,0.37549335,1.0601679,1.2067035,0.039999787,0.04,-7.893769,3.6131019592285156,-4.566488,-0.008952223,-0.011661117896437645,0.0007771188
1764.3166666653908,-0.28976846,-0.6513965,-0.3067127,-2.041954,0.37550405,1.0601542,1.2067155,0.039999787,0.04,-7.89385,3.613074541091919,-4.566664,-0.00903364,-0.011706694029271603,0.0007040921
1764.3333333320575,-0.2897758,-0.651393,-0.3067208,-2.0419457,0.37551385,1.0601407,1.206727,0.039999787,0.04,-7.8938475,3.612994432449341,-4.566843,-0.009110218,-0.011742825619876385,0.0006348423
1764.3499999987241,-0.28978255,-0.65138966,-0.30672827,-2.0419383,0.37552276,1.060128,1.2067373,0.039999787,0.04,-7.893895,3.6129677295684814,-4.5669837,-0.009184229,-0.011780855245888233,0.0005732278
1764.3666666653908,-0.28978875,-0.6513866,-0.30673522,-2.0419323,0.3755314,1.0601164,1.2067459,0.039999787,0.04,-7.893941,3.6129302978515625,-4.5671453,-0.009251595,-0.011818601749837399,0.00051841344
1764.3833333320574,-0.28979453,-0.6513838,-0.30674157,-2.0419276,0.37553915,1.0601065,1.206754,0.039999787,0.04,-7.894007,3.612898349761963,-4.5673146,-0.0093099205,-0.011856957338750362,0.00046625253
1764.399999998724,-0.28979975,-0.65138113,-0.30674747,-2.0419228,0.37554607,1.0600969,1.206762,0.039999787,0.04,-7.73677,3.520503520965576,-4.2420425,0.0,-0.0,0.0
1764.4166666653907,-0.28979975,-0.65138113,-0.30674747,-2.0419228,0.37554607,1.0600969,1.206762,0.039999787,0.04,-7.894684,3.612102746963501,-4.5675797,0.0,-0.0,0.0
1764.4333333320574,-0.28979975,-0.65138113,-0.30674747,-2.0419228,0.37554607,1.0600969,1.206762,0.039999787,0.04,-7.894684,3.612102746963501,-4.5675797,0.0,-0.0,0.0
1764.449999998724,-0.28979975,-0.65138113,-0.30674747,-2.0419228,0.37554607,1.0600969,1.206762,0.039999787,0.04,-7.894684,3.612102746963501,-4.5675797,0.0,-0.0,0.0
1764.4666666653907,-0.28979975,-0.65138113,-0.30674747,-2.0419228,0.37554607,1.0600969,1.206762,0.039999787,0.04,-7.894684,3.612102746963501,-4.5675797,0.0,-0.0,0.0
1764.4833333320573,-0.28979975,-0.65138113,-0.30674747,-2.0419228,0.37554607,1.0600969,1.206762,0.039999787,0.04,-7.894684,3.612102746963501,-4.5675797,0.0,-0.0,0.0
1764.499999998724,-0.28979975,-0.65138113,-0.30674747,-2.0419228,0.37554607,1.0600969,1.206762,0.039999787,0.04,-7.894684,3.612102746963501,-4.5675797,0.0,-0.0,0.0
1764.5166666653906,-0.28979975,-0.65138113,-0.30674747,-2.0419228,0.37554607,1.0600969,1.206762,0.039999787,0.04,-7.894684,3.612102746963501,-4.5675797,0.0,-0.0,0.0
1764.5333333320573,-0.28979975,-0.65138113,-0.30674747,-2.0419228,0.37554607,1.0600969,1.206762,0.039999787,0.04,-7.894684,3.612102746963501,-4.5675797,0.0,-0.0,0.0
1764.549999998724,-0.28979975,-0.65138113,-0.30674747,-2.0419228,0.37554607,1.0600969,1.206762,0.039999787,0.04,-7.894684,3.612102746963501,-4.5675797,0.0,-0.0,0.0
1764.5666666653906,-0.28979975,-0.65138113,-0.30674747,-2.0419228,0.37554607,1.0600969,1.206762,0.039999787,0.04,-7.894684,3.612102746963501,-4.5675797,0.0,-0.0,0.0
1764.5833333320572,-0.28979975,-0.65138113,-0.30674747,-2.0419228,0.37554607,1.0600969,1.206762,0.039999787,0.04,-7.894684,3.612102746963501,-4.5675797,0.0,-0.0,0.0
1764.599999998724,-0.28979975,-0.65138113,-0.30674747,-2.0419228,0.37554607,1.0600969,1.206762,0.039999787,0.04,-7.894684,3.612102746963501,-4.5675797,0.0,-0.0,0.0
1764.6166666653905,-0.28979975,-0.65138113,-0.30674747,-2.0419228,0.37554607,1.0600969,1.206762,0.039999787,0.04,-7.894684,3.612102746963501,-4.5675797,0.0,-0.0,0.0
1764.6333333320572,-0.28979975,-0.65138113,-0.30674747,-2.0419228,0.37554607,1.0600969,1.206762,0.039999787,0.04,-7.894684,3.612102746963501,-4.5675797,0.0,-0.0,0.0
1764.6499999987238,-0.28979975,-0.65138113,-0.30674747,-2.0419228,0.37554607,1.0600969,1.206762,0.039999787,0.04,-7.894684,3.612102746963501,-4.5675797,0.0,-0.0,0.0
1764.6666666653905,-0.28979975,-0.65138113,-0.30674747,-2.0419228,0.37554607,1.0600969,1.206762,0.039999787,0.04,-7.894684,3.612102746963501,-4.5675797,0.0,-0.0,0.0
1764.6833333320571,-0.28979975,-0.65138113,-0.30674747,-2.0419228,0.37554607,1.0600969,1.206762,0.039999787,0.04,-7.894684,3.612102746963501,-4.5675797,0.0,-0.0,0.0
1764.6999999987238,-0.28979975,-0.65138113,-0.30674747,-2.0419228,0.37554607,1.0600969,1.206762,0.039999787,0.04,-7.894684,3.612102746963501,-4.5675797,0.0,-0.0,0.0
1764.7166666653904,-0.28979975,-0.65138113,-0.30674747,-2.0419228,0.37554607,1.0600969,1.206762,0.039999787,0.04,-7.894684,3.612102746963501,-4.5675797,0.0,-0.0,0.0
1764.733333332057,-0.28979975,-0.65138113,-0.30674747,-2.0419228,0.37554607,1.0600969,1.206762,0.039999787,0.04,-7.894684,3.612102746963501,-4.5675797,0.0,-0.0,0.0
1764.7499999987238,-0.28979975,-0.65138113,-0.30674747,-2.0419228,0.37554607,1.0600969,1.206762,0.039999787,0.04,-7.894684,3.612102746963501,-4.5675797,0.0,-0.0,0.0
1764.7666666653904,-0.28979975,-0.65138113,-0.30674747,-2.0419228,0.37554607,1.0600969,1.206762,0.039999787,0.04,-7.894684,3.612102746963501,-4.5675797,0.0,-0.0,0.0
1764.783333332057,-0.28979975,-0.65138113,-0.30674747,-2.0419228,0.37554607,1.0600969,1.206762,0.039999787,0.04,-7.894684,3.612102746963501,-4.5675797,0.0,-0.0,0.0
1764.7999999987237,-0.28979975,-0.65138113,-0.30674747,-2.0419228,0.37554607,1.0600969,1.206762,0.039999787,0.04,-7.894684,3.612102746963501,-4.5675797,0.0,-0.0,0.0
1764.8166666653904,-0.28979975,-0.65138113,-0.30674747,-2.0419228,0.37554607,1.0600969,1.206762,0.039999787,0.04,-7.894684,3.612102746963501,-4.5675797,0.0,-0.0,0.0
1764.833333332057,-0.28979975,-0.65138113,-0.30674747,-2.0419228,0.37554607,1.0600969,1.206762,0.039999787,0.04,-7.894684,3.612102746963501,-4.5675797,0.0,-0.0,0.0
1764.8499999987237,-0.28979975,-0.65138113,-0.30674747,-2.0419228,0.37554607,1.0600969,1.206762,0.039999787,0.04,-7.894684,3.612102746963501,-4.5675797,0.0,-0.0,0.0
1764.8666666653903,-0.28979975,-0.65138113,-0.30674747,-2.0419228,0.37554607,1.0600969,1.206762,0.039999787,0.04,-7.894684,3.612102746963501,-4.5675797,0.0,-0.0,0.0
1764.883333332057,-0.28979975,-0.65138113,-0.30674747,-2.0419228,0.37554607,1.0600969,1.206762,0.039999787,0.04,-7.894684,3.612102746963501,-4.5675797,0.0,-0.0,0.0
1764.8999999987236,-0.28979975,-0.65138113,-0.30674747,-2.0419228,0.37554607,1.0600969,1.206762,0.039999787,0.04,-7.894684,3.612102746963501,-4.5675797,0.0,-0.0,0.0
1764.9166666653903,-0.28979975,-0.65138113,-0.30674747,-2.0419228,0.37554607,1.0600969,1.206762,0.039999787,0.04,-7.894684,3.612102746963501,-4.5675797,0.0,-0.0,0.0
1764.933333332057,-0.28979975,-0.65138113,-0.30674747,-2.0419228,0.37554607,1.0600969,1.206762,0.039999787,0.04,-7.894684,3.612102746963501,-4.5675797,0.0,-0.0,0.0
1764.9499999987236,-0.28979975,-0.65138113,-0.30674747,-2.0419228,0.37554607,1.0600969,1.206762,0.039999787,0.04,-7.894684,3.612102746963501,-4.5675797,0.0,-0.0,0.0
1764.9666666653902,-0.28979975,-0.65138113,-0.30674747,-2.0419228,0.37554607,1.0600969,1.206762,0.039999787,0.04,-7.894684,3.612102746963501,-4.5675797,0.0,-0.0,0.0
1764.9833333320569,-0.28979975,-0.65138113,-0.30674747,-2.0419228,0.37554607,1.0600969,1.206762,0.039999787,0.04,-7.894684,3.612102746963501,-4.5675797,0.0,-0.0,0.0
1764.9999999987235,-0.28979975,-0.65138113,-0.30674747,-2.0419228,0.37554607,1.0600969,1.206762,0.039999787,0.04,-7.894684,3.612102746963501,-4.5675797,0.0,-0.0,0.0
1765.0166666653902,-0.28979975,-0.65138113,-0.30674747,-2.0419228,0.37554607,1.0600969,1.206762,0.039999787,0.04,-7.894684,3.612102746963501,-4.5675797,0.0,-0.0,0.0
1765.0333333320568,-0.28979975,-0.65138113,-0.30674747,-2.0419228,0.37554607,1.0600969,1.206762,0.039999787,0.04,-7.894684,3.612102746963501,-4.5675797,0.0,-0.0,0.0
1765.0499999987235,-0.28979975,-0.65138113,-0.30674747,-2.0419228,0.37554607,1.0600969,1.206762,0.039999787,0.04,-7.894684,3.612102746963501,-4.5675797,0.0,-0.0,0.0
1765.0666666653901,-0.28979975,-0.65138113,-0.30674747,-2.0419228,0.37554607,1.0600969,1.206762,0.039999787,0.04,-7.894684,3.612102746963501,-4.5675797,0.0,-0.0,0.0
1765.0833333320568,-0.28979975,-0.65138113,-0.30674747,-2.0419228,0.37554607,1.0600969,1.206762,0.039999787,0.04,-7.894684,3.612102746963501,-4.5675797,0.0,-0.0,0.0
1765.0999999987234,-0.28979975,-0.65138113,-0.30674747,-2.0419228,0.37554607,1.0600969,1.206762,0.039999787,0.04,-7.894684,3.612102746963501,-4.5675797,0.0,-0.0,0.0
1765.11666666539,-0.28979975,-0.65138113,-0.30674747,-2.0419228,0.37554607,1.0600969,1.206762,0.039999787,0.04,-7.894684,3.612102746963501,-4.5675797,0.0,-0.0,0.0
1765.1333333320567,-0.28979975,-0.65138113,-0.30674747,-2.0419228,0.37554607,1.0600969,1.206762,0.039999787,0.04,-7.894684,3.612102746963501,-4.5675797,0.0,-0.0,0.0
1765.1499999987234,-0.28979975,-0.65138113,-0.30674747,-2.0419228,0.37554607,1.0600969,1.206762,0.039999787,0.04,-7.894684,3.612102746963501,-4.5675797,0.0,-0.0,0.0
1765.16666666539,-0.28979975,-0.65138113,-0.30674747,-2.0419228,0.37554607,1.0600969,1.206762,0.039999787,0.04,-7.894684,3.612102746963501,-4.5675797,0.0,-0.0,0.0
1765.1833333320567,-0.28979975,-0.65138113,-0.30674747,-2.0419228,0.37554607,1.0600969,1.206762,0.039999787,0.04,-7.894684,3.612102746963501,-4.5675797,0.0,-0.0,0.0
1765.1999999987233,-0.28979975,-0.65138113,-0.30674747,-2.0419228,0.37554607,1.0600969,1.206762,0.039999787,0.04,-7.894684,3.612102746963501,-4.5675797,0.0,-0.0,0.0
1765.21666666539,-0.28979975,-0.65138113,-0.30674747,-2.0419228,0.37554607,1.0600969,1.206762,0.039999787,0.04,-7.894684,3.612102746963501,-4.5675797,0.0,-0.0,0.0
1765.2333333320566,-0.28979975,-0.65138113,-0.30674747,-2.0419228,0.37554607,1.0600969,1.206762,0.039999787,0.04,-7.894684,3.612102746963501,-4.5675797,0.0,-0.0,0.0
1765.2499999987233,-0.28979975,-0.65138113,-0.30674747,-2.0419228,0.37554607,1.0600969,1.206762,0.039999787,0.04,-7.894684,3.612102746963501,-4.5675797,0.0,-0.0,0.0
1765.26666666539,-0.28979975,-0.65138113,-0.30674747,-2.0419228,0.37554607,1.0600969,1.206762,0.039999787,0.04,-7.894684,3.612102746963501,-4.5675797,0.0,-0.0,0.0
1765.2833333320566,-0.28979975,-0.65138113,-0.30674747,-2.0419228,0.37554607,1.0600969,1.206762,0.039999787,0.04,-7.894684,3.612102746963501,-4.5675797,0.0,-0.0,0.0
1765.2999999987233,-0.28979975,-0.65138113,-0.30674747,-2.0419228,0.37554607,1.0600969,1.206762,0.039999787,0.04,-7.894684,3.612102746963501,-4.5675797,0.0,-0.0,0.0
1765.31666666539,-0.28979975,-0.65138113,-0.30674747,-2.0419228,0.37554607,1.0600969,1.206762,0.039999787,0.04,-7.894684,3.612102746963501,-4.5675797,0.0,-0.0,0.0
1765.3333333320566,-0.28979975,-0.65138113,-0.30674747,-2.0419228,0.37554607,1.0600969,1.206762,0.039999787,0.04,-7.894684,3.612102746963501,-4.5675797,0.0,-0.0,0.0
1765.3499999987232,-0.28979975,-0.65138113,-0.30674747,-2.0419228,0.37554607,1.0600969,1.206762,0.039999787,0.04,-7.894684,3.612102746963501,-4.5675797,0.0,-0.0,0.0
1765.3666666653899,-0.28979975,-0.65138113,-0.30674747,-2.0419228,0.37554607,1.0600969,1.206762,0.039999787,0.04,-7.894684,3.612102746963501,-4.5675797,0.0,-0.0,0.0
1765.3833333320565,-0.28979975,-0.65138113,-0.30674747,-2.0419228,0.37554607,1.0600969,1.206762,0.039999787,0.04,-7.894684,3.612102746963501,-4.5675797,0.0,-0.0,0.0
1765.3999999987232,-0.28979975,-0.65138113,-0.30674747,-2.0419228,0.37554607,1.0600969,1.206762,0.039999787,0.04,-7.894684,3.612102746963501,-4.5675797,0.0,-0.0,0.0
1765.4166666653898,-0.28979975,-0.65138113,-0.30674747,-2.0419228,0.37554607,1.0600969,1.206762,0.039999787,0.04,-7.894684,3.612102746963501,-4.5675797,0.0,-0.0,0.0
1765.4333333320565,-0.28979975,-0.65138113,-0.30674747,-2.0419228,0.37554607,1.0600969,1.206762,0.039999787,0.04,-7.894684,3.612102746963501,-4.5675797,0.0,-0.0,0.0
1765.4499999987231,-0.28979975,-0.65138113,-0.30674747,-2.0419228,0.37554607,1.0600969,1.206762,0.039999787,0.04,-7.894684,3.612102746963501,-4.5675797,0.0,-0.0,0.0
1765.4666666653898,-0.28979975,-0.65138113,-0.30674747,-2.0419228,0.37554607,1.0600969,1.206762,0.039999787,0.04,-7.894684,3.612102746963501,-4.5675797,0.0,-0.0,0.0
1765.4833333320564,-0.28979975,-0.65138113,-0.30674747,-2.0419228,0.37554607,1.0600969,1.206762,0.039999787,0.04,-7.894684,3.612102746963501,-4.5675797,0.0,-0.0,0.0
1765.499999998723,-0.28979975,-0.65138113,-0.30674747,-2.0419228,0.37554607,1.0600969,1.206762,0.039999787,0.04,-7.894684,3.612102746963501,-4.5675797,0.0,-0.0,0.0
1765.5166666653897,-0.28979975,-0.65138113,-0.30674747,-2.0419228,0.37554607,1.0600969,1.206762,0.039999787,0.04,-7.894684,3.612102746963501,-4.5675797,0.0,-0.0,0.0
1765.5333333320564,-0.28979975,-0.65138113,-0.30674747,-2.0419228,0.37554607,1.0600969,1.206762,0.039999787,0.04,-7.894684,3.612102746963501,-4.5675797,0.0,-0.0,0.0
1765.549999998723,-0.28979975,-0.65138113,-0.30674747,-2.0419228,0.37554607,1.0600969,1.206762,0.039999787,0.04,-7.894684,3.612102746963501,-4.5675797,0.0,-0.0,0.0
1765.5666666653897,-0.28979975,-0.65138113,-0.30674747,-2.0419228,0.37554607,1.0600969,1.206762,0.039999787,0.04,-7.894684,3.612102746963501,-4.5675797,0.0,-0.0,0.0
1765.5833333320563,-0.28979975,-0.65138113,-0.30674747,-2.0419228,0.37554607,1.0600969,1.206762,0.039999787,0.04,-7.894684,3.612102746963501,-4.5675797,0.0,-0.0,0.0
1765.599999998723,-0.28979975,-0.65138113,-0.30674747,-2.0419228,0.37554607,1.0600969,1.206762,0.039999787,0.04,-7.894684,3.612102746963501,-4.5675797,0.0,-0.0,0.0
1765.6166666653896,-0.28979975,-0.65138113,-0.30674747,-2.0419228,0.37554607,1.0600969,1.206762,0.039999787,0.04,-7.894684,3.612102746963501,-4.5675797,0.0,-0.0,0.0
1765.6333333320563,-0.28979975,-0.65138113,-0.30674747,-2.0419228,0.37554607,1.0600969,1.206762,0.039999787,0.04,-7.894684,3.612102746963501,-4.5675797,0.0,-0.0,0.0
1765.649999998723,-0.28979975,-0.65138113,-0.30674747,-2.0419228,0.37554607,1.0600969,1.206762,0.039999787,0.04,-7.894684,3.612102746963501,-4.5675797,0.0,-0.0,0.0
1765.6666666653896,-0.28979975,-0.65138113,-0.30674747,-2.0419228,0.37554607,1.0600969,1.206762,0.039999787,0.04,-7.894684,3.612102746963501,-4.5675797,0.0,-0.0,0.0
1765.6833333320562,-0.28979975,-0.65138113,-0.30674747,-2.0419228,0.37554607,1.0600969,1.206762,0.039999787,0.04,-7.894684,3.612102746963501,-4.5675797,0.0,-0.0,0.0
1765.699999998723,-0.28979975,-0.65138113,-0.30674747,-2.0419228,0.37554607,1.0600969,1.206762,0.039999787,0.04,-7.894684,3.612102746963501,-4.5675797,0.0,-0.0,0.0
1765.7166666653895,-0.28979975,-0.65138113,-0.30674747,-2.0419228,0.37554607,1.0600969,1.206762,0.039999787,0.04,-7.894684,3.612102746963501,-4.5675797,0.0,-0.0,0.0
1765.7333333320562,-0.28979975,-0.65138113,-0.30674747,-2.0419228,0.37554607,1.0600969,1.206762,0.039999787,0.04,-7.894684,3.612102746963501,-4.5675797,0.0,-0.0,0.0
1765.7499999987228,-0.28979975,-0.65138113,-0.30674747,-2.0419228,0.37554607,1.0600969,1.206762,0.039999787,0.04,-7.894684,3.612102746963501,-4.5675797,0.0,-0.0,0.0
1765.7666666653895,-0.28979975,-0.65138113,-0.30674747,-2.0419228,0.37554607,1.0600969,1.206762,0.039999787,0.04,-7.894684,3.612102746963501,-4.5675797,0.0,-0.0,0.0
1765.7833333320561,-0.28979975,-0.65138113,-0.30674747,-2.0419228,0.37554607,1.0600969,1.206762,0.039999787,0.04,-7.894684,3.612102746963501,-4.5675797,0.0,-0.0,0.0
1765.7999999987228,-0.28979975,-0.65138113,-0.30674747,-2.0419228,0.37554607,1.0600969,1.206762,0.039999787,0.04,-7.894684,3.612102746963501,-4.5675797,0.0,-0.0,0.0
1765.8166666653894,-0.28979975,-0.65138113,-0.30674747,-2.0419228,0.37554607,1.0600969,1.206762,0.039999787,0.04,-7.894684,3.612102746963501,-4.5675797,0.0,-0.0,0.0
1765.833333332056,-0.28979975,-0.65138113,-0.30674747,-2.0419228,0.37554607,1.0600969,1.206762,0.039999787,0.04,-7.894684,3.612102746963501,-4.5675797,0.0,-0.0,0.0
1765.8499999987228,-0.28979975,-0.65138113,-0.30674747,-2.0419228,0.37554607,1.0600969,1.206762,0.039999787,0.04,-7.894684,3.612102746963501,-4.5675797,0.0,-0.0,0.0
1765.8666666653894,-0.28979975,-0.65138113,-0.30674747,-2.0419228,0.37554607,1.0600969,1.206762,0.039999787,0.04,-7.894684,3.612102746963501,-4.5675797,0.0,-0.0,0.0
1765.883333332056,-0.28979975,-0.65138113,-0.30674747,-2.0419228,0.37554607,1.0600969,1.206762,0.039999787,0.04,-7.894684,3.612102746963501,-4.5675797,0.0,-0.0,0.0
1765.8999999987227,-0.28979975,-0.65138113,-0.30674747,-2.0419228,0.37554607,1.0600969,1.206762,0.039999787,0.04,-7.894684,3.612102746963501,-4.5675797,0.0,-0.0,0.0
1765.9166666653894,-0.28979975,-0.65138113,-0.30674747,-2.0419228,0.37554607,1.0600969,1.206762,0.039999787,0.04,-7.894684,3.612102746963501,-4.5675797,0.0,-0.0,0.0
1765.933333332056,-0.28979975,-0.65138113,-0.30674747,-2.0419228,0.37554607,1.0600969,1.206762,0.039999787,0.04,-7.894684,3.612102746963501,-4.5675797,0.0,-0.0,0.0
1765.9499999987227,-0.28979975,-0.65138113,-0.30674747,-2.0419228,0.37554607,1.0600969,1.206762,0.039999787,0.04,-7.894684,3.612102746963501,-4.5675797,0.0,-0.0,0.0
1765.9666666653893,-0.28979975,-0.65138113,-0.30674747,-2.0419228,0.37554607,1.0600969,1.206762,0.039999787,0.04,-7.894684,3.612102746963501,-4.5675797,0.0,-0.0,0.0
1765.983333332056,-0.28979975,-0.65138113,-0.30674747,-2.0419228,0.37554607,1.0600969,1.206762,0.039999787,0.04,-7.894684,3.612102746963501,-4.5675797,0.0,-0.0,0.0
1765.9999999987226,-0.28979975,-0.65138113,-0.30674747,-2.0419228,0.37554607,1.0600969,1.206762,0.039999787,0.04,-7.894684,3.612102746963501,-4.5675797,0.0,-0.0,0.0
