rsonawane2002/My_IMU/logs_2/traj_474/imu_400hz_474.csv
time,j1,j2,j3,j4,j5,j6,j7,gripper1,gripper2,imu_ax,imu_ay,imu_az,imu_gx,imu_gy,imu_gz
0.0,0.00016700293,-0.785875,4.0107683e-05,-2.3551247,9.29385e-05,1.570997,0.786,0.04,0.04,-9.454642,-0.0499969087541103,0.1039294,-3.329841e-07,-0.0011641272576525,8.599399e-07
0.0025,0.00016700450049999998,-0.7858577740000002,4.0109041549999984e-05,-2.35513919,9.294481139999992e-05,1.570996565,0.786,0.04,0.04,-9.511626549999274,-0.042400251180612324,0.08970085555018117,-3.8081707499939095e-07,-0.001325440633807066,9.237592599991875e-07
0.005,0.00016700607099999997,-0.7858405480000005,4.0110400099999966e-05,-2.35515368,9.295112279999984e-05,1.57099613,0.786,0.04,0.04,-9.568611099998549,-0.034803593607114346,0.07547231110036234,-4.286500499987819e-07,-0.001486754009961632,9.875786199983748e-07
0.0075,0.00016700764149999995,-0.7858233220000007,4.011175864999995e-05,-2.35516817,9.295743419999976e-05,1.5709956950000001,0.786,0.04,0.04,-9.625595649997823,-0.027206936033616368,0.06124376665054352,-4.7648302499817285e-07,-0.001648067386116198,1.0513979799975623e-06
0.01,0.0001670092119999999,-0.785806096000001,4.011311719999993e-05,-2.3551826599999997,9.296374559999968e-05,1.5709952600000001,0.786,0.04,0.04,-9.682580199997098,-0.01961027846011839,0.04701522220072468,-5.243159999975638e-07,-0.001809380762270764,1.1152173399967497e-06
0.0125,0.0001670107824999999,-0.7857888700000011,4.011447574999991e-05,-2.355197149999999,9.29700569999996e-05,1.570994825,0.786,0.04,0.04,-9.739564749996372,-0.012013620886620412,0.03278667775090585,-5.721489749969548e-07,-0.00197069413842533,1.179036699995937e-06
0.015,0.00016701235299999988,-0.7857716440000013,4.011583429999989e-05,-2.355211639999999,9.297636839999951e-05,1.57099439,0.786,0.04,0.04,-9.796549299995647,-0.004416963313122434,0.018558133301087035,-6.199819499963456e-07,-0.002132007514579896,1.2428560599951243e-06
0.0175,0.00016701657149999915,-0.7857548670000014,4.011791459999969e-05,-2.355225734999999,9.298480069999886e-05,1.57099396,0.786,0.04,0.04,-9.834444100000026,0.0006517073779821133,0.008995557050020557,-7.921962849624784e-07,-0.002289260877282998,1.407987414967222e-06
0.02,0.00016702608599999903,-0.7857389880000016,4.0121438399999636e-05,-2.355239039999999,9.29974747999987e-05,1.5709935400000001,0.786,0.04,0.04,-9.83415940000003,0.0006644043023684866,0.008764917200023493,-1.213173339957118e-06,-0.0024383942130800688,1.7757427599625394e-06
0.0225,0.0001670356004999989,-0.7857231090000019,4.012496219999959e-05,-2.3552523449999985,9.301014889999854e-05,1.57099312,0.786,0.04,0.04,-9.833874700000033,0.00067710122675486,0.00853427735002643,-1.6341503949517574e-06,-0.00258752754887714,2.1434981049578564e-06
0.025,0.00016704511499999878,-0.7857072300000021,4.012848599999955e-05,-2.3552656499999984,9.302282299999838e-05,1.5709927000000001,0.786,0.04,0.04,-9.833590000000036,0.0006897981511412334,0.008303637500029368,-2.0551274499463975e-06,-0.002736660884674211,2.5112534499531742e-06
0.0275,0.00016705462949999865,-0.7856913510000022,4.0132009799999504e-05,-2.355278954999998,9.303549709999822e-05,1.57099228,0.786,0.04,0.04,-9.83330530000004,0.0007024950755276067,0.008072997650032304,-2.476104504941037e-06,-0.0028857942204712824,2.8790087949484916e-06
0.03,0.00016706414399999853,-0.7856754720000024,4.013553359999946e-05,-2.355292259999998,9.304817119999806e-05,1.5709918600000001,0.786,0.04,0.04,-9.833020600000044,0.00071519199991398,0.00784235780003524,-2.8970815599356765e-06,-0.003034927556268353,3.2467641399438086e-06
0.0325,0.0001670736584999984,-0.7856595930000027,4.0139057399999416e-05,-2.3553055649999974,9.306084529999789e-05,1.57099144,0.786,0.04,0.04,-9.832735900000047,0.0007278889243003533,0.007611717950038177,-3.3180586149303167e-06,-0.0031840608920654244,3.6145194849391264e-06
0.035,0.0001670973669999945,-0.7856445730000027,4.014650979999832e-05,-2.3553180999999976,9.30852674999946e-05,1.57099101,0.786,0.04,0.04,-9.83245250000005,0.0007477744424207345,0.007406573100034297,-4.207561369799678e-06,-0.0033264068187897206,4.308086239847325e-06
0.0375,0.0001671281724999941,-0.7856299825000028,4.01559264999982e-05,-2.3553302499999975,9.311556374999422e-05,1.5709905750000002,0.786,0.04,0.04,-9.832169750000054,0.0007712542574108655,0.007214175750036747,-5.331326974785367e-06,-0.003465359040975036,5.164558699836419e-06
0.04,0.00016715897799999372,-0.785615392000003,4.016534319999808e-05,-2.3553423999999974,9.314585999999383e-05,1.5709901400000001,0.786,0.04,0.04,-9.831887000000057,0.0007947340724009965,0.0070217784000391964,-6.455092579771059e-06,-0.003604311263160352,6.021031159825514e-06
0.0425,0.00016718978349999333,-0.7856008015000031,4.017475989999796e-05,-2.3553545499999973,9.317615624999344e-05,1.5709897050000001,0.786,0.04,0.04,-9.83160425000006,0.0008182138873911276,0.006829381050041646,-7.578858184756751e-06,-0.003743263485345668,6.877503619814609e-06
0.045,0.00016722058899999295,-0.7855862110000034,4.018417659999784e-05,-2.355366699999997,9.320645249999306e-05,1.57098927,0.786,0.04,0.04,-9.831321500000064,0.0008416937023812586,0.006636983700044096,-8.70262378974244e-06,-0.003882215707530983,7.733976079803702e-06
0.0475,0.00016725139449999256,-0.7855716205000035,4.0193593299997726e-05,-2.355378849999997,9.323674874999267e-05,1.570988835,0.786,0.04,0.04,-9.831038750000069,0.0008651735173713897,0.006444586350046546,-9.826389394728132e-06,-0.004021167929716299,8.590448539792797e-06
0.05,0.00016728219999999217,-0.7855570300000037,4.02030099999976e-05,-2.355390999999997,9.326704499999228e-05,1.5709884,0.786,0.04,0.04,-9.830756000000072,0.0008886533323615208,0.0062521890000489955,-1.0950154999713824e-05,-0.004160120151901615,9.446920999781892e-06
0.0525,0.00016735359549998092,-0.7855436155000036,4.022370054999447e-05,-2.355402054999997,9.33328867499824e-05,1.5709879800000002,0.786,0.04,0.03999999925,-9.830584850000045,0.0009251534822298902,0.006047298495054786,-1.3022619199445839e-05,-0.004289855319040575,1.1119921399552652e-05
0.055,0.00016742499099998,-0.7855302010000038,4.0244391099994204e-05,-2.355413109999997,9.339872849998155e-05,1.57098756,0.786,0.04,0.0399999985,-9.830413700000047,0.0009616536321015754,0.0058424079900573946,-1.5095083399419453e-05,-0.004419590486177188,1.2792921799531351e-05
0.0575,0.0001674963864999791,-0.7855167865000039,4.0265081649993944e-05,-2.355424164999997,9.346457024998071e-05,1.5709871400000002,0.786,0.04,0.03999999775,-9.83024255000005,0.0009981537819732608,0.005637517485060003,-1.7167547599393066e-05,-0.004549325653313801,1.446592219951005e-05
0.06,0.00016756778199997818,-0.7855033720000041,4.028577219999368e-05,-2.355435219999997,9.353041199997988e-05,1.57098672,0.786,0.04,0.039999997,-9.830071400000053,0.0010346539318449458,0.005432626980062613,-1.9240011799366672e-05,-0.004679060820450414,1.6138922599488747e-05
0.0625,0.00016763917749997728,-0.7854899575000043,4.030646274999342e-05,-2.3554462749999967,9.359625374997904e-05,1.5709863000000002,0.786,0.04,0.03999999625,-9.829900250000055,0.001071154081716631,0.005227736475065222,-2.1312475999340287e-05,-0.004808795987587027,1.7811922999467444e-05
0.065,0.00016771057299997636,-0.7854765430000045,4.032715329999315e-05,-2.3554573299999966,9.36620954999782e-05,1.57098588,0.786,0.04,0.0399999955,-9.829729100000057,0.0011076542315883165,0.0050228459700678305,-2.3384940199313903e-05,-0.0049385311547236405,1.9484923399446145e-05
0.0675,0.00016780372999995302,-0.7854635000000043,4.035389564998664e-05,-2.3554680399999968,9.374600899995873e-05,1.5709854550000002,0.786,0.04,0.039999995,-9.829552000000065,0.0011465742369031308,0.00482761148506048,-2.5868996148863013e-05,-0.0050656500039202215,2.1415461949159227e-05
0.07,0.00016794040999995127,-0.7854512000000045,4.039274159998615e-05,-2.3554780599999967,9.38660659999572e-05,1.5709850200000002,0.786,0.04,0.039999995,-9.829363000000068,0.0011903339531115988,0.00465168904006272,-2.9176235598820905e-05,-0.005187536217228745,2.386107679912809e-05
0.0725,0.00016807708999994953,-0.7854389000000046,4.0431587549985654e-05,-2.3554880799999967,9.398612299995567e-05,1.5709845850000002,0.786,0.04,0.039999995,-9.82917400000007,0.0012340936693200663,0.004475766595064961,-3.248347504877878e-05,-0.005309422430537268,2.630669164909694e-05
0.075,0.0001682137699999478,-0.7854266000000047,4.047043349998516e-05,-2.355498099999996,9.410617999995415e-05,1.5709841500000001,0.786,0.04,0.039999995,-9.828985000000072,0.0012778533855285342,0.004299844150067201,-3.579071449873667e-05,-0.00543130864384579,2.87523064990658e-05
0.0775,0.00016835044999994605,-0.7854143000000049,4.0509279449984665e-05,-2.355508119999996,9.422623699995261e-05,1.5709837150000001,0.786,0.04,0.039999995,-9.828796000000075,0.001321613101737002,0.00412392170506944,-3.909795394869456e-05,-0.005553194857154314,3.119792134903466e-05
0.08,0.0001684871299999443,-0.785402000000005,4.054812539998417e-05,-2.355518139999996,9.434629399995109e-05,1.5709832800000003,0.786,0.04,0.039999995,-9.828607000000078,0.00136537281794547,0.00394799926007168,-4.240519339865245e-05,-0.005675081070462837,3.364353619900352e-05
0.0825,0.00016862380999994257,-0.7853897000000052,4.058697134998368e-05,-2.355528159999996,9.446635099994956e-05,1.5709828450000003,0.786,0.04,0.039999995,-9.82841800000008,0.0014091325341539377,0.00377207681507392,-4.571243284861035e-05,-0.00579696728377136,3.608915104897239e-05
0.085,0.0001688236759998998,-0.7853780970000049,4.0643407999971756e-05,-2.3555375299999963,9.463770349991472e-05,1.5709826900000001,0.786,0.04,0.0399999955,-9.828251700000067,0.0014587089186306485,0.0036047784000705595,-4.995394539796154e-05,-0.005914567317763626,3.917049989852842e-05
0.08750000000000001,0.00016905513499989685,-0.785366842500005,4.070863999997093e-05,-2.355546574999996,9.483470374991221e-05,1.570982675,0.786,0.04,0.03999999625,-9.82809675000007,0.0015111936372470352,0.003441792000072635,-5.46625944979016e-05,-0.006030024262093672,4.2569715748485144e-05
0.09,0.0001692865939998939,-0.7853555880000052,4.07738719999701e-05,-2.355555619999996,9.50317039999097e-05,1.57098266,0.786,0.04,0.039999997,-9.82794180000007,0.0015636783558634216,0.003278805600074711,-5.937124359784162e-05,-0.006145481206423716,4.596893159844184e-05
0.0925,0.00016951805299989095,-0.7853443335000053,4.083910399996927e-05,-2.3555646649999957,9.522870424990719e-05,1.570982645,0.786,0.04,0.03999999775,-9.827786850000074,0.0016161630744798085,0.003115819200076786,-6.407989269778167e-05,-0.006260938150753761,4.936814744839856e-05
0.095,0.000169749511999888,-0.7853330790000055,4.0904335999968435e-05,-2.355573709999996,9.542570449990468e-05,1.57098263,0.786,0.04,0.0399999985,-9.827631900000075,0.0016686477930961952,0.002952832800078861,-6.878854179772172e-05,-0.006376395095083806,5.2767363298355285e-05
0.0975,0.00016998097099988507,-0.7853218245000056,4.096956799996761e-05,-2.3555827549999955,9.562270474990217e-05,1.570982615,0.786,0.04,0.03999999925,-9.827476950000078,0.0017211325117125818,0.002789846400080936,-7.349719089766178e-05,-0.006491852039413851,5.616657914831201e-05
0.1,0.00017021242999988213,-0.7853105700000058,4.103479999996678e-05,-2.3555917999999956,9.581970499989967e-05,1.5709826,0.786,0.04,0.04,-9.827322000000079,0.0017736172303289687,0.0026268600000830117,-7.820583999760183e-05,-0.006607308983743896,5.956579499826873e-05
0.10250000000000001,0.00017057243299980224,-0.7853002995000057,4.113581509994451e-05,-2.3556003799999954,9.612350374983311e-05,1.570982645,0.786,0.04,0.04,-9.827144475000098,0.0018317327019438854,0.0024811581600800384,-8.452942749652626e-05,-0.006715494487375105,6.430458734739683e-05
0.105,0.00017093243599978784,-0.7852900290000061,4.123683019994047e-05,-2.355608959999995,9.642730249982096e-05,1.57098269,0.786,0.04,0.04,-9.826966950000106,0.0018898481735616693,0.0023354563200858698,-9.085301499627318e-05,-0.006823679991002611,6.904337969720717e-05
0.1075,0.00017129243899977344,-0.7852797585000065,4.1337845299936426e-05,-2.3556175399999946,9.67311012498088e-05,1.5709827349999999,0.786,0.04,0.04,-9.826789425000113,0.0019479636451794537,0.0021897544800917003,-9.717660249602012e-05,-0.006931865494630116,7.378217204701755e-05
0.11,0.00017165244199975903,-0.785269488000007,4.1438860399932384e-05,-2.3556261199999944,9.703489999979665e-05,1.57098278,0.786,0.04,0.04,-9.826611900000119,0.002006079116797238,0.002044052640097531,-0.00010350018999576708,-0.007040050998257622,7.852096439682791e-05
0.1125,0.00017201244499974463,-0.7852592175000074,4.153987549992834e-05,-2.355634699999994,9.733869874978448e-05,1.570982825,0.786,0.04,0.04,-9.826434375000126,0.0020641945884150225,0.0018983508001033616,-0.00010982377749551402,-0.007148236501885128,8.325975674663828e-05
0.115,0.0001723724479997302,-0.7852489470000078,4.16408905999243e-05,-2.3556432799999936,9.764249749977232e-05,1.57098287,0.786,0.04,0.04,-9.826256850000133,0.002122310060032807,0.0017526489601091921,-0.00011614736499526097,-0.007256422005512634,8.799854909644864e-05
0.11750000000000001,0.0001727878404995942,-0.7852389750000073,4.175732029988643e-05,-2.355651524999994,9.799220824965947e-05,1.57098293,0.7860000949999998,0.04,0.04,-9.82613440000001,0.002185249060802003,0.0016067831301127518,-0.00012304309849379914,-0.007363829901360232,9.31902052952974e-05
0.12,0.00017331401199960185,-0.7852296000000071,4.190457919988857e-05,-2.3556590999999942,9.843374299966589e-05,1.57098302,0.7860003799999998,0.04,0.04,-9.82612210000001,0.002257835119907714,0.001460589320110625,-0.00013108312399391612,-0.007469682581642581,9.92875891953861e-05
0.1225,0.0001738401834996095,-0.785220225000007,4.205183809989071e-05,-2.3556666749999944,9.887527774967232e-05,1.57098311,0.7860006649999998,0.04,0.04,-9.82610980000001,0.0023304211790134252,0.0013143955101084974,-0.00013912314949403312,-0.007575535261924932,0.00010538497309547484
0.125,0.00017436635499961718,-0.7852108500000068,4.219909699989285e-05,-2.3556742499999945,9.931681249967874e-05,1.5709832,0.7860009499999998,0.04,0.04,-9.82609750000001,0.002403007238119137,0.00116820170010637,-0.00014716317499415013,-0.007681387942207282,0.00011148235699556356
0.1275,0.00017489252649962483,-0.7852014750000067,4.2346355899894995e-05,-2.3556818249999947,9.975834724968517e-05,1.57098329,0.7860012349999999,0.04,0.04,-9.826085200000009,0.002475593297224848,0.0010220078901042426,-0.00015520320049426713,-0.007787240622489633,0.0001175797408956523
0.13,0.00017541869799963248,-0.7851921000000065,4.249361479989714e-05,-2.355689399999995,0.00010019988199969159,1.57098338,0.7860015199999998,0.04,0.04,-9.826072900000009,0.0025481793563305595,0.0008758140801021149,-0.00016324322599438413,-0.007893093302771983,0.00012367712479574103
0.1325,0.00017594486949964013,-0.7851827250000064,4.264087369989928e-05,-2.355696974999995,0.00010064141674969803,1.57098347,0.7860018049999998,0.04,0.04,-9.826060600000009,0.0026207654154362706,0.0007296202700999873,-0.00017128325149450113,-0.007998945983054333,0.00012977450869582977
0.135,0.00017660918799949573,-0.7851739750000057,4.2826577999859095e-05,-2.3557038899999956,0.00010119683849957896,1.57098356,0.7860020899999999,0.04,0.04,-9.825992350000066,0.0026952113722863735,0.0005954451830881234,-0.00018141895099231048,-0.008102332893688741,0.00013679481799485572
0.1375,0.0001773425799994864,-0.7851655375000058,4.303150499985649e-05,-2.3557104749999955,0.00010180920374957116,1.57098365,0.7860023749999998,0.04,0.04,-9.825896125000067,0.0027705872780115137,0.00046727945758975523,-0.0001926024874921681,-0.00820448691949541,0.00014427658999476047
0.14,0.00017807597199947706,-0.785157100000006,4.3236431999853876e-05,-2.3557170599999955,0.00010242156899956336,1.57098374,0.7860026599999999,0.04,0.04,-9.825799900000069,0.0028459631837366543,0.000339113732091387,-0.0002037860239920257,-0.00830664094530208,0.0001517583619946652
0.14250000000000002,0.00017880936399946774,-0.7851486625000061,4.344135899985127e-05,-2.3557236449999954,0.00010303393424955557,1.57098383,0.7860029449999998,0.04,0.04,-9.825703675000069,0.0029213390894617945,0.00021094800659301886,-0.00021496956049188331,-0.00840879497110875,0.00015924013399456994
0.145,0.00017954275599945838,-0.7851402250000062,4.3646285999848656e-05,-2.3557302299999954,0.00010364629949954775,1.57098392,0.7860032299999998,0.04,0.04,-9.82560745000007,0.002996714995186934,8.27822810946521e-05,-0.0002261530969917408,-0.008510948996915417,0.0001667219059944746
0.1475,0.00018027614799944903,-0.7851317875000063,4.385121299984605e-05,-2.3557368149999953,0.00010425866474953996,1.5709840099999999,0.7860035149999998,0.04,0.04,-9.825511225000072,0.0030720909009120745,-4.538344440371616e-05,-0.00023733663349159842,-0.008613103022722087,0.00017420367799437933
0.15,0.0001810095399994397,-0.7851233500000064,4.4056139999843444e-05,-2.3557433999999953,0.00010487102999953216,1.5709841,0.7860037999999998,0.04,0.04,-9.825415000000072,0.0031474668066372147,-0.00017354916990208432,-0.00024852016999145604,-0.008715257048528756,0.00018168544999428408
0.1525,0.0001819942014992352,-0.7851157525000059,4.433099549978652e-05,-2.3557493399999956,0.00010569220649936218,1.5709842349999998,0.7860040909999998,0.04,0.04,-9.825328975000067,0.0032313020782824744,-0.00027960290941762703,-0.00026169822048976445,-0.008814319828448177,0.00019095328549280157
0.155,0.00018297886299922266,-0.785108155000006,4.460585099978302e-05,-2.3557552799999955,0.00010651338299935173,1.57098437,0.7860043819999998,0.04,0.04,-9.825242950000067,0.003315137349934197,-0.00038565664891627673,-0.00027487627098959666,-0.008913382608365236,0.00020022112099268358
0.1575,0.0001839635244992101,-0.7851005575000061,4.488070649977952e-05,-2.3557612199999953,0.00010733455949934127,1.570984505,0.7860046729999998,0.04,0.04,-9.82515692500007,0.0033989726215859196,-0.0004917103884149264,-0.00028805432148942887,-0.009012445388282294,0.00020948895649256557
0.16,0.0001849481859991976,-0.7850929600000062,4.515556199977602e-05,-2.355767159999995,0.00010815573599933081,1.57098464,0.7860049639999998,0.04,0.04,-9.82507090000007,0.0034828078932376424,-0.0005977641279135762,-0.00030123237198926114,-0.009111508168199353,0.00021875679199244758
0.1625,0.00018593284749918504,-0.7850853625000063,4.543041749977252e-05,-2.355773099999995,0.00010897691249932036,1.5709847749999999,0.7860052549999997,0.04,0.04,-9.824984875000071,0.003566643164889365,-0.000703817867412226,-0.00031441042248909335,-0.009210570948116411,0.0002280246274923296
0.165,0.0001869175089991725,-0.7850777650000064,4.570527299976902e-05,-2.3557790399999954,0.00010979808899930991,1.57098491,0.7860055459999997,0.04,0.04,-9.824898850000071,0.0036504784365410875,-0.0008098716069108756,-0.00032758847298892555,-0.009309633728033472,0.00023729246299221158
0.1675,0.00018800151149890574,-0.7850704370000058,4.6007775399694765e-05,-2.355784739999996,0.00011070096499909035,1.570985045,0.7860058679999997,0.04,0.04,-9.824825425000041,0.0037327846744352536,-0.0009111056849218603,-0.00034143766048704016,-0.009408533899029415,0.00024704851399084406
0.17,0.00018928419599888939,-0.7850636480000058,4.636557159969021e-05,-2.3557899599999956,0.00011176723999907678,1.5709851799999999,0.7860062519999996,0.04,0.04,-9.824777200000042,0.0038120328448026245,-0.001002700439920694,-0.00035662912198684675,-0.009507108852181891,0.00025778099599070743
0.17250000000000001,0.00019056688049887306,-0.785056859000006,4.672336779968565e-05,-2.3557951799999954,0.0001128335149990632,1.570985315,0.7860066359999996,0.04,0.04,-9.824728975000042,0.0038912810151699954,-0.001094295194919528,-0.00037182058348665334,-0.009605683805334365,0.0002685134779905708
0.17500000000000002,0.00019184956499885674,-0.785050070000006,4.7081163999681096e-05,-2.3558003999999957,0.00011389978999904963,1.5709854499999998,0.7860070199999997,0.04,0.04,-9.824680750000043,0.003970529185537366,-0.0011858899499183617,-0.00038701204498645987,-0.00970425875848684,0.00027924595999043417
0.1775,0.0001931322494988404,-0.7850432810000061,4.743896019967654e-05,-2.3558056199999955,0.00011496606499903604,1.5709855849999999,0.7860074039999997,0.04,0.04,-9.824632525000043,0.004049777355904737,-0.0012774847049171947,-0.0004022035064862663,-0.009802833711639314,0.00028997844199029737
0.18,0.00019441493399882407,-0.7850364920000062,4.7796756399671984e-05,-2.3558108399999953,0.00011603233999902246,1.57098572,0.7860077879999996,0.04,0.04,-9.824584300000044,0.004129025526272108,-0.0013690794599160285,-0.0004173949679860729,-0.00990140866479179,0.00030071092399016074
0.1825,0.00019569761849880772,-0.7850297030000063,4.815455259966743e-05,-2.355816059999995,0.00011709861499900888,1.5709858549999998,0.7860081719999996,0.04,0.04,-9.824536075000044,0.004208273696639479,-0.0014606742149148623,-0.00043258642948587947,-0.009999983617944264,0.00031144340599002405
0.185,0.00019721167599846438,-0.7850234460000056,4.857673099957188e-05,-2.355820569999996,0.00011835695799872385,1.5709859999999998,0.7860086799999995,0.0399999995,0.0399999995,-9.82453364999998,0.004303909791535648,-0.001555119669909667,-0.0004494479049833257,-0.010098545439448447,0.0003235168329879922
0.1875,0.00019884141999844363,-0.7850174550000057,4.903110049956609e-05,-2.355824724999996,0.00011971133499870661,1.5709861499999997,0.7860092499999994,0.03999999875,0.03999999875,-9.82455412499998,0.004407739848730646,-0.0016509904749084463,-0.0004671443874831004,-0.010197100695128457,0.00033626073248782995
0.19,0.00020047116399842289,-0.7850114640000058,4.9485469999560306e-05,-2.3558288799999962,0.00012106571199868937,1.5709863,0.7860098199999994,0.039999998,0.039999998,-9.82457459999998,0.0045115699059256435,-0.0017468612799072256,-0.0004848408699828751,-0.010295655950808467,0.0003490046319876677
0.1925,0.00020210090799840214,-0.7850054730000059,4.993983949955452e-05,-2.355833034999996,0.00012242008899867213,1.57098645,0.7860103899999994,0.03999999725,0.03999999725,-9.82459507499998,0.0046153999631206415,-0.001842732084906005,-0.0005025373524826498,-0.010394211206488478,0.00036174853148750543
0.195,0.0002037306519983814,-0.7849994820000059,5.039420899954873e-05,-2.355837189999996,0.0001237744659986549,1.5709866,0.7860109599999995,0.0399999965,0.0399999965,-9.82461554999998,0.004719230020315639,-0.0019386028899047844,-0.0005202338349824245,-0.010492766462168488,0.0003744924309873432
0.1975,0.00020536039599836065,-0.784993491000006,5.084857849954295e-05,-2.355841344999996,0.00012512884299863765,1.5709867499999999,0.7860115299999995,0.03999999575,0.03999999575,-9.824636024999979,0.004823060077510637,-0.0020344736949035637,-0.0005379303174821991,-0.010591321717848498,0.0003872363304871809
0.2,0.0002069901399983399,-0.784987500000006,5.1302947999537165e-05,-2.3558454999999956,0.00012648321999862038,1.5709868999999999,0.7860120999999994,0.039999995,0.039999995,-9.824656499999978,0.004926890134705635,-0.002130344499902343,-0.0005556267999819738,-0.010689876973528509,0.00039998022998701866
0.2025,0.00020901809349790844,-0.7849823100000053,5.186812834941709e-05,-2.3558489949999966,0.00012816446499826602,1.5709872149999997,0.7860126699999994,0.039999994250000004,0.03999999575,-9.824605725000053,0.005025171860951136,-0.0022056900549222913,-0.0005762969499786816,-0.010787245770815829,0.0004142007954853334
0.20500000000000002,0.00021104604699788263,-0.7849771200000054,5.24333086994099e-05,-2.355852489999996,0.00012984570999824462,1.5709875299999998,0.7860132399999994,0.039999993500000004,0.0399999965,-9.824554950000053,0.005123453587190984,-0.002281035609921332,-0.0005969670999784185,-0.010884614568101938,0.00042842136098515237
0.20750000000000002,0.0002130740004978568,-0.7849719300000054,5.29984890494027e-05,-2.3558559849999963,0.00013152695499822322,1.5709878449999997,0.7860138099999994,0.039999992750000005,0.03999999725,-9.824504175000053,0.005221735313430833,-0.0023563811649203728,-0.0006176372499781552,-0.010981983365388049,0.00044264192648497134
0.21,0.00021510195399783097,-0.7849667400000055,5.35636693993955e-05,-2.3558594799999963,0.00013320819999820179,1.5709881599999997,0.7860143799999993,0.039999992000000005,0.039999998,-9.824453400000055,0.005320017039670681,-0.0024317267199194127,-0.0006383073999778918,-0.011079352162674158,0.0004568624919847901
0.2125,0.00021712990749780513,-0.7849615500000056,5.412884974938831e-05,-2.3558629749999964,0.00013488944499818038,1.5709884749999996,0.7860149499999993,0.03999999125,0.03999999875,-9.824402625000054,0.00541829876591053,-0.0025070722749184534,-0.0006589775499776287,-0.011176720959960267,0.00047108305748460905
0.215,0.0002191578609977793,-0.7849563600000057,5.469403009938111e-05,-2.355866469999996,0.00013657068999815898,1.5709887899999997,0.7860155199999994,0.0399999905,0.0399999995,-9.824351850000056,0.005516580492150378,-0.002582417829917494,-0.0006796476999773655,-0.011274089757246378,0.00048530362298442796
0.2175,0.0002213361639972313,-0.7849514180000049,5.5301043949228606e-05,-2.355869759999997,0.00013837599099770663,1.5709892199999993,0.786016187499999,0.0399999899,0.03999999975,-9.824325799999974,0.005617917189254487,-0.002654332209927346,-0.0007010206049745597,-0.011371741955990108,0.0005002435949817072
0.22,0.0002238151659971321,-0.7849469720000051,5.599172479920097e-05,-2.3558726399999967,0.00014042940399762444,1.5709898799999993,0.786017049999999,0.0399999896,0.039999999,-9.824349199999974,0.005725363828117457,-0.002719384239924743,-0.0007237990199736482,-0.011469960957651893,0.0005166223799810517
0.2225,0.00022629416799703288,-0.7849425260000052,5.668240564917333e-05,-2.3558755199999966,0.00014248281699754227,1.5709905399999993,0.786017912499999,0.0399999893,0.03999999825,-9.824372599999972,0.005832810466980427,-0.0027844362699221397,-0.0007465774349727367,-0.011568179959313677,0.0005330011649803963
0.225,0.0002287731699969337,-0.7849380800000055,5.737308649914569e-05,-2.3558783999999964,0.0001445362299974601,1.5709911999999993,0.786018774999999,0.039999989,0.0399999975,-9.824395999999972,0.005940257105843398,-0.0028494882999195365,-0.0007693558499718251,-0.011666398960975462,0.0005493799499797408
0.2275,0.0002312521719968345,-0.7849336340000057,5.8063767349118054e-05,-2.3558812799999966,0.00014658964299737792,1.5709918599999992,0.7860196374999989,0.0399999887,0.03999999675,-9.82441939999997,0.006047703744706368,-0.0029145403299169334,-0.0007921342649709136,-0.011764617962637246,0.0005657587349790854
0.23,0.0002337311739967353,-0.7849291880000059,5.875444819909041e-05,-2.3558841599999965,0.00014864305599729576,1.5709925199999992,0.7860204999999989,0.0399999884,0.039999996,-9.82444279999997,0.0061551503835693385,-0.0029795923599143298,-0.0008149126799700021,-0.011862836964299031,0.00058213751997843
0.2325,0.0002362101759966361,-0.7849247420000061,5.9445129049062775e-05,-2.3558870399999963,0.0001506964689972136,1.5709931799999992,0.7860213624999989,0.0399999881,0.03999999525,-9.824466199999968,0.006262597022432309,-0.0030446443899117266,-0.0008376910949690906,-0.011961055965960816,0.0005985163049777746
0.23500000000000001,0.0002390261289959394,-0.784920810000005,6.022956039886893e-05,-2.3558892299999976,0.0001530277059966391,1.570993869999999,0.7860222349999988,0.0399999876,0.039999994500000004,-9.8244741,0.006363918026775529,-0.0030977263999359197,-0.0008627670899643186,-0.012059814762189312,0.0006162047199750422
0.23750000000000002,0.00024201055749598283,-0.7849171350000049,6.106086699888103e-05,-2.3558910749999975,0.00015549785499667507,1.5709945749999992,0.7860231124999988,0.039999987,0.039999993750000004,-9.82447425,0.00646217621383999,-0.0031448233999366053,-0.0008889918749647003,-0.012158843455702829,0.0006345479499753092
0.24,0.0002449949859960262,-0.784913460000005,6.189217359889311e-05,-2.355892919999998,0.00015796800399671098,1.570995279999999,0.7860239899999988,0.0399999864,0.039999993000000005,-9.8244744,0.006560434400904449,-0.00319192039993729,-0.0009152166599650817,-0.012257872149216344,0.000652891179975576
0.2425,0.00024797941449606963,-0.7849097850000049,6.27234801989052e-05,-2.3558947649999977,0.00016043815299674694,1.570995984999999,0.7860248674999989,0.039999985800000006,0.039999992250000005,-9.82447455,0.006658692587968909,-0.0032390173999379754,-0.0009414414449654633,-0.012356900842729859,0.0006712344099758429
0.245,0.00025096384299611306,-0.7849061100000048,6.35547867989173e-05,-2.3558966099999976,0.00016290830199678288,1.570996689999999,0.7860257449999989,0.039999985200000004,0.0399999915,-9.8244747,0.0067569507750333685,-0.003286114399938661,-0.000967666229965845,-0.012455929536243375,0.0006895776399761098
0.2475,0.0002539482714961565,-0.7849024350000048,6.438609339892941e-05,-2.3558984549999975,0.00016537845099681882,1.5709973949999991,0.7860266224999989,0.0399999846,0.03999999075,-9.82447485,0.006855208962097828,-0.0033332113999393464,-0.0009938910149662266,-0.012554958229756892,0.0007079208699763768
0.25,0.0002569326999961999,-0.7848987600000047,6.52173999989415e-05,-2.355900299999998,0.00016784859999685478,1.570998099999999,0.7860274999999989,0.039999984,0.03999999,-9.824475,0.006953467149162288,-0.003380308399940032,-0.0010201157999666082,-0.012653986923270409,0.0007262640999766437
0.2525,0.0002604782079955371,-0.7848958365000037,6.62048139987571e-05,-2.355901364999999,0.0001707811449963087,1.570998804999999,0.7860286399999985,0.0399999834,0.03999999,-9.824506049999961,0.0070825244996934305,-0.003421607509948015,-0.0010485175499642496,-0.012753888033204616,0.0007464867399745449
0.255,0.0002640237159955887,-0.7848929130000036,6.719222799877146e-05,-2.3559024299999987,0.00017371368999635138,1.5709995099999992,0.7860297799999986,0.0399999828,0.03999999,-9.824537099999961,0.007211581850263788,-0.0034629066199486163,-0.0010769192999646629,-0.012853789143139935,0.0007667093799748393
0.2575,0.00026756922399564034,-0.7848899895000037,6.817964199878584e-05,-2.355903494999999,0.00017664623499639404,1.571000214999999,0.7860309199999986,0.0399999822,0.03999999,-9.824568149999962,0.0073406392008341466,-0.003504205729949217,-0.0011053210499650762,-0.012953690253075254,0.0007869320199751336
0.26,0.0002711147319956919,-0.7848870660000036,6.916705599880021e-05,-2.3559045599999986,0.00017957877999643672,1.5710009199999992,0.7860320599999986,0.0399999816,0.03999999,-9.824599199999962,0.007469696551404505,-0.003545504839949818,-0.0011337227999654895,-0.013053591363010573,0.0008071546599754279
0.2625,0.0002746602399957435,-0.7848841425000035,7.015446999881457e-05,-2.355905624999999,0.0001825113249964794,1.5710016249999992,0.7860331999999987,0.039999981,0.03999999,-9.824630249999963,0.0075987539019748635,-0.003586803949950419,-0.001162124549965903,-0.01315349247294589,0.0008273772999757221
0.265,0.0002782057479957951,-0.7848812190000035,7.114188399882895e-05,-2.3559066899999985,0.00018544386999652207,1.5710023299999991,0.7860343399999986,0.039999980399999996,0.03999999,-9.824661299999962,0.007727811252545222,-0.00362810305995102,-0.0011905262999663162,-0.013253393582881209,0.0008475999399760164
0.2675,0.00028195717099504733,-0.7848785335000027,7.218658949862089e-05,-2.3559074799999995,0.00018854612199590575,1.5710031849999986,0.7860355779999982,0.039999979649999996,0.0399999897,-9.824694599999955,0.007854762999194857,-0.003661795759978016,-0.0012200209399623125,-0.01335412855247891,0.0008685490249733504
0.27,0.0002861204239948807,-0.7848763240000027,7.33458779985745e-05,-2.35590772,0.00019198778799576805,1.5710043399999987,0.7860370119999982,0.0399999786,0.039999988800000004,-9.824732399999952,0.007977503537980754,-0.0036802756399772762,-0.0012517013599610447,-0.013456531241410202,0.0008909509999724539
0.2725,0.00029028367699471415,-0.7848741145000029,7.45051664985281e-05,-2.3559079599999997,0.00019542945399563032,1.5710054949999985,0.7860384459999982,0.03999997755,0.0399999879,-9.824770199999952,0.008100244076766653,-0.003698755519976537,-0.001283381779959777,-0.013558933930341494,0.0009133529749715574
0.275,0.00029444692999454754,-0.7848719050000029,7.566445499848172e-05,-2.3559081999999996,0.0001988711199954926,1.5710066499999986,0.7860398799999981,0.0399999765,0.039999987,-9.824807999999951,0.00822298461555255,-0.0037172353999757974,-0.0013150621999585093,-0.013661336619272787,0.000935754949970661
0.2775,0.0002986101829943809,-0.7848696955000031,7.682374349843532e-05,-2.35590844,0.00020231278599535486,1.5710078049999985,0.786041313999998,0.03999997545,0.0399999861,-9.824845799999949,0.00834572515433845,-0.003735715279975058,-0.0013467426199572415,-0.013763739308204079,0.0009581569249697645
0.28,0.0003027734359942143,-0.7848674860000031,7.798303199838894e-05,-2.3559086799999998,0.00020575445199521713,1.5710089599999986,0.786042747999998,0.0399999744,0.039999985200000004,-9.824883599999948,0.008468465693124348,-0.0037541951599743186,-0.0013784230399559738,-0.013866141997135371,0.000980558899968868
0.28250000000000003,0.00030693668899404775,-0.7848652765000033,7.914232049834254e-05,-2.3559089199999996,0.0002091961179950794,1.5710101149999984,0.7860441819999979,0.03999997335,0.039999984300000006,-9.824921399999946,0.008591206231910245,-0.0037726750399735788,-0.001410103459954706,-0.013968544686066663,0.0010029608749679716
0.28500000000000003,0.0003115501539928886,-0.7848635810000022,8.042686639802001e-05,-2.355908630000001,0.00021300867699412403,1.5710113399999983,0.7860456839999977,0.039999972300000006,0.03999998330000001,-9.824944099999978,0.008705292083161594,-0.0037837804499890972,-0.00144403751994847,-0.014071918651308885,0.0010267524799640114
0.28750000000000003,0.00031638872499269497,-0.7848621425000022,8.177404099796611e-05,-2.3559080750000008,0.00021700668249396402,1.5710125999999982,0.7860472199999976,0.03999997125,0.03999998225,-9.824959249999978,0.008815050590617567,-0.0037911986249888003,-0.0014790983999470669,-0.014175778254709722,0.0010512388999630315
0.29,0.0003212272959925012,-0.7848607040000023,8.312121559791217e-05,-2.355907520000001,0.00022100468799380395,1.571013859999998,0.7860487559999976,0.0399999702,0.0399999812,-9.824974399999977,0.008924809098073538,-0.0037986167999885033,-0.0015141592799456632,-0.01427963785811056,0.0010757253199620512
0.2925,0.00032606586699230765,-0.7848592655000023,8.446839019785826e-05,-2.355906965000001,0.00022500269349364397,1.571015119999998,0.7860502919999975,0.03999996915,0.03999998015,-9.824989549999977,0.00903456760552951,-0.0038060349749882067,-0.0015492201599442601,-0.014383497461511399,0.0011002117399610714
0.295,0.000330904437992114,-0.7848578270000024,8.581556479780434e-05,-2.3559064100000007,0.00022900069899348395,1.571016379999998,0.7860518279999975,0.0399999681,0.0399999791,-9.825004699999976,0.009144326112985483,-0.0038134531499879097,-0.001584281039942857,-0.014487357064912238,0.0011246981599600915
0.2975,0.0003357430089919204,-0.7848563885000025,8.716273939775044e-05,-2.355905855000001,0.00023299870449332397,1.571017639999998,0.7860533639999975,0.03999996705,0.03999997805,-9.825019849999975,0.009254084620441456,-0.0038208713249876128,-0.001619341919941454,-0.014591216668313076,0.0011491845799591117
0.3,0.0003405815799917268,-0.7848549500000025,8.850991399769653e-05,-2.3559053000000008,0.00023699670999316398,1.5710188999999979,0.7860548999999973,0.039999966,0.039999977,-9.825034999999973,0.009363843127897429,-0.0038282894999873162,-0.001654402799940051,-0.014695076271713915,0.0011736709999581318
0.3025,0.00034615371249055357,-0.7848542525000012,9.006118789737013e-05,-2.355903650000003,0.000241598832992198,1.5710201899999978,0.7860566399999971,0.0399999648,0.0399999764,-9.825118699999857,0.009513462893411154,-0.003824509725006408,-0.0016919055749364214,-0.01480170902778004,0.0012001358749551341
0.305,0.00035172584499063464,-0.7848535550000012,9.16124617973927e-05,-2.3559020000000026,0.00024620095599226497,1.571021479999998,0.7860583799999971,0.0399999636,0.039999975800000004,-9.82520239999986,0.009663082658993037,-0.003820729950006353,-0.0017294083499369672,-0.014908341783850908,0.0012266007499555191
0.3075,0.0003572979774907158,-0.7848528575000012,9.316373569741528e-05,-2.355900350000003,0.00025080307899233195,1.571022769999998,0.7860601199999971,0.0399999624,0.0399999752,-9.825286099999861,0.009812702424574918,-0.003816950175006298,-0.001766911124937513,-0.015014974539921774,0.0012530656249559043
0.31,0.00036287010999079685,-0.7848521600000011,9.471500959743785e-05,-2.3558987000000027,0.00025540520199239893,1.5710240599999978,0.7860618599999971,0.0399999612,0.0399999746,-9.825369799999862,0.009962322190156801,-0.003813170400006243,-0.0018044138999380587,-0.01512160729599264,0.0012795304999562896
0.3125,0.00036844224249087793,-0.7848514625000012,9.626628349746043e-05,-2.355897050000003,0.0002600073249924659,1.571025349999998,0.7860635999999972,0.03999996,0.039999974,-9.825453499999863,0.010111941955738684,-0.003809390625006188,-0.0018419166749386044,-0.015228240052063509,0.0013059953749566745
0.315,0.000374014374990959,-0.7848507650000012,9.7817557397483e-05,-2.3558954000000027,0.0002646094479925329,1.571026639999998,0.7860653399999972,0.039999958800000006,0.0399999734,-9.825537199999864,0.010261561721320566,-0.003805610850006133,-0.0018794194499391504,-0.015334872808134375,0.0013324602499570598
0.3175,0.0003798506069897082,-0.784850312,9.9442312497135e-05,-2.3558934650000043,0.00026942907599150287,1.571028089999997,0.7860671649999967,0.039999957600000004,0.03999997265,-9.825607924999927,0.01040772106475963,-0.0037940413000439027,-0.0019178852999346828,-0.01544251400028317,0.0013596784749535496
0.32,0.0003862150379896272,-0.784850348,0.00010121402999711243,-2.355890960000004,0.0002746837139914359,1.5710298599999972,0.7860691599999967,0.0399999564,0.0399999716,-9.825652699999926,0.010546959563862826,-0.003766892200044248,-0.0019582772999341687,-0.015552172064602458,0.0013884033999531837
0.3225,0.00039257946898954614,-0.784850384,0.00010298574749708988,-2.355888455000004,0.000279938351991369,1.5710316299999971,0.7860711549999967,0.039999955200000006,0.03999997055,-9.825697474999926,0.010686198062966024,-0.0037397431000445935,-0.0019986692999336545,-0.015661830128921746,0.001417128324952818
0.325,0.00039894389998946513,-0.7848504199999999,0.00010475746499706731,-2.3558859500000042,0.00028519298999130213,1.571033399999997,0.7860731499999967,0.039999954000000004,0.0399999695,-9.825742249999925,0.010825436562069222,-0.0037125940000449394,-0.0020390612999331404,-0.015771488193241038,0.0014458532499524524
0.3275,0.00040530833098938407,-0.7848504559999999,0.00010652918249704476,-2.3558834450000044,0.00029044762799123523,1.5710351699999971,0.7860751449999966,0.0399999528,0.03999996845,-9.825787024999924,0.01096467506117242,-0.003685444900045285,-0.002079453299932626,-0.015881146257560326,0.0014745781749520865
0.33,0.00041167276198930306,-0.7848504919999999,0.0001083008999970222,-2.355880940000004,0.00029570226599116834,1.571036939999997,0.7860771399999966,0.0399999516,0.0399999674,-9.825831799999923,0.011103913560275616,-0.0036582958000456306,-0.0021198452999321117,-0.015990804321879614,0.0015033030999517208
0.3325,0.000418037192989222,-0.7848505279999999,0.00011007261749699964,-2.355878435000004,0.0003009569039911014,1.571038709999997,0.7860791349999966,0.039999950400000005,0.03999996635,-9.825876574999924,0.011243152059378814,-0.003631146700045976,-0.0021602372999315975,-0.016100462386198902,0.0015320280249513552
0.335,0.00042496925098768824,-0.7848510859999986,0.00011200226099657291,-2.3558753600000055,0.0003066788899898384,1.571040539999997,0.7860813299999961,0.03999995,0.039999966,-9.825932549999894,0.011385607905440047,-0.003600321110055731,-0.0022026555099258975,-0.0162115434182763,0.0015621851499473239
0.3375,0.00043218512248759637,-0.7848519049999986,0.00011401086749654734,-2.355872000000006,0.0003126345499897626,1.5710423999999967,0.7860836249999961,0.03999995,0.039999966,-9.825994124999893,0.011529672424992587,-0.003567657275056147,-0.0022460868249253446,-0.016323335934238185,0.0015930583749469308
0.34,0.0004394009939875045,-0.7848527239999986,0.00011601947399652176,-2.355868640000006,0.00031859020998968677,1.5710442599999968,0.786085919999996,0.03999995,0.039999966,-9.826055699999893,0.011673736944545128,-0.003534993440056563,-0.0022895181399247917,-0.016435128450200072,0.0016239315999465377
0.3425,0.00044661686548741264,-0.7848535429999985,0.00011802808049649619,-2.355865280000006,0.00032454586998961093,1.5710461199999968,0.786088214999996,0.03999995,0.039999966,-9.826117274999893,0.01181780146409767,-0.0035023296050569787,-0.0023329494549242384,-0.01654692096616196,0.0016548048249461448
0.34500000000000003,0.00045383273698732077,-0.7848543619999986,0.00012003668699647062,-2.355861920000006,0.00033050152998953514,1.5710479799999968,0.786090509999996,0.03999995,0.039999966,-9.826178849999891,0.01196186598365021,-0.0034696657700573944,-0.0023763807699236856,-0.016658713482123846,0.0016856780499457517
0.34750000000000003,0.0004610486084872289,-0.7848551809999985,0.00012204529349644504,-2.355858560000006,0.0003364571899894593,1.5710498399999966,0.786092804999996,0.03999995,0.039999966,-9.826240424999892,0.012105930503202751,-0.0034370019350578106,-0.0024198120849231327,-0.01677050599808573,0.0017165512749453586
0.35000000000000003,0.00046826447998713703,-0.7848559999999986,0.00012405389999641948,-2.355855200000006,0.00034241284998938346,1.5710516999999966,0.7860950999999959,0.03999995,0.039999966,-9.82630199999989,0.012249995022755292,-0.0034043381000582263,-0.00246324339992258,-0.016882298514047617,0.0017474244999449654
0.3525,0.00047639112298540983,-0.7848576049999971,0.0001263159149959389,-2.355850820000008,0.00034911816798796164,1.5710535749999965,0.7860976799999954,0.03999994895,0.0399999651,-9.826348424999917,0.012374996021165475,-0.003332310530129315,-0.002509813254916391,-0.016998406033754476,0.0017803281399409263
0.355,0.00048451776598530633,-0.7848592099999971,0.0001285779299959101,-2.355846440000008,0.00035582348598787626,1.5710554499999965,0.7861002599999953,0.0399999479,0.0399999642,-9.826394849999916,0.012499997019541678,-0.0032602829601302316,-0.002556383109915798,-0.01711451355346903,0.0018132317799405074
0.3575,0.0004926444089852029,-0.784860814999997,0.0001308399449958813,-2.355842060000008,0.0003625288039877909,1.5710573249999966,0.7861028399999953,0.03999994685,0.039999963300000003,-9.826441274999915,0.012624998017917883,-0.003188255390131149,-0.002602952964915205,-0.01723062107318358,0.0018461354199400884
0.36,0.0005007710519850994,-0.7848624199999971,0.0001331019599958525,-2.355837680000008,0.0003692341219877055,1.5710591999999965,0.7861054199999953,0.039999945800000006,0.0399999624,-9.826487699999914,0.012749999016294086,-0.003116227820132066,-0.002649522819914612,-0.017346728592898132,0.0018790390599396694
0.3625,0.0005088976949849959,-0.7848640249999971,0.0001353639749958237,-2.355833300000008,0.0003759394399876201,1.5710610749999965,0.7861079999999953,0.03999994475,0.0399999615,-9.826534124999915,0.012875000014670289,-0.003044200250132983,-0.002696092674914019,-0.017462836112612682,0.0019119426999392507
0.365,0.0005170243379848924,-0.7848656299999971,0.0001376259899957949,-2.355828920000008,0.00038264475798753474,1.5710629499999964,0.7861105799999952,0.039999943700000005,0.0399999606,-9.826580549999914,0.013000001013046493,-0.0029721726801339,-0.0027426625299134264,-0.017578943632327235,0.0019448463399388317
0.3675,0.0005254743999829729,-0.7848674899999956,0.00013997798649526084,-2.35582420000001,0.00038961629148595453,1.5710650049999955,0.7861132719999945,0.039999943,0.03999996,-9.826647549999798,0.01314278519678997,-0.0028998300501365862,-0.0027902541049070963,-0.017696512490285407,0.001978472944934353
0.37,0.0005345712999828571,-0.7848698599999956,0.0001425099459952286,-2.35581880000001,0.00039712025598585897,1.5710674199999954,0.7861161879999945,0.039999943,0.03999996,-9.826755699999797,0.013321135751566883,-0.0028268573001375154,-0.002839889119906464,-0.017817004024755376,0.0020135454799339067
0.3725,0.0005436681999827413,-0.7848722299999955,0.00014504190549519634,-2.3558134000000104,0.00040462422048576346,1.5710698349999954,0.7861191039999944,0.039999943,0.03999996,-9.826863849999794,0.013499486306343797,-0.0027538845501384446,-0.0028895241349058323,-0.017937495559225348,0.00204861801493346
0.375,0.0005527650999826255,-0.7848745999999955,0.0001475738649951641,-2.3558080000000103,0.0004121281849856679,1.5710722499999954,0.7861220199999944,0.039999943,0.03999996,-9.826971999999794,0.013677836861120712,-0.0026809118001393734,-0.0029391591499052,-0.01805798709369532,0.0020836905499330136
0.3775,0.0005618619999825096,-0.7848769699999955,0.00015010582449513188,-2.3558026000000103,0.0004196321494855724,1.5710746649999954,0.7861249359999943,0.039999943,0.03999996,-9.827080149999793,0.013856187415897626,-0.0026079390501403026,-0.002988794164904568,-0.01817847862816529,0.002118763084932567
0.38,0.0005709588999823938,-0.7848793399999955,0.00015263778399509964,-2.3557972000000102,0.0004271361139854768,1.5710770799999954,0.7861278519999944,0.039999943,0.03999996,-9.827188299999792,0.01403453797067454,-0.002534966300141232,-0.0030384291799039364,-0.01829897016263526,0.0021538356199321206
0.3825,0.000580055799982278,-0.7848817099999954,0.0001551697434950674,-2.35579180000001,0.0004346400784853813,1.5710794949999953,0.7861307679999943,0.039999943,0.03999996,-9.82729644999979,0.014212888525451455,-0.002461993550142161,-0.003088064194903304,-0.018419461697105233,0.002188908154931674
0.385,0.0005898391099801433,-0.7848846149999938,0.00015789268899447343,-2.3557857200000125,0.00044270903998362395,1.5710819399999951,0.7861339099999936,0.0399999434,0.039999961,-9.827379349999863,0.01438055327130316,-0.0023809765501667506,-0.003139771879896576,-0.018541537970063512,0.002225514979926715
0.3875,0.0005999656249800143,-0.7848877874999938,0.00016071112749443752,-2.3557793000000125,0.0004510604999835176,1.571084399999995,0.7861371649999935,0.039999944,0.0399999625,-9.827449624999861,0.014542875112645317,-0.0022959374251678333,-0.0031925158998959043,-0.018664406612272907,0.002262888949926239
0.39,0.0006100921399798853,-0.7848909599999937,0.00016352956599440164,-2.355772880000013,0.0004594119599834113,1.5710868599999952,0.7861404199999935,0.039999944600000004,0.039999964,-9.82751989999986,0.014705196953987476,-0.002210898300168916,-0.003245259919895233,-0.018787275254482302,0.002300262919925763
0.3925,0.0006202186549797565,-0.7848941324999936,0.00016634800449436576,-2.3557664600000128,0.0004677634199833049,1.5710893199999951,0.7861436749999935,0.0399999452,0.0399999655,-9.827590174999859,0.014867518795329633,-0.0021258591751699986,-0.0032980039398945614,-0.018910143896691697,0.0023376368899252872
0.395,0.0006303451699796275,-0.7848973049999936,0.00016916644299432988,-2.355760040000013,0.00047611487998319864,1.571091779999995,0.7861469299999935,0.0399999458,0.039999967,-9.827660449999858,0.01502984063667179,-0.0020408200501710813,-0.00335074795989389,-0.019033012538901092,0.0023750108599248114
0.3975,0.0006404716849794986,-0.7849004774999936,0.000171984881494294,-2.355753620000013,0.00048446633998309226,1.571094239999995,0.7861501849999933,0.0399999464,0.0399999685,-9.827730724999856,0.01519216247801395,-0.001955780925172164,-0.0034034919798932185,-0.019155881181110487,0.0024123848299243355
0.4,0.0006505981999793697,-0.7849036499999935,0.00017480331999425813,-2.355747200000013,0.000492817799982986,1.571096699999995,0.7861534399999933,0.039999947,0.03999997,-9.827800999999855,0.015354484319356107,-0.0018707418001732467,-0.003456235999892547,-0.019278749823319886,0.0024497587999238596
0.4025,0.0006618137539770082,-0.7849076279999918,0.0001779247479936011,-2.3557396700000157,0.0005020653449810426,1.5710996999999938,0.7861570429999926,0.039999947,0.03999997045,-9.827894149999809,0.01552115539054669,-0.0017497478102480367,-0.003512123749885431,-0.019406931753938823,0.002489176999919193
0.405,0.0006730293079768655,-0.7849116059999918,0.00018104617599356136,-2.3557321400000157,0.0005113128899809249,1.5711026999999937,0.7861606459999926,0.039999947,0.0399999709,-9.827987299999807,0.015687826461746133,-0.0016287538202495772,-0.003568011499884719,-0.019535113684568586,0.002528595199918691
0.40750000000000003,0.0006842448619767226,-0.7849155839999917,0.00018416760399352162,-2.3557246100000158,0.0005205604349808072,1.5711056999999937,0.7861642489999925,0.039999947,0.03999997135,-9.828080449999806,0.015854497532945575,-0.0015077598302511176,-0.0036238992498840075,-0.019663295615198348,0.0025680133999181893
0.41000000000000003,0.0006954604159765799,-0.7849195619999917,0.00018728903199348188,-2.355717080000016,0.0005298079799806895,1.5711086999999937,0.7861678519999925,0.039999947,0.0399999718,-9.828173599999804,0.016021168604145018,-0.0013867658402526581,-0.003679786999883296,-0.01979147754582811,0.0026074315999176875
0.41250000000000003,0.0007066759699764371,-0.7849235399999916,0.00019041045999344211,-2.355709550000016,0.0005390555249805717,1.5711116999999937,0.7861714549999924,0.039999947,0.03999997225,-9.828266749999804,0.016187839675344463,-0.0012657718502541988,-0.0037356747498825844,-0.019919659476457876,0.0026468497999171856
0.41500000000000004,0.0007178915239762942,-0.7849275179999916,0.00019353188799340238,-2.3557020200000163,0.0005483030699804539,1.5711146999999936,0.7861750579999924,0.039999947,0.0399999727,-9.828359899999803,0.016354510746543906,-0.0011447778602557393,-0.003791562499881873,-0.020047841407087638,0.0026862679999166837
0.4175,0.00072948976697371,-0.7849317734999898,0.00019675979299268334,-2.3556941000000187,0.0005578655314783271,1.5711177649999932,0.7861787769999916,0.039999946800000005,0.03999997285,-9.82843299999993,0.016513972170342464,-0.0010195758042841265,-0.003848452099874769,-0.020176894869377168,0.0027264531599112884
0.42,0.0007418533879735526,-0.7849365839999897,0.00020020065199263953,-2.3556854000000187,0.0005680578259781974,1.5711209599999931,0.7861827279999916,0.039999946200000004,0.0399999724,-9.82846599999993,0.016659014299201573,-0.0008859576162858278,-0.003907345399874019,-0.020307691395002887,0.0027681722399107572
0.4225,0.0007542170089733951,-0.7849413944999897,0.00020364151099259571,-2.3556767000000187,0.0005782501204780675,1.571124154999993,0.7861866789999915,0.0399999456,0.039999971950000004,-9.82849899999993,0.016804056428060682,-0.000752339428287529,-0.003966238699873269,-0.020438487920628606,0.002809891319910226
0.425,0.0007665806299732377,-0.7849462049999896,0.0002070823699925519,-2.3556680000000187,0.0005884424149779378,1.571127349999993,0.7861906299999915,0.039999945,0.0399999715,-9.828531999999928,0.01694909855691979,-0.0006187212402892302,-0.004025131999872519,-0.02056928444625433,0.002851610399909695
0.4275,0.0007789442509730803,-0.7849510154999896,0.0002105232289925081,-2.355659300000019,0.000598634709477808,1.571130544999993,0.7861945809999914,0.0399999444,0.039999971050000006,-9.828564999999928,0.0170941406857789,-0.0004851030522909314,-0.00408402529987177,-0.020700080971880048,0.0028933294799091637
0.43,0.0007913078719729229,-0.7849558259999895,0.00021396408799246428,-2.3556506000000192,0.0006088270039776783,1.571133739999993,0.7861985319999913,0.03999994380000001,0.039999970600000004,-9.828597999999928,0.01723918281463801,-0.0003514848642926327,-0.00414291859987102,-0.020830877497505767,0.0029350485599086325
0.4325,0.0008036714929727654,-0.7849606364999895,0.00021740494699242047,-2.3556419000000193,0.0006190192984775484,1.5711369349999929,0.7862024829999913,0.039999943200000006,0.03999997015,-9.828630999999927,0.017384224943497117,-0.00021786667629433384,-0.00420181189987027,-0.020961674023131486,0.0029767676399081013
0.435,0.0008168397249699341,-0.7849660159999875,0.00022106968999163263,-2.3556324700000215,0.0006298736169752186,1.571140389999992,0.7862067149999903,0.0399999434,0.0399999703,-9.828722099999734,0.01757238507224344,-7.333045233231893e-05,-0.0042626711698629865,-0.021095326542555026,0.0030199318199027676
0.4375,0.0008304102624697613,-0.7849716799999874,0.00022484637499158456,-2.355622675000022,0.0006410589474750762,1.571143974999992,0.7862110874999902,0.039999944,0.03999997075,-9.828842249999733,0.01778210420114749,7.666478966577135e-05,-0.0043245134248621996,-0.021230407058891655,0.003063818549902209
0.44,0.0008439807999695885,-0.7849773439999873,0.0002286230599915365,-2.355612880000022,0.0006522442779749337,1.5711475599999918,0.7862154599999902,0.039999944600000004,0.0399999712,-9.82896239999973,0.017991823330051542,0.00022666003166386164,-0.004386355679861412,-0.021365487575228284,0.00310770527990165
0.4425,0.0008575513374694157,-0.7849830079999872,0.0002323997449914884,-2.355603085000022,0.0006634296084747913,1.5711511449999918,0.7862198324999902,0.0399999452,0.03999997165,-9.829082549999729,0.01820154245895559,0.00037665527366195187,-0.004448197934860625,-0.021500568091564917,0.003151592009901091
0.445,0.000871121874969243,-0.7849886719999872,0.00023617642999144032,-2.355593290000022,0.0006746149389746489,1.5711547299999917,0.7862242049999901,0.0399999458,0.0399999721,-9.829202699999728,0.01841126158785964,0.0005266505156600422,-0.004510040189859838,-0.021635648607901545,0.0031954787399005326
0.4475,0.0008846924124690703,-0.7849943359999871,0.00023995311499139222,-2.355583495000022,0.0006858002694745065,1.5711583149999917,0.7862285774999901,0.0399999464,0.03999997255,-9.829322849999725,0.018620980716763692,0.0006766457576581324,-0.00457188244485905,-0.021770729124238174,0.0032393654698999737
0.45,0.0008982629499688974,-0.784999999999987,0.00024372979999134415,-2.3555737000000225,0.000696985599974364,1.5711618999999917,0.78623294999999,0.039999947,0.039999973,-9.829442999999724,0.01883069984566774,0.0008266409996562228,-0.004633724699858263,-0.021905809640574807,0.003283252199899415
0.4525,0.0009130987824658086,-0.7850065489999849,0.00024785855449048467,-2.355562750000025,0.0007092118599718227,1.5711658599999907,0.7862376884999891,0.03999994805,0.03999997465,-9.829541549999773,0.019018145463928632,0.0010030619995934106,-0.004698740534850161,-0.022045256569660186,0.0033291700198941755
0.455,0.0009279346149656197,-0.7850130979999849,0.0002519873089904321,-2.355551800000025,0.0007214381199716671,1.5711698199999908,0.786242426999989,0.039999949099999994,0.0399999763,-9.829640099999772,0.019205591082138478,0.0011794829995911645,-0.0047637563698493335,-0.02218470349875558,0.0033750878398935906
0.4575,0.0009427704474654308,-0.7850196469999847,0.00025611606349037954,-2.3555408500000254,0.0007336643799715114,1.5711737799999907,0.786247165499989,0.03999995015,0.039999977949999994,-9.82973864999977,0.01939303670034832,0.0013559039995889182,-0.004828772204848506,-0.022324150427850967,0.003421005659893006
0.46,0.0009576062799652419,-0.7850261959999847,0.000260244817990327,-2.3555299000000254,0.0007458906399713557,1.5711777399999907,0.7862519039999889,0.039999951199999995,0.0399999796,-9.82983719999977,0.019580482318558162,0.001532324999586672,-0.004893788039847678,-0.022463597356946356,0.0034669234798924216
0.4625,0.000972442112465053,-0.7850327449999847,0.0002643735724902744,-2.3555189500000258,0.0007581168999712001,1.5711816999999906,0.7862566424999888,0.03999995225,0.03999998125,-9.829935749999768,0.019767927936768005,0.0017087459995844259,-0.00495880387484685,-0.022603044286041745,0.0035128412998918367
0.465,0.0009872779449648641,-0.7850392939999845,0.0002685023269902218,-2.3555080000000257,0.0007703431599710444,1.5711856599999905,0.7862613809999888,0.039999953299999995,0.0399999829,-9.830034299999767,0.01995537355497785,0.0018851669995821798,-0.005023819709846022,-0.022742491215137137,0.003558759119891252
0.4675,0.0010025548649615244,-0.7850461369999824,0.00027275381348929257,-2.355496615000029,0.0007829322849682968,1.57118968499999,0.7862662654999877,0.03999995419999999,0.0399999843,-9.830129749999788,0.020144821144179783,0.0020700149245197388,-0.0050897726698385,-0.022883286606178683,0.0036053949998855386
0.47000000000000003,0.0010187139599613189,-0.7850535679999823,0.0002772507639892353,-2.355484360000029,0.0007962471399681272,1.57119383999999,0.7862714419999877,0.039999954799999994,0.0399999852,-9.830218999999786,0.02033827267540872,0.0022717166995171708,-0.0051575998798376365,-0.02302677892114139,0.0036534669998849263
0.47250000000000003,0.001034873054961113,-0.7850609989999822,0.00028174771448917805,-2.3554721050000293,0.0008095619949679577,1.57119799499999,0.7862766184999875,0.039999955399999995,0.039999986099999996,-9.830308249999785,0.020531724206637656,0.0024734184745146023,-0.005225427089836773,-0.0231702712361041,0.003701538999884314
0.47500000000000003,0.0010510321499609073,-0.785068429999982,0.0002862446649891208,-2.3554598500000297,0.0008228768499677882,1.57120214999999,0.7862817949999875,0.039999955999999996,0.039999987,-9.830397499999783,0.020725175737866593,0.0026751202495120343,-0.005293254299835909,-0.023313763551066808,0.003749610999883702
0.47750000000000004,0.0010671912449607016,-0.785075860999982,0.00029074161548906354,-2.3554475950000295,0.0008361917049676186,1.5712063049999898,0.7862869714999874,0.0399999566,0.0399999879,-9.830486749999784,0.020918627269095533,0.0028768220245094663,-0.005361081509835046,-0.023457255866029515,0.00379768299988309
0.48,0.0010833503399604956,-0.7850832919999818,0.00029523856598900617,-2.35543534000003,0.0008495065599674488,1.5712104599999899,0.7862921479999874,0.0399999572,0.0399999888,-9.830575999999782,0.021112078800324466,0.0030785237995068935,-0.005428908719834181,-0.02360074818099222,0.003845754999882477
0.4825,0.0010995094349602898,-0.7850907229999818,0.0002997355164889489,-2.35542308500003,0.0008628214149672792,1.5712146149999897,0.7862973244999872,0.0399999578,0.039999989699999995,-9.83066524999978,0.021305530331553402,0.0032802255745043255,-0.005496735929833317,-0.02374424049595493,0.0038938269998818648
0.485,0.0011165889999566734,-0.7850987839999793,0.00030448859798794264,-2.3554099800000334,0.0008768934739643041,1.5712191499999884,0.7863027809999862,0.039999958,0.0399999905,-9.830723199999897,0.021481023914700626,0.0035038913094203746,-0.005566584199824965,-0.023890922590723878,0.003943326129875965
0.4875,0.0011341287999564501,-0.7851071599999793,0.0003093697449878805,-2.3553964500000335,0.0008913441349641201,1.5712238749999883,0.786308377499986,0.039999958,0.03999999125,-9.830765499999895,0.021647538523707533,0.0037385390244173873,-0.005637442999824063,-0.024039199575413613,0.003993538824875326
0.49,0.0011516685999562268,-0.7851155359999791,0.0003142508919878183,-2.3553829200000336,0.0009057947959639362,1.5712285999999882,0.786313973999986,0.039999958,0.039999992,-9.830807799999896,0.021814053132714437,0.0039731867394144,-0.005708301799823161,-0.024187476560103352,0.004043751519874686
0.4925,0.0011692083999560034,-0.785123911999979,0.0003191320389877562,-2.355369390000034,0.0009202454569637522,1.5712333249999881,0.7863195704999859,0.039999958,0.03999999275,-9.830850099999894,0.021980567741721344,0.004207834454411412,-0.005779160599822258,-0.02433575354479309,0.004093964214874047
0.495,0.00118674819995578,-0.7851322879999789,0.00032401318598769405,-2.355355860000034,0.0009346961179635682,1.571238049999988,0.7863251669999859,0.039999958,0.0399999935,-9.830892399999893,0.022147082350728247,0.004442482169408425,-0.005850019399821356,-0.024484030529482826,0.004144176909873408
0.4975,0.0012042879999555568,-0.7851406639999787,0.00032889433298763187,-2.3553423300000342,0.0009491467789633841,1.571242774999988,0.7863307634999858,0.039999958,0.039999994250000004,-9.830934699999894,0.02231359695973515,0.004677129884405437,-0.005920878199820454,-0.024632307514172565,0.004194389604872768
0.5,0.0012218277999553335,-0.7851490399999786,0.00033377547998756973,-2.3553288000000348,0.0009635974399632002,1.571247499999988,0.7863363599999857,0.039999958,0.039999995,-9.830976999999892,0.022480111568742057,0.0049117775994024495,-0.005991736999819552,-0.0247805844988623,0.004244602299872129
0.5025000000000001,0.0012408051849514313,-0.7851583339999761,0.000339056622986484,-2.355313920000038,0.0009792314839599879,1.5712525249999871,0.7863424409999844,0.0399999583,0.03999999575,-9.831108099999666,0.022725606895354845,0.005149466309391684,-0.0060654627498113135,-0.024932209215670173,0.00429706985486572
0.505,0.0012597825699511892,-0.7851676279999761,0.00034433776598641666,-2.3552990400000384,0.0009948655279597885,1.571257549999987,0.7863485219999844,0.0399999586,0.0399999965,-9.831239199999663,0.022971102222168752,0.005387155019388653,-0.006139188499810374,-0.025083833932486563,0.00434953740986505
0.5075000000000001,0.001278759954950948,-0.7851769219999759,0.0003496189089863495,-2.3552841600000387,0.0010104995719595897,1.571262574999987,0.7863546029999843,0.0399999589,0.03999999725,-9.831370299999662,0.023216597548982674,0.005624843729385632,-0.006212914249809437,-0.02523545864930296,0.004402004964864384
0.51,0.001297737339950706,-0.7851862159999758,0.00035490005198628215,-2.3552692800000385,0.0010261336159593903,1.5712675999999868,0.7863606839999843,0.0399999592,0.039999998,-9.83150139999966,0.02346209287579658,0.005862532439382601,-0.0062866399998084965,-0.02538708336611935,0.004454472519863715
0.5125,0.0013167147249504639,-0.7851955099999757,0.0003601811949862148,-2.355254400000039,0.001041767659959191,1.5712726249999869,0.7863667649999841,0.0399999595,0.03999999875,-9.831632499999658,0.023707588202610493,0.006100221149379569,-0.006360365749807556,-0.025538708082935745,0.0045069400748630455
0.515,0.0013356921099502226,-0.7852048039999756,0.0003654623379861477,-2.355239520000039,0.0010574017039589921,1.5712776499999868,0.7863728459999841,0.0399999598,0.0399999995,-9.831763599999656,0.02395308352942441,0.006337909859376548,-0.006434091499806619,-0.025690332799752143,0.004559407629862379
0.5175,0.001355167439945857,-0.7852144149999729,0.0003708820399849329,-2.355224200000043,0.0010734456899553978,1.5712827699999858,0.7863790799999828,0.0399999599,0.03999999975,-9.831879749999771,0.02418925333710594,0.00658849349926904,-0.00650881527479709,-0.02584344707388118,0.004612578784855649
0.52,0.0013756386599450383,-0.7852246599999725,0.00037657885998470506,-2.3552080000000433,0.0010903095599547235,1.5712880799999858,0.7863856199999825,0.0399999596,0.039999999,-9.831965999999769,0.02440677210630186,0.006864866999257987,-0.006585535099794021,-0.025999540462670796,0.004667157139853466
0.5225,0.0013961098799442186,-0.7852349049999721,0.00038227567998447694,-2.355191800000044,0.0011071734299540482,1.5712933899999855,0.7863921599999822,0.039999959300000006,0.03999999825,-9.832052249999766,0.02462429087549777,0.007141240499246921,-0.006662254924790949,-0.026155633851460407,0.004721735494851282
0.525,0.0014165810999434,-0.7852451499999716,0.0003879724999842491,-2.3551756000000448,0.0011240372999533738,1.5712986999999852,0.7863986999999819,0.039999959,0.0399999975,-9.832138499999761,0.024841809644693694,0.007417613999235868,-0.006738974749787881,-0.026311727240250025,0.004776313849849099
0.5275,0.0014370523199425803,-0.7852553949999713,0.000393669319984021,-2.3551594000000455,0.0011409011699526986,1.571304009999985,0.7864052399999817,0.039999958700000005,0.03999999675,-9.832224749999758,0.025059328413889602,0.0076939874992248015,-0.006815694574784809,-0.026467820629039636,0.0048308922048469136
0.53,0.0014575235399417615,-0.7852656399999709,0.0003993661399837932,-2.355143200000046,0.0011577650399520242,1.5713093199999848,0.7864117799999814,0.0399999584,0.039999996,-9.832310999999754,0.025276847183085524,0.00797036099921375,-0.00689241439978174,-0.02662391401782925,0.004885470559844731
0.5325,0.0014779947599409418,-0.7852758849999705,0.00040506295998356506,-2.3551270000000466,0.001174628909951349,1.5713146299999847,0.7864183199999811,0.0399999581,0.03999999525,-9.832397249999751,0.025494365952281436,0.008246734499202683,-0.006969134224778669,-0.02678000740661886,0.004940048914842545
0.535,0.0014994988699363926,-0.7852867959999675,0.00041104719998229916,-2.355109870000051,0.0011923408299476135,1.571320309999983,0.7864251999999796,0.039999957600000004,0.0399999955,-9.832461099999847,0.025689461640482435,0.008545822399103266,-0.007047738309770227,-0.026939533091615765,0.004995863629836991
0.5375,0.0015215194249367126,-0.7852980399999677,0.0004171751499823882,-2.3550922750000507,0.001210476774947877,1.5713261749999832,0.7864322499999797,0.039999957,0.03999999625,-9.83251374999985,0.02587334578803974,0.008856267499107777,-0.007127284524771383,-0.02710077492473869,0.005052296524837812
0.54,0.0015435399799370335,-0.7853092839999678,0.0004233030999824775,-2.35507468000005,0.0012286127199481415,1.571332039999983,0.7864392999999799,0.0399999564,0.039999997,-9.83256639999985,0.026057229935597056,0.009166712599112302,-0.007206830739772543,-0.02726201675786162,0.005108729419838634
0.5425,0.0015655605349373534,-0.785320527999968,0.00042943104998256656,-2.35505708500005,0.001246748664948405,1.5713379049999832,0.7864463499999799,0.0399999558,0.03999999775,-9.83261904999985,0.02624111408315436,0.009477157699116813,-0.007286376954773698,-0.02742325859098454,0.005165162314839454
0.545,0.0015875810899376745,-0.7853317719999682,0.0004355589999826559,-2.35503949000005,0.0012648846099486692,1.5713437699999833,0.78645339999998,0.0399999552,0.0399999985,-9.832671699999851,0.026424998230711677,0.009787602799121338,-0.007365923169774857,-0.027584500424107473,0.005221595209840276
0.5475,0.0016096016449379945,-0.7853430159999684,0.00044168694998274487,-2.3550218950000494,0.001283020554948933,1.5713496349999834,0.7864604499999801,0.0399999546,0.03999999925,-9.832724349999852,0.026608882378268982,0.010098047899125849,-0.007445469384776014,-0.027745742257230397,0.0052780281048410965
0.55,0.0016316221999383154,-0.7853542599999684,0.0004478148999828342,-2.3550043000000493,0.0013011564999491972,1.5713554999999835,0.7864674999999802,0.039999954,0.04,-9.832776999999853,0.0267927665258263,0.010408492999130372,-0.007525015599777173,-0.027906984090353328,0.005334460999841919
0.5525,0.0016552468549335207,-0.7853664759999656,0.00045438918998150007,-2.3549853550000535,0.0013206138399452475,1.5713617699999822,0.7864750359999788,0.03999995295,0.0399999985,-9.832909749999626,0.02706800112423333,0.010724300449111324,-0.007607469609767976,-0.02807163819624339,0.0053932507098345675
0.555,0.0016788715099332204,-0.7853786919999655,0.0004609634799814165,-2.3549664100000536,0.0013400711799450003,1.5713680399999823,0.7864825719999787,0.039999951900000004,0.039999997,-9.833042499999625,0.027343235722896268,0.01104010789910731,-0.007689923619766927,-0.028236292302143015,0.0054520404198338205
0.5575,0.001702496164932919,-0.7853909079999652,0.0004675377699813327,-2.3549474650000537,0.001359528519944752,1.5713743099999822,0.7864901079999785,0.03999995085,0.0399999955,-9.833175249999623,0.02761847032155919,0.011355915349103282,-0.007772377629765876,-0.028400946408042634,0.00551083012983307
0.56,0.0017261208199326188,-0.7854031239999651,0.0004741120599812491,-2.354928520000054,0.0013789858599445046,1.571380579999982,0.7864976439999785,0.039999949800000004,0.039999994000000004,-9.833307999999622,0.027893704920222126,0.011671722799099268,-0.007854831639764828,-0.02856560051394226,0.005569619839832323
0.5625,0.0017497454749323175,-0.7854153399999649,0.0004806863499811653,-2.354909575000054,0.0013984431999442565,1.5713868499999821,0.7865051799999784,0.03999994875,0.039999992500000005,-9.83344074999962,0.02816893951888505,0.01198753024909524,-0.007937285649763776,-0.028730254619841883,0.0056284095498315735
0.5650000000000001,0.0017733701299320172,-0.7854275559999648,0.0004872606399810817,-2.3548906300000545,0.0014179005399440091,1.571393119999982,0.7865127159999783,0.0399999477,0.039999991000000006,-9.833573499999618,0.028444174117547988,0.012303337699091227,-0.008019739659762729,-0.02889490872574151,0.005687199259830826
0.5675,0.0017975475049269232,-0.7854401199999617,0.0004939887419796641,-2.3548711450000592,0.0014378118949398243,1.5713995399999807,0.7865204279999767,0.039999946800000005,0.03999999025,-9.833699149999678,0.028707752748629377,0.012631696198978368,-0.008103090099753903,-0.02906127450938617,0.005746581479824938
0.5700000000000001,0.0018228303199266018,-0.7854533799999615,0.0005010244679795747,-2.3548505800000594,0.0014586312799395595,1.5714062599999805,0.7865284919999765,0.039999946200000004,0.039999991,-9.833810599999676,0.028948019444244945,0.012985156798973874,-0.00818823339975282,-0.029231063648565387,0.005807148719824169
0.5725,0.0018481131349262795,-0.7854666399999612,0.000508060193979485,-2.3548300150000596,0.001479450664939294,1.5714129799999805,0.7865365559999764,0.0399999456,0.03999999175,-9.833922049999675,0.0291882861398605,0.013338617398969367,-0.008273376699751735,-0.029400852787744597,0.005867715959823396
0.5750000000000001,0.0018733959499259581,-0.7854798999999612,0.0005150959199793955,-2.3548094500000603,0.0015002700499390294,1.5714196999999803,0.7865446199999764,0.039999945,0.0399999925,-9.834033499999673,0.029428552835476067,0.013692077998964875,-0.008358519999750654,-0.029570641926923814,0.005928283199822627
0.5775,0.0018986787649256356,-0.7854931599999609,0.0005221316459793058,-2.3547888850000604,0.0015210894349387638,1.5714264199999803,0.7865526839999762,0.0399999444,0.03999999325,-9.834144949999672,0.02966881953109162,0.014045538598960365,-0.008443663299749568,-0.029740431066103024,0.005988850439821854
0.58,0.0019239615799253134,-0.7855064199999607,0.0005291673719792161,-2.3547683200000606,0.0015419088199384984,1.5714331399999801,0.7865607479999761,0.03999994380000001,0.039999994,-9.83425639999967,0.02990908622670718,0.014398999198955858,-0.008528806599748482,-0.029910220205282233,0.006049417679821081
0.5825,0.001949244394924992,-0.7855196799999606,0.0005362030979791266,-2.354747755000061,0.0015627282049382337,1.5714398599999801,0.7865688119999761,0.039999943200000006,0.039999994750000004,-9.83436784999967,0.030149352922322743,0.014752459798951366,-0.008613949899747399,-0.03008000934446145,0.006109984919820312
0.585,0.001975668079919571,-0.7855336459999573,0.0005435563289776179,-2.3547261900000658,0.0015844855999337761,1.571446819999979,0.7865772399999743,0.039999943,0.039999995,-9.834450299999798,0.03039804175420743,0.015126497098854894,-0.008700934449738084,-0.030252135730763473,0.006172110359812575
0.5875,0.0020026621999192275,-0.7855479649999572,0.0005510683124775224,-2.3547041250000658,0.0016067119999334935,1.571453899999979,0.7865858499999742,0.039999943,0.039999995,-9.834518249999798,0.03065094165428299,0.01551082274885001,-0.008788839624736967,-0.030425430740642537,0.006235014899811775
0.59,0.002029656319918883,-0.785562283999957,0.0005585802959774265,-2.354682060000066,0.0016289383999332102,1.5714609799999788,0.7865944599999741,0.039999943,0.039999995,-9.834586199999796,0.03090384155435854,0.015895148398845108,-0.008876744799735846,-0.03059872575052159,0.006297919439810973
0.5925,0.00205665043991854,-0.7855766029999568,0.0005660922794773311,-2.3546599950000666,0.0016511647999329275,1.5714680599999786,0.786603069999974,0.039999943,0.039999995,-9.834654149999796,0.0311567414544341,0.016279474048840226,-0.008964649974734729,-0.030772020760400653,0.006360823979810174
0.595,0.0020836445599181955,-0.7855909219999566,0.0005736042629772353,-2.3546379300000666,0.0016733911999326442,1.5714751399999787,0.7866116799999738,0.039999943,0.039999995,-9.834722099999794,0.031409641354509646,0.016663799698835323,-0.009052555149733608,-0.030945315770279706,0.006423728519809371
0.5975,0.0021106386799178527,-0.7856052409999564,0.0005811162464771398,-2.354615865000067,0.0016956175999323616,1.5714822199999785,0.7866202899999738,0.039999943,0.039999995,-9.834790049999794,0.03166254125458521,0.017048125348830438,-0.00914046032473249,-0.03111861078015877,0.006486633059808572
0.6,0.002137632799917508,-0.7856195599999563,0.000588628229977044,-2.3545938000000675,0.0017178439999320783,1.5714892999999786,0.7866288999999737,0.039999943,0.039999995,-9.834857999999793,0.03191544115466076,0.01743245099882554,-0.00922836549973137,-0.03129190579003782,0.006549537599807769
0.6025,0.002166390619911753,-0.7856349199999528,0.0005966310104754425,-2.3545702800000723,0.0017415225199273396,1.5714969049999767,0.7866380739999718,0.03999994255,0.039999995,-9.834896249999883,0.032129683158634265,0.01785906314869089,-0.009319071624721658,-0.031469896621455926,0.0066143420098011396
0.605,0.0021951484399113865,-0.7856502799999526,0.0006046337909753404,-2.3545467600000722,0.0017652010399270377,1.5715045099999767,0.7866472479999717,0.039999942100000005,0.039999995,-9.834934499999882,0.03234392516248962,0.01828567529868545,-0.0094097777497205,-0.03164788745288837,0.006679146419800313
0.6075,0.002223906259911021,-0.7856656399999525,0.0006126365714752387,-2.3545232400000726,0.0017888795599267367,1.5715121149999765,0.7866564219999715,0.03999994165,0.039999995,-9.834972749999881,0.032558167166344985,0.018712287448680025,-0.009500483874719348,-0.031825878284320826,0.00674395082979949
0.61,0.002252664079910654,-0.7856809999999523,0.0006206393519751366,-2.354499720000073,0.0018125580799264345,1.5715197199999764,0.7866655959999714,0.0399999412,0.039999995,-9.83501099999988,0.03277240917020034,0.019138899598674586,-0.00959118999971819,-0.03200386911575327,0.006808755239798663
0.6125,0.0022814218999102887,-0.7856963599999521,0.000628642132475035,-2.3544762000000734,0.0018362365999261337,1.5715273249999762,0.7866747699999713,0.03999994075,0.039999995,-9.83504924999988,0.03298665117405571,0.019565511748669162,-0.009681896124717038,-0.032181859947185726,0.006873559649797839
0.615,0.002310179719909922,-0.7857117199999519,0.0006366449129749329,-2.3544526800000734,0.0018599151199258316,1.5715349299999761,0.7866839439999712,0.0399999403,0.039999995,-9.83508749999988,0.03320089317791107,0.01999212389866372,-0.00977260224971588,-0.032359850778618166,0.006938364059797013
0.6175,0.0023395425999038475,-0.7857274419999484,0.0006448160729732426,-2.3544286250000788,0.0018840911599208366,1.5715426999999744,0.7866933139999692,0.039999940149999996,0.03999999525,-9.83516799999948,0.03344890829076461,0.020419006448655748,-0.00986419404970637,-0.03253943044634793,0.007003840349789851
0.62,0.0023701155999034575,-0.7857438879999481,0.000653323991973134,-2.354403500000079,0.0019092622399205154,1.5715507999999743,0.7867030759999691,0.0399999406,0.039999996,-9.835332999999478,0.033764469622569154,0.020846429798650295,-0.00995755719970518,-0.03272218778671721,0.007070660399788998
0.6225,0.0024006885999030693,-0.7857603339999478,0.0006618319109730258,-2.3543783750000795,0.0019344333199201955,1.5715588999999743,0.786712837999969,0.03999994105,0.03999999675,-9.835497999999477,0.03408003095437371,0.021273853148644863,-0.010050920349703993,-0.032904945127086506,0.007137480449788148
0.625,0.0024312615999026793,-0.7857767799999477,0.0006703398299729174,-2.35435325000008,0.0019596043999198743,1.5715669999999742,0.786722599999969,0.0399999415,0.0399999975,-9.835662999999474,0.03439559228617825,0.021701276498639413,-0.010144283499702802,-0.03308770246745579,0.007204300499787296
0.6275000000000001,0.0024618345999022906,-0.7857932259999474,0.0006788477489728092,-2.3543281250000803,0.0019847754799195544,1.571575099999974,0.7867323619999688,0.03999994195,0.03999999825,-9.835827999999474,0.0347111536179828,0.02212869984863398,-0.010237646649701617,-0.03327045980782508,0.007271120549786447
0.63,0.0024924075999019006,-0.7858096719999472,0.0006873556679727008,-2.3543030000000806,0.0020099465599192337,1.5715831999999739,0.7867421239999687,0.0399999424,0.039999999,-9.83599299999947,0.03502671494978734,0.022556123198628528,-0.010331009799700426,-0.03345321714819437,0.007337940599785595
0.6325000000000001,0.002522980599901512,-0.785826117999947,0.0006958635869725926,-2.354277875000081,0.0020351176399189138,1.571591299999974,0.7867518859999686,0.039999942850000005,0.03999999975,-9.83615799999947,0.035342276281591894,0.022983546548623095,-0.010424372949699239,-0.03363597448856366,0.007404760649784746
0.635,0.0025547975598944972,-0.7858433149999429,0.0007047176539706407,-2.354251690000087,0.0020613126499131394,1.571599729999972,0.7867620429999663,0.039999942700000006,0.04,-9.836265299999745,0.03563441410569533,0.02344072119846473,-0.010519551599687493,-0.03382128365277161,0.007473015799775677
0.6375000000000001,0.0025872364998932,-0.7858608874999421,0.0007137447949702796,-2.354224975000088,0.0020880196249120713,1.5716083249999717,0.786772397499966,0.039999942250000003,0.04,-9.836343749999742,0.035914840175778215,0.023912771498445846,-0.010615637999683649,-0.03400786872891742,0.007541988499772918
0.64,0.0026196754398919012,-0.7858784599999414,0.0007227719359699182,-2.3541982600000892,0.002114726599911002,1.5716169199999714,0.7867827519999655,0.0399999418,0.04,-9.836422199999738,0.03619526624586109,0.024384821798426947,-0.010711724399679802,-0.034194453805063224,0.0076109611997701564
0.6425,0.002652114379890602,-0.7858960324999407,0.0007317990769695567,-2.3541715450000904,0.0021414335749099325,1.571625514999971,0.7867931064999651,0.03999994135,0.04,-9.836500649999737,0.03647569231594397,0.024856872098408048,-0.010807810799675955,-0.03438103888120903,0.007679933899767395
0.645,0.002684553319889305,-0.78591360499994,0.0007408262179691956,-2.354144830000091,0.0021681405499088644,1.5716341099999707,0.7868034609999647,0.0399999409,0.04,-9.836579099999733,0.03675611838602686,0.025328922398389166,-0.010903897199672113,-0.03456762395735485,0.007748906599764636
0.6475,0.002716992259888006,-0.7859311774999393,0.0007498533589688342,-2.3541181150000923,0.0021948475249077954,1.5716427049999704,0.7868138154999643,0.03999994045,0.04,-9.83665754999973,0.03703654445610974,0.025800972698370266,-0.010999983599668266,-0.03475420903350065,0.007817879299761875
0.65,0.002749431199886709,-0.7859487499999386,0.0007588804999684732,-2.3540914000000934,0.0022215544999067273,1.57165129999997,0.7868241699999639,0.03999994,0.04,-9.836735999999727,0.03731697052619262,0.026273022998351388,-0.011096069999664422,-0.03494079410964646,0.007886851999759116
0.6525,0.0027837854748805186,-0.785967447499935,0.0007684407349667503,-2.354062930000099,0.0022498363999016377,1.5716604199999684,0.7868351304999619,0.03999994,0.04,-9.836830499999671,0.03760560527343493,0.026778527798241896,-0.011194739699656835,-0.03513168971919182,0.00795762709975385
0.655,0.0028181397498810196,-0.7859861449999352,0.0007780009699668896,-2.354034460000099,0.00227811829990205,1.5716695399999685,0.7868460909999621,0.03999994,0.04,-9.836924999999672,0.03789424002070592,0.027284032598249262,-0.011293409399658273,-0.03532258532875223,0.008028402199754881
0.6575,0.0028524940248815184,-0.7860048424999355,0.0007875612049670286,-2.3540059900000982,0.002306400199902461,1.5716786599999686,0.7868570514999622,0.03999994,0.04,-9.837019499999673,0.03818287476797689,0.027789537398256608,-0.011392079099659707,-0.03551348093831264,0.00809917729975591
0.66,0.0028868482998820194,-0.7860235399999358,0.0007971214399671679,-2.3539775200000976,0.002334682099902873,1.5716877799999687,0.7868680119999624,0.03999994,0.04,-9.837113999999675,0.03847150951524788,0.028295042198263978,-0.011490748799661145,-0.03570437654787306,0.008169952399756942
0.6625,0.0029212025748825182,-0.7860422374999361,0.0008066816749673067,-2.3539490500000975,0.002362963999903284,1.571696899999969,0.7868789724999625,0.03999994,0.04,-9.837208499999676,0.03876014426251885,0.028800546998271323,-0.01158941849966258,-0.03589527215743347,0.008240727499757971
0.665,0.0029555568498830192,-0.7860609349999363,0.0008162419099674461,-2.353920580000097,0.002391245899903696,1.571706019999969,0.7868899329999627,0.03999994,0.04,-9.837302999999677,0.039048779009789834,0.02930605179827869,-0.011688088199664017,-0.03608616776699389,0.008311502599759001
0.6675,0.002990565889876858,-0.7860800274999327,0.0008259843649657316,-2.3538915700001017,0.0024200657948986347,1.5717153149999674,0.7869011054999607,0.0399999398,0.04,-9.837372249999936,0.039324425905096355,0.02982492739815003,-0.011787614749656734,-0.0362783573561263,0.008382899699753704
0.67,0.0030268844598773876,-0.786099909999933,0.0008360912599658789,-2.3538614800001016,0.0024499616798990707,1.5717249599999674,0.7869127019999609,0.0399999392,0.04,-9.837390999999936,0.03957409709607708,0.030370544598157984,-0.011888854999658211,-0.03647313490444227,0.008455540799754762
0.6725,0.0030632030298779153,-0.7861197924999332,0.0008461981549660257,-2.353831390000101,0.002479857564899505,1.5717346049999676,0.786924298499961,0.0399999386,0.04,-9.837409749999937,0.0398237682870578,0.03091616179816591,-0.011990095249659681,-0.036667912452758224,0.008528181899755818
0.675,0.0030995215998784447,-0.7861396749999335,0.000856305049966173,-2.3538013000001006,0.0025097534498999406,1.5717442499999679,0.7869358949999612,0.039999938,0.04,-9.837428499999938,0.040073439478038514,0.031461778998173866,-0.012091335499661158,-0.03686269000107419,0.008600822999756876
0.6775,0.0031358401698789724,-0.7861595574999338,0.0008664119449663198,-2.3537712100001005,0.002539649334900375,1.5717538949999679,0.7869474914999615,0.0399999374,0.04,-9.837447249999938,0.04032311066901923,0.03200739619818179,-0.012192575749662628,-0.037057467549390155,0.008673464099757932
0.68,0.003172158739879502,-0.7861794399999341,0.0008765188399664671,-2.3537411200001,0.002569545219900811,1.571763539999968,0.7869590879999616,0.039999936800000004,0.04,-9.837465999999937,0.040572781859999955,0.032553013398189744,-0.012293815999664105,-0.037252245097706124,0.008746105199758991
0.6825,0.0032084773098800296,-0.7861993224999344,0.000886625734966614,-2.3537110300000994,0.0025994411049012453,1.5717731849999683,0.7869706844999618,0.0399999362,0.04,-9.837484749999938,0.040822453050980666,0.033098630598197676,-0.012395056249665574,-0.03744702264602208,0.008818746299760045
0.685,0.0032461372298725473,-0.78621999899993,0.0008971059039645318,-2.353679770000106,0.0026304409198950876,1.5717831899999661,0.7869826949999594,0.039999935400000006,0.04,-9.83759289999949,0.04114764258144802,0.033654827998133005,-0.012498024099654751,-0.03764463141494368,0.008892874199751046
0.6875,0.0032844678248710128,-0.7862410724999291,0.0009077727099641048,-2.353647925000107,0.002661992699893824,1.5717933749999657,0.7869949124999589,0.0399999345,0.04,-9.837745749999485,0.04151059128221913,0.03421631549811052,-0.012601855749650594,-0.03784365579418911,0.008967745499748048
0.6900000000000001,0.0033227984198694795,-0.7862621459999283,0.0009184395159636782,-2.3536160800001085,0.0026935444798925623,1.5718035599999653,0.7870071299999584,0.0399999336,0.04,-9.837898599999479,0.04187353998299025,0.03477780299808807,-0.012705687399646441,-0.03804268017343453,0.009042616799745055
0.6925,0.003361129014867945,-0.7862832194999274,0.000929106321963251,-2.3535842350001097,0.002725096259891299,1.571813744999965,0.7870193474999579,0.039999932700000004,0.04,-9.838051449999472,0.04223648868376136,0.035339290498065584,-0.012809519049642283,-0.03824170455267996,0.009117488099742057
0.6950000000000001,0.003399459609866412,-0.7863042929999265,0.0009397731279628244,-2.353552390000111,0.002756648039890037,1.5718239299999646,0.7870315649999574,0.039999931800000006,0.04,-9.838204299999466,0.042599437384532486,0.03590077799804313,-0.012913350699638131,-0.038440728931925384,0.009192359399739062
0.6975,0.003437790204864877,-0.7863253664999257,0.0009504399339623974,-2.3535205450001127,0.0027881998198887735,1.5718341149999642,0.7870437824999569,0.03999993090000001,0.04,-9.83835714999946,0.04296238608530359,0.036462265498020646,-0.013017182349633973,-0.03863975331117081,0.009267230699736064
0.7000000000000001,0.003476120799863344,-0.7863464399999248,0.0009611067399619707,-2.353488700000114,0.0028197515998875117,1.5718442999999636,0.7870559999999565,0.03999993,0.04,-9.838509999999454,0.04332533478607471,0.03702375299799819,-0.01312101399962982,-0.03883877769041624,0.009342101999733069
0.7025,0.0035165099348554896,-0.7863687089999203,0.0009723465039597846,-2.35345519000012,0.0028529950348810565,1.5718550549999615,0.7870688999999538,0.03999992925,0.04,-9.838587099999724,0.043645356966900146,0.03762709004784129,-0.013227250749619892,-0.03904152195828132,0.009418588349726335
0.705,0.0035568990698549748,-0.78639097799992,0.0009835862679596413,-2.3534216800001206,0.002886238469880633,1.5718658099999614,0.7870817999999536,0.039999928500000004,0.04,-9.838664199999723,0.043965379147572536,0.0382304270978336,-0.013333487499618536,-0.03924426622615965,0.00949507469972536
0.7075,0.0035972882048544612,-0.7864132469999198,0.0009948260319594985,-2.353388170000121,0.00291948190488021,1.5718765649999613,0.7870946999999535,0.039999927750000004,0.04,-9.838741299999722,0.04428540132824494,0.038833764147825925,-0.013439724249617185,-0.039447010494038,0.009571561049724389
0.71,0.0036376773398539464,-0.7864355159999195,0.001006065795959355,-2.353354660000121,0.0029527253398797864,1.5718873199999612,0.7871075999999534,0.039999927000000005,0.04,-9.83881839999972,0.04460542350891733,0.039437101197818236,-0.01354596099961583,-0.039649754761916345,0.009648047399723414
0.7125,0.003678066474853433,-0.7864577849999191,0.0010173055599592123,-2.3533211500001214,0.0029859687748793637,1.571898074999961,0.7871204999999531,0.039999926250000005,0.04,-9.83889549999972,0.044925445689589734,0.04004043824781056,-0.01365219774961448,-0.039852499029794694,0.00972453374972244
0.715,0.003718455609852918,-0.7864800539999189,0.0010285453239590688,-2.353287640000122,0.0030192122098789396,1.5719088299999608,0.787133399999953,0.0399999255,0.04,-9.83897259999972,0.04524546787026212,0.04064377529780287,-0.013758434499613125,-0.04005524329767303,0.009801020099721466
0.7175,0.0037595462648447138,-0.7865027324999141,0.0010399803299567857,-2.3532534600001296,0.0030530324748721934,1.5719197649999588,0.7871465199999504,0.0399999246,0.04,-9.839056549999643,0.04557025451090951,0.04125869269766824,-0.013865522749602439,-0.040259476750331855,0.009878196749712926
0.72,0.0038020399598441717,-0.7865262299999138,0.0010518058199566348,-2.35321794000013,0.0030880063998717476,1.5719310599999587,0.7871600799999503,0.039999923400000005,0.04,-9.839154199999642,0.045904570071663355,0.041896770797660104,-0.013974313999601052,-0.04046668857260055,0.009956753999711923
0.7225,0.003844533654843632,-0.7865497274999135,0.0010636313099564845,-2.3531824200001306,0.003122980324871303,1.5719423549999585,0.7871736399999502,0.0399999222,0.04,-9.839251849999641,0.04623888563241722,0.042534848897651995,-0.01408310524959967,-0.04067390039486926,0.010035311249710925
0.725,0.0038870273498430898,-0.7865732249999132,0.0010754567999563336,-2.353146900000131,0.003157954249870857,1.5719536499999585,0.7871871999999499,0.03999992100000001,0.04,-9.83934949999964,0.04657320119317107,0.04317292699764386,-0.014191896499598282,-0.04088111221713796,0.010113868499709923
0.7275,0.00392952104484255,-0.786596722499913,0.0010872822899561834,-2.3531113800001315,0.0031929281748704122,1.5719649449999582,0.7872007599999498,0.039999919800000006,0.04,-9.839447149999637,0.04690751675392494,0.04381100509763575,-0.0143006877495969,-0.04108832403940666,0.010192425749708925
0.73,0.003972014739842007,-0.7866202199999126,0.0010991077799560325,-2.353075860000132,0.003227902099869966,1.5719762399999582,0.7872143199999496,0.0399999186,0.04,-9.839544799999636,0.04724183231467879,0.04444908319762761,-0.01440947899959551,-0.04129553586167536,0.010270982999707922
0.7325,0.0040145084348414675,-0.7866437174999124,0.0011109332699558822,-2.3530403400001325,0.003262876024869522,1.571987534999958,0.7872278799999495,0.03999991740000001,0.04,-9.839642449999635,0.047576147875432656,0.0450871612976195,-0.014518270249594128,-0.04150274768394407,0.010349540249706924
0.735,0.004058434999832879,-0.7866680489999074,0.001123157549953492,-2.35300357000014,0.003299029199862454,1.5719992199999555,0.7872418999999468,0.039999916600000004,0.0399999995,-9.839668500000036,0.04788087531815711,0.045754857997445046,-0.014628637499583892,-0.04171196632008529,0.010429462299698258
0.7375,0.0041030779998323125,-0.7866927974999071,0.0011355812249533343,-2.3529661750001405,0.003335771999861987,1.5720110999999555,0.7872561499999465,0.039999916,0.03999999875,-9.839658750000037,0.04817080870161823,0.04643736399743637,-0.01473979274958248,-0.04192218836317964,0.010510066749697233
0.74,0.004147720999831743,-0.7867175459999067,0.0011480048999531758,-2.3529287800001413,0.0033725147998615182,1.5720229799999552,0.7872703999999463,0.0399999154,0.039999998,-9.839649000000037,0.04846074208507934,0.04711986999742767,-0.014850947999581062,-0.04213241040627398,0.010590671199696207
0.7425,0.0041923639998311755,-0.7867422944999064,0.001160428574953018,-2.3528913850001416,0.003409257599861051,1.5720348599999552,0.7872846499999462,0.0399999148,0.03999999725,-9.839639250000037,0.04875067546854046,0.047802375997418996,-0.014962103249579648,-0.04234263244936834,0.010671275649695182
0.745,0.004237006999830606,-0.7867670429999061,0.0011728522499528595,-2.352853990000142,0.0034460003998605824,1.572046739999955,0.787298899999946,0.0399999142,0.0399999965,-9.839629500000036,0.049040608852001566,0.04848488199741029,-0.01507325849957823,-0.04255285449246268,0.010751880099694154
0.7475,0.004281649999830038,-0.7867917914999057,0.0011852759249527016,-2.3528165950001423,0.003482743199860116,1.5720586199999547,0.7873131499999457,0.0399999136,0.03999999575,-9.839619750000038,0.04933054223546268,0.04916738799740161,-0.015184413749576818,-0.04276307653555703,0.01083248454969313
0.75,0.004326292999829469,-0.7868165399999054,0.0011976995999525431,-2.352779200000143,0.003519485999859647,1.5720704999999546,0.7873273999999456,0.039999913,0.039999995,-9.839610000000038,0.04962047561892379,0.04984989399739291,-0.0152955689995754,-0.04297329857865138,0.010913088999692101
0.7525000000000001,0.004373128804820498,-0.7868425664999003,0.0012107336999500457,-2.3527401400001495,0.0035580297898522776,1.5720829349999523,0.7873423399999427,0.03999991255,0.03999999575,-9.839748599999469,0.05002861674718592,0.050549450347318885,-0.015409145999564706,-0.04318712204612796,0.010995124599685591
0.755,0.0044199646098199005,-0.7868685929999,0.0012237677999498795,-2.35270108000015,0.003596573579851786,1.572095369999952,0.7873572799999425,0.0399999121,0.0399999965,-9.839887199999467,0.05043675787589957,0.051249006697309966,-0.015522722999563258,-0.043400945513618276,0.011077160199684546
0.7575000000000001,0.004466800414819306,-0.7868946194998996,0.0012368018999497138,-2.352662020000151,0.003635117369851296,1.572107804999952,0.7873722199999423,0.03999991165,0.03999999725,-9.840025799999465,0.05084489900461324,0.051948563047301076,-0.015636299999561815,-0.04361476898110861,0.011159195799683504
0.76,0.004513636219818708,-0.7869206459998993,0.0012498359999495476,-2.352622960000151,0.0036736611598508044,1.5721202399999519,0.7873871599999421,0.0399999112,0.039999998,-9.840164399999464,0.051253040133326884,0.05264811939729215,-0.015749876999560368,-0.043828592448598935,0.011241231399682456
0.7625000000000001,0.004560472024818112,-0.7869466724998989,0.001262870099949382,-2.352583900000152,0.0037122049498503145,1.5721326749999516,0.7874020999999419,0.03999991075,0.03999999875,-9.840302999999462,0.051661181262040556,0.05334767574728326,-0.015863453999558925,-0.04404241591608926,0.011323266999681414
0.765,0.004607307829817516,-0.7869726989998986,0.0012759041999492156,-2.352544840000152,0.0037507487398498233,1.5721451099999515,0.7874170399999417,0.039999910300000004,0.0399999995,-9.84044159999946,0.0520693223907542,0.05404723209727434,-0.015977030999557475,-0.04425623938357959,0.011405302599680367
0.7675000000000001,0.004654888864808181,-0.7869991624998931,0.001289145684946618,-2.3525050900001605,0.0037899066348421316,1.5721577499999488,0.7874322249999387,0.03999991015,0.04,-9.84056889999959,0.0524656947687595,0.05476272214707859,-0.016091357999547237,-0.044471649638453944,0.01148818789966936
0.77,0.0047039603598075545,-0.7870264999998928,0.001302801939946444,-2.3524639600001613,0.0038302927398416167,1.5721707999999488,0.7874478999999385,0.0399999106,0.04,-9.840673599999588,0.05283852964493444,0.055510079597069065,-0.016207184999545758,-0.04469023346815211,0.01157277259966828
0.7725,0.004753031854806929,-0.7870538374998924,0.0013164581949462696,-2.3524228300001617,0.0038706788448411014,1.5721838499999485,0.7874635749999384,0.039999911049999996,0.04,-9.840778299999588,0.05321136452110939,0.05625743704705953,-0.01632301199954428,-0.04490881729785028,0.011657357299667203
0.775,0.004802103349806305,-0.7870811749998922,0.001330114449946096,-2.3523817000001626,0.003911064949840588,1.5721968999999485,0.7874792499999381,0.0399999115,0.04,-9.840882999999586,0.05358419939728434,0.05700479449705003,-0.016438838999542807,-0.045127401127548455,0.011741941999666128
0.7775,0.004851174844805679,-0.7871085124998918,0.001343770704945922,-2.352340570000163,0.0039514510548400725,1.5722099499999485,0.787494924999938,0.039999911949999994,0.04,-9.840987699999586,0.05395703427345929,0.0577521519470405,-0.01655466599954133,-0.04534598495724663,0.011826526699665049
0.78,0.004900246339805056,-0.7871358499998914,0.0013574269599457482,-2.3522994400001633,0.00399183715983956,1.5722229999999482,0.7875105999999378,0.0399999124,0.04,-9.841092399999583,0.05432986914963425,0.058499509397031,-0.01667049299953986,-0.0455645687869448,0.011911111399663974
0.7825,0.0049493178348044295,-0.7871631874998911,0.001371083214945574,-2.352258310000164,0.0040322232648390445,1.5722360499999481,0.7875262749999375,0.03999991285,0.04,-9.841197099999583,0.05470270402580919,0.05924686684702147,-0.01678631999953838,-0.045783152616642966,0.011995696099662894
0.785,0.0049999076997947,-0.7871913999998855,0.001385162069942866,-2.3522159000001723,0.004073857949831043,1.5722494799999456,0.7875424199999346,0.039999913,0.04,-9.841218900000078,0.05504003725818175,0.06002698879681548,-0.01690373449952739,-0.04600352346808659,0.012081226499656149
0.7875,0.005051256749794045,-0.7872200499998852,0.0013994522249426839,-2.352172850000173,0.004116116924830504,1.5722630999999454,0.7875587999999343,0.039999913,0.04,-9.841199250000079,0.055359619668334394,0.06082349299680532,-0.01702194274952588,-0.04622478783041896,0.012167229749655051
0.79,0.005102605799793393,-0.7872486999998848,0.0014137423799425023,-2.3521298000001734,0.004158375899829967,1.5722767199999452,0.7875751799999341,0.039999913,0.04,-9.841179600000078,0.05567920207848705,0.061619997196795194,-0.01714015099952438,-0.046446052192751344,0.012253232999653958
0.7925,0.005153954849792738,-0.7872773499998844,0.00142803253494232,-2.352086750000174,0.0042006348748294285,1.572290339999945,0.7875915599999339,0.039999913,0.04,-9.84115995000008,0.055998784488639694,0.062416501396785035,-0.017258359249522872,-0.046667316555083715,0.01233923624965286
0.795,0.005205303899792085,-0.787305999999884,0.0014423226899421384,-2.3520437000001744,0.0042428938498288915,1.5723039599999449,0.7876079399999337,0.039999913,0.04,-9.84114030000008,0.056318366898792355,0.06321300559677491,-0.017376567499521368,-0.0468885809174161,0.012425239499651767
0.7975,0.00525665294979143,-0.7873346499998837,0.0014566128449419562,-2.352000650000175,0.004285152824828352,1.5723175799999447,0.7876243199999334,0.039999913,0.04,-9.84112065000008,0.056637949308944995,0.06400950979676474,-0.017494775749519863,-0.04710984527974847,0.01251124274965067
0.8,0.005308001999790778,-0.7873632999998833,0.0014709029999417744,-2.3519576000001754,0.004327411799827815,1.5723311999999445,0.7876406999999332,0.039999913,0.04,-9.84110100000008,0.056957531719097655,0.06480601399675462,-0.01761298399951836,-0.04733110964208086,0.012597245999649578
0.8025,0.005361668699780649,-0.7873932549998776,0.001485838364938955,-2.351912660000184,0.004371577019819484,1.572345434999942,0.78765781949993,0.03999991195,0.04,-9.84124057499943,0.05740937385523408,0.06561419389669675,-0.017733344599508056,-0.04755603857246486,0.012685076099641014
0.805,0.005415335399779967,-0.7874232099998771,0.0015007737299387652,-2.3518677200001843,0.004415742239818924,1.5723596699999416,0.7876749389999298,0.039999910900000005,0.04,-9.841380149999427,0.057861215991909416,0.06642237379668647,-0.017853705199506527,-0.04778096750286381,0.012772906199639897
0.8075,0.005469002099779283,-0.7874531649998768,0.0015157090949385749,-2.3518227800001847,0.00445990745981836,1.5723739049999415,0.7876920584999296,0.03999990985,0.04,-9.841519724999426,0.058313058128584734,0.06723055369667616,-0.01797406579950499,-0.048005896433262744,0.012860736299638777
0.81,0.005522668799778601,-0.7874831199998764,0.001530644459938385,-2.351777840000185,0.004504072679817799,1.5723881399999413,0.7877091779999293,0.039999908800000004,0.04,-9.841659299999424,0.05876490026526007,0.0680387335966659,-0.018094426399503462,-0.04823082536366169,0.012948566399637661
0.8125,0.005576335499777916,-0.787513074999876,0.0015455798249381946,-2.351732900000186,0.004548237899817236,1.572402374999941,0.7877262974999292,0.03999990775000001,0.04,-9.841798874999421,0.05921674240193539,0.06884691349665559,-0.018214786999501926,-0.04845575429406063,0.013036396499636541
0.8150000000000001,0.005630002199777234,-0.7875430299998757,0.0015605151899380047,-2.3516879600001865,0.004592403119816674,1.5724166099999408,0.787743416999929,0.039999906700000004,0.04,-9.84193844999942,0.05966858453861072,0.06965509339664532,-0.018335147599500397,-0.04868068322445957,0.013124226599635426
0.8175,0.0056844548347667325,-0.7875734449998696,0.0015756692649350824,-2.3516423750001954,0.004637215019808033,1.572431049999938,0.7877607884999256,0.039999905800000006,0.03999999975,-9.842061174999628,0.060105578599664415,0.0704797334964294,-0.01845623579948977,-0.04890701919698666,0.013212694949626333
0.8200000000000001,0.005740479339766021,-0.7876047799998691,0.001591260759934884,-2.3515955000001956,0.004683320279807447,1.572445899999938,0.7877786639999254,0.039999905200000005,0.039999999,-9.842150199999628,0.06051287650891903,0.07133729399641851,-0.018578779199488214,-0.04913616925382274,0.013302439799625192
0.8225,0.005796503844765306,-0.7876361149998687,0.0016068522549346853,-2.3515486250001962,0.004729425539806859,1.5724607499999377,0.7877965394999251,0.039999904600000004,0.03999999825,-9.842239224999627,0.06092017441817363,0.07219485449640757,-0.01870132259948665,-0.049365319310658816,0.013392184649624047
0.8250000000000001,0.005852528349764594,-0.7876674499998684,0.001622443749934487,-2.351501750000197,0.004775530799806273,1.5724755999999376,0.7878144149999249,0.039999904,0.0399999975,-9.842328249999625,0.061327472327428245,0.07305241499639667,-0.01882386599948509,-0.0495944693674949,0.013481929499622906
0.8275,0.0059085528547638795,-0.7876987849998679,0.0016380352449342883,-2.3514548750001976,0.004821636059805685,1.5724904499999375,0.7878322904999246,0.0399999034,0.03999999675,-9.842417274999624,0.06173477023668285,0.07390997549638574,-0.01894640939948353,-0.04982361942433097,0.013571674349621763
0.8300000000000001,0.005964577359763168,-0.7877301199998675,0.00165362673993409,-2.3514080000001982,0.004867741319805099,1.5725052999999372,0.7878501659999244,0.0399999028,0.039999996,-9.842506299999624,0.062142068145937465,0.07476753599637484,-0.01906895279948197,-0.050052769481167055,0.013661419199620621
0.8325,0.006020601864762453,-0.7877614549998672,0.0016692182349338912,-2.3513611250001984,0.004913846579804511,1.572520149999937,0.7878680414999242,0.0399999022,0.03999999525,-9.842595324999623,0.06254936605519207,0.0756250964963639,-0.019191496199480407,-0.05028191953800312,0.013751164049619477
0.835,0.006078223769751549,-0.7877937099998609,0.0016852543999308558,-2.3513127700002086,0.004961264579795548,1.5725353999999343,0.7878864299999206,0.0399999013,0.039999995,-9.842671299999704,0.06296368092120809,0.07650962299618094,-0.019315472199469705,-0.050513331963623016,0.013841946599611712
