rsonawane2002/My_IMU/logs_2/traj_474/imu_474.csv
time,j1,j2,j3,j4,j5,j6,j7,gripper1,gripper2,imu_ax,imu_ay,imu_az,imu_gx,imu_gy,imu_gz
2465.1833333371114,0.00016700293,-0.785875,4.0107683e-05,-2.3551247,9.29385e-05,1.570997,0.786,0.04,0.04,-9.454642,-0.049996908754110336,0.1039294,-3.329841e-07,-0.0011641272576525807,8.599399e-07
2465.2000000037783,0.0001670134,-0.78576016,4.011674e-05,-2.3552213,9.2980576e-05,1.5709941,0.786,0.04,0.04,-9.834539,0.0006474750698544085,0.009072437,-6.518706e-07,-0.0022395497653633356,1.2854023e-06
2465.216666670445,0.00016707683,-0.7856543,4.0140232e-05,-2.35531,9.306507e-05,1.5709913,0.786,0.04,0.04,-9.832641,0.0007321212324313819,0.007534838,-3.4583843e-06,-0.0032337720040231943,3.7371046e-06
2465.233333337112,0.0001672822,-0.78555703,4.020301e-05,-2.355391,9.3267045e-05,1.5709884,0.786,0.04,0.04,-9.830756,0.0008886533323675394,0.006252189,-1.0950155e-05,-0.004160120151937008,9.446921e-06
2465.250000003779,0.00016775817,-0.7854676,4.0340947e-05,-2.3554647,9.370599e-05,1.5709856,0.786,0.04,0.039999995,-9.829615,0.001131987664848566,0.0048862523,-2.4766583e-05,-0.005025021266192198,2.0600257e-05
2465.266666670446,0.00016866937,-0.7853856,4.059992e-05,-2.3555315,9.450637e-05,1.5709827,0.786,0.04,0.039999995,-9.828355,0.0014237191062420607,0.003713436,-4.6814846e-05,-0.005837596021592617,3.6904356e-05
2465.2833333371127,0.00017021243,-0.78531057,4.10348e-05,-2.3555918,9.5819705e-05,1.5709826,0.786,0.04,0.04,-9.827322,0.0017736172303557396,0.00262686,-7.820584e-05,-0.006607308983802795,5.9565795e-05
2465.3000000037796,0.00017261245,-0.7852421,4.1708234e-05,-2.355649,9.784503e-05,1.5709829,0.786,0.04,0.04,-9.8261385,0.0021610537078231573,0.0016555144,-0.00012036309,-0.0073285456746816635,9.1157744e-05
2465.3166666704465,0.00017612026,-0.7851796,4.268996e-05,-2.3556995,0.000100788595,1.5709835,0.7860019,0.04,0.04,-9.8260565,0.002644960768520832,0.000680889,-0.00017396326,-0.008034230209887028,0.00013180697
2465.3333333371133,0.00018100954,-0.78512335,4.405614e-05,-2.3557434,0.00010487103,1.5709841,0.7860038,0.04,0.04,-9.825415,0.0031474668066948652,-0.00017354917,-0.00024852017,-0.008715257048606873,0.00018168545
2465.35000000378,0.00018757395,-0.7850727,4.588851e-05,-2.355783,0.00011034554,1.570985,0.78600574,0.04,0.04,-9.8248415,0.0037063686177134514,-0.0008805741,-0.00033637384,-0.009375675581395626,0.00024347102
2465.366666670447,0.00019612518,-0.78502744,4.8273818e-05,-2.3558178,0.00011745404,1.5709859,0.7860083,0.04,0.04,-9.82452,0.004234689753502607,-0.0014912058,-0.00043765025,-0.010032841935753822,0.0003150209
2465.383333337114,0.00020699014,-0.7849875,5.1302948e-05,-2.3558455,0.00012648322,1.5709869,0.7860121,0.039999995,0.039999995,-9.8246565,0.004926890134811401,-0.0021303445,-0.0005556268,-0.010689876973628998,0.00039998023
2465.400000003781,0.00022050983,-0.7849529,5.5070817e-05,-2.3558688,0.00013769152,1.570989,0.7860159,0.03999999,0.04,-9.824318,0.00558210164308548,-0.0026326482,-0.0006934278,-0.011339002288877964,0.000494784
2465.4166666704477,0.00023703651,-0.78492326,5.9675356e-05,-2.355888,0.00015138094,1.5709934,0.78602165,0.039999988,0.039999995,-9.824474,0.006298412568867207,-0.0030663284,-0.0008452839,-0.01199379563331604,0.0006039759
2465.4333333371146,0.0002569327,-0.78489876,6.52174e-05,-2.3559003,0.0001678486,1.5709981,0.7860275,0.039999984,0.03999999,-9.824475,0.006953467149287462,-0.0033803084,-0.0010201158,-0.012653986923396587,0.0007262641
2465.4500000037815,0.00028056942,-0.78487927,7.180016e-05,-2.3559074,0.0001873989,1.5710028,0.7860351,0.03999998,0.03999999,-9.824682,0.007813849486410618,-0.0036556358,-0.0012094608,-0.013319994322955608,0.0008610817
2465.4666666704484,0.00030832444,-0.78486454,7.952875e-05,-2.355909,0.00021034334,1.5710105,0.78604466,0.039999973,0.039999984,-9.824934,0.008632119745016098,-0.003778835,-0.0014206636,-0.014002678915858269,0.0010104282
2465.4833333371153,0.00034058158,-0.78485495,8.8509914e-05,-2.3559053,0.00023699671,1.5710189,0.7860549,0.039999966,0.039999977,-9.825035,0.009363843128085136,-0.0038282895,-0.0016544028,-0.014695076271891594,0.001173671
2465.500000003782,0.00037772913,-0.7848503,9.885174e-05,-2.3558943,0.00026767753,1.5710275,0.7860665,0.039999958,0.039999973,-9.825593,0.010361308231949806,-0.003803091,-0.0019044213,-0.015405961312353611,0.0013501035
2465.516666670449,0.00042015867,-0.78485054,0.00011066319,-2.3558776,0.00030270845,1.5710393,0.7860798,0.03999995,0.039999966,-9.8258915,0.01128956489264965,-0.003622097,-0.0021737013,-0.0161370150744915,0.001541603
2465.533333337116,0.00046826448,-0.784856,0.0001240539,-2.3558552,0.00034241285,1.5710517,0.7860951,0.03999995,0.039999966,-9.826302,0.012249995023012161,-0.0034043381,-0.0024632434,-0.01688229851424694,0.0017474245
2465.5500000037828,0.0005224421,-0.7848667,0.000139134,-2.355826,0.00038711497,1.5710642,0.7861123,0.039999943,0.03999996,-9.8266115,0.013083335012197495,-0.0029241543,-0.0027737091,-0.017656348645687103,0.0019667821
2465.5666666704496,0.0005830881,-0.7848825,0.00015601373,-2.35579,0.0004371414,1.5710803,0.78613174,0.039999943,0.03999996,-9.8273325,0.014272338710725307,-0.0024376693,-0.0031046092,-0.01845962554216385,0.002200599
2465.5833333371165,0.0006505982,-0.78490365,0.00017480332,-2.3557472,0.0004928178,1.5710967,0.78615344,0.039999947,0.03999997,-9.827801,0.01535448431968689,-0.0018707418,-0.003456236,-0.01927874982357025,0.0024497588
2465.6000000037834,0.00072536856,-0.78493017,0.00019561284,-2.355697,0.0005544681,1.5711167,0.78617746,0.039999947,0.039999973,-9.828422,0.016465624794363976,-0.0010641152,-0.003828821,-0.02013329602777958,0.0027125468
2465.6166666704503,0.0008077927,-0.78496224,0.0002185519,-2.355639,0.00062241673,1.571138,0.7862038,0.039999943,0.03999997,-9.828642,0.017432572320103645,-0.00017332728,-0.004221443,-0.02100527286529541,0.002990674
2465.633333337117,0.00089826295,-0.785,0.0002437298,-2.3555737,0.0006969856,1.5711619,0.78623295,0.039999947,0.039999973,-9.829443,0.01883069984614849,0.000826641,-0.0046337247,-0.0219058096408844,0.0032832522
2465.650000003784,0.0009971685,-0.78504366,0.00027125483,-2.3555007,0.000778494,1.5711883,0.78626454,0.039999954,0.039999984,-9.8301,0.020080337300896645,0.002002781,-0.0050671636,-0.02283545583486557,0.003589371
2465.666666670451,0.0011048958,-0.7850932,0.0003012345,-2.355419,0.0008672597,1.571216,0.78629905,0.039999958,0.03999999,-9.830695,0.021370014175772667,0.0033474595,-0.005519345,-0.023792071267962456,0.003909851
2465.683333337118,0.0012218278,-0.78514904,0.00033377548,-2.3553288,0.00096359744,1.5712475,0.78633636,0.039999958,0.039999995,-9.830977,0.022480111569166183,0.0049117776,-0.005991737,-0.02478058449923992,0.0042446023
2465.7000000037847,0.0013483437,-0.785211,0.0003689831,-2.3552296,0.0010678244,1.571281,0.7863769,0.03999996,0.04,-9.831851,0.024116747081279755,0.006496369,-0.006483242,-0.025791415944695473,0.004594386
2465.7166666704516,0.0014848185,-0.7852793,0.0004069619,-2.3551216,0.0011802502,1.5713164,0.7864205,0.039999958,0.039999995,-9.832426,0.02556687220931053,0.008338859,-0.0069947075,-0.026832038536667824,0.0049582417
2465.7333333371184,0.0016316222,-0.78535426,0.0004478149,-2.3550043,0.0013011565,1.5713555,0.7864675,0.039999954,0.04,-9.832777,0.02679276652634144,0.010408493,-0.0075250156,-0.027906984090805054,0.005334461
2465.7500000037853,0.0017891199,-0.7854357,0.0004916435,-2.354878,0.0014308721,1.5713973,0.78651774,0.039999947,0.03999999,-9.833662,0.028627663850784302,0.012513876,-0.008074709,-0.02900467813014984,0.0057263924
2465.766666670452,0.001957672,-0.7855241,0.00053854834,-2.3547409,0.001569668,1.5714421,0.7865715,0.039999943,0.039999995,-9.834405,0.030229441821575165,0.01487028,-0.008642331,-0.030136605724692345,0.006130174
2465.783333337119,0.0021376328,-0.78561956,0.00058862823,-2.3545938,0.001717844,1.5714893,0.7866289,0.039999943,0.039999995,-9.834858,0.031915441155433655,0.017432451,-0.0092283655,-0.0312919057905674,0.0065495376
2465.800000003786,0.0023293516,-0.78572196,0.0006419801,-2.354437,0.0018757008,1.57154,0.78669006,0.03999994,0.039999995,-9.835113,0.03334372118115425,0.020276532,-0.009833073,-0.032478511333465576,0.006981567
2465.816666670453,0.0025331716,-0.7858316,0.00069869956,-2.3542695,0.002043508,1.571594,0.78675514,0.039999943,0.04,-9.836213,0.035447463393211365,0.023126021,-0.010455494,-0.033696893602609634,0.007427034
2465.8333333371197,0.0027494312,-0.78594875,0.0007588805,-2.3540914,0.0022215545,1.5716513,0.78682417,0.03999994,0.04,-9.836736,0.03731697052717209,0.026273023,-0.01109607,-0.03494079411029816,0.007886852
2465.8500000037866,0.0029784597,-0.7860734,0.0008226154,-2.3539016,0.0024101005,1.5717121,0.78689724,0.03999994,0.04,-9.837366,0.03924120217561722,0.029643055,-0.011753868,-0.036213431507349014,0.008358686
2465.8666666704535,0.0032205835,-0.78620595,0.0008899947,-2.353701,0.0026094064,1.5717764,0.78697455,0.039999936,0.04,-9.837491,0.040905676782131195,0.033280503,-0.012428803,-0.03751194849610329,0.00884296
2465.8833333371203,0.0034761208,-0.78634644,0.00096110674,-2.3534887,0.0028197516,1.5718443,0.787056,0.03999993,0.04,-9.83851,0.043325334787368774,0.037023753,-0.013121014,-0.03883877769112587,0.009342102
2465.900000003787,0.0037453817,-0.7864949,0.0010360385,-2.3532653,0.0030413745,1.571916,0.787142,0.039999925,0.04,-9.839024,0.04545881599187851,0.041046,-0.013829259,-0.040190406143665314,0.009852011
2465.916666670454,0.004028673,-0.78665155,0.0011148751,-2.3530285,0.003274534,1.5719913,0.7872324,0.039999917,0.04,-9.839675,0.0476875863969326,0.045299854,-0.014554534,-0.04157181829214096,0.010375726
2465.933333337121,0.004326293,-0.78681654,0.0011976996,-2.3527792,0.003519486,1.5720705,0.7873274,0.039999913,0.039999995,-9.83961,0.04962047562003136,0.049849894,-0.015295569,-0.04297329857945442,0.010913089
2465.950000003788,0.0046385317,-0.78699005,0.0012845936,-2.3525188,0.0037764446,1.5721534,0.787427,0.03999991,0.04,-9.840534,0.05234141647815704,0.054513603,-0.016052749,-0.04439878836274147,0.011459993
2465.9666666704547,0.004965675,-0.7871723,0.0013756353,-2.3522446,0.0040456853,1.5722404,0.7875315,0.039999913,0.04,-9.841232,0.05482698231935501,0.059495986,-0.016824929,-0.045856013894081116,0.012023891
2465.9833333371216,0.005308002,-0.7873633,0.001470903,-2.3519576,0.0043274118,1.5723312,0.7876407,0.039999913,0.04,-9.841101,0.05695753172039986,0.064806014,-0.017612984,-0.04733110964298248,0.012597246
2466.0000000037885,0.00566578,-0.787563,0.0015704721,-2.351658,0.0046218466,1.5724261,0.78775483,0.039999906,0.04,-9.8420315,0.059969812631607056,0.07019388,-0.018415388,-0.04883063584566116,0.01318278
2466.0166666704554,0.0060392767,-0.7877719,0.0016744154,-2.3513455,0.004929215,1.5725251,0.787874,0.039999902,0.039999995,-9.842625,0.06268513202667236,0.07591095,-0.019232344,-0.050358302891254425,0.013781079
2466.0333333371223,0.0064287474,-0.78799,0.0017828054,-2.3510182,0.0052497108,1.5726281,0.7879983,0.039999895,0.039999995,-9.843088,0.0654706209897995,0.08189768,-0.020063626,-0.051908593624830246,0.014389755
2466.050000003789,0.0068344423,-0.78821725,0.001895712,-2.350677,0.005583536,1.5727357,0.7881277,0.039999895,0.04,-9.842866,0.06793335825204849,0.088243686,-0.020909375,-0.05347667261958122,0.015010341
2466.066666670456,0.0072566047,-0.78845406,0.0020132016,-2.350322,0.0059309113,1.5728477,0.78826237,0.03999989,0.04,-9.843726,0.07134193181991577,0.094664074,-0.021768333,-0.05506446585059166,0.015644237
2466.083333337123,0.0076954677,-0.7887005,0.0021353404,-2.349953,0.006292047,1.5729641,0.78840226,0.039999895,0.039999995,-9.844115,0.0744134932756424,0.10145332,-0.022640599,-0.05667194724082947,0.01629115
2466.10000000379,0.008151259,-0.78895646,0.002262191,-2.3495696,0.0066671134,1.5730848,0.7885475,0.0399999,0.04,-9.844495,0.07756540924310684,0.10854909,-0.023525815,-0.058300577104091644,0.016948042
2466.1166666704567,0.008624204,-0.78922206,0.0023938168,-2.3491719,0.007056291,1.5732102,0.7886984,0.039999895,0.039999995,-9.844316,0.0803777426481247,0.11595629,-0.02442357,-0.05994889885187149,0.017616335
2466.1333333371235,0.009114515,-0.7894977,0.0025302765,-2.3487597,0.0074597383,1.5733405,0.7888547,0.03999989,0.04,-9.845167,0.08416950702667236,0.12348792,-0.025334485,-0.06161653250455856,0.018294394
2466.1500000037904,0.009622397,-0.78978324,0.0026716278,-2.3483324,0.007877616,1.5734754,0.78901666,0.03999988,0.04,-9.845436,0.08761896193027496,0.13139504,-0.026257597,-0.06330017000436783,0.018982999
2466.1666666704573,0.010148053,-0.790079,0.0028179267,-2.3478906,0.008310097,1.5736147,0.78918433,0.039999872,0.04,-9.845708,0.09118150919675827,0.13959806,-0.027192501,-0.06500188261270523,0.019683694
2466.183333337124,0.010691673,-0.790385,0.0029692277,-2.3474333,0.008757343,1.5737587,0.7893576,0.039999872,0.04,-9.845444,0.09436425566673279,0.14818959,-0.028139602,-0.0667223334312439,0.020395538
2466.200000003791,0.0112534445,-0.79070115,0.0031255817,-2.3469605,0.009219563,1.5739079,0.78953665,0.039999872,0.03999999,-9.846149,0.09861999750137329,0.1568754,-0.029097125,-0.06845687329769135,0.021122959
2466.216666670458,0.01183355,-0.7910279,0.003287038,-2.3464713,0.009696843,1.5740619,0.78972167,0.03999986,0.039999988,-9.846309,0.1024579405784607,0.1659355,-0.030065993,-0.07020571827888489,0.021856632
2466.233333337125,0.012432158,-0.791365,0.0034536459,-2.345967,0.010189335,1.5742208,0.7899125,0.03999986,0.03999999,-9.845734,0.1059492751955986,0.17543438,-0.031046042,-0.0719621330499649,0.022601921
2466.2500000037917,0.013049433,-0.79171276,0.0036254504,-2.3454468,0.0106971795,1.5743845,0.7901093,0.039999854,0.039999988,-9.846501,0.1105114221572876,0.18501537,-0.03203664,-0.07373558729887009,0.023358129
2466.2666666704586,0.013685531,-0.7920714,0.0038024955,-2.344911,0.0112205045,1.5745533,0.7903121,0.039999854,0.03999999,-9.84655,0.11469539999961853,0.19501607,-0.033037074,-0.07552199065685272,0.024124986
2466.2833333371254,0.014340608,-0.7924404,0.0039848234,-2.3443599,0.011759444,1.574727,0.7905209,0.03999985,0.039999988,-9.84661,0.11899694055318832,0.20532435,-0.0340478,-0.07731925696134567,0.024903277
2466.3000000037923,0.015014807,-0.7928204,0.004172476,-2.3437922,0.012314115,1.574906,0.7907358,0.039999846,0.039999984,-9.84617,0.12290109694004059,0.21600796,-0.035067886,-0.07913348078727722,0.025692122
2466.316666670459,0.015708266,-0.7932115,0.0043654907,-2.343208,0.012884602,1.5750897,0.79095685,0.039999843,0.03999999,-9.846638,0.12790997326374054,0.22682321,-0.036097117,-0.08095473796129227,0.026489213
2466.333333337126,0.016421113,-0.79361343,0.004563902,-2.3426073,0.013471049,1.5752786,0.7911841,0.03999984,0.039999984,-9.846572,0.13256937265396118,0.23807977,-0.037135996,-0.08278681337833405,0.02729994
2466.350000003793,0.01715347,-0.79402655,0.0047677467,-2.34199,0.014073541,1.575473,0.7914176,0.03999984,0.039999988,-9.846407,0.1373080164194107,0.2496046,-0.038183745,-0.0846254751086235,0.02811951
2466.36666667046,0.017905455,-0.7944507,0.0049770563,-2.3413572,0.014692185,1.5756725,0.79165727,0.03999984,0.039999988,-9.845685,0.1416565179824829,0.26159674,-0.03924,-0.08647186309099197,0.028950162
2466.3833333371267,0.018677188,-0.794886,0.005191863,-2.3407075,0.015327082,1.5758772,0.79190326,0.03999984,0.039999984,-9.846199,0.1471664309501648,0.27365863,-0.040304232,-0.08832966536283493,0.029791957
2466.4000000037936,0.01946876,-0.79533243,0.005412193,-2.3400402,0.015978303,1.5760874,0.79215556,0.03999984,0.039999984,-9.845989,0.15226460993289948,0.2861572,-0.04137676,-0.09019555896520615,0.030643119
2466.4166666704605,0.020280274,-0.79579026,0.005638076,-2.3393564,0.016645936,1.5763023,0.79241425,0.03999984,0.03999998,-9.845556,0.1574852466583252,0.29895827,-0.042457104,-0.0920608788728714,0.03150529
2466.4333333371274,0.021111822,-0.7962594,0.0058695367,-2.338656,0.01733005,1.5765228,0.79267937,0.03999984,0.039999977,-9.844741,0.1622951626777649,0.312245,-0.04354472,-0.09393700957298279,0.032377496
2466.4500000037942,0.02196349,-0.7967399,0.0061065983,-2.337938,0.018030697,1.5767487,0.7929508,0.039999835,0.03999998,-9.844951,0.16828188300132751,0.3255966,-0.04464005,-0.09581613540649414,0.03325734
2466.466666670461,0.022835346,-0.79723173,0.006349282,-2.3372033,0.018747954,1.5769801,0.7932287,0.039999835,0.03999998,-9.844534,0.17387497425079346,0.3393833,-0.045741733,-0.09769877791404724,0.034148876
2466.483333337128,0.023727467,-0.79773515,0.0065976107,-2.3364513,0.019481873,1.5772169,0.79351306,0.03999983,0.03999998,-9.843462,0.17903399467468262,0.35361856,-0.046850402,-0.09958429634571075,0.035049587
2466.500000003795,0.024639921,-0.79825,0.006851598,-2.3356826,0.020232515,1.577459,0.7938039,0.03999983,0.03999998,-9.843518,0.18541547656059265,0.36796048,-0.04796525,-0.10147063434123993,0.035961103
2466.5166666704617,0.025572762,-0.7987765,0.007111262,-2.334896,0.02099993,1.5777063,0.7941012,0.039999824,0.039999977,-9.843037,0.19136545062065125,0.38273162,-0.049086235,-0.10336259752511978,0.036881488
2466.5333333371286,0.026526043,-0.7993145,0.007376618,-2.3340929,0.021784151,1.5779593,0.79440504,0.03999981,0.039999966,-9.842305,0.19743990898132324,0.3978456,-0.050213195,-0.10525178909301758,0.037811786
2466.5500000037955,0.027499814,-0.79986393,0.007647679,-2.3332722,0.022585193,1.5782177,0.7947156,0.03999981,0.039999973,-9.841115,0.2030966877937317,0.4134063,-0.051345896,-0.1071450263261795,0.038751103
2466.5666666704624,0.028494116,-0.8004249,0.007924457,-2.3324337,0.023403144,1.5784814,0.79503256,0.03999981,0.03999997,-9.840978,0.210000678896904,0.4290277,-0.05248468,-0.10903726518154144,0.03970271
2466.5833333371293,0.02950898,-0.8009977,0.008206963,-2.3315787,0.02423799,1.5787508,0.7953561,0.039999813,0.039999977,-9.840121,0.21645057201385498,0.44511485,-0.053627964,-0.11092768609523773,0.04066217
2466.600000003796,0.030544426,-0.8015819,0.008495201,-2.3307066,0.025089776,1.5790253,0.7956862,0.039999805,0.039999973,-9.8393545,0.22303856909275055,0.46155146,-0.054776035,-0.11281830817461014,0.041631225
2466.616666670463,0.031600494,-0.80217785,0.008789179,-2.3298163,0.02595851,1.5793054,0.7960228,0.039999813,0.03999998,-9.837849,0.2292090654373169,0.4784241,-0.055928666,-0.11470991373062134,0.042610627
2466.63333333713,0.03267719,-0.8027854,0.009088899,-2.328909,0.026844218,1.5795908,0.7963661,0.039999794,0.039999966,-9.837415,0.23660558462142944,0.49536604,-0.057085425,-0.11659558862447739,0.043598644
2466.650000003797,0.033774517,-0.80340457,0.009394363,-2.3279843,0.027746888,1.5798818,0.7967158,0.039999794,0.03999997,-9.836353,0.2435896396636963,0.5127707,-0.05824671,-0.11847830563783646,0.044596124
2466.6666666704637,0.03489248,-0.8040354,0.009705576,-2.3270419,0.028666537,1.5801781,0.7970721,0.03999979,0.039999966,-9.835292,0.25070619583129883,0.53051215,-0.05941105,-0.12035870552062988,0.04560376
2466.6833333371305,0.03603109,-0.8046781,0.010022537,-2.3260827,0.029603152,1.5804802,0.79743505,0.03999979,0.03999997,-9.833424,0.25736966729164124,0.54870135,-0.060578838,-0.12223263829946518,0.046619814
2466.7000000037974,0.037190333,-0.80533236,0.010345242,-2.325106,0.030556746,1.5807875,0.7978044,0.039999794,0.039999973,-9.832829,0.2653176784515381,0.56697226,-0.06175029,-0.12410249561071396,0.04764595
2466.7166666704643,0.03837019,-0.8059985,0.01067369,-2.3241115,0.031527314,1.5811006,0.7981805,0.03999978,0.039999954,-9.831478,0.27281007170677185,0.58569205,-0.06292379,-0.12596651911735535,0.048681073
2466.733333337131,0.03957065,-0.80667627,0.0110078715,-2.3231,0.03251481,1.5814189,0.79856324,0.039999783,0.039999958,-9.829389,0.2798827290534973,0.6048841,-0.06410078,-0.12782099843025208,0.049726266
2466.750000003798,0.04079168,-0.80736554,0.0113477865,-2.3220708,0.033519227,1.5817429,0.7989526,0.03999978,0.039999954,-9.828536,0.2882174253463745,0.62412935,-0.065280594,-0.12967044115066528,0.05077947
2466.766666670465,0.042033248,-0.8080664,0.011693423,-2.3210242,0.03454054,1.5820723,0.7993483,0.039999746,0.039999917,-9.82691,0.2961239814758301,0.6438125,-0.06646275,-0.13150949776172638,0.051843315
2466.783333337132,0.043295328,-0.808779,0.01204477,-2.3199606,0.0355787,1.5824071,0.7997506,0.039999742,0.03999991,-9.825232,0.3041456341743469,0.6638375,-0.06764589,-0.13333988189697266,0.052914374
2466.8000000037987,0.04457789,-0.8095031,0.012401817,-2.3188796,0.03663371,1.5827473,0.80015945,0.03999974,0.039999906,-9.822916,0.3117377460002899,0.6843325,-0.06883108,-0.13516275584697723,0.053993236
2466.8166666704656,0.045880873,-0.81023866,0.012764554,-2.3177814,0.037705503,1.5830932,0.8005748,0.03999974,0.03999991,-9.821664,0.3205990195274353,0.7048587,-0.070017345,-0.13697585463523865,0.055081647
2466.8333333371324,0.04720423,-0.8109857,0.0131329615,-2.3166661,0.038794085,1.5834442,0.80099666,0.039999727,0.0399999,-9.819739,0.3290332853794098,0.7258344,-0.071204655,-0.1387779712677002,0.056178376
2466.8500000037993,0.048547897,-0.81174415,0.013507028,-2.3155344,0.039899345,1.5838008,0.801425,0.03999974,0.03999991,-9.817742,0.3375955820083618,0.7471412,-0.07239319,-0.14057111740112305,0.05728278
2466.866666670466,0.049911823,-0.8125141,0.013886734,-2.3143847,0.041021284,1.5841628,0.8018598,0.03999973,0.039999906,-9.815108,0.3457292914390564,0.7689095,-0.073582284,-0.1423557698726654,0.058396343
2466.883333337133,0.05129591,-0.8132955,0.014272066,-2.313218,0.042159848,1.5845295,0.802301,0.039999727,0.039999902,-9.813359,0.355121374130249,0.79069364,-0.074771285,-0.1441226750612259,0.05951796
2466.9000000038,0.052700132,-0.8140883,0.014662996,-2.3120346,0.043314926,1.5849023,0.80274856,0.039999735,0.03999991,-9.811072,0.364082008600235,0.8129634,-0.07596041,-0.14588136970996857,0.060646914
2466.916666670467,0.05412438,-0.8148924,0.015059507,-2.3108342,0.044486504,1.58528,0.8032025,0.03999973,0.039999906,-9.808674,0.37317848205566406,0.8355158,-0.07714878,-0.14762455224990845,0.061784677
2466.9333333371337,0.055568587,-0.81570786,0.015461576,-2.309617,0.045674495,1.5856631,0.80366284,0.03999973,0.039999906,-9.805531,0.38183507323265076,0.8585516,-0.07833677,-0.14935491979122162,0.062930174
2466.9500000038006,0.05703265,-0.8165345,0.015869174,-2.308383,0.046878833,1.5860515,0.8041295,0.03999973,0.03999991,-9.803512,0.3917602598667145,0.8815887,-0.07952367,-0.15107117593288422,0.06408346
2466.9666666704675,0.058516502,-0.8173723,0.01628228,-2.3071327,0.048099436,1.5864451,0.80460244,0.039999727,0.039999906,-9.800777,0.40126287937164307,0.9050743,-0.080709755,-0.15277260541915894,0.065244354
2466.9833333371344,0.060020026,-0.81822133,0.016700871,-2.3058658,0.049336225,1.5868441,0.8050817,0.039999727,0.039999906,-9.797396,0.41031506657600403,0.92901516,-0.08189427,-0.15446078777313232,0.066411816
2467.0000000038012,0.061543122,-0.81908137,0.017124914,-2.3045824,0.050589114,1.587248,0.805567,0.039999723,0.039999902,-9.794988,0.42063379287719727,0.95295763,-0.08307736,-0.15613195300102234,0.06758741
2467.016666670468,0.0630857,-0.81995237,0.01755438,-2.3032818,0.051858008,1.5876573,0.8060586,0.039999727,0.039999906,-9.791917,0.4305202066898346,0.97735226,-0.08425735,-0.15778812766075134,0.06877023
2467.033333337135,0.064647615,-0.8208344,0.017989237,-2.301965,0.053142853,1.5880716,0.80655646,0.039999723,0.039999906,-9.788641,0.44054046273231506,1.0020349,-0.08543542,-0.15942366421222687,0.06995989
2467.050000003802,0.06622883,-0.8217272,0.018429449,-2.3006325,0.054443534,1.588491,0.80706036,0.03999972,0.0399999,-9.784774,0.4501208961009979,1.0271794,-0.086611606,-0.16104350984096527,0.07115633
2467.0666666704687,0.06782913,-0.8226309,0.01887499,-2.2992835,0.055759933,1.5889157,0.8075704,0.039999712,0.039999895,-9.781978,0.46096426248550415,1.0522989,-0.08778431,-0.16264864802360535,0.07235948
2467.0833333371356,0.069448434,-0.8235452,0.019325824,-2.2979186,0.057091955,1.5893451,0.8080866,0.039999712,0.039999895,-9.778322,0.47137153148651123,1.0778594,-0.08895408,-0.16423146426677704,0.0735692
2467.1000000038025,0.07108661,-0.8244703,0.01978192,-2.2965376,0.05843949,1.5897796,0.8086088,0.039999716,0.0399999,-9.774706,0.4819089472293854,1.1037139,-0.09012093,-0.1657996028661728,0.07478526
2467.1166666704694,0.072743505,-0.82540596,0.02024323,-2.295141,0.059802447,1.5902194,0.80913687,0.039999712,0.039999895,-9.770295,0.4920167326927185,1.1300018,-0.09128404,-0.16734710335731506,0.07600757
2467.1333333371363,0.074419014,-0.8263521,0.02070972,-2.2937288,0.061180707,1.5906638,0.809671,0.039999712,0.03999989,-9.76688,0.5033626556396484,1.1562549,-0.09244282,-0.16887377202510834,0.07723559
2467.150000003803,0.07611297,-0.8273088,0.021181352,-2.2923012,0.062574156,1.5911131,0.81021094,0.03999971,0.03999989,-9.762847,0.5142843723297119,1.1829504,-0.09359786,-0.1703835427761078,0.078469574
2467.16666667047,0.07782525,-0.8282757,0.021658085,-2.2908583,0.06398266,1.5915672,0.8107567,0.03999971,0.03999989,-9.758605,0.525330126285553,1.2099085,-0.09474814,-0.17187254130840302,0.079709046
2467.183333337137,0.079555705,-0.8292529,0.022139877,-2.2894,0.06540611,1.592026,0.81130815,0.039999716,0.039999895,-9.753759,0.535959780216217,1.2372954,-0.09589365,-0.1733427345752716,0.08095386
2467.200000003804,0.08130415,-0.83024037,0.022626689,-2.2879267,0.06684437,1.5924897,0.8118654,0.039999716,0.039999895,-9.749802,0.5477874279022217,1.2646296,-0.09703317,-0.17479288578033447,0.0822036
2467.2166666704707,0.08307045,-0.8312377,0.02311847,-2.2864382,0.06829732,1.5929585,0.8124283,0.039999716,0.039999895,-9.745138,0.5592063665390015,1.2923946,-0.09816776,-0.17622047662734985,0.0834586
2467.2333333371375,0.08485442,-0.8322451,0.023615174,-2.2849348,0.069764815,1.5934316,0.812997,0.039999716,0.039999895,-9.739843,0.570218026638031,1.3205371,-0.099296585,-0.17762601375579834,0.08471877
2467.2500000038044,0.086655945,-0.8332624,0.024116756,-2.2834163,0.07124674,1.5939094,0.8135711,0.03999971,0.039999887,-9.7354,0.5824083089828491,1.348675,-0.10042017,-0.17900975048542023,0.08598261
2467.2666666704713,0.08847481,-0.83428967,0.024623176,-2.2818832,0.07274291,1.594392,0.81415075,0.03999971,0.039999887,-9.730269,0.5941802859306335,1.3771837,-0.10153615,-0.1803692728281021,0.08725072
2467.283333337138,0.09031083,-0.8353267,0.025134375,-2.2803354,0.07425322,1.5948789,0.81473595,0.03999972,0.039999895,-9.725033,0.6060864329338074,1.4059796,-0.102645725,-0.18170565366744995,0.08852298
2467.300000003805,0.09216387,-0.83637327,0.02565031,-2.278773,0.07577758,1.5953707,0.8153266,0.039999712,0.039999887,-9.719096,0.6175844669342041,1.4351655,-0.1037491,-0.18301738798618317,0.089798674
2467.316666670472,0.094033726,-0.83742946,0.026170926,-2.277197,0.07731575,1.5958663,0.81592256,0.039999712,0.039999887,-9.714013,0.6302391290664673,1.4642673,-0.10484482,-0.18430420756340027,0.09107779
2467.333333337139,0.09592018,-0.838495,0.026696183,-2.2756064,0.07886757,1.596367,0.8165238,0.03999972,0.039999895,-9.7083645,0.6424938440322876,1.4937893,-0.105933234,-0.18557067215442657,0.092360966
2467.3500000038057,0.09782311,-0.8395697,0.027226022,-2.2740028,0.08043294,1.5968719,0.8171303,0.039999716,0.03999989,-9.702437,0.6548604369163513,1.5235133,-0.10701383,-0.18680930137634277,0.09364626
2467.3666666704726,0.099742286,-0.8406536,0.02776038,-2.2723851,0.08201168,1.597381,0.8177421,0.039999716,0.039999887,-9.696022,0.6668416261672974,1.5536314,-0.108086586,-0.18802791833877563,0.09493426
2467.3833333371394,0.10167752,-0.84174675,0.02829922,-2.2707543,0.08360363,1.5978943,0.81835896,0.03999972,0.03999989,-9.690252,0.6799293756484985,1.5836533,-0.109151356,-0.18921972811222076,0.09622453
2467.4000000038063,0.10362862,-0.84284884,0.028842475,-2.2691095,0.085208625,1.5984118,0.8189809,0.03999972,0.03999989,-9.683962,0.6926512718200684,1.6140885,-0.11020743,-0.19038967788219452,0.097517826
2467.416666670473,0.10559537,-0.84395975,0.029390095,-2.2674513,0.08682648,1.5989335,0.81960773,0.039999723,0.03999989,-9.677299,0.7054510116577148,1.644704,-0.11125396,-0.1915293186903,0.09881196
2467.43333333714,0.10757756,-0.8450795,0.029942013,-2.2657807,0.088457085,1.5994592,0.82023954,0.039999716,0.03999988,-9.670155,0.7178947329521179,1.6757064,-0.112291604,-0.19264405965805054,0.1001093
2467.450000003807,0.109575026,-0.84620774,0.03049817,-2.2640975,0.09010021,1.5999888,0.8208763,0.03999973,0.039999895,-9.663795,0.7313993573188782,1.7065948,-0.113319814,-0.19373522698879242,0.10140533
2467.466666670474,0.111587495,-0.84734464,0.031058516,-2.2624009,0.09175571,1.6005224,0.82151777,0.039999727,0.039999887,-9.656793,0.7445459961891174,1.7378429,-0.114338845,-0.19480249285697937,0.10270462
2467.4833333371407,0.11361475,-0.84848976,0.03162299,-2.2606921,0.093423404,1.6010603,0.8221639,0.039999727,0.039999887,-9.649025,0.7572895884513855,1.7694503,-0.11534711,-0.19583918154239655,0.1040028
2467.5000000038076,0.115656644,-0.8496431,0.032191545,-2.2589715,0.095103085,1.601602,0.8228147,0.039999723,0.039999887,-9.642101,0.7711086869239807,1.8009211,-0.11634513,-0.1968504786491394,0.105299585
2467.5166666704745,0.1177129,-0.8508048,0.032764096,-2.257238,0.09679463,1.6021473,0.8234702,0.039999727,0.03999988,-9.634586,0.7845659852027893,1.8327556,-0.11733247,-0.19783705472946167,0.1066014
2467.5333333371414,0.11978329,-0.8519745,0.033340584,-2.255493,0.09849778,1.6026967,0.8241301,0.039999723,0.039999884,-9.626714,0.7980645895004272,1.8647783,-0.118309096,-0.19879256188869476,0.107896715
2467.5500000038082,0.12186762,-0.8531521,0.033920962,-2.253736,0.10021242,1.6032497,0.82479435,0.039999735,0.039999887,-9.618424,0.8112778663635254,1.8971523,-0.119274594,-0.1997227966785431,0.109196514
2467.566666670475,0.12396565,-0.8543375,0.03450516,-2.251968,0.10193832,1.6038061,0.82546324,0.039999735,0.039999884,-9.61064,0.8254408240318298,1.929353,-0.12022761,-0.20062297582626343,0.11049312
2467.583333337142,0.12607712,-0.8555305,0.03509309,-2.2501879,0.10367527,1.6043663,0.8261363,0.039999742,0.039999895,-9.60243,0.8392634391784668,1.9619209,-0.12117051,-0.20149986445903778,0.11178694
2467.600000003809,0.12820181,-0.8567309,0.035684712,-2.248397,0.10542311,1.6049299,0.8268134,0.039999746,0.03999989,-9.593827,0.8531812429428101,1.9946194,-0.12210066,-0.2023446410894394,0.1130813
2467.6166666704758,0.13033955,-0.8579385,0.036279954,-2.246595,0.10718166,1.605497,0.82749474,0.039999746,0.039999884,-9.584832,0.8667590022087097,2.0276494,-0.12301773,-0.20316395163536072,0.11437349
2467.6333333371426,0.13248996,-0.8591535,0.036878742,-2.2447827,0.10895068,1.6060674,0.82818025,0.03999975,0.039999887,-9.576298,0.8812545537948608,2.0605123,-0.12392259,-0.20395436882972717,0.115661375
2467.6500000038095,0.13465296,-0.8603757,0.037481014,-2.2429588,0.11073,1.6066412,0.8288698,0.039999757,0.03999989,-9.567311,0.8954513072967529,2.0937018,-0.12481537,-0.20471861958503723,0.11694728
2467.6666666704764,0.13682814,-0.8616047,0.038086694,-2.241125,0.11251942,1.6072183,0.82956326,0.039999764,0.039999895,-9.55793,0.9096856117248535,2.1270397,-0.12569474,-0.205450177192688,0.118229784
2467.6833333371433,0.13901535,-0.86284053,0.038695727,-2.2392817,0.11431872,1.6077985,0.83026046,0.03999977,0.03999989,-9.548169,0.9236318469047546,2.160655,-0.12656094,-0.20615342259407043,0.11950914
2467.70000000381,0.14121433,-0.86408305,0.039308034,-2.2374272,0.11612771,1.6083817,0.83096147,0.039999772,0.039999895,-9.538985,0.9384605884552002,2.1941185,-0.1274137,-0.2068328559398651,0.120783105
2467.716666670477,0.1434248,-0.8653322,0.03992355,-2.235564,0.117946155,1.6089683,0.8316662,0.039999772,0.03999989,-9.528975,0.9529310464859009,2.2278457,-0.12825172,-0.20747648179531097,0.122053206
2467.733333337144,0.14564648,-0.8665876,0.0405422,-2.2336915,0.11977387,1.6095575,0.83237445,0.039999787,0.039999895,-9.51875,0.9671438336372375,2.2618787,-0.12907678,-0.20809511840343475,0.12332005
2467.750000003811,0.14787917,-0.8678491,0.04116392,-2.2318084,0.12161062,1.6101496,0.833086,0.039999787,0.039999895,-9.5089245,0.9821640253067017,2.2957149,-0.12988749,-0.20868846774101257,0.12457959
2467.7666666704777,0.15012261,-0.86911684,0.041788638,-2.2299173,0.12345621,1.6107451,0.833801,0.03999979,0.03999989,-9.498351,0.9968610405921936,2.3297966,-0.13068171,-0.20924709737300873,0.12583475
2467.7833333371445,0.15237649,-0.8703904,0.042416275,-2.2280166,0.12531042,1.611343,0.8345192,0.039999798,0.039999902,-9.487833,1.0116366147994995,2.364022,-0.13146102,-0.2097780555486679,0.12708132
2467.8000000038114,0.15464066,-0.8716699,0.043046743,-2.226108,0.12717302,1.6119438,0.835241,0.039999805,0.039999902,-9.476654,1.026131510734558,2.398482,-0.1322252,-0.21027839183807373,0.12832408
2467.8166666704783,0.15691474,-0.872955,0.043679975,-2.2241914,0.12904383,1.612547,0.83596575,0.0399998,0.039999895,-9.466059,1.041407823562622,2.43275,-0.13297553,-0.21075217425823212,0.12955907
2467.833333337145,0.1591985,-0.87424576,0.04431592,-2.222266,0.13092253,1.6131527,0.8366934,0.03999981,0.039999906,-9.45492,1.0563724040985107,2.467291,-0.13370909,-0.21120038628578186,0.13078527
2467.850000003812,0.16149168,-0.8755416,0.044954475,-2.2203326,0.132809,1.6137611,0.8374248,0.039999813,0.039999906,-9.443389,1.0714014768600464,2.5018876,-0.1344259,-0.2116137444972992,0.13200544
2467.866666670479,0.163794,-0.8768428,0.04559558,-2.2183917,0.13470295,1.6143719,0.8381583,0.039999817,0.039999902,-9.4316,1.086167812347412,2.536714,-0.13513002,-0.21200081706047058,0.13321853
2467.883333337146,0.16610512,-0.87814903,0.046239153,-2.2164433,0.13660425,1.614985,0.83889544,0.03999982,0.03999991,-9.420067,1.1016170978546143,2.571346,-0.13581397,-0.21235758066177368,0.1344206
2467.9000000038127,0.16842484,-0.87946004,0.046885118,-2.2144873,0.1385126,1.6156005,0.83963466,0.039999824,0.039999917,-9.408077,1.1168172359466553,2.6061766,-0.13648559,-0.21268470585346222,0.13561356
2467.9166666704796,0.1707529,-0.8807758,0.047533393,-2.2125247,0.14042774,1.616218,0.8403763,0.039999828,0.039999936,-9.395896,1.1320513486862183,2.6410897,-0.13713752,-0.21298325061798096,0.13679557
2467.9333333371465,0.173089,-0.8820963,0.048183907,-2.210555,0.14234948,1.6168376,0.84112114,0.039999835,0.039999958,-9.383294,1.1470295190811157,2.676224,-0.13777114,-0.21325302124023438,0.13796699
2467.9500000038133,0.17543285,-0.88342124,0.04883659,-2.208579,0.1442776,1.6174594,0.8418681,0.03999984,0.039999958,-9.370953,1.1626787185668945,2.711124,-0.13839059,-0.21349336206912994,0.13913089
2467.96666667048,0.17778414,-0.88475037,0.049491346,-2.2065969,0.14621185,1.6180832,0.8426173,0.03999985,0.039999973,-9.358163,1.1780527830123901,2.7462003,-0.13899112,-0.21370382606983185,0.14028472
2467.983333337147,0.18014258,-0.88608366,0.050148126,-2.2046082,0.14815201,1.6187088,0.8433689,0.039999846,0.039999966,-9.345044,1.1932131052017212,2.7814817,-0.13957354,-0.21388660371303558,0.14142866
2468.000000003814,0.18250795,-0.8874209,0.05080681,-2.2026136,0.15009789,1.6193365,0.8441233,0.039999858,0.039999977,-9.332017,1.208916425704956,2.8165164,-0.14013867,-0.2140386402606964,0.14256023
2468.016666670481,0.18487994,-0.8887618,0.051467355,-2.2006137,0.15204923,1.6199658,0.8448796,0.039999865,0.03999998,-9.318654,1.2244014739990234,2.8517213,-0.14068839,-0.21415992081165314,0.14368057
2468.0333333371477,0.18725824,-0.8901061,0.05212964,-2.1986086,0.1540057,1.6205968,0.845638,0.039999865,0.03999998,-9.305162,1.239928126335144,2.886972,-0.14121987,-0.2142551690340042,0.14478765
2468.0500000038146,0.1896426,-0.89145404,0.052793626,-2.1965983,0.15596716,1.6212293,0.84639823,0.03999986,0.039999973,-9.291273,1.2552406787872314,2.9223528,-0.14173284,-0.21432287991046906,0.14588307
2468.0666666704815,0.19203271,-0.8928053,0.053459212,-2.1945832,0.15793338,1.6218636,0.84716034,0.039999872,0.039999984,-9.277495,1.2710356712341309,2.9575245,-0.1422274,-0.21436098217964172,0.14696456
2468.0833333371484,0.1944283,-0.89415956,0.05412632,-2.1925635,0.15990408,1.622499,0.84792364,0.039999872,0.03999998,-9.263396,1.2866472005844116,2.992832,-0.14270331,-0.2143707573413849,0.14803296
2468.1000000038152,0.19682905,-0.89551663,0.054794867,-2.1905391,0.16187903,1.6231359,0.8486886,0.039999876,0.03999998,-9.2491,1.3022645711898804,3.028152,-0.14315832,-0.21435362100601196,0.14908741
2468.116666670482,0.19923471,-0.89687693,0.055464778,-2.1885107,0.163858,1.623774,0.84945524,0.039999876,0.03999998,-9.234411,1.3176684379577637,3.0635755,-0.14359394,-0.21430601179599762,0.15012634
2468.133333337149,0.20164493,-0.89823973,0.056135967,-2.1864781,0.16584073,1.6244135,0.85022354,0.03999988,0.03999998,-9.219866,1.3335310220718384,3.0988026,-0.14401107,-0.21423017978668213,0.1511513
2468.150000003816,0.20405947,-0.899605,0.056808356,-2.184442,0.16782701,1.6250539,0.85099334,0.039999884,0.039999984,-9.204966,1.3491836786270142,3.1341164,-0.14440982,-0.21412527561187744,0.15216027
2468.1666666704828,0.20647798,-0.90097237,0.057481866,-2.182403,0.1698166,1.6256955,0.851764,0.039999887,0.039999984,-9.189916,1.3648594617843628,3.1694303,-0.14478984,-0.21399341523647308,0.15315415
2468.1833333371496,0.20890021,-0.902342,0.058156405,-2.18036,0.17180921,1.6263382,0.8525362,0.039999895,0.03999999,-9.174661,1.3803753852844238,3.204823,-0.14514919,-0.2138366997241974,0.15413097
2468.2000000038165,0.21132582,-0.9037137,0.058831904,-2.1783147,0.17380464,1.6269819,0.8533092,0.039999895,0.03999999,-9.159212,1.3962074518203735,3.2399697,-0.14548947,-0.2136465609073639,0.1550918
2468.2166666704834,0.21375456,-0.90508723,0.059508264,-2.176267,0.1758026,1.6276261,0.8540834,0.0399999,0.03999999,-9.143671,1.4119043350219727,3.2752278,-0.14580935,-0.21343103051185608,0.15603502
2468.2333333371503,0.2161861,-0.90646183,0.0601854,-2.1742165,0.17780289,1.6282711,0.8548585,0.039999906,0.04,-9.127849,1.427445650100708,3.310568,-0.14611062,-0.2131906896829605,0.156961
2468.250000003817,0.21862017,-0.9078384,0.060863238,-2.1721637,0.17980525,1.628917,0.8556345,0.039999906,0.04,-9.112016,1.4432835578918457,3.345575,-0.14639232,-0.2129245549440384,0.15786985
2468.266666670484,0.22105645,-0.90921575,0.061541688,-2.1701097,0.18180944,1.6295636,0.8564109,0.03999991,0.04,-9.095782,1.45894193649292,3.3807411,-0.14665346,-0.2126263976097107,0.1587602
2468.283333337151,0.22349468,-0.91059476,0.0622207,-2.1680536,0.18381521,1.6302106,0.85718817,0.039999913,0.04,-9.079645,1.4746321439743042,3.4157972,-0.14689447,-0.21230773627758026,0.15963122
2468.300000003818,0.2259345,-0.9119746,0.06290014,-2.1659956,0.1858223,1.630858,0.85796607,0.039999917,0.04,-9.063016,1.4901490211486816,3.4509785,-0.14711513,-0.21195794641971588,0.16048329
2468.3166666704847,0.2283756,-0.9133549,0.063579954,-2.163937,0.18783046,1.6315055,0.8587442,0.039999917,0.04,-9.04636,1.5058984756469727,3.4858427,-0.14731616,-0.21158018708229065,0.16131637
2468.3333333371515,0.23081774,-0.9147364,0.06426007,-2.1618772,0.18983945,1.6321534,0.8595225,0.039999925,0.04,-9.029685,1.5215455293655396,3.5207446,-0.14749655,-0.2111816555261612,0.16212927
2468.3500000038184,0.23326062,-0.91611826,0.06494039,-2.1598172,0.19184905,1.6328015,0.8603011,0.03999993,0.04,-9.012599,1.5371286869049072,3.5556505,-0.14765522,-0.21075206995010376,0.16292351
2468.3666666704853,0.23570389,-0.9175005,0.06562083,-2.1577568,0.193859,1.6334497,0.8610799,0.03999993,0.04,-8.995549,1.5526410341262817,3.5905166,-0.14779398,-0.21029974520206451,0.16369434
2468.383333337152,0.23814732,-0.9188826,0.06630129,-2.1556964,0.19586903,1.6340978,0.8618587,0.03999993,0.04,-8.978261,1.5682684183120728,3.6251388,-0.14791223,-0.20982111990451813,0.16444539
2468.400000003819,0.24059054,-0.9202643,0.06698171,-2.153636,0.19787888,1.634746,0.8626376,0.039999936,0.04,-8.960891,1.5838102102279663,3.6597486,-0.14801073,-0.20931999385356903,0.16517489
2468.416666670486,0.24303328,-0.92164606,0.067661986,-2.1515758,0.19988838,1.6353941,0.8634162,0.039999936,0.04,-8.943301,1.5993280410766602,3.694258,-0.14808892,-0.20879419147968292,0.16588469
2468.433333337153,0.24547523,-0.92302775,0.06834204,-2.1495166,0.20189717,1.6360419,0.8641946,0.039999943,0.04,-8.925556,1.6147291660308838,3.728817,-0.14814591,-0.208241805434227,0.16656867
2468.4500000038197,0.24791612,-0.9244084,0.06902179,-2.147458,0.2039051,1.6366893,0.8649727,0.039999947,0.04,-8.907636,1.6302136182785034,3.7631109,-0.14818181,-0.20766454935073853,0.16723192
2468.4666666704866,0.25035563,-0.92578864,0.06970117,-2.1454005,0.20591189,1.6373365,0.8657505,0.039999954,0.04,-8.88966,1.6456063985824585,3.797333,-0.14819834,-0.2070656716823578,0.16787106
2468.4833333371535,0.25279343,-0.9271677,0.07038008,-2.1433444,0.20791727,1.6379834,0.86652756,0.03999996,0.04,-8.871503,1.6609411239624023,3.83159,-0.14819373,-0.20644065737724304,0.16848664
2468.5000000038203,0.25522923,-0.9285455,0.07105843,-2.14129,0.20992105,1.6386299,0.8673039,0.039999973,0.04,-8.8531685,1.6762645244598389,3.86553,-0.14816776,-0.2057919204235077,0.16907884
2468.516666670487,0.25766274,-0.929922,0.07173614,-2.1392374,0.21192296,1.6392759,0.86807984,0.039999977,0.04,-8.834767,1.6915624141693115,3.8994434,-0.14812115,-0.20512078702449799,0.16964974
2468.533333337154,0.26009375,-0.9312977,0.07241315,-2.1371868,0.21392275,1.639921,0.86885476,0.039999977,0.04,-8.816175,1.7067596912384033,3.9332557,-0.14805515,-0.2044249325990677,0.17019472
2468.550000003821,0.2625219,-0.93267184,0.07308935,-2.135139,0.21592017,1.6405652,0.8696288,0.03999998,0.04,-8.79748,1.721948504447937,3.9670732,-0.14796653,-0.20370417833328247,0.17071648
2468.566666670488,0.26494682,-0.9340435,0.0737647,-2.1330934,0.21791495,1.6412085,0.87040174,0.03999998,0.04,-8.778653,1.737051010131836,4.000585,-0.14785805,-0.20296385884284973,0.17121226
2468.5833333371547,0.26736826,-0.9354134,0.074439034,-2.1310506,0.21990687,1.641851,0.87117386,0.039999988,0.04,-8.75975,1.7521086931228638,4.0339613,-0.1477288,-0.20220281183719635,0.17168309
2468.6000000038216,0.26978597,-0.93678164,0.07511237,-2.1290116,0.22189565,1.6424923,0.8719445,0.03999999,0.04,-8.740655,1.7671200037002563,4.0672793,-0.14757985,-0.20141839981079102,0.17213024
2468.6166666704885,0.2721996,-0.9381476,0.075784564,-2.1269755,0.22388116,1.6431327,0.8727139,0.03999999,0.04,-8.721659,1.7821310758590698,4.100538,-0.14740919,-0.20061440765857697,0.17255098
2468.6333333371554,0.27460888,-0.93951094,0.076455526,-2.1249435,0.22586308,1.6437719,0.87348217,0.03999999,0.04,-8.702177,1.7969326972961426,4.1335053,-0.1472177,-0.19978494942188263,0.17294617
2468.6500000038222,0.2770135,-0.9408719,0.077125184,-2.122915,0.22784117,1.64441,0.87424856,0.039999988,0.04,-8.682891,1.8117756843566895,4.166368,-0.14700803,-0.19893842935562134,0.17331383
2468.666666670489,0.27941322,-0.9422298,0.077793494,-2.1208913,0.22981516,1.6450467,0.87501335,0.039999995,0.04,-8.663342,1.8265105485916138,4.199109,-0.1467752,-0.19806823134422302,0.17365468
2468.683333337156,0.28180766,-0.9435849,0.078460366,-2.1188717,0.23178487,1.645682,0.8757764,0.039999995,0.04,-8.644026,1.841317892074585,4.2317038,-0.14652279,-0.197182297706604,0.17396992
2468.700000003823,0.28419662,-0.9449371,0.07912572,-2.1168563,0.23375003,1.6463158,0.8765379,0.04,0.04,-8.62416,1.8558255434036255,4.264096,-0.14624938,-0.1962747424840927,0.1742592
2468.7166666704898,0.2865797,-0.946286,0.07978938,-2.1148458,0.23571032,1.6469481,0.87729776,0.04,0.04,-8.6043415,1.8703280687332153,4.29636,-0.14595585,-0.19534534215927124,0.17451848
2468.7333333371566,0.2889567,-0.94763154,0.08045139,-2.1128407,0.23766558,1.6475791,0.87805545,0.04,0.04,-8.584617,1.8849395513534546,4.3284698,-0.1456434,-0.19439475238323212,0.17475158
2468.7500000038235,0.2913273,-0.94897336,0.08111162,-2.1108408,0.23961563,1.6482079,0.87881094,0.04,0.04,-8.564574,1.8992191553115845,4.3603735,-0.14531024,-0.1934262365102768,0.17495942
2468.7666666704904,0.29369122,-0.9503113,0.08176998,-2.1088467,0.24156013,1.6488352,0.8795643,0.04,0.04,-8.544549,1.9134992361068726,4.3921165,-0.14495601,-0.19244013726711273,0.17513588
2468.7833333371573,0.2960481,-0.95164543,0.082426414,-2.1068587,0.24349894,1.6494604,0.88031536,0.04,0.04,-8.524491,1.9277480840682983,4.4236856,-0.14458236,-0.1914360672235489,0.17528705
2468.800000003824,0.29839775,-0.9529755,0.08308082,-2.104877,0.24543174,1.6500839,0.8810644,0.04,0.04,-8.504596,1.942058801651001,4.455091,-0.14418933,-0.1904161274433136,0.17540832
2468.816666670491,0.30073994,-0.95430136,0.08373311,-2.1029005,0.24735835,1.6507052,0.88181126,0.04,0.04,-8.484192,1.9559667110443115,4.486288,-0.14377804,-0.1893785297870636,0.17550176
2468.833333337158,0.30307427,-0.9556228,0.08438324,-2.100931,0.24927856,1.6513246,0.882556,0.04,0.04,-8.46378,1.9698892831802368,4.5173006,-0.1433467,-0.1883191466331482,0.17556664
2468.850000003825,0.30540055,-0.9569398,0.085031115,-2.0989683,0.25119206,1.6519418,0.8832974,0.04,0.04,-8.443481,1.9837956428527832,4.5481453,-0.14289828,-0.18724371492862701,0.17560382
2468.8666666704917,0.30771843,-0.9582521,0.085676655,-2.0970128,0.2530987,1.6525569,0.8840365,0.04,0.04,-8.423333,1.9977843761444092,4.578795,-0.14242679,-0.18615159392356873,0.17561121
2468.8833333371585,0.31002766,-0.9595595,0.0863198,-2.0950644,0.2549982,1.6531695,0.8847724,0.039999995,0.04,-8.402679,2.0112898349761963,4.6092467,-0.14193814,-0.1850435733795166,0.17558892
2468.9000000038254,0.312328,-0.9608619,0.08696045,-2.0931237,0.2568905,1.6537799,0.88550586,0.04,0.04,-8.382166,2.0248806476593018,4.6395,-0.14142852,-0.1839188188314438,0.17553723
2468.9166666704923,0.31461918,-0.9621592,0.08759856,-2.091191,0.25877514,1.6543878,0.8862362,0.04,0.04,-8.361685,2.0383975505828857,4.669541,-0.1409018,-0.182779461145401,0.17545569
2468.933333337159,0.31690085,-0.9634511,0.08823402,-2.089266,0.26065186,1.6549932,0.88696367,0.04,0.04,-8.3414345,2.052058219909668,4.699385,-0.14035557,-0.18162576854228973,0.17534727
2468.950000003826,0.31917283,-0.96473753,0.08886679,-2.0873497,0.26252076,1.6555961,0.8876879,0.04,0.04,-8.320558,2.06512451171875,4.72902,-0.13979155,-0.1804559826850891,0.1752072
2468.966666670493,0.32143477,-0.9660183,0.08949677,-2.0854414,0.2643812,1.6561964,0.8884092,0.04,0.04,-8.299975,2.0783421993255615,4.7584515,-0.13920839,-0.17927196621894836,0.17503859
2468.98333333716,0.3236864,-0.9672932,0.09012389,-2.0835412,0.26623318,1.6567938,0.88912714,0.04,0.04,-8.279611,2.0917062759399414,4.78763,-0.13860792,-0.17807266116142273,0.1748403
2469.0000000038267,0.32592762,-0.9685623,0.090748064,-2.0816507,0.26807654,1.6573882,0.88984156,0.04,0.04,-8.258643,2.104454755783081,4.816643,-0.13798918,-0.1768583506345749,0.17461403
2469.0166666704936,0.32815793,-0.9698254,0.09136925,-2.0797682,0.26991108,1.6579802,0.89055264,0.04,0.04,-8.238057,2.117353916168213,4.8454556,-0.13735187,-0.17563459277153015,0.17435555
2469.0333333371605,0.3303773,-0.97108215,0.09198734,-2.0778954,0.27173656,1.6585693,0.89126015,0.04,0.04,-8.217241,2.130124092102051,4.874006,-0.13669638,-0.17439009249210358,0.17406826
2469.0500000038273,0.33258533,-0.9723327,0.0926023,-2.0760324,0.27355272,1.6591552,0.8919641,0.03999999,0.04,-8.19694,2.1431095600128174,4.9022927,-0.13602318,-0.17313408851623535,0.17374983
2469.066666670494,0.3347817,-0.9735766,0.09321402,-2.074179,0.27535936,1.6597382,0.8926644,0.039999995,0.04,-8.17601,2.155423164367676,4.930477,-0.13533361,-0.1718679964542389,0.1734032
2469.083333337161,0.3369663,-0.9748139,0.09382245,-2.0723357,0.27715623,1.6603178,0.8933609,0.039999995,0.04,-8.15531,2.1678786277770996,4.958356,-0.13462725,-0.17058834433555603,0.17302582
2469.100000003828,0.3391388,-0.9760443,0.094427526,-2.0705023,0.2789432,1.6608942,0.8940537,0.039999995,0.04,-8.134691,2.180248737335205,4.986016,-0.13390389,-0.16929814219474792,0.17261973
2469.116666670495,0.34129903,-0.97726774,0.09502918,-2.068679,0.28072008,1.6614673,0.8947424,0.039999988,0.04,-8.114366,2.1928048133850098,5.0133758,-0.13316368,-0.16799479722976685,0.17218268
2469.1333333371617,0.34344667,-0.97848415,0.09562733,-2.0668669,0.28248653,1.6620371,0.89542717,0.03999999,0.04,-8.0933895,2.2046093940734863,5.040634,-0.13240652,-0.1666800081729889,0.17171599
2469.1500000038286,0.3455815,-0.9796932,0.09622194,-2.0650654,0.2842425,1.6626037,0.8961077,0.04,0.04,-8.07285,2.216641426086426,5.067601,-0.13163333,-0.1653558313846588,0.1712207
2469.1666666704955,0.34770328,-0.98089516,0.09681292,-2.0632753,0.28598776,1.6631669,0.8967841,0.039999988,0.04,-8.05227,2.2285382747650146,5.0942984,-0.13084334,-0.16401943564414978,0.17069519
2469.1833333371624,0.34981176,-0.9820896,0.097400166,-2.061496,0.28772205,1.6637264,0.89745635,0.039999995,0.04,-8.032205,2.240706205368042,5.120733,-0.13003841,-0.16267554461956024,0.17014007
2469.2000000038292,0.3519068,-0.9832764,0.09798366,-2.0597284,0.28944525,1.6642823,0.89812434,0.03999999,0.04,-8.01123,2.252000331878662,5.1470304,-0.1292175,-0.1613176465034485,0.16955584
2469.216666670496,0.35398796,-0.9844557,0.09856331,-2.0579717,0.29115713,1.6648345,0.89878786,0.039999984,0.04,-7.990859,2.2635598182678223,5.1730533,-0.12838149,-0.15995389223098755,0.16894147
2469.233333337163,0.35605526,-0.9856269,0.099139094,-2.0562277,0.29285738,1.665383,0.899447,0.039999988,0.04,-7.9707627,2.2753665447235107,5.19872,-0.12752928,-0.15857653319835663,0.16829856
2469.25000000383,0.35810828,-0.98679006,0.099710904,-2.054495,0.29454613,1.6659276,0.90010154,0.039999984,0.04,-7.950128,2.2863216400146484,5.2242994,-0.12666337,-0.15719394385814667,0.1676271
2469.2666666704968,0.36014685,-0.98794514,0.10027872,-2.0527747,0.29622293,1.6664685,0.9007515,0.03999998,0.04,-7.929774,2.297494649887085,5.24957,-0.12578169,-0.15580125153064728,0.1669249
2469.2833333371636,0.3621709,-0.989092,0.10084244,-2.0510669,0.29788762,1.6670057,0.9013968,0.03999997,0.04,-7.909548,2.3085713386535645,5.2745757,-0.124885574,-0.1543993353843689,0.16619416
2469.3000000038305,0.36418,-0.99023044,0.101402014,-2.0493712,0.29954007,1.667539,0.9020373,0.03999997,0.04,-7.889863,2.3199470043182373,5.2992344,-0.12397557,-0.15299080312252045,0.16543478
2469.3166666704974,0.36617398,-0.99136037,0.10195738,-2.0476882,0.30118006,1.6680682,0.90267307,0.039999966,0.04,-7.8692846,2.3303592205047607,5.323845,-0.12305081,-0.15157181024551392,0.16464762
2469.3333333371643,0.36815265,-0.9924816,0.1025085,-2.0460186,0.3028075,1.668593,0.9033041,0.039999966,0.04,-7.84926,2.341066837310791,5.3481007,-0.12211277,-0.1501457840204239,0.16383055
2469.350000003831,0.37011588,-0.9935941,0.103055306,-2.0443618,0.3044222,1.669114,0.90392995,0.039999954,0.04,-7.8293777,2.3516628742218018,5.3721013,-0.12116236,-0.14871524274349213,0.16298553
2469.366666670498,0.3720634,-0.9946977,0.10359774,-2.0427184,0.30602393,1.6696308,0.90455073,0.03999995,0.04,-7.8099747,2.362577199935913,5.3957334,-0.12019728,-0.14727716147899628,0.16211306
2469.383333337165,0.37399498,-0.9957924,0.10413574,-2.0410876,0.30761254,1.6701431,0.9051666,0.039999947,0.04,-7.7897696,2.372469186782837,5.4193316,-0.119219095,-0.14583303034305573,0.161213
2469.400000003832,0.37591043,-0.9968779,0.10466923,-2.0394711,0.3091879,1.6706514,0.9057773,0.03999994,0.04,-7.76999,2.382660388946533,5.442571,-0.1182277,-0.1443796157836914,0.16028516
2469.4166666704987,0.37780958,-0.99795425,0.105198175,-2.0378683,0.31074986,1.6711556,0.90638274,0.039999932,0.04,-7.7505274,2.3927977085113525,5.4655366,-0.11722508,-0.14292371273040771,0.15933053
2469.4333333371655,0.37969238,-0.9990212,0.10572253,-2.0362794,0.31229824,1.671655,0.90698314,0.03999993,0.04,-7.7314787,2.4032225608825684,5.4881163,-0.11620939,-0.14145945012569427,0.15834832
2469.4500000038324,0.38155836,-1.0000788,0.106242254,-2.0347042,0.3138329,1.6721504,0.9075781,0.039999925,0.04,-7.7116756,2.4126014709472656,5.510695,-0.11518294,-0.13999317586421967,0.15733916
2469.4666666704993,0.38340747,-1.0011266,0.106757276,-2.0331435,0.3153537,1.6726407,0.90816766,0.039999925,0.04,-7.6923246,2.4223055839538574,5.5328984,-0.11414349,-0.13851718604564667,0.15630396
2469.483333337166,0.38523948,-1.0021652,0.10726756,-2.0315971,0.31686044,1.6731269,0.9087517,0.039999925,0.04,-7.6737895,2.432433605194092,5.5546737,-0.113093846,-0.1370428055524826,0.15524417
2469.500000003833,0.3870542,-1.0031942,0.10777303,-2.0300655,0.31835303,1.6736083,0.90933025,0.039999917,0.04,-7.654167,2.441377878189087,5.5765033,-0.11203175,-0.13555866479873657,0.15415545
2469.5166666705,0.3888516,-1.0042129,0.10827368,-2.0285482,0.3198313,1.6740853,0.9099033,0.03999992,0.04,-7.6353087,2.4507415294647217,5.5979276,-0.11095972,-0.13407361507415771,0.15304177
2469.533333337167,0.3906314,-1.0052216,0.1087694,-2.0270457,0.321295,1.6745577,0.91047066,0.03999992,0.04,-7.616537,2.459975242614746,5.619023,-0.10987699,-0.13258427381515503,0.15190382
2469.5500000038337,0.3923935,-1.0062203,0.10926022,-2.0255585,0.32274416,1.6750251,0.91103244,0.039999913,0.04,-7.5983796,2.469586133956909,5.6397386,-0.10878352,-0.13109008967876434,0.15074138
2469.5666666705006,0.39413768,-1.0072092,0.109746,-2.0240862,0.3241786,1.6754879,0.91158843,0.03999991,0.04,-7.5793924,2.47804856300354,5.660522,-0.10768077,-0.12959614396095276,0.14955346
2469.5833333371675,0.39586374,-1.0081879,0.1102268,-2.022629,0.32559818,1.675946,0.91213876,0.039999913,0.04,-7.560966,2.4868972301483154,5.6808805,-0.106567614,-0.12809699773788452,0.14834091
2469.6000000038343,0.39757165,-1.0091563,0.110702515,-2.0211873,0.3270028,1.6763991,0.9126833,0.039999902,0.04,-7.542685,2.495619773864746,5.7009683,-0.10544513,-0.12659303843975067,0.14710625
2469.616666670501,0.39926115,-1.0101142,0.11117313,-2.0197613,0.32839224,1.6768475,0.9132221,0.039999902,0.04,-7.525152,2.5047526359558105,5.72062,-0.10431399,-0.1250888705253601,0.1458446
2469.633333337168,0.40093216,-1.0110617,0.11163858,-2.0183513,0.32976648,1.677291,0.9137549,0.039999895,0.04,-7.506698,2.5127205848693848,5.7403297,-0.10317481,-0.1235833689570427,0.144562
2469.650000003835,0.4025845,-1.0119983,0.11209883,-2.0169573,0.33112538,1.6777294,0.9142818,0.03999989,0.04,-7.4889536,2.5211033821105957,5.759623,-0.10202737,-0.12207760661840439,0.14325674
2469.666666670502,0.4042181,-1.0129247,0.11255384,-2.0155787,0.33246875,1.6781628,0.9148027,0.039999887,0.04,-7.4713855,2.5293617248535156,5.778608,-0.10087287,-0.12057355791330338,0.14192924
2469.6833333371687,0.40583274,-1.0138402,0.1130036,-2.0142157,0.33379665,1.6785913,0.91531754,0.03999988,0.04,-7.4543715,2.538006544113159,5.7972174,-0.09970899,-0.11906476318836212,0.14057992
2469.7000000038356,0.40742835,-1.014745,0.11344803,-2.0128684,0.33510888,1.6790147,0.9158262,0.03999988,0.04,-7.436459,2.545422315597534,5.815859,-0.098537154,-0.11755413562059402,0.13920762
2469.7166666705025,0.40900478,-1.015639,0.113887124,-2.011537,0.33640525,1.679433,0.9163288,0.039999876,0.04,-7.419259,2.5532851219177246,5.834085,-0.0973571,-0.11604099720716476,0.13781558
2469.7333333371694,0.41056183,-1.0165218,0.114320844,-2.010223,0.33768567,1.6798462,0.9168254,0.039999865,0.04,-7.4028254,2.5615997314453125,5.851846,-0.09616983,-0.1145271360874176,0.1364023
2469.7500000038362,0.41209945,-1.0173938,0.11474916,-2.008925,0.33895022,1.6802542,0.9173156,0.039999865,0.04,-7.3855724,2.568721294403076,5.8697243,-0.09497886,-0.11301762610673904,0.13497023
2469.766666670503,0.41361767,-1.0182546,0.11517205,-2.0076432,0.3401987,1.6806571,0.9177996,0.039999865,0.04,-7.3688807,2.5762100219726562,5.8871603,-0.093779534,-0.11150664836168289,0.13351883
2469.78333333717,0.41511628,-1.0191046,0.11558946,-2.0063782,0.341431,1.6810548,0.91827744,0.039999865,0.04,-7.352424,2.5836057662963867,5.9042993,-0.09257408,-0.10999580472707748,0.13204773
2469.800000003837,0.41659507,-1.0199434,0.11600139,-2.0051296,0.34264708,1.6814471,0.9187489,0.039999858,0.04,-7.336718,2.5914628505706787,5.921016,-0.09136324,-0.10848559439182281,0.1305583
2469.8166666705038,0.41805398,-1.020771,0.1164078,-2.0038984,0.34384683,1.6818343,0.91921407,0.039999858,0.04,-7.320013,2.5980160236358643,5.9378457,-0.09014643,-0.10697609186172485,0.12904976
2469.8333333371706,0.41949302,-1.0215874,0.11680869,-2.0026834,0.34503028,1.6822162,0.91967297,0.03999985,0.04,-7.3041997,2.6051025390625,5.95422,-0.0889258,-0.1054706871509552,0.12752613
2469.8500000038375,0.42091206,-1.0223924,0.11720399,-2.0014853,0.34619722,1.6825929,0.9201253,0.039999846,0.04,-7.288391,2.6119799613952637,5.9703193,-0.087699614,-0.10396340489387512,0.12598363
2469.8666666705044,0.42231107,-1.0231857,0.11759367,-2.0003045,0.34734762,1.682964,0.9205715,0.039999846,0.04,-7.2734723,2.619391918182373,5.9859495,-0.08646832,-0.10245823860168457,0.12442394
2469.8833333371713,0.42368978,-1.0239677,0.11797776,-1.9991403,0.34848157,1.6833299,0.92101115,0.039999843,0.04,-7.2576227,2.625519037246704,6.001712,-0.08523474,-0.10095907747745514,0.12284925
2469.900000003838,0.42504832,-1.0247383,0.1183562,-1.997993,0.34959874,1.6836904,0.92144436,0.03999984,0.04,-7.2424493,2.6320858001708984,6.01701,-0.08399708,-0.09945976734161377,0.12125854
2469.916666670505,0.4263866,-1.0254976,0.11872897,-1.9968631,0.35069916,1.6840454,0.9218712,0.039999843,0.04,-7.2274857,2.6385350227355957,6.0320845,-0.08275503,-0.09796284139156342,0.11965252
2469.933333337172,0.42770448,-1.0262454,0.11909609,-1.9957502,0.3517829,1.6843952,0.9222914,0.039999835,0.04,-7.2133846,2.6455087661743164,6.0466533,-0.0815106,-0.09646925330162048,0.1180332
2469.950000003839,0.4290019,-1.026982,0.11945751,-1.9946547,0.35284984,1.6847395,0.9227052,0.039999835,0.04,-7.1982155,2.651132583618164,6.0614166,-0.08026245,-0.09497719258069992,0.11640077
2469.9666666705057,0.43027887,-1.0277064,0.11981323,-1.9935765,0.3539,1.6850784,0.9231123,0.03999984,0.04,-7.1838555,2.6572511196136475,6.0757303,-0.07901176,-0.0934879407286644,0.11475334
2469.9833333371726,0.4315353,-1.0284188,0.120163225,-1.9925156,0.35493314,1.6854117,0.923513,0.03999983,0.04,-7.1704707,2.6639211177825928,6.089457,-0.0777597,-0.09200531244277954,0.11309495
2470.0000000038394,0.43277106,-1.0291198,0.1205075,-1.991472,0.35594943,1.6857398,0.9239069,0.039999828,0.04,-7.155972,2.6692214012145996,6.1034117,-0.07650653,-0.09052830934524536,0.111424446
2470.0166666705063,0.4339863,-1.0298097,0.12084604,-1.9904461,0.35694873,1.6860622,0.92429453,0.03999984,0.04,-7.142253,2.6750199794769287,6.116928,-0.07525091,-0.08905316889286041,0.10974278
2470.033333337173,0.43518093,-1.0304881,0.12117884,-1.989437,0.35793114,1.6863793,0.92467535,0.039999828,0.04,-7.1287875,2.680718183517456,6.1302,-0.0739953,-0.08758319169282913,0.10805032
2470.05000000384,0.43635502,-1.0311542,0.121505894,-1.9884458,0.35889655,1.6866907,0.9250495,0.039999835,0.04,-7.1160393,2.6868844032287598,6.142984,-0.07273621,-0.08611380308866501,0.10634721
2470.066666670507,0.43750837,-1.0318083,0.12182719,-1.987472,0.35984492,1.6869967,0.9254174,0.03999983,0.04,-7.102542,2.691800832748413,6.1558857,-0.071477786,-0.08465582877397537,0.10463571
2470.083333337174,0.43864104,-1.0324509,0.12214274,-1.9865156,0.36077636,1.6872972,0.9257787,0.039999824,0.04,-7.0897384,2.697181224822998,6.1683517,-0.070221394,-0.08320321887731552,0.10291517
2470.1000000038407,0.43975297,-1.0330822,0.12245252,-1.9855766,0.36169073,1.6875923,0.92613333,0.03999982,0.04,-7.0771275,2.7024528980255127,6.180586,-0.068964824,-0.08175542950630188,0.10118587
2470.1166666705076,0.44084418,-1.0337019,0.12275647,-1.9846553,0.36258805,1.6878818,0.92648125,0.039999828,0.04,-7.0653143,2.7082412242889404,6.1923585,-0.067708075,-0.08031091839075089,0.099450745
2470.1333333371745,0.44191474,-1.0343096,0.12305472,-1.9837512,0.36346838,1.6881659,0.9268226,0.039999824,0.04,-7.052561,2.7127044200897217,6.204321,-0.06645246,-0.07887350022792816,0.09770768
2470.1500000038413,0.44296467,-1.0349054,0.123347215,-1.9828646,0.36433172,1.6884445,0.92715734,0.039999828,0.04,-7.040621,2.717665433883667,6.2157903,-0.06519747,-0.07744166254997253,0.095959306
2470.166666670508,0.4439939,-1.0354896,0.12363398,-1.9819953,0.36517814,1.6887176,0.9274855,0.039999828,0.04,-7.0289865,2.72255277633667,6.2269907,-0.06394489,-0.07601862400770187,0.094204746
2470.183333337175,0.44500256,-1.0360622,0.12391498,-1.981144,0.36600757,1.6889852,0.92780715,0.039999828,0.04,-7.018124,2.7279422283172607,6.237747,-0.06269399,-0.07460208237171173,0.092445105
2470.200000003842,0.44599047,-1.0366232,0.124190256,-1.9803095,0.36682,1.6892473,0.92812216,0.039999824,0.04,-7.006278,2.73201322555542,6.2487497,-0.06144613,-0.0731930360198021,0.0906826
2470.216666670509,0.4469579,-1.0371726,0.12445977,-1.9794925,0.36761552,1.689504,0.9284307,0.039999828,0.04,-6.995224,2.7365853786468506,6.259229,-0.060200326,-0.07179051637649536,0.08891725
2470.2333333371757,0.44790474,-1.0377101,0.124723576,-1.9786931,0.3683941,1.6897552,0.92873263,0.039999805,0.04,-6.985074,2.7417068481445312,6.2692437,-0.058958177,-0.07039535045623779,0.08715
2470.2500000038426,0.44883114,-1.0382358,0.124981694,-1.9779106,0.369156,1.6900009,0.9290281,0.039999805,0.04,-6.9739676,2.745497941970825,6.279494,-0.057720177,-0.06901122629642487,0.08537976
2470.2666666705095,0.449737,-1.03875,0.1252341,-1.9771457,0.369901,1.6902412,0.929317,0.03999981,0.04,-6.9636126,2.74977707862854,6.2892456,-0.056485474,-0.06763485819101334,0.08360837
2470.2833333371764,0.45062265,-1.0392529,0.12548082,-1.9763976,0.3706292,1.6904762,0.92959934,0.03999981,0.04,-6.9535456,2.754009246826172,6.298784,-0.05525587,-0.06626646965742111,0.08183612
2470.3000000038433,0.45148793,-1.0397443,0.12572189,-1.9756668,0.37134063,1.6907059,0.9298753,0.03999981,0.04,-6.94427,2.7587320804595947,6.307854,-0.05402935,-0.06490650027990341,0.08006517
2470.31666667051,0.45233294,-1.0402238,0.12595734,-1.9749532,0.37203556,1.6909302,0.93014467,0.03999981,0.04,-6.9340158,2.7621517181396484,6.3171606,-0.05280834,-0.06355427950620651,0.07829553
2470.333333337177,0.45315775,-1.040692,0.12618719,-1.9742563,0.37271374,1.6911491,0.93040776,0.03999982,0.04,-6.9246964,2.7661080360412598,6.325971,-0.051592857,-0.06221430003643036,0.07652646
2470.350000003844,0.45396248,-1.0411488,0.12641142,-1.9735765,0.37337556,1.6913626,0.9306644,0.039999817,0.04,-6.9154935,2.7699637413024902,6.3345776,-0.05038355,-0.06088278442621231,0.07476202
2470.3666666705108,0.45474726,-1.0415944,0.1266301,-1.9729137,0.37402087,1.6915709,0.9309147,0.039999817,0.04,-6.9071984,2.774357795715332,6.3427134,-0.049180847,-0.059562236070632935,0.07300026
2470.3833333371776,0.45551223,-1.0420287,0.12684321,-1.9722681,0.3746498,1.6917739,0.9311585,0.039999817,0.04,-6.8978786,2.777435064315796,6.3511124,-0.04798397,-0.05825164169073105,0.07124291
2470.4000000038445,0.45625737,-1.0424522,0.12705085,-1.9716386,0.37526247,1.6919717,0.93139607,0.039999805,0.04,-6.8894916,2.781071186065674,6.3590183,-0.046794467,-0.05695442110300064,0.06949019
2470.4166666705114,0.45698282,-1.0428644,0.127253,-1.9710261,0.37585905,1.6921641,0.93162733,0.03999981,0.04,-6.8811016,2.7845394611358643,6.3667593,-0.045610465,-0.05566207319498062,0.06774327
2470.4333333371783,0.45768875,-1.0432655,0.12744972,-1.9704297,0.37643954,1.6923516,0.9318524,0.039999817,0.04,-6.873783,2.7886180877685547,6.373991,-0.044435624,-0.05438509210944176,0.0660034
2470.450000003845,0.45837522,-1.0436554,0.127641,-1.9698501,0.377004,1.6925337,0.9320715,0.03999982,0.04,-6.865364,2.7913615703582764,6.38147,-0.043268036,-0.053117331117391586,0.064269386
2470.466666670512,0.45904243,-1.0440345,0.12782697,-1.9692867,0.3775527,1.6927109,0.9322843,0.03999982,0.04,-6.857891,2.7946906089782715,6.3885074,-0.042111367,-0.051863837987184525,0.06254536
2470.483333337179,0.45969057,-1.0444026,0.12800753,-1.9687393,0.37808555,1.6928829,0.9324909,0.039999824,0.04,-6.8511314,2.7984650135040283,6.3951073,-0.040961966,-0.0506216362118721,0.060829613
2470.500000003846,0.4603196,-1.04476,0.12818283,-1.968208,0.3786029,1.6930497,0.9326916,0.039999828,0.04,-6.8434668,2.8010308742523193,6.4019246,-0.039821725,-0.04939228296279907,0.05912353
2470.5166666705127,0.4609298,-1.0451064,0.1283529,-1.9676925,0.37910467,1.6932117,0.93288624,0.03999983,0.04,-6.836592,2.804089307785034,6.408343,-0.038691826,-0.04817596450448036,0.05742804
2470.5333333371796,0.4615213,-1.0454422,0.1285177,-1.967193,0.37959114,1.6933688,0.9330749,0.039999828,0.04,-6.830008,2.807098388671875,6.414502,-0.03757254,-0.04697413370013237,0.05574426
2470.5500000038464,0.4620943,-1.0457679,0.1286774,-1.966709,0.38006225,1.6935207,0.9332576,0.039999828,0.04,-6.8241577,2.8105826377868652,6.420243,-0.036463983,-0.045784711837768555,0.054071385
2470.5666666705133,0.46264902,-1.0460832,0.12883198,-1.9662404,0.3805183,1.693668,0.93343437,0.03999983,0.04,-6.8173685,2.8128528594970703,6.4262958,-0.035365444,-0.04460970312356949,0.05241244
2470.58333333718,0.4631855,-1.0463883,0.1289815,-1.965787,0.38095948,1.6938106,0.9336054,0.039999835,0.04,-6.8113585,2.8156235218048096,6.43187,-0.034277175,-0.043445780873298645,0.05076739
2470.600000003847,0.46370405,-1.0466826,0.12912601,-1.9653491,0.38138583,1.6939481,0.93377066,0.039999843,0.04,-6.805605,2.8183395862579346,6.4372444,-0.03320086,-0.042296603322029114,0.049136873
2470.616666670514,0.4642048,-1.0469671,0.1292656,-1.964926,0.3817977,1.694081,0.93393034,0.03999984,0.04,-6.8007107,2.821563243865967,6.4421782,-0.03213796,-0.04116596281528473,0.0475232
2470.633333337181,0.464688,-1.047242,0.12940031,-1.9645181,0.3821951,1.6942092,0.9340845,0.039999846,0.04,-6.794812,2.823582649230957,6.447394,-0.031087702,-0.040049392729997635,0.04592372
2470.6500000038477,0.46515378,-1.0475063,0.12953015,-1.9641246,0.3825781,1.6943328,0.934233,0.039999843,0.04,-6.7896976,2.8261051177978516,6.4522247,-0.0300503,-0.038947299122810364,0.04434176
2470.6666666705146,0.4656025,-1.0477614,0.12965521,-1.9637456,0.38294712,1.6944517,0.93437606,0.039999846,0.04,-6.784894,2.828596353530884,6.4567537,-0.029027544,-0.037864360958337784,0.042778295
2470.6833333371815,0.46603426,-1.048007,0.12977557,-1.9633808,0.3833022,1.6945661,0.9345138,0.039999846,0.04,-6.7806783,2.8314859867095947,6.4610057,-0.028017877,-0.03679664060473442,0.04123211
2470.7000000038483,0.4664494,-1.0482432,0.12989132,-1.96303,0.38364357,1.6946764,0.93464625,0.039999846,0.04,-6.775675,2.8333168029785156,6.4654512,-0.027022654,-0.03574427217245102,0.039707515
2470.716666670515,0.46684808,-1.0484698,0.13000244,-1.9626932,0.3839714,1.6947825,0.9347734,0.03999985,0.04,-6.7714005,2.8355813026428223,6.4694934,-0.026041871,-0.034707244485616684,0.038202386
2470.733333337182,0.46723065,-1.0486875,0.13010907,-1.9623699,0.38428593,1.6948843,0.93489546,0.039999846,0.04,-6.7678704,2.8383536338806152,6.47315,-0.025077278,-0.033688291907310486,0.036721773
2470.750000003849,0.46759734,-1.0488958,0.1302113,-1.9620601,0.38458738,1.6949818,0.93501246,0.039999854,0.04,-6.7634587,2.8399856090545654,6.477067,-0.024127664,-0.03268558531999588,0.03526007
2470.766666670516,0.4679483,-1.0490954,0.13030915,-1.9617635,0.384876,1.6950752,0.93512446,0.039999858,0.04,-6.759843,2.8421359062194824,6.480586,-0.023194622,-0.03170311078429222,0.033823602
2470.7833333371827,0.46828386,-1.0492864,0.13040273,-1.9614798,0.38515195,1.6951638,0.93523145,0.039999865,0.04,-6.756374,2.8441994190216064,6.483931,-0.022278797,-0.030738819390535355,0.03241019
2470.8000000038496,0.46860436,-1.0494686,0.13049212,-1.9612087,0.38541552,1.6952486,0.9353337,0.039999865,0.04,-6.7535524,2.8466784954071045,6.48697,-0.021378884,-0.029795413836836815,0.031022048
2470.8166666705165,0.46891013,-1.0496427,0.1305774,-1.9609505,0.385667,1.6953294,0.93543124,0.039999865,0.04,-6.750017,2.8481874465942383,6.490158,-0.020497372,-0.028870953246951103,0.029659512
2470.8333333371834,0.46920133,-1.0498084,0.13065861,-1.9607044,0.38590652,1.6954066,0.93552417,0.039999876,0.04,-6.747156,2.8501203060150146,6.4930434,-0.019633899,-0.0279680248349905,0.0283224
2470.8500000038503,0.46947837,-1.0499662,0.13073587,-1.9604701,0.38613436,1.69548,0.9356125,0.03999988,0.04,-6.7444367,2.852011203765869,6.4957333,-0.018789189,-0.027083957567811012,0.027013682
2470.866666670517,0.4697416,-1.050116,0.13080925,-1.9602475,0.38635078,1.6955497,0.93569654,0.039999876,0.04,-6.742266,2.854249954223633,6.498131,-0.017962668,-0.026218125596642494,0.025733745
2470.883333337184,0.46999124,-1.050258,0.13087887,-1.9600363,0.386556,1.6956158,0.93577623,0.03999988,0.04,-6.7395186,2.8556275367736816,6.5006995,-0.017156161,-0.025375105440616608,0.02448139
2470.900000003851,0.4702277,-1.0503926,0.13094482,-1.9598365,0.38675043,1.6956784,0.93585163,0.03999988,0.04,-6.7373486,2.8573811054229736,6.5029516,-0.016370011,-0.024554478004574776,0.023258677
2470.9166666705178,0.47045124,-1.0505201,0.13100716,-1.9596475,0.3869343,1.695738,0.93592304,0.03999988,0.04,-6.735361,2.8591229915618896,6.505071,-0.015603998,-0.023756075650453568,0.022069318
2470.9333333371846,0.4706622,-1.0506406,0.13106605,-1.9594691,0.38710782,1.6957941,0.9359905,0.039999884,0.04,-6.733854,2.86116099357605,6.5068984,-0.014859455,-0.022977281361818314,0.02090859
2470.9500000038515,0.47086105,-1.0507537,0.13112153,-1.9593012,0.3872714,1.6958472,0.936054,0.039999884,0.04,-6.7317677,2.8624346256256104,6.508911,-0.014136397,-0.022220585495233536,0.019783936
2470.9666666705184,0.47104815,-1.0508598,0.13117373,-1.959143,0.3874253,1.6958971,0.9361137,0.039999884,0.04,-6.730337,2.864077091217041,6.5105853,-0.0134361815,-0.02149057574570179,0.018690702
2470.9833333371853,0.47122386,-1.05096,0.13122274,-1.9589947,0.38756987,1.6959436,0.9361698,0.03999989,0.04,-6.729319,2.866004705429077,6.5119905,-0.012758369,-0.020784549415111542,0.017632622
2471.000000003852,0.4713885,-1.0510539,0.13126871,-1.9588555,0.38770536,1.6959867,0.9362225,0.03999989,0.04,-6.7277246,2.867203712463379,6.5136456,-0.0121029215,-0.020103106275200844,0.016610563
2471.016666670519,0.47154245,-1.0511411,0.13131171,-1.9587251,0.38783208,1.696028,0.93627167,0.0399999,0.04,-6.7266417,2.8687098026275635,6.514997,-0.011471341,-0.01944836601614952,0.015623469
2471.033333337186,0.47168618,-1.0512232,0.13135184,-1.9586035,0.3879504,1.6960666,0.9363173,0.0399999,0.04,-6.7257423,2.870229721069336,6.516135,-0.010864158,-0.0188160240650177,0.014673885
2471.050000003853,0.47182012,-1.051299,0.13138926,-1.9584904,0.3880606,1.6961017,0.9363603,0.039999902,0.04,-6.725184,2.8719937801361084,6.517161,-0.010279542,-0.018207021057605743,0.013762044
2471.0666666705197,0.4719447,-1.0513699,0.13142404,-1.9583851,0.38816315,1.6961353,0.9364001,0.039999906,0.04,-6.724337,2.873175621032715,6.5182776,-0.009723455,-0.01763221248984337,0.012890335
2471.0833333371866,0.47206023,-1.0514356,0.13145633,-1.9582874,0.38825825,1.6961663,0.936437,0.03999991,0.04,-6.72372,2.874584436416626,6.519162,-0.00919111,-0.017076971009373665,0.012056646
2471.1000000038534,0.47216722,-1.0514965,0.13148625,-1.9581969,0.3883464,1.6961938,0.9364713,0.03999991,0.04,-6.723313,2.8760015964508057,6.5199685,-0.008684919,-0.0165506973862648,0.011263662
2471.1166666705203,0.47226623,-1.0515529,0.13151398,-1.9581134,0.38842794,1.6962209,0.9365028,0.03999991,0.04,-6.7233214,2.8776564598083496,6.520602,-0.008206186,-0.016058463603258133,0.010513876
2471.133333337187,0.47235763,-1.0516049,0.1315394,-1.958036,0.3885032,1.6962445,0.93653184,0.039999913,0.04,-6.7228456,2.8787779808044434,6.52129,-0.007753408,-0.01558673195540905,0.009805006
2471.150000003854,0.47244176,-1.0516528,0.13156286,-1.9579647,0.3885725,1.6962677,0.93655884,0.039999917,0.04,-6.722767,2.880159854888916,6.521832,-0.0073281815,-0.015149201266467571,0.009139872
2471.166666670521,0.4725192,-1.0516969,0.1315845,-1.957899,0.38863635,1.6962875,0.9365838,0.03999992,0.04,-6.7227726,2.881518602371216,6.5222425,-0.0069329008,-0.014734959229826927,0.008517763
2471.183333337188,0.47259054,-1.0517378,0.1316045,-1.9578388,0.38869506,1.696307,0.9366069,0.039999917,0.039999995,-6.723099,2.8830606937408447,6.522587,-0.00656665,-0.014356589876115322,0.007942666
2471.2000000038547,0.47265616,-1.0517753,0.13162285,-1.9577831,0.38874903,1.696324,0.9366281,0.03999992,0.04,-6.7230897,2.8841753005981445,6.5229697,-0.0062289215,-0.014003407210111618,0.007410404
2471.2166666705216,0.47271654,-1.0518095,0.13163978,-1.9577317,0.38879886,1.6963397,0.9366474,0.039999917,0.039999995,-6.723283,2.8854246139526367,6.523261,-0.0059180195,-0.013681254349648952,0.006922897
2471.2333333371885,0.4727721,-1.0518413,0.13165532,-1.9576844,0.3888446,1.6963553,0.9366649,0.039999925,0.04,-6.7236357,2.8866994380950928,6.5234213,-0.005631223,-0.013385496102273464,0.0064707855
2471.2500000038553,0.47282323,-1.0518706,0.13166966,-1.957641,0.3888867,1.6963685,0.936681,0.03999993,0.04,-6.723588,2.8876099586486816,6.523711,-0.005365567,-0.013106969185173512,0.0060578412
2471.266666670522,0.4728703,-1.0518972,0.1316828,-1.957601,0.38892543,1.6963805,0.9366963,0.039999925,0.04,-6.723781,2.888570547103882,6.523979,-0.0051210127,-0.012856362387537956,0.005677997
2471.283333337189,0.47291356,-1.0519216,0.13169488,-1.9575645,0.38896105,1.6963923,0.9367099,0.039999925,0.039999995,-6.7239575,2.889477014541626,6.5241413,-0.004899037,-0.012627117335796356,0.0053284504
2471.300000003856,0.47295332,-1.0519441,0.13170601,-1.957531,0.3889938,1.6964041,0.93672276,0.03999993,0.04,-6.724226,2.8904128074645996,6.524259,-0.00469323,-0.012414747849106789,0.0050059506
2471.316666670523,0.47298995,-1.051965,0.13171622,-1.9575,0.38902396,1.6964132,0.93673444,0.039999936,0.04,-6.7242117,2.89106822013855,6.5244527,-0.0045057437,-0.012214849703013897,0.004709794
2471.3333333371897,0.47302365,-1.051984,0.13172567,-1.9574714,0.38905185,1.6964214,0.9367453,0.039999936,0.04,-6.724329,2.891740560531616,6.5246673,-0.0043319557,-0.012037940323352814,0.0044362433
2471.3500000038566,0.47305468,-1.0520017,0.13173436,-1.9574453,0.38907757,1.6964294,0.93675506,0.039999936,0.04,-6.7244635,2.892383575439453,6.5247874,-0.004172643,-0.011876542121171951,0.004185836
2471.3666666705235,0.47308314,-1.052018,0.13174236,-1.9574213,0.38910112,1.6964374,0.9367645,0.039999936,0.04,-6.7246027,2.893040895462036,6.5249057,-0.004024961,-0.011725565418601036,0.0039549423
2471.3833333371904,0.4731094,-1.0520326,0.1317497,-1.9573991,0.38912284,1.6964453,0.93677247,0.039999936,0.04,-6.7246027,2.8935012817382812,6.525034,-0.003891273,-0.011583910323679447,0.0037411833
2471.4000000038573,0.47313353,-1.0520464,0.1317565,-1.9573789,0.3891428,1.6964525,0.9367803,0.039999936,0.04,-6.7247086,2.894015073776245,6.5250897,-0.0037656117,-0.011452656239271164,0.00354445
2471.416666670524,0.4731557,-1.0520592,0.1317627,-1.9573603,0.3891611,1.696457,0.93678766,0.039999936,0.04,-6.7247424,2.894458055496216,6.5252447,-0.0036515533,-0.011331087909638882,0.003363702
2471.433333337191,0.47317603,-1.0520704,0.13176842,-1.957343,0.38917807,1.6964614,0.9367938,0.039999936,0.04,-6.7249227,2.894949197769165,6.5253673,-0.003547882,-0.011228659190237522,0.00319924
2471.450000003858,0.47319484,-1.052081,0.13177368,-1.9573271,0.3891935,1.6964658,0.93679976,0.039999936,0.04,-6.7249765,2.8952975273132324,6.5254087,-0.003450204,-0.01113476324826479,0.0030483822
2471.466666670525,0.4732121,-1.0520909,0.13177852,-1.9573125,0.38920772,1.6964701,0.93680537,0.03999994,0.04,-6.724993,2.8956313133239746,6.5255003,-0.0033610074,-0.011045875027775764,0.0029088734
2471.4833333371917,0.47322804,-1.0521001,0.13178302,-1.957299,0.3892209,1.6964743,0.9368108,0.03999994,0.04,-6.7250533,2.895996570587158,6.525557,-0.0032792704,-0.01096181571483612,0.002781197
2471.5000000038585,0.47324252,-1.0521085,0.13178712,-1.9572865,0.38923305,1.6964785,0.9368151,0.03999994,0.04,-6.725045,2.8962340354919434,6.5256443,-0.0032048465,-0.010883697308599949,0.0026612908
2471.5166666705254,0.473256,-1.0521158,0.13179086,-1.9572753,0.38924426,1.6964827,0.93681914,0.039999947,0.04,-6.7250633,2.896524429321289,6.5256906,-0.0031337184,-0.010809262283146381,0.0025526935
2471.5333333371923,0.47326848,-1.0521227,0.1317944,-1.9572648,0.3892545,1.6964868,0.93682307,0.039999943,0.04,-6.7251964,2.8968045711517334,6.5257063,-0.0030698078,-0.010743087157607079,0.0024515588
2471.550000003859,0.47327998,-1.052129,0.13179757,-1.9572552,0.38926387,1.6964909,0.9368268,0.03999994,0.04,-6.7252,2.897028684616089,6.5257635,-0.003010562,-0.010679095052182674,0.0023571965
2471.566666670526,0.47329056,-1.0521351,0.13180052,-1.9572464,0.38927236,1.6964943,0.93683046,0.039999943,0.04,-6.7252145,2.8972485065460205,6.5258207,-0.0029571855,-0.010619825683534145,0.002272393
2471.583333337193,0.4733002,-1.052141,0.13180321,-1.9572383,0.38928047,1.6964976,0.93683386,0.039999943,0.04,-6.725207,2.8974297046661377,6.5259,-0.0029082345,-0.010565011762082577,0.0021940505
2471.60000000386,0.4733089,-1.0521463,0.13180572,-1.9572309,0.38928786,1.6965007,0.9368364,0.039999943,0.04,-6.4228086,2.819481611251831,6.5751276,0.0,-0.0,0.0
2471.6166666705267,0.4733089,-1.0521463,0.13180572,-1.9572309,0.38928786,1.6965007,0.9368364,0.039999943,0.04,-6.7268777,2.899254322052002,6.5253005,0.0,-0.0,0.0
2471.6333333371936,0.4733089,-1.0521463,0.13180572,-1.9572309,0.38928786,1.6965007,0.9368364,0.039999943,0.04,-6.7268777,2.899254322052002,6.5253005,0.0,-0.0,0.0
2471.6500000038604,0.4733089,-1.0521463,0.13180572,-1.9572309,0.38928786,1.6965007,0.9368364,0.039999943,0.04,-6.7268777,2.899254322052002,6.5253005,0.0,-0.0,0.0
2471.6666666705273,0.4733089,-1.0521463,0.13180572,-1.9572309,0.38928786,1.6965007,0.9368364,0.039999943,0.04,-6.7268777,2.899254322052002,6.5253005,0.0,-0.0,0.0
2471.683333337194,0.4733089,-1.0521463,0.13180572,-1.9572309,0.38928786,1.6965007,0.9368364,0.039999943,0.04,-6.7268777,2.899254322052002,6.5253005,0.0,-0.0,0.0
2471.700000003861,0.4733089,-1.0521463,0.13180572,-1.9572309,0.38928786,1.6965007,0.9368364,0.039999943,0.04,-6.7268777,2.899254322052002,6.5253005,0.0,-0.0,0.0
2471.716666670528,0.4733089,-1.0521463,0.13180572,-1.9572309,0.38928786,1.6965007,0.9368364,0.039999943,0.04,-6.7268777,2.899254322052002,6.5253005,0.0,-0.0,0.0
2471.733333337195,0.4733089,-1.0521463,0.13180572,-1.9572309,0.38928786,1.6965007,0.9368364,0.039999943,0.04,-6.7268777,2.899254322052002,6.5253005,0.0,-0.0,0.0
2471.7500000038617,0.4733089,-1.0521463,0.13180572,-1.9572309,0.38928786,1.6965007,0.9368364,0.039999943,0.04,-6.7268777,2.899254322052002,6.5253005,0.0,-0.0,0.0
2471.7666666705286,0.4733089,-1.0521463,0.13180572,-1.9572309,0.38928786,1.6965007,0.9368364,0.039999943,0.04,-6.7268777,2.899254322052002,6.5253005,0.0,-0.0,0.0
2471.7833333371955,0.4733089,-1.0521463,0.13180572,-1.9572309,0.38928786,1.6965007,0.9368364,0.039999943,0.04,-6.7268777,2.899254322052002,6.5253005,0.0,-0.0,0.0
2471.8000000038624,0.4733089,-1.0521463,0.13180572,-1.9572309,0.38928786,1.6965007,0.9368364,0.039999943,0.04,-6.7268777,2.899254322052002,6.5253005,0.0,-0.0,0.0
2471.8166666705292,0.4733089,-1.0521463,0.13180572,-1.9572309,0.38928786,1.6965007,0.9368364,0.039999943,0.04,-6.7268777,2.899254322052002,6.5253005,0.0,-0.0,0.0
2471.833333337196,0.4733089,-1.0521463,0.13180572,-1.9572309,0.38928786,1.6965007,0.9368364,0.039999943,0.04,-6.7268777,2.899254322052002,6.5253005,0.0,-0.0,0.0
2471.850000003863,0.4733089,-1.0521463,0.13180572,-1.9572309,0.38928786,1.6965007,0.9368364,0.039999943,0.04,-6.7268777,2.899254322052002,6.5253005,0.0,-0.0,0.0
2471.86666667053,0.4733089,-1.0521463,0.13180572,-1.9572309,0.38928786,1.6965007,0.9368364,0.039999943,0.04,-6.7268777,2.899254322052002,6.5253005,0.0,-0.0,0.0
2471.8833333371967,0.4733089,-1.0521463,0.13180572,-1.9572309,0.38928786,1.6965007,0.9368364,0.039999943,0.04,-6.7268777,2.899254322052002,6.5253005,0.0,-0.0,0.0
2471.9000000038636,0.4733089,-1.0521463,0.13180572,-1.9572309,0.38928786,1.6965007,0.9368364,0.039999943,0.04,-6.7268777,2.899254322052002,6.5253005,0.0,-0.0,0.0
2471.9166666705305,0.4733089,-1.0521463,0.13180572,-1.9572309,0.38928786,1.6965007,0.9368364,0.039999943,0.04,-6.7268777,2.899254322052002,6.5253005,0.0,-0.0,0.0
2471.9333333371974,0.4733089,-1.0521463,0.13180572,-1.9572309,0.38928786,1.6965007,0.9368364,0.039999943,0.04,-6.7268777,2.899254322052002,6.5253005,0.0,-0.0,0.0
2471.9500000038643,0.4733089,-1.0521463,0.13180572,-1.9572309,0.38928786,1.6965007,0.9368364,0.039999943,0.04,-6.7268777,2.899254322052002,6.5253005,0.0,-0.0,0.0
2471.966666670531,0.4733089,-1.0521463,0.13180572,-1.9572309,0.38928786,1.6965007,0.9368364,0.039999943,0.04,-6.7268777,2.899254322052002,6.5253005,0.0,-0.0,0.0
2471.983333337198,0.4733089,-1.0521463,0.13180572,-1.9572309,0.38928786,1.6965007,0.9368364,0.039999943,0.04,-6.7268777,2.899254322052002,6.5253005,0.0,-0.0,0.0
2472.000000003865,0.4733089,-1.0521463,0.13180572,-1.9572309,0.38928786,1.6965007,0.9368364,0.039999943,0.04,-6.7268777,2.899254322052002,6.5253005,0.0,-0.0,0.0
2472.016666670532,0.4733089,-1.0521463,0.13180572,-1.9572309,0.38928786,1.6965007,0.9368364,0.039999943,0.04,-6.7268777,2.899254322052002,6.5253005,0.0,-0.0,0.0
2472.0333333371987,0.4733089,-1.0521463,0.13180572,-1.9572309,0.38928786,1.6965007,0.9368364,0.039999943,0.04,-6.7268777,2.899254322052002,6.5253005,0.0,-0.0,0.0
2472.0500000038655,0.4733089,-1.0521463,0.13180572,-1.9572309,0.38928786,1.6965007,0.9368364,0.039999943,0.04,-6.7268777,2.899254322052002,6.5253005,0.0,-0.0,0.0
2472.0666666705324,0.4733089,-1.0521463,0.13180572,-1.9572309,0.38928786,1.6965007,0.9368364,0.039999943,0.04,-6.7268777,2.899254322052002,6.5253005,0.0,-0.0,0.0
2472.0833333371993,0.4733089,-1.0521463,0.13180572,-1.9572309,0.38928786,1.6965007,0.9368364,0.039999943,0.04,-6.7268777,2.899254322052002,6.5253005,0.0,-0.0,0.0
2472.100000003866,0.4733089,-1.0521463,0.13180572,-1.9572309,0.38928786,1.6965007,0.9368364,0.039999943,0.04,-6.7268777,2.899254322052002,6.5253005,0.0,-0.0,0.0
2472.116666670533,0.4733089,-1.0521463,0.13180572,-1.9572309,0.38928786,1.6965007,0.9368364,0.039999943,0.04,-6.7268777,2.899254322052002,6.5253005,0.0,-0.0,0.0
2472.1333333372,0.4733089,-1.0521463,0.13180572,-1.9572309,0.38928786,1.6965007,0.9368364,0.039999943,0.04,-6.7268777,2.899254322052002,6.5253005,0.0,-0.0,0.0
2472.150000003867,0.4733089,-1.0521463,0.13180572,-1.9572309,0.38928786,1.6965007,0.9368364,0.039999943,0.04,-6.7268777,2.899254322052002,6.5253005,0.0,-0.0,0.0
2472.1666666705337,0.4733089,-1.0521463,0.13180572,-1.9572309,0.38928786,1.6965007,0.9368364,0.039999943,0.04,-6.7268777,2.899254322052002,6.5253005,0.0,-0.0,0.0
2472.1833333372006,0.4733089,-1.0521463,0.13180572,-1.9572309,0.38928786,1.6965007,0.9368364,0.039999943,0.04,-6.7268777,2.899254322052002,6.5253005,0.0,-0.0,0.0
2472.2000000038674,0.4733089,-1.0521463,0.13180572,-1.9572309,0.38928786,1.6965007,0.9368364,0.039999943,0.04,-6.7268777,2.899254322052002,6.5253005,0.0,-0.0,0.0
2472.2166666705343,0.4733089,-1.0521463,0.13180572,-1.9572309,0.38928786,1.6965007,0.9368364,0.039999943,0.04,-6.7268777,2.899254322052002,6.5253005,0.0,-0.0,0.0
2472.233333337201,0.4733089,-1.0521463,0.13180572,-1.9572309,0.38928786,1.6965007,0.9368364,0.039999943,0.04,-6.7268777,2.899254322052002,6.5253005,0.0,-0.0,0.0
2472.250000003868,0.4733089,-1.0521463,0.13180572,-1.9572309,0.38928786,1.6965007,0.9368364,0.039999943,0.04,-6.7268777,2.899254322052002,6.5253005,0.0,-0.0,0.0
2472.266666670535,0.4733089,-1.0521463,0.13180572,-1.9572309,0.38928786,1.6965007,0.9368364,0.039999943,0.04,-6.7268777,2.899254322052002,6.5253005,0.0,-0.0,0.0
2472.283333337202,0.4733089,-1.0521463,0.13180572,-1.9572309,0.38928786,1.6965007,0.9368364,0.039999943,0.04,-6.7268777,2.899254322052002,6.5253005,0.0,-0.0,0.0
2472.3000000038687,0.4733089,-1.0521463,0.13180572,-1.9572309,0.38928786,1.6965007,0.9368364,0.039999943,0.04,-6.7268777,2.899254322052002,6.5253005,0.0,-0.0,0.0
2472.3166666705356,0.4733089,-1.0521463,0.13180572,-1.9572309,0.38928786,1.6965007,0.9368364,0.039999943,0.04,-6.7268777,2.899254322052002,6.5253005,0.0,-0.0,0.0
2472.3333333372025,0.4733089,-1.0521463,0.13180572,-1.9572309,0.38928786,1.6965007,0.9368364,0.039999943,0.04,-6.7268777,2.899254322052002,6.5253005,0.0,-0.0,0.0
2472.3500000038694,0.4733089,-1.0521463,0.13180572,-1.9572309,0.38928786,1.6965007,0.9368364,0.039999943,0.04,-6.7268777,2.899254322052002,6.5253005,0.0,-0.0,0.0
2472.3666666705362,0.4733089,-1.0521463,0.13180572,-1.9572309,0.38928786,1.6965007,0.9368364,0.039999943,0.04,-6.7268777,2.899254322052002,6.5253005,0.0,-0.0,0.0
2472.383333337203,0.4733089,-1.0521463,0.13180572,-1.9572309,0.38928786,1.6965007,0.9368364,0.039999943,0.04,-6.7268777,2.899254322052002,6.5253005,0.0,-0.0,0.0
2472.40000000387,0.4733089,-1.0521463,0.13180572,-1.9572309,0.38928786,1.6965007,0.9368364,0.039999943,0.04,-6.7268777,2.899254322052002,6.5253005,0.0,-0.0,0.0
2472.416666670537,0.4733089,-1.0521463,0.13180572,-1.9572309,0.38928786,1.6965007,0.9368364,0.039999943,0.04,-6.7268777,2.899254322052002,6.5253005,0.0,-0.0,0.0
2472.4333333372037,0.4733089,-1.0521463,0.13180572,-1.9572309,0.38928786,1.6965007,0.9368364,0.039999943,0.04,-6.7268777,2.899254322052002,6.5253005,0.0,-0.0,0.0
2472.4500000038706,0.4733089,-1.0521463,0.13180572,-1.9572309,0.38928786,1.6965007,0.9368364,0.039999943,0.04,-6.7268777,2.899254322052002,6.5253005,0.0,-0.0,0.0
2472.4666666705375,0.4733089,-1.0521463,0.13180572,-1.9572309,0.38928786,1.6965007,0.9368364,0.039999943,0.04,-6.7268777,2.899254322052002,6.5253005,0.0,-0.0,0.0
2472.4833333372044,0.4733089,-1.0521463,0.13180572,-1.9572309,0.38928786,1.6965007,0.9368364,0.039999943,0.04,-6.7268777,2.899254322052002,6.5253005,0.0,-0.0,0.0
2472.5000000038713,0.4733089,-1.0521463,0.13180572,-1.9572309,0.38928786,1.6965007,0.9368364,0.039999943,0.04,-6.7268777,2.899254322052002,6.5253005,0.0,-0.0,0.0
2472.516666670538,0.4733089,-1.0521463,0.13180572,-1.9572309,0.38928786,1.6965007,0.9368364,0.039999943,0.04,-6.7268777,2.899254322052002,6.5253005,0.0,-0.0,0.0
2472.533333337205,0.4733089,-1.0521463,0.13180572,-1.9572309,0.38928786,1.6965007,0.9368364,0.039999943,0.04,-6.7268777,2.899254322052002,6.5253005,0.0,-0.0,0.0
2472.550000003872,0.4733089,-1.0521463,0.13180572,-1.9572309,0.38928786,1.6965007,0.9368364,0.039999943,0.04,-6.7268777,2.899254322052002,6.5253005,0.0,-0.0,0.0
2472.566666670539,0.4733089,-1.0521463,0.13180572,-1.9572309,0.38928786,1.6965007,0.9368364,0.039999943,0.04,-6.7268777,2.899254322052002,6.5253005,0.0,-0.0,0.0
2472.5833333372057,0.4733089,-1.0521463,0.13180572,-1.9572309,0.38928786,1.6965007,0.9368364,0.039999943,0.04,-6.7268777,2.899254322052002,6.5253005,0.0,-0.0,0.0
2472.6000000038725,0.4733089,-1.0521463,0.13180572,-1.9572309,0.38928786,1.6965007,0.9368364,0.039999943,0.04,-6.7268777,2.899254322052002,6.5253005,0.0,-0.0,0.0
2472.6166666705394,0.4733089,-1.0521463,0.13180572,-1.9572309,0.38928786,1.6965007,0.9368364,0.039999943,0.04,-6.7268777,2.899254322052002,6.5253005,0.0,-0.0,0.0
2472.6333333372063,0.4733089,-1.0521463,0.13180572,-1.9572309,0.38928786,1.6965007,0.9368364,0.039999943,0.04,-6.7268777,2.899254322052002,6.5253005,0.0,-0.0,0.0
2472.650000003873,0.4733089,-1.0521463,0.13180572,-1.9572309,0.38928786,1.6965007,0.9368364,0.039999943,0.04,-6.7268777,2.899254322052002,6.5253005,0.0,-0.0,0.0
2472.66666667054,0.4733089,-1.0521463,0.13180572,-1.9572309,0.38928786,1.6965007,0.9368364,0.039999943,0.04,-6.7268777,2.899254322052002,6.5253005,0.0,-0.0,0.0
2472.683333337207,0.4733089,-1.0521463,0.13180572,-1.9572309,0.38928786,1.6965007,0.9368364,0.039999943,0.04,-6.7268777,2.899254322052002,6.5253005,0.0,-0.0,0.0
2472.700000003874,0.4733089,-1.0521463,0.13180572,-1.9572309,0.38928786,1.6965007,0.9368364,0.039999943,0.04,-6.7268777,2.899254322052002,6.5253005,0.0,-0.0,0.0
2472.7166666705407,0.4733089,-1.0521463,0.13180572,-1.9572309,0.38928786,1.6965007,0.9368364,0.039999943,0.04,-6.7268777,2.899254322052002,6.5253005,0.0,-0.0,0.0
2472.7333333372076,0.4733089,-1.0521463,0.13180572,-1.9572309,0.38928786,1.6965007,0.9368364,0.039999943,0.04,-6.7268777,2.899254322052002,6.5253005,0.0,-0.0,0.0
2472.7500000038744,0.4733089,-1.0521463,0.13180572,-1.9572309,0.38928786,1.6965007,0.9368364,0.039999943,0.04,-6.7268777,2.899254322052002,6.5253005,0.0,-0.0,0.0
2472.7666666705413,0.4733089,-1.0521463,0.13180572,-1.9572309,0.38928786,1.6965007,0.9368364,0.039999943,0.04,-6.7268777,2.899254322052002,6.5253005,0.0,-0.0,0.0
2472.783333337208,0.4733089,-1.0521463,0.13180572,-1.9572309,0.38928786,1.6965007,0.9368364,0.039999943,0.04,-6.7268777,2.899254322052002,6.5253005,0.0,-0.0,0.0
2472.800000003875,0.4733089,-1.0521463,0.13180572,-1.9572309,0.38928786,1.6965007,0.9368364,0.039999943,0.04,-6.7268777,2.899254322052002,6.5253005,0.0,-0.0,0.0
2472.816666670542,0.4733089,-1.0521463,0.13180572,-1.9572309,0.38928786,1.6965007,0.9368364,0.039999943,0.04,-6.7268777,2.899254322052002,6.5253005,0.0,-0.0,0.0
2472.833333337209,0.4733089,-1.0521463,0.13180572,-1.9572309,0.38928786,1.6965007,0.9368364,0.039999943,0.04,-6.7268777,2.899254322052002,6.5253005,0.0,-0.0,0.0
2472.8500000038757,0.4733089,-1.0521463,0.13180572,-1.9572309,0.38928786,1.6965007,0.9368364,0.039999943,0.04,-6.7268777,2.899254322052002,6.5253005,0.0,-0.0,0.0
2472.8666666705426,0.4733089,-1.0521463,0.13180572,-1.9572309,0.38928786,1.6965007,0.9368364,0.039999943,0.04,-6.7268777,2.899254322052002,6.5253005,0.0,-0.0,0.0
2472.8833333372095,0.4733089,-1.0521463,0.13180572,-1.9572309,0.38928786,1.6965007,0.9368364,0.039999943,0.04,-6.7268777,2.899254322052002,6.5253005,0.0,-0.0,0.0
2472.9000000038764,0.4733089,-1.0521463,0.13180572,-1.9572309,0.38928786,1.6965007,0.9368364,0.039999943,0.04,-6.7268777,2.899254322052002,6.5253005,0.0,-0.0,0.0
2472.9166666705432,0.4733089,-1.0521463,0.13180572,-1.9572309,0.38928786,1.6965007,0.9368364,0.039999943,0.04,-6.7268777,2.899254322052002,6.5253005,0.0,-0.0,0.0
2472.93333333721,0.4733089,-1.0521463,0.13180572,-1.9572309,0.38928786,1.6965007,0.9368364,0.039999943,0.04,-6.7268777,2.899254322052002,6.5253005,0.0,-0.0,0.0
2472.950000003877,0.4733089,-1.0521463,0.13180572,-1.9572309,0.38928786,1.6965007,0.9368364,0.039999943,0.04,-6.7268777,2.899254322052002,6.5253005,0.0,-0.0,0.0
2472.966666670544,0.4733089,-1.0521463,0.13180572,-1.9572309,0.38928786,1.6965007,0.9368364,0.039999943,0.04,-6.7268777,2.899254322052002,6.5253005,0.0,-0.0,0.0
2472.9833333372108,0.4733089,-1.0521463,0.13180572,-1.9572309,0.38928786,1.6965007,0.9368364,0.039999943,0.04,-6.7268777,2.899254322052002,6.5253005,0.0,-0.0,0.0
2473.0000000038776,0.4733089,-1.0521463,0.13180572,-1.9572309,0.38928786,1.6965007,0.9368364,0.039999943,0.04,-6.7268777,2.899254322052002,6.5253005,0.0,-0.0,0.0
2473.0166666705445,0.4733089,-1.0521463,0.13180572,-1.9572309,0.38928786,1.6965007,0.9368364,0.039999943,0.04,-6.7268777,2.899254322052002,6.5253005,0.0,-0.0,0.0
2473.0333333372114,0.4733089,-1.0521463,0.13180572,-1.9572309,0.38928786,1.6965007,0.9368364,0.039999943,0.04,-6.7268777,2.899254322052002,6.5253005,0.0,-0.0,0.0
2473.0500000038783,0.4733089,-1.0521463,0.13180572,-1.9572309,0.38928786,1.6965007,0.9368364,0.039999943,0.04,-6.7268777,2.899254322052002,6.5253005,0.0,-0.0,0.0
2473.066666670545,0.4733089,-1.0521463,0.13180572,-1.9572309,0.38928786,1.6965007,0.9368364,0.039999943,0.04,-6.7268777,2.899254322052002,6.5253005,0.0,-0.0,0.0
2473.083333337212,0.4733089,-1.0521463,0.13180572,-1.9572309,0.38928786,1.6965007,0.9368364,0.039999943,0.04,-6.7268777,2.899254322052002,6.5253005,0.0,-0.0,0.0
2473.100000003879,0.4733089,-1.0521463,0.13180572,-1.9572309,0.38928786,1.6965007,0.9368364,0.039999943,0.04,-6.7268777,2.899254322052002,6.5253005,0.0,-0.0,0.0
2473.116666670546,0.4733089,-1.0521463,0.13180572,-1.9572309,0.38928786,1.6965007,0.9368364,0.039999943,0.04,-6.7268777,2.899254322052002,6.5253005,0.0,-0.0,0.0
2473.1333333372127,0.4733089,-1.0521463,0.13180572,-1.9572309,0.38928786,1.6965007,0.9368364,0.039999943,0.04,-6.7268777,2.899254322052002,6.5253005,0.0,-0.0,0.0
2473.1500000038795,0.4733089,-1.0521463,0.13180572,-1.9572309,0.38928786,1.6965007,0.9368364,0.039999943,0.04,-6.7268777,2.899254322052002,6.5253005,0.0,-0.0,0.0
2473.1666666705464,0.4733089,-1.0521463,0.13180572,-1.9572309,0.38928786,1.6965007,0.9368364,0.039999943,0.04,-6.7268777,2.899254322052002,6.5253005,0.0,-0.0,0.0
2473.1833333372133,0.4733089,-1.0521463,0.13180572,-1.9572309,0.38928786,1.6965007,0.9368364,0.039999943,0.04,-6.7268777,2.899254322052002,6.5253005,0.0,-0.0,0.0
2473.20000000388,0.4733089,-1.0521463,0.13180572,-1.9572309,0.38928786,1.6965007,0.9368364,0.039999943,0.04,-6.7268777,2.899254322052002,6.5253005,0.0,-0.0,0.0
