rsonawane2002/My_IMU/logs_2/traj_302/clean_302.csv
time,j1,j2,j3,j4,j5,j6,j7,gripper1,gripper2,imu_ax,imu_ay,imu_az,imu_gx,imu_gy,imu_gz,quat_x,quat_y,quat_z,quat_w
564.5833333331485,0.00016700293,-0.785875,4.0107683e-05,-2.3551247,9.29385e-05,1.570997,0.786,0.04,0.04,0.0,-0.0,0.0,2.875329272945135e-08,-0.0011641195053377316,4.421952117202833e-08,0.9999995971961153,0.00020320632366974898,0.0008736418299892524,3.263050917662294e-05
564.5999999998152,0.00016700395,-0.78576016,4.010408e-05,-2.3552213,9.2964496e-05,1.5709941,0.786,0.04,0.04,-0.2919984596138958,-1.371788906379145e-05,0.020128413246767174,1.1900775970747024e-06,-0.002237585093137194,-3.652889904864097e-08,0.9999996850578682,0.00020321183626013622,0.0007665025194596645,3.260370622718853e-05
564.6166666664818,0.00016699178,-0.78565425,4.002723e-05,-2.35531,9.293174e-05,1.5709913,0.786,0.04,0.039999995,0.023262853395999983,0.00014480544958771343,-0.001636542783889361,8.82190711345751e-06,-0.0032230962450632956,-6.876961438380098e-08,0.9999997558574888,0.00020324947931848016,0.0006677674557441455,3.257663196988961e-05
564.6333333331485,0.00016694209,-0.7855569,3.9757455e-05,-2.355391,9.2709925e-05,1.5709884,0.786,0.04,0.04,0.022460751290465097,0.0004103428049575695,-0.0015248300851977703,2.91144193412772e-05,-0.00412446596783816,-3.024639813200193e-06,0.9999998122460545,0.0002033737845553826,0.0005771386305103823,3.252630699425651e-05
564.6499999998151,0.00016681747,-0.78546727,3.9122875e-05,-2.3554652,9.215231e-05,1.5709856,0.786,0.04,0.04,0.0202554574213476,0.0007642786904736771,-0.001323541576736531,6.794014992846734e-05,-0.0049407407891865025,-7.971600913681711e-06,0.9999998568094035,0.00020366428485862832,0.0004938113925646381,3.243979085800399e-05
564.6666666664818,0.00016656911,-0.78538483,3.790426e-05,-2.3555322,9.1067806e-05,1.5709827,0.7860019,0.04,0.04,0.02013247087959691,0.0012197195589841556,-0.0009352994293054806,0.00013088156018786784,-0.005675851587891599,-1.3705067737352211e-05,0.9999998912069935,0.00020517659117800556,0.00041766651570705136,3.229936783854577e-05
564.6833333331484,0.00016613798,-0.78530896,3.5840618e-05,-2.355597,8.9217436e-05,1.5709797,0.7860038,0.04,0.04,0.010859460918499764,0.0017721686577020282,-0.0028815870777521013,0.0002139379667797546,-0.00632926981986778,-2.3282936128492742e-05,0.9999999182513105,0.00020707899411435136,0.0003458132238270149,3.207610777841556e-05
564.6999999998151,0.00016545555,-0.78523916,3.2632866e-05,-2.3556552,8.633197e-05,1.5709767,0.78600574,0.04,0.04,0.01806877309453725,0.002401339345690207,-0.0004897576284523808,0.00033123396925370904,-0.006922363586548172,-3.627017884292691e-05,0.9999999382541027,0.00020951137300128853,0.0002803376968156456,3.1741949085875415e-05
564.7166666664817,0.00016444543,-0.78517485,2.7948443e-05,-2.3557098,8.211104e-05,1.5709732,0.78600955,0.04,0.04,0.011952619278932097,0.0031030221845214706,-0.0019758645745548975,0.0004873503459154212,-0.007435041669843288,-5.306074818483552e-05,0.9999999527012643,0.0002135832549119354,0.000219094155274213,3.1263613411937044e-05
564.7333333331484,0.00016302388,-0.7851159,2.142471e-05,-2.3557603,7.620956e-05,1.5709665,0.7860153,0.039999988,0.039999988,0.0118372166143077,0.0038813943801722494,-0.003555083525963454,0.0006773390898467356,-0.007882684859295937,-7.368450681601073e-05,0.9999999624875052,0.0002194646390670256,0.00016100973604202373,3.059616231912875e-05
564.749999999815,0.00016110044,-0.7850619,1.26723e-05,-2.355809,6.8291796e-05,1.5709597,0.7860229,0.039999984,0.03999998,0.008674472530478816,0.004691396397891416,-0.0020549972895356206,0.0009056592454765012,-0.008273446615549341,-9.835953625294527e-05,0.9999999680681781,0.00022733847848109535,0.00010629306550950648,2.9709310206220702e-05
564.7666666664817,0.00015857912,-0.7850123,1.2785006e-06,-2.3558526,5.7983987e-05,1.5709519,0.78603244,0.03999998,0.039999977,0.013083710996619757,0.005563275472377323,-0.0009805639548332579,0.001176327825144644,-0.008600337257886677,-0.00012838293426833497,0.9999999698557701,0.00023739855639615551,5.580841819093724e-05,2.856229760352913e-05
564.7833333331483,0.00015535891,-0.7849667,-1.3190001e-05,-2.355895,4.4896446e-05,1.5709413,0.78604424,0.039999973,0.039999966,0.005535571578518805,0.006477552886488525,-0.0038720765400013235,0.001492925142815047,-0.008855217713179235,-0.0001625154083302109,0.9999999683545885,0.0002500273653173381,6.4861471962222125e-06,2.7112147056144e-05
564.799999999815,0.00015133453,-0.784925,-3.1184456e-05,-2.355937,2.8620745e-05,1.5709283,0.7860595,0.039999966,0.039999958,0.004339751560111793,0.00743098795458136,-0.003768480506449734,0.0018572404361707029,-0.009061038111742421,-0.00020268241791030774,0.9999999634169919,0.00026603303915376686,-4.1852592195418895e-05,2.531397825439483e-05
564.8166666664816,0.00014639681,-0.7848867,-5.3171465e-05,-2.3559747,8.7363405e-06,1.5709137,0.7860779,0.03999997,0.03999996,0.010586991046834804,0.008415722706358767,-0.0012867466909982639,0.00226682391241452,-0.009219694011019025,-0.000248204802189722,0.9999999551838347,0.0002854860257144166,-8.7151467404965e-05,2.31231421550419e-05
564.8333333331483,0.00014043342,-0.7848517,-7.963102e-05,-2.3560104,-1.51891945e-05,1.5708954,0.78610003,0.039999973,0.03999996,0.005667932984754209,0.009428928317928601,-0.003641207685967096,0.0027267725243128533,-0.009307563585088104,-0.00029838858312629325,0.9999999434172949,0.00030888030072821705,-0.0001316755156218847,2.0492081761389095e-05
564.8499999998149,0.00013332938,-0.7848196,-0.00011105427,-2.356046,-4.3600154e-05,1.5708734,0.7861262,0.039999977,0.039999966,0.0024932018505730014,0.01046654743934337,-0.0044326659794702294,0.003237136148440444,-0.009342428195755741,-0.00035508558566212274,0.9999999276149688,0.00033662566733219467,-0.00017649770622497085,1.7371732418465283e-05
564.8666666664816,0.00012496737,-0.78479034,-0.00014794181,-2.3560812,-7.694703e-05,1.570848,0.7861572,0.039999977,0.03999996,0.0024464364991816367,0.011522259247382918,-0.0039766857776735165,0.003799238956214862,-0.009333396669249708,-0.00041668987764450767,0.9999999071737943,0.000369345030955457,-0.0002214691511853193,1.3713713411937406e-05
564.8833333331482,0.00011522836,-0.78476363,-0.00019080157,-2.3561165,-0.00011568884,1.5708189,0.78619283,0.039999977,0.03999996,0.0016643668397486877,0.012594649634708896,-0.004216528159628474,0.004412115086431974,-0.009274491717853713,-0.00048501369640974656,0.9999998814077592,0.00040718786946445295,-0.0002670072399115425,9.46784966388763e-06
564.8999999998149,0.000103991755,-0.7847393,-0.00024014772,-2.3561518,-0.00016028815,1.5707856,0.7862339,0.039999977,0.039999958,0.0013154311651941697,0.013678550242211176,-0.004472603193605984,0.005079092798184033,-0.009169104637816167,-0.0005584190648219504,0.9999998492642856,0.00045078348281831946,-0.00031344001184378616,4.584359584754266e-06
564.9166666664815,9.113592e-05,-0.78471726,-0.0002964989,-2.356187,-0.00021121287,1.5707481,0.78628093,0.03999998,0.03999996,0.001145343478259342,0.014772545331966343,-0.0044965382947070864,0.005799293506571402,-0.00901644281976776,-0.0006386784996203249,0.9999998095575736,0.0005006440396203648,-0.00036088694450118564,-9.875259002040333e-07
564.9333333331482,7.653843e-05,-0.7846974,-0.00036037705,-2.3562229,-0.0002689337,1.570706,0.7863342,0.03999998,0.039999958,0.00019311219103812505,0.015872819113975437,-0.004858133154361788,0.006572378426648397,-0.008816188748364723,-0.0007242056512245217,0.9999997608157757,0.0005571639705682527,-0.0004097358027953792,-7.298860160519323e-06
564.9499999998148,6.007635e-05,-0.7846795,-0.00043230617,-2.3562596,-0.000333924,1.5706587,0.7863942,0.039999984,0.039999966,-0.0011734925583262168,0.016977477978035546,-0.005441507672454549,0.0073992181370818744,-0.008569399321481248,-0.000818300382018224,0.999999701063996,0.0006207982681477997,-0.00046073205706213935,-1.4401400943411362e-05
564.9666666664815,4.162647e-05,-0.7846634,-0.0005128111,-2.3562987,-0.00040665583,1.5706053,0.78646135,0.039999988,0.03999998,-0.003934295431040624,0.018080947181673006,-0.006678693920902923,0.008280067948990012,-0.00827962575690275,-0.0009202790850170784,0.999999627643249,0.0006920616728462559,-0.0005150384969585427,-2.2346160406508737e-05
564.9833333331482,2.1065582e-05,-0.7846489,-0.00060241687,-2.3563406,-0.00048759955,1.5705464,0.78653616,0.039999984,0.03999999,-0.004820526857685081,0.01918305375768593,-0.0063211696313292265,0.009214126053030798,-0.007956048712686209,-0.0010272688312142815,0.9999995379760953,0.0007714093510612697,-0.000572715325753782,-3.118276046257737e-05
564.9999999998148,-1.7292464e-06,-0.7846361,-0.00070164714,-2.356383,-0.000577233,1.5704812,0.78661895,0.039999988,0.03999997,-0.0009701780229187662,0.020290727309805173,-0.005912811413688601,0.010201507063345916,-0.007598081726034279,-0.0011329130047277982,0.9999994296728435,0.000859266729119797,-0.0006329585903224003,-4.096460523029241e-05
565.0166666664815,-2.6880394e-05,-0.7846249,-0.0008110237,-2.3564262,-0.0006760209,1.5704093,0.78671,0.039999995,0.03999997,-0.0015562698042259626,0.02138347745073683,-0.006262134862455859,0.011242684097237134,-0.007194938946467812,-0.0012470439889243224,0.9999992993910113,0.0009560279938953342,-0.0006960969538012361,-5.173965978918913e-05
565.0333333331481,-5.4509524e-05,-0.7846151,-0.0009310658,-2.3564715,-0.00078443484,1.5703304,0.78681004,0.04,0.039999984,-0.0042990137651743865,0.022474879363019323,-0.007082395648549955,0.012337199704050688,-0.006747603941081285,-0.0013732290019766464,0.9999991426046891,0.0010622644083357633,-0.0007631148564313622,-6.356043848598857e-05
565.0499999998148,-8.473788e-05,-0.7846066,-0.0010622899,-2.3565211,-0.00090293394,1.5702443,0.7869194,0.039999995,0.039999995,-0.008181128102768831,0.023550341493496843,-0.00804934050293582,0.013484663424109243,-0.006263692596275292,-0.001504144893958696,0.9999989539221444,0.0011784261838640201,-0.0008352353116600242,-7.647431073295103e-05
565.0666666664814,-0.000117685486,-0.7845994,-0.0012052068,-2.3565717,-0.0010319919,1.5701505,0.7870385,0.04,0.039999984,-0.00257188565664368,0.02463580214427198,-0.00707327803748381,0.014683863383314174,-0.005751330965148394,-0.0016366785813105161,0.9999987294884134,0.0013049331965414124,-0.0009110290904275878,-9.053677644105051e-05
565.0833333331481,-0.00015347134,-0.7845935,-0.0013603254,-2.356625,-0.0011720557,1.5700488,0.7871677,0.039999988,0.039999958,-0.005984161924588172,0.025689014730811907,-0.0079704119882118,0.015935237935783466,-0.005197752577550285,-0.001774924269354614,0.999998462780549,0.0014422317914952803,-0.00099157053815976,-0.00010579161841079197
565.0999999998147,-0.00019221353,-0.7845886,-0.001528147,-2.3566828,-0.0013235759,1.569939,0.7873076,0.039999988,0.03999994,-0.008821647415158118,0.02673338079782657,-0.00864385152454794,0.017237882034579315,-0.004607310895595611,-0.0019153638562600488,0.9999981462850567,0.001590824622158386,-0.0010778447752853022,-0.00012228700804064555
565.1166666664814,-0.00023402795,-0.784585,-0.0017091683,-2.3567414,-0.0014870072,1.5698204,0.7874585,0.039999995,0.03999995,-0.002923297916934686,0.027782229723048116,-0.007930089788232841,0.018590920950633687,-0.003991063957316892,-0.002069491711840856,0.9999977745183769,0.0017510950514589617,-0.001168333748578314,-0.00014007378774703603
565.133333333148,-0.00027902983,-0.78458244,-0.0019038798,-2.356806,-0.0016627893,1.569693,0.7876207,0.04,0.039999966,-0.011824462859255647,0.02878995894546755,-0.010009329154714308,0.01999369678716447,-0.003330854941189289,-0.002231007180099019,0.9999973364144255,0.0019234781664562107,-0.0012657217437658113,-0.00015919882271989518
565.1499999998147,-0.00032733282,-0.78458095,-0.002112766,-2.3568723,-0.001851357,1.5695561,0.7877948,0.04,0.03999996,-0.004665838262152278,0.02980832438056087,-0.00857965795508786,0.02144600581072577,-0.002650695107449249,-0.0023939534716146942,0.9999968251889542,0.0021084420595310505,-0.0013681335300718728,-0.00017970736704821027
565.1666666664813,-0.00037904878,-0.78458035,-0.0023363044,-2.3569446,-0.0020531397,1.5694098,0.78798103,0.04,0.03999998,-0.012155116523304699,0.030784982098973138,-0.0104445218052307,0.02294661853354065,-0.0019305308069089734,-0.0025664766749718005,0.9999962281371494,0.0023063255438056356,-0.0014778068614038626,-0.00020164533375413799
565.183333333148,-0.000434288,-0.78458077,-0.002574964,-2.3570185,-0.0022685586,1.5692533,0.7881798,0.04,0.039999995,-0.005008026895381157,0.03177024477271244,-0.009230978091712139,0.024495714474354335,-0.001189925427576722,-0.0027413469978458706,0.9999955367798615,0.002517590070778016,-0.0015929564355090966,-0.00022505640826829282
565.1999999998146,-0.00049315864,-0.78458196,-0.0028292087,-2.3570986,-0.0024980437,1.5690868,0.7883916,0.04,0.039999988,-0.012892881812565093,0.032720511424838526,-0.01099987198287522,0.02609155016401796,-0.00041149229778777476,-0.0029223496838845855,0.9999947355862114,0.002742655940369141,-0.0017158503396275803,-0.0002499917351406703
565.2166666664813,-0.00055576744,-0.78458416,-0.003099493,-2.35718,-0.0027419887,1.5689099,0.7886168,0.04,0.039999984,-0.0046577841449790824,0.0336663096932803,-0.009287459442508528,0.02773382615524848,0.000387301260042704,-0.003107153614370136,0.9999938152724271,0.002981948840580076,-0.001844167419099995,-0.00027648605278863083
565.2333333331479,-0.000622219,-0.784587,-0.0033862642,-2.3572686,-0.0030008066,1.5687224,0.7888556,0.04,0.03999997,-0.014442634486755423,0.03456738953522123,-0.01178468839713176,0.029421152409686013,0.0012284093569299628,-0.003296362758827236,0.9999927563357184,0.0032357896318569892,-0.0019809512511162236,-0.0003045877399742466
565.2499999998146,-0.0006926167,-0.7845909,-0.003689962,-2.3573592,-0.0032748843,1.5685238,0.7891086,0.04,0.039999936,-0.006116311971493538,0.03548619643494261,-0.010234308147549775,0.03115350267677178,0.002084662541068356,-0.003484793087665538,0.9999915474320751,0.003504627487829902,-0.002123881319978827,-0.00033433323826737385
565.2666666664812,-0.00076706085,-0.78459555,-0.004011016,-2.357456,-0.0035646157,1.5683137,0.789376,0.04,0.03999995,-0.013379437988314535,0.03634560028966987,-0.01225085814773319,0.03292882486274294,0.002979121386312962,-0.003689194683607058,0.9999901669593533,0.003788834879286091,-0.0022752866021900227,-0.00036576733067787394
565.2833333331479,-0.0008456504,-0.7846012,-0.0043498487,-2.3575597,-0.0038703787,1.568092,0.7896582,0.04,0.03999996,-0.014415164018255489,0.037196204763503826,-0.012943351921057555,0.03474700929129532,0.003892146118991569,-0.0038950880391901924,0.999988595624608,0.0040887251335701615,-0.0024355295139449414,-0.00039892792990030914
565.2999999998145,-0.00092848233,-0.78460765,-0.004706873,-2.3576653,-0.004192546,1.5678585,0.7899555,0.04,0.039999954,-0.00623520469276162,0.038068406998831815,-0.010691977806520647,0.03660729164946982,0.0048229504319876205,-0.0041042773690908845,0.9999868191206859,0.004404706434485483,-0.0026022906284619025,-0.0004338543577394539
565.3166666664812,-0.0010156512,-0.7846147,-0.005082494,-2.3577774,-0.0045314827,1.5676126,0.7902683,0.04,0.039999936,-0.014278662461597591,0.038853599299986524,-0.013062939748298419,0.038508479575428814,0.0057920738133190285,-0.004315614691775991,0.9999848098181244,0.004737136634013036,-0.0027781682575369403,-0.00047058543645092687
565.3333333331478,-0.0011072493,-0.7846226,-0.0054771085,-2.3578963,-0.004887544,1.5673546,0.79059684,0.04,0.039999966,-0.01477204108375485,0.039642570969145724,-0.013516951907166508,0.04044901409324253,0.006778604211357588,-0.004540766900113444,0.999982544474269,0.005086315939063786,-0.002963257766419266,-0.0005091565028536307
565.3499999998145,-0.001203368,-0.7846311,-0.005891099,-2.3580177,-0.0052610813,1.5670837,0.7909416,0.04,0.03999994,-0.007649758892736003,0.04045275959145087,-0.011692626531201178,0.04242947224895316,0.007783449089019929,-0.00476139007231173,0.9999800036871128,0.005452669395699357,-0.0031557177515870167,-0.0005496070007596685
565.3666666664811,-0.0013040955,-0.78464055,-0.006324849,-2.3581457,-0.005652428,1.5667999,0.79130304,0.04,0.03999993,-0.014491506644276342,0.04116725226739823,-0.014163635174302414,0.04444727502573865,0.008822057511696752,-0.004987884167391671,0.9999771548923057,0.00583660139796463,-0.0033575814880027416,-0.0005919663523540943
565.3833333331478,-0.0014095174,-0.7846507,-0.0067787226,-2.3582804,-0.0060619228,1.566503,0.79168093,0.04,0.039999943,-0.014901845252968116,0.04189262445848135,-0.014048457974125128,0.046500725691729985,0.009878434901288848,-0.005222170859846675,0.9999739709219114,0.006238158651752813,-0.003569035163737489,-0.0006362729757873482
565.3999999998144,-0.0015197179,-0.7846616,-0.0072530825,-2.358422,-0.006489885,1.5661926,0.79207593,0.04,0.03999993,-0.015377689975992759,0.04259263480789685,-0.014760093663901408,0.04859164622417339,0.010953972073880769,-0.005458122938366269,0.999970419516898,0.006657833086641374,-0.003790443991073618,-0.0006825570598799534
565.4166666664811,-0.001634779,-0.78467315,-0.007748276,-2.3585663,-0.006936631,1.5658689,0.79248834,0.04,0.039999932,-0.008182714130078317,0.043325628490817406,-0.012659318889762794,0.05071734674845692,0.012043714494967786,-0.0056990827825624014,0.9999664775156601,0.00709594454351869,-0.0040196107946668886,-0.0007308522541664295
565.4333333331477,-0.0017547809,-0.7846856,-0.008264644,-2.3587177,-0.007402467,1.5655313,0.79291826,0.04,0.039999925,-0.015764973710674646,0.04393061456543744,-0.0153095199865394,0.052876550829458406,0.013169422940953962,-0.005943812058497797,0.99996210332298,0.007552694349456185,-0.004258928402867831,-0.0007811880727357485
565.4499999998144,-0.0018798005,-0.78469867,-0.00880252,-2.3588758,-0.007887691,1.5651793,0.79336613,0.04,0.03999994,-0.015453820097399706,0.04457085453745402,-0.015390194590336748,0.0550692227971649,0.014311495646793428,-0.006194952288261793,0.9999572601706226,0.00802844221897991,-0.004508554902533686,-0.0008335947990717733
565.466666666481,-0.0020099126,-0.78471273,-0.009362224,-2.359041,-0.008392596,1.5648131,0.7938322,0.04,0.039999925,-0.01582416128111941,0.045172589596475035,-0.015954378571270134,0.05729392259511597,0.015468939604255265,-0.0064457368190578256,0.9999519104521559,0.008523448982871716,-0.004768529718871763,-0.0008881018184927267
565.4833333331477,-0.0021451917,-0.7847273,-0.009944067,-2.359212,-0.008917461,1.5644326,0.7943167,0.04,0.03999992,-0.01401533649536546,0.045784066908868826,-0.015121714525356822,0.059549484224771215,0.016641664637897065,-0.006700091435818498,0.9999460166560912,0.009038009062303114,-0.005038415952147446,-0.0009447383229927468
565.4999999998143,-0.0022857075,-0.78474265,-0.010548354,-2.3593884,-0.009462556,1.5640373,0.7948199,0.04,0.039999917,-0.013391760034697775,0.04634684161838702,-0.015693802253946565,0.06183470076917667,0.01783602141479453,-0.00695882894811117,0.9999395382772333,0.009572348017887368,-0.00531816469615279,-0.0010035275794975974
565.516666666481,-0.0024315296,-0.7847586,-0.011175379,-2.359571,-0.01002815,1.5636274,0.79534197,0.04,0.039999932,-0.014854190753821328,0.04688604914134982,-0.015928796837738624,0.064148712730457,0.01905183454827313,-0.007222543537790088,0.9999324299990937,0.010126713339705037,-0.005608204360280307,-0.001064498424723635
565.5333333331477,-0.0025827235,-0.78477526,-0.011825427,-2.3597605,-0.010614497,1.5632023,0.79588324,0.04,0.039999925,-0.016173288069598613,0.04738551131751138,-0.01678360576098381,0.06649111345542295,0.020287363265738434,-0.007486143953111809,0.9999246428032584,0.010701376154287956,-0.005909112854262477,-0.0011276739139668536
565.5499999998143,-0.002739354,-0.7847928,-0.012498773,-2.3599572,-0.011221839,1.562762,0.7964438,0.04,0.039999902,-0.016342700655558318,0.04786867297850092,-0.017170038605907045,0.0688601259054967,0.021537383061389866,-0.007752018989279311,0.9999161293312582,0.011296514882913502,-0.0062209024912918635,-0.0011930745528581357
565.566666666481,-0.0029014833,-0.78481096,-0.0131956795,-2.3601615,-0.011850422,1.5623064,0.7970241,0.04,0.039999906,-0.01751290840426023,0.04832806153325375,-0.017585595318547753,0.0712551027141417,0.022804045278353155,-0.008025315914660505,0.9999068356838353,0.011912420443296434,-0.006544062802554858,-0.0012607275510105463
565.5833333331476,-0.003069171,-0.7848299,-0.013916402,-2.3603725,-0.012500479,1.5618353,0.7976241,0.04,0.03999993,-0.015836273042113547,0.04878962253096024,-0.017462031256765265,0.07367472142373499,0.02408083694635662,-0.008303070499957672,0.9998967129561835,0.012549266809555754,-0.006878130392340967,-0.001330655578270115
565.5999999998143,-0.003242475,-0.78484946,-0.01466119,-2.3605902,-0.013172226,1.5613483,0.7982442,0.04,0.039999966,-0.016173994387402857,0.04920782953688578,-0.017794421362604673,0.07611826614591313,0.02537481850493091,-0.008588551872675668,0.9998857046515927,0.013207280021976306,-0.007223387379624545,-0.0014028765352237782
565.6166666664809,-0.003421449,-0.78486985,-0.015430285,-2.3608146,-0.013865882,1.5608457,0.79888445,0.04,0.039999947,-0.015873053300952122,0.049612602138494194,-0.017918466455202342,0.07858523058614472,0.02668563574494816,-0.008866070703276094,0.9998737558849787,0.013886650701239822,-0.007579609868914915,-0.001477409558218289
565.6333333331476,-0.0036061492,-0.784891,-0.016223907,-2.361046,-0.014581644,1.5603267,0.79954517,0.04,0.039999947,-0.01703317458559006,0.04995535939435955,-0.018907183936289762,0.08107364234784468,0.02801229555864232,-0.009149240059177888,0.9998608021710561,0.014587590320133355,-0.00794749825833836,-0.0015542721569574353
565.6499999998142,-0.003796626,-0.7849129,-0.017042285,-2.3612845,-0.015319717,1.5597916,0.80022645,0.04,0.03999994,-0.016621738112898576,0.05032624752544165,-0.01868071420731976,0.08358286983868757,0.029351855205855888,-0.009434141252227843,0.9998467844094883,0.015310252807868708,-0.00832680003395421,-0.001633482831215183
565.6666666664809,-0.0039929277,-0.7849353,-0.017885616,-2.36153,-0.016080286,1.5592402,0.8009283,0.04,0.03999994,-0.017292593244744303,0.05062723777878794,-0.018971497597086717,0.08611196829765463,0.03070560333838536,-0.009722174683559598,0.9998316381086811,0.01605471811910895,-0.00871779967299891,-0.00171506031636903
565.6833333331475,-0.0041951006,-0.7849586,-0.018754106,-2.361783,-0.016863536,1.5586723,0.8016511,0.04,0.03999996,-0.017449882701803254,0.05092240135158993,-0.019745686164540643,0.08866100154645754,0.032072737977341045,-0.010013152825899159,0.9998152940739949,0.016821275816124037,-0.009120632943462758,-0.0017990192771159055
565.6999999998142,-0.0044031907,-0.7849826,-0.01964795,-2.3620434,-0.017669633,1.5580881,0.8023954,0.04,0.03999997,-0.017611703289732716,0.05120206333907029,-0.019672668931280946,0.09122765359303399,0.03345283166821422,-0.010308744291593251,0.9997976810636799,0.017610241638612353,-0.009535287063911073,-0.0018853725696649963
565.7166666664808,-0.0046172403,-0.78500724,-0.020567328,-2.3623114,-0.018498752,1.557487,0.8031606,0.04,0.03999998,-0.018327693809805368,0.05144305824872353,-0.020286981822037475,0.09380946002841314,0.03484518078461657,-0.010602065999722014,0.9997787299491256,0.01842141519065232,-0.0099621977175858,-0.001974137868203378
565.7333333331475,-0.004837292,-0.7850328,-0.021512417,-2.362587,-0.019351033,1.5568693,0.8039472,0.04,0.03999996,-0.017941518293840275,0.05166538699747855,-0.020613297295279942,0.09640850978022632,0.03624788955479616,-0.010895812491230894,0.9997583666271995,0.019255103619207938,-0.010401144677408575,-0.0020653166651413563
565.7499999998141,-0.0050633796,-0.785059,-0.022483377,-2.3628702,-0.020226633,1.5562346,0.8047555,0.04,0.03999999,-0.01844507020560826,0.051859843868228006,-0.020820547993483096,0.09902252463263325,0.03766226039593279,-0.011196756729498651,0.9997365105511582,0.020111512496374644,-0.010852444719430124,-0.0021589302243986957
565.7666666664808,-0.005295542,-0.7850859,-0.023480365,-2.3631608,-0.021125687,1.5555829,0.80558544,0.04,0.04,-0.017926629016629114,0.052046884500179386,-0.02113010130027071,0.10164974394070081,0.039086350642771224,-0.01149627490936133,0.9997130866251654,0.020990672495405028,-0.011315968629655733,-0.002254983935170185
565.7833333331474,-0.005533814,-0.78511375,-0.02450353,-2.363459,-0.022048324,1.554914,0.8064372,0.04,0.04,-0.018277850632619774,0.052189103023899536,-0.021634283578397806,0.1042898185167839,0.04052176142935268,-0.011797297182333154,0.9996880123004657,0.02189272283081672,-0.011791855646527438,-0.00235348469478539
565.7999999998141,-0.005778228,-0.7851422,-0.025553005,-2.3637648,-0.022994656,1.5542278,0.80731076,0.04,0.04,-0.0182813389730363,0.05231726229887948,-0.02169447469109187,0.10694181105912198,0.04196739090947575,-0.012098170409639057,0.9996612046445461,0.022817711579332607,-0.012280215947183365,-0.0024544374482976137
565.8166666664807,-0.006028814,-0.7851715,-0.02662892,-2.3640783,-0.023964826,1.5535244,0.8082063,0.04,0.04,-0.018804674657024734,0.05242289835875394,-0.022332029754434934,0.1096051836730183,0.04342333804420651,-0.012402057333586444,0.9996325763585149,0.023765764787035733,-0.012781160024011556,-0.002557861482927877
565.8333333331474,-0.0062855985,-0.7852014,-0.027731406,-2.3643994,-0.024958933,1.552804,0.80912393,0.04,0.04,-0.018732986957248343,0.052523986833932085,-0.02201450524235149,0.11227857787430628,0.044887407365495624,-0.012707926130849562,0.9996020415272856,0.024736952631338835,-0.013294590507815023,-0.0026637590407560595
565.849999999814,-0.006548609,-0.78523207,-0.028860562,-2.3647282,-0.025977071,1.5520662,0.81006384,0.04,0.04,-0.01859808869428825,0.05256079070395242,-0.02280058179380262,0.11496158427217013,0.046361755358136976,-0.013014282138880062,0.9995695071248283,0.02573142419762431,-0.013820618810348873,-0.0027721346808287396
565.8666666664807,-0.00681787,-0.78526354,-0.030016497,-2.3650649,-0.027019331,1.5513107,0.81102604,0.04,0.04,-0.01921766765442534,0.05258187220712057,-0.023420125086470733,0.11765184676006024,0.047846815310117564,-0.013320072589379402,0.9995348770206111,0.02674920568643731,-0.014359595592626097,-0.0028829895859449296
565.8833333331473,-0.0070934044,-0.7852957,-0.031199299,-2.3654096,-0.028085822,1.5505373,0.81201047,0.04,0.04,-0.019730250583327447,0.052593025263723836,-0.023777516225953477,0.12034948100004769,0.049338234591690816,-0.013627897921635448,0.9994980557394263,0.027790284487470195,-0.014911693225744196,-0.002996342162263436
565.899999999814,-0.0073752287,-0.78532857,-0.032409053,-2.365762,-0.029176598,1.5497468,0.8130175,0.04,0.04,-0.018902702937517724,0.05259170840486438,-0.02344504061650987,0.12305407191995443,0.050834450528428554,-0.01393571932604798,0.9994589484838812,0.028854859239394855,-0.01547648808831819,-0.0031121873692619376
565.9166666664806,-0.0076633645,-0.7853623,-0.033645853,-2.366122,-0.030291732,1.5489384,0.81404686,0.04,0.04,-0.018835892773516605,0.05257128262941835,-0.02422418958805128,0.12576295087542688,0.05234051368481533,-0.014249103867008367,0.9994174581631792,0.02994283161636778,-0.016054124249568532,-0.003230518228239654
565.9333333331473,-0.007957828,-0.7853968,-0.03490977,-2.36649,-0.03143128,1.5481123,0.81509894,0.04,0.04,-0.019416145048145594,0.0524978997227421,-0.02456653303384293,0.12847743887850527,0.05385595289075397,-0.014556364208143928,0.9993734758294989,0.031054385085455778,-0.016644804695155436,-0.0033513358665152627
565.9499999998139,-0.008258631,-0.785432,-0.03620084,-2.3668654,-0.03259532,1.5472682,0.81617343,0.04,0.04,-0.01926477462734777,0.052414212542781224,-0.024869889300549453,0.13119416389840732,0.05537653539262481,-0.01486734364282831,0.9993269017922042,0.032189367554907346,-0.017248614577918816,-0.003474660552034235
565.9666666664806,-0.008565791,-0.78546804,-0.03751914,-2.3672488,-0.03378387,1.5464063,0.8172706,0.04,0.04,-0.01939005381677017,0.05230612657369377,-0.02523821575808327,0.13391481573708658,0.05690339490385395,-0.015176155625620712,0.9992776287749213,0.033347902522631,-0.017865460169151633,-0.003600466671977638
565.9833333331472,-0.008879312,-0.78550476,-0.038864702,-2.3676403,-0.03499701,1.5455269,0.81839055,0.04,0.04,-0.020029756315542713,0.0521860210324937,-0.02535411614057459,0.13663698899863194,0.058437033660478505,-0.015486788210642068,0.9992255440810791,0.03453006298282838,-0.01849548627344093,-0.003728779127600633
565.9999999998139,-0.009199209,-0.78554225,-0.040237576,-2.3680396,-0.036234744,1.5446298,0.8195331,0.04,0.04,-0.019589714446799356,0.05204534440532149,-0.025713288838558057,0.13935944857604196,0.05997616692861102,-0.01579584408038382,0.9991705437128751,0.035735727100757904,-0.019138600772046026,-0.0038595784207737945
566.0166666664805,-0.0095254835,-0.78558064,-0.041637786,-2.3684475,-0.03749711,1.5437145,0.82069844,0.04,0.04,-0.02088204416763606,0.051808495425093026,-0.02688951245486404,0.14208232877835006,0.06152096402110802,-0.016105851903517023,0.9991125013090062,0.036964954553005566,-0.019795425937222933,-0.003992865502242546
566.0333333331472,-0.009858145,-0.78561956,-0.043065347,-2.368863,-0.038784128,1.5427814,0.8218866,0.04,0.04,-0.019620832882627504,0.051683958435547184,-0.026302420313562003,0.14480413373005818,0.06306823005294553,-0.016416577819296237,0.9990513096407617,0.03821776814660018,-0.02046551223986614,-0.004128645265908026
566.0499999998138,-0.010197196,-0.7856596,-0.044520274,-2.3692863,-0.04009582,1.5418302,0.82309747,0.04,0.04,-0.019067399761696358,0.05147456980997139,-0.02704361144423295,0.14752401999898684,0.0646198731392347,-0.016726099575955986,0.998986859463662,0.03949408473316071,-0.02114864929692146,-0.0042669102328921306
566.0666666664805,-0.010542634,-0.7857001,-0.046002567,-2.3697178,-0.041432165,1.5408615,0.8243311,0.04,0.04,-0.020949234835665465,0.051169725518486475,-0.026974779274469007,0.1502411788859857,0.06617886254382918,-0.01703538169819674,0.9989190220575694,0.04079388482253356,-0.02184534114958981,-0.004407652741891842
566.0833333331472,-0.010894462,-0.78574145,-0.04751224,-2.370157,-0.042793177,1.5398747,0.8255875,0.04,0.04,-0.01946600812641197,0.05098084091696431,-0.027683185021332157,0.1529551874303925,0.06773798119134929,-0.01734344625671367,0.9988476822687651,0.04211715639399862,-0.02255531861195306,-0.004550864303939423
566.0999999998138,-0.011252675,-0.78578365,-0.049049288,-2.3706038,-0.044178847,1.5388703,0.8268667,0.04,0.04,-0.019416181005382782,0.050719341783254934,-0.02754318166562353,0.1556644746886596,0.06930358897238842,-0.017652500886712552,0.9987727240242112,0.04346385931075174,-0.023278342078900373,-0.004696537994055473
566.1166666664805,-0.01161727,-0.78582627,-0.050613657,-2.3710587,-0.04558917,1.5378479,0.8281686,0.04,0.04,-0.02087816007578791,0.050332342282222164,-0.02834752933229545,0.1583684944657836,0.0708747875133192,-0.01796011855847407,0.9986940079275419,0.044833898033999287,-0.02401518456490423,-0.004844690600375175
566.1333333331471,-0.011988247,-0.78586996,-0.05220536,-2.3715217,-0.04702409,1.5368074,0.8294932,0.04,0.04,-0.020196981586773077,0.050029047326409504,-0.02896010390496251,0.16106671033291536,0.0724468204465117,-0.018266088951342657,0.9986114145480365,0.046227271037087785,-0.024765488248221435,-0.004995271630318402
566.1499999998138,-0.012365591,-0.7859143,-0.053824358,-2.3719926,-0.048483595,1.535749,0.8308406,0.04,0.04,-0.0202978751730587,0.04970042476595826,-0.0289791164503006,0.1637579612285266,0.07401934451038097,-0.018572335540004287,0.9985248148324816,0.0476438916056939,-0.02552937167391287,-0.005148294703912104
566.1666666664804,-0.012749293,-0.7859593,-0.055470597,-2.3724713,-0.049967635,1.534673,0.83221066,0.04,0.04,-0.020216946584428186,0.04932857515266981,-0.02897410698545766,0.16644131747921032,0.07559400463382651,-0.018876231283731504,0.9984340851197467,0.04908369773121924,-0.026306625741267013,-0.0053037468108511525
566.1833333331471,-0.013139346,-0.7860053,-0.057144046,-2.3729582,-0.051476188,1.5335792,0.8336032,0.04,0.04,-0.020351472039403795,0.048942996865608546,-0.029821780108951756,0.169116335549531,0.07717107872965738,-0.019180727131322475,0.9983390983141477,0.050546510211831784,-0.027097340453957435,-0.005461613591447034
566.1999999998137,-0.013535737,-0.7860518,-0.05884463,-2.3734527,-0.053009193,1.532468,0.8350183,0.04,0.04,-0.020115614849225416,0.0485615128877015,-0.029489703421603508,0.17178242925179832,0.07875014128993514,-0.019483321336958737,0.9982397224104661,0.05203229406835549,-0.027901455746234042,-0.005621898531715646
566.2166666664804,-0.013938449,-0.7860992,-0.0605723,-2.3739552,-0.054566626,1.5313389,0.83645594,0.04,0.04,-0.020580867852548757,0.04810982137123665,-0.030488335583167547,0.174438506849048,0.08033214064098373,-0.01978542109850294,0.9981358174782234,0.053541000637796474,-0.028719150321722082,-0.005784593553623406
566.233333333147,-0.0143474685,-0.7861473,-0.06232701,-2.3744657,-0.056148387,1.5301921,0.83791614,0.04,0.04,-0.02042709169873813,0.047682616760599816,-0.030648135740474203,0.17708375317537656,0.08191292190159782,-0.02008635076272372,0.9980272489057855,0.05507253683211829,-0.029550424794842604,-0.005949665777885265
566.2499999998137,-0.014762779,-0.786196,-0.06410866,-2.3749838,-0.057754427,1.5290279,0.8393986,0.04,0.04,-0.0201090760763023,0.04724855634813674,-0.030566996242953337,0.17971696361902706,0.08349360913156208,-0.02038528033555008,0.9979138925768033,0.056626703120799524,-0.030395071372772028,-0.006117117959069814
566.2666666664803,-0.015184358,-0.7862457,-0.06591714,-2.3755102,-0.05938466,1.527846,0.840904,0.04,0.04,-0.020994664460127765,0.046614685845500214,-0.03177070136053395,0.18233801341644504,0.0850764819457288,-0.02068267442495919,0.9977955842993517,0.058203680740747804,-0.03125344491219096,-0.006286945368385438
566.283333333147,-0.01561219,-0.7862962,-0.06775241,-2.3760448,-0.06103904,1.5266464,0.8424313,0.04,0.04,-0.0208706747182541,0.04623249442556321,-0.03182071552814136,0.18494350650580105,0.08665611408004444,-0.02098008876946142,0.9976722107770424,0.05980293066643252,-0.032125519782165816,-0.006459125767474852
566.2999999998136,-0.016046245,-0.7863471,-0.06961437,-2.3765867,-0.06271744,1.5254296,0.84398067,0.04,0.04,-0.01998367775437604,0.0457523147752964,-0.031292478342548335,0.18753688471757418,0.08823300707833384,-0.0212739202042158,0.9975436402824784,0.06142442935200698,-0.03301090874787868,-0.0066336350819808714
566.3166666664803,-0.016486505,-0.78639907,-0.07150291,-2.377136,-0.064419776,1.5241954,0.8455522,0.04,0.04,-0.019401383470984968,0.04520785240855474,-0.03218711164578725,0.19011594453913372,0.08981155407375958,-0.02156751746755302,0.9974097339709573,0.06306814204240208,-0.03390943314964173,-0.006810461274638446
566.3333333331469,-0.016932948,-0.7864515,-0.07341792,-2.3776932,-0.06614593,1.5229437,0.8471458,0.04,0.04,-0.020895832594436392,0.044572862736810825,-0.032576145306273396,0.19267922979079105,0.09139112849217987,-0.02185854299107086,0.9972703327741042,0.06473389386535819,-0.03482171831750608,-0.006989584184510275
566.3499999998136,-0.017385542,-0.7865046,-0.075359255,-2.3782578,-0.06789587,1.5216752,0.8487613,0.04,0.04,-0.019770726418810725,0.044111357965812004,-0.03226343133975185,0.19522603183468756,0.09296649792701105,-0.022148014450575834,0.9971253189783044,0.06642152253475186,-0.03574710947401304,-0.007171036245424722
566.3666666664802,-0.017844256,-0.7865586,-0.07732683,-2.3788302,-0.069669455,1.5203894,0.85039866,0.04,0.04,-0.020477936729124124,0.04342832269486896,-0.03335734337330809,0.19775598773968306,0.09454247825334561,-0.022435868760703748,0.9969745394574443,0.06813085108517511,-0.03668599422545729,-0.00735476931768473
566.3833333331469,-0.018309068,-0.7866132,-0.079320505,-2.3794103,-0.07146655,1.5190866,0.8520577,0.04,0.04,-0.020376294497492786,0.0428462557067355,-0.033278503761269285,0.20026836448321078,0.09611584345410454,-0.0227210959028762,0.9968178544584982,0.0698617158010585,-0.03763831318228067,-0.007540761160571497
566.3999999998135,-0.018779943,-0.7866686,-0.08134018,-2.3799977,-0.07328704,1.5177666,0.85373837,0.04,0.04,-0.019868469946882072,0.04226319056506722,-0.033718050864584015,0.20276250691483672,0.09768564958095205,-0.02300426429252206,0.996655123619797,0.07161398271612936,-0.03860394778876711,-0.0077289881008683736
566.4166666664802,-0.019256841,-0.7867248,-0.08338566,-2.3805926,-0.075130776,1.5164294,0.85544056,0.04,0.04,-0.019839560483458918,0.04153850242157309,-0.03411022082249193,0.2052370256972358,0.09925331932700199,-0.023287872614759203,0.9964862060209738,0.07338745128360158,-0.03958289682880772,-0.007919437016755019
566.4333333331468,-0.019739738,-0.7867817,-0.08545682,-2.381195,-0.07699764,1.5150759,0.857164,0.04,0.04,-0.020179248891061263,0.04091732972961448,-0.033899944732951326,0.20769185059811568,0.10081735795414827,-0.02356687354727187,0.9963109721187169,0.07518187315938511,-0.04057495180520732,-0.008112094064338552
566.4499999998135,-0.020228593,-0.7868392,-0.08755351,-2.381805,-0.0788875,1.5137056,0.8589087,0.04,0.04,-0.020132171213904648,0.04025878162614016,-0.03442506807396217,0.21012650548881529,0.10238013604228999,-0.023846163549944885,0.9961292666721274,0.07699709832879464,-0.04158035031947973,-0.008306948627804182
566.4666666664801,-0.020723375,-0.7868976,-0.089675575,-2.382422,-0.08080024,1.512319,0.8606746,0.04,0.04,-0.019218261305953277,0.039642820044075155,-0.034518405337879976,0.2125411128862233,0.10393559244091817,-0.024115041886245275,0.9959409634213466,0.07883300494052088,-0.042598555620922365,-0.008503985560843176
566.4833333331468,-0.021224035,-0.78695655,-0.09182282,-2.3830466,-0.08273566,1.510916,0.86246145,0.04,0.04,-0.02046295228244066,0.03876683067588205,-0.034895426745373825,0.21493231971270635,0.1054924171220735,-0.024391748267284047,0.9957459094529606,0.0806892680585548,-0.04363004152660358,-0.00870317782526163
566.4999999998134,-0.021730542,-0.7870162,-0.0939951,-2.3836784,-0.08469361,1.5094961,0.8642692,0.04,0.04,-0.01967686824577708,0.03812986808723329,-0.03557228512172106,0.21730159344075586,0.10704384190007088,-0.02466273935260714,0.9955439534185021,0.08256578148388141,-0.044674807419738276,-0.008904500088427487
566.5166666664801,-0.022242852,-0.78707653,-0.096192226,-2.3843172,-0.08667395,1.5080606,0.8660974,0.04,0.04,-0.019045930208960726,0.03747910863655668,-0.03476780623941078,0.21964786984036624,0.10858817295379058,-0.024929872368148934,0.9953349993444861,0.08446215711703649,-0.045732137959863174,-0.009107944480999077
566.5333333331467,-0.022760922,-0.7871375,-0.09841403,-2.384963,-0.088676535,1.5066091,0.8679462,0.04,0.04,-0.019554617417316678,0.0367024852869019,-0.03551690997325441,0.22197123415949888,0.11013170814604623,-0.025194099272793882,0.9951188780537731,0.08637833466671577,-0.04680235714756188,-0.009313495940657415
566.5499999998134,-0.023284711,-0.7871993,-0.10066033,-2.3856163,-0.090701185,1.5051398,0.8698154,0.04,0.04,-0.0202176433432788,0.03576022510017596,-0.037446855802603096,0.22426980020184212,0.11167031995345644,-0.025455635545479346,0.9948954069009655,0.08831403517086303,-0.04788641472004839,-0.009521124117541807
566.56666666648,-0.023814172,-0.78726166,-0.10293093,-2.386277,-0.09274772,1.5036552,0.8717049,0.04,0.04,-0.01995804673886603,0.03511938119116209,-0.03580997060861346,0.2265433772273613,0.11319571070664526,-0.025716796654803545,0.9946644909731636,0.0902690337389949,-0.04898329482806156,-0.009730815624229667
566.5833333331467,-0.02434926,-0.7873246,-0.10522563,-2.3869445,-0.094815984,1.5021552,0.8736142,0.04,0.04,-0.019136606563585623,0.034408356390400185,-0.035940192848804564,0.22879119240678425,0.11471417744307488,-0.025973698454178268,0.994426012289474,0.0922429791688771,-0.05009275745734635,-0.009942561361354517
566.5999999998133,-0.024889916,-0.7873883,-0.107544206,-2.3876188,-0.096905775,1.5006397,0.8755434,0.04,0.04,-0.01860981211692092,0.033582208228219446,-0.036327080208353735,0.23101423052830042,0.11622850793825468,-0.026227374758087618,0.9941798283785112,0.0942357387905031,-0.05121467845121966,-0.010156332557588302
566.61666666648,-0.025436105,-0.7874527,-0.109886445,-2.3882995,-0.09901688,1.4991087,0.87749237,0.04,0.04,-0.01835909541012537,0.03278836668714202,-0.03647536530235751,0.23321001179563727,0.1177393737651872,-0.026477133498055846,0.9939258024829603,0.09624706925775421,-0.05234902349655279,-0.010372104745604871
566.6333333331467,-0.025987772,-0.78751785,-0.11225218,-2.388987,-0.10114917,1.4975629,0.87946093,0.04,0.04,-0.0188605670237596,0.03200848015628699,-0.036555710100572014,0.23537825537377488,0.11924484529913576,-0.026727516382330924,0.9936638039901623,0.09827673165410276,-0.0534956390105889,-0.010589866006533858
566.6499999998133,-0.026544867,-0.7875837,-0.114641175,-2.3896809,-0.1033024,1.4960021,0.88144875,0.04,0.04,-0.01782594837880236,0.031207001474090057,-0.03665750446750771,0.23751881208898004,0.1207466658498727,-0.026970455916757077,0.9933937139870905,0.10032439841619278,-0.054654342076285146,-0.010809578417867607
566.66666666648,-0.027107343,-0.78765,-0.11705314,-2.3903823,-0.10547637,1.4944263,0.8834558,0.04,0.04,-0.020445529529200535,0.03004153291660261,-0.03753954065199849,0.23963067798309373,0.12224444867080338,-0.027212629840191682,0.9931153484321458,0.10238980540815337,-0.055826012949482175,-0.011031261720328136
566.6833333331466,-0.027675135,-0.7877171,-0.11948791,-2.3910904,-0.107670896,1.4928354,0.88548183,0.04,0.04,-0.01848280967875482,0.02937832931116935,-0.03757060741196305,0.2417134420583431,0.12372941441487507,-0.02745202149937985,0.9928286093607207,0.10447268105084782,-0.0570099942742231,-0.011254861250071148
566.6999999998133,-0.028248195,-0.7877847,-0.121945225,-2.391805,-0.109885745,1.4912297,0.88752645,0.04,0.04,-0.018429546599207924,0.028525652401939494,-0.037479376209770265,0.2437672873488067,0.1252059761836133,-0.027685903535918377,0.9925333713514891,0.1065726683591383,-0.05820630830401268,-0.011480365241504009
566.7166666664799,-0.028826464,-0.7878528,-0.12442485,-2.3925264,-0.11212067,1.4896097,0.8895898,0.04,0.04,-0.018973062710325728,0.027570139033811225,-0.03748582806322176,0.24579149311256585,0.1266747056875789,-0.027917987031082267,0.9922294974001683,0.10868961253674046,-0.05941482474151821,-0.01170774173601732
566.7333333331466,-0.029409885,-0.7879217,-0.12692657,-2.3932536,-0.11437554,1.487975,0.8916714,0.04,0.04,-0.016940180203595112,0.026929699826994113,-0.03774752735625775,0.24778486386520795,0.12813392406791238,-0.028148524838913253,0.9919168854795848,0.11082318771643639,-0.060635152928054874,-0.011936984302545714
566.7499999998132,-0.029998401,-0.78799105,-0.12945005,-2.3939874,-0.11665006,1.4863261,0.8937712,0.04,0.04,-0.018683388977724924,0.025742322417948715,-0.03785509666851539,0.24974719562332065,0.12958541559522352,-0.028373144222933744,0.9915953935531712,0.1129730293050923,-0.061867663695342114,-0.01216808623582293
566.7666666664799,-0.03059195,-0.7880611,-0.13199513,-2.3947272,-0.118944,1.4846632,0.895889,0.04,0.04,-0.01717955663667059,0.025053835814270453,-0.03772816559226566,0.2516785229448223,0.13102683279036054,-0.02859500819326319,0.9912649182756077,0.11513897571461491,-0.0631117554622016,-0.012400983425578922
566.7833333331465,-0.031190477,-0.7881317,-0.13456151,-2.3954732,-0.121257186,1.4829862,0.8980243,0.04,0.04,-0.017715614319713247,0.024078773447672175,-0.038238254287947804,0.2535771045632579,0.13246149249805805,-0.02881324009558911,0.990925336790035,0.11732054262905899,-0.06436774431521669,-0.012635690584598302
566.7999999998132,-0.031793922,-0.78820294,-0.13714902,-2.3962257,-0.1235893,1.4812957,0.9001775,0.04,0.04,-0.017937916765764506,0.023156142788799405,-0.03806378037323199,0.25544401438304165,0.1338850625930667,-0.029028140132986796,0.9905765113006028,0.11951768399782337,-0.06563540844201898,-0.012872126085951141
566.8166666664798,-0.032402214,-0.7882747,-0.1397572,-2.3969843,-0.12594013,1.4795915,0.9023478,0.04,0.04,-0.017610500768849846,0.022044193781078913,-0.038300895926624,0.25727676381463505,0.1352987005827247,-0.02923895696468712,0.9902183507109972,0.12172981396741761,-0.0669147903046753,-0.013110344966162663
566.8333333331465,-0.033015296,-0.7883472,-0.1423859,-2.3977485,-0.12830952,1.4778739,0.9045352,0.04,0.04,-0.016203893507382716,0.021474112643932175,-0.03800676794085689,0.25907662149895644,0.13670075133896975,-0.02944769961038951,0.9898507621605155,0.1239567520388462,-0.06820528754579719,-0.013350319285383232
566.8499999998131,-0.0336331,-0.78842014,-0.14503485,-2.3985183,-0.130697,1.476143,0.90673953,0.04,0.04,-0.016802251509528965,0.02029052666895348,-0.0382178977345049,0.26084282224326116,0.1380952210106664,-0.029651258216147502,0.9894736073992749,0.12619824001186622,-0.06950715027668274,-0.013591929170927202
566.8666666664798,-0.034255557,-0.7884936,-0.14770368,-2.3992941,-0.13310254,1.4743992,0.90896,0.04,0.04,-0.01702862710120101,0.019367635324707422,-0.038181893743716167,0.26257386460520404,0.13947839556179142,-0.029851806016967658,0.9890868281045806,0.12845357296379245,-0.0708202739210422,-0.013835276094249331
566.8833333331464,-0.034882605,-0.78856766,-0.15039217,-2.4000757,-0.13552575,1.4726424,0.9111972,0.04,0.04,-0.01647655917882407,0.01841030616746009,-0.03844179709056039,0.2642732881024662,0.14084950125451337,-0.030048302840166824,0.9886902634560412,0.130722902611138,-0.07214452032482621,-0.01408026516949908
566.8999999998131,-0.035514176,-0.78864235,-0.15310006,-2.400863,-0.13796642,1.4708731,0.91345024,0.04,0.04,-0.01639819768752826,0.017506208080414476,-0.038240437578096476,0.2659352986567762,0.14220839770154536,-0.030241365775866058,0.988283863064215,0.13300556593232565,-0.07347969797809972,-0.014326877641020606
566.9166666664797,-0.036150206,-0.78871757,-0.15582699,-2.401656,-0.14042428,1.4690913,0.91571903,0.04,0.04,-0.016405469586211474,0.016446367945710527,-0.03838210831343947,0.2675630504275585,0.1435576530895665,-0.03043228308384048,0.9878675145974543,0.1353012671302724,-0.07482584443308939,-0.014575106204283048
566.9333333331464,-0.03679061,-0.78879315,-0.15857269,-2.4024537,-0.14289916,1.4672973,0.91800356,0.04,0.04,-0.014951925654993481,0.015817352913749527,-0.037714177504377666,0.2691562419291985,0.14489373818462606,-0.030616895332004873,0.9874411328008019,0.13760984600945317,-0.0761824076154499,-0.014824989181687865
566.949999999813,-0.03743533,-0.7888694,-0.16133687,-2.403257,-0.14539066,1.465491,0.9203035,0.04,0.04,-0.01577392148259804,0.014538668637786856,-0.03846159283940054,0.27071220630933424,0.14621975053630934,-0.0307985438969621,0.9870046084394767,0.1399308908292214,-0.07754966212959194,-0.015076425788696609
566.9666666664797,-0.038084306,-0.7889462,-0.1641193,-2.404066,-0.14789851,1.463673,0.92261857,0.04,0.04,-0.01645444698035181,0.01352797974326081,-0.038477947753423614,0.27223122115631193,0.1475324645080128,-0.030975651963565068,0.9865578515311262,0.14226399006954324,-0.07892764742677826,-0.015329356915913861
566.9833333331463,-0.038737457,-0.78902346,-0.16691954,-2.40488,-0.15042251,1.4618431,0.9249484,0.04,0.04,-0.014656220733444414,0.012746541406422063,-0.03789382476024894,0.2737137467739698,0.14882987180601667,-0.03115056558950076,0.9861008061246045,0.14460880101952683,-0.08031586428939123,-0.015583862536236798
566.999999999813,-0.0393947,-0.7891012,-0.16973731,-2.405699,-0.1529623,1.460002,0.9272929,0.04,0.04,-0.014831467156217748,0.01166239780632794,-0.03778906677156524,0.2751594639299575,0.1501147964204339,-0.03132082375527097,0.9856333886634494,0.14696501752774824,-0.08171416887344654,-0.0158398667985586
567.0166666664796,-0.040055975,-0.78917927,-0.17257237,-2.4065235,-0.15551764,1.4581496,0.92965186,0.04,0.04,-0.015629334024191976,0.010675232992335415,-0.03803861150784016,0.2765670097177374,0.15138824234323622,-0.031487979521681836,0.9851554868043093,0.14933231904151045,-0.08312280433252177,-0.016097350991582778
567.0333333331463,-0.040721193,-0.78925806,-0.17542432,-2.4073524,-0.15808827,1.4562861,0.9320249,0.04,0.04,-0.01367105059197904,0.00981980192605314,-0.03768373352883714,0.27793674293333837,0.1526442925832585,-0.03164960975177836,0.9846670834610376,0.15171029719255502,-0.08454106365765694,-0.016356314673934856
567.0499999998129,-0.041390296,-0.7893372,-0.17829286,-2.4081864,-0.16067378,1.4544117,0.9344116,0.04,0.04,-0.014659802016514512,0.008647575776055128,-0.037674553686350976,0.27926768522404144,0.15389020999366232,-0.031807519454150945,0.9841680911499564,0.1540984852428392,-0.08596924503392342,-0.016616681871263743
567.0666666664796,-0.04206319,-0.789417,-0.18117766,-2.4090254,-0.16327399,1.4525267,0.9368118,0.04,0.04,-0.014275393411167236,0.007694387677054104,-0.03779856760168787,0.2805611865903014,0.15511952224922299,-0.03196199049952586,0.9836584407636023,0.15649658418374135,-0.08740714208956446,-0.016878464535454062
567.0833333331462,-0.04273981,-0.789497,-0.1840784,-2.4098682,-0.1658886,1.4506315,0.93922526,0.04,0.04,-0.012676212353390781,0.00708526368365936,-0.03657025357459709,0.28181619786166456,0.15633441697783157,-0.03211310945916436,0.9831381065004609,0.15890429333784264,-0.08885410616842175,-0.01714167210338635
567.0999999998129,-0.043420076,-0.7895775,-0.18699473,-2.410716,-0.16851719,1.448726,0.9416519,0.04,0.04,-0.01420252727244442,0.0056133277989312,-0.03745392993468322,0.28303250189733403,0.15753654321020846,-0.032256411488911035,0.9826069742878931,0.16132125417757603,-0.09031063373317257,-0.017406219178160987
567.1166666664795,-0.044103924,-0.7896583,-0.18992631,-2.411568,-0.1711596,1.4468106,0.9440912,0.04,0.04,-0.01268902727211696,0.004977790358906553,-0.03677313623626777,0.2842082927126535,0.15872368996180866,-0.032399425377264396,0.9820650308431493,0.16374706245908408,-0.09177619401195947,-0.017672151644436425
567.1333333331462,-0.04479125,-0.7897398,-0.19287284,-2.4124246,-0.17381552,1.4448853,0.94654286,0.04,0.04,-0.013421327119478299,0.003757941788851138,-0.03720986080477662,0.2853445367256391,0.15989513752133974,-0.032537343576781924,0.9815122185149098,0.16618124482778537,-0.09325093149357216,-0.017939413284967246
567.1499999998128,-0.045481965,-0.7898217,-0.19583392,-2.4132862,-0.1764846,1.4429505,0.9490065,0.04,0.04,-0.013831091932159367,0.0026125965222223435,-0.036848468989703065,0.2864416370510486,0.16105020760912997,-0.032671198280311065,0.9809484957754293,0.16862333326157022,-0.09473483714646187,-0.018207985789574627
567.1666666664795,-0.04617602,-0.78990376,-0.19880927,-2.4141502,-0.1791665,1.4410063,0.9514821,0.04,0.04,-0.009896351336213804,0.002471069669585102,-0.03540615745829534,0.2875006266790936,0.16218565644335775,-0.032800869705885166,0.9803738570414973,0.1710733340197881,-0.09622673369273937,-0.01847783915284349
567.1833333331462,-0.046873346,-0.7899864,-0.2017985,-2.4150193,-0.18186092,1.4390533,0.95396936,0.04,0.04,-0.013428673883075781,0.0006866066005750682,-0.03644428985654091,0.2885177725013359,0.16331179541728078,-0.032923952240683785,0.9797882203127923,0.17353060165557022,-0.09772742970276829,-0.01874894954490921
567.1999999998128,-0.047573823,-0.79006946,-0.20480128,-2.4158916,-0.18456757,1.4370914,0.9564679,0.04,0.04,-0.010816865820251209,0.00015640139938155606,-0.03560588496043238,0.28949452990444835,0.1644189045759971,-0.03304486522984246,0.9791915926815977,0.1759948705879032,-0.09923618601286892,-0.019021296854909015
567.2166666664795,-0.04827739,-0.7901529,-0.20781726,-2.4167686,-0.1872862,1.4351206,0.95897734,0.04,0.04,-0.012646999958887406,-0.0011582437894785969,-0.036065281500641255,0.2904300041007788,0.16551137223574444,-0.033161700785371034,0.9785839081602654,0.17846556494656626,-0.10075358060197295,-0.019294890877269447
567.2333333331461,-0.048983946,-0.79023653,-0.21084607,-2.4176486,-0.19001637,1.4331416,0.9614976,0.04,0.04,-0.010395686405106908,-0.001734661204877419,-0.03470301318388991,0.2913262387190981,0.1665835381272995,-0.033274101216187846,0.9779651791094152,0.18094254783731012,-0.1022786885618064,-0.01956968823740946
567.2499999998128,-0.04969342,-0.7903205,-0.21388736,-2.4185328,-0.19275776,1.4311541,0.9640282,0.04,0.04,-0.011996670491010164,-0.003189971325090468,-0.035523717670460364,0.29218040929460365,0.16764015799101664,-0.0333801482099875,0.9773353510002051,0.18342520928438144,-0.10381211623773587,-0.01984562436734035
567.2666666664794,-0.050405737,-0.790405,-0.21694079,-2.4194205,-0.19551007,1.4291587,0.9665687,0.04,0.04,-0.01022330197397725,-0.0037651292566220906,-0.034637358586531164,0.2929947491228417,0.1686742620134468,-0.0334838871645691,0.976694465384409,0.18591321989192877,-0.10535308825288764,-0.020122692475366504
567.2833333331461,-0.05112081,-0.7904897,-0.220006,-2.4203117,-0.19827297,1.4271557,0.96911925,0.04,0.04,-0.010623933141618025,-0.004794171673450087,-0.03419984281421984,0.29376795525301647,0.1696928382264246,-0.03358385435433098,0.9760424718251481,0.1884063382418388,-0.10690158510225754,-0.02040088249026261
567.2999999998127,-0.051838547,-0.79057497,-0.22308263,-2.4212058,-0.20104623,1.4251455,0.9716792,0.04,0.04,-0.009036821489716296,-0.0054538489543509705,-0.03369126721398663,0.2944988466329863,0.17069310294485163,-0.03367998140039358,0.9753794376728162,0.19090409239054146,-0.10845694967797574,-0.020680187140197464
567.3166666664794,-0.05255885,-0.79066056,-0.22617024,-2.4221034,-0.20382942,1.423128,0.9742482,0.04,0.04,-0.01026767644647375,-0.00684237660975584,-0.033785194206970015,0.29518838755603183,0.17167841540405052,-0.0337710425269023,0.9747053273681834,0.19340592922444916,-0.11001965935851468,-0.020960579561313405
567.333333333146,-0.053281654,-0.79074645,-0.2292685,-2.4230037,-0.20662217,1.4211036,0.97682613,0.04,0.04,-0.008641230190198357,-0.0074276602858303065,-0.032889105404709795,0.29583753622169706,0.17264333975787616,-0.033857179343435045,0.9740201542071624,0.19591171423307954,-0.1115890517419249,-0.02124200922346083
567.3499999998127,-0.054006856,-0.7908325,-0.23237707,-2.4239073,-0.20942427,1.4190727,0.9794127,0.04,0.04,-0.009640605117211543,-0.008498112340926678,-0.03271569753824366,0.2964447484477579,0.17359231828317917,-0.03393800540030564,0.9733239193539611,0.19842092140873757,-0.11316528122085036,-0.021524522920545467
567.3666666664793,-0.054734383,-0.7909189,-0.23549551,-2.424814,-0.21223536,1.4170353,0.9820074,0.04,0.04,-0.00903845935835701,-0.00947645057864932,-0.03255973208918794,0.29701068420790777,0.1745199534415464,-0.03401455481153931,0.9726166454781578,0.2009331153048672,-0.11474821024647235,-0.021808080106409847
567.383333333146,-0.05546414,-0.7910055,-0.23862348,-2.425723,-0.21505502,1.4149915,0.98461,0.04,0.04,-0.007861482803739328,-0.010202835710942937,-0.03189420157279077,0.2975351436895779,0.17542742547192663,-0.034087825565878166,0.9718983608114873,0.20344801015873848,-0.11633743955952679,-0.022092613496993697
567.3999999998126,-0.05619603,-0.79109234,-0.24176061,-2.4266348,-0.217883,1.412942,0.9872203,0.04,0.04,-0.007963759218676536,-0.011073873862599282,-0.031187693306000686,0.29801753089122895,0.17631682216066524,-0.03415731479672077,0.971169116241381,0.20596518197996685,-0.11793264810451899,-0.022378158591574205
567.4166666664793,-0.056929987,-0.79117954,-0.24490653,-2.4275491,-0.22071895,1.4108864,0.9898378,0.04,0.04,-0.0078005713062934134,-0.012121033020984218,-0.03151518721039581,0.29845836518797353,0.1771872265370304,-0.03422162735717804,0.9704289002144089,0.20848422878598477,-0.11953405166983132,-0.022664652381187988
567.4333333331459,-0.057665903,-0.79126686,-0.24806085,-2.4284656,-0.22356246,1.4088253,0.99246234,0.04,0.04,-0.0070508085843856705,-0.012828187695801407,-0.030385713975655815,0.29885785996136277,0.17803524224495426,-0.034280988945717045,0.9696777811220691,0.2110047957504703,-0.12114115437365691,-0.022952073664500933
567.4499999998126,-0.058403708,-0.79135454,-0.2512232,-2.4293842,-0.22641318,1.4067589,0.99509364,0.04,0.04,-0.006664634656750046,-0.013737999031371295,-0.03007387851909904,0.29921527239237766,0.17886425990471183,-0.034335255959400623,0.9689157967066457,0.2135265663869861,-0.12275369455859754,-0.02324037029662608
567.4666666664792,-0.059143286,-0.7914424,-0.25439313,-2.430306,-0.22927079,1.4046875,0.9977313,0.04,0.04,-0.008050215033184038,-0.015077272752095361,-0.030044707841825335,0.2995302211292105,0.1796734127968539,-0.03438584262218458,0.968142963267245,0.21604894955656476,-0.12437207380330582,-0.023529584133336782
567.4833333331459,-0.059884563,-0.7915305,-0.25757036,-2.4312294,-0.23213495,1.4026114,1.000375,0.04,0.04,-0.005695323150689546,-0.015274906014950407,-0.02893663057828011,0.2998041588677306,0.1804572039928809,-0.03443228137703144,0.9673593826425352,0.21857173065439348,-0.125995429229402,-0.023819638651650144
567.4999999998125,-0.060627453,-0.79161894,-0.2607545,-2.4321547,-0.23500532,1.4005308,1.0030245,0.04,0.04,-0.005751888047456077,-0.016238638484677992,-0.02856324865360138,0.3000354996697578,0.18122313429462614,-0.034474815498242356,0.966565113732783,0.22109450129433592,-0.127623611822867,-0.02411049807505576
567.5166666664792,-0.06137187,-0.79170746,-0.26394504,-2.433082,-0.23788154,1.3984458,1.0056792,0.04,0.04,-0.006173903216866172,-0.01733956492409039,-0.028260757979792217,0.3002257056612522,0.18196879007236555,-0.03451312884015162,0.965760184922605,0.2236167823017971,-0.12925684526801953,-0.02440220978939636
567.5333333331458,-0.062117726,-0.7917962,-0.2671417,-2.434011,-0.24076329,1.3963572,1.008339,0.04,0.04,-0.004731122168033508,-0.01772382139283435,-0.027147673654082105,0.300373823317586,0.18268910731479598,-0.03454660225842865,0.9649447285641772,0.22613827674657558,-0.13089431587364594,-0.02469470951976668
567.5499999998125,-0.062864885,-0.7918851,-0.2703441,-2.4349418,-0.24365023,1.3942648,1.0110039,0.04,0.04,-0.005393940732867364,-0.018817415345528943,-0.027042752386707836,0.3004810090388099,0.18339103955550737,-0.0345742505978035,0.9641187396384844,0.2286586773656228,-0.13253627824221692,-0.02498799897962925
567.5666666664791,-0.06361328,-0.7919742,-0.27355182,-2.4358742,-0.24654193,1.392169,1.013673,0.04,0.04,-0.004727660864989325,-0.019637282578433002,-0.026444855044072124,0.30054594324454464,0.18406961610973518,-0.03459720764364824,0.9632823567466957,0.2311774268169162,-0.134182408136961,-0.025282006593762656
567.5833333331458,-0.06436284,-0.79206336,-0.27676436,-2.4368079,-0.24943809,1.3900698,1.016346,0.04,0.04,-0.003964224897945456,-0.0203014124896983,-0.02570060572429922,0.3005687902793619,0.18472688838824475,-0.03461939986489837,0.9624356660774231,0.23369415753865577,-0.13583246341130423,-0.02557677223617895
567.5999999998124,-0.065113485,-0.7921527,-0.27998152,-2.4377427,-0.25233838,1.387968,1.0190228,0.04,0.04,-0.0036880440059894326,-0.020863145780680714,-0.025024691915076502,0.3005530240362725,0.18535914945357107,-0.034633037537391026,0.9615787464340381,0.23620864621903928,-0.13748606582600195,-0.025872216012565313
567.6166666664791,-0.06586506,-0.7922422,-0.2832027,-2.4386792,-0.2552424,1.3858632,1.0217032,0.04,0.04,-0.004169727466707407,-0.022195333322261313,-0.02490206442051779,0.3004927505774983,0.18597350493669815,-0.034645858260510365,0.9607116568216518,0.23872039667462197,-0.13914345166201345,-0.026168387762503426
567.6333333331457,-0.066617526,-0.7923319,-0.28642768,-2.4396164,-0.25814974,1.3837559,1.0243868,0.04,0.04,-0.0026557114995107156,-0.022426380724271944,-0.023819039343597748,0.3003932113406551,0.18656031276401325,-0.03465288894486879,0.9598345358197914,0.241229136499749,-0.14080398861736879,-0.026465153327176864
567.6499999998124,-0.06737077,-0.79242164,-0.289656,-2.4405549,-0.26106015,1.3816466,1.0270729,0.04,0.04,-0.0031257106103410592,-0.023314112642447427,-0.023330337177163152,0.3002520130799755,0.18712612504916704,-0.034655754306026076,0.958947501349891,0.2437343416920092,-0.14246763269897234,-0.026762547859166496
567.666666666479,-0.06812471,-0.7925116,-0.29288718,-2.4414942,-0.2639732,1.3795354,1.0297614,0.04,0.04,-0.002492444443635833,-0.024156392324847786,-0.02269072536195127,0.3000704563754971,0.18766800730187516,-0.03465363852641262,0.95805066428314,0.24623566491619636,-0.14413413003264058,-0.02706057186474116
567.6833333331457,-0.06887926,-0.79260147,-0.2961209,-2.4424338,-0.26688868,1.3774226,1.0324522,0.04,0.03999999,-0.0014818728078624943,-0.02436500781393125,-0.02174094770323043,0.29984987220218795,0.188186089069866,-0.03464711525253958,0.9571441070093162,0.24873296117187388,-0.14580310100481264,-0.027359243070489907
567.6999999998123,-0.06963431,-0.79269147,-0.29935688,-2.4433742,-0.26980612,1.3753083,1.0351447,0.04,0.039999984,-0.001857897032020439,-0.025358095930871904,-0.021460210773827093,0.29958629123132247,0.1886823722733456,-0.03463702696844756,0.9562279704029886,0.25122567651896877,-0.14747453757663823,-0.027658431682300373
567.716666666479,-0.07038979,-0.79278165,-0.30259457,-2.444315,-0.27272516,1.3731929,1.0378387,0.04,0.039999984,-0.001211912117460301,-0.026018063424926297,-0.020638528146887936,0.2992831289774598,0.18915462487626958,-0.03462282889422835,0.9553023755695791,0.2537135520528898,-0.14914806673367986,-0.02795816384225378
567.7333333331457,-0.07114558,-0.79287183,-0.30583367,-2.4452558,-0.27564538,1.3710766,1.0405338,0.04,0.039999977,-0.0005033588529990141,-0.026558408748911244,-0.019809793261571507,0.29893905537167176,0.18960411141612693,-0.0346032699104761,0.9543674630931225,0.25619620910586116,-0.15082345166891292,-0.028258348424108574
567.7499999998123,-0.07190158,-0.7929621,-0.30907363,-2.4461975,-0.2785665,1.3689594,1.0432295,0.04,0.03999997,-0.0015919939096997737,-0.02776034862064236,-0.01976141781172558,0.298554970302666,0.19002903276878658,-0.03457994061483152,0.9534233467892618,0.2586730444747008,-0.15250100953792828,-0.02855906072099327
567.766666666479,-0.07265774,-0.7930523,-0.31231415,-2.4471393,-0.2814881,1.3668419,1.0459259,0.04,0.03999997,-7.158929868911201e-05,-0.027918732709786287,-0.018475272483187144,0.29813236752366606,0.19042615351597547,-0.03455270856431139,0.9524701442566249,0.26114407859512423,-0.15418003343985312,-0.028860211415604083
567.7833333331456,-0.07341396,-0.7931427,-0.31555495,-2.4480808,-0.2844099,1.3647244,1.0486223,0.04,0.03999997,0.000552107817664016,-0.02825641527769429,-0.017735045555133944,0.29766946420698914,0.19080033221701762,-0.034520548308598464,0.9515080613523386,0.2636088316904138,-0.15586014336436574,-0.02916176858094509
567.7999999998123,-0.074170105,-0.793233,-0.31879538,-2.4490228,-0.2873316,1.3626069,1.0513186,0.04,0.039999966,-0.0003588584881253354,-0.029522683766558533,-0.01746226808432283,0.2971674465495052,0.19114929974141154,-0.034484584211795094,0.9505371603746022,0.2660669122805065,-0.15754169843032886,-0.029463845509236287
567.8166666664789,-0.07492612,-0.79332334,-0.3220352,-2.4499645,-0.2902526,1.3604898,1.0540144,0.04,0.039999958,0.0009350294394749881,-0.02980895325127575,-0.016324021351754592,0.2966258382104484,0.19147093730988107,-0.03444355279723188,0.9495576697161786,0.26851799301638213,-0.15922403128369242,-0.029766208549370534
567.8333333331456,-0.07568191,-0.7934137,-0.32527393,-2.4509056,-0.29317272,1.3583736,1.0567095,0.04,0.039999954,0.0018087821636481038,-0.030048587726838605,-0.015325578069003143,0.2960452079560613,0.1917693250812877,-0.034400262768251005,0.9485697383185941,0.27096187561530877,-0.16090671243540278,-0.03006897740958916
567.8499999998122,-0.07643739,-0.7935041,-0.32851124,-2.451846,-0.2960916,1.3562584,1.0594034,0.04,0.03999995,0.0020319272946212052,-0.030657079398987985,-0.014788453951919411,0.29542487290908565,0.1920443841913635,-0.03435241113860521,0.9475735326428021,0.2733981624371379,-0.1625896123963894,-0.03037207519463683
567.8666666664789,-0.07719241,-0.7935945,-0.3317467,-2.4527862,-0.29900882,1.3541443,1.0620956,0.04,0.039999947,0.001122134756315063,-0.03170338123725802,-0.014378740229969988,0.2947661725111795,0.19229503588064542,-0.03429859518887948,0.9465692073594005,0.2758262941681,-0.16427296273054046,-0.030675476202002623
567.8833333331455,-0.07794692,-0.7936849,-0.33497992,-2.4537256,-0.30192405,1.3520315,1.0647861,0.04,0.039999943,0.002766672288867511,-0.03180044936799131,-0.013467437287861816,0.2940705184841701,0.19251798708774515,-0.034241906111890846,0.9455569188613284,0.2782461951810035,-0.16595620081303097,-0.03097914576729301
567.8999999998122,-0.078700826,-0.79377514,-0.33821055,-2.4546647,-0.3048369,1.3499205,1.0674745,0.04,0.03999994,0.0017729816860656555,-0.03263091729251988,-0.01268782782517519,0.29333600431300877,0.1927154670680837,-0.03418114467916569,0.9445368150524014,0.28065746553098414,-0.16763938077211474,-0.03128306357651185
567.9166666664788,-0.07945398,-0.79386526,-0.34143817,-2.4556026,-0.3077472,1.3478115,1.0701604,0.04,0.039999936,0.003383850903482255,-0.03264095078335805,-0.011720624152622428,0.29256429340519635,0.19288464852504605,-0.03411791651199403,0.9435091157074409,0.2830598219090418,-0.16932197010001535,-0.031587279706139254
567.9333333331455,-0.08020641,-0.79395527,-0.34466234,-2.4565396,-0.31065434,1.3457048,1.0728431,0.04,0.039999932,0.003266647184752003,-0.03336245486253997,-0.010941751600967997,0.291754863682756,0.1930288006303363,-0.03404819519684474,0.942474058564523,0.28545275013037125,-0.1710037997813693,-0.03189164210662731
567.9499999998121,-0.08095791,-0.79404515,-0.34788272,-2.4574754,-0.31355807,1.3436005,1.0755227,0.04,0.03999993,0.003770727314589273,-0.033784397709502034,-0.010275972570361613,0.2909107938552161,0.19314642454008765,-0.03397492092506593,0.9414317586228367,0.2878361410718366,-0.17268470246232837,-0.03219616878890758
567.9666666664788,-0.08170846,-0.79413503,-0.35109892,-2.4584103,-0.31645802,1.3414986,1.0781988,0.04,0.039999925,0.003714696030177045,-0.034424805508892486,-0.009934832354885348,0.29002845692985735,0.19323843058034507,-0.033899030157881094,0.9403823756879616,0.2902096519431893,-0.1743646837308354,-0.03250080740418935
567.9833333331454,-0.082457915,-0.79422486,-0.35431048,-2.4593434,-0.31935382,1.3394,1.0808713,0.04,0.039999917,0.004937144661698589,-0.034449710427719715,-0.008213574805693291,0.28911061467015486,0.1933010336691511,-0.033819396184387784,0.9393261689006636,0.29257313412677294,-0.1760429009055505,-0.03280558864580549
567.9999999998121,-0.08320623,-0.79431444,-0.35751703,-2.460275,-0.3222452,1.337305,1.0835395,0.04,0.039999913,0.004979470250932039,-0.03481009705985638,-0.007584771274149471,0.2881546016017411,0.19334197090617516,-0.033735473374084474,0.9382633683312888,0.29492606437934665,-0.17771934103639841,-0.03311048200981228
568.0166666664787,-0.083953284,-0.794404,-0.36071816,-2.4612057,-0.32513183,1.3352133,1.0862033,0.04,0.03999991,0.003978767882162337,-0.035895951024100814,-0.0075271193597070685,0.2871643806969827,0.19335531590643168,-0.033646617084065716,0.9371940692130166,0.2972681698773669,-0.17939430484832303,-0.0334154933780013
568.0333333331454,-0.084699,-0.7944934,-0.36391363,-2.4621341,-0.32801318,1.3331255,1.0888625,0.04,0.039999902,0.006400470754197585,-0.03537171886661694,-0.005891169689575815,0.28613890306551415,0.1933390298428556,-0.03355456921836911,0.9361185360906066,0.29959944056323856,-0.18106681910507846,-0.03372044811302432
568.049999999812,-0.08544327,-0.7945826,-0.36710283,-2.4630606,-0.3308891,1.3310416,1.0915166,0.04,0.039999902,0.005968818302815038,-0.036077519493959986,-0.005406221648152076,0.28507688127373876,0.19329826494281782,-0.033459062482547625,0.9350369745620182,0.3019193722107589,-0.1827370090635931,-0.034025496385232126
568.0666666664787,-0.08618604,-0.79467183,-0.37028548,-2.4639852,-0.3337591,1.3289618,1.0941651,0.04,0.0399999,0.006251207767227207,-0.03652754405507608,-0.0047217981515745855,0.283980072264644,0.19323181092865982,-0.033358146452036525,0.9339496247709304,0.30422762986592705,-0.1844046292661313,-0.03433045763778297
568.0833333331453,-0.08692717,-0.79476094,-0.37346122,-2.4649076,-0.33662271,1.3268867,1.0968076,0.04,0.039999895,0.006668549783972466,-0.036818663154003506,-0.0036948230710986962,0.28285057989747164,0.19313706001376268,-0.03325439759591006,0.9328567172426566,0.30652393635884767,-0.18606939812055892,-0.03463525108013716
568.099999999812,-0.0876666,-0.7948497,-0.3766296,-2.4658287,-0.33947992,1.324816,1.0994443,0.04,0.03999989,0.0057302389535385245,-0.03744188036903795,-0.0034622886725621527,0.2816866946365626,0.1930172072259615,-0.03314781254664617,0.9317583205331204,0.3088080819315229,-0.18773169722184202,-0.03494009887334765
568.1166666664786,-0.08840424,-0.79493827,-0.37979025,-2.466747,-0.34233013,1.3227508,1.1020744,0.04,0.039999887,0.007691392441344647,-0.03710832412051612,-0.0015696391626462969,0.2804901143053823,0.19286468850599645,-0.033037674964315006,0.9306548469866229,0.31107981297862075,-0.1893903686569453,-0.03524477262628161
568.1333333331453,-0.08913998,-0.79502654,-0.3829428,-2.4676633,-0.34517297,1.3206909,1.1046977,0.04,0.03999988,0.007121913347063469,-0.037854565728223655,-0.0013601869593649063,0.2792600613249095,0.19268811826997165,-0.03292320875538299,0.9295464321433388,0.31333879548458965,-0.19104575331007612,-0.03554925985223368
568.1499999998119,-0.08987374,-0.7951147,-0.38608688,-2.468577,-0.34800822,1.3186363,1.1073141,0.04,0.039999884,0.008089123891319439,-0.03783866278026515,-0.0005375082068437287,0.2779979814278345,0.19248436282373593,-0.03280723519198914,0.9284332873400305,0.31558493940793186,-0.19269742783695104,-0.035853567226977884
568.1666666664786,-0.09060546,-0.79520273,-0.38922212,-2.469488,-0.3508355,1.3165876,1.109923,0.04,0.03999988,0.00827480217566734,-0.038069268364193665,0.0003941403222795792,0.2767023585858089,0.1922526009427611,-0.03268778432087491,0.9273156994475673,0.3178178695283516,-0.19434510889301046,-0.03615762735430457
568.1833333331452,-0.09133504,-0.79529047,-0.39234802,-2.470396,-0.35365447,1.3145449,1.1125244,0.04,0.039999876,0.00869080861196636,-0.03829799586223537,0.0013903978538509776,0.2753761203802102,0.19199392542307211,-0.03256294589761019,0.9261938511445,0.3200374743621764,-0.1959885833755539,-0.03646149054060608
568.1999999998119,-0.092062354,-0.7953779,-0.39546442,-2.4713018,-0.35646483,1.3125086,1.1151178,0.04,0.039999876,0.008137786937711944,-0.03872644511261347,0.0018609377988587639,0.27401707172624,0.1917086799506637,-0.03243639770210574,0.92506796912321,0.3222433666193945,-0.19762792259779172,-0.036765056531161765
568.2166666664785,-0.092787355,-0.79546523,-0.39857072,-2.472204,-0.3592662,1.3104787,1.1177028,0.04,0.039999876,0.01015636387811103,-0.0384449867630865,0.0031482264320481512,0.2726276009746114,0.19139475622718208,-0.03230585121118837,0.9239383582568212,0.32443545484185565,-0.19926235370511305,-0.037068317727494186
568.2333333331452,-0.09350995,-0.79555213,-0.40166667,-2.4731038,-0.36205828,1.3084555,1.1202791,0.04,0.039999865,0.008443322438211887,-0.03927123211052708,0.0033625773235845813,0.27120649088008425,0.1910561668021172,-0.032171021691014684,0.9228051949939949,0.32661322490653405,-0.20089241696551483,-0.03737124849402683
568.2499999998118,-0.094230026,-0.7956387,-0.40475193,-2.4740007,-0.36484066,1.3064393,1.1228465,0.04,0.039999865,0.009297311965505983,-0.03927253032406375,0.004480412684160218,0.26975725103584447,0.19068586857918562,-0.03203449771551395,0.9216687086508099,0.3287766547834873,-0.20251762717367197,-0.037673776652651175
568.2666666664785,-0.09494753,-0.79572505,-0.40782607,-2.474894,-0.3676131,1.3044305,1.1254044,0.04,0.039999872,0.010587439290676848,-0.038927584497361334,0.005606463685403629,0.2682779068015758,0.19028800693270143,-0.0318962934444105,0.9205292586107647,0.3309254638952276,-0.20413734124218538,-0.03797587784127807
568.2833333331452,-0.09566237,-0.7958113,-0.4108888,-2.4757836,-0.3703752,1.302429,1.1279532,0.04,0.039999865,0.011077715731322435,-0.03911618539695905,0.006209300323012368,0.26677116679198637,0.1898637205870564,-0.031753519402019675,0.9193869344539662,0.3330598324479364,-0.2057514170781209,-0.03827750168749592
568.2999999998118,-0.096374445,-0.795897,-0.4139396,-2.4766703,-0.3731266,1.3004352,1.1304921,0.039999995,0.03999987,0.009728453102697543,-0.03989098817669401,0.006899945691607456,0.2652311732635733,0.189414377171321,-0.03160802292235454,0.9182420299282554,0.33517906506371503,-0.20736020153010337,-0.03857869408942655
568.3166666664785,-0.097083665,-0.7959824,-0.4169782,-2.4775534,-0.37586704,1.2984494,1.133021,0.039999966,0.039999865,0.010981308238533494,-0.03953402740884959,0.007898670361772275,0.2636649188751249,0.1889346497343441,-0.03146054920217445,0.9170948015420012,0.3372831862624038,-0.20896308535705066,-0.03887938023400169
568.3333333331451,-0.09778995,-0.7960676,-0.42000422,-2.478433,-0.3785963,1.2964717,1.1355393,0.039999936,0.03999986,0.011215272465325832,-0.03966172617910768,0.008563847515530298,0.2620693778955916,0.18842826249023176,-0.031309023052087465,0.9159455423233548,0.33937183420756784,-0.21055992765958925,-0.03917956748810759
568.3499999998118,-0.09849325,-0.7961525,-0.4230173,-2.4793084,-0.38131395,1.2945027,1.1380467,0.039999906,0.03999986,0.01193884888810448,-0.039445151175876436,0.009844216009657902,0.2604476201492932,0.1878935857822025,-0.031155633383549652,0.9147945362345388,0.34144494115549046,-0.21215019485028105,-0.03947915221666505
568.3666666664784,-0.09919343,-0.796237,-0.42601717,-2.4801798,-0.38401976,1.2925425,1.1405431,0.03999988,0.03999986,0.012020522391065214,-0.03951236811828851,0.010405280511316395,0.25879949762699084,0.18733443357863566,-0.030997655424393478,0.9136419888356048,0.3435023282560327,-0.21373386871960418,-0.0397781357199734
568.3833333331451,-0.09989045,-0.7963212,-0.42900342,-2.4810476,-0.38671324,1.2905909,1.1430284,0.03999986,0.039999858,0.011599478128809793,-0.040153818853017054,0.010823220296596325,0.2571247157480957,0.18674745448681082,-0.03083608670210186,0.9124880718852647,0.34554382973172704,-0.21531107591100906,-0.04007643935639673
568.3999999998117,-0.1005842,-0.79640496,-0.43197572,-2.481911,-0.3893942,1.2886486,1.1455017,0.039999824,0.039999865,0.012882647748968523,-0.039412439948849354,0.012308867219379405,0.2554220822476428,0.18613382712098478,-0.030675726223234334,0.9113331819744844,0.34756919170887546,-0.2168811311325808,-0.04037404321779589
568.4166666664784,-0.10127462,-0.7964882,-0.4349337,-2.4827704,-0.3920622,1.2867156,1.1479633,0.039999798,0.03999986,0.012095317559523977,-0.04013780978164849,0.01261842394723045,0.2536957251094635,0.1854931736134433,-0.030509350247941686,0.9101774586646755,0.3495782591259227,-0.2184442984282875,-0.04067091060420751
568.433333333145,-0.10196162,-0.7965712,-0.437877,-2.4836254,-0.394717,1.284792,1.1504126,0.039999764,0.03999986,0.013309489940760422,-0.03971029538366588,0.01344436330573684,0.2519439498969679,0.18482338203758103,-0.030343069149230156,0.9090212022578001,0.35157091284907527,-0.22000011873979264,-0.040966996945449655
568.4499999998117,-0.10264512,-0.79665375,-0.44080526,-2.4844763,-0.39735845,1.2828782,1.1528493,0.03999974,0.039999858,0.01275609154145485,-0.03992306883092711,0.01429197459998921,0.25016800586388355,0.1841267137755174,-0.03017254110170492,0.9078646741098114,0.3535468927729444,-0.22154851773423528,-0.04126236061891764
568.4666666664783,-0.103325054,-0.79673594,-0.44371822,-2.485323,-0.399986,1.2809746,1.1552734,0.039999712,0.039999858,0.013181521851435285,-0.03985045139466292,0.01523169131443236,0.2483682552535062,0.18340349423113012,-0.03000023983658273,0.9067081245577594,0.35550617717435745,-0.22308914086698883,-0.04155682951157159
568.483333333145,-0.10400133,-0.7968176,-0.4466154,-2.4861648,-0.40259942,1.2790813,1.1576844,0.03999968,0.03999985,0.013913539297094601,-0.03966945221951512,0.016141427221538773,0.24654466280815615,0.18265268977699978,-0.02982553302104282,0.9055518339539543,0.35744855093516575,-0.2246217886955038,-0.041850465949765346
568.4999999998116,-0.10467389,-0.796899,-0.4494966,-2.487002,-0.40519857,1.2771983,1.1600822,0.039999638,0.039999854,0.014184234630842951,-0.039530082675809375,0.016501967120374772,0.24469736494874128,0.1818771681185134,-0.029650325694835167,0.9043960130163295,0.35937398175659657,-0.22614628438951953,-0.04214321930501876
568.5166666664783,-0.10534262,-0.79697996,-0.4523616,-2.4878345,-0.4077829,1.2753261,1.1624666,0.039999623,0.039999858,0.013755212351340695,-0.03971189927698404,0.01750994942879558,0.24282814851237583,0.18107355254071356,-0.029468831285915348,0.9032409020624168,0.3612823362071815,-0.22766251828851403,-0.04243494023425513
568.5333333331449,-0.10600746,-0.79706043,-0.45520976,-2.4886622,-0.41035232,1.2734644,1.1648369,0.039999586,0.03999985,0.014397527687060041,-0.03976023925220673,0.018030498080978674,0.24093483580435468,0.18024402038485055,-0.02928732477747925,0.9020868286814844,0.363173174920722,-0.2291704785938349,-0.042725756616560466
568.5499999998116,-0.106668316,-0.7971405,-0.45804095,-2.4894848,-0.4129064,1.271614,1.167193,0.03999956,0.039999858,0.015035960508669177,-0.03920879994409043,0.01924362252078149,0.23902188700151378,0.17938647763439322,-0.029105083326731923,0.9009340399552952,0.3650466866139469,-0.23066954155844882,-0.043015518586021304
568.5666666664782,-0.107325174,-0.79721993,-0.4608548,-2.4903026,-0.41544503,1.2697748,1.1695349,0.039999537,0.039999858,0.014466395634604723,-0.039419180519351116,0.019675089178783356,0.23708770664973783,0.17850324982070329,-0.028918507880663524,0.8997827333209979,0.3669026482468534,-0.23215989337314777,-0.043304311977083884
568.5833333331449,-0.10797791,-0.7972991,-0.4636511,-2.4911146,-0.41796768,1.2679473,1.171862,0.0399995,0.03999985,0.015926215244599362,-0.03880518252310505,0.020887174950234844,0.23513306399575068,0.17759335468620022,-0.02873045412015876,0.8986332894880963,0.368741041703014,-0.23364075809115623,-0.043591872478358294
568.5999999998115,-0.108626455,-0.7973775,-0.46642944,-2.4919221,-0.42047414,1.2661316,1.1741743,0.03999947,0.039999865,0.014279857877763646,-0.039564584585338736,0.021111480249369485,0.23315626340198398,0.17666238935913822,-0.0285418665859401,0.8974858257328163,0.37056157264465706,-0.23511275089742,-0.043878330110103725
568.6166666664782,-0.10927074,-0.79745555,-0.46918955,-2.4927244,-0.42296422,1.2643279,1.1764711,0.03999945,0.039999865,0.015503192513555142,-0.038967680631274426,0.02195966861521237,0.23116210259041092,0.1756996943016916,-0.028349519167811643,0.8963407242876802,0.3723640757816464,-0.23657531539914736,-0.04416357316286096
568.6333333331448,-0.109910704,-0.7975333,-0.4719311,-2.493521,-0.4254376,1.262536,1.1787524,0.039999418,0.039999865,0.016313421467084588,-0.038629639144072137,0.022681194325591125,0.22914950447666455,0.17471386555588378,-0.02815824513051264,0.895198196796767,0.37414865064729064,-0.23802812775615698,-0.044447565372323715
568.6499999998115,-0.11054627,-0.7976104,-0.4746538,-2.4943118,-0.42789412,1.2607564,1.1810182,0.03999939,0.039999865,0.016215917991790896,-0.03843337221086651,0.02342211644824621,0.2271181344412746,0.17370438621677126,-0.027963281976220028,0.8940584158065688,0.37591528917457995,-0.2394711636498057,-0.04473037301933124
568.6666666664781,-0.11117736,-0.7976871,-0.47735736,-2.4950974,-0.43033326,1.2589896,1.1832682,0.03999936,0.03999986,0.015776414221413404,-0.038698279053428486,0.024321353965395254,0.22506801165856496,0.1726676673163943,-0.027766321529596696,0.8929217319407151,0.3776637400690262,-0.24090416375696502,-0.04501182011012343
568.6833333331448,-0.11180394,-0.7977631,-0.4800414,-2.495877,-0.43275493,1.2572352,1.1855018,0.03999933,0.03999987,0.016676048491692796,-0.038145621641194616,0.02480262571674663,0.22299970767315658,0.17160897121715638,-0.02756869438210624,0.8917883402418396,0.37939393020618156,-0.24232713309853393,-0.04529196943893246
568.6999999998114,-0.11242592,-0.7978388,-0.4827058,-2.496651,-0.4351588,1.255494,1.1877196,0.039999295,0.039999865,0.016608886555879998,-0.03801834910178714,0.025725849422730818,0.22091514254317562,0.17052348575769213,-0.027369200864336418,0.8906584669690725,0.38110607935316065,-0.24373953463484138,-0.04557072253492214
568.7166666664781,-0.113043234,-0.7979138,-0.4853501,-2.4974194,-0.43754464,1.2537657,1.1899205,0.039999273,0.039999872,0.016251717153026313,-0.038220776060282624,0.02600423967937804,0.21881194619052988,0.16941560490651783,-0.02716664927649798,0.8895323868492179,0.3827996622361257,-0.24514180016156298,-0.04584810957705691
568.7333333331447,-0.1136558,-0.7979883,-0.48797414,-2.498182,-0.43991214,1.2520508,1.1921043,0.039999243,0.039999865,0.01670470613255315,-0.03784861217457358,0.02689380237698158,0.21669383637035677,0.1682804444014478,-0.026963605707948687,0.8884104358614073,0.38447462176236474,-0.2465334545975988,-0.04612394646390052
568.7499999998114,-0.11426358,-0.79806226,-0.4905776,-2.4989386,-0.44226122,1.2503489,1.1942711,0.039999202,0.039999865,0.017409597073370087,-0.037332849360915965,0.02735562251451329,0.21456118219213408,0.16712319863630123,-0.02676196993986664,0.8872927382106518,0.38613113463700627,-0.24791437589533533,-0.04639833840784073
568.766666666478,-0.11486649,-0.7981355,-0.4931603,-2.4996889,-0.44459143,1.2486608,1.1964206,0.039999176,0.039999872,0.017301128134339372,-0.03716123446142472,0.028364338614761397,0.2124127791663769,0.16594096689312707,-0.026557572035701804,0.8861795732973275,0.3877691221912791,-0.24928432721227162,-0.04667114688859423
568.7833333331447,-0.115464464,-0.7982083,-0.49572182,-2.5004332,-0.44690266,1.2469865,1.1985523,0.039999153,0.039999876,0.017303267367729802,-0.03716157201171244,0.028823362585495005,0.21024998039732984,0.164734715415471,-0.02635148986859301,0.8850712582995371,0.38938832525959277,-0.2506431956467677,-0.04694239405462684
568.7999999998113,-0.116057456,-0.7982805,-0.49826205,-2.5011714,-0.4491946,1.2453263,1.2006665,0.03999912,0.03999987,0.01750694883462245,-0.03673462327664634,0.029510715787950392,0.20807430744082184,0.1635045468464131,-0.026144786344771326,0.8839679024622578,0.3909890242273652,-0.2519907840580473,-0.04721202283338111
568.816666666478,-0.11664539,-0.79835206,-0.5007806,-2.5019035,-0.45146707,1.24368,1.2027627,0.039999086,0.03999987,0.01738321469588744,-0.036873514377466776,0.02987620689752779,0.20588271026872956,0.16225312494007738,-0.025937870371594507,0.8828698169570697,0.3925708325321815,-0.2533272110264042,-0.04748001584629111
568.8333333331447,-0.11722824,-0.7984231,-0.50327724,-2.5026288,-0.45371982,1.242048,1.2048407,0.03999906,0.039999876,0.01862086337642843,-0.03584468383240891,0.030902746306504802,0.20367920579358076,0.1609767384579069,-0.025730231085470415,0.8817772603864807,0.39413399132443566,-0.2546518231476962,-0.04774629740133633
568.8499999998113,-0.11780591,-0.79849356,-0.50575167,-2.5033476,-0.4559526,1.2404307,1.2069001,0.039999034,0.03999987,0.018082790291140682,-0.036021700772315146,0.031529836914945264,0.20146401653365476,0.15967867774569458,-0.02551936205457289,0.8806904968446291,0.3956782894538639,-0.2559646390522949,-0.048010869365731436
568.866666666478,-0.11837839,-0.79856336,-0.5082037,-2.5040603,-0.4581653,1.2388278,1.2089411,0.039999004,0.03999988,0.01782069834619371,-0.0360013537859194,0.03161642257528685,0.19923557707373657,0.15836229790328105,-0.025309208670690628,0.8796096344821035,0.39720373464076547,-0.2572658754527051,-0.04827373448617732
568.8833333331446,-0.11894557,-0.7986325,-0.5106332,-2.504766,-0.4603575,1.2372398,1.210963,0.039998975,0.039999876,0.018661947710763016,-0.03522104009245908,0.03271147044716649,0.19699709597097642,0.15701984992986748,-0.025097436933573913,0.8785350424324754,0.3987102820247008,-0.2585549751180449,-0.04853467902087328
568.8999999998113,-0.119507425,-0.79870117,-0.51303965,-2.5054653,-0.46252903,1.235667,1.2129658,0.039998952,0.039999887,0.018338260712957855,-0.03538826155343733,0.033174426821203085,0.19474785220110874,0.15565827525417555,-0.02488592640207722,0.8774669463433934,0.40019784587622265,-0.25983188576747085,-0.0487937841261715
568.9166666664779,-0.12006389,-0.798769,-0.51542306,-2.5061576,-0.46467978,1.2341092,1.2149496,0.039998926,0.039999887,0.018719641323849956,-0.03475745808397823,0.033659011731501653,0.1924884900103659,0.15427635832511113,-0.024672959829489804,0.876405445520081,0.4016665969688974,-0.26109660149346947,-0.04905104107696314
568.9333333331446,-0.1206149,-0.7988363,-0.51778316,-2.506844,-0.4668096,1.2325664,1.216914,0.039998896,0.0399999,0.017786510044004444,-0.03523646566068184,0.033624303498813735,0.19021772915812946,0.15287404710500188,-0.02446069126938305,0.8753507672322512,0.40311625735170703,-0.26234937301647715,-0.04930642800409366
568.9499999998112,-0.121160425,-0.79890275,-0.5201197,-2.5075228,-0.46891809,1.2310386,1.2188588,0.039998867,0.039999895,0.01972787990467406,-0.033934366875087996,0.03480508459221543,0.187939793157888,0.15144683340507678,-0.02424776072632133,0.8743031534978317,0.40454710267192323,-0.2635895749738495,-0.04955979689833991
568.9666666664779,-0.12170041,-0.79896873,-0.5224329,-2.5081947,-0.4710052,1.2295265,1.2207836,0.039998855,0.03999991,0.01883188291567084,-0.03373579651223535,0.03509427817739441,0.1856515111470577,0.1500010067229111,-0.024033620319068277,0.8732629072160669,0.4059589880202703,-0.2648170368090044,-0.04981096206458207
568.9833333331445,-0.12223481,-0.79903406,-0.5247218,-2.5088596,-0.4730707,1.22803,1.2226887,0.03999883,0.039999913,0.019187767072414985,-0.03396930931063302,0.03577266947433211,0.1833540739903871,0.1485368279606102,-0.023821400533241027,0.8722301477687496,0.40735194627325166,-0.2660318218291771,-0.05006027332074677
568.9999999998112,-0.12276355,-0.7990987,-0.5269866,-2.5095177,-0.47511446,1.2265493,1.2245735,0.039998807,0.03999992,0.018939260525074886,-0.03340414628675292,0.036161310224014365,0.1810496242800405,0.14705184249390732,-0.0236080140299402,0.8712051414587789,0.4087258779436877,-0.2672338222620031,-0.05030747890911569
569.0166666664778,-0.12328661,-0.7991626,-0.5292271,-2.510169,-0.47713634,1.2250843,1.2264383,0.03999879,0.039999936,0.018765515652185982,-0.03336726836253856,0.03632838248583958,0.1787374798851746,0.14554866715669712,-0.023394728585638846,0.8701879804619715,0.4100808853796622,-0.2684231304079822,-0.050552637594165915
569.0333333331445,-0.12380396,-0.7992259,-0.53144294,-2.510813,-0.47913596,1.2236351,1.2282826,0.039998766,0.039999932,0.019717903424232297,-0.03278488220593845,0.037079203056855636,0.17641967229451305,0.14402303651208914,-0.023180631632134366,0.8691789474119959,0.41141697375746156,-0.26959940384313086,-0.05079559555173719
569.0499999998111,-0.12431553,-0.79928863,-0.53363425,-2.51145,-0.48111337,1.2222035,1.2301062,0.03999875,0.03999995,0.018871183808211178,-0.032003994139029324,0.03841458775252771,0.1740952166370827,0.14247802532075965,-0.02296517085600934,0.8681784336055383,0.4127341616018015,-0.2707619101525129,-0.05103633293698265
569.0666666664778,-0.12482127,-0.7993505,-0.53580034,-2.5120795,-0.4830682,1.2207882,1.2319092,0.039998714,0.039999943,0.020026658798899533,-0.03201434934282377,0.038465035274787285,0.17176561005297097,0.14092232490594875,-0.02275016885129133,0.867186488827027,0.41403247018253153,-0.2719109934485007,-0.0512749341516228
569.0833333331444,-0.12532113,-0.7994117,-0.5379416,-2.5127017,-0.48500043,1.2193887,1.233691,0.039998695,0.039999954,0.019382424026370693,-0.03198272411638614,0.03778385042785826,0.16943181462812112,0.13934766298035053,-0.0225300292628198,0.8662031974765099,0.4153118017150865,-0.2730471154236972,-0.05151117156925305
569.0999999998111,-0.12581514,-0.79947233,-0.54005736,-2.5133164,-0.4869099,1.2180048,1.235452,0.039998677,0.039999958,0.02025773840614864,-0.03158018562794407,0.03840030214093404,0.16709350305027434,0.13775355621010046,-0.022315323737896547,0.8652286692195318,0.41657242721885734,-0.2741700106866456,-0.05174522279082659
569.1166666664777,-0.12630321,-0.7995322,-0.54214793,-2.5139236,-0.48879638,1.2166388,1.2371919,0.03999866,0.039999973,0.019401429028942374,-0.03062135625614415,0.04010144060557774,0.16474801653718643,0.1361413594813116,-0.022099309993141733,0.8642633813285602,0.41781429966995515,-0.2752788160396235,-0.051976842205466646
569.1333333331444,-0.12678532,-0.7995912,-0.5442129,-2.5145235,-0.4906598,1.2152889,1.2389103,0.039998636,0.03999997,0.01975685968904628,-0.03102107937564824,0.03923301441851601,0.16239845133247194,0.13451864441153114,-0.021883182606869125,0.863307298877901,0.41903727447398476,-0.2763743666519825,-0.05220612764103784
569.149999999811,-0.12726139,-0.7996496,-0.546252,-2.515116,-0.49250004,1.2139564,1.2406073,0.03999862,0.039999988,0.019748592670776333,-0.03033003031737147,0.04048218284826155,0.16004750733487366,0.13287620324503116,-0.0216673058918104,0.8623607805706386,0.42024145910171334,-0.27745589732585596,-0.05243305469611706
569.1666666664777,-0.12773143,-0.79970723,-0.54826504,-2.5157008,-0.4943169,1.2126403,1.2422829,0.03999859,0.039999984,0.02015781454995924,-0.030255542631452137,0.04023962442756268,0.15769261331260706,0.13122239456163132,-0.021453175182648082,0.8614237915771739,0.42142699480327017,-0.27852380143916206,-0.05265768118487765
569.1833333331443,-0.1281954,-0.7997641,-0.5502522,-2.5162783,-0.4961102,1.2113415,1.2439368,0.039998576,0.03999999,0.019569198711288927,-0.029787625732924372,0.04083990728703246,0.1553369558966104,0.129548851036295,-0.021235081196503733,0.8604966080205025,0.4225938501348957,-0.2795778205144887,-0.05287974744402061
569.199999999811,-0.12865327,-0.79982036,-0.55221313,-2.5168486,-0.49788,1.2100594,1.245569,0.039998554,0.04,0.019602539913288197,-0.029839802720155184,0.04061810085256301,0.15296338961507155,0.127884255989788,-0.02103817445485022,0.859579316071755,0.42374198582340605,-0.28061821163229705,-0.053099417438816944
569.2166666664776,-0.12910502,-0.7998759,-0.5541478,-2.5174112,-0.49962607,1.2087951,1.2471793,0.039998535,0.04,0.019924280647143355,-0.028887596460414056,0.04183763179259614,0.1506016874020843,0.1261845674002193,-0.020826651668061663,0.858672226986241,0.4248715535195237,-0.2816443070790321,-0.053316544358839126
569.2333333331443,-0.12955056,-0.7999307,-0.5560559,-2.5179658,-0.5013483,1.2075478,1.2487675,0.03999852,0.04,0.020627625615610157,-0.02849123963685196,0.041832676379666145,0.1482405206652917,0.12447277138464902,-0.020614235883264123,0.8577754125166981,0.42598263418719307,-0.28265623998788064,-0.05353117828576188
569.2499999998109,-0.1299899,-0.7999846,-0.5579377,-2.5185127,-0.5030467,1.2063178,1.2503339,0.0399985,0.04,0.019814640269766315,-0.02832634477888396,0.0418660201076948,0.1458780957908172,0.12274955871863853,-0.020400851971892384,0.8568889066948892,0.4270753727608341,-0.2836541725630458,-0.05374325959602697
569.2666666664776,-0.13042307,-0.8000378,-0.5597927,-2.5190516,-0.504721,1.2051053,1.2518774,0.03999849,0.04,0.020619476271610537,-0.02775887147643541,0.04257482142808189,0.14351574065474995,0.12101150001581344,-0.020187835306373428,0.8560131614312041,0.42814949022191207,-0.284637653244407,-0.05395264437253289
569.2833333331442,-0.13084997,-0.80009025,-0.56162107,-2.5195825,-0.506371,1.2039101,1.2533984,0.03999847,0.04,0.020178143849003405,-0.027721163153571204,0.04248218662670222,0.14115515448831867,0.11926443014222386,-0.019977382231287394,0.855148149121841,0.42920517542158626,-0.28560695862768704,-0.05415926170340229
569.2999999998109,-0.13127062,-0.80014205,-0.5634225,-2.5201056,-0.5079971,1.2027324,1.2548978,0.039998453,0.04,0.020334822118961426,-0.027123479055557453,0.04280081657562773,0.13879628765698368,0.11750649250309349,-0.019768520869704473,0.8542938291026629,0.4302429192715685,-0.28656185222757735,-0.05436348794631072
569.3166666664775,-0.13168488,-0.80019313,-0.56519705,-2.5206208,-0.5095986,1.2015724,1.2563747,0.03999843,0.04,0.02015279123879221,-0.027130523092111503,0.04324939848559528,0.136435564943651,0.11573809530943394,-0.019556940553259003,0.8534505464686384,0.4312623830098456,-0.2875023409398759,-0.05456487594728818
569.3333333331442,-0.13209295,-0.8002433,-0.56694454,-2.5211284,-0.5111759,1.2004302,1.2578293,0.039998412,0.04,0.019835081360586315,-0.02665193453532666,0.0432205660226781,0.1340779146160695,0.11396013022307253,-0.019347729862513263,0.8526182966684883,0.43226377064501925,-0.2884285224752721,-0.05476367588655452
569.3499999998108,-0.13249466,-0.80029285,-0.568665,-2.5216284,-0.51272875,1.1993053,1.2592614,0.039998397,0.04,0.019911588013798998,-0.026512678537893297,0.04315316119131163,0.13172285984491872,0.11216989864050077,-0.019137745756881416,0.8517972337037432,0.4332470324681837,-0.2893404715388078,-0.05495974019101399
569.3666666664775,-0.13289003,-0.80034155,-0.5703583,-2.5221205,-0.514257,1.1981983,1.2606708,0.03999837,0.04,0.02009065183496972,-0.026011409428972065,0.04388412022286459,0.12936980154626865,0.11037040055290381,-0.01893101779161223,0.8509875459329016,0.4342122663416943,-0.29023791430733936,-0.05515303730559738
569.3833333331442,-0.13327909,-0.80038965,-0.5720242,-2.5226042,-0.51576066,1.1971093,1.2620574,0.039998356,0.04,0.020725037961399906,-0.025220046475304958,0.04420598120393193,0.12702074850163342,0.10856257491319152,-0.018724801818830974,0.8501894047310024,0.4351596702787571,-0.2911204791126786,-0.055343509892593165
569.3999999998108,-0.13366175,-0.80043674,-0.57366306,-2.52308,-0.51723987,1.196038,1.2634214,0.039998338,0.04,0.01988447628553658,-0.025169520151380187,0.04381074088380954,0.12467615776715321,0.10675016054866085,-0.018518285749156302,0.8494027366313055,0.43608925918359426,-0.2919887465358049,-0.05553126078527909
569.4166666664775,-0.13403802,-0.8004832,-0.5752744,-2.5235481,-0.5186944,1.1949847,1.2647626,0.039998326,0.04,0.0201529607426032,-0.024980761130666274,0.04436759426881265,0.12233558758798743,0.10492747056947518,-0.018312266293886312,0.848627809053019,0.43700105398478706,-0.29284231750395495,-0.05571622382188721
569.4333333331441,-0.13440791,-0.8005289,-0.5768582,-2.5240085,-0.52012426,1.193949,1.2660811,0.03999831,0.04,0.01979840699024571,-0.024940001483708674,0.04415601756675436,0.11999974289840337,0.10309965613361521,-0.018107406540994866,0.8478646161065192,0.4378950719724089,-0.2936815654159099,-0.05589845106695177
569.4499999998108,-0.13477144,-0.8005739,-0.578415,-2.5244606,-0.5215292,1.1929315,1.267377,0.0399983,0.04,0.020290511248988174,-0.02379030495912593,0.04466634891243659,0.11767153487845393,0.10126172203198755,-0.01790370541752935,0.8471132535707044,0.43877183599855035,-0.2945058826671941,-0.05607759475703056
569.4666666664774,-0.13512856,-0.80061805,-0.5799444,-2.5249047,-0.52290964,1.1919318,1.26865,0.03999828,0.04,0.019872064869241868,-0.023803186651638608,0.04431483465653363,0.11534595026461582,0.0994225130042375,-0.017701101923561433,0.8463738019546067,0.4396310822000209,-0.2953157462634201,-0.05625396819266922
569.4833333331441,-0.13547929,-0.8006615,-0.5814464,-2.5253413,-0.5242652,1.1909502,1.2699004,0.039998263,0.04,0.01953330443953405,-0.023819290643478652,0.044556759481806374,0.11302626750977683,0.09757778176107283,-0.017498923566459365,0.8456463412433566,0.44047296908372974,-0.29611109039486766,-0.056427397542780304
569.4999999998107,-0.13582358,-0.800704,-0.5829209,-2.525769,-0.52559596,1.1899863,1.2711276,0.039998237,0.04,0.020871007416523035,-0.022625230084749592,0.045122910402300986,0.11071419240525063,0.09572681771123377,-0.01729996903216252,0.8449310711994884,0.4412975909424399,-0.2968915653468878,-0.056597876072857586
569.5166666664774,-0.13616143,-0.8007458,-0.58436793,-2.5261889,-0.5269022,1.1890402,1.2723321,0.039998222,0.04,0.019863657253238465,-0.022867773246404433,0.04448472160853978,0.10840841555049885,0.0938757116375042,-0.017101624328889883,0.8442278945718303,0.4421050741548193,-0.29765757272087906,-0.05676561314115076
569.533333333144,-0.13649292,-0.80078673,-0.5857876,-2.5266008,-0.5281837,1.1881123,1.2735137,0.0399982,0.04,0.019576026306178385,-0.02242801778156167,0.044928934795823716,0.10611077014073536,0.09201895262441653,-0.016903398124708244,0.8435369804910454,0.4428954882729117,-0.29840891222545013,-0.05693039711764175
569.5499999998107,-0.13681799,-0.80082697,-0.58717996,-2.5270052,-0.5294402,1.1872023,1.2746725,0.039998177,0.04,0.01929346683076094,-0.022559952837042374,0.044810359505137454,0.10382233513270407,0.09015944816699771,-0.016705473360468584,0.8428583647579085,0.44366889565134443,-0.29914575377619806,-0.05709208339876172
569.5666666664773,-0.13713668,-0.80086637,-0.5885448,-2.5274017,-0.5306722,1.1863103,1.2758087,0.03999817,0.04,0.019653947583808673,-0.021851931459515583,0.044833368324737055,0.10154224339306421,0.08829837899386606,-0.016510665999561497,0.8421920560311984,0.44442547831010604,-0.2998680689125657,-0.05725099329640646
569.583333333144,-0.13744903,-0.80090517,-0.5898822,-2.5277903,-0.5318794,1.185436,1.2769219,0.03999815,0.04,0.01965562400261245,-0.02166716340206154,0.04473253777028119,0.09927144481789973,0.08643446428244646,-0.016316779606168105,0.8415382006537729,0.44516521847002544,-0.30057583991822406,-0.05740687730924769
569.5999999998106,-0.13775495,-0.8009431,-0.5911922,-2.5281713,-0.53306204,1.1845794,1.2780122,0.03999814,0.04,0.019230302774775332,-0.02153526857340271,0.044672763307052055,0.09701157280816686,0.08456970947005896,-0.016124783723979665,0.8408967820485389,0.4458881481393925,-0.3012693533418476,-0.057559864716834025
569.6166666664773,-0.13805456,-0.80098027,-0.5924751,-2.5285442,-0.53422004,1.1837407,1.2790799,0.039998125,0.04,0.01955553502350771,-0.020562405877100343,0.044798461485018315,0.09476320712380916,0.08270278592983896,-0.01593486440281191,0.8402677951803204,0.44659477847783935,-0.3019482022591423,-0.05770978575254635
569.6333333331439,-0.1383478,-0.8010166,-0.59373075,-2.5289087,-0.53535336,1.18292,1.280125,0.039998114,0.04,0.019875773406319297,-0.02026550226030821,0.045074283655521796,0.0925241405566984,0.08083775899897948,-0.015746464183102223,0.8396513404613543,0.44728512410452664,-0.3026123686041205,-0.057856707338500554
569.6499999998106,-0.13863468,-0.8010522,-0.59495926,-2.5292652,-0.5364622,1.1821172,1.2811475,0.0399981,0.04,0.019479097755392694,-0.019940803951767894,0.04492698729181566,0.09029543313856248,0.07897551330989588,-0.01555741398959097,0.8390474655654454,0.44795926246888673,-0.30326189579436696,-0.05800062289096971
569.6666666664772,-0.13891521,-0.8010871,-0.59616065,-2.529614,-0.5375464,1.1813319,1.2821474,0.039998077,0.04,0.019009575376816024,-0.02035424321988888,0.04440523882778269,0.08807874482040479,0.07711654826777548,-0.015370951884337333,0.8384561160398605,0.4486171810845963,-0.3038972436494165,-0.05814147928415622
569.6833333331439,-0.13918942,-0.8011211,-0.597335,-2.5299551,-0.5386064,1.1805639,1.2831249,0.039998062,0.04,0.01891859265006346,-0.019752248112425708,0.04425107638946768,0.08587453948591418,0.07525902699930878,-0.015185920287265786,0.8378772697836798,0.44925904054149846,-0.30451846818220374,-0.05827948015848358
569.6999999998105,-0.13945736,-0.8011543,-0.59848225,-2.5302885,-0.53964204,1.1798139,1.2840799,0.039998047,0.04,0.019050877229953578,-0.019235886209290065,0.04472602633444067,0.08368305452015767,0.07340263170792026,-0.015003583346756999,0.8373110759020548,0.44988497364412805,-0.3051252523474192,-0.05841449341464258
569.7166666664772,-0.13971904,-0.8011869,-0.599603,-2.5306137,-0.5406535,1.1790814,1.2850126,0.039998032,0.04,0.019150248381261115,-0.01852394515897693,0.04422594988399142,0.08150569980302608,0.0715514124325653,-0.01482156642783048,0.8367574554912917,0.450495336454673,-0.3057175706801751,-0.0585463875037768
569.7333333331438,-0.13997446,-0.8012187,-0.6006968,-2.5309315,-0.5416408,1.1783664,1.285923,0.039998017,0.04,0.018459251390035014,-0.019126777335454204,0.04414799428911209,0.07934072117353709,0.06970611227922091,-0.01464143353098437,0.836216432055814,0.4510899124744887,-0.3062958900080529,-0.058675355881127454
569.7499999998105,-0.14022368,-0.80124974,-0.601764,-2.5312414,-0.54260415,1.1776688,1.2868114,0.039998006,0.04,0.018837621227096868,-0.018187673931113757,0.04397597913938789,0.0771920447493723,0.06786413167257908,-0.014463175728141174,0.8356879549363173,0.45166910793701864,-0.30686000076930825,-0.058801350644298804
