rsonawane2002/My_IMU/logs_2/traj_302/imu_400hz_302.csv
time,j1,j2,j3,j4,j5,j6,j7,gripper1,gripper2,imu_ax,imu_ay,imu_az,imu_gx,imu_gy,imu_gz
0.0,0.00016700293,-0.785875,4.0107683e-05,-2.3551247,9.29385e-05,1.570997,0.786,0.04,0.04,-9.486412,0.0189379453659057,0.10635095,1.506047e-07,-0.0011641274904832,4.724578e-07
0.0025,0.000167003083,-0.785857774,4.010714255e-05,-2.35513919,9.29423994e-05,1.570996565,0.786,0.04,0.04,-9.538611850000047,0.01619026643165597,0.09176291854998674,2.84757395000122e-07,-0.0013251559867059066,5.320809100000543e-07
0.005,0.000167003236,-0.785840548,4.0106602100000004e-05,-2.3551536800000004,9.294629880000002e-05,1.57099613,0.786,0.04,0.04,-9.590811700000094,0.013442587497406242,0.07717488709997347,4.18910090000244e-07,-0.001486184482928613,5.917040200001085e-07
0.0075,0.000167003389,-0.7858233219999999,4.010606165e-05,-2.3551681700000002,9.295019820000001e-05,1.570995695,0.786,0.04,0.04,-9.643011550000143,0.010694908563156514,0.0625868556499602,5.53062785000366e-07,-0.0016472129791513194,6.513271300001627e-07
0.01,0.00016700354200000002,-0.785806096,4.01055212e-05,-2.35518266,9.295409760000001e-05,1.5709952600000001,0.786,0.04,0.04,-9.69521140000019,0.007947229628906784,0.04799882419994693,6.87215480000488e-07,-0.001808241475374026,7.109502400002169e-07
0.0125,0.000167003695,-0.78578887,4.010498075e-05,-2.3551971500000004,9.295799700000001e-05,1.570994825,0.786,0.04,0.04,-9.747411250000237,0.005199550694657055,0.03341079274993365,8.2136817500061e-07,-0.0019692699715967324,7.705733500002711e-07
0.015,0.000167003848,-0.785771644,4.01044403e-05,-2.3552116400000003,9.296189640000002e-05,1.57099439,0.786,0.04,0.04,-9.799611100000284,0.0024518717604073287,0.0188227612999204,9.55520870000732e-07,-0.0021302984678194387,8.301964600003253e-07
0.0175,0.0001670033415,-0.7857548645,4.0100237499999924e-05,-2.3552257350000003,9.296285819999997e-05,1.57099396,0.786,0.04,0.03999999975,-9.834310999999998,0.0006137307413153586,0.00902048688499853,1.4233731750072284e-06,-0.002286920743063941,8.878293450003416e-07
0.02,0.000167001516,-0.7857389779999999,4.0088709999999914e-05,-2.3552390400000003,9.295794479999997e-05,1.5709935400000001,0.786,0.04,0.039999999,-9.834010999999997,0.0005946655524892813,0.008789726539998322,2.55862470000826e-06,-0.0024347305763522753,9.414817800003904e-07
0.0225,0.00016699969049999998,-0.7857230914999999,4.0077182499999904e-05,-2.3552523450000002,9.295303139999995e-05,1.57099312,0.786,0.04,0.03999999825,-9.833710999999997,0.0005756003636632039,0.00855896619499811,3.693876225009292e-06,-0.00258254040964061,9.951342150004391e-07
0.025,0.000166997865,-0.7857072049999999,4.0065654999999893e-05,-2.35526565,9.294811799999995e-05,1.5709927,0.786,0.04,0.0399999975,-9.833410999999996,0.0005565351748371266,0.008328205849997902,4.8291277500103255e-06,-0.0027303502429289446,1.048786650000488e-06
0.0275,0.0001669960395,-0.7856913184999998,4.005412749999988e-05,-2.355278955,9.294320459999995e-05,1.57099228,0.786,0.04,0.03999999675,-9.833110999999997,0.0005374699860110492,0.008097445504997691,5.964379275011357e-06,-0.002878160076217279,1.1024390850005366e-06
0.03,0.00016699421399999997,-0.7856754319999998,4.004259999999987e-05,-2.35529226,9.293829119999996e-05,1.57099186,0.786,0.04,0.039999996,-9.832810999999998,0.0005184047971849719,0.007866685159997482,7.099630800012389e-06,-0.003025969909505613,1.1560915200005855e-06
0.0325,0.00016699238849999997,-0.7856595454999998,4.003107249999986e-05,-2.355305565,9.293337779999994e-05,1.57099144,0.786,0.04,0.03999999525,-9.832510999999997,0.0004993396083588945,0.007635924814997272,8.234882325013424e-06,-0.0031737797427939477,1.2097439550006344e-06
0.035,0.0001669868109999999,-0.7856445149999998,4.000025249999948e-05,-2.3553181,9.290955849999959e-05,1.57099101,0.786,0.04,0.0399999955,-9.832224099999996,0.000468328531132509,0.007420044669997346,1.0636414750038644e-05,-0.003313195030206632,9.664952899950119e-07
0.0375,0.0001669793574999999,-0.7856299124999998,3.995978624999945e-05,-2.35533025,9.287628624999956e-05,1.570990575,0.786,0.04,0.03999999625,-9.831943749999997,0.00043134450970629546,0.007211604624997156,1.3671087625041398e-05,-0.0034484130446817197,5.747960749946565e-07
0.04,0.00016697190399999988,-0.7856153099999997,3.991931999999941e-05,-2.3553424,9.284301399999952e-05,1.57099014,0.786,0.04,0.039999997,-9.831663399999996,0.0003943604882800818,0.007003164579996966,1.670576050004416e-05,-0.003583631059156808,1.8309685999429993e-07
0.0425,0.00016696445049999988,-0.7856007074999998,3.9878853749999374e-05,-2.35535455,9.280974174999949e-05,1.5709897050000001,0.786,0.04,0.03999999775,-9.831383049999996,0.00035737646685386813,0.006794724534996777,1.9740433375046926e-05,-0.003718849073631896,-2.0860235500605668e-07
0.045,0.00016695699699999987,-0.7855861049999998,3.983838749999933e-05,-2.3553667000000003,9.277646949999946e-05,1.57098927,0.786,0.04,0.0399999985,-9.831102699999995,0.0003203924454276546,0.006586284489996588,2.2775106250049677e-05,-0.0038540670881069836,-6.003015700064122e-07
0.0475,0.00016694954349999986,-0.7855715024999997,3.97979212499993e-05,-2.35537885,9.274319724999943e-05,1.570988835,0.786,0.04,0.03999999925,-9.830822349999995,0.0002834084240014409,0.006377844444996398,2.580977912505244e-05,-0.003989285102582072,-9.920007850067686e-07
0.05,0.00016694208999999964,-0.7855568999999998,3.975745499999826e-05,-2.355391,9.270992499999848e-05,1.5709884,0.786,0.04,0.04,-9.830541999999994,0.00024642440257495967,0.006169404399996501,2.8844452000105794e-05,-0.004124503117056927,-1.3837000000126856e-06
0.0525,0.00016692339699999963,-0.7855434554999997,3.966226799999818e-05,-2.3554021300000003,9.26262827499984e-05,1.57098798,0.786,0.04,0.04,-9.830264424999994,0.00019473097054185674,0.005977060599996326,3.466013695011107e-05,-0.004246935271660339,-2.0810569000133185e-06
0.055,0.00016690470399999963,-0.7855300109999998,3.956708099999809e-05,-2.35541326,9.254264049999833e-05,1.57098756,0.786,0.04,0.04,-9.829986849999994,0.0001430375385087537,0.005784716799996151,4.047582190011636e-05,-0.00436936742626375,-2.7784138000139536e-06
0.0575,0.00016688601099999962,-0.7855165664999998,3.947189399999801e-05,-2.35542439,9.245899824999825e-05,1.57098714,0.786,0.04,0.04,-9.829709274999994,9.134410647565063e-05,0.005592372999995977,4.6291506850121655e-05,-0.004491799580867161,-3.4757707000145883e-06
0.06,0.00016686731799999958,-0.7855031219999997,3.9376706999997924e-05,-2.3554355200000003,9.237535599999818e-05,1.57098672,0.786,0.04,0.04,-9.829431699999994,3.9650674442547724e-05,0.005400029199995802,5.2107191800126936e-05,-0.004614231735470572,-4.173127600015221e-06
0.0625,0.00016684862499999958,-0.7854896774999998,3.928151999999784e-05,-2.35544665,9.22917137499981e-05,1.5709863,0.786,0.04,0.04,-9.829154124999993,-1.2042757590555316e-05,0.005207685399995627,5.792287675013223e-05,-0.004736663890073984,-4.870484500015856e-06
0.065,0.00016682993199999957,-0.7854762329999997,3.918633299999775e-05,-2.35545778,9.220807149999803e-05,1.57098588,0.786,0.04,0.04,-9.828876549999993,-6.373618962365841e-05,0.005015341599995451,6.373856170013753e-05,-0.004859096044677395,-5.5678414000164914e-06
0.0675,0.0001668050519999991,-0.7854631479999997,3.906194424999551e-05,-2.35546855,9.2098084799996e-05,1.570985455,0.786000095,0.04,0.04,-9.828605024999993,-0.0001193299831372415,0.004827351549995597,7.076019925023166e-05,-0.0049774760613244835,-6.306373375020159e-06
0.07,0.00016676779799999905,-0.7854507819999997,3.8879151999995345e-05,-2.3554786,9.193540919999586e-05,1.57098502,0.78600038,0.04,0.04,-9.828345599999993,-0.0001827244996109332,0.004648068999995434,8.019374200024026e-05,-0.005087751802059809,-7.127255500020907e-06
0.0725,0.00016673054399999902,-0.7854384159999998,3.869635974999518e-05,-2.3554886500000003,9.177273359999571e-05,1.570984585,0.786000665,0.04,0.04,-9.828086174999992,-0.00024611901608462456,0.004468786449995272,8.96272847502488e-05,-0.0051980275427951335,-7.94813762502165e-06
0.075,0.000166693289999999,-0.7854260499999997,3.851356749999501e-05,-2.3554987,9.161005799999557e-05,1.57098415,0.78600095,0.04,0.04,-9.827826749999993,-0.00030951353255831627,0.004289503899995108,9.906082750025738e-05,-0.005308303283530459,-8.769019750022396e-06
0.0775,0.00016665603599999896,-0.7854136839999997,3.833077524999485e-05,-2.3555087500000003,9.144738239999542e-05,1.5709837150000001,0.7860012350000001,0.04,0.04,-9.827567324999993,-0.000372908049032008,0.004110221349994945,0.00010849437025026596,-0.0054185790242657845,-9.589901875023145e-06
0.08,0.00016661878199999893,-0.7854013179999997,3.814798299999468e-05,-2.3555188,9.128470679999527e-05,1.57098328,0.78600152,0.04,0.04,-9.827307899999992,-0.0004363025655056997,0.003930938799994782,0.00011792791300027456,-0.00552885476500111,-1.0410784000023891e-05
0.0825,0.00016658152799999888,-0.7853889519999997,3.7965190749994515e-05,-2.3555288500000002,9.112203119999513e-05,1.570982845,0.786001805,0.04,0.04,-9.827048474999993,-0.0004996970819793915,0.0037516562499946187,0.00012736145575028315,-0.005639130505736435,-1.123166612502464e-05
0.085,0.00016652599699999802,-0.7853772429999997,3.769789579999043e-05,-2.35553868,9.088276899999143e-05,1.5709824000000001,0.78600209,0.04,0.04,-9.826789499999991,-0.0005735347920587349,0.003579689379994795,0.0001388075380003851,-0.005741231143477541,-1.243808655004327e-05
0.08750000000000001,0.00016646132749999795,-0.7853658624999996,3.738834949999014e-05,-2.3555484,9.060521349999117e-05,1.57098195,0.786002375,0.04,0.04,-9.826530749999991,-0.0006525940989401918,0.0034113803499946417,0.00015125989000039643,-0.005839244229722095,-1.3837276125044545e-05
0.09,0.00016639665799999788,-0.7853544819999996,3.707880319998986e-05,-2.3555581200000004,9.032765799999091e-05,1.5709815,0.7860026600000001,0.04,0.04,-9.82627199999999,-0.0007316534058216484,0.0032430713199944894,0.0001637122420004077,-0.005937257315966649,-1.5236465700045812e-05
0.0925,0.00016633198849999782,-0.7853431014999996,3.676925689998958e-05,-2.3555678400000004,9.005010249999067e-05,1.57098105,0.786002945,0.04,0.04,-9.82601324999999,-0.0008107127127031054,0.0030747622899943363,0.00017616459400041903,-0.006035270402211203,-1.6635655275047086e-05
0.095,0.00016626731899999778,-0.7853317209999996,3.64597105999893e-05,-2.3555775600000004,8.977254699999041e-05,1.5709806000000002,0.78600323,0.04,0.04,-9.825754499999992,-0.0008897720195845623,0.002906453259994183,0.00018861694600043037,-0.006133283488455757,-1.803484485004836e-05
0.0975,0.0001662026494999977,-0.7853203404999995,3.615016429998902e-05,-2.3555872800000004,8.949499149999016e-05,1.57098015,0.786003515,0.04,0.04,-9.825495749999991,-0.0009688313264660193,0.00273814422999403,0.00020106929800044171,-0.0062312965747003115,-1.9434034425049634e-05
0.1,0.00016613797999999629,-0.7853089599999996,3.5840617999982497e-05,-2.3555970000000004,8.921743599998425e-05,1.5709797,0.7860038,0.04,0.04,-9.825236999999994,-0.0010478906333478344,0.0025698351999942355,0.00021352165000063992,-0.006329309660944537,-2.0833224000069583e-05
0.10250000000000001,0.0001660356154999962,-0.7852984899999995,3.5359455199982056e-05,-2.35560573,8.878461609998386e-05,1.57097925,0.786004091,0.04,0.04,-9.825069899999994,-0.0011367899016509803,0.0024113918649940913,0.00023111068750065593,-0.006418275879699268,-2.2745798400071326e-05
0.105,0.0001659332509999961,-0.7852880199999995,3.487829239998162e-05,-2.3556144600000004,8.835179619998348e-05,1.5709788,0.786004382,0.04,0.04,-9.824902799999993,-0.0012256891699541257,0.002252948529993948,0.00024869972500067187,-0.006507242098453998,-2.465837280007306e-05
0.1075,0.000165830886499996,-0.7852775499999995,3.439712959998118e-05,-2.35562319,8.791897629998307e-05,1.57097835,0.786004673,0.04,0.04,-9.824735699999993,-0.0013145884382572716,0.0020945051949938036,0.00026628876250068786,-0.006596208317208729,-2.6570947200074798e-05
0.11,0.0001657285219999959,-0.7852670799999996,3.391596679998074e-05,-2.3556319200000004,8.748615639998268e-05,1.5709779,0.7860049640000001,0.04,0.04,-9.824568599999994,-0.0014034877065604175,0.0019360618599936594,0.0002838778000007039,-0.006685174535963461,-2.8483521600076538e-05
0.1125,0.0001656261574999958,-0.7852566099999996,3.3434803999980306e-05,-2.3556406500000007,8.705333649998228e-05,1.57097745,0.7860052550000001,0.04,0.04,-9.824401499999993,-0.0014923869748635634,0.0017776185249935151,0.0003014668375007199,-0.006774140754718191,-3.039609600007828e-05
0.115,0.00016552379299999571,-0.7852461399999996,3.2953641199979865e-05,-2.3556493800000005,8.662051659998189e-05,1.5709769999999998,0.786005546,0.04,0.04,-9.824234399999993,-0.0015812862431667093,0.001619175189993371,0.00031905587500073593,-0.006863106973472923,-3.230867040008002e-05
0.11750000000000001,0.00016540504399999351,-0.7852359444999997,3.239864484996996e-05,-2.3556579300000005,8.612092349997293e-05,1.5709765249999998,0.7860059305,0.04,0.04,-9.82404184999999,-0.0016738694277634127,0.0014625136649934552,0.0003385864750010009,-0.006948053068484618,-3.4411919750106215e-05
0.12,0.0001652535259999934,-0.7852262979999997,3.169598139996932e-05,-2.3556661200000004,8.548778399997235e-05,1.570976,0.786006502,0.04,0.04,-9.823798399999989,-0.0017738204449458232,0.0013094157599933167,0.0003620002000010221,-0.007024958916011777,-3.689651900010847e-05
0.1225,0.00016510200799999325,-0.7852166514999996,3.099331794996869e-05,-2.3556743100000004,8.485464449997178e-05,1.570975475,0.7860070735,0.04,0.04,-9.82355494999999,-0.0018737714621282343,0.0011563178549931774,0.00038541392500104346,-0.007101864763538938,-3.938111825011073e-05
0.125,0.0001649504899999931,-0.7852070049999996,3.0290654499968047e-05,-2.3556825000000003,8.422150499997121e-05,1.5709749499999999,0.786007645,0.04,0.04,-9.823311499999988,-0.0019737224793106452,0.0010032199499930379,0.00040882765000106475,-0.007178770611066098,-4.1865717500112987e-05
0.1275,0.000164798971999993,-0.7851973584999996,2.9587991049967406e-05,-2.3556906900000003,8.358836549997063e-05,1.570974425,0.7860082165,0.04,0.04,-9.82306804999999,-0.0020736734964930566,0.0008501220449928985,0.00043224137500108605,-0.007255676458593258,-4.435031675011525e-05
0.13,0.00016464745399999284,-0.7851877119999995,2.8885327599966765e-05,-2.3556988800000003,8.295522599997006e-05,1.5709739,0.786008788,0.04,0.04,-9.822824599999988,-0.0021736245136754675,0.0006970241399927591,0.00045565510000110734,-0.007332582306120418,-4.683491600011751e-05
0.1325,0.0001644959359999927,-0.7851780654999995,2.8182664149966125e-05,-2.3557070700000007,8.232208649996948e-05,1.5709733750000001,0.7860093595,0.04,0.04,-9.822581149999989,-0.0022735755308578784,0.0005439262349926197,0.0004790688250011287,-0.007409488153647578,-4.931951525011977e-05
0.135,0.00016430327499998953,-0.7851689549999995,2.7296069699951937e-05,-2.3557148500000005,8.152089199995653e-05,1.57097253,0.786010125,0.0399999988,0.0399999988,-9.82237549999999,-0.0023794196546130537,0.00039737352699296263,0.0005058709640013996,-0.007479890249672818,-5.218434400015005e-05
0.1375,0.00016409004249998932,-0.7851601124999995,2.6317509749951047e-05,-2.3557224250000006,8.063566999995572e-05,1.570971525,0.7860109875,0.039999997,0.039999997,-9.82218874999999,-0.0024882103316539676,0.0002540934174928322,0.0005343673100014256,-0.0075470404699478095,-5.523928750015283e-05
0.14,0.00016387680999998915,-0.7851512699999995,2.5338949799950153e-05,-2.3557300000000003,7.975044799995491e-05,1.57097052,0.78601185,0.0399999952,0.0399999952,-9.82200199999999,-0.0025970010086948814,0.00011081330799270173,0.0005628636560014515,-0.007614190690222801,-5.829423100015561e-05
0.14250000000000002,0.00016366357749998895,-0.7851424274999995,2.4360389849949263e-05,-2.3557375750000005,7.88652259999541e-05,1.570969515,0.7860127125,0.0399999934,0.0399999934,-9.821815249999991,-0.0027057916857357953,-3.246680150742866e-05,0.0005913600020014775,-0.007681340910497792,-6.13491745001584e-05
0.145,0.00016345034499998874,-0.7851335849999995,2.3381829899948383e-05,-2.3557451500000006,7.79800039999533e-05,1.57096851,0.786013575,0.0399999916,0.0399999916,-9.82162849999999,-0.0028145823627767083,-0.00017574691100755754,0.0006198563480015031,-0.007748491130772782,-6.440411800016114e-05
0.1475,0.00016323711249998854,-0.7851247424999995,2.2403269949947492e-05,-2.3557527250000003,7.70947819999525e-05,1.5709675049999998,0.7860144375,0.0399999898,0.0399999898,-9.821441749999991,-0.0029233730398176222,-0.00031902702050768793,0.000648352694001529,-0.007815641351047772,-6.745906150016392e-05
0.15,0.00016302387999998425,-0.7851158999999995,2.142470999992836e-05,-2.3557603000000005,7.620955999993519e-05,1.5709665,0.7860153000000001,0.039999988,0.039999988,-9.82125499999999,-0.0030321637168588536,-0.00046230713000677517,0.0006768490400018689,-0.007882791571322299,-7.05140050001995e-05
0.1525,0.000162735363999984,-0.7851077999999996,2.0111848499927164e-05,-2.3557676050000005,7.502189539993411e-05,1.57096548,0.78601644,0.0399999874,0.0399999868,-9.82106194999999,-0.0031467679422411627,-0.0005864689655068882,0.0007110971840019,-0.007941404962915437,-7.416982075020281e-05
0.155,0.00016244684799998372,-0.7850996999999995,1.8798986999925968e-05,-2.3557749100000005,7.383423079993304e-05,1.57096446,0.78601758,0.0399999868,0.039999985599999996,-9.82086889999999,-0.003261372167623472,-0.0007106308010070013,0.0007453453280019312,-0.008000018354508575,-7.782563650020615e-05
0.1575,0.00016215833199998347,-0.7850915999999996,1.7486125499924775e-05,-2.3557822150000005,7.264656619993195e-05,1.5709634399999999,0.7860187200000001,0.039999986200000004,0.0399999844,-9.820675849999988,-0.0033759763930057817,-0.0008347926365071144,0.0007795934720019623,-0.008058631746101714,-8.148145225020948e-05
0.16,0.0001618698159999832,-0.7850834999999995,1.617326399992358e-05,-2.3557895200000005,7.145890159993087e-05,1.5709624199999999,0.78601986,0.0399999856,0.0399999832,-9.820482799999988,-0.003490580618388091,-0.0009589544720072275,0.0008138416160019936,-0.008117245137694852,-8.51372680002128e-05
0.1625,0.00016158129999998294,-0.7850753999999995,1.4860402499922386e-05,-2.355796825,7.027123699992979e-05,1.5709613999999998,0.7860210000000001,0.039999985,0.039999981999999996,-9.820289749999988,-0.0036051848437704,-0.0010831163075073404,0.0008480897600020246,-0.008175858529287991,-8.879308375021613e-05
0.165,0.00016129278399998266,-0.7850672999999995,1.354754099992119e-05,-2.35580413,6.908357239992871e-05,1.5709603799999998,0.78602214,0.0399999844,0.039999980799999994,-9.820096699999988,-0.0037197890691527094,-0.0012072781430074535,0.0008823379040020559,-0.008234471920881128,-9.244889950021945e-05
0.1675,0.00016097437399997694,-0.7850594199999995,1.2102610029895849e-05,-2.3558111800000003,6.777640554990577e-05,1.5709593099999999,0.786023377,0.0399999838,0.03999997985,-9.81991564999999,-0.0038387065986248223,-0.0013360766800084142,0.0009187039950024743,-0.008289895020428218,-9.636915850027112e-05
0.17,0.0001605961759999766,-0.7850519799999995,1.0393540119894292e-05,-2.35581772,6.623023419990438e-05,1.57095814,0.7860248080000001,0.0399999832,0.039999979399999996,-9.81975859999999,-0.0039662507362741885,-0.00147414862000854,0.0009593059800025112,-0.008338937535884954,-0.00010081830400027517
0.17250000000000001,0.00016021797799997627,-0.7850445399999996,8.684470209892737e-06,-2.3558242600000003,6.468406284990297e-05,1.57095697,0.7860262390000001,0.0399999826,0.03999997895,-9.81960154999999,-0.004093794873923555,-0.0016122205600086655,0.000999907965002548,-0.00838798005134169,-0.00010526744950027924
0.17500000000000002,0.00015983977999997593,-0.7850370999999995,6.975400299891181e-06,-2.3558308,6.313789149990156e-05,1.5709558,0.7860276700000001,0.039999981999999996,0.0399999785,-9.819444499999989,-0.004221339011572921,-0.0017502925000087914,0.001040509950002585,-0.008437022566798423,-0.00010971659500028327
0.1775,0.0001594615819999756,-0.7850296599999995,5.266330389889644e-06,-2.3558373400000003,6.159172014990016e-05,1.57095463,0.7860291010000001,0.0399999814,0.039999978049999996,-9.819287449999988,-0.004348883149222285,-0.0018883644400089154,0.0010811119350026216,-0.008486065082255157,-0.00011416574050028728
0.18,0.00015908338399997523,-0.7850222199999995,3.557260479888088e-06,-2.3558438800000006,6.004554879989875e-05,1.57095346,0.7860305320000002,0.0399999808,0.0399999776,-9.81913039999999,-0.004476427286871651,-0.002026436380009041,0.0011217139200026586,-0.008535107597711892,-0.00011861488600029134
0.1825,0.0001587051859999749,-0.7850147799999995,1.8481905698865313e-06,-2.3558504200000003,5.849937744989734e-05,1.57095229,0.7860319630000001,0.0399999802,0.03999997715,-9.81897334999999,-0.004603971424521017,-0.0021645083200091666,0.0011623159050026955,-0.008584150113168626,-0.00012306403150029539
0.185,0.0001582570989999675,-0.7850077399999995,-1.6834956014606314e-07,-2.3558568400000004,5.667523289986788e-05,1.57095084,0.7860336200000002,0.039999979299999995,0.0399999759,-9.818781599999985,-0.004733994835996504,-0.0022972303700087523,0.0012075131000031964,-0.008625980839135823,-0.00012791761300034026
0.1875,0.00015777406749996705,-0.7850008999999996,-2.3386248001480386e-06,-2.3558632000000004,5.471210174986609e-05,1.57094925,0.7860353900000001,0.03999997825,0.03999997425,-9.818572499999986,-0.004865257884384679,-0.0024272774750088706,0.0012550079000032397,-0.008664205670359333,-0.00013297341250034488
0.19,0.00015729103599996662,-0.7849940599999995,-4.508900040150015e-06,-2.3558695600000004,5.27489705998643e-05,1.57094766,0.7860371600000001,0.0399999772,0.039999972599999996,-9.818363399999985,-0.004996520932772853,-0.0025573245800089893,0.0013025027000032829,-0.008702430501582842,-0.00013802921200034947
0.1925,0.00015680800449996616,-0.7849872199999995,-6.6791752801519895e-06,-2.3558759200000003,5.0785839449862516e-05,1.57094607,0.7860389300000001,0.03999997615,0.03999997095,-9.818154299999986,-0.005127783981161028,-0.0026873716850091076,0.0013499975000033262,-0.008740655332806352,-0.00014308501150035407
0.195,0.00015632497299996573,-0.7849803799999995,-8.849450520153967e-06,-2.3558822800000003,4.882270829986073e-05,1.5709444799999999,0.7860407000000001,0.0399999751,0.0399999693,-9.817945199999984,-0.005259047029549203,-0.002817418790009226,0.0013974923000033695,-0.008778880164029862,-0.00014814081100035867
0.1975,0.0001558419414999653,-0.7849735399999995,-1.1019725760155943e-05,-2.3558886400000003,4.685957714985894e-05,1.57094289,0.78604247,0.03999997405,0.039999967649999996,-9.817736099999985,-0.005390310077937377,-0.0029474658950093442,0.0014449871000034127,-0.008817104995253372,-0.00015319661050036326
0.2,0.00015535890999995606,-0.7849666999999996,-1.3190001000196402e-05,-2.3558950000000003,4.489644599982236e-05,1.5709412999999999,0.7860442400000002,0.039999973,0.039999966,-9.81752699999999,-0.0055215731263261155,-0.003077513000008844,0.0014924819000039769,-0.008855329826476348,-0.00015825241000043264
0.2025,0.00015475525299995553,-0.7849604449999995,-1.588916925019886e-05,-2.3559013,4.245509084982013e-05,1.57093935,0.7860465290000002,0.03999997195,0.039999964799999996,-9.81739207499999,-0.005660582100982712,-0.0031990583900089547,0.0015471371000040266,-0.008886221330615096,-0.00016419826450043805
0.20500000000000002,0.00015415159599995498,-0.7849541899999996,-1.8588337500201315e-05,-2.3559076000000005,4.001373569981791e-05,1.5709374,0.7860488180000001,0.0399999709,0.0399999636,-9.817257149999989,-0.005799591075639308,-0.0033206037800090652,0.0016017923000040764,-0.008917112834753844,-0.00017014411900044345
0.20750000000000002,0.00015354793899995442,-0.7849479349999995,-2.1287505750203776e-05,-2.3559139000000004,3.7572380549815684e-05,1.57093545,0.7860511070000001,0.03999996985,0.0399999624,-9.81712222499999,-0.005938600050295905,-0.0034421491700091763,0.0016564475000041261,-0.008948004338892592,-0.0001760899735004489
0.21,0.0001529442819999539,-0.7849416799999995,-2.3986674000206202e-05,-2.3559202000000004,3.513102539981349e-05,1.5709335,0.7860533960000001,0.0399999688,0.0399999612,-9.816987299999989,-0.0060776090249525,-0.0035636945600092855,0.0017111027000041752,-0.00897889584303134,-0.00018203582800045424
0.2125,0.00015234062499995334,-0.7849354249999995,-2.6685842250208657e-05,-2.3559265000000003,3.268967024981127e-05,1.5709315499999998,0.7860556850000002,0.03999996775,0.03999996,-9.81685237499999,-0.006216617999609096,-0.003685239950009396,0.001765757900004225,-0.009009787347170088,-0.00018798168250045965
0.215,0.0001517369679999528,-0.7849291699999995,-2.9385010500211114e-05,-2.3559328000000006,3.0248315099809047e-05,1.5709296,0.7860579740000002,0.0399999667,0.0399999588,-9.816717449999988,-0.006355626974265693,-0.0038067853400095067,0.0018204131000042747,-0.009040678851308836,-0.00019392753700046508
0.2175,0.0001510876439999414,-0.7849230849999995,-3.228380645026096e-05,-2.3559388850000005,2.7626524774763994e-05,1.5709275699999998,0.7860604200000002,0.0399999662,0.0399999581,-9.81658782499999,-0.006496004969824229,-0.0039288120350097315,0.001877332425004862,-0.009069208800794563,-0.00020013524550053263
0.22,0.00015034698599994073,-0.7849173399999996,-3.5581857800263963e-05,-2.3559445400000003,2.464386409976128e-05,1.5709253799999998,0.7860631800000002,0.0399999668,0.0399999584,-9.81646879999999,-0.006639121007185674,-0.004051801340009844,0.001938780000004918,-0.009093015640975926,-0.00020686666200053877
0.2225,0.00014960632799994005,-0.7849115949999995,-3.887990915026696e-05,-2.3559501950000006,2.1661203424758563e-05,1.5709231899999998,0.7860659400000002,0.0399999674,0.039999958700000005,-9.81634977499999,-0.0067822370445471195,-0.0041747906450099554,0.002000227575004974,-0.009116822481157288,-0.0002135980785005449
0.225,0.00014886566999993938,-0.7849058499999996,-4.217796050026997e-05,-2.3559558500000004,1.8678542749755847e-05,1.5709209999999998,0.7860687000000003,0.039999968000000004,0.039999959,-9.81623074999999,-0.0069253530819085645,-0.004297779950010068,0.00206167515000503,-0.00914062932133865,-0.00022032949500055103
0.2275,0.0001481250119999387,-0.7849001049999995,-4.547601185027297e-05,-2.3559615050000002,1.569588207475313e-05,1.5709188099999998,0.7860714600000003,0.0399999686,0.0399999593,-9.81611172499999,-0.0070684691192700105,-0.004420769255010179,0.0021231227250050858,-0.00916443616152001,-0.00022706091150055715
0.23,0.000147384353999938,-0.7848943599999996,-4.877406320027598e-05,-2.3559671600000005,1.2713221399750416e-05,1.5709166199999998,0.7860742200000003,0.0399999692,0.0399999596,-9.81599269999999,-0.007211585156631456,-0.004543758560010292,0.0021845703000051417,-0.009188243001701372,-0.0002337923280005633
0.2325,0.00014664369599993733,-0.7848886149999995,-5.2072114550278977e-05,-2.3559728150000003,9.7305607247477e-06,1.5709144299999998,0.7860769800000003,0.0399999698,0.0399999599,-9.81587367499999,-0.007354701193992901,-0.004666747865010404,0.0022460178750051975,-0.009212049841882734,-0.0002405237445005694
0.23500000000000001,0.00014580047099992352,-0.7848831999999996,-5.581742050033934e-05,-2.3559782700000005,6.343786999693162e-06,1.5709118699999998,0.7860801130000002,0.0399999703,0.03999996,-9.815701099999984,-0.007501082541433635,-0.004793282000010971,0.0023125046100059,-0.009228779468686438,-0.00024770960500063383
0.23750000000000002,0.0001449059624999227,-0.7848779499999996,-5.978635375034295e-05,-2.3559836250000004,2.7549567496898935e-06,1.5709091249999998,0.7860834325000002,0.03999997075,0.03999996,-9.815501749999983,-0.007649096543913389,-0.004921588550011087,0.0023815109250059628,-0.009241970488802665,-0.00025512268750064055
0.24,0.0001440114539999219,-0.7848726999999995,-6.375528700034652e-05,-2.3559889800000007,-8.338735003133342e-07,1.5709063799999998,0.7860867520000002,0.039999971200000005,0.03999996,-9.815302399999982,-0.007797110546393143,-0.005049895100011203,0.0024505172400060247,-0.009255161508918891,-0.0002625357700006472
0.2425,0.00014311694549992108,-0.7848674499999996,-6.772422025035013e-05,-2.3559943350000006,-4.422703750316602e-06,1.5709036349999996,0.7860900715000002,0.03999997165,0.03999996,-9.815103049999983,-0.007945124548872898,-0.005178201650011319,0.0025195235550060876,-0.009268352529035118,-0.000269948852500654
0.245,0.00014222243699992028,-0.7848621999999996,-7.169315350035374e-05,-2.3559996900000004,-8.01153400031987e-06,1.5709008899999997,0.7860933910000003,0.0399999721,0.03999996,-9.814903699999983,-0.008093138551352652,-0.005306508200011436,0.0025885298700061505,-0.009281543549151346,-0.0002773619350006607
0.2475,0.00014132792849991946,-0.7848569499999996,-7.566208675035735e-05,-2.3560050450000007,-1.1600364250323138e-05,1.5708981449999997,0.7860967105000003,0.03999997255,0.03999996,-9.814704349999982,-0.008241152553832407,-0.0054348147500115525,0.0026575361850062133,-0.009294734569267573,-0.0002847750175006675
0.25,0.00014043341999990308,-0.7848516999999996,-7.963102000042869e-05,-2.3560104000000006,-1.5189194500387594e-05,1.5708953999999997,0.7861000300000003,0.039999973,0.03999996,-9.814504999999986,-0.008389166556312649,-0.005563121300010939,0.002726542500006964,-0.009307925589383077,-0.00029218810000076096
0.2525,0.00013936781399990212,-0.7848468849999996,-8.434450750043299e-05,-2.3560157400000006,-1.9450838425391473e-05,1.5708920999999996,0.7861039555000003,0.0399999736,0.0399999609,-9.814352299999987,-0.008542543789385904,-0.005683393580011049,0.002803114575007034,-0.009313172800466847,-0.00030055454500076855
0.255,0.00013830220799990116,-0.7848420699999996,-8.905799500043727e-05,-2.3560210800000005,-2.3712482350395353e-05,1.5708887999999996,0.7861078810000003,0.0399999742,0.0399999618,-9.814199599999986,-0.008695921022459158,-0.005803665860011158,0.0028796866500071035,-0.009318420011550617,-0.00030892099000077614
0.2575,0.00013723660199990018,-0.7848372549999996,-9.377148250044156e-05,-2.3560264200000005,-2.7974126275399232e-05,1.5708854999999997,0.7861118065000003,0.0399999748,0.0399999627,-9.814046899999987,-0.008849298255532413,-0.0059239381400112675,0.002956258725007173,-0.009323667222634387,-0.0003172874350007838
0.26,0.00013617099599989922,-0.7848324399999995,-9.848497000044585e-05,-2.3560317600000005,-3.223577020040311e-05,1.5708821999999996,0.7861157320000004,0.0399999754,0.0399999636,-9.813894199999986,-0.009002675488605668,-0.006044210420011377,0.003032830800007243,-0.009328914433718158,-0.0003256538800007914
0.2625,0.00013510538999989824,-0.7848276249999995,-0.00010319845750045015,-2.3560371000000004,-3.649741412540699e-05,1.5708788999999996,0.7861196575000003,0.039999976,0.0399999645,-9.813741499999987,-0.009156052721678923,-0.006164482700011486,0.0031094028750073125,-0.009334161644801926,-0.00033402032500079904
0.265,0.00013403978399989728,-0.7848228099999995,-0.00010791194500045444,-2.3560424400000004,-4.075905805041087e-05,1.5708755999999997,0.7861235830000004,0.0399999766,0.0399999654,-9.813588799999986,-0.009309429954752178,-0.006284754980011595,0.0031859749500073825,-0.009339408855885696,-0.00034238677000080663
0.2675,0.00013291127949987793,-0.7848181369999996,-0.0001128986470005385,-2.3560477600000005,-4.5267497800486805e-05,1.5708721299999997,0.7861277500000005,0.039999977,0.0399999657,-9.81344934999999,-0.009463867498576943,-0.006405303350011785,0.0032651354150082077,-0.009342453675344373,-0.00035099029350088345
0.27,0.0001316569779998768,-0.7848137479999996,-0.00011843177800054354,-2.356053040000001,-5.026952920049136e-05,1.5708683199999995,0.7861324000000005,0.039999977,0.039999964799999996,-9.81333639999999,-0.0096204256639038,-0.006526403900011896,0.0033494726600082846,-0.009341093711554787,-0.0003600679740008917
0.2725,0.00013040267649987565,-0.7848093589999996,-0.0001239649090005486,-2.3560583200000007,-5.527156060049591e-05,1.5708645099999996,0.7861370500000004,0.039999977,0.0399999639,-9.81322344999999,-0.009776983829230658,-0.006647504450012006,0.0034338099050083616,-0.0093397337477652,-0.0003691456545009
0.275,0.00012914837499987451,-0.7848049699999996,-0.00012949804000055362,-2.3560636000000006,-6.0273592000500464e-05,1.5708606999999997,0.7861417000000005,0.039999977,0.039999963,-9.81311049999999,-0.009933541994557515,-0.006768605000012116,0.003518147150008438,-0.009338373783975614,-0.00037822333500090827
0.2775,0.00012789407349987338,-0.7848005809999996,-0.00013503117100055866,-2.356068880000001,-6.527562340050502e-05,1.5708568899999997,0.7861463500000004,0.039999977,0.0399999621,-9.81299754999999,-0.010090100159884373,-0.006889705550012226,0.003602484395008515,-0.009337013820186028,-0.0003873010155009165
0.28,0.00012663977199987224,-0.7847961919999996,-0.0001405643020005637,-2.356074160000001,-7.027765480050957e-05,1.5708530799999996,0.7861510000000005,0.039999977,0.0399999612,-9.81288459999999,-0.01024665832521123,-0.007010806100012337,0.003686821640008592,-0.009335653856396441,-0.00039637869600092477
0.28250000000000003,0.0001253854704998711,-0.7847918029999996,-0.00014609743300056873,-2.3560794400000007,-7.527968620051412e-05,1.5708492699999996,0.7861556500000004,0.039999977,0.0399999603,-9.81277164999999,-0.010403216490538087,-0.007131906650012447,0.0037711588850086685,-0.009334293892606855,-0.000405456376500933
0.28500000000000003,0.00012399346899984854,-0.7847876689999996,-0.00015222778600066666,-2.356084730000001,-8.08212110006026e-05,1.5708450899999995,0.7861607630000006,0.039999977,0.03999996,-9.812651999999987,-0.010563056264089364,-0.00725925995001353,0.0038605762700095357,-0.009327960293739026,-0.0004151867130010428
0.28750000000000003,0.0001225326174998472,-0.7847836624999996,-0.0001586567500006725,-2.3560900250000008,-8.663248250060789e-05,1.5708407249999996,0.7861661075000006,0.039999977,0.03999996,-9.812528999999987,-0.010724536841752091,-0.007389739625013649,0.0039525337250096194,-0.009319139877333227,-0.00042524337750105196
0.29,0.0001210717659998459,-0.7847796559999997,-0.0001650857140006782,-2.3560953200000005,-9.244375400061305e-05,1.5708363599999995,0.7861714520000005,0.039999977,0.03999996,-9.812405999999987,-0.010886017419414815,-0.0075202193000137646,0.004044491180009701,-0.009310319460927429,-0.0004353000420010609
0.2925,0.00011961091449984456,-0.7847756494999996,-0.00017151467800068405,-2.356100615000001,-9.825502550061834e-05,1.5708319949999996,0.7861767965000005,0.039999977,0.03999996,-9.812282999999987,-0.011047497997077542,-0.007650698975013884,0.004136448635009785,-0.00930149904452163,-0.00044535670650107005
0.295,0.00011815006299984323,-0.7847716429999996,-0.0001779436420006899,-2.3561059100000006,-0.00010406629700062363,1.5708276299999995,0.7861821410000005,0.039999977,0.03999996,-9.812159999999986,-0.011208978574740269,-0.007781178650014002,0.004228406090009868,-0.009292678628115834,-0.00045541337100107925
0.2975,0.0001166892114998419,-0.7847676364999996,-0.00018437260600069575,-2.356111205000001,-0.00010987756850062893,1.5708232649999994,0.7861874855000005,0.039999977,0.03999996,-9.812036999999986,-0.011370459152402996,-0.007911658325014122,0.004320363545009953,-0.009283858211710036,-0.0004654700355010884
0.3,0.00011522835999981605,-0.7847636299999996,-0.0001908015700008078,-2.3561165000000006,-0.0001156888400007301,1.5708188999999995,0.7861928300000006,0.039999977,0.03999996,-9.811913999999987,-0.011531939730065966,-0.008042138000014442,0.004412321000010922,-0.009275037795303476,-0.0004755267000011775
0.3025,0.00011354286924981452,-0.7847599804999996,-0.00019820349250081453,-2.356121795000001,-0.00012237873650073618,1.5708139049999994,0.7861989905000006,0.039999977,0.039999959700000004,-9.811799699999987,-0.01169564235025948,-0.008174466350014562,0.004512398150011013,-0.009259243076665407,-0.0004863160500011873
0.305,0.00011185737849981299,-0.7847563309999996,-0.00020560541500082129,-2.3561270900000006,-0.00012906863300074227,1.5708089099999993,0.7862051510000007,0.039999977,0.0399999594,-9.811685399999988,-0.011859344970452993,-0.008306794700014683,0.004612475300011104,-0.009243448358027338,-0.0004971054000011972
0.3075,0.00011017188774981146,-0.7847526814999997,-0.00021300733750082801,-2.356132385000001,-0.00013575852950074835,1.5708039149999995,0.7862113115000007,0.039999977,0.0399999591,-9.811571099999988,-0.012023047590646508,-0.008439123050014803,0.004712552450011195,-0.009227653639389268,-0.0005078947500012069
0.31,0.00010848639699980992,-0.7847490319999996,-0.00022040926000083477,-2.3561376800000007,-0.00014244842600075446,1.5707989199999994,0.7862174720000007,0.039999977,0.0399999588,-9.811456799999988,-0.012186750210840022,-0.008571451400014923,0.004812629600011286,-0.009211858920751199,-0.0005186841000012168
0.3125,0.00010680090624980839,-0.7847453824999996,-0.0002278111825008415,-2.356142975000001,-0.00014913832250076055,1.5707939249999994,0.7862236325000007,0.039999977,0.0399999585,-9.811342499999986,-0.012350452831033537,-0.008703779750015043,0.004912706750011377,-0.00919606420211313,-0.0005294734500012266
0.315,0.00010511541549980686,-0.7847417329999996,-0.00023521310500084825,-2.3561482700000007,-0.00015582821900076663,1.5707889299999995,0.7862297930000007,0.039999977,0.039999958200000005,-9.811228199999986,-0.012514155451227051,-0.008836108100015163,0.005012783900011468,-0.00918026948347506,-0.0005402628000012364
0.3175,0.00010334896324977726,-0.7847381979999997,-0.00024296527900097636,-2.3561535600000005,-0.00016283438600088232,1.5707837249999994,0.7862362515000009,0.03999997715,0.0399999581,-9.811112874999987,-0.012679438758660877,-0.00897009865001586,0.005115523685012482,-0.0091621099505547,-0.0005513837150013611
0.32,0.00010142058799977551,-0.7847348919999997,-0.00025141795600098403,-2.356158840000001,-0.00017047309400088927,1.5707780999999994,0.7862433060000008,0.0399999776,0.0399999584,-9.810995499999986,-0.01284788344057369,-0.009107413600015985,0.00522358874001258,-0.009139220789072216,-0.0005631677600013719
0.3225,9.949221274977375e-05,-0.7847315859999996,-0.00025987063300099173,-2.3561641200000008,-0.00017811180200089623,1.5707724749999994,0.7862503605000009,0.039999978049999996,0.039999958700000005,-9.810878124999986,-0.013016328122486504,-0.00924472855001611,0.0053316537950126785,-0.00911633162758973,-0.0005749518050013826
0.325,9.7563837499772e-05,-0.7847282799999996,-0.0002683233100009994,-2.3561694000000006,-0.00018575051000090318,1.5707668499999994,0.7862574150000009,0.0399999785,0.039999959,-9.810760749999986,-0.013184772804399317,-0.009382043500016235,0.005439718850012777,-0.009093442466107243,-0.0005867358500013933
0.3275,9.563546224977023e-05,-0.7847249739999996,-0.0002767759870010071,-2.3561746800000005,-0.00019338921800091016,1.5707612249999994,0.7862644695000008,0.03999997895,0.0399999593,-9.810643374999986,-0.01335321748631213,-0.00951935845001636,0.005547783905012876,-0.009070553304624758,-0.000598519895001404
0.33,9.370708699976848e-05,-0.7847216679999995,-0.0002852286640010148,-2.3561799600000004,-0.0002010279260009171,1.5707555999999994,0.7862715240000009,0.039999979399999996,0.0399999596,-9.810525999999985,-0.013521662168224943,-0.009656673400016486,0.005655848960012974,-0.009047664143142273,-0.0006103039400014148
0.3325,9.177871174976672e-05,-0.7847183619999996,-0.0002936813410010225,-2.3561852400000003,-0.00020866663400092406,1.5707499749999994,0.7862785785000008,0.03999997985,0.0399999599,-9.810408624999987,-0.013690106850137756,-0.009793988350016611,0.005763914015013073,-0.009024774981659786,-0.0006220879850014255
0.335,8.967617099973313e-05,-0.7847152739999996,-0.00030288671500116785,-2.3561905900000006,-0.00021698495300105525,1.5707438899999993,0.786286257000001,0.03999998,0.0399999598,-9.810291349999986,-0.013859826419523193,-0.00993477190001737,0.005877271430014139,-0.00899712648242338,-0.0006343759300015283
0.3375,8.748654749973113e-05,-0.7847122949999996,-0.00031246843750117655,-2.3561959750000003,-0.00022564307750106314,1.5707375749999992,0.786294247500001,0.03999998,0.0399999595,-9.810174124999985,-0.014030183432644594,-0.0100772897500175,0.005993275025014244,-0.008967098314311313,-0.0006469158250015398
0.34,8.529692399972914e-05,-0.7847093159999996,-0.00032205016000118526,-2.3562013600000005,-0.000234301202001071,1.5707312599999992,0.786302238000001,0.03999998,0.039999959200000004,-9.810056899999985,-0.014200540445765993,-0.01021980760001763,0.00610927862001435,-0.008937070146199246,-0.0006594557200015512
0.3425,8.310730049972714e-05,-0.7847063369999996,-0.000331631882501194,-2.3562067450000006,-0.0002429593265010789,1.5707249449999992,0.786310228500001,0.03999998,0.0399999589,-9.809939674999985,-0.014370897458887394,-0.01036232545001776,0.006225282215014455,-0.008907041978087178,-0.0006719956150015626
0.34500000000000003,8.091767699972514e-05,-0.7847033579999996,-0.0003412136050012027,-2.3562121300000007,-0.0002516174510010868,1.5707186299999991,0.786318219000001,0.03999998,0.0399999586,-9.809822449999984,-0.014541254472008793,-0.010504843300017889,0.006341285810014561,-0.00887701380997511,-0.0006845355100015741
0.34750000000000003,7.872805349972316e-05,-0.7847003789999996,-0.00035079532750121147,-2.356217515000001,-0.00026027557550109467,1.570712314999999,0.786326209500001,0.03999998,0.0399999583,-9.809705224999986,-0.014711611485130194,-0.01064736115001802,0.0064572894050146665,-0.008846985641863044,-0.0006970754050015855
0.35000000000000003,7.653842999968555e-05,-0.7846973999999997,-0.00036037705000137397,-2.356222900000001,-0.0002689337000012414,1.570705999999999,0.7863342000000011,0.03999998,0.039999958,-9.809587999999986,-0.014881968498252306,-0.010789879000019065,0.0065732930000158,-0.008816957473750086,-0.0007096153000017559
0.3525,7.406911799968336e-05,-0.7846947149999997,-0.00037116641800138354,-2.356228405000001,-0.00027868224500125,1.570698904999999,0.7863432000000011,0.0399999806,0.039999959200000004,-9.809478349999985,-0.015057914145313333,-0.010939597000019199,0.00669736554501591,-0.008779947459692898,-0.0007234036360017681
0.355,7.15998059996811e-05,-0.7846920299999997,-0.0003819557860013934,-2.3562339100000007,-0.0002884307900012589,1.5706918099999991,0.7863522000000012,0.0399999812,0.0399999604,-9.809368699999986,-0.015233859792374363,-0.011089315000019336,0.006821438090016023,-0.00874293744563571,-0.0007371919720017806
0.3575,6.913049399967886e-05,-0.7846893449999996,-0.00039274515400140316,-2.356239415000001,-0.0002981793350012678,1.5706847149999992,0.7863612000000012,0.0399999818,0.0399999616,-9.809259049999985,-0.015409805439435393,-0.011239033000019471,0.006945510635016136,-0.008705927431578522,-0.0007509803080017932
0.36,6.666118199967662e-05,-0.7846866599999996,-0.000403534522001413,-2.356244920000001,-0.00030792788000127665,1.570677619999999,0.7863702000000012,0.0399999824,0.0399999628,-9.809149399999985,-0.015585751086496423,-0.011388751000019608,0.007069583180016249,-0.008668917417521333,-0.0007647686440018057
0.3625,6.419186999967436e-05,-0.7846839749999996,-0.00041432389000142284,-2.3562504250000007,-0.00031767642500128555,1.570670524999999,0.7863792000000012,0.039999983,0.039999964,-9.809039749999986,-0.015761696733557453,-0.011538469000019744,0.007193655725016361,-0.008631907403464143,-0.0007785569800018183
0.365,6.172255799967212e-05,-0.7846812899999996,-0.00042511325800143263,-2.3562559300000006,-0.00032742497000129444,1.570663429999999,0.7863882000000012,0.039999983600000004,0.0399999652,-9.808930099999985,-0.015937642380618483,-0.01168818700001988,0.007317728270016475,-0.008594897389406955,-0.0007923453160018308
0.3675,5.915385599963001e-05,-0.7846786949999996,-0.00043633141650161443,-2.356261555000001,-0.00033756059150145853,1.570656029999999,0.7863975575000014,0.039999984200000005,0.0399999667,-9.808821549999985,-0.016114105936163466,-0.011839638850020711,0.007444503235017672,-0.008555745566257933,-0.0008065143730019961
0.37,5.638637399962749e-05,-0.7846762799999997,-0.0004484071560016254,-2.356267420000001,-0.0003484703660014685,1.570648019999999,0.7864076300000014,0.0399999848,0.0399999688,-9.808715199999986,-0.01629160530867573,-0.011994558400020854,0.007576683040017792,-0.008512310124927813,-0.0008214448720020097
0.3725,5.361889199962497e-05,-0.7846738649999997,-0.0004604828955016364,-2.3562732850000008,-0.0003593801405014784,1.5706400099999989,0.7864177025000014,0.0399999854,0.0399999709,-9.808608849999985,-0.016469104681188,-0.012149477950020995,0.007708862845017913,-0.008468874683597694,-0.0008363753710020233
0.375,5.0851409999622453e-05,-0.7846714499999997,-0.0004725586350016474,-2.3562791500000007,-0.00037028991500148836,1.570631999999999,0.7864277750000014,0.039999986,0.039999973,-9.808502499999985,-0.016646604053700265,-0.012304397500021136,0.007841042650018034,-0.008425439242267574,-0.0008513058700020369
0.3775,4.808392799961993e-05,-0.7846690349999996,-0.0004846343745016584,-2.356285015000001,-0.0003811996895014983,1.570623989999999,0.7864378475000013,0.0399999866,0.039999975099999995,-9.808396149999984,-0.01682410342621253,-0.012459317050021276,0.007973222455018154,-0.008382003800937454,-0.0008662363690020505
0.38,4.531644599961741e-05,-0.7846666199999996,-0.0004967101140016694,-2.356290880000001,-0.0003921094640015082,1.5706159799999988,0.7864479200000014,0.0399999872,0.039999977199999995,-9.808289799999985,-0.0170016027987248,-0.012614236600021417,0.008105402260018274,-0.008338568359607335,-0.0008811668680020641
0.3825,4.254896399961489e-05,-0.7846642049999997,-0.0005087858535016803,-2.3562967450000007,-0.00040301923850151813,1.5706079699999989,0.7864579925000014,0.0399999878,0.039999979299999995,-9.808183449999984,-0.017179102171237064,-0.012769156150021558,0.008237582065018394,-0.008295132918277215,-0.0008960973670020777
0.385,3.957038119956802e-05,-0.7846619499999997,-0.0005217716770018826,-2.3563028900000007,-0.0004147502020017006,1.5705994099999987,0.7864688310000015,0.0399999876,0.039999981,-9.808100299999989,-0.01735620107504217,-0.012929801600022902,0.008375087200019633,-0.008248293492936171,-0.0009114985900021902
0.3875,3.6486247999565216e-05,-0.7846597749999997,-0.0005352125425018948,-2.3563091750000007,-0.00042689176000171167,1.5705905749999987,0.7864800525000015,0.039999987,0.039999982499999996,-9.80802874999999,-0.017533099744493814,-0.013093310000023051,0.008515255000019761,-0.008199752075590731,-0.0009271351750022044
0.39,3.340211479956241e-05,-0.7846575999999997,-0.0005486534080019071,-2.3563154600000007,-0.00043903331800172274,1.5705817399999988,0.7864912740000016,0.0399999864,0.039999983999999995,-9.807957199999988,-0.01770999841394546,-0.0132568184000232,0.008655422800019888,-0.008151210658245292,-0.0009427717600022187
0.3925,3.0317981599559598e-05,-0.7846554249999997,-0.0005620942735019193,-2.3563217450000007,-0.00045117487600173376,1.5705729049999988,0.7865024955000016,0.0399999858,0.0399999855,-9.807885649999989,-0.017886897083397104,-0.013420326800023348,0.008795590600020015,-0.008102669240899854,-0.000958408345002233
0.395,2.7233848399556793e-05,-0.7846532499999996,-0.0005755351390019316,-2.3563280300000007,-0.00046331643400174483,1.5705640699999988,0.7865137170000016,0.039999985200000004,0.039999987,-9.80781409999999,-0.018063795752848753,-0.013583835200023497,0.008935758400020142,-0.008054127823554413,-0.0009740449300022472
0.3975,2.4149715199553984e-05,-0.7846510749999996,-0.0005889760045019438,-2.3563343150000007,-0.0004754579920017559,1.5705552349999987,0.7865249385000016,0.0399999846,0.0399999885,-9.807742549999988,-0.018240694422300398,-0.013747343600023646,0.009075926200020271,-0.008005586406208975,-0.0009896815150022614
0.4,2.1065581999502407e-05,-0.7846488999999996,-0.0006024168700021662,-2.3563406000000007,-0.0004875995500019566,1.5705463999999987,0.7865361600000018,0.039999984,0.03999999,-9.80767099999999,-0.01841759309175024,-0.013910852000025736,0.009216094000021562,-0.007957044988862788,-0.0010053181000022394
0.4025,1.7646357739499296e-05,-0.7846469799999997,-0.0006173014105021797,-2.3563469600000007,-0.0005010445675019689,1.5705366199999986,0.7865485785000018,0.0399999846,0.039999987,-9.80760724999999,-0.018582084309333793,-0.014087697950025896,0.009364263700021698,-0.007903367560348975,-0.0010207053700022535
0.405,1.4227133479496183e-05,-0.7846450599999997,-0.0006321859510021933,-2.3563533200000006,-0.0005144895850019811,1.5705268399999985,0.7865609970000018,0.039999985200000004,0.039999984,-9.80754349999999,-0.018746575526917348,-0.014264543900026058,0.009512433400021832,-0.00784969013183516,-0.0010360926400022673
0.40750000000000003,1.080790921949307e-05,-0.7846431399999997,-0.0006470704915022068,-2.356359680000001,-0.0005279346025019934,1.5705170599999985,0.7865734155000019,0.0399999858,0.039999981,-9.80747974999999,-0.018911066744500903,-0.014441389850026218,0.009660603100021967,-0.007796012703321347,-0.0010514799100022813
0.41000000000000003,7.388684959489958e-06,-0.7846412199999997,-0.0006619550320022203,-2.356366040000001,-0.0005413796200020056,1.5705072799999984,0.7865858340000019,0.0399999864,0.039999978,-9.80741599999999,-0.019075557962084457,-0.014618235800026379,0.009808772800022103,-0.007742335274807533,-0.0010668671800022954
0.41250000000000003,3.9694606994868454e-06,-0.7846392999999997,-0.0006768395725022339,-2.356372400000001,-0.0005548246375020178,1.5704974999999985,0.7865982525000019,0.039999987,0.039999975,-9.80735224999999,-0.019240049179668012,-0.01479508175002654,0.009956942500022237,-0.007688657846293719,-0.0010822544500023092
0.41500000000000004,5.502364394837312e-07,-0.7846373799999996,-0.0006917241130022474,-2.356378760000001,-0.0005682696550020301,1.5704877199999985,0.7866106710000019,0.0399999876,0.039999972,-9.80728849999999,-0.019404540397251566,-0.014971927700026701,0.010105112200022373,-0.007634980417779906,-0.0010976417200023233
0.4175,-2.986803780572988e-06,-0.7846355399999997,-0.0007071159680024918,-2.356385160000001,-0.0005821723950022506,1.5704776049999982,0.7866235025000021,0.03999998835,0.03999997,-9.807206749999981,-0.019579372089385788,-0.015152927300028752,0.01025597390002373,-0.007579045672891774,-0.001113439065002524
0.42,-6.759475920576423e-06,-0.7846338599999997,-0.0007235224520025067,-2.356391640000001,-0.000596990580002264,1.5704668199999983,0.7866371600000022,0.0399999894,0.03999997,-9.807088999999982,-0.01977488473060725,-0.015342234200028924,0.010412219600023873,-0.007518596295258084,-0.0011300565600025389
0.4225,-1.0532148060579859e-05,-0.7846321799999997,-0.0007399289360025216,-2.356398120000001,-0.0006118087650022776,1.5704560349999983,0.7866508175000021,0.03999999045,0.03999997,-9.806971249999982,-0.019970397371828714,-0.015531541100029096,0.010568465300024015,-0.007458146917624395,-0.001146674055002554
0.425,-1.4304820200583291e-05,-0.7846304999999997,-0.0007563354200025366,-2.356404600000001,-0.000626626950002291,1.5704452499999981,0.7866644750000021,0.039999991500000005,0.03999997,-9.806853499999981,-0.020165910013050178,-0.015720848000029267,0.010724711000024157,-0.007397697539990704,-0.0011632915500025692
0.4275,-1.8077492340586726e-05,-0.7846288199999997,-0.0007727419040025516,-2.356411080000001,-0.0006414451350023045,1.5704344649999982,0.7866781325000022,0.03999999255,0.03999997,-9.806735749999982,-0.02036142265427164,-0.015910154900029443,0.0108809567000243,-0.007337248162357014,-0.0011799090450025844
0.43,-2.185016448059016e-05,-0.7846271399999997,-0.0007891483880025665,-2.356417560000001,-0.0006562633200023181,1.5704236799999982,0.7866917900000021,0.039999993600000006,0.03999997,-9.806617999999983,-0.020556935295493104,-0.016099461800029614,0.011037202400024442,-0.007276798784723324,-0.0011965265400025996
0.4325,-2.5622836620593596e-05,-0.7846254599999997,-0.0008055548720025815,-2.356424040000001,-0.0006710815050023315,1.5704128949999983,0.7867054475000022,0.03999999465,0.03999997,-9.806500249999981,-0.020752447936714567,-0.016288768700029786,0.011193448100024584,-0.007216349407089634,-0.0012131440350026145
0.435,-2.9643307000655855e-05,-0.7846239199999997,-0.0008230279100028496,-2.356430730000001,-0.0006868622940025735,1.570401409999998,0.7867200040000024,0.0399999955,0.0399999714,-9.806386499999983,-0.020944762043685013,-0.016482218900030942,0.011355032400025994,-0.007151478435833525,-0.0012309359900029085
0.4375,-3.378767650065963e-05,-0.7846224499999997,-0.0008410342250028659,-2.356437525000001,-0.0007031243850025884,1.570389574999998,0.7867350100000025,0.03999999625,0.0399999735,-9.806274749999982,-0.021135476883531082,-0.01667774075003112,0.011519286000026142,-0.007084396667767773,-0.0012493151750029253
0.44,-3.79320460006634e-05,-0.7846209799999997,-0.0008590405400028823,-2.356444320000001,-0.0007193864760026031,1.570377739999998,0.7867500160000024,0.039999997,0.0399999756,-9.806162999999982,-0.021326191723377148,-0.0168732626000313,0.011683539600026292,-0.007017314899702022,-0.001267694360002942
0.4425,-4.207641550066717e-05,-0.7846195099999997,-0.0008770468550028987,-2.356451115000001,-0.0007356485670026179,1.570365904999998,0.7867650220000024,0.03999999775,0.0399999777,-9.806051249999982,-0.021516906563223217,-0.017068784450031477,0.011847793200026442,-0.006950233131636271,-0.0012860735450029588
0.445,-4.622078500067094e-05,-0.7846180399999998,-0.0008950531700029151,-2.356457910000001,-0.0007519106580026327,1.570354069999998,0.7867800280000025,0.0399999985,0.0399999798,-9.805939499999983,-0.021707621403069286,-0.017264306300031652,0.012012046800026592,-0.00688315136357052,-0.0013044527300029754
0.4475,-5.0365154500674715e-05,-0.7846165699999997,-0.0009130594850029314,-2.356464705000001,-0.0007681727490026475,1.570342234999998,0.7867950340000024,0.03999999925,0.0399999819,-9.805827749999983,-0.021898336242915352,-0.01745982815003183,0.012176300400026742,-0.006816069595504769,-0.0013228319150029922
0.45,-5.450952400074232e-05,-0.7846150999999998,-0.0009310658000032224,-2.3564715000000014,-0.00078443484000291,1.5703303999999978,0.7868100400000027,0.04,0.039999984,-9.805715999999986,-0.022089051082760554,-0.017655350000033865,0.012340554000028193,-0.0067489878274381195,-0.0013412111000031164
0.4525,-5.904377740074645e-05,-0.7846138249999998,-0.0009507494150032404,-2.3564789400000015,-0.0008022097050029262,1.570317484999998,0.7868264440000027,0.03999999925,0.03999998565,-9.805630949999987,-0.02227445514875714,-0.017862212600034056,0.01251275955002835,-0.006676420941936908,-0.0013602470000031338
0.455,-6.357803080075057e-05,-0.7846125499999999,-0.0009704330300032583,-2.356486380000001,-0.0008199845700029424,1.5703045699999978,0.7868428480000027,0.0399999985,0.039999987300000005,-9.805545899999986,-0.02245985921475373,-0.018069075200034243,0.012684965100028506,-0.006603854056435697,-0.0013792829000031511
0.4575,-6.81122842007547e-05,-0.7846112749999998,-0.0009901166450032761,-2.356493820000001,-0.0008377594350029586,1.570291654999998,0.7868592520000027,0.03999999775,0.03999998895,-9.805460849999987,-0.022645263280750318,-0.01827593780003443,0.012857170650028662,-0.006531287170934486,-0.0013983188000031683
0.46,-7.264653760075884e-05,-0.7846099999999998,-0.0010098002600032942,-2.3565012600000013,-0.0008555343000029747,1.5702787399999978,0.7868756560000028,0.039999997,0.0399999906,-9.805375799999986,-0.022830667346746908,-0.01848280040003462,0.013029376200028819,-0.006458720285433275,-0.0014173547000031856
0.4625,-7.718079100076297e-05,-0.7846087249999998,-0.001029483875003312,-2.3565087000000013,-0.0008733091650029909,1.5702658249999977,0.7868920600000028,0.03999999625,0.039999992250000005,-9.805290749999985,-0.023016071412743495,-0.018689663000034808,0.013201581750028975,-0.006386153399932064,-0.001436390600003203
0.465,-8.171504440076709e-05,-0.7846074499999999,-0.00104916749000333,-2.3565161400000014,-0.0008910840300030071,1.5702529099999978,0.7869084640000028,0.0399999955,0.0399999939,-9.805205699999986,-0.023201475478740085,-0.018896525600034995,0.013373787300029133,-0.006313586514430853,-0.0014554265000032204
0.4675,-8.63852603008406e-05,-0.7846062399999999,-0.0010694357450036463,-2.3565236300000016,-0.0009093868380032926,1.5702396099999976,0.786925355000003,0.03999999525,0.039999994450000007,-9.805133649999993,-0.023386921174855774,-0.01910925440003818,0.013548580300030609,-0.00623960422816308,-0.0014745249100032696
0.47000000000000003,-9.132740120084509e-05,-0.7846051599999998,-0.0010908732800036657,-2.3565312200000013,-0.0009287455320033102,1.5702255399999976,0.786943220000003,0.039999996,0.0399999928,-9.805087599999993,-0.023572450131209604,-0.01933371560003838,0.013728548200030773,-0.006162791140364345,-0.001493748340003287
0.47250000000000003,-9.62695421008496e-05,-0.7846040799999998,-0.0011123108150036852,-2.3565388100000013,-0.0009481042260033279,1.5702114699999976,0.7869610850000031,0.03999999675,0.039999991150000004,-9.805041549999993,-0.023757979087563434,-0.019558176800038587,0.013908516100030938,-0.00608597805256561,-0.0015129717700033045
0.47500000000000003,-0.00010121168300085409,-0.7846029999999998,-0.0011337483500037048,-2.3565464000000014,-0.0009674629200033455,1.5701973999999976,0.7869789500000031,0.0399999975,0.0399999895,-9.804995499999993,-0.02394350804391726,-0.01978263800003879,0.014088484000031102,-0.006009164964766875,-0.0015321952000033221
0.47750000000000004,-0.00010615382390085859,-0.7846019199999998,-0.0011551858850037244,-2.3565539900000014,-0.000986821614003363,1.5701833299999974,0.7869968150000031,0.03999999825,0.03999998785,-9.804949449999992,-0.02412903700027109,-0.020007099200038996,0.014268451900031266,-0.00593235187696814,-0.0015514186300033396
0.48,-0.00011109596480086297,-0.7846008399999997,-0.0011766234200037433,-2.3565615800000015,-0.0010061803080033804,1.5701692599999975,0.7870146800000031,0.039999999,0.039999986200000004,-9.804903399999992,-0.024314565956624918,-0.020231560400039195,0.014448419800031425,-0.005855538789169407,-0.0015706420600033566
0.4825,-0.00011603810570086748,-0.7845997599999998,-0.0011980609550037628,-2.356569170000001,-0.0010255390020033979,1.5701551899999975,0.7870325450000031,0.03999999975,0.03999998455,-9.804857349999992,-0.024500094912978745,-0.020456021600039398,0.01462838770003159,-0.005778725701370673,-0.0015898654900033742
0.485,-0.0001212640714009471,-0.7845988099999998,-0.0012207186600041052,-2.3565770300000013,-0.0010459982800037069,1.5701403299999972,0.7870514200000034,0.0399999988,0.0399999814,-9.804770399999981,-0.024689537659321182,-0.020686684500041245,0.014813578500033136,-0.005697760311871928,-0.0016096261200035339
0.4875,-0.00012663194950095197,-0.7845979249999998,-0.0012439864500041265,-2.3565850250000016,-0.001067007850003726,1.5701250749999973,0.7870708000000034,0.039999997,0.0399999775,-9.804662999999982,-0.02488093730065637,-0.020920448250041457,0.015001380750033306,-0.005614718771524823,-0.001629655350003552
0.49,-0.00013199982760095686,-0.7845970399999999,-0.0012672542400041476,-2.3565930200000014,-0.001088017420003745,1.5701098199999972,0.7870901800000034,0.0399999952,0.0399999736,-9.804555599999981,-0.02507233694199156,-0.02115421200004167,0.015189183000033479,-0.005531677231177717,-0.0016496845800035703
0.4925,-0.00013736770570096175,-0.7845961549999998,-0.0012905220300041687,-2.3566010150000016,-0.0011090269900037642,1.570094564999997,0.7871095600000034,0.0399999934,0.0399999697,-9.804448199999982,-0.025263736583326746,-0.021387975750041883,0.01537698525003365,-0.005448635690830612,-0.0016697138100035885
0.495,-0.00014273558380096662,-0.7845952699999998,-0.00131378982000419,-2.3566090100000014,-0.0011300365600037834,1.5700793099999972,0.7871289400000036,0.0399999916,0.0399999658,-9.80434079999998,-0.025455136224661935,-0.021621739500042095,0.01556478750003382,-0.0053655941504835054,-0.0016897430400036068
0.4975,-0.0001481034619009715,-0.7845943849999999,-0.0013370576100042112,-2.3566170050000017,-0.0011510461300038024,1.5700640549999971,0.7871483200000036,0.0399999898,0.0399999619,-9.804233399999982,-0.025646535865997126,-0.021855503250042308,0.01575258975003399,-0.0052825526101364,-0.001709772270003625
0.5,-0.00015347134000105706,-0.7845934999999999,-0.001360325400004579,-2.356625000000002,-0.0011720557000041343,1.570048799999997,0.7871677000000038,0.039999988,0.039999958,-9.804125999999984,-0.025837935507332016,-0.022089267000045577,0.015940392000035563,-0.005199511069788295,-0.0017298015000036927
0.5025000000000001,-0.0001592826685010625,-0.7845927649999999,-0.0013854986400046025,-2.3566336700000017,-0.0011947837300041555,1.570032329999997,0.7871886850000038,0.039999988,0.0399999553,-9.804042899999985,-0.026027706265484195,-0.02233982835004581,0.016135892100035746,-0.005110976519046888,-0.0017501030100037116
0.505,-0.00016509399700106764,-0.7845920299999999,-0.0014106718800046248,-2.356642340000002,-0.0012175117600041756,1.570015859999997,0.7872096700000039,0.039999988,0.0399999526,-9.803959799999985,-0.026217477023636363,-0.022590389700046034,0.01633139220003592,-0.005022441968305484,-0.0017704045200037297
0.5075000000000001,-0.00017090532550107307,-0.7845912949999999,-0.0014358451200046484,-2.356651010000002,-0.0012402397900041968,1.5699993899999969,0.7872306550000039,0.039999988,0.0399999499,-9.803876699999986,-0.026407247781788542,-0.022840951050046267,0.0165268923000361,-0.004933907417564077,-0.0017907060300037488
0.51,-0.00017671665400107822,-0.7845905599999998,-0.0014610183600046707,-2.3566596800000017,-0.0012629678200042171,1.5699829199999968,0.7872516400000039,0.039999988,0.0399999472,-9.803793599999985,-0.02659701853994071,-0.02309151240004649,0.016722392400036274,-0.004845372866822673,-0.0018110075400037669
0.5125,-0.0001825279825010834,-0.7845898249999999,-0.001486191600004693,-2.356668350000002,-0.0012856958500042372,1.5699664499999968,0.787272625000004,0.039999988,0.039999944499999995,-9.803710499999985,-0.02678678929809288,-0.02334207375004671,0.016917892500036447,-0.00475683831608127,-0.001831309050003785
0.515,-0.0001883393110010888,-0.7845890899999999,-0.0015113648400047167,-2.356677020000002,-0.0013084238800042584,1.569949979999997,0.787293610000004,0.039999988,0.0399999418,-9.803627399999986,-0.026976560056245057,-0.023592635100046947,0.01711339260003663,-0.004668303765339862,-0.0018516105600038038
0.5175,-0.00019430425100118074,-0.7845884199999998,-0.0015371980650051116,-2.356685730000002,-0.001331747465004615,1.5699330699999967,0.7873151450000042,0.03999998835,0.0399999405,-9.803557649999993,-0.027170593291559138,-0.023848659600050254,0.01731141520003823,-0.004578473907877892,-0.001872576395004197
0.52,-0.00020057641400118658,-0.7845878799999999,-0.001564351260005137,-2.356694520000002,-0.0013562621600046378,1.5699152799999967,0.7873377800000043,0.0399999894,0.039999942,-9.803514599999993,-0.02737315148118984,-0.024115610400050502,0.01751448280003842,-0.004486053436976976,-0.0018948708800042178
0.5225,-0.00020684857700119214,-0.7845873399999999,-0.001591504455005161,-2.3567033100000017,-0.0013807768550046595,1.5698974899999967,0.7873604150000043,0.03999999045,0.039999943499999996,-9.803471549999992,-0.027575709670820535,-0.02438256120005074,0.017717550400038598,-0.0043936329660760635,-0.0019171653650042375
0.525,-0.000213120740001198,-0.7845867999999999,-0.0016186576500051863,-2.356712100000002,-0.0014052915500046823,1.5698796999999967,0.7873830500000043,0.039999991500000005,0.039999945,-9.803428499999992,-0.02777826786045124,-0.02464951200005099,0.017920618000038788,-0.004301212495175148,-0.0019394598500042585
0.5275,-0.00021939290300120357,-0.7845862599999999,-0.0016458108450052105,-2.356720890000002,-0.001429806245004704,1.5698619099999966,0.7874056850000043,0.03999999255,0.0399999465,-9.803385449999993,-0.027980826050081935,-0.024916462800051227,0.018123685600038967,-0.004208792024274235,-0.0019617543350042782
0.53,-0.00022566506600120944,-0.7845857199999998,-0.0016729640400052358,-2.3567296800000017,-0.0014543209400047269,1.5698441199999966,0.7874283200000043,0.039999993600000006,0.039999948,-9.803342399999993,-0.028183384239712637,-0.025183413600051476,0.018326753200039157,-0.004116371553373319,-0.0019840488200042992
0.5325,-0.000231937229001215,-0.7845851799999999,-0.0017001172350052597,-2.356738470000002,-0.0014788356350047486,1.5698263299999966,0.7874509550000043,0.03999999465,0.0399999495,-9.803299349999993,-0.028385942429343336,-0.02545036440005171,0.018529820800039336,-0.004023951082472407,-0.002006343305004319
0.535,-0.0002385281380013139,-0.7845847439999999,-0.001728639450005685,-2.3567478600000022,-0.0015045854100051322,1.5698076599999964,0.7874747200000047,0.0399999955,0.0399999516,-9.803204599999978,-0.02858600113544755,-0.025724318700054004,0.018737869800040982,-0.00392714499028328,-0.0020293395200045444
0.5375,-0.0002452784200013199,-0.7845843599999999,-0.0017578461750057109,-2.356757550000002,-0.0015309527250051557,1.5697885499999962,0.7874990500000048,0.03999999625,0.039999954,-9.803083999999977,-0.0287848100997896,-0.02600177475005425,0.018948409500041168,-0.0038281460874519673,-0.0020526866000045653
0.54,-0.0002520287020013262,-0.784583976,-0.001787052900005738,-2.356767240000002,-0.0015573200400051802,1.5697694399999962,0.7875233800000048,0.039999997,0.0399999564,-9.802963399999976,-0.02898361906413166,-0.02627923080005451,0.019158949200041363,-0.00372914718462065,-0.002076033680004587
0.5425,-0.0002587789840013322,-0.7845835919999999,-0.0018162596250057641,-2.3567769300000023,-0.0015836873550052035,1.5697503299999962,0.7875477100000048,0.03999999775,0.0399999588,-9.802842799999977,-0.029182428028473713,-0.026556686850054755,0.019369488900041552,-0.0036301482817893372,-0.0020993807600046075
0.545,-0.0002655292660013385,-0.7845832079999999,-0.0018454663500057913,-2.356786620000002,-0.0016100546700052283,1.5697312199999962,0.7875720400000048,0.0399999985,0.039999961199999996,-9.802722199999977,-0.029381236992815772,-0.026834142900055015,0.019580028600041748,-0.00353114937895802,-0.0021227278400046293
0.5475,-0.0002722795480013445,-0.7845828239999999,-0.0018746730750058174,-2.3567963100000022,-0.0016364219850052515,1.5697121099999962,0.7875963700000048,0.03999999925,0.0399999636,-9.802601599999976,-0.02958004595715782,-0.02711159895005526,0.019790568300041934,-0.0034321504761267068,-0.00214607492000465
0.55,-0.00027902983000144987,-0.78458244,-0.00190387980000627,-2.356806000000002,-0.0016627893000056599,1.5696929999999958,0.7876207000000052,0.04,0.039999966,-9.802480999999997,-0.029778854921499218,-0.027389055000059614,0.020001108000043618,-0.003333151573294791,-0.0021694220000047014
0.5525,-0.00028627527850145633,-0.7845822164999999,-0.0019352127300062978,-2.3568159450000024,-0.0016910744550056851,1.5696724649999958,0.7876468150000052,0.04,0.0399999651,-9.802461649999996,-0.029974334593901534,-0.02768697225005988,0.02021907720004381,-0.0032311612390707504,-0.002192916590004722
0.555,-0.00029352072700146307,-0.784581993,-0.001966545660006327,-2.3568258900000023,-0.0017193596100057115,1.5696519299999958,0.7876729300000053,0.04,0.0399999642,-9.802442299999997,-0.030169814266303864,-0.027984889500060155,0.020437046400044016,-0.003129170904846705,-0.002216411180004744
0.5575,-0.0003007661755014695,-0.7845817695,-0.0019978785900063548,-2.3568358350000023,-0.0017476447650057367,1.5696313949999958,0.7876990450000053,0.04,0.0399999633,-9.802422949999997,-0.03036529393870618,-0.02828280675006042,0.020655015600044208,-0.0030271805706226645,-0.002239905770004765
0.56,-0.0003080116240014762,-0.784581546,-0.002029211520006384,-2.356845780000002,-0.001775929920005763,1.5696108599999958,0.7877251600000054,0.04,0.0399999624,-9.802403599999996,-0.030560773611108507,-0.0285807240000607,0.020872984800044413,-0.0029251902363986197,-0.002263400360004787
0.5625,-0.0003152570725014827,-0.7845813225,-0.0020605444500064116,-2.356855725000002,-0.0018042150750057881,1.5695903249999958,0.7877512750000053,0.04,0.0399999615,-9.802384249999998,-0.030756253283510827,-0.028878641250060965,0.021090954000044605,-0.0028231999021745787,-0.0022868949500048077
0.5650000000000001,-0.0003225025210014894,-0.784581099,-0.002091877380006441,-2.356865670000002,-0.0018325002300058147,1.5695697899999959,0.7877773900000054,0.04,0.0399999606,-9.802364899999997,-0.030951732955913153,-0.02917655850006124,0.021308923200044808,-0.002721209567950534,-0.00231038954000483
0.5675,-0.00032991861800160156,-0.78458092,-0.0021239429200069224,-2.356875915000002,-0.001861446135006249,1.5695487849999954,0.7878041115000057,0.04,0.039999961,-9.802315849999978,-0.031150408275467726,-0.029479934650064887,0.021529313800046503,-0.002617211960000945,-0.0023343435950051354
0.5700000000000001,-0.00033767601200160877,-0.78458083,-0.002157473680006954,-2.3568867600000023,-0.0018917135400062773,1.5695268399999955,0.7878320460000058,0.04,0.039999964,-9.802207399999979,-0.03135547488932089,-0.02979422860006518,0.02175454720004671,-0.002509199804603979,-0.0023592165800051584
0.5725,-0.0003454334060016157,-0.78458074,-0.002191004440006984,-2.356897605000002,-0.0019219809450063041,1.5695048949999955,0.7878599805000058,0.04,0.039999967,-9.802098949999978,-0.03156054150317404,-0.03010852255006546,0.021979780600046912,-0.0024011876492070184,-0.0023840895650051805
0.5750000000000001,-0.0003531908000016229,-0.78458065,-0.002224535200007015,-2.3569084500000024,-0.0019522483500063323,1.5694829499999954,0.7878879150000059,0.04,0.03999997,-9.801990499999977,-0.0317656081170272,-0.03042281650006575,0.02220501400004712,-0.0022931754938100525,-0.002408962550005204
0.5775,-0.0003609481940016298,-0.78458056,-0.002258065960007045,-2.356919295000002,-0.0019825157550063593,1.5694610049999955,0.7879158495000058,0.04,0.039999973,-9.801882049999978,-0.031970674730880354,-0.03073711045006603,0.022430247400047322,-0.0021851633384130918,-0.002433835535005226
0.58,-0.00036870558800163673,-0.78458047,-0.0022915967200070747,-2.356930140000002,-0.002012783160006386,1.5694390599999954,0.7879437840000059,0.04,0.039999976,-9.801773599999978,-0.032175741344733506,-0.03105140440006631,0.02265548080004752,-0.002077151183016131,-0.002458708520005248
0.5825,-0.00037646298200164394,-0.78458038,-0.002325127480007106,-2.3569409850000023,-0.0020430505650064143,1.5694171149999954,0.7879717185000059,0.04,0.039999979,-9.801665149999977,-0.03238080795858667,-0.031365698350066605,0.022880714200047732,-0.001969139027619165,-0.0024835815050052714
0.585,-0.0003845727020017633,-0.7845803920000001,-0.0023601703600076183,-2.3569519900000024,-0.0020746815900068763,1.569394149999995,0.7880009070000064,0.04,0.0399999815,-9.801613899999996,-0.03258324377243022,-0.0316947683000716,0.02311079540004948,-0.0018590968218395363,-0.0025086395500053525
0.5875,-0.00039285858500177104,-0.7845804550000001,-0.002395969300007652,-2.356963075000002,-0.0021069944250069065,1.569370674999995,0.7880307225000064,0.04,0.03999998375,-9.801591249999996,-0.03278436418627024,-0.03203122625007191,0.023343300500049697,-0.0017480395908695376,-0.0025337901250053756
0.59,-0.0004011444680017784,-0.7845805180000001,-0.0024317682400076834,-2.3569741600000023,-0.0021393072600069353,1.569347199999995,0.7880605380000064,0.04,0.039999986,-9.801568599999994,-0.03298548460011025,-0.03236768420007221,0.023575805600049904,-0.0016369823598995441,-0.0025589407000053983
0.5925,-0.00040943035100178614,-0.784580581,-0.002467567180007717,-2.3569852450000024,-0.0021716200950069654,1.569323724999995,0.7880903535000064,0.04,0.03999998825,-9.801545949999994,-0.033186605013950266,-0.03270414215007252,0.023808310700050118,-0.0015259251289295454,-0.0025840912750054214
0.595,-0.00041771623400179347,-0.784580644,-0.0025033661200077485,-2.3569963300000025,-0.002203932930006994,1.5693002499999948,0.7881201690000065,0.04,0.0399999905,-9.801523299999994,-0.033387725427790275,-0.03304060010007282,0.024040815800050325,-0.0014148678979595518,-0.0026092418500054436
0.5975,-0.00042600211700180124,-0.784580707,-0.002539165060007782,-2.3570074150000027,-0.0022362457650070243,1.569276774999995,0.7881499845000065,0.04,0.039999992750000005,-9.801500649999994,-0.03358884584163029,-0.03337705805007314,0.024273320900050542,-0.0013038106669895533,-0.002634392425005467
0.6,-0.00043428800000192745,-0.78458077,-0.002574964000008324,-2.357018500000003,-0.0022685586000075137,1.5692532999999944,0.7881798000000069,0.04,0.039999995,-9.801477999999976,-0.033789966255471496,-0.03371351600007636,0.024505826000052282,-0.0011927534360183195,-0.002659543000005677
0.6025,-0.0004431185960019357,-0.7845809485,-0.0026131007050083596,-2.3570305150000026,-0.002302981365007546,1.5692283249999945,0.788211570000007,0.04,0.03999999395,-9.801371649999977,-0.03399657290433405,-0.034063367150076684,0.024745357250052506,-0.0010760145756392456,-0.0026855541700057015
0.605,-0.0004519491920019435,-0.784581127,-0.0026512374100083934,-2.357042530000003,-0.0023374041300075763,1.5692033499999944,0.788243340000007,0.04,0.0399999929,-9.801265299999976,-0.03420317955319659,-0.034413218300077,0.024984888500052718,-0.0009592757152601769,-0.002711565340005725
0.6075,-0.00046077978800195175,-0.7845813055,-0.002689374115008429,-2.3570545450000027,-0.0023718268950076084,1.5691783749999944,0.788275110000007,0.04,0.03999999185,-9.801158949999976,-0.034409786202059145,-0.03476306945007732,0.02522441975005294,-0.000842536854881103,-0.0027375765100057492
0.61,-0.0004696103840019596,-0.784581484,-0.002727510820008463,-2.357066560000003,-0.002406249660007639,1.5691533999999945,0.788306880000007,0.04,0.0399999908,-9.801052599999977,-0.03461639285092169,-0.03511292060007764,0.025463951000053154,-0.0007257979945020344,-0.0027635876800057723
0.6125,-0.0004784409800019678,-0.7845816625,-0.0027656475250084985,-2.3570785750000027,-0.002440672425007671,1.5691284249999944,0.788338650000007,0.04,0.03999998975,-9.800946249999976,-0.03482299949978424,-0.03546277175007796,0.025703482250053377,-0.0006090591341229605,-0.0027895988500057966
0.615,-0.00048727157600197567,-0.7845818410000001,-0.0028037842300085323,-2.3570905900000025,-0.0024750951900077015,1.5691034499999945,0.7883704200000071,0.04,0.0399999887,-9.800839899999977,-0.03502960614864678,-0.03581262290007827,0.02594301350005359,-0.0004923202737438918,-0.0028156100200058196
0.6175,-0.0004962890800021099,-0.7845820700000001,-0.0028427229150091086,-2.357102670000003,-0.002510240950008221,1.569077954999994,0.7884028600000076,0.04,0.0399999878,-9.800760249999994,-0.03523637913172127,-0.03617076580008419,0.02618486665005538,-0.00037456647839499886,-0.0028417868850059555
0.62,-0.0005056804000021182,-0.7845824000000001,-0.0028832655600091444,-2.357114880000003,-0.0025468327000082534,1.569051419999994,0.7884366400000076,0.04,0.0399999872,-9.800733999999995,-0.03544348478321929,-0.036545492200084524,0.0264313636000556,-0.00025478281310852246,-0.002868295140005979
0.6225,-0.000515071720002127,-0.7845827300000001,-0.0029238082050091823,-2.3571270900000028,-0.0025834244500082875,1.569024884999994,0.7884704200000077,0.04,0.0399999866,-9.800707749999995,-0.03565059043471732,-0.03692021860008487,0.02667786055005583,-0.00013499914782204075,-0.0028948033950060036
0.625,-0.0005244630400021353,-0.7845830600000001,-0.0029643508500092185,-2.3571393000000027,-0.00262001620000832,1.568998349999994,0.7885042000000076,0.04,0.039999986,-9.800681499999994,-0.03585769608621534,-0.037294945000085206,0.026924357500056045,-1.5215482535564358e-05,-0.002921311650006027
0.6275000000000001,-0.000533854360002144,-0.7845833900000001,-0.003004893495009256,-2.3571515100000027,-0.002656607950008354,1.5689718149999938,0.7885379800000077,0.04,0.0399999854,-9.800655249999995,-0.03606480173771337,-0.03766967140008555,0.027170854450056275,0.0001045681827509173,-0.002947819905006052
0.63,-0.0005432456800021524,-0.7845837200000001,-0.0030454361400092922,-2.357163720000003,-0.0026931997000083866,1.568945279999994,0.7885717600000077,0.04,0.0399999848,-9.800628999999994,-0.03627190738921139,-0.03804439780008589,0.027417351400056494,0.00022435184803739375,-0.0029743281600060753
0.6325000000000001,-0.0005526370000021612,-0.7845840500000001,-0.00308597878500933,-2.357175930000003,-0.002729791450008421,1.568918744999994,0.7886055400000078,0.04,0.039999984200000005,-9.800602749999994,-0.03647901304070942,-0.03841912420008623,0.027663848350056724,0.0003441355133238754,-0.0030008364150061
0.635,-0.0005624125960023026,-0.784584444,-0.0031281701200099373,-2.357188860000003,-0.0027678704900089687,1.5688911499999936,0.7886406800000083,0.04,0.039999982600000004,-9.800515449999972,-0.03668806403880197,-0.03880507520009045,0.02791486190005851,0.0004681523016479287,-0.0030277484900062637
0.6375000000000001,-0.000572380330002312,-0.7845848700000001,-0.0031711858000099775,-2.357202150000003,-0.002806693175009005,1.5688630249999935,0.7886765000000083,0.04,0.039999980500000004,-9.800397624999972,-0.03689808771019079,-0.03919663850009082,0.028168133750058746,0.0005942856514885814,-0.003054862475006289
0.64,-0.0005823480640023208,-0.784585296,-0.0032142014800100155,-2.357215440000003,-0.0028455158600090395,1.5688348999999935,0.7887123200000083,0.04,0.039999978400000004,-9.800279799999972,-0.0371081113815796,-0.03958820180009117,0.02842140560005897,0.0007204190013292283,-0.003081976460006313
0.6425,-0.0005923157980023297,-0.7845857220000001,-0.003257217160010054,-2.357228730000003,-0.002884338545009074,1.5688067749999934,0.7887481400000084,0.04,0.039999976300000004,-9.800161974999972,-0.03731813505296841,-0.03997976510009152,0.028674677450059194,0.0008465523511698753,-0.003109090445006337
0.645,-0.000602283532002339,-0.7845861480000001,-0.0033002328400100938,-2.357242020000003,-0.0029231612300091104,1.5687786499999934,0.7887839600000084,0.04,0.0399999742,-9.800044149999971,-0.03752815872435723,-0.04037132840009188,0.02892794930005943,0.0009726857010105279,-0.0031362044300063626
0.6475,-0.0006122512660023478,-0.7845865740000001,-0.0033432485200101322,-2.357255310000003,-0.0029619839150091445,1.5687505249999933,0.7888197800000084,0.04,0.0399999721,-9.799926324999971,-0.03773818239574604,-0.04076289170009223,0.029181221150059656,0.001098819050851175,-0.0031633184150063865
0.65,-0.0006222190000024972,-0.7845870000000001,-0.0033862642000107726,-2.357268600000003,-0.003000806600009722,1.5687223999999929,0.788855600000009,0.04,0.03999997,-9.799808499999997,-0.03794820606713009,-0.04115445500009753,0.029434493000061488,0.0012249524006923656,-0.0031904324000063644
0.6525,-0.0006327786550025065,-0.7845875850000001,-0.003431818870010813,-2.357282190000003,-0.0030419182550097588,1.568692609999993,0.788893550000009,0.04,0.039999964900000004,-9.799804224999999,-0.038138063997075256,-0.041566890500097896,0.02969451305006172,0.0013533607998701947,-0.0032173460300063883
0.655,-0.0006433383100025164,-0.7845881700000001,-0.0034773735400108557,-2.357295780000003,-0.003083029910009797,1.5686628199999928,0.788931500000009,0.04,0.0399999598,-9.799799949999999,-0.03832792192702042,-0.04197932600009828,0.02995453310006196,0.0014817691990480295,-0.0032442596600064134
0.6575,-0.0006538979650025258,-0.7845887550000001,-0.003522928210010896,-2.357309370000003,-0.0031241415650098336,1.5686330299999929,0.7889694500000091,0.04,0.0399999547,-9.799795674999999,-0.03851777985696558,-0.04239176150009865,0.030214553150062193,0.0016101775982258586,-0.0032711732900064373
0.66,-0.0006644576200025356,-0.7845893400000001,-0.0035684828800109387,-2.357322960000003,-0.0031652532200098717,1.5686032399999927,0.7890074000000091,0.04,0.0399999496,-9.799791399999998,-0.03870763778691075,-0.042804197000099034,0.030474573200062437,0.0017385859974036934,-0.0032980869200064625
0.6625,-0.0006750172750025449,-0.7845899250000001,-0.003614037550010979,-2.357336550000003,-0.0032063648750099085,1.5685734499999928,0.7890453500000092,0.04,0.0399999445,-9.799787124999998,-0.038897495716855905,-0.0432166325000994,0.030734593250062666,0.0018669943965815223,-0.0033250005500064864
0.665,-0.0006855769300025548,-0.7845905100000001,-0.0036595922200110217,-2.357350140000003,-0.0032474765300099465,1.5685436599999927,0.7890833000000093,0.04,0.0399999394,-9.79978285,-0.03908735364680107,-0.04362906800009978,0.03099461330006291,0.001995402795759357,-0.0033519141800065115
0.6675,-0.0006963389075027116,-0.7845911325000001,-0.003706014700011694,-2.3573640400000033,-0.0032893708700105534,1.5685132949999923,0.7891219700000098,0.04,0.0399999367,-9.799741899999972,-0.03929506372666301,-0.04404893245010556,0.03125679040006471,0.0021257212735106825,-0.003379608595007104
0.67,-0.0007075055300027219,-0.7845918300000002,-0.003754172800011739,-2.3573785600000035,-0.003332830580010594,1.5684817799999922,0.7891620800000098,0.04,0.0399999388,-9.799627599999972,-0.03953847810631955,-0.044483654800105965,0.03152328160006496,0.002259859908404838,-0.0034088645800071315
0.6725,-0.0007186721525027319,-0.7845925275000002,-0.003802330900011782,-2.3573930800000036,-0.0033762902900106324,1.5684502649999923,0.7892021900000098,0.04,0.0399999409,-9.799513299999973,-0.039781892485976085,-0.04491837715010635,0.031789772800065196,0.002393998543298987,-0.003438120565007157
0.675,-0.0007298387750027423,-0.7845932250000002,-0.003850489000011827,-2.3574076000000037,-0.003419750000010673,1.5684187499999922,0.7892423000000098,0.04,0.039999943,-9.799398999999973,-0.040025306865632625,-0.04535309950010676,0.03205626400006545,0.002528137178193142,-0.0034673765500071846
0.6775,-0.0007410053975027523,-0.7845939225000002,-0.0038986471000118698,-2.3574221200000034,-0.0034632097100107113,1.5683872349999923,0.7892824100000099,0.04,0.0399999451,-9.799284699999973,-0.04026872124528916,-0.045787821850107144,0.03232275520006568,0.002662275813087291,-0.0034966325350072104
0.68,-0.0007521720200027626,-0.7845946200000002,-0.003946805200011914,-2.3574366400000035,-0.003506669420010752,1.5683557199999922,0.7893225200000099,0.04,0.0399999472,-9.799170399999971,-0.040512135624945704,-0.04622254420010755,0.032589246400065934,0.0027964144479814463,-0.003525888520007238
0.6825,-0.0007633386425027726,-0.7845953175000002,-0.003994963300011957,-2.3574511600000037,-0.0035501291300107907,1.5683242049999921,0.78936263000001,0.04,0.0399999493,-9.799056099999971,-0.04075555000460224,-0.04665726655010794,0.032855737600066166,0.0029305530828755955,-0.003555144505007264
0.685,-0.000774919805002938,-0.7845961150000003,-0.004044899270012667,-2.357466370000004,-0.0035951920000114306,1.5682915299999918,0.7894042200000105,0.04,0.039999951,-9.799000499999993,-0.04098034240310786,-0.047106412900113734,0.033126517500068016,0.003066546889056024,-0.0035844886500073243
0.6875,-0.0007867082375029484,-0.7845969625000002,-0.004095724175012712,-2.357481925000004,-0.0036410564500114714,1.5682582749999918,0.7894465500000105,0.04,0.0399999525,-9.798974249999993,-0.04119582381104844,-0.04756277125011414,0.03339944175006826,0.003203468280878546,-0.0036138768750073502
0.6900000000000001,-0.0007984966700029595,-0.7845978100000003,-0.004146549080012759,-2.3574974800000037,-0.003686920900011514,1.5682250199999916,0.7894888800000106,0.04,0.039999954,-9.798947999999994,-0.04141130521898904,-0.04801912960011457,0.03367236600006852,0.0033403896727010733,-0.0036432651000073775
0.6925,-0.0008102851025029699,-0.7845986575000002,-0.004197373985012804,-2.3575130350000038,-0.0037327853500115546,1.5681917649999917,0.7895312100000106,0.04,0.0399999555,-9.798921749999993,-0.04162678662692962,-0.04847548795011497,0.03394529025006876,0.003477311064523595,-0.003672653325007404
0.6950000000000001,-0.0008220735350029809,-0.7845995050000002,-0.0042481988900128515,-2.357528590000004,-0.0037786498000115976,1.5681585099999917,0.7895735400000107,0.04,0.039999957,-9.798895499999993,-0.041842268034870206,-0.0489318463001154,0.03421821450006901,0.0036142324563461226,-0.003702041550007431
0.6975,-0.0008338619675029913,-0.7846003525000003,-0.004299023795012897,-2.357544145000004,-0.0038245142500116383,1.5681252549999916,0.7896158700000108,0.04,0.0399999585,-9.798869249999994,-0.04205774944281079,-0.049388204650115806,0.034491138750069254,0.003751153848168644,-0.003731429775007457
0.7000000000000001,-0.0008456504000031645,-0.7846012000000002,-0.004349848700013639,-2.357559700000004,-0.003870378700012308,1.5680919999999912,0.7896582000000113,0.04,0.03999996,-9.798842999999993,-0.04227323085075259,-0.049844563000121744,0.034764063000071115,0.0038880752399918553,-0.00376081800000759
0.7025,-0.0008580751895031754,-0.7846021675000002,-0.004403402345013687,-2.357575540000004,-0.003918703795012351,1.568056974999991,0.7897027950000114,0.04,0.0399999591,-9.798818399999993,-0.04249345362192055,-0.05032256950012216,0.03504330105007136,0.004027679748868789,-0.0037906189500076163
0.705,-0.0008704999790031865,-0.7846031350000002,-0.0044569559900137345,-2.357591380000004,-0.003967028890012394,1.568021949999991,0.7897473900000115,0.04,0.0399999582,-9.798793799999993,-0.04271367639308851,-0.05080057600012259,0.03532253910007161,0.0041672842577457235,-0.003820419900007643
0.7075,-0.000882924768503198,-0.7846041025000002,-0.004510509635013784,-2.357607220000004,-0.004015353985012439,1.567986924999991,0.7897919850000115,0.04,0.0399999573,-9.798769199999994,-0.04293389916425648,-0.051278582500123036,0.03560177715007187,0.004306888766622664,-0.0038502208500076707
0.71,-0.0008953495580032091,-0.7846050700000002,-0.004564063280013832,-2.357623060000004,-0.004063679080012482,1.567951899999991,0.7898365800000116,0.04,0.0399999564,-9.798744599999994,-0.043154121935424436,-0.05175658900012346,0.03588101520007212,0.004446493275499597,-0.003880021800007697
0.7125,-0.0009077743475032207,-0.7846060375000002,-0.004617616925013882,-2.357638900000004,-0.004112004175012527,1.567916874999991,0.7898811750000115,0.04,0.039999955499999996,-9.798719999999994,-0.04337434470659241,-0.0522345955001239,0.03616025325007238,0.004586097784376538,-0.003909822750007725
0.715,-0.0009201991370032317,-0.7846070050000002,-0.00467117057001393,-2.357654740000004,-0.0041603292700125695,1.567881849999991,0.7899257700000116,0.04,0.0399999546,-9.798695399999993,-0.04359456747776037,-0.05271260200012433,0.03643949130007263,0.004725702293253472,-0.003939623700007751
0.7175,-0.0009328407735034131,-0.7846080025000003,-0.004725654050014708,-2.3576709050000044,-0.004209492835013272,1.5678462049999904,0.7899711400000122,0.04,0.0399999531,-9.798640949999971,-0.043815138191042484,-0.0531991933501315,0.036720781250074504,0.00486721398778326,-0.00396951510000785
0.72,-0.0009459161040034248,-0.7846090600000003,-0.004781997200014758,-2.3576877200000044,-0.004260333340013316,1.5678093199999903,0.7900180600000123,0.04,0.0399999504,-9.79852679999997,-0.04403640478855205,-0.053702954400131946,0.037006175000074755,0.005012540053614264,-0.003999587400007876
0.7225,-0.000958991434503437,-0.7846101175000003,-0.0048383403500148105,-2.3577045350000043,-0.004311173845013364,1.5677724349999902,0.7900649800000124,0.04,0.039999947699999996,-9.79841264999997,-0.04425767138606164,-0.05420671545013241,0.03729156875007502,0.0051578661194452745,-0.004029659700007905
0.725,-0.0009720667650034486,-0.7846111750000003,-0.004894683500014861,-2.3577213500000043,-0.004362014350013409,1.5677355499999903,0.7901119000000124,0.04,0.039999944999999995,-9.79829849999997,-0.04447893798357121,-0.05471047650013286,0.03757696250007527,0.005303192185276279,-0.004059732000007931
0.7275,-0.0009851420955034609,-0.7846122325000002,-0.004951026650014912,-2.357738165000004,-0.004412854855013456,1.5676986649999902,0.7901588200000125,0.04,0.0399999423,-9.79818434999997,-0.04470020458108079,-0.055214237550133334,0.037862356250075536,0.005448518251107289,-0.004089804300007959
0.73,-0.0009982174260034723,-0.7846132900000002,-0.0050073698000149625,-2.357754980000004,-0.004463695360013501,1.5676617799999901,0.7902057400000125,0.04,0.0399999396,-9.79807019999997,-0.04492147117859036,-0.05571799860013378,0.038147750000075795,0.005593844316938293,-0.004119876600007986
0.7325,-0.0010112927565034846,-0.7846143475000003,-0.005063712950015015,-2.357771795000004,-0.004514535865013549,1.56762489499999,0.7902526600000125,0.04,0.0399999369,-9.79795604999997,-0.045142737776099943,-0.05622175965013425,0.03843314375007606,0.005739170382769304,-0.004149948900008014
0.735,-0.001024811010003674,-0.7846154900000003,-0.005121955450015827,-2.357789290000005,-0.004567088830014281,1.5675867999999895,0.7903011540000132,0.04,0.039999939,-9.797898199999992,-0.04537346139556499,-0.056741270000141016,0.0387224829000779,0.005886235274413955,-0.00418134090000857
0.7375,-0.0010385507250036867,-0.7846166750000003,-0.0051811476250158825,-2.3578071250000048,-0.004620498025014331,1.5675480999999896,0.7903504350000132,0.04,0.0399999435,-9.797868499999991,-0.045608913526002104,-0.057268655000141507,0.039013794750078164,0.006034169578964394,-0.0042133927500086
0.74,-0.0010522904400036988,-0.7846178600000003,-0.005240339800015935,-2.3578249600000047,-0.004673907220014378,1.5675093999999896,0.7903997160000132,0.04,0.039999948,-9.797838799999992,-0.04584436565643921,-0.05779604000014198,0.039305106600078424,0.006182103883514824,-0.004245444600008628
0.7425,-0.0010660301550037116,-0.7846190450000002,-0.00529953197501599,-2.3578427950000047,-0.004727316415014428,1.5674706999999894,0.7904489970000134,0.04,0.0399999525,-9.797809099999991,-0.04607981778687632,-0.05832342500014247,0.0395964184500787,0.006330038188065263,-0.004277496450008658
0.745,-0.0010797698700037237,-0.7846202300000003,-0.005358724150016043,-2.3578606300000047,-0.004780725610014475,1.5674319999999895,0.7904982780000134,0.04,0.039999957,-9.797779399999992,-0.046315269917313426,-0.05885081000014294,0.03988773030007895,0.006477972492615694,-0.004309548300008687
0.7475,-0.0010935095850037365,-0.7846214150000003,-0.005417916325016098,-2.357878465000005,-0.004834134805014525,1.5673932999999896,0.7905475590000134,0.04,0.0399999615,-9.797749699999992,-0.046550722047750535,-0.05937819500014343,0.040179042150079225,0.006625906797166132,-0.0043416001500087165
0.75,-0.0011072493000039338,-0.7846226000000003,-0.005477108500016944,-2.357896300000005,-0.004887544000015288,1.567354599999989,0.7905968400000141,0.04,0.039999966,-9.797719999999991,-0.04678617417818431,-0.05990558000015012,0.040470354000081116,0.006773841101717318,-0.004373652000008536
0.7525000000000001,-0.0011216671050039472,-0.7846238750000003,-0.005539207075017001,-2.357914510000005,-0.00494357459501534,1.567313964999989,0.7906485540000141,0.04,0.039999962099999994,-9.797690449999992,-0.04700939934706832,-0.06045579050015064,0.040767646800081395,0.006924539827782913,-0.004404938700008566
0.755,-0.00113608491000396,-0.7846251500000003,-0.005601305650017057,-2.3579327200000053,-0.0049996051900153896,1.5672733299999888,0.7907002680000141,0.04,0.0399999582,-9.797660899999991,-0.04723262451595232,-0.061006001000151126,0.04106493960008166,0.007075238553848502,-0.004436225400008593
0.7575000000000001,-0.0011505027150039734,-0.7846264250000003,-0.005663404225017115,-2.357950930000005,-0.005055635785015442,1.5672326949999889,0.7907519820000143,0.04,0.039999954299999994,-9.797631349999993,-0.047455849684836335,-0.061556211500151635,0.04136223240008194,0.007225937279914098,-0.004467512100008622
0.76,-0.0011649205200039863,-0.7846277000000004,-0.00572550280001717,-2.357969140000005,-0.005111666380015491,1.5671920599999887,0.7908036960000143,0.04,0.0399999504,-9.797601799999992,-0.04767907485372034,-0.06210642200015212,0.0416595252000822,0.007376636005979686,-0.00449879880000865
0.7625000000000001,-0.0011793383250039999,-0.7846289750000004,-0.005787601375017228,-2.357987350000005,-0.005167696975015543,1.5671514249999887,0.7908554100000144,0.04,0.039999946499999994,-9.797572249999991,-0.04790230002260435,-0.06265663250015263,0.041956818000082476,0.007527334732045282,-0.004530085500008679
0.765,-0.0011937561300040126,-0.7846302500000004,-0.0058496999500172835,-2.358005560000005,-0.005223727570015594,1.5671107899999888,0.7909071240000144,0.04,0.0399999426,-9.797542699999992,-0.048125525191488355,-0.06320684300015313,0.04225411080008274,0.007678033458110871,-0.004561372200008707
0.7675000000000001,-0.0012084043750042192,-0.7846315725000004,-0.005912786500018169,-2.3580241000000055,-0.005280648635016392,1.567069509999988,0.7909596720000152,0.04,0.0399999395,-9.797488599999971,-0.048352766223317474,-0.06376688125016187,0.04255327605008459,0.00783041929830486,-0.004592935650008968
0.77,-0.0012235135000042325,-0.7846329900000004,-0.005977849000018226,-2.3580433000000056,-0.005339350640016444,1.567026939999988,0.7910138880000152,0.04,0.039999938,-9.797385399999971,-0.04858803898102671,-0.06434657500016239,0.042856186200084856,0.007986179366751393,-0.004625052600008997
0.7725,-0.001238622625004246,-0.7846344075000005,-0.0060429115000182835,-2.3580625000000053,-0.005398052645016496,1.566984369999988,0.7910681040000153,0.04,0.0399999365,-9.797282199999971,-0.04882331173873594,-0.0649262687501629,0.04315909635008512,0.008141939435197927,-0.004657169550009025
0.775,-0.0012537317500042602,-0.7846358250000004,-0.006107974000018344,-2.3580817000000054,-0.005456754650016551,1.566941799999988,0.7911223200000153,0.04,0.039999935,-9.797178999999971,-0.049058584496445186,-0.06550596250016345,0.04346200650008541,0.008297699503644467,-0.004689286500009055
0.7775,-0.0012688408750042735,-0.7846372425000004,-0.006173036500018402,-2.3581009000000055,-0.005515456655016604,1.566899229999988,0.7911765360000154,0.04,0.0399999335,-9.79707579999997,-0.049293857254154416,-0.06608565625016397,0.043764916650085674,0.008453459572091,-0.004721403450009084
0.78,-0.0012839500000042877,-0.7846386600000004,-0.006238099000018463,-2.3581201000000056,-0.005574158660016658,1.5668566599999878,0.7912307520000154,0.04,0.039999932,-9.79697259999997,-0.04952913001186366,-0.0666653500001645,0.04406782680008596,0.00860921964053754,-0.004753520400009113
0.7825,-0.0012990591250043012,-0.7846400775000004,-0.00630316150001852,-2.3581393000000057,-0.00563286066501671,1.5668140899999878,0.7912849680000154,0.04,0.0399999305,-9.79686939999997,-0.0497644027695729,-0.06724504375016502,0.044370736950086226,0.008764979708984074,-0.004785637350009142
0.785,-0.0013146376900045162,-0.7846415650000005,-0.0063702363600194436,-2.3581591700000057,-0.0056933774800175425,1.5667702099999872,0.7913408290000161,0.04,0.039999931300000006,-9.79681179999999,-0.0500024721027104,-0.06783666350017067,0.04467721970008804,0.00892250640322316,-0.0048184713000094795
0.7875,-0.0013304509750045302,-0.7846430875000004,-0.0064383174000195035,-2.358179375000006,-0.005754801700017597,1.5667256749999872,0.7913975125000162,0.04,0.03999993325,-9.79677699999999,-0.050241939723560225,-0.06843424625017121,0.044985488750088315,0.009080916410357381,-0.0048516637500095085
0.79,-0.001346264260004545,-0.7846446100000004,-0.006506398440019568,-2.3581995800000057,-0.0058162259200176545,1.5666811399999871,0.7914541960000162,0.04,0.0399999352,-9.79674219999999,-0.05048140734441007,-0.06903182900017175,0.045293757800088603,0.00923932641749161,-0.00488485620000954
0.7925,-0.001362077545004559,-0.7846461325000005,-0.006574479480019628,-2.358219785000006,-0.005877650140017709,1.5666366049999871,0.7915108795000163,0.04,0.039999937150000005,-9.79670739999999,-0.05072087496525989,-0.06962941175017229,0.04560202685008888,0.00939773642462583,-0.004918048650009569
0.795,-0.0013778908300045739,-0.7846476550000004,-0.006642560520019692,-2.3582399900000057,-0.005939074360017766,1.5665920699999871,0.7915675630000163,0.04,0.039999939100000007,-9.79667259999999,-0.050960342586109736,-0.07022699450017285,0.04591029590008917,0.009556146431760058,-0.0049512411000096
0.7975,-0.0013937041150045878,-0.7846491775000005,-0.006710641560019752,-2.358260195000006,-0.006000498580017821,1.5665475349999871,0.7916242465000164,0.04,0.03999994105,-9.796637799999989,-0.05119981020695956,-0.07082457725017337,0.04621856495008944,0.00971455643889428,-0.00498443355000963
0.8,-0.0014095174000048113,-0.7846507000000005,-0.00677872260002071,-2.358280400000006,-0.006061922800018684,1.5665029999999864,0.7916809300000172,0.04,0.039999943,-9.796602999999989,-0.05143927782780933,-0.07142216000018321,0.04652683400009137,0.009872966446029346,-0.0050176260000097065
0.8025,-0.0014260474750048258,-0.7846523350000005,-0.0068498765850207735,-2.3583016400000063,-0.006126117130018741,1.5664564399999863,0.7917401800000172,0.04,0.03999994105,-9.796564449999988,-0.051678496226738174,-0.07205163650018377,0.04684073915009165,0.010034261643933595,-0.005050976625009736
0.805,-0.0014425775500048414,-0.7846539700000005,-0.0069210305700208394,-2.358322880000006,-0.006190311460018801,1.5664098799999864,0.7917994300000173,0.04,0.0399999391,-9.796525899999988,-0.051917714625667036,-0.07268111300018436,0.04715464430009194,0.010195556841837851,-0.005084327250009768
0.8075,-0.0014591076250048559,-0.7846556050000005,-0.006992184555020903,-2.358344120000006,-0.006254505790018858,1.5663633199999862,0.7918586800000174,0.04,0.039999937150000005,-9.796487349999989,-0.05215693302459588,-0.07331058950018492,0.04746854945009221,0.010356852039742098,-0.005117677875009797
0.81,-0.0014756377000048713,-0.7846572400000005,-0.007063338540020969,-2.3583653600000063,-0.0063187001200189176,1.5663167599999863,0.7919179300000174,0.04,0.0399999352,-9.796448799999988,-0.05239615142352474,-0.0739400660001855,0.047782454600092505,0.010518147237646354,-0.005151028500009828
0.8125,-0.001492167775004886,-0.7846588750000004,-0.007134492525021032,-2.3583866000000064,-0.006382894450018975,1.5662701999999862,0.7919771800000175,0.04,0.03999993325,-9.796410249999989,-0.052635369822453586,-0.07456954250018606,0.048096359750092785,0.010679442435550602,-0.005184379125009858
0.8150000000000001,-0.0015086978500049014,-0.7846605100000005,-0.007205646510021099,-2.358407840000006,-0.006447088780019035,1.566223639999986,0.7920364300000176,0.04,0.0399999313,-9.796371699999987,-0.05287458822138245,-0.07519901900018665,0.04841026490009308,0.010840737633454858,-0.005217729750009889
0.8175,-0.001525470955005133,-0.7846621775000004,-0.007277842175022091,-2.3584292150000064,-0.00651222230001993,1.5661764149999855,0.7920965505000184,0.04,0.039999930100000004,-9.796337099999992,-0.05311588309712551,-0.07583713900019493,0.04872590750009491,0.011002748785588984,-0.005251300190010115
0.8200000000000001,-0.001542730120005149,-0.7846639100000005,-0.00735212120002216,-2.3584508600000067,-0.0065792342000199925,1.5661278599999855,0.7921584120000185,0.04,0.0399999304,-9.796310399999992,-0.053361330926491465,-0.07649254600019553,0.04904502500009521,0.011166191846180963,-0.005285310260010147
0.8225,-0.0015599892850051643,-0.7846656425000005,-0.007426400225022226,-2.3584725050000066,-0.006646246100020052,1.5660793049999855,0.7922202735000186,0.04,0.039999930700000005,-9.796283699999991,-0.05360677875585741,-0.07714795300019611,0.049364142500095486,0.011329634906772933,-0.005319320330010177
0.8250000000000001,-0.0015772484500051805,-0.7846673750000005,-0.007500679250022296,-2.3584941500000065,-0.006713258000020115,1.5660307499999853,0.7922821350000185,0.04,0.039999931,-9.796256999999992,-0.05385222658522337,-0.07780336000019673,0.049683260000095784,0.01149307796736491,-0.005353330400010209
0.8275,-0.0015945076150051959,-0.7846691075000005,-0.007574958275022361,-2.3585157950000064,-0.006780269900020174,1.5659821949999853,0.7923439965000186,0.04,0.0399999313,-9.796230299999992,-0.05409767441458932,-0.07845876700019731,0.05000237750009607,0.01165652102795688,-0.005387340470010239
0.8300000000000001,-0.001611766780005212,-0.7846708400000005,-0.007649237300022431,-2.3585374400000068,-0.006847281800020237,1.5659336399999852,0.7924058580000187,0.04,0.039999931600000004,-9.796203599999991,-0.05434312224395528,-0.07911417400019792,0.05032149500009637,0.011819964088548858,-0.00542135054001027
0.8325,-0.0016290259450052274,-0.7846725725000006,-0.0077235163250224965,-2.3585590850000067,-0.006914293700020296,1.5658850849999852,0.7924677195000187,0.04,0.0399999319,-9.796176899999992,-0.05458857007332123,-0.07976958100019851,0.05064061250009665,0.011983407149140828,-0.0054553606100103
0.835,-0.0016467791900054676,-0.7846743950000006,-0.0077999128000235275,-2.358581440000007,-0.006983214600021225,1.5658351399999846,0.7925313320000196,0.04,0.0399999313,-9.796092199999965,-0.0548359580338755,-0.0804438904002077,0.05096309020009847,0.012150418944708084,-0.005489724620010492
