rsonawane2002/My_IMU/logs_incomplete/traj_377/imu_400hz_377.csv
time,j1,j2,j3,j4,j5,j6,j7,gripper1,gripper2,imu_ax,imu_ay,imu_az,imu_gx,imu_gy,imu_gz
0.0,0.00016700293,-0.785875,4.0107683e-05,-2.3551247,9.29385e-05,1.570997,0.786,0.04,0.04,-9.49422,0.0220280475914478,0.1125201,-4.6179696e-07,-0.0011641274904832,2.489617e-07
0.0025,0.000167004076,-0.785857774,4.01090075e-05,-2.35513919,9.294495540000001e-05,1.570996565,0.786,0.04,0.04,-9.545261100000047,0.01881932249234228,0.09700355864998589,-5.034494160000379e-07,-0.0013252443110105766,4.1405074000015015e-07
0.005,0.000167005222,-0.785840548,4.0110332e-05,-2.3551536800000004,9.295141080000001e-05,1.57099613,0.786,0.04,0.04,-9.596302200000093,0.015610597393236763,0.08148701729997178,-5.451018720000758e-07,-0.0014863611315379531,5.791397800003003e-07
0.0075,0.000167006368,-0.7858233219999999,4.01116565e-05,-2.3551681700000002,9.295786620000002e-05,1.570995695,0.786,0.04,0.04,-9.64734330000014,0.012401872294131247,0.06597047594995767,-5.867543280001137e-07,-0.0016474779520653296,7.442288200004504e-07
0.01,0.000167007514,-0.785806096,4.0112981e-05,-2.35518266,9.296432160000002e-05,1.5709952600000001,0.786,0.04,0.04,-9.698384400000185,0.009193147195025727,0.05045393459994355,-6.284067840001515e-07,-0.0018085947725927061,9.093178600006007e-07
0.0125,0.00016700866,-0.78578887,4.01143055e-05,-2.3551971500000004,9.297077700000003e-05,1.570994825,0.786,0.04,0.04,-9.749425500000232,0.005984422095920209,0.034937393249929435,-6.700592400001894e-07,-0.0019697115931200824,1.0744069000007508e-06
0.015,0.000167009806,-0.785771644,4.011563e-05,-2.3552116400000003,9.297723240000003e-05,1.57099439,0.786,0.04,0.04,-9.800466600000277,0.0027756969968146944,0.01942085189991534,-7.117116960002272e-07,-0.002130828413647459,1.2394959400009009e-06
0.0175,0.00016701259200000004,-0.7857548619999999,4.0117583350000015e-05,-2.3552257350000003,9.298613295000008e-05,1.57099396,0.786,0.04,0.04,-9.834386449999997,0.0006401706457836542,0.009006097914998656,-9.526728850040722e-07,-0.002287727443036545,1.4943741050027662e-06
0.02,0.00016701865800000003,-0.7857389679999999,4.012079440000002e-05,-2.3552390400000003,9.29999238000001e-05,1.5709935400000001,0.786,0.04,0.04,-9.834063799999997,0.0006510417908430191,0.008794918659998464,-1.5922515400046536e-06,-0.00243619089014928,1.928830520003161e-06
0.0225,0.00016702472400000005,-0.7857230739999999,4.012400545000003e-05,-2.3552523450000002,9.30137146500001e-05,1.57099312,0.786,0.04,0.04,-9.833741149999996,0.000661912935902384,0.008583739404998273,-2.2318301950052354e-06,-0.0025846543372620152,2.3632869350035563e-06
0.025,0.00016703079000000005,-0.7857071799999998,4.0127216500000027e-05,-2.35526565,9.302750550000012e-05,1.5709927,0.786,0.04,0.04,-9.833418499999997,0.0006727840809617489,0.00837256014999808,-2.8714088500058173e-06,-0.0027331177843747502,2.7977433500039517e-06
0.0275,0.00016703685600000007,-0.7856912859999998,4.013042755000003e-05,-2.355278955,9.304129635000013e-05,1.57099228,0.786,0.04,0.04,-9.833095849999996,0.0006836552260211137,0.008161380894997888,-3.510987505006399e-06,-0.0028815812314874852,3.232199765004346e-06
0.03,0.00016704292200000006,-0.7856753919999998,4.013363860000004e-05,-2.35529226,9.305508720000015e-05,1.57099186,0.786,0.04,0.04,-9.832773199999997,0.0006945263710804786,0.007950201639997696,-4.15056616000698e-06,-0.0030300446786002203,3.6666561800047415e-06
0.0325,0.00016704898800000008,-0.7856594979999998,4.013684965000004e-05,-2.355305565,9.306887805000015e-05,1.57099144,0.786,0.04,0.04,-9.832450549999995,0.0007053975161398435,0.007739022384997503,-4.790144815007563e-06,-0.0031785081257129557,4.101112595005137e-06
0.035,0.00016706389600000025,-0.7856444399999998,4.014350000000011e-05,-2.3553181,9.309610150000043e-05,1.57099101,0.786,0.04,0.04,-9.832174699999996,0.0007213975652122663,0.007537547139997497,-6.099045930020929e-06,-0.0033192893723043037,4.934522660013153e-06
0.0375,0.00016708322500000027,-0.7856297999999998,4.015187000000012e-05,-2.35533025,9.313004125000046e-05,1.570990575,0.786,0.04,0.04,-9.831922249999996,0.0007399620662910782,0.007340923899997318,-7.74260827502242e-06,-0.003456229518635168,5.96740955001409e-06
0.04,0.00016710255400000028,-0.7856151599999998,4.016024000000013e-05,-2.3553424,9.316398100000049e-05,1.57099014,0.786,0.04,0.04,-9.831669799999997,0.0007585265673698901,0.007144300659997139,-9.386170620023917e-06,-0.0035931696649660325,7.000296440015031e-06
0.0425,0.0001671218830000003,-0.7856005199999998,4.016861000000013e-05,-2.35535455,9.319792075000052e-05,1.5709897050000001,0.786,0.04,0.04,-9.831417349999995,0.000777091068448702,0.00694767741999696,-1.1029732965025414e-05,-0.0037301098112968974,8.03318333001597e-06
0.045,0.00016714121200000034,-0.7855858799999997,4.017698000000014e-05,-2.3553667000000003,9.323186050000055e-05,1.57098927,0.786,0.04,0.04,-9.831164899999996,0.000795655569527514,0.006751054179996781,-1.2673295310026906e-05,-0.0038670499576277614,9.066070220016909e-06
0.0475,0.00016716054100000035,-0.7855712399999998,4.018535000000015e-05,-2.35537885,9.326580025000058e-05,1.570988835,0.786,0.04,0.04,-9.830912449999996,0.0008142200706063258,0.006554430939996602,-1.43168576550284e-05,-0.004003990103958626,1.0098957110017849e-05
0.05,0.00016717987000000083,-0.7855565999999998,4.0193720000000335e-05,-2.355391,9.329974000000138e-05,1.5709884,0.786,0.04,0.04,-9.830659999999995,0.0008327845716853184,0.006357807699997218,-1.5960420000058386e-05,-0.004140930250289291,1.1131844000038561e-05
0.0525,0.00016722452350000086,-0.7855430924999998,4.021193720000035e-05,-2.3554021300000003,9.337553050000145e-05,1.57098798,0.786,0.04,0.0399999985,-9.830367499999994,0.0008612811390780692,0.006204881244997079,-1.91700652500613e-05,-0.00426689733285692,1.3251646700040486e-05
0.055,0.0001672691770000009,-0.7855295849999998,4.0230154400000366e-05,-2.35541326,9.345132100000152e-05,1.57098756,0.786,0.04,0.039999997,-9.830074999999994,0.0008897777064708202,0.00605195478999694,-2.2379710500064223e-05,-0.0043928644154245505,1.5371449400042413e-05
0.0575,0.00016731383050000095,-0.7855160774999997,4.024837160000038e-05,-2.35542439,9.352711150000159e-05,1.57098714,0.786,0.04,0.0399999955,-9.829782499999993,0.0009182742738635711,0.005899028334996801,-2.5589355750067143e-05,-0.00451883149799218,1.7491252100044344e-05
0.06,0.00016735848400000099,-0.7855025699999997,4.02665888000004e-05,-2.3554355200000003,9.360290200000166e-05,1.57098672,0.786,0.04,0.039999994,-9.829489999999993,0.000946770841256322,0.005746101879996662,-2.8799001000070056e-05,-0.004644798580559809,1.9611054800046268e-05
0.0625,0.00016740313750000102,-0.7854890624999997,4.0284806000000414e-05,-2.35544665,9.367869250000173e-05,1.5709863,0.786,0.04,0.0399999925,-9.829197499999992,0.000975267408649073,0.005593175424996523,-3.200864625007298e-05,-0.004770765663127439,2.17308575000482e-05
0.065,0.00016744779100000105,-0.7854755549999997,4.030302320000043e-05,-2.35545778,9.37544830000018e-05,1.57098588,0.786,0.04,0.039999991,-9.828904999999992,0.001003763976041824,0.0054402489699963835,-3.52182915000759e-05,-0.004896732745695069,2.385066020005013e-05
0.0675,0.0001675060450000025,-0.7854623804999996,4.0326543600001e-05,-2.35546854,9.385033650000396e-05,1.570985615,0.786,0.04,0.03999999025,-9.828635699999992,0.0010335721657620139,0.005289171884995711,-3.9059251750148546e-05,-0.005019507394175598,2.6216524900083184e-05
0.07,0.00016759150000000372,-0.7854498719999994,4.036067040000149e-05,-2.3554785600000003,9.398631600000594e-05,1.57098566,0.786,0.04,0.039999991,-9.82841279999999,0.001066003600136796,0.005141793539993566,-4.4162842000222815e-05,-0.0051358971744826214,2.9074513600124774e-05
0.0725,0.00016767695500000498,-0.7854373634999993,4.039479720000199e-05,-2.3554885800000007,9.412229550000792e-05,1.570985705,0.786,0.04,0.03999999175,-9.828189899999986,0.0010984350345115777,0.004994415194991422,-4.926643225029706e-05,-0.005252286954789645,3.193250230016635e-05
0.075,0.0001677624100000062,-0.785424854999999,4.042892400000248e-05,-2.3554986000000007,9.42582750000099e-05,1.57098575,0.786,0.04,0.039999992500000005,-9.827966999999983,0.0011308664688863598,0.004847036849989277,-5.437002250037133e-05,-0.005368676735096669,3.479049100020794e-05
0.0775,0.00016784786500000746,-0.7854123464999989,4.046305080000298e-05,-2.355508620000001,9.439425450001188e-05,1.570985795,0.786,0.04,0.039999993250000004,-9.827744099999979,0.0011632979032611416,0.004699658504987133,-5.94736127504456e-05,-0.005485066515403692,3.764847970024953e-05
0.08,0.0001679333200000087,-0.7853998379999987,4.049717760000348e-05,-2.355518640000001,9.453023400001386e-05,1.5709858399999999,0.786,0.04,0.039999994000000004,-9.827521199999977,0.0011957293376359235,0.004552280159984988,-6.457720300051988e-05,-0.005601456295710716,4.050646840029112e-05
0.0825,0.00016801877500000994,-0.7853873294999986,4.053130440000397e-05,-2.3555286600000014,9.466621350001583e-05,1.570985885,0.786,0.04,0.039999994750000004,-9.827298299999974,0.0012281607720107056,0.004404901814982843,-6.968079325059414e-05,-0.00571784607601774,4.336445710033271e-05
0.085,0.00016814372400001632,-0.7853754299999987,4.058081070000645e-05,-2.355538360000001,9.486194900002545e-05,1.57098596,0.786,0.04,0.039999995,-9.827033049999967,0.0012660260079474068,0.004271002109985659,-7.635886650084193e-05,-0.005826231837284392,4.7172222000482994e-05
0.08750000000000001,0.00016828842000001448,-0.7853638349999988,4.063800675000572e-05,-2.3555479000000012,9.508756250002257e-05,1.57098605,0.786,0.04,0.039999995,-9.82674662499997,0.0013066081446635853,0.004143841724987278,-8.382418125074689e-05,-0.005930615589033044,5.145487500042847e-05
0.09,0.00016843311600001263,-0.7853522399999989,4.0695202800004995e-05,-2.355557440000001,9.531317600001971e-05,1.57098614,0.786,0.04,0.039999995,-9.826460199999975,0.0013471902813797633,0.0040166813399888975,-9.128949600065179e-05,-0.006034999340781694,5.573752800037392e-05
0.0925,0.0001685778120000108,-0.7853406449999991,4.0752398850004265e-05,-2.3555669800000008,9.553878950001683e-05,1.57098623,0.786,0.04,0.039999995,-9.826173774999978,0.0013877724180959416,0.0038895209549905164,-9.875481075055675e-05,-0.0061393830925303445,6.00201810003194e-05
0.095,0.00016872250800000895,-0.7853290499999993,4.0809594900003535e-05,-2.3555765200000005,9.576440300001396e-05,1.57098632,0.786,0.04,0.039999995,-9.82588734999998,0.00142835455481212,0.0037623605699921357,-0.00010622012550046169,-0.006243766844278996,6.430283400026487e-05
0.0975,0.0001688672040000071,-0.7853174549999995,4.086679095000281e-05,-2.3555860600000007,9.599001650001108e-05,1.57098641,0.786,0.04,0.039999995,-9.825600924999986,0.0014689366915282983,0.0036352001849937546,-0.00011368544025036665,-0.006348150596027647,6.858548700021034e-05
0.1,0.0001690119000000082,-0.7853058599999996,4.092398700000322e-05,-2.3555956000000005,9.621563000001258e-05,1.5709865,0.786,0.04,0.039999995,-9.825314499999994,0.0015095188282447014,0.003508039799996364,-0.00012115075500037223,-0.006452534347776076,7.286814000020602e-05
0.10250000000000001,0.0001692370125000084,-0.7852950599999996,4.10124969000033e-05,-2.3556043300000002,9.65614280000129e-05,1.57098662,0.785999715,0.04,0.03999999575,-9.825152274999994,0.001556280418300854,0.003408099284996273,-0.00013138199475038153,-0.006550834304656681,7.853077500021118e-05
0.105,0.0001694621250000086,-0.7852842599999996,4.110100680000338e-05,-2.3556130600000005,9.69072260000132e-05,1.5709867400000002,0.78599943,0.04,0.0399999965,-9.824990049999993,0.0016030420083570063,0.0033081587699961825,-0.0001416132345003908,-0.006649134261537285,8.41934100002163e-05
0.1075,0.0001696872375000088,-0.7852734599999995,4.1189516700003464e-05,-2.3556217900000003,9.725302400001352e-05,1.57098686,0.785999145,0.04,0.03999999725,-9.824827824999993,0.001649803598413159,0.0032082182549960916,-0.00015184447425040012,-0.00674743421841789,8.985604500022145e-05
0.11,0.00016991235000000902,-0.7852626599999996,4.1278026600003545e-05,-2.35563052,9.759882200001384e-05,1.57098698,0.78599886,0.04,0.039999998,-9.824665599999992,0.0016965651884693115,0.0031082777399960007,-0.00016207571400040944,-0.006845734175298494,9.551868000022661e-05
0.1125,0.0001701374625000092,-0.7852518599999996,4.1366536500003626e-05,-2.3556392500000003,9.794462000001415e-05,1.5709871000000002,0.785998575,0.04,0.03999999875,-9.824503374999994,0.001743326778525464,0.0030083372249959093,-0.00017230695375041876,-0.006944034132179098,0.00010118131500023176
0.115,0.00017036257500000943,-0.7852410599999995,4.14550464000037e-05,-2.35564798,9.829041800001447e-05,1.5709872200000001,0.78599829,0.04,0.0399999995,-9.824341149999993,0.0017900883685816166,0.0029083967099958184,-0.00018253819350042808,-0.007042334089059702,0.00010684395000023692
0.11750000000000001,0.00017062234250001408,-0.7852305069999995,4.155703155000551e-05,-2.355656375,9.86885992500215e-05,1.57098735,0.785998005,0.04,0.04,-9.824170749999992,0.0018402753630676484,0.0028117559449961508,-0.00019336649150051395,-0.007138223084624963,0.00011309972500031813
0.12,0.00017095142000001436,-0.7852204479999996,4.168596720000563e-05,-2.3556641000000003,9.919154700002196e-05,1.5709875,0.78599772,0.04,0.04,-9.823983999999992,0.00189731316641213,0.002721714679996069,-0.00020538890600052483,-0.007229290157560455,0.00012054178000032488
0.1225,0.00017128049750001465,-0.7852103889999995,4.1814902850005745e-05,-2.3556718250000004,9.969449475002242e-05,1.57098765,0.785997435,0.04,0.04,-9.823797249999991,0.001954350969756612,0.0026316734149959874,-0.00021741132050053576,-0.007320357230495948,0.00012798383500033165
0.125,0.00017160957500001497,-0.7852003299999996,4.194383850000587e-05,-2.35567955,0.00010019744250002287,1.5709878000000002,0.78599715,0.04,0.04,-9.823610499999992,0.002011388773101094,0.0025416321499959053,-0.00022943373500054672,-0.007411424303431441,0.00013542589000033843
0.1275,0.00017193865250001526,-0.7851902709999995,4.207277415000598e-05,-2.355687275,0.00010070039025002333,1.5709879500000001,0.785996865,0.04,0.04,-9.823423749999991,0.0020684265764455757,0.002451590884995823,-0.00024145614950055766,-0.007502491376366934,0.0001428679450003452
0.13,0.00017226773000001555,-0.7851802119999995,4.22017098000061e-05,-2.3556950000000003,0.00010120333800002379,1.5709881,0.7859965800000001,0.04,0.04,-9.823236999999992,0.0021254643797900576,0.0023615496199957415,-0.0002534785640005686,-0.007593558449302427,0.00015031000000035198
0.1325,0.00017259680750001587,-0.7851701529999996,4.233064545000622e-05,-2.3557027250000004,0.00010170628575002425,1.57098825,0.785996295,0.04,0.04,-9.82305024999999,0.0021825021831345394,0.0022715083549956594,-0.00026550097850057956,-0.00768462552223792,0.00015775205500035875
0.135,0.00017301234900002252,-0.7851604759999996,4.2493217100008816e-05,-2.3557102700000003,0.00010233916990003428,1.57098874,0.78599601,0.04,0.04,-9.822827499999988,0.002239644760268679,0.00219887210999686,-0.00027980847700075887,-0.007770519983027482,0.00016633569700044964
0.1375,0.00017347112250002295,-0.7851509899999995,4.2672606750008974e-05,-2.3557177250000003,0.00010303702225003491,1.5709894,0.785995725,0.04,0.04,-9.822586749999989,0.0022968397242976364,0.0021349383749968017,-0.00029525851750077293,-0.007853828137744642,0.00017549013250045797
0.14,0.00017392989600002336,-0.7851415039999996,4.285199640000914e-05,-2.3557251800000003,0.00010373487460003555,1.57099006,0.78599544,0.04,0.04,-9.822345999999989,0.0023540346883265933,0.0020710046399967435,-0.000310708558000787,-0.007937136292461804,0.0001846445680004663
0.14250000000000002,0.0001743886695000238,-0.7851320179999995,4.3031386050009304e-05,-2.3557326350000003,0.00010443272695003618,1.57099072,0.7859951550000001,0.04,0.04,-9.822105249999987,0.0024112296523555506,0.0020070709049966854,-0.00032615859850080106,-0.008020444447178964,0.00019379900350047463
0.145,0.0001748474430000242,-0.7851225319999995,4.321077570000946e-05,-2.3557400900000003,0.00010513057930003682,1.57099138,0.78599487,0.04,0.04,-9.821864499999988,0.002468424616384507,0.0019431371699966276,-0.00034160863900081496,-0.008103752601896124,0.00020295343900048285
0.1475,0.0001753062165000246,-0.7851130459999995,4.339016535000963e-05,-2.3557475450000003,0.00010582843165003745,1.57099204,0.785994585,0.04,0.04,-9.821623749999988,0.002525619580413464,0.0018792034349965694,-0.000357058679500829,-0.008187060756613285,0.00021210787450049118
0.15,0.0001757649900000336,-0.7851035599999996,4.3569555000013126e-05,-2.3557550000000003,0.00010652628400005102,1.5709927,0.7859943,0.04,0.04,-9.821382999999994,0.002582814544443003,0.001815269699996136,-0.0003725087200010467,-0.008270368911330138,0.00022126231000060994
0.1525,0.00017638105050003417,-0.7850945809999995,4.3810068150013345e-05,-2.3557615550000004,0.00010746114490005187,1.57099342,0.7859937300000001,0.04,0.04,-9.821266149999994,0.0026506695081517247,0.0017444576999960716,-0.0003916905670010642,-0.008348048757765989,0.00023244021100062012
0.155,0.00017699711100003474,-0.7850856019999995,4.4050581300013564e-05,-2.35576811,0.00010839600580005272,1.57099414,0.78599316,0.04,0.04,-9.821149299999993,0.0027185244718604465,0.001673645699996007,-0.00041087241400108163,-0.00842572860420184,0.0002436181120006303
0.1575,0.0001776131715000353,-0.7850766229999995,4.429109445001378e-05,-2.355774665,0.00010933086670005358,1.57099486,0.78599259,0.04,0.04,-9.821032449999993,0.0027863794355691683,0.0016028336999959426,-0.0004300542610010991,-0.00850340845063769,0.00025479601300064045
0.16,0.00017822923200003587,-0.7850676439999995,4.4531607600014e-05,-2.3557812200000003,0.00011026572760005441,1.57099558,0.78599202,0.04,0.04,-9.820915599999994,0.00285423439927789,0.0015320216999958783,-0.0004492361080011166,-0.008581088297073542,0.00026597391400065063
0.1625,0.0001788452925000364,-0.7850586649999994,4.477212075001422e-05,-2.355787775,0.00011120058850005527,1.5709963,0.78599145,0.04,0.04,-9.820798749999993,0.0029220893629866114,0.0014612096999958137,-0.00046841795500113405,-0.008658768143509393,0.0002771518150006608
0.165,0.00017946135300003698,-0.7850496859999995,4.501263390001444e-05,-2.35579433,0.00011213544940005612,1.57099702,0.78599088,0.04,0.04,-9.820681899999993,0.002989944326695333,0.0013903976999957491,-0.00048759980200115154,-0.008736447989945242,0.000288329716000671
0.1675,0.0001801396020000489,-0.7850408429999994,4.527730905001907e-05,-2.3558008000000004,0.00011316426775007415,1.5709979100000002,0.785990308,0.04,0.04,-9.820530899999985,0.0030582659645047505,0.0013294611999974902,-0.0005076965450013362,-0.008811929496009441,0.00030023768500081466
0.17,0.00018094222800004966,-0.7850322719999995,4.5590308200019354e-05,-2.3558071000000003,0.00011438100100007525,1.57099914,0.785989732,0.04,0.04,-9.820311599999986,0.0031275209505153036,0.0012882756999974528,-0.0005296230800013562,-0.008883014321331536,0.00031360579000082686
0.17250000000000001,0.00018174485400005038,-0.7850237009999995,4.590330735001964e-05,-2.3558134,0.00011559773425007636,1.5710003700000001,0.785989156,0.04,0.04,-9.820092299999986,0.0031967759365258567,0.0012470901999974153,-0.0005515496150013761,-0.00895409914665363,0.000326973895000839
0.17500000000000002,0.0001825474800000511,-0.7850151299999995,4.621630650001992e-05,-2.3558197,0.00011681446750007747,1.5710016,0.7859885799999999,0.04,0.04,-9.819872999999985,0.0032660309225364097,0.0012059046999973778,-0.0005734761500013961,-0.009025183971975726,0.0003403420000008512
0.1775,0.00018335010600005182,-0.7850065589999995,4.652930565002021e-05,-2.3558260000000004,0.00011803120075007856,1.57100283,0.7859880039999999,0.04,0.04,-9.819653699999986,0.003335285908546962,0.0011647191999973406,-0.0005954026850014158,-0.00909626879729782,0.0003537101050008632
0.18,0.00018415273200005257,-0.7849979879999994,4.684230480002049e-05,-2.3558323000000003,0.00011924793400007968,1.5710040600000001,0.7859874279999999,0.04,0.04,-9.819434399999984,0.003404540894557515,0.001123533699997303,-0.0006173292200014357,-0.009167353622619915,0.00036707821000087537
0.1825,0.0001849553580000533,-0.7849894169999995,4.715530395002078e-05,-2.3558386000000002,0.00012046466725008078,1.57100529,0.785986852,0.04,0.04,-9.819215099999985,0.003473795880568068,0.0010823481999972656,-0.0006392557550014557,-0.00923843844794201,0.00038044631500088757
0.185,0.00018590287400006866,-0.7849810399999995,4.7524586300026745e-05,-2.3558444200000004,0.00012189929650010388,1.57100656,0.7859860879999999,0.04,0.04,-9.819066199999991,0.0035491370828874156,0.0010404120299971524,-0.0006640701740017672,-0.009306305274371719,0.00039517570200103716
0.1875,0.0001869228350000696,-0.7849727599999994,4.792201025002711e-05,-2.35585,0.00012344287375010528,1.57100785,0.7859852299999999,0.04,0.04,-9.818952499999991,0.003627521393360247,0.000998100524997114,-0.0006903285350017911,-0.00937256310135572,0.0004105857300010512
0.19,0.0001879427960000705,-0.7849644799999994,4.831943420002747e-05,-2.35585558,0.0001249864510001067,1.5710091400000001,0.7859843719999999,0.04,0.04,-9.818838799999991,0.0037059057038330784,0.0009557890199970754,-0.000716586896001815,-0.00943882092833972,0.0004259957580010652
0.1925,0.00018896275700007142,-0.7849561999999994,4.871685815002783e-05,-2.3558611600000003,0.00012653002825010811,1.57101043,0.7859835139999999,0.04,0.04,-9.818725099999991,0.00378429001430591,0.0009134775149970369,-0.0007428452570018389,-0.00950507875532372,0.0004414057860010792
0.195,0.00018998271800007235,-0.7849479199999994,4.91142821000282e-05,-2.35586674,0.0001280736055001095,1.5710117200000002,0.785982656,0.04,0.04,-9.818611399999991,0.003862674324778741,0.0008711660099969983,-0.0007691036180018628,-0.009571336582307721,0.0004568158140010932
0.1975,0.00019100267900007327,-0.7849396399999994,4.9511706050028556e-05,-2.3558723200000005,0.00012961718275011092,1.5710130100000002,0.7859817979999999,0.04,0.04,-9.818497699999991,0.003941058635251573,0.0008288545049969598,-0.0007953619790018867,-0.00963759440929172,0.00047222584200110724
0.2,0.00019202264000009234,-0.7849313599999994,4.990913000003596e-05,-2.3558779000000003,0.0001311607600001396,1.5710143000000003,0.7859809399999999,0.04,0.04,-9.818383999999988,0.0040194429457243944,0.0007865429999985348,-0.000821620340002149,-0.009703852236275406,0.0004876358700012848
0.2025,0.0001932919460000935,-0.7849233109999993,5.040339320003641e-05,-2.355883195,0.00013307917300014134,1.57101616,0.7859799289999999,0.03999999925,0.03999999925,-9.818208649999987,0.004097699606796836,0.0007664064449985164,-0.0008511533840021758,-0.009765795059506683,0.0005052937335013009
0.20500000000000002,0.00019456125200009467,-0.7849152619999994,5.089765640003687e-05,-2.3558884900000003,0.00013499758600014309,1.5710180200000001,0.7859789179999999,0.0399999985,0.0399999985,-9.818033299999987,0.004175956267869277,0.0007462698899984981,-0.0008806864280022027,-0.009827737882737959,0.000522951597001317
0.20750000000000002,0.00019583055800009584,-0.7849072129999993,5.139191960003732e-05,-2.355893785,0.00013691599900014483,1.5710198800000001,0.7859779069999999,0.03999999775,0.03999999775,-9.817857949999986,0.004254212928941718,0.0007261333349984798,-0.0009102194720022296,-0.009889680705969236,0.0005406094605013331
0.21,0.00019709986400009698,-0.7848991639999994,5.188618280003776e-05,-2.3558990800000004,0.00013883441200014654,1.5710217400000002,0.7859768959999999,0.039999997,0.039999997,-9.817682599999985,0.0043324695900141584,0.0007059967799984616,-0.0009397525160022561,-0.009951623529200511,0.000558267324001349
0.2125,0.00019836917000009812,-0.7848911149999994,5.238044600003821e-05,-2.355904375,0.00014075282500014829,1.5710236000000002,0.7859758849999999,0.03999999625,0.03999999625,-9.817507249999986,0.0044107262510866,0.0006858602249984433,-0.000969285560002283,-0.010013566352431788,0.000575925187501365
0.215,0.00019963847600009928,-0.7848830659999994,5.287470920003866e-05,-2.3559096700000004,0.00014267123800015003,1.5710254600000002,0.7859748739999999,0.0399999955,0.0399999955,-9.817331899999985,0.004488982912159041,0.000665723669998425,-0.0009988186040023098,-0.010075509175663064,0.000593583051001381
0.2175,0.0002010019480001228,-0.7848750549999994,5.340554735004779e-05,-2.35591484,0.00014473053450018522,1.5710275050000002,0.7859738199999998,0.039999994750000004,0.03999999525,-9.81717809999999,0.004570944863378537,0.0006452800914983338,-0.001029730080002664,-0.010135987866674438,0.0006119352820015619
0.22,0.0002025537520001242,-0.7848671199999994,5.4009535400048336e-05,-2.3559197600000004,0.00014707159800018737,1.5710299200000002,0.7859726799999999,0.039999994000000004,0.039999996,-9.81706739999999,0.004660317394889513,0.0006242224659983146,-0.0010633984200026946,-0.010193538293247045,0.00063167624800158
0.2225,0.0002041055560001256,-0.7848591849999994,5.461352345004889e-05,-2.35592468,0.0001494126615001895,1.5710323350000002,0.7859715399999999,0.039999993250000004,0.03999999675,-9.816956699999992,0.00474968992640049,0.0006031648404982954,-0.0010970667600027253,-0.010251088719819652,0.000651417214001598
0.225,0.00020565736000012703,-0.7848512499999993,5.521751150004944e-05,-2.3559296,0.00015175372500019163,1.5710347500000001,0.7859703999999998,0.0399999925,0.0399999975,-9.816845999999991,0.004839062457911466,0.0005821072149982762,-0.001130735100002756,-0.01030863914639226,0.0006711581800016159
0.2275,0.00020720916400012845,-0.7848433149999994,5.582149955004999e-05,-2.3559345200000004,0.00015409478850019376,1.5710371650000003,0.7859692599999999,0.03999999175,0.03999999825,-9.81673529999999,0.004928434989422442,0.000561049589498257,-0.0011644034400027866,-0.010366189572964868,0.0006908991460016339
0.23,0.00020876096800012984,-0.7848353799999993,5.642548760005054e-05,-2.35593944,0.0001564358520001959,1.5710395800000003,0.7859681199999998,0.039999991,0.039999999,-9.816624599999992,0.005017807520933419,0.0005399919639982379,-0.0011980717800028173,-0.010423739999537475,0.0007106401120016519
0.2325,0.00021031277200013126,-0.7848274449999993,5.702947565005109e-05,-2.35594436,0.00015877691550019804,1.5710419950000003,0.7859669799999999,0.03999999025,0.03999999975,-9.816513899999991,0.005107180052444395,0.0005189343384982188,-0.001231740120002848,-0.010481290426110082,0.0007303810780016698
0.23500000000000001,0.00021207560700014274,-0.7848195239999994,5.7715385500055535e-05,-2.3559488400000004,0.00016143485300021518,1.5710447300000003,0.7859656439999999,0.039999989799999996,0.0399999995,-9.816390299999991,0.005196861317388074,0.000502980550998976,-0.0012683770300029127,-0.01053616525605725,0.0007518852650017103
0.23750000000000002,0.00021394395750011895,-0.7848116099999994,5.844225625004628e-05,-2.3559531000000002,0.00016425122750017934,1.5710476250000003,0.7859642099999998,0.0399999895,0.03999999875,-9.816260249999992,0.0052866969490480455,0.0004895786824991467,-0.0013064982250024274,-0.010589702287692208,0.0007742710625014254
0.24,0.00021581230800009514,-0.7848036959999996,5.9169127000037015e-05,-2.35595736,0.00016706760200014344,1.5710505200000002,0.7859627759999999,0.0399999892,0.039999998,-9.816130199999993,0.005376532580708015,0.00047617681399931747,-0.0013446194200019415,-0.010643239319327166,0.00079665686000114
0.2425,0.00021768065850007135,-0.7847957819999997,5.989599775002776e-05,-2.35596162,0.0001698839765001076,1.5710534150000002,0.7859613419999999,0.0399999889,0.03999999725,-9.816000149999995,0.005466368212367987,0.0004627749454994881,-0.0013827406150014562,-0.010696776350962124,0.000819042657500855
0.245,0.00021954900900004757,-0.7847878679999998,6.062286850001851e-05,-2.3559658800000003,0.00017270035100007172,1.5710563100000001,0.7859599079999999,0.0399999886,0.0399999965,-9.815870099999996,0.005556203844027958,0.00044937307699965875,-0.0014208618100009709,-0.010750313382597082,0.0008414284550005701
0.2475,0.00022141735950002378,-0.7847799539999999,6.134973925000926e-05,-2.35597014,0.00017551672550003588,1.571059205,0.785958474,0.0399999883,0.03999999575,-9.815740049999999,0.0056460394756879285,0.0004359712084998294,-0.0014589830050004853,-0.010803850414232041,0.000863814252500285
0.25,0.00022328571,-0.78477204,6.207661e-05,-2.3559744,0.0001783331,1.5710621,0.78595704,0.039999988,0.039999995,-9.81561,0.0057358751073479,0.00042256934,-0.0014971042,-0.010857387445867,0.00088620005
0.2525,0.0002255054775000323,-0.7847640989999999,6.293989900001256e-05,-2.35597848,0.00018167683100004867,1.57106546,0.785955324,0.039999988,0.039999995,-9.815453774999998,0.005838801106439478,0.0004238113985000181,-0.0015391993000006127,-0.010906091611833028,0.0009110330525003614
0.255,0.0002277252450000646,-0.7847561579999998,6.380318800002512e-05,-2.35598256,0.00018502056200009733,1.57106882,0.7859536079999999,0.039999988,0.039999995,-9.815297549999995,0.005941727105531056,0.00042505345700003617,-0.0015812944000012253,-0.010954795777799058,0.0009358660550007228
0.2575,0.0002299450125000969,-0.7847482169999996,6.466647700003769e-05,-2.3559866400000002,0.00018836429300014598,1.5710721800000003,0.7859518919999999,0.039999988,0.039999995,-9.815141324999994,0.006044653104622634,0.00042629551550005425,-0.0016233895000018377,-0.011003499943765087,0.0009606990575010842
0.26,0.00023216478000012922,-0.7847402759999995,6.552976600005026e-05,-2.3559907200000003,0.00019170802400019464,1.5710755400000003,0.785950176,0.039999988,0.039999995,-9.81498509999999,0.006147579103714211,0.0004275375740000723,-0.0016654846000024503,-0.011052204109731116,0.0009855320600014456
0.2625,0.0002343845475001615,-0.7847323349999994,6.639305500006281e-05,-2.3559948000000004,0.00019505175500024333,1.5710789000000003,0.7859484599999998,0.039999988,0.039999995,-9.81482887499999,0.006250505102805789,0.00042877963250009034,-0.001707579700003063,-0.011100908275697144,0.001010365062501807
0.265,0.0002366043150001938,-0.7847243939999993,6.725634400007538e-05,-2.3559988800000005,0.00019839548600029199,1.5710822600000003,0.7859467439999999,0.039999988,0.039999995,-9.814672649999986,0.006353431101897367,0.0004300216910001084,-0.0017496748000036756,-0.011149612441663173,0.0010351980650021683
0.2675,0.0002389530720002537,-0.7847164149999992,6.816970550009864e-05,-2.3560029350000002,0.00020193270050038192,1.5710858350000003,0.7859449319999998,0.0399999878,0.039999994750000004,-9.814537924999991,0.006454474455686402,0.0004335905835008002,-0.0017931521750045004,-0.011197684844960306,0.0010608621650026594
0.27,0.00024155980800025605,-0.7847083599999992,6.918321200009955e-05,-2.3560069400000003,0.0002058568820003855,1.5710898400000004,0.7859429279999998,0.0399999872,0.039999994000000004,-9.814446199999992,0.006551752518871996,0.0004418131440008077,-0.0018393941000045425,-0.011244493722920199,0.0010881884600026843
0.2725,0.00024416654400025845,-0.7847003049999992,7.019671850010048e-05,-2.3560109450000004,0.00020978106350038906,1.5710938450000005,0.7859409239999998,0.0399999866,0.039999993250000004,-9.814354474999991,0.006649030582057589,0.0004500357045008152,-0.0018856360250045846,-0.011291302600880092,0.0011155147550027092
0.275,0.0002467732800002608,-0.7846922499999992,7.12102250001014e-05,-2.3560149500000005,0.00021370524500039263,1.5710978500000004,0.7859389199999998,0.039999986,0.0399999925,-9.81426274999999,0.006746308645243183,0.0004582582650008227,-0.0019318779500046266,-0.011338111478839983,0.001142841050002734
0.2775,0.0002493800160002632,-0.7846841949999992,7.222373150010233e-05,-2.3560189550000006,0.0002176294265003962,1.5711018550000004,0.7859369159999998,0.0399999854,0.03999999175,-9.814171024999991,0.006843586708428776,0.00046648082550083015,-0.001978119875004669,-0.011384920356799876,0.001170167345002759
0.28,0.00025198675200026555,-0.7846761399999992,7.323723800010324e-05,-2.3560229600000007,0.0002215536080003998,1.5711058600000005,0.7859349119999998,0.0399999848,0.039999991,-9.81407929999999,0.00694086477161437,0.00047470338600083767,-0.002024361800004711,-0.011431729234759769,0.0011974936400027838
0.28250000000000003,0.0002545934880002679,-0.7846680849999992,7.425074450010417e-05,-2.3560269650000008,0.00022547778950040336,1.5711098650000004,0.7859329079999997,0.039999984200000005,0.03999999025,-9.813987574999992,0.007038142834799964,0.00048292594650084514,-0.002070603725004753,-0.01147853811271966,0.0012248199350028087
0.28500000000000003,0.00025748224300031416,-0.784659892999999,7.537371400012211e-05,-2.3560305200000005,0.0002298248270004727,1.5711143100000005,0.7859306559999997,0.0399999829,0.0399999894,-9.813905399999992,0.007147452188667609,0.0004955817760015421,-0.0021197457600052464,-0.011523946374659366,0.001253749020003083
0.28750000000000003,0.00026051200750031695,-0.7846516324999991,7.65514150001232e-05,-2.3560338500000007,0.00023438329250047686,1.5711189750000005,0.7859282799999997,0.039999981250000004,0.0399999885,-9.813827999999992,0.007262777187873488,0.0005104542400015558,-0.0021703378500052923,-0.011568654328589301,0.00128347950000311
0.29,0.00026354177200031963,-0.7846433719999991,7.772911600012423e-05,-2.3560371800000004,0.0002389417580004809,1.5711236400000006,0.7859259039999997,0.0399999796,0.0399999876,-9.813750599999992,0.007378102187079366,0.000525326704001569,-0.0022209299400053374,-0.011613362282519236,0.0013132099800031364
0.2925,0.00026657153650032236,-0.7846351114999991,7.890681700012531e-05,-2.35604051,0.00024350022350048506,1.5711283050000004,0.7859235279999996,0.03999997795,0.039999986700000004,-9.813673199999991,0.0074934271862852455,0.0005401991680015825,-0.0022715220300053834,-0.011658070236449172,0.0013429404600031635
0.295,0.00026960130100032515,-0.7846268509999991,8.008451800012638e-05,-2.3560438400000003,0.0002480586890004892,1.5711329700000005,0.7859211519999997,0.039999976300000004,0.0399999858,-9.813595799999991,0.007608752185491126,0.000555071632001596,-0.0023221141200054293,-0.011702778190379107,0.0013726709400031906
0.2975,0.0002726310655003279,-0.7846185904999992,8.126221900012745e-05,-2.35604717,0.00025261715450049336,1.5711376350000006,0.7859187759999997,0.03999997465,0.0399999849,-9.81351839999999,0.007724077184697005,0.0005699440960016095,-0.0023727062100054753,-0.011747486144309044,0.0014024014200032175
0.3,0.0002756608300003808,-0.7846103299999991,8.243992000014799e-05,-2.3560505000000003,0.0002571756200005727,1.5711423000000007,0.7859163999999996,0.039999973,0.039999984,-9.813440999999981,0.007839402183902212,0.0005848165600015529,-0.0024232983000059723,-0.011792194098238496,0.001432131900003538
0.3025,0.00027915011050038394,-0.7846017904999991,8.379596200014922e-05,-2.3560535000000002,0.00026242305800057745,1.5711475950000007,0.7859136399999996,0.03999997195,0.03999998295,-9.813283349999981,0.007948560267698806,0.0005990457835015658,-0.0024780234000060224,-0.011832466349010062,0.0014645507250035676
0.305,0.0002826393910003871,-0.7845932509999991,8.515200400015046e-05,-2.3560565,0.00026767049600058226,1.5711528900000005,0.7859108799999996,0.0399999709,0.0399999819,-9.813125699999983,0.0080577183514954,0.0006132750070015788,-0.002532748500006072,-0.01187273859978163,0.001496969550003597
0.3075,0.0002861286715003903,-0.7845847114999991,8.650804600015169e-05,-2.3560595,0.000272917934000587,1.5711581850000005,0.7859081199999997,0.03999996985,0.03999998085,-9.812968049999983,0.008166876435291995,0.0006275042305015917,-0.002587473600006122,-0.011913010850553196,0.0015293883750036265
0.31,0.0002896179520003935,-0.7845761719999991,8.786408800015293e-05,-2.3560625,0.0002781653720005918,1.5711634800000005,0.7859053599999997,0.0399999688,0.0399999798,-9.812810399999982,0.00827603451908859,0.0006417334540016047,-0.0026421987000061716,-0.011953283101324763,0.0015618072000036561
0.3125,0.00029310723250039667,-0.7845676324999991,8.922013000015416e-05,-2.3560655,0.0002834128100005966,1.5711687750000005,0.7859025999999997,0.03999996775,0.03999997875,-9.812652749999982,0.008385192602885186,0.0006559626775016177,-0.002696923800006222,-0.011993555352096329,0.0015942260250036856
0.315,0.00029659651300039985,-0.7845590929999989,9.057617200015539e-05,-2.3560685,0.00028866024800060133,1.5711740700000005,0.7858998399999997,0.0399999667,0.0399999777,-9.812495099999982,0.00849435068668178,0.0006701919010016306,-0.0027516489000062715,-0.012033827602867897,0.001626644850003715
0.3175,0.00030025123800046035,-0.7845504299999989,9.199642700017889e-05,-2.3560714650000003,0.00029415564900069205,1.5711796150000006,0.7858969499999996,0.0399999656,0.03999997665,-9.812357049999989,0.008610454527676135,0.0006907734775038448,-0.0028077860000068106,-0.012073378078643882,0.0016599248300040428
0.32,0.000304236852000464,-0.7845415199999989,9.354510800018029e-05,-2.3560743600000005,0.0003001469760006975,1.5711856600000007,0.7858937999999996,0.0399999644,0.0399999756,-9.81225819999999,0.008740449883058814,0.0007240597600038751,-0.002866747100006864,-0.012111485004429457,0.0016949271200040748
0.3225,0.00030822246600046763,-0.784532609999999,9.509378900018171e-05,-2.356077255,0.00030613830300070294,1.5711917050000006,0.7858906499999997,0.0399999632,0.03999997455,-9.81215934999999,0.008870445238441492,0.0007573460425039054,-0.0029257082000069177,-0.012149591930215031,0.0017299294100041067
0.325,0.00031220808000047127,-0.7845236999999989,9.664247000018311e-05,-2.3560801500000004,0.0003121296300007084,1.5711977500000007,0.7858874999999996,0.039999962,0.0399999735,-9.812060499999989,0.00900044059382417,0.0007906323250039358,-0.0029846693000069716,-0.012187698856000606,0.0017649317000041386
0.3275,0.00031619369400047486,-0.7845147899999989,9.819115100018452e-05,-2.356083045,0.00031812095700071383,1.5712037950000006,0.7858843499999997,0.0399999608,0.039999972450000004,-9.811961649999988,0.00913043594920685,0.0008239186075039661,-0.003043630400007025,-0.01222580578178618,0.0017999339900041705
0.33,0.0003201793080004785,-0.784505879999999,9.973983200018594e-05,-2.3560859400000003,0.0003241122840007193,1.5712098400000007,0.7858811999999996,0.0399999596,0.0399999714,-9.811862799999988,0.009260431304589527,0.0008572048900039964,-0.0031025915000070787,-0.012263912707571756,0.0018349362800042025
0.3325,0.00032416492200048214,-0.784496969999999,0.00010128851300018734,-2.3560888350000004,0.0003301036110007248,1.5712158850000006,0.7858780499999997,0.0399999584,0.039999970350000004,-9.811763949999989,0.009390426659972206,0.0008904911725040267,-0.0031615526000071323,-0.012302019633357331,0.0018699385700042344
0.335,0.0003285061460005508,-0.7844877499999989,0.00010297518800021398,-2.3560917200000002,0.00033662779200082765,1.5712225200000007,0.7858746299999996,0.039999957600000004,0.03999997,-9.81168169999999,0.009513149224236133,0.0009179812100029973,-0.0032234623700077253,-0.012339308578525476,0.0019065899000045676
0.3375,0.0003330251750005549,-0.7844783749999988,0.00010473086000021558,-2.3560946000000005,0.00034341840000083384,1.5712294500000008,0.7858710749999996,0.039999957,0.03999997,-9.811607749999991,0.009632235392942673,0.0009425731250030196,-0.003286846475007783,-0.01237618853338513,0.0019440657500046019
0.34,0.000337544204000559,-0.7844689999999989,0.00010648653200021718,-2.3560974800000003,0.00035020900800084,1.5712363800000009,0.7858675199999996,0.0399999564,0.03999997,-9.81153379999999,0.00975132156164921,0.000967165040003042,-0.0033502305800078404,-0.012413068488244782,0.0019815416000046357
0.3425,0.0003420632330005631,-0.7844596249999988,0.00010824220400021877,-2.35610036,0.0003569996160008462,1.571243310000001,0.7858639649999996,0.0399999558,0.03999997,-9.81145984999999,0.00987040773035575,0.0009917569550030644,-0.003413614685007898,-0.012449948443104436,0.00201901745000467
0.34500000000000003,0.00034658226200056725,-0.7844502499999988,0.00010999787600022037,-2.3561032400000004,0.0003637902240008524,1.5712502400000008,0.7858604099999995,0.0399999552,0.03999997,-9.81138589999999,0.009989493899062288,0.0010163488700030868,-0.003476998790007956,-0.012486828397964089,0.002056493300004704
0.34750000000000003,0.00035110129100057133,-0.7844408749999988,0.00011175354800022197,-2.35610612,0.0003705808320008586,1.5712571700000009,0.7858568549999996,0.0399999546,0.03999997,-9.81131194999999,0.010108580067768826,0.0010409407850031091,-0.003540382895008014,-0.012523708352823742,0.002093969150004738
0.35000000000000003,0.0003556203200006481,-0.7844314999999987,0.00011350922000025177,-2.3561090000000005,0.00037737144000097363,1.571264100000001,0.7858532999999994,0.039999954,0.03999997,-9.81123799999999,0.010227666236477417,0.001065532700003759,-0.00360376700000864,-0.012560588307683215,0.002131445000005121
0.3525,0.00036070995500065263,-0.7844216449999987,0.00011548632500025353,-2.3561113400000004,0.0003850169445009804,1.571271900000001,0.7858493159999994,0.039999953399999996,0.0399999694,-9.811172299999992,0.010362863400968357,0.0010950521450037852,-0.0036716172050087004,-0.012596053397287497,0.0021716595500051567
0.355,0.00036579959000065726,-0.7844117899999987,0.00011746343000025533,-2.3561136800000004,0.0003926624490009874,1.571279700000001,0.7858453319999995,0.039999952799999995,0.0399999688,-9.811106599999992,0.0104980605654593,0.001124571590003812,-0.0037394674100087624,-0.01263151848689178,0.0022118741000051933
0.3575,0.00037088922500066193,-0.7844019349999987,0.00011944053500025712,-2.3561160200000004,0.00040030795350099433,1.571287500000001,0.7858413479999995,0.0399999522,0.0399999682,-9.811040899999991,0.010633257729950243,0.001154091035003839,-0.003807317615008824,-0.012666983576496062,0.00225208865000523
0.36,0.00037597886000066656,-0.7843920799999987,0.00012141764000025892,-2.35611836,0.0004079534580010013,1.571295300000001,0.7858373639999995,0.0399999516,0.0399999676,-9.81097519999999,0.010768454894441186,0.001183610480003866,-0.003875167820008886,-0.012702448666100343,0.0022923032000052666
0.3625,0.0003810684950006712,-0.7843822249999987,0.0001233947450002607,-2.3561207,0.00041559896250100824,1.571303100000001,0.7858333799999995,0.039999951,0.039999967,-9.810909499999992,0.01090365205893213,0.0012131299250038928,-0.0039430180250089476,-0.012737913755704626,0.002332517750005303
0.365,0.0003861581300006758,-0.7843723699999987,0.00012537185000026252,-2.35612304,0.0004232444670010152,1.571310900000001,0.7858293959999995,0.0399999504,0.039999966399999996,-9.810843799999992,0.011038849223423072,0.0012426493700039196,-0.004010868230009009,-0.012773378845308908,0.00237273230000534
0.3675,0.0003914503860007358,-0.7843623149999986,0.0001274275775002858,-2.356125305,0.000431193488501105,1.5713190100000012,0.7858252529999994,0.03999995,0.039999966,-9.810758649999984,0.011179356928934297,0.0012777394600059706,-0.004080194595009335,-0.012807823717598274,0.0024138187150055316
0.37,0.0003971478840006633,-0.7843518599999988,0.00012964055000025762,-2.35612742,0.00043974954400099607,1.571327740000001,0.7858207919999994,0.03999995,0.039999966,-9.810634599999986,0.011330485716479714,0.001323970840005382,-0.004152473280008414,-0.012840228155259032,0.002456648860004986
0.3725,0.00040284538200059076,-0.7843414049999989,0.00013185352250022944,-2.356129535,0.0004483055995008871,1.571336470000001,0.7858163309999995,0.03999995,0.039999966,-9.810510549999988,0.01148161450402513,0.0013702022200047933,-0.004224751965007494,-0.01287263259291979,0.0024994790050044406
0.375,0.00040854288000051817,-0.7843309499999991,0.00013406649500020127,-2.35613165,0.0004568616550007782,1.5713452000000008,0.7858118699999995,0.03999995,0.039999966,-9.81038649999999,0.011632743291570546,0.0014164336000042047,-0.004297030650006573,-0.012905037030580546,0.0025423091500038956
0.3775,0.00041424037800044563,-0.7843204949999992,0.0001362794675001731,-2.356133765,0.00046541771050066924,1.5713539300000008,0.7858074089999996,0.03999995,0.039999966,-9.81026244999999,0.011783872079115961,0.001462664980003616,-0.0043693093350056535,-0.012937441468241304,0.00258513929500335
0.38,0.0004199378760003731,-0.7843100399999994,0.00013849244000014492,-2.35613588,0.00047397376600056033,1.5713626600000006,0.7858029479999997,0.03999995,0.039999966,-9.81013839999999,0.011935000866661378,0.0015088963600030274,-0.004441588020004733,-0.012969845905902062,0.0026279694400028046
0.3825,0.00042563537400030056,-0.7842995849999995,0.00014070541250011675,-2.356137995,0.00048252982150045137,1.5713713900000004,0.7857984869999998,0.03999995,0.039999966,-9.810014349999992,0.012086129654206794,0.001555127740002439,-0.004513866705003812,-0.01300225034356282,0.0026707995850022595
0.385,0.0004317629310004269,-0.7842887099999993,0.0001430852670001658,-2.35613993,0.000491729926000641,1.5713807700000006,0.7857936799999996,0.0399999497,0.039999966,-9.809917699999994,0.012229185830811017,0.0015957028600025406,-0.004589096700005162,-0.013033601827921496,0.00271528722000305
0.3875,0.00043810551750060573,-0.784277624999999,0.00014554856250023526,-2.356141775,0.0005012520550009094,1.571390475000001,0.7857886999999995,0.03999994925,0.039999966,-9.809834749999991,0.012368205701945526,0.001633449850003605,-0.004665802350007325,-0.013064426835629245,0.002760603600004328
0.39,0.00044444810400078456,-0.7842665399999986,0.0001480118580003047,-2.35614362,0.0005107741840011779,1.5714001800000013,0.7857837199999994,0.0399999488,0.039999966,-9.809751799999988,0.012507225573080037,0.0016711968400046691,-0.0047425080000094875,-0.013095251843336993,0.0028059199800056053
0.3925,0.0004507906905009634,-0.7842554549999984,0.00015047515350037415,-2.3561454650000004,0.0005202963130014463,1.5714098850000016,0.7857787399999993,0.03999994835,0.039999966,-9.809668849999987,0.012646245444214546,0.0017089438300057335,-0.0048192136500116506,-0.013126076851044742,0.0028512363600068833
0.395,0.0004571332770011422,-0.784244369999998,0.00015293844900044363,-2.3561473100000003,0.0005298184420017148,1.5714195900000019,0.7857737599999991,0.0399999479,0.039999966,-9.809585899999984,0.012785265315349056,0.0017466908200067977,-0.004895919300013814,-0.013156901858752491,0.002896552740008161
0.3975,0.00046347586350132104,-0.7842332849999977,0.00015540174450051308,-2.3561491550000007,0.0005393405710019833,1.571429295000002,0.785768779999999,0.039999947450000004,0.039999966,-9.809502949999983,0.012924285186483565,0.001784437810007862,-0.004972624950015976,-0.01318772686646024,0.0029418691200094388
0.4,0.0004698184500016612,-0.7842221999999972,0.00015786504000064514,-2.3561510000000006,0.0005488627000024935,1.5714390000000027,0.7857637999999987,0.039999947,0.039999966,-9.80941999999998,0.013063305057624815,0.0018221848000130859,-0.005049330600019164,-0.013218551874167614,0.002987185500011364
0.4025,0.00047684331750157176,-0.7842104054999973,0.0001605930705006104,-2.3561528000000007,0.0005594066200023592,1.5714498000000026,0.7857582739999988,0.039999947,0.039999966,-9.80933629999998,0.013230829546265492,0.0018775212850123814,-0.005130371310018133,-0.013247784459969922,0.0030352420650107525
0.405,0.0004838681850014823,-0.7841986109999975,0.00016332110100057565,-2.3561546000000004,0.000569950540002225,1.5714606000000024,0.7857527479999988,0.039999947,0.039999966,-9.809252599999981,0.01339835403490617,0.0019328577700116767,-0.0052114120200171,-0.013277017045772228,0.003083298630010141
0.40750000000000003,0.0004908930525013928,-0.7841868164999977,0.00016604913150054093,-2.3561564000000006,0.0005804944600020906,1.5714714000000023,0.7857472219999989,0.039999947,0.039999966,-9.809168899999984,0.013565878523546846,0.001988194255010972,-0.005292452730016069,-0.013306249631574537,0.0031313551950095287
0.41000000000000003,0.0004979179200013035,-0.7841750219999978,0.0001687771620005062,-2.3561582000000003,0.0005910383800019564,1.5714822000000022,0.785741695999999,0.039999947,0.039999966,-9.809085199999984,0.013733403012187523,0.0020435307400102675,-0.005373493440015037,-0.013335482217376845,0.003179411760008917
0.41250000000000003,0.000504942787501214,-0.784163227499998,0.00017150519250047147,-2.3561600000000005,0.0006015823000018221,1.571493000000002,0.7857361699999991,0.039999947,0.039999966,-9.809001499999985,0.0139009275008282,0.002098867225009563,-0.005454534150014005,-0.013364714803179153,0.0032274683250083053
0.41500000000000004,0.0005119676550011245,-0.7841514329999981,0.00017423322300043673,-2.3561618,0.0006121262200016879,1.571503800000002,0.7857306439999991,0.039999947,0.039999966,-9.808917799999985,0.014068451989468878,0.0021542037100088585,-0.005535574860012974,-0.01339394738898146,0.0032755248900076936
0.4175,0.0005192322950011762,-0.7841393734999981,0.00017705429550045673,-2.356163575,0.0006230291400017649,1.571514970000002,0.7857249394999991,0.03999994715,0.03999996635,-9.80884059999999,0.014231112878792812,0.0022061499000068595,-0.005618057300012965,-0.013422792823989454,0.0033244052050076744
0.42,0.0005269764800011832,-0.784126783999998,0.00018006145200045946,-2.3561653000000002,0.0006346500600017755,1.571526880000002,0.7857188779999991,0.0399999476,0.039999967399999996,-9.80877639999999,0.014384046569489906,0.0022513155000069007,-0.005703423200013043,-0.01345086395740935,0.0033749330200077204
0.4225,0.0005347206650011903,-0.7841141944999981,0.0001830686085004622,-2.3561670250000004,0.0006462709800017861,1.571538790000002,0.785712816499999,0.03999994805,0.03999996845,-9.80871219999999,0.014536980260187,0.002296481100006942,-0.005788789100013121,-0.013478935090829244,0.0034254608350077665
0.425,0.0005424648500011973,-0.784101604999998,0.00018607576500046495,-2.35616875,0.0006578919000017967,1.571550700000002,0.7857067549999991,0.0399999485,0.0399999695,-9.80864799999999,0.014689913950884094,0.002341646700006983,-0.0058741550000131985,-0.01350700622424914,0.003475988650007812
0.4275,0.0005502090350012044,-0.784089015499998,0.00018908292150046768,-2.3561704750000003,0.0006695128200018073,1.571562610000002,0.785700693499999,0.03999994895,0.03999997055,-9.80858379999999,0.01484284764158119,0.0023868123000070243,-0.005959520900013276,-0.013535077357669036,0.003526516465007858
0.43,0.0005579532200012114,-0.7840764259999979,0.0001920900780004704,-2.3561722,0.0006811337400018179,1.571574520000002,0.785694631999999,0.0399999494,0.0399999716,-9.80851959999999,0.014995781332278284,0.002431977900007065,-0.0060448868000133535,-0.01356314849108893,0.003577044280007904
0.4325,0.0005656974050012185,-0.784063836499998,0.00019509723450047314,-2.3561739250000002,0.0006927546600018284,1.571586430000002,0.7856885704999991,0.03999994985,0.03999997265,-9.80845539999999,0.015148715022975379,0.0024771435000071063,-0.006130252700013431,-0.013591219624508826,0.00362757209500795
0.435,0.0005739457000013452,-0.7840506859999978,0.00019829998400052232,-2.35617565,0.0007051303700020182,1.571599130000002,0.785682114999999,0.03999995,0.039999973,-9.80839349999999,0.015323282778292377,0.0025332158300097364,-0.00621857096001421,-0.013618854712699179,0.0036799123300084264
0.4375,0.0005824460500013529,-0.7840372549999978,0.00020160053000052531,-2.356177375,0.0007178834750020298,1.5716122250000022,0.7856754624999989,0.03999995,0.039999973,-9.808332749999991,0.015508667565911656,0.0025947415250097924,-0.0063083654000142915,-0.013646271778274913,0.003733158775008475
0.44,0.0005909464000013607,-0.7840238239999978,0.00020490107600052834,-2.3561791000000003,0.0007306365800020414,1.571625320000002,0.7856688099999989,0.03999995,0.039999973,-9.80827199999999,0.015694052353530934,0.0026562672200098484,-0.006398159840014374,-0.013673688843850649,0.003786405220008523
0.4425,0.0005994467500013684,-0.7840103929999979,0.00020820162200053133,-2.3561808250000005,0.000743389685002053,1.571638415000002,0.7856621574999989,0.03999995,0.039999973,-9.80821124999999,0.015879437141150213,0.0027177929150099048,-0.006487954280014455,-0.013701105909426383,0.0038396516650085716
0.445,0.0006079471000013762,-0.7839969619999978,0.00021150216800053432,-2.35618255,0.0007561427900020646,1.5716515100000021,0.7856555049999989,0.03999995,0.039999973,-9.80815049999999,0.016064821928769492,0.0027793186100099608,-0.006577748720014537,-0.013728522975002117,0.00389289811000862
0.4475,0.0006164474500013839,-0.7839835309999978,0.00021480271400053734,-2.3561842750000004,0.0007688958950020763,1.571664605000002,0.7856488524999988,0.03999995,0.039999973,-9.80808974999999,0.01625020671638877,0.0028408443050100167,-0.0066675431600146185,-0.013755940040577853,0.003946144555008669
0.45,0.0006249478000015215,-0.7839700999999977,0.0002181032600005907,-2.3561860000000006,0.0007816490000022822,1.5716777000000024,0.7856421999999987,0.03999995,0.039999973,-9.808028999999992,0.01643559150400531,0.002902370000007841,-0.006757337600015415,-0.01378335710615354,0.003999391000009117
0.4525,0.0006342409450015298,-0.7839557749999977,0.000221711418500594,-2.3561874100000004,0.0007955888690022949,1.5716919950000023,0.7856349399999988,0.03999995,0.0399999736,-9.807984824999993,0.01660424601289419,0.0029502654500078848,-0.006851499905015501,-0.013810484437276335,0.0040550816500091675
0.455,0.0006435340900015383,-0.7839414499999976,0.0002253195770005973,-2.3561888200000003,0.0008095287380023076,1.5717062900000023,0.7856276799999987,0.03999995,0.0399999742,-9.807940649999992,0.01677290052178307,0.002998160900007928,-0.0069456622100155865,-0.01383761176839913,0.004110772300009218
0.4575,0.0006528272350015468,-0.7839271249999976,0.00022892773550060055,-2.35619023,0.0008234686070023202,1.5717205850000024,0.7856204199999988,0.03999995,0.0399999748,-9.807896474999993,0.016941555030671945,0.003046056350007972,-0.0070398245150156726,-0.013864739099521925,0.004166462950009269
0.46,0.0006621203800015553,-0.7839127999999976,0.00023253589400060385,-2.35619164,0.0008374084760023329,1.5717348800000024,0.7856131599999988,0.03999995,0.0399999754,-9.807852299999993,0.017110209539560824,0.0030939518000080157,-0.007133986820015759,-0.013891866430644719,0.00422215360000932
0.4625,0.0006714135250015638,-0.7838984749999975,0.00023614405250060714,-2.3561930500000003,0.0008513483450023456,1.5717491750000026,0.7856058999999987,0.03999995,0.039999976,-9.807808124999992,0.017278864048449704,0.003141847250008059,-0.007228149125015844,-0.013918993761767515,0.004277844250009371
0.465,0.0006807066700015722,-0.7838841499999976,0.00023975221100061043,-2.35619446,0.0008652882140023583,1.5717634700000025,0.7855986399999988,0.03999995,0.0399999766,-9.807763949999993,0.017447518557338584,0.003189742700008103,-0.00732231143001593,-0.013946121092890309,0.004333534900009421
0.4675,0.0006902761965017217,-0.7838694849999973,0.00024346760750066843,-2.35619582,0.0008796418070025821,1.5717782000000027,0.7855911599999986,0.0399999504,0.03999997735,-9.807704274999985,0.017627746332471342,0.0032450498250119284,-0.0074179071350167465,-0.013972666254271406,0.004390119700009928
0.47000000000000003,0.0007003984860017309,-0.7838541399999973,0.000247397480000672,-2.35619708,0.000894822848002596,1.5717938000000027,0.7855832399999987,0.0399999516,0.0399999784,-9.807613599999986,0.017831120640074177,0.003315180300011992,-0.007516369640016837,-0.01399804707617,0.004448492800009982
0.47250000000000003,0.00071052077550174,-0.7838387949999973,0.0002513273525006756,-2.35619834,0.0009100038890026097,1.5718094000000027,0.7855753199999986,0.0399999528,0.03999997945,-9.807522924999985,0.01803449494767701,0.0033853107750120557,-0.007614832145016926,-0.014023427898068593,0.004506865900010035
0.47500000000000003,0.0007206430650017493,-0.7838234499999973,0.00025525722500067917,-2.3561996,0.0009251849300026235,1.5718250000000027,0.7855673999999987,0.039999954000000004,0.039999980500000004,-9.807432249999986,0.018237869255279846,0.0034554412500121196,-0.007713294650017016,-0.014048808719967186,0.004565239000010088
0.47750000000000004,0.0007307653545017585,-0.7838081049999973,0.00025918709750068274,-2.35620086,0.0009403659710026374,1.5718406000000027,0.7855594799999986,0.0399999552,0.03999998155,-9.807341574999985,0.01844124356288268,0.0035255717250121834,-0.007811757155017106,-0.014074189541865779,0.004623612100010141
0.48,0.0007408876440017675,-0.7837927599999973,0.0002631169700006862,-2.35620212,0.0009555470120026509,1.5718562000000027,0.7855515599999987,0.0399999564,0.039999982600000004,-9.807250899999985,0.018644617870485512,0.0035957022000122456,-0.007910219660017193,-0.014099570363764372,0.004681985200010193
0.4825,0.0007510099335017767,-0.7837774149999973,0.00026704684250068977,-2.35620338,0.0009707280530026647,1.5718718000000027,0.7855436399999987,0.039999957600000004,0.03999998365,-9.807160224999985,0.01884799217808835,0.00366583267501231,-0.008008682165017282,-0.014124951185662964,0.004740358300010246
0.485,0.0007617089410019385,-0.783761419999997,0.0002712004960007526,-2.35620452,0.0009867722700029069,1.571888300000003,0.7855352799999985,0.0399999588,0.0399999851,-9.80708744999999,0.01903915107253477,0.003722585210008833,-0.008109910500018105,-0.014149746857587783,0.004800333700010723
0.4875,0.0007726963075019485,-0.7837450999999971,0.0002754660400007565,-2.3562056,0.001003248075002922,1.571905250000003,0.7855266999999985,0.03999996,0.03999998675,-9.807023624999989,0.01922420226040782,0.0037726487750088787,-0.008212521750018197,-0.014174249954525946,0.004861110250010779
0.49,0.0007836836740019586,-0.783728779999997,0.00027973158400076037,-2.35620668,0.001019723880002937,1.571922200000003,0.7855181199999984,0.0399999612,0.039999988400000006,-9.806959799999989,0.01940925344828087,0.0038227123400089245,-0.008315133000018292,-0.014198753051464107,0.004921886800010834
0.4925,0.0007946710405019686,-0.7837124599999971,0.00028399712800076426,-2.35620776,0.001036199685002952,1.571939150000003,0.7855095399999985,0.0399999624,0.03999999005,-9.806895974999989,0.019594304636153918,0.00387277590500897,-0.008417744250018384,-0.01422325614840227,0.004982663350010889
0.495,0.0008056584070019786,-0.783696139999997,0.00028826267200076814,-2.3562088400000003,0.001052675490002967,1.571956100000003,0.7855009599999985,0.0399999636,0.0399999917,-9.80683214999999,0.019779355824026963,0.003922839470009015,-0.008520355500018478,-0.014247759245340432,0.0050434399000109445
0.4975,0.0008166457735019885,-0.783679819999997,0.000292528216000772,-2.3562099200000004,0.001069151295002982,1.571973050000003,0.7854923799999984,0.039999964799999996,0.039999993350000006,-9.80676832499999,0.019964407011900012,0.0039729030350090615,-0.00862296675001857,-0.014272262342278595,0.005104216450011
0.5,0.0008276331400021625,-0.7836634999999967,0.00029679376000083945,-2.356211,0.0010856271000032427,1.5719900000000033,0.7854837999999983,0.039999966,0.039999995,-9.806704499999988,0.02014945819978026,0.004022966600014947,-0.008725578000019444,-0.014296765439216558,0.005164993000011557
0.5025000000000001,0.0008395212535021735,-0.7836460699999968,0.00030140878600084375,-2.35621196,0.0011034532650032593,1.5720083150000033,0.7854745149999983,0.0399999666,0.039999995,-9.806635274999987,0.020374086778651965,0.004105135310015023,-0.008832471300019544,-0.01432017972693273,0.005228529295011616
0.505,0.0008514093670021841,-0.7836286399999968,0.00030602381200084785,-2.35621292,0.0011212794300032752,1.5720266300000034,0.7854652299999982,0.0399999672,0.039999995,-9.806566049999988,0.02059871535752366,0.0041873040200150966,-0.008939364600019638,-0.014343594014648901,0.005292065590011673
0.5075000000000001,0.0008632974805021952,-0.7836112099999968,0.00031063883800085216,-2.3562138800000003,0.0011391055950032917,1.5720449450000034,0.7854559449999983,0.0399999678,0.039999995,-9.806496824999988,0.020823343936395365,0.004269472730015173,-0.009046257900019738,-0.014367008302365073,0.005355601885011732
0.51,0.0008751855940022057,-0.7835937799999967,0.00031525386400085625,-2.3562148400000003,0.0011569317600033076,1.5720632600000035,0.7854466599999983,0.0399999684,0.039999995,-9.806427599999987,0.021047972515267056,0.004351641440015246,-0.009153151200019834,-0.014390422590081244,0.005419138180011788
0.5125,0.0008870737075022164,-0.7835763499999967,0.0003198688900008604,-2.3562158,0.0011747579250033233,1.5720815750000035,0.7854373749999982,0.039999969,0.039999995,-9.806358374999988,0.02127260109413875,0.004433810150015319,-0.009260044500019929,-0.014413836877797416,0.005482674475011845
0.515,0.0008989618210022275,-0.7835589199999967,0.00032448391600086465,-2.35621676,0.00119258409000334,1.5720998900000034,0.7854280899999982,0.039999969600000004,0.039999995,-9.806289149999987,0.021497229673010456,0.004515978860015396,-0.009366937800020028,-0.014437251165513587,0.005546210770011904
0.5175,0.0009111619135024725,-0.7835410999999963,0.0003292199950009598,-2.356217675,0.001210877385003707,1.572118695000004,0.7854185599999981,0.03999997,0.039999995,-9.80622384999999,0.02171505037699105,0.004589891600011067,-0.009475219550021412,-0.014460458885882694,0.0056105266950127
0.52,0.0009239859640026594,-0.7835224999999961,0.0003341981800010323,-2.3562185,0.0012301049400039873,1.572138480000004,0.7854085399999979,0.03999997,0.039999995,-9.806166399999988,0.021919255331200965,0.004647292400011904,-0.009586278200023031,-0.014483253471558027,0.00567640188001366
0.5225,0.0009368100145028457,-0.7835038999999958,0.00033917636500110465,-2.356219325,0.0012493324950042667,1.5721582650000043,0.7853985199999978,0.03999997,0.039999995,-9.806108949999986,0.022123460285410873,0.0047046932000127375,-0.009697336850024645,-0.014506048057233357,0.0057422770650146174
0.525,0.0009496340650030327,-0.7834852999999956,0.00034415455000117725,-2.35622015,0.001268560050004547,1.5721780500000047,0.7853884999999976,0.03999997,0.039999995,-9.806051499999986,0.02232766523962079,0.004762094000013574,-0.009808395500026264,-0.01452884264290869,0.005808152250015578
0.5275,0.000962458115503219,-0.7834666999999953,0.0003491327350012496,-2.3562209750000003,0.0012877876050048263,1.572197835000005,0.7853784799999974,0.03999997,0.039999995,-9.805994049999985,0.022531870193830697,0.004819494800014409,-0.009919454150027877,-0.014551637228584022,0.005874027435016535
0.53,0.000975282166003406,-0.7834480999999951,0.0003541109200013221,-2.3562218,0.0013070151600051065,1.5722176200000053,0.7853684599999973,0.03999997,0.039999995,-9.805936599999985,0.022736075148040612,0.004876895600015245,-0.010030512800029496,-0.014574431814259355,0.005939902620017495
0.5325,0.0009881062165035923,-0.7834294999999948,0.00035908910500139445,-2.3562226250000005,0.001326242715005386,1.5722374050000054,0.7853584399999972,0.03999997,0.039999995,-9.805879149999983,0.02294028010225052,0.004934296400016079,-0.01014157145003111,-0.014597226399934686,0.006005777805018452
0.535,0.0010015774500038144,-0.7834101159999945,0.0003643184020014806,-2.3562233700000004,0.001346438390005718,1.5722582000000058,0.785347919999997,0.039999969600000004,0.039999995,-9.805818599999983,0.02317064143724016,0.0050068531300221574,-0.010255299100031815,-0.014619488827890242,0.0060732070800188585
0.5375,0.0010153722750036384,-0.7833903399999949,0.0003696732550014123,-2.356224075,0.0013671181250054542,1.5722795000000056,0.7853371499999972,0.039999969,0.039999995,-9.805756499999983,0.02341408096260288,0.005086987825021135,-0.010370361250030347,-0.014641485176986251,0.006141413400017988
0.54,0.001029167100003463,-0.783370563999995,0.00037502810800134427,-2.3562247800000002,0.0013877978600051913,1.5723008000000054,0.7853263799999973,0.0399999684,0.039999995,-9.805694399999984,0.02365752048796561,0.005167122520020117,-0.010485423400028886,-0.014663481526082262,0.006209619720017122
0.5425,0.001042961925003287,-0.7833507879999954,0.00038038296100127597,-2.3562254850000004,0.0014084775950049275,1.5723221000000052,0.7853156099999974,0.0399999678,0.039999995,-9.805632299999985,0.02390096001332833,0.0052472572150190945,-0.010600485550027417,-0.01468547787517827,0.006277826040016252
0.545,0.0010567567500031118,-0.7833310119999956,0.0003857378140012079,-2.35622619,0.0014291573300046648,1.572343400000005,0.7853048399999976,0.0399999672,0.039999995,-9.805570199999986,0.02414439953869106,0.005327391910018076,-0.010715547700025954,-0.014707474224274281,0.006346032360015385
0.5475,0.0010705515750029358,-0.7833112359999959,0.0003910926670011396,-2.3562268950000003,0.001449837065004401,1.5723647000000045,0.7852940699999977,0.0399999666,0.039999995,-9.805508099999987,0.024387839064053785,0.005407526605017054,-0.010830609850024488,-0.014729470573370292,0.006414238680014515
0.55,0.0010843464000029617,-0.7832914599999958,0.0003964475200011496,-2.3562276,0.0014705168000044388,1.5723860000000047,0.7852832999999977,0.039999966,0.039999995,-9.80544599999999,0.02463127858941261,0.0054876613000133054,-0.010945672000023842,-0.014751466922466198,0.0064824450000141335
0.5525,0.0010991463150029747,-0.7832704359999958,0.0004021923850011547,-2.35622826,0.0014927001350044586,1.5724088000000047,0.7852717499999977,0.039999966,0.03999999575,-9.80539619999999,0.024855194706514712,0.005554150405013364,-0.011064822175023949,-0.014772947505120697,0.006553077000014196
0.555,0.0011139462300029884,-0.7832494119999958,0.00040793725000116005,-2.35622892,0.0015148834700044794,1.5724316000000047,0.7852601999999976,0.039999966,0.0399999965,-9.80534639999999,0.025079110823616826,0.005620639510013426,-0.01118397235002406,-0.014794428087775197,0.006623709000014262
0.5575,0.0011287461450030017,-0.7832283879999957,0.0004136821150011651,-2.35622958,0.0015370668050044992,1.5724544000000047,0.7852486499999977,0.039999966,0.03999999725,-9.80529659999999,0.02530302694071893,0.005687128615013485,-0.011303122525024165,-0.014815908670429697,0.006694341000014325
0.56,0.0011435460600030154,-0.7832073639999957,0.00041942698000117047,-2.35623024,0.0015592501400045198,1.5724772000000047,0.7852370999999977,0.039999966,0.039999998,-9.80524679999999,0.025526943057821043,0.005753617720013547,-0.011422272700024277,-0.014837389253084197,0.006764973000014391
0.5625,0.0011583459750030287,-0.7831863399999957,0.0004251718450011756,-2.3562309,0.0015814334750045395,1.5725000000000047,0.7852255499999976,0.039999966,0.03999999875,-9.805196999999989,0.025750859174923146,0.005820106825013606,-0.011541422875024384,-0.014858869835738696,0.0068356050000144535
0.5650000000000001,0.0011731458900030424,-0.7831653159999957,0.00043091671000118094,-2.35623156,0.0016036168100045604,1.5725228000000047,0.7852139999999976,0.039999966,0.0399999995,-9.80514719999999,0.02597477529202526,0.005886595930013668,-0.011660573050024494,-0.014880350418393196,0.00690623700001452
0.5675,0.00118829214000327,-0.7831438419999954,0.00043679595600126927,-2.3562322,0.0016263181850049008,1.572546135000005,0.7852021799999974,0.0399999657,0.04,-9.805095099999988,0.026213240064735736,0.00596164752001903,-0.011781044225025418,-0.0149017576593949,0.006977665600015076
0.5700000000000001,0.0012041310600032849,-0.7831214679999954,0.000442943964001275,-2.3562328,0.0016500556400049229,1.572570540000005,0.7851898199999975,0.039999964799999996,0.04,-9.805038399999988,0.02648080214863597,0.0060538240800191165,-0.011904157400025532,-0.01492301821709115,0.007050687400015144
0.5725,0.0012199699800032988,-0.7830990939999953,0.00044909197200128045,-2.3562334000000003,0.001673793095004944,1.572594945000005,0.7851774599999974,0.0399999639,0.04,-9.804981699999988,0.026748364232536192,0.006146000640019198,-0.012027270575025641,-0.0149442787747874,0.007123709200015209
0.5750000000000001,0.0012358089000033138,-0.7830767199999953,0.0004552399800012862,-2.356234,0.001697530550004966,1.572619350000005,0.7851650999999974,0.039999963,0.04,-9.804924999999988,0.02701592631643643,0.006238177200019284,-0.012150383750025757,-0.014965539332483648,0.007196731000015277
0.5775,0.0012516478200033277,-0.7830543459999953,0.0004613879880012917,-2.3562346,0.0017212680050049873,1.5726437550000052,0.7851527399999974,0.0399999621,0.04,-9.804868299999988,0.02728348840033665,0.0063303537600193655,-0.012273496925025867,-0.014986799890179897,0.007269752800015342
0.58,0.0012674867400033418,-0.7830319719999953,0.00046753599600129716,-2.3562352,0.0017450054600050083,1.5726681600000052,0.7851403799999974,0.0399999612,0.04,-9.804811599999988,0.027551050484236873,0.006422530320019448,-0.012396610100025976,-0.015008060447876146,0.007342774600015407
0.5825,0.0012833256600033565,-0.7830095979999953,0.00047368400400130286,-2.3562358000000003,0.0017687429150050303,1.5726925650000052,0.7851280199999974,0.0399999603,0.04,-9.804754899999988,0.027818612568137106,0.006514706880019533,-0.01251972327502609,-0.015029321005572397,0.007415796400015475
0.585,0.001299879450003599,-0.782986325999995,0.00048010942600139686,-2.3562364000000002,0.0017935490200053925,1.5727181000000054,0.7851150949999972,0.0399999594,0.04,-9.804714799999994,0.028070336580328353,0.0065870731300132915,-0.012645422900027025,-0.015050609689210404,0.007490294200016011
0.5875,0.0013167906750036146,-0.7829626049999949,0.000486673555001403,-2.356237,0.0018188894500054161,1.5727442000000056,0.7851018874999972,0.0399999585,0.04,-9.804682999999994,0.028314141556672685,0.00664953422501335,-0.012772415750027143,-0.015071912435819278,0.007565530000016081
0.59,0.0013337019000036296,-0.7829388839999949,0.0004932376840014088,-2.3562376,0.0018442298800054387,1.5727703000000055,0.7850886799999971,0.0399999576,0.04,-9.804651199999993,0.028557946533017006,0.006711995320013406,-0.012899408600027256,-0.015093215182428153,0.007640765800016148
0.5925,0.0013506131250036455,-0.7829151629999949,0.0004998018130014149,-2.3562382000000004,0.0018695703100054624,1.5727964000000056,0.7850754724999971,0.0399999567,0.04,-9.804619399999993,0.02880175150936134,0.006774456415013464,-0.013026401450027375,-0.015114517929037027,0.007716001600016218
0.595,0.0013675243500036603,-0.7828914419999948,0.0005063659420014208,-2.3562388000000003,0.001894910740005485,1.5728225000000058,0.7850622649999971,0.0399999558,0.04,-9.804587599999994,0.02904555648570566,0.00683691751001352,-0.013153394300027488,-0.015135820675645902,0.007791237400016285
0.5975,0.0013844355750036762,-0.7828677209999948,0.0005129300710014269,-2.3562394,0.0019202511700055086,1.5728486000000057,0.7850490574999971,0.039999954899999995,0.04,-9.804555799999994,0.029289361462049992,0.006899378605013578,-0.013280387150027606,-0.015157123422254776,0.007866473200016355
0.6,0.0014013468000039324,-0.7828439999999945,0.0005194942000015263,-2.35624,0.0019455916000058917,1.572874700000006,0.7850358499999969,0.039999954,0.04,-9.804523999999992,0.02953316643840136,0.006961839700018025,-0.013407380000028545,-0.015178426168863618,0.007941709000016988
0.6025,0.0014193630900039493,-0.7828188689999945,0.0005264871400015328,-2.35624057,0.001972584955005917,1.572902465000006,0.7850217949999969,0.039999953399999996,0.03999999925,-9.804481699999991,0.029809250682652874,0.007044421945018102,-0.013538160200028668,-0.015199586562816954,0.00801953800001706
0.605,0.0014373793800039653,-0.7827937379999944,0.000533480080001539,-2.3562411400000003,0.0019995783100059407,1.572930230000006,0.7850077399999968,0.039999952799999995,0.0399999985,-9.80443939999999,0.030085334926904374,0.007127004190018176,-0.013668940400028784,-0.015220746956770287,0.00809736700001713
0.6075,0.001455395670003982,-0.7827686069999944,0.0005404730200015455,-2.3562417100000004,0.002026571665005966,1.572957995000006,0.7849936849999969,0.0399999522,0.03999999775,-9.80439709999999,0.030361419171155885,0.007209586435018253,-0.013799720600028905,-0.015241907350723621,0.008175196000017202
0.61,0.001473411960003998,-0.7827434759999944,0.0005474659600015518,-2.35624228,0.00205356502000599,1.5729857600000061,0.7849796299999969,0.0399999516,0.039999997,-9.804354799999992,0.030637503415407386,0.007292168680018326,-0.01393050080002902,-0.015263067744676955,0.008253025000017272
0.6125,0.0014914282500040148,-0.7827183449999944,0.0005544589000015583,-2.35624285,0.002080558375006015,1.5730135250000061,0.7849655749999969,0.039999951,0.03999999625,-9.804312499999991,0.0309135876596589,0.007374750925018403,-0.014061281000029143,-0.01528422813863029,0.008330854000017342
0.615,0.0015094445400040308,-0.7826932139999944,0.0005614518400015645,-2.35624342,0.002107551730006039,1.5730412900000061,0.7849515199999969,0.0399999504,0.0399999955,-9.80427019999999,0.0311896719039104,0.007457333170018477,-0.01419206120002926,-0.015305388532583624,0.008408683000017412
0.6175,0.0015278399800043032,-0.782667591999994,0.0005685919050016702,-2.3562439800000003,0.0021351123750064467,1.5730696600000067,0.7849371699999966,0.03999995,0.03999999525,-9.80422664999999,0.031474378518828026,0.007544675600021761,-0.014324104750030233,-0.015326554095377252,0.00848718532501794
0.62,0.0015469937200043202,-0.782640987999994,0.0005760262200016768,-2.35624452,0.0021638076000064723,1.5730992400000066,0.7849222299999966,0.03999995,0.039999996,-9.80418059999999,0.03177632987506045,0.007641538400021848,-0.014458675000030353,-0.015347729995851456,0.00856703430001801
0.6225,0.001566147460004338,-0.782614383999994,0.0005834605350016837,-2.35624506,0.002192502825006499,1.5731288200000066,0.7849072899999966,0.03999995,0.03999999675,-9.80413454999999,0.03207828123129288,0.007738401200021938,-0.014593245250030478,-0.015368905896325662,0.008646883275018084
0.625,0.001585301200004355,-0.782587779999994,0.0005908948500016904,-2.3562456000000003,0.0022211980500065247,1.5731584000000067,0.7848923499999966,0.03999995,0.0399999975,-9.80408849999999,0.03238023258752531,0.007835264000022024,-0.014727815500030597,-0.015390081796799866,0.008726732250018155
0.6275000000000001,0.001604454940004373,-0.782561175999994,0.0005983291650016973,-2.35624614,0.002249893275006551,1.5731879800000066,0.7848774099999966,0.03999995,0.03999999825,-9.804042449999988,0.03268218394375774,0.007932126800022114,-0.014862385750030724,-0.01541125769727407,0.00880658122501823
0.63,0.00162360868000439,-0.7825345719999939,0.0006057634800017039,-2.35624668,0.0022785885000065767,1.5732175600000067,0.7848624699999966,0.03999995,0.039999999,-9.803996399999988,0.03298413529999017,0.0080289896000222,-0.014996956000030842,-0.015432433597748273,0.008886430200018301
0.6325000000000001,0.0016427624200044076,-0.7825079679999939,0.0006131977950017108,-2.35624722,0.0023072837250066036,1.5732471400000068,0.7848475299999966,0.03999995,0.03999999975,-9.803950349999988,0.033286086656222603,0.00812585240002229,-0.015131526250030967,-0.015453609498222477,0.008966279175018375
0.635,0.0016626955200046947,-0.7824803599999935,0.0006209345000018222,-2.35624774,0.002337146750007034,1.5732779300000073,0.7848319879999963,0.0399999497,0.0399999995,-9.803910899999991,0.03357505425817331,0.008203310200015652,-0.01526855700003194,-0.015474590286617244,0.009047886550019056
0.6375000000000001,0.0016830183000047137,-0.7824522499999935,0.0006288224000018295,-2.35624825,0.0023675936750070623,1.5733093250000072,0.7848161449999963,0.03999994925,0.03999999875,-9.803874749999991,0.033857529982989895,0.008271065500015716,-0.015406818000032069,-0.015495473518972394,0.009130373125019133
0.64,0.0017033410800047317,-0.7824241399999935,0.0006367103000018366,-2.35624876,0.0023980406000070893,1.5733407200000074,0.7848003019999963,0.0399999488,0.039999998,-9.803838599999992,0.03414000570780647,0.008338820800015776,-0.015545079000032191,-0.015516356751327542,0.009212859700019206
0.6425,0.00172366386000475,-0.7823960299999935,0.0006445982000018436,-2.35624927,0.0024284875250071163,1.5733721150000073,0.7847844589999963,0.03999994835,0.03999999725,-9.803802449999992,0.034422481432623046,0.008406576100015835,-0.015683340000032315,-0.01553723998368269,0.00929534627501928
0.645,0.001743986640004769,-0.7823679199999934,0.000652486100001851,-2.35624978,0.0024589344500071447,1.5734035100000072,0.7847686159999963,0.0399999479,0.0399999965,-9.80376629999999,0.03470495715743963,0.008474331400015899,-0.015821601000032444,-0.01555812321603784,0.009377832850019356
0.6475,0.001764309420004787,-0.7823398099999934,0.000660374000001858,-2.35625029,0.0024893813750071717,1.5734349050000074,0.7847527729999962,0.039999947450000004,0.03999999575,-9.803730149999991,0.03498743288225621,0.00854208670001596,-0.015959862000032566,-0.015579006448392989,0.00946031942501943
0.65,0.0017846322000050897,-0.7823116999999931,0.0006682619000019755,-2.3562508,0.002519828300007625,1.5734663000000078,0.784736929999996,0.039999947,0.039999995,-9.80369399999999,0.035269908607083754,0.008609842000024133,-0.016098123000033555,-0.015599889680748118,0.00954280600001999
0.6525,0.0018061551600051088,-0.782282022499993,0.000676615550001983,-2.3562511450000003,0.0025520715500076535,1.5734995400000078,0.784720129999996,0.039999947,0.039999995,-9.80364794999999,0.03559873569764544,0.008711899150024224,-0.016240025550033683,-0.015620686300103806,0.009627341050020066
0.655,0.0018276781200051288,-0.782252344999993,0.0006849692000019907,-2.35625149,0.0025843148000076837,1.5735327800000078,0.784703329999996,0.039999947,0.039999995,-9.80360189999999,0.035927562788207135,0.00881395630002432,-0.016381928100033815,-0.015641482919459496,0.009711876100020144
0.6575,0.0018492010800051479,-0.7822226674999929,0.0006933228500019982,-2.356251835,0.002616558050007712,1.573566020000008,0.784686529999996,0.039999947,0.039999995,-9.80355584999999,0.03625638987876882,0.00891601345002441,-0.01652383065003394,-0.015662279538815185,0.00979641115002022
0.66,0.001870724040005168,-0.7821929899999929,0.0007016765000020059,-2.3562521800000003,0.0026488013000077423,1.573599260000008,0.784669729999996,0.039999947,0.039999995,-9.80350979999999,0.036585216969330515,0.009018070600024505,-0.01666573320003407,-0.015683076158170876,0.009880946200020299
0.6625,0.0018922470000051872,-0.7821633124999928,0.0007100301500020134,-2.356252525,0.0026810445500077707,1.573632500000008,0.7846529299999959,0.039999947,0.039999995,-9.80346374999999,0.0369140440598922,0.009120127750024597,-0.0168076357500342,-0.015703872777526565,0.009965481250020374
0.665,0.0019137699600052071,-0.7821336349999928,0.0007183838000020211,-2.35625287,0.002713287800007801,1.573665740000008,0.7846361299999959,0.039999947,0.039999995,-9.80341769999999,0.037242871150453896,0.009222184900024692,-0.01694953830003433,-0.015724669396882253,0.010050016300020453
0.6675,0.0019357031700055253,-0.7821034249999924,0.0007268966475021444,-2.356253175,0.002746144285008276,1.5736996000000085,0.7846190114999957,0.039999947,0.03999999525,-9.803370749999988,0.037563061527981334,0.009314936000018004,-0.01709258300003529,-0.01574527854100354,0.01013518610002099
0.67,0.001958456880005546,-0.7820721499999924,0.0007357278900021527,-2.3562534,0.002780227240008308,1.5737347000000086,0.7846012559999956,0.039999947,0.039999996,-9.803321999999989,0.03786597847945914,0.009389075000018073,-0.017237912000035424,-0.015765512734656432,0.01022162540002107
0.6725,0.0019812105900055667,-0.7820408749999924,0.0007445591325021606,-2.356253625,0.002814310195008338,1.5737698000000084,0.7845835004999956,0.039999947,0.03999999675,-9.80327324999999,0.03816889543093693,0.009463214000018138,-0.017383241000035556,-0.015785746928309325,0.010308064700021147
0.675,0.002003964300005588,-0.7820095999999923,0.0007533903750021688,-2.3562538500000003,0.00284839315000837,1.5738049000000085,0.7845657449999957,0.039999947,0.0399999975,-9.803224499999988,0.03847181238241474,0.009537353000018208,-0.01752857000003569,-0.01580598112196222,0.010394504000021228
0.6775,0.002026718010005608,-0.7819783249999923,0.0007622216175021767,-2.3562540750000003,0.0028824761050084005,1.5738400000000086,0.7845479894999956,0.039999947,0.03999999825,-9.803175749999989,0.03877472933389253,0.009611492000018273,-0.01767389900003582,-0.01582621531561511,0.010480943300021304
0.68,0.0020494717200056295,-0.7819470499999923,0.0007710528600021849,-2.3562543000000002,0.0029165590600084322,1.5738751000000086,0.7845302339999956,0.039999947,0.039999999,-9.80312699999999,0.039077646285370346,0.009685631000018343,-0.017819228000035957,-0.015846449509268005,0.010567382600021385
0.6825,0.0020722254300056496,-0.7819157749999923,0.0007798841025021927,-2.356254525,0.002950642015008462,1.5739102000000087,0.7845124784999955,0.039999947,0.03999999975,-9.803078249999988,0.03938056323684814,0.009759770000018408,-0.017964557000036085,-0.015866683702920898,0.010653821900021461
0.685,0.002095819600005985,-0.7818833949999918,0.0007890414880023229,-2.35625469,0.0029859828800089644,1.5739466000000093,0.7844940639999953,0.039999947,0.04,-9.803024199999987,0.03972106389710312,0.009856651100026979,-0.01811215950003707,-0.01588675323874253,0.010741871100022143
0.6875,0.002119834000006006,-0.7818504624999918,0.0007983619450023312,-2.356254825,0.0030219527000089966,1.5739836500000093,0.7844753199999953,0.039999947,0.04,-9.802967499999987,0.040080356411725665,0.009964903250027074,-0.018260898750037204,-0.01590674044564862,0.010830725250022223
0.6900000000000001,0.0021438484000060286,-0.7818175299999918,0.0008076824020023398,-2.3562549600000002,0.00305792252000903,1.5740207000000093,0.7844565759999953,0.039999947,0.04,-9.802910799999985,0.040439648926348215,0.010073155400027177,-0.01840963800003734,-0.015926727652554717,0.010919579400022306
0.6925,0.00216786280000605,-0.7817845974999917,0.0008170028590023481,-2.3562550950000003,0.003093892340009062,1.5740577500000095,0.7844378319999953,0.039999947,0.04,-9.802854099999985,0.04079894144097076,0.010181407550027272,-0.01855837725003747,-0.01594671485946081,0.011008433550022385
0.6950000000000001,0.002191877200006072,-0.7817516649999917,0.0008263233160023568,-2.35625523,0.0031298621600090956,1.5740948000000095,0.7844190879999953,0.039999947,0.04,-9.802797399999985,0.04115823395559331,0.010289659700027372,-0.01870711650003761,-0.015966702066366904,0.011097287700022468
0.6975,0.0022158916000060936,-0.7817187324999917,0.0008356437730023651,-2.356255365,0.0031658319800091273,1.5741318500000094,0.7844003439999953,0.039999947,0.04,-9.802740699999985,0.04151752647021585,0.01039791185002747,-0.01885585575003774,-0.015986689273272996,0.011186141850022547
0.7000000000000001,0.0022399060000064443,-0.7816857999999912,0.0008449642300025012,-2.3562555,0.003201801800009653,1.57416890000001,0.784381599999995,0.039999947,0.04,-9.80268399999999,0.04187681898483109,0.010506164000019944,-0.019004595000038746,-0.016006676480179054,0.011274996000023154
0.7025,0.002265210295006467,-0.7816511799999911,0.00085478526550251,-2.3562555450000002,0.0032397024800096866,1.57420796000001,0.784361859999995,0.0399999464,0.04,-9.802651449999992,0.04220739230522018,0.010584471350020013,-0.01915673400003888,-0.016026523150508645,0.011365902600023233
0.705,0.0022905145900064894,-0.7816165599999911,0.0008646063010025187,-2.35625559,0.00327760316000972,1.57424702000001,0.7843421199999949,0.0399999458,0.04,-9.802618899999992,0.04253796562560927,0.010662778700020083,-0.019308873000039018,-0.01604636982083824,0.011456809200023314
0.7075,0.0023158188850065133,-0.781581939999991,0.0008744273365025279,-2.356255635,0.0033155038400097554,1.57428608000001,0.7843223799999949,0.039999945200000005,0.04,-9.802586349999991,0.04286853894599837,0.010741086050020157,-0.01946101200003916,-0.016066216491167833,0.0115477158000234
0.71,0.0023411231800065354,-0.781547319999991,0.0008842483720025365,-2.35625568,0.003353404520009789,1.5743251400000102,0.7843026399999949,0.039999944600000004,0.04,-9.802553799999991,0.04319911226638746,0.010819393400020225,-0.019613151000039294,-0.016086063161497424,0.01163862240002348
0.7125,0.002366427475006559,-0.7815126999999911,0.0008940694075025458,-2.356255725,0.0033913052000098245,1.5743642000000102,0.7842828999999949,0.039999944,0.04,-9.802521249999991,0.04352968558677656,0.010897700750020299,-0.019765290000039435,-0.01610590983182702,0.011729529000023565
0.715,0.0023917317700065817,-0.781478079999991,0.0009038904430025544,-2.35625577,0.0034292058800098582,1.5744032600000102,0.7842631599999949,0.0399999434,0.04,-9.80248869999999,0.043860258907165654,0.010976008100020368,-0.01991742900003957,-0.01612575650215661,0.011820435600023646
0.7175,0.0024174756750069493,-0.7814428799999905,0.0009138820600026972,-2.3562558,0.003467763620010408,1.5744429900000108,0.7842430779999946,0.03999994265,0.04,-9.802448049999985,0.044208814390104025,0.011065586800029267,-0.02007065375004056,-0.016145483311270754,0.011911944250024202
0.72,0.002444098800006973,-0.7814065199999904,0.0009242148400027064,-2.3562558,0.0035076354800104436,1.5744840600000107,0.7842223119999946,0.039999941600000005,0.04,-9.802391199999985,0.04459333419809874,0.011177708200029368,-0.020226050000040702,-0.01616497039795428,0.012004657000024285
0.7225,0.002470721925006998,-0.7813701599999905,0.000934547620002716,-2.3562558,0.0035475073400104804,1.574525130000011,0.7842015459999946,0.03999994055,0.04,-9.802334349999985,0.04497785400609346,0.011289829600029472,-0.020381446250040847,-0.016184457484637812,0.012097369750024371
0.725,0.0024973450500070217,-0.7813337999999904,0.0009448804000027252,-2.3562558,0.003587379200010516,1.574566200000011,0.7841807799999946,0.0399999395,0.04,-9.802277499999985,0.04536237381408816,0.011401951000029572,-0.020536842500040984,-0.01620394457132134,0.012190082500024452
0.7275,0.0025239681750070467,-0.7812974399999904,0.0009552131800027348,-2.3562558,0.003627251060010553,1.5746072700000109,0.7841600139999946,0.03999993845,0.04,-9.802220649999985,0.04574689362208289,0.011514072400029676,-0.020692238750041128,-0.016223431658004866,0.012282795250024538
0.73,0.00255059130000707,-0.7812610799999904,0.000965545960002744,-2.3562558,0.0036671229200105886,1.5746483400000109,0.7841392479999946,0.0399999374,0.04,-9.802163799999985,0.046131413430077595,0.011626193800029777,-0.02084763500004127,-0.016242918744688393,0.012375508000024621
0.7325,0.002577214425007095,-0.7812247199999903,0.0009758787400027537,-2.3562558,0.003706994780010626,1.574689410000011,0.7841184819999945,0.03999993635,0.04,-9.802106949999985,0.04651593323807232,0.01173831520002988,-0.021003031250041413,-0.016262405831371923,0.012468220750024708
0.735,0.0026047352600074786,-0.7811871699999898,0.0009865599400029027,-2.35625577,0.0037482094600112,1.5747318900000116,0.7840970099999942,0.0399999356,0.04,-9.802070199999992,0.04688363634059496,0.011831368400022333,-0.021160562000042408,-0.01628194339573902,0.012562351200025359
0.7375,0.002632704950007505,-0.7811490249999898,0.0009974153500029127,-2.356255725,0.0037900955500112386,1.5747750750000116,0.7840751849999942,0.039999935,0.04,-9.802043499999993,0.04724293109039168,0.01191488750002241,-0.021319160000042556,-0.016301506198947872,0.012657190500025447
0.74,0.0026606746400075296,-0.7811108799999897,0.0010082707600029225,-2.35625568,0.003831981640011276,1.5748182600000116,0.7840533599999941,0.0399999344,0.04,-9.802016799999992,0.04760222584018838,0.011998406600022484,-0.021477758000042695,-0.016321069002156727,0.012752029800025532
0.7425,0.0026886443300075556,-0.7810727349999897,0.0010191261700029325,-2.356255635,0.003873867730011315,1.5748614450000118,0.7840315349999941,0.0399999338,0.04,-9.801990099999992,0.0479615205899851,0.012081925700022563,-0.021636356000042843,-0.01634063180536558,0.01284686910002562
0.745,0.0027166140200075807,-0.7810345899999896,0.001029981580002942,-2.35625559,0.003915753820011352,1.5749046300000118,0.7840097099999941,0.039999933200000004,0.04,-9.801963399999993,0.04832081533978181,0.012165444800022636,-0.021794954000042985,-0.016360194608574432,0.012941708400025703
0.7475,0.0027445837100076066,-0.7809964449999897,0.0010408369900029523,-2.3562555450000002,0.0039576399100113915,1.5749478150000118,0.7839878849999941,0.0399999326,0.04,-9.801936699999992,0.04868011008957853,0.012248963900022714,-0.021953552000043133,-0.016379757411783286,0.013036547700025792
0.75,0.0027725534000080064,-0.7809582999999891,0.0010516924000031074,-2.3562555,0.003999526000011989,1.5749910000000125,0.7839660599999938,0.039999932,0.04,-9.801909999999987,0.04903940483939063,0.01233248300003156,-0.022112150000044097,-0.016399320214992106,0.01313138700002641
0.7525000000000001,0.0028018973600080336,-0.7809183549999891,0.001063081045003118,-2.356255425,0.0040434676600120305,1.5750362700000125,0.7839431819999938,0.03999993095,0.03999999925,-9.801863649999987,0.049455138296002656,0.012448153550031668,-0.02227377200004425,-0.01641876343638236,0.013228181850026501
0.755,0.0028312413200080595,-0.780878409999989,0.0010744696900031282,-2.35625535,0.004087409320012069,1.5750815400000124,0.7839203039999937,0.0399999299,0.0399999985,-9.801817299999987,0.049870871752614655,0.01256382410003177,-0.022435394000044392,-0.01643820665777261,0.013324976700026586
0.7575000000000001,0.002860585280008087,-0.780838464999989,0.0010858583350031388,-2.356255275,0.00413135098001211,1.5751268100000124,0.7838974259999937,0.03999992885,0.03999999775,-9.801770949999987,0.05028660520922668,0.012679494650031879,-0.022597016000044542,-0.016457649879162865,0.013421771550026676
0.76,0.002889929240008113,-0.780798519999989,0.0010972469800031488,-2.3562552,0.004175292640012149,1.5751720800000124,0.7838745479999937,0.0399999278,0.039999997,-9.801724599999988,0.05070233866583868,0.012795165200031981,-0.022758638000044688,-0.016477093100553116,0.013518566400026763
0.7625000000000001,0.0029192732000081407,-0.7807585749999889,0.0011086356250031594,-2.356255125,0.00421923430001219,1.5752173500000126,0.7838516699999937,0.03999992675,0.03999999625,-9.801678249999988,0.05111807212245071,0.01291083575003209,-0.022920260000044837,-0.01649653632194337,0.013615361250026853
0.765,0.0029486171600081666,-0.780718629999989,0.0011200242700031696,-2.35625505,0.0042631759600122296,1.5752626200000126,0.7838287919999937,0.0399999257,0.0399999955,-9.801631899999986,0.051533805579062716,0.013026506300032192,-0.02308188200004498,-0.01651597954333362,0.01371215610002694
0.7675000000000001,0.0029784280600085853,-0.7806780599999884,0.001131594160003332,-2.3562549649999998,0.004307815315012855,1.5753086150000133,0.7838055479999934,0.03999992475,0.03999999525,-9.801592449999992,0.051939687691736715,0.013133240600024814,-0.023244545750046003,-0.0165354779921526,0.013809495400027485
0.77,0.0030091728400086126,-0.7806362399999883,0.0011435265400033426,-2.35625486,0.004353850060012896,1.5753560600000132,0.7837815719999933,0.039999924,0.039999996,-9.801566799999993,0.052325867116559385,0.013222102400024893,-0.02340929300004615,-0.016555086895828894,0.013907923600027572
0.7725,0.00303991762000864,-0.7805944199999882,0.001155458920003353,-2.3562547549999997,0.004399884805012936,1.5754035050000132,0.7837575959999933,0.03999992325,0.03999999675,-9.801541149999993,0.05271204654138205,0.013310964200024972,-0.023574040250046297,-0.016574695799505185,0.01400635180002766
0.775,0.0030706624000086686,-0.7805525999999883,0.0011673913000033642,-2.35625465,0.004445919550012979,1.5754509500000133,0.7837336199999932,0.0399999225,0.0399999975,-9.801515499999992,0.05309822596620473,0.013399826000025055,-0.02373878750004645,-0.01659430470318148,0.014104780000027751
0.7775,0.003101407180008696,-0.7805107799999882,0.001179323680003375,-2.3562545449999996,0.00449195429501302,1.5754983950000134,0.7837096439999932,0.03999992175,0.03999999825,-9.801489849999992,0.053484405391027404,0.013488687800025134,-0.023903534750046595,-0.016613913606857773,0.01420320820002784
0.78,0.0031321519600087245,-0.7804689599999882,0.001191256060003386,-2.35625444,0.004537989040013063,1.5755458400000135,0.7836856679999932,0.039999921,0.039999999,-9.801464199999993,0.05387058481585009,0.013577549600025217,-0.02406828200004675,-0.016633522510534064,0.01430163640002793
0.7825,0.003162896740008752,-0.7804271399999881,0.0012031884400033966,-2.3562543349999996,0.0045840237850131044,1.5755932850000136,0.7836616919999931,0.03999992025,0.03999999975,-9.801438549999993,0.05425676424067276,0.013666411400025296,-0.024233029250046896,-0.01665313141421036,0.01440006460002802
0.785,0.003194592780009188,-0.7803840599999875,0.0012154899800035659,-2.35625421,0.004631484130013758,1.5756422000000143,0.7836369699999929,0.0399999205,0.04,-9.801402099999988,0.05468635894371038,0.013777235800034787,-0.024399683500047866,-0.016672804951673358,0.014500198100028842
0.7875,0.0032267644500092165,-0.7803403499999875,0.001227976100003577,-2.356254075,0.004679657275013801,1.5756918500000143,0.7836118749999929,0.03999992125,0.04,-9.801360249999988,0.055137661285827616,0.013899041500034895,-0.024567291250048015,-0.01669251080602967,0.014601184250028931
0.79,0.0032589361200092465,-0.7802966399999874,0.0012404622200035886,-2.3562539399999998,0.004727830420013846,1.5757415000000143,0.7835867799999928,0.039999922,0.04,-9.801318399999989,0.055588963627944875,0.014020847200035009,-0.02473489900004817,-0.016712216660385984,0.014702170400029024
0.7925,0.003291107790009275,-0.7802529299999874,0.0012529483400035997,-2.3562538049999997,0.004776003565013889,1.5757911500000144,0.7835616849999928,0.03999992275,0.04,-9.801276549999988,0.056040265970062106,0.014142652900035116,-0.02490250675004832,-0.016731922514742297,0.014803156550029114
0.795,0.003323279460009305,-0.7802092199999874,0.0012654344600036113,-2.35625367,0.004824176710013933,1.5758408000000144,0.7835365899999928,0.0399999235,0.04,-9.801234699999988,0.056491568312179365,0.01426445860003523,-0.02507011450004848,-0.01675162836909861,0.014904142700029209
0.7975,0.0033554511300093338,-0.7801655099999873,0.0012779205800036225,-2.356253535,0.004872349855013977,1.5758904500000144,0.7835114949999927,0.03999992425,0.04,-9.801192849999989,0.0569428706542966,0.014386264300035338,-0.025237722250048628,-0.01677133422345492,0.015005128850029298
0.8,0.0033876228000097866,-0.7801217999999867,0.0012904067000037982,-2.3562534,0.004920523000014654,1.575940100000015,0.7834863999999924,0.039999925,0.04,-9.801150999999994,0.05739417299640287,0.014508070000025892,-0.025405330000049624,-0.01679104007781123,0.015106115000029759
0.8025,0.0034212469800098165,-0.7800761759999867,0.0013034565350038098,-2.35625319,0.004970867245014698,1.5759920000000152,0.7834601949999924,0.03999992425,0.04,-9.801123699999993,0.05780772548180964,0.01459702930002597,-0.025575821950049774,-0.016810727491980558,0.01520836340002985
0.805,0.003454871160009848,-0.7800305519999866,0.001316506370003822,-2.35625298,0.005021211490014745,1.576043900000015,0.7834339899999924,0.0399999235,0.04,-9.801096399999993,0.05822127796721642,0.014685988600026054,-0.025746313900049934,-0.016830414906149886,0.015310611800029945
0.8075,0.0034884953400098778,-0.7799849279999865,0.0013295562050038335,-2.3562527699999998,0.00507155573501479,1.5760958000000151,0.7834077849999923,0.03999992275,0.04,-9.801069099999992,0.05863483045262319,0.014774947900026134,-0.025916805850050083,-0.016850102320319214,0.015412860200030036
0.81,0.003522119520009909,-0.7799393039999866,0.0013426060400038458,-2.3562525599999997,0.005121899980014837,1.5761477000000153,0.7833815799999924,0.039999922,0.04,-9.801041799999993,0.05904838293802998,0.014863907200026215,-0.026087297800050244,-0.016869789734488543,0.015515108600030131
0.8125,0.0035557437000099386,-0.7798936799999865,0.0013556558750038572,-2.35625235,0.005172244225014881,1.5761996000000154,0.7833553749999923,0.03999992125,0.04,-9.801014499999992,0.05946193542343674,0.014952866500026295,-0.026257789750050393,-0.01688947714865787,0.015617357000030222
0.8150000000000001,0.00358936788000997,-0.7798480559999864,0.0013687057100038695,-2.35625214,0.005222588470014928,1.5762515000000152,0.7833291699999922,0.0399999205,0.04,-9.800987199999993,0.059875487908843526,0.015041825800026378,-0.026428281700050554,-0.0169091645628272,0.01571960540003032
0.8175,0.0036234844600102796,-0.779801776499986,0.0013819466250039895,-2.3562518999999997,0.005273670550015392,1.5763041550000159,0.783302569999992,0.03999992025,0.04,-9.800952649999985,0.0603121314199192,0.01514428150003791,-0.026599700150050743,-0.016928785666829062,0.015822629750030626
0.8200000000000001,0.0036585858400098336,-0.7797541859999867,0.0013955697000038163,-2.3562516,0.0053262283000147246,1.576358320000015,0.7832751799999924,0.039999921,0.04,-9.800903599999986,0.06079495698227096,0.015273730000036265,-0.02677297160004854,-0.01694827415049618,0.015927206000029295
0.8225,0.003693687220009386,-0.7797065954999873,0.0014091927750036427,-2.3562513,0.005378786050014054,1.5764124850000145,0.7832477899999927,0.03999992175,0.04,-9.800854549999986,0.061277782544622704,0.015403178500034614,-0.02694624305004633,-0.016967762634163296,0.01603178225002796
0.8250000000000001,0.00372878860000894,-0.7796590049999879,0.0014228158500034695,-2.356251,0.005431343800013386,1.5764666500000137,0.783220399999993,0.0399999225,0.04,-9.800805499999987,0.06176060810697447,0.015532627000032969,-0.02711951450004413,-0.016987251117830414,0.016136358500026635
0.8275,0.003763889980008492,-0.7796114144999885,0.001436438925003296,-2.3562507,0.005483901550012715,1.5765208150000132,0.7831930099999934,0.03999992325,0.04,-9.800756449999987,0.06224343366932621,0.01566207550003132,-0.02729278595004192,-0.017006739601497532,0.0162409347500253
0.8300000000000001,0.003798991360008046,-0.7795638239999891,0.0014500620000031227,-2.3562504,0.005536459300012048,1.5765749800000124,0.7831656199999938,0.039999924,0.04,-9.800707399999988,0.06272625923167797,0.015791524000029672,-0.027466057400039715,-0.017026228085164647,0.01634551100002397
0.8325,0.0038340927400075985,-0.7795162334999898,0.0014636850750029489,-2.3562501,0.005589017050011377,1.5766291450000118,0.783138229999994,0.03999992475,0.04,-9.800658349999988,0.06320908479402972,0.01592097250002802,-0.027639328850037507,-0.017045716568831765,0.016450087250022637
0.835,0.0038701950800081224,-0.779467318999989,0.0014776966200031522,-2.3562498,0.005643071110012161,1.5766848700000125,0.7831100699999937,0.0399999245,0.04,-9.800625199999994,0.06366750299940466,0.016026284500020693,-0.027814249600038997,-0.0170652193948669,0.01655547920002348
0.8375,0.003906797900008656,-0.7794177424999883,0.0014919024000033592,-2.3562495,0.00569787332501296,1.5767413750000134,0.7830815249999933,0.03999992375,0.04,-9.800599999999994,0.06411371752630288,0.016119528250022053,-0.02798999500004156,-0.01708472939208604,0.01666127900002502
0.84,0.003943400720009187,-0.7793681659999876,0.0015061081800035658,-2.3562492,0.005752675540013756,1.5767978800000142,0.7830529799999929,0.039999923,0.04,-9.800574799999993,0.06455993205320107,0.016212772000023405,-0.028165740400044114,-0.01710423938930518,0.016767078800026557
0.8425,0.003980003540009721,-0.7793185894999869,0.0015203139600037728,-2.3562488999999998,0.0058074777550145545,1.576854385000015,0.7830244349999924,0.03999992225,0.04,-9.800549599999993,0.06500614658009927,0.016306015750024765,-0.028341485800046674,-0.017123749386524317,0.016872878600028098
0.845,0.004016606360010253,-0.7792690129999861,0.0015345197400039791,-2.3562486,0.005862279970015351,1.5769108900000157,0.782995889999992,0.0399999215,0.04,-9.800524399999993,0.06545236110699748,0.01639925950002612,-0.028517231200049228,-0.017143259383743455,0.016978678400029635
0.8475,0.004053209180010786,-0.7792194364999854,0.0015487255200041861,-2.3562483,0.00591708218501615,1.5769673950000165,0.7829673449999917,0.03999992075,0.04,-9.800499199999992,0.06589857563389569,0.01649250325002748,-0.028692976600051788,-0.017162769380962596,0.01708447820003118
0.85,0.00408981200001179,-0.779169859999984,0.0015629313000045757,-2.356248,0.005971884400017652,1.5770239000000181,0.7829387999999908,0.03999992,0.04,-9.800473999999987,0.06634479016080731,0.01658574700003616,-0.028868722000055153,-0.01718227937818167,0.017190278000033313
0.8525,0.0041279396000118256,-0.779118250999984,0.0015777289050045895,-2.3562476699999997,0.006028968790017705,1.5770827450000182,0.7829090699999908,0.03999992,0.04,-9.800435749999988,0.06683443523958604,0.01670268325003627,-0.029047082200055318,-0.017201594635850182,0.01729800800003341
0.855,0.004166067200011859,-0.779066641999984,0.0015925265100046025,-2.35624734,0.006086053180017756,1.5771415900000183,0.7828793399999908,0.03999992,0.04,-9.800397499999988,0.06732408031836475,0.01681961950003637,-0.029225442400055476,-0.01722090989351869,0.01740573800003351
0.8575,0.004204194800011895,-0.7790150329999839,0.0016073241150046163,-2.3562470099999997,0.006143137570017809,1.5772004350000184,0.7828496099999908,0.03999992,0.04,-9.800359249999987,0.06781372539714348,0.01693655575003648,-0.029403802600055644,-0.017240225151187196,0.01751346800003361
