rsonawane2002/My_IMU/logs_2/traj_316/imu_400hz_316.csv
time,j1,j2,j3,j4,j5,j6,j7,gripper1,gripper2,imu_ax,imu_ay,imu_az,imu_gx,imu_gy,imu_gz
0.0,0.00016700293,-0.785875,4.0107683e-05,-2.3551247,9.29385e-05,1.570997,0.786,0.04,0.04,-9.517065,-0.0246758628636598,0.114456244,-1.202752e-07,-0.0011641272576525,8.8907285e-07
0.0025,0.00016700323149999998,-0.785857774,4.0109014550000004e-05,-2.35513919,9.2944293e-05,1.570996565,0.786,0.04,0.04,-9.564673200000044,-0.020878270876706812,0.09865094769998563,-1.219149250000015e-07,-0.001325564581202412,9.19790187500028e-07
0.005,0.000167003533,-0.785840548,4.0110346100000005e-05,-2.3551536800000004,9.295008600000002e-05,1.57099613,0.786,0.04,0.04,-9.612281400000088,-0.01708067888975382,0.08284565139997124,-1.2355465000000296e-07,-0.0014870019047523238,9.505075250000558e-07
0.0075,0.00016700383449999999,-0.7858233219999999,4.011167765000001e-05,-2.3551681700000002,9.295587900000002e-05,1.570995695,0.786,0.04,0.04,-9.65988960000013,-0.013283086902800835,0.06704035509995687,-1.2519437500000446e-07,-0.0016484392283022354,9.812248625000838e-07
0.01,0.000167004136,-0.785806096,4.011300920000001e-05,-2.35518266,9.296167200000002e-05,1.5709952600000001,0.786,0.04,0.04,-9.707497800000173,-0.009485494915847846,0.0512350587999425,-1.2683410000000596e-07,-0.0018098765518521473,1.0119422000001118e-06
0.0125,0.0001670044375,-0.78578887,4.011434075e-05,-2.3551971500000004,9.296746500000002e-05,1.570994825,0.786,0.04,0.04,-9.755106000000216,-0.005687902928894855,0.035429762499928116,-1.2847382500000745e-07,-0.001971313875402059,1.0426595375001398e-06
0.015,0.00016700473899999998,-0.785771644,4.0115672300000004e-05,-2.3552116400000003,9.297325800000003e-05,1.57099439,0.786,0.04,0.04,-9.80271420000026,-0.001890310941941871,0.019624466199913745,-1.3011355000000893e-07,-0.002132751198951971,1.0733768750001675e-06
0.0175,0.00016700475949999998,-0.785754867,4.011764685000002e-05,-2.3552257350000003,9.297998300000005e-05,1.57099396,0.786,0.04,0.04,-9.834360049999999,0.0006421215279260034,0.009009829399998514,-9.22721164992563e-08,-0.0022901818272666563,1.1504146150010804e-06
0.02,0.00016700421799999997,-0.785738988,4.012090740000002e-05,-2.3552390400000003,9.298857200000006e-05,1.5709935400000001,0.786,0.04,0.04,-9.834081199999998,0.0006442349636926754,0.008776511599998302,2.453163400084986e-08,-0.0024395990651111072,1.3200931600012346e-06
0.0225,0.0001670036765,-0.7857231089999999,4.012416795000003e-05,-2.3552523450000002,9.299716100000007e-05,1.57099312,0.786,0.04,0.04,-9.833802349999997,0.0006463483994593473,0.00854319379999809,1.4133538450095602e-07,-0.0025890163029555577,1.4897717050013888e-06
0.025,0.000167003135,-0.7857072299999999,4.0127428500000026e-05,-2.35526565,9.300575000000007e-05,1.5709927,0.786,0.04,0.04,-9.833523499999998,0.0006484618352260192,0.008309875999997877,2.581391350010624e-07,-0.002738433540800009,1.6594502500015432e-06
0.0275,0.00016700259349999998,-0.7856913509999999,4.013068905000003e-05,-2.355278955,9.301433900000008e-05,1.57099228,0.786,0.04,0.04,-9.833244649999997,0.0006505752709926911,0.008076558199997665,3.7494288550116857e-07,-0.0028878507786444596,1.8291287950016974e-06
0.03,0.00016700205199999998,-0.7856754719999999,4.0133949600000036e-05,-2.35529226,9.302292800000009e-05,1.57099186,0.786,0.04,0.04,-9.832965799999997,0.0006526887067593631,0.007843240399997453,4.917466360012746e-07,-0.0030372680164889106,1.998807340001852e-06
0.0325,0.00016700151049999998,-0.7856595929999999,4.013721015000004e-05,-2.355305565,9.30315170000001e-05,1.57099144,0.786,0.04,0.04,-9.832686949999998,0.000654802142526035,0.007609922599997241,6.08550386501381e-07,-0.0031866852543333615,2.1684858850020058e-06
0.035,0.00016699955299999996,-0.7856445729999998,4.014396680000011e-05,-2.3553181,9.304549200000022e-05,1.57099101,0.786,0.04,0.04,-9.832445299999998,0.0006588956282940247,0.007391372199997311,8.720018530042886e-07,-0.0033298888942243842,2.4485645600042694e-06
0.0375,0.00016699688749999996,-0.7856299824999998,4.015247150000011e-05,-2.35533025,9.306216000000023e-05,1.570990575,0.786,0.04,0.04,-9.832222249999997,0.0006639791390626194,0.0071802054999971195,1.2087771775045943e-06,-0.0034699857351388613,2.7838433000045734e-06
0.04,0.00016699422199999996,-0.7856153919999997,4.0160976200000123e-05,-2.3553424,9.307882800000025e-05,1.57099014,0.786,0.04,0.04,-9.831999199999997,0.000669062649831214,0.006969038799996927,1.5455525020049009e-06,-0.003610082576053339,3.1191220400048787e-06
0.0425,0.00016699155649999996,-0.7856008014999998,4.016948090000013e-05,-2.35535455,9.309549600000026e-05,1.5709897050000001,0.786,0.04,0.04,-9.831776149999996,0.0006741461605998087,0.006757872099996735,1.8823278265052074e-06,-0.0037501794169678164,3.454400780005184e-06
0.045,0.00016698889099999996,-0.7855862109999998,4.017798560000014e-05,-2.3553667000000003,9.311216400000028e-05,1.57098927,0.786,0.04,0.04,-9.831553099999995,0.0006792296713684032,0.006546705399996544,2.219103151005513e-06,-0.0038902762578822934,3.7896795200054885e-06
0.0475,0.00016698622549999996,-0.7855716204999997,4.018649030000014e-05,-2.35537885,9.312883200000029e-05,1.570988835,0.786,0.04,0.04,-9.831330049999996,0.0006843131821369978,0.006335538699996351,2.5558784755058196e-06,-0.004030373098796771,4.124958260005793e-06
0.05,0.0001669835599999999,-0.7855570299999998,4.0194995000000336e-05,-2.355391,9.314550000000058e-05,1.5709884,0.786,0.04,0.04,-9.831106999999996,0.0006893966929056387,0.006124371999996374,2.892653800011834e-06,-0.0041704699397111,4.460237000010451e-06
0.0525,0.0001669769959999999,-0.7855436454999998,4.021350230000035e-05,-2.3554020550000003,9.317785500000061e-05,1.57098798,0.786,0.04,0.04,-9.830909899999996,0.0006970212649321957,0.0059250078999961925,3.543180280012424e-06,-0.004302408359947325,5.0348007500109725e-06
0.055,0.00016697043199999988,-0.7855302609999998,4.023200960000037e-05,-2.35541311,9.321021000000065e-05,1.57098756,0.786,0.04,0.04,-9.830712799999995,0.0007046458369587526,0.005725643799996011,4.193706760013016e-06,-0.00443434678018355,5.609364500011496e-06
0.0575,0.00016696386799999987,-0.7855168764999997,4.0250516900000385e-05,-2.3554241650000005,9.324256500000068e-05,1.57098714,0.786,0.04,0.04,-9.830515699999996,0.0007122704089853095,0.00552627969999583,4.844233240013608e-06,-0.004566285200419775,6.1839282500120185e-06
0.06,0.00016695730399999986,-0.7855034919999997,4.0269024200000406e-05,-2.3554352200000004,9.32749200000007e-05,1.57098672,0.786,0.04,0.04,-9.830318599999996,0.0007198949810118665,0.005326915599995648,5.494759720014199e-06,-0.004698223620656,6.758492000012541e-06
0.0625,0.00016695073999999985,-0.7854901074999997,4.028753150000042e-05,-2.3554462750000003,9.330727500000074e-05,1.5709863,0.786,0.04,0.04,-9.830121499999995,0.0007275195530384234,0.005127551499995467,6.145286200014791e-06,-0.004830162040892225,7.333055750013063e-06
0.065,0.00016694417599999985,-0.7854767229999997,4.030603880000044e-05,-2.3554573300000006,9.333963000000077e-05,1.57098588,0.786,0.04,0.04,-9.829924399999996,0.0007351441250649804,0.004928187399995286,6.7958126800153834e-06,-0.00496210046112845,7.907619500013587e-06
0.0675,0.0001669355719999997,-0.7854637229999998,4.032989665000085e-05,-2.3554680400000003,9.338043775000143e-05,1.570985455,0.786,0.04,0.04,-9.829738249999997,0.0007436016108842887,0.004733557389995453,7.596853800027065e-06,-0.005091884266588146,8.584177850021624e-06
0.07,0.0001669228879999997,-0.7854514919999998,4.036445560000088e-05,-2.3554780600000003,9.343815100000147e-05,1.57098502,0.786,0.04,0.04,-9.829573999999996,0.0007537249242889179,0.004548395559995284,8.698924200028069e-06,-0.005217358842495256,9.464725400022425e-06
0.0725,0.00016691020399999969,-0.7854392609999997,4.039901455000091e-05,-2.35548808,9.349586425000152e-05,1.570984585,0.786,0.04,0.04,-9.829409749999996,0.000763848237693547,0.004363233729995117,9.800994600029065e-06,-0.005342833418402364,1.0345272950023223e-05
0.075,0.00016689751999999965,-0.7854270299999997,4.0433573500000945e-05,-2.3554981000000006,9.355357750000157e-05,1.57098415,0.786,0.04,0.04,-9.829245499999995,0.0007739715510981762,0.004178071899994949,1.0903065000030068e-05,-0.005468307994309473,1.1225820500024025e-05
0.0775,0.00016688483599999965,-0.7854147989999997,4.046813245000097e-05,-2.3555081200000005,9.361129075000163e-05,1.5709837150000001,0.786,0.04,0.04,-9.829081249999994,0.0007840948645028054,0.00399291006999478,1.2005135400031073e-05,-0.0055937825702165826,1.2106368050024826e-05
0.08,0.00016687215199999965,-0.7854025679999996,4.0502691400001006e-05,-2.3555181400000005,9.366900400000168e-05,1.57098328,0.786,0.04,0.04,-9.828916999999995,0.0007942181779074347,0.003807748239994611,1.3107205800032076e-05,-0.005719257146123691,1.2986915600025628e-05
0.0825,0.00016685946799999962,-0.7853903369999996,4.053725035000103e-05,-2.3555281600000004,9.372671725000173e-05,1.570982845,0.786,0.04,0.04,-9.828752749999994,0.0008043414913120639,0.0036225864099944426,1.4209276200033079e-05,-0.0058447317220308,1.386746315002643e-05
0.085,0.00016684093899999933,-0.7853788399999997,4.058732600000179e-05,-2.3555375000000005,9.380900750000292e-05,1.57098275,0.786,0.04,0.04,-9.828606799999996,0.0008154021459634866,0.0034462087599946814,1.5651706700049872e-05,-0.005966745316985959,1.4990591600038484e-05
0.08750000000000001,0.00016681948749999932,-0.7853677099999996,4.064516000000184e-05,-2.3555465000000004,9.390358625000301e-05,1.570982825,0.786,0.04,0.04,-9.828469999999996,0.000826931471238242,0.003274223199994525,1.726431725005134e-05,-0.006087028421465379,1.6235010500039616e-05
0.09,0.0001667980359999993,-0.7853565799999996,4.0702994000001894e-05,-2.3555555000000004,9.39981650000031e-05,1.5709829,0.786,0.04,0.04,-9.828333199999994,0.0008384607965129976,0.003102237639994369,1.8876927800052796e-05,-0.006207311525944798,1.7479429400040742e-05
0.0925,0.00016677658449999928,-0.7853454499999997,4.0760828000001946e-05,-2.3555645000000003,9.409274375000317e-05,1.570982975,0.786,0.04,0.04,-9.828196399999994,0.000849990121787753,0.0029302520799942126,2.0489538350054267e-05,-0.006327594630424217,1.8723848300041875e-05
0.095,0.00016675513299999926,-0.7853343199999996,4.0818662000002e-05,-2.3555735,9.418732250000326e-05,1.57098305,0.786,0.04,0.04,-9.828059599999994,0.0008615194470625085,0.002758266519994056,2.2102148900055734e-05,-0.0064478777349036365,1.996826720004301e-05
0.0975,0.00016673368149999922,-0.7853231899999996,4.087649600000205e-05,-2.3555825000000006,9.428190125000335e-05,1.570983125,0.786,0.04,0.04,-9.827922799999994,0.000873048772337264,0.0025862809599938993,2.37147594500572e-05,-0.006568160839383056,2.121268610004414e-05
0.1,0.00016671222999999877,-0.7853120599999996,4.0934330000003253e-05,-2.3555915000000005,9.437648000000527e-05,1.5709832,0.786,0.04,0.04,-9.827785999999996,0.0008845780976121088,0.0024142953999937754,2.5327370000082425e-05,-0.006688443943862269,2.2457105000060552e-05
0.10250000000000001,0.00016667902299999875,-0.7853019919999996,4.1023692500003335e-05,-2.3556000950000002,9.45212345000054e-05,1.57098329,0.786000015,0.04,0.04,-9.827674999999996,0.0008985644031786216,0.0022432030149936197,2.7592947500084488e-05,-0.006803040276285768,2.4121480850062067e-05
0.105,0.00016664581599999873,-0.7852919239999996,4.111305500000342e-05,-2.3556086900000004,9.466598900000552e-05,1.57098338,0.7860000300000001,0.04,0.04,-9.827563999999995,0.0009125507087451342,0.002072110629993465,2.985852500008654e-05,-0.0069176366087092675,2.5785856700063576e-05
0.1075,0.0001666126089999987,-0.7852818559999996,4.12024175000035e-05,-2.3556172850000006,9.481074350000566e-05,1.57098347,0.786000045,0.04,0.04,-9.827452999999995,0.000926537014311647,0.001901018244993309,3.21241025000886e-05,-0.007032232941132767,2.745023255006509e-05
0.11,0.00016657940199999867,-0.7852717879999996,4.129178000000358e-05,-2.3556258800000003,9.495549800000579e-05,1.57098356,0.78600006,0.04,0.04,-9.827341999999994,0.0009405233198781597,0.0017299258599931533,3.4389680000090665e-05,-0.007146829273556266,2.9114608400066606e-05
0.1125,0.00016654619499999865,-0.7852617199999996,4.138114250000366e-05,-2.3556344750000004,9.510025250000592e-05,1.57098365,0.786000075,0.04,0.04,-9.827230999999994,0.0009545096254446725,0.0015588334749929975,3.665525750009273e-05,-0.007261425605979766,3.077898425006812e-05
0.115,0.0001665129879999986,-0.7852516519999996,4.147050500000374e-05,-2.35564307,9.524500700000606e-05,1.57098374,0.78600009,0.04,0.04,-9.827119999999995,0.0009684959310111852,0.0013877410899928416,3.892083500009479e-05,-0.007376021938403265,3.244336010006964e-05
0.11750000000000001,0.00016647474149999794,-0.7852419149999996,4.157342900000556e-05,-2.3556513000000003,9.541186075000903e-05,1.57098384,0.786000195,0.04,0.03999999975,-9.827041349999998,0.0009830954310024417,0.001225669729993843,4.1411660350125744e-05,-0.007490562996831947,3.4301209100095964e-05
0.12,0.00016642641599999789,-0.7852328399999996,4.170347600000568e-05,-2.3556588000000005,9.562291300000921e-05,1.57098396,0.78600048,0.04,0.039999999,-9.827027399999999,0.000998921319842951,0.0010816404199937126,4.43529814001284e-05,-0.007604993507271016,3.6546004400097994e-05
0.1225,0.00016637809049999786,-0.7852237649999996,4.1833523000005795e-05,-2.3556663,9.583396525000941e-05,1.5709840800000001,0.786000765,0.04,0.03999999825,-9.827013449999999,0.0010147472086834604,0.0009376111099935814,4.729430245013108e-05,-0.007719424017710085,3.879079970010004e-05
0.125,0.0001663297649999978,-0.7852146899999995,4.196357000000591e-05,-2.3556738000000004,9.60450175000096e-05,1.5709842,0.78600105,0.04,0.0399999975,-9.8269995,0.0010305730975239697,0.0007935817999934502,5.0235623500133755e-05,-0.007833854528149154,4.103559500010208e-05
0.1275,0.00016628143949999776,-0.7852056149999995,4.209361700000603e-05,-2.3556813,9.62560697500098e-05,1.57098432,0.786001335,0.04,0.03999999675,-9.826985549999998,0.001046398986364479,0.0006495524899933191,5.3176944550136437e-05,-0.007948285038588224,4.3280390300104125e-05
0.13,0.0001662331139999977,-0.7851965399999996,4.222366400000615e-05,-2.3556888000000002,9.646712200000999e-05,1.5709844400000001,0.78600162,0.04,0.039999996,-9.826971599999998,0.0010622248752049884,0.000505523179993188,5.611826560013911e-05,-0.008062715549027292,4.552518560010617e-05
0.1325,0.00016618478849999768,-0.7851874649999996,4.2353711000006265e-05,-2.3556963000000004,9.667817425001018e-05,1.57098456,0.786001905,0.04,0.03999999525,-9.826957649999999,0.0010780507640454978,0.00036149386999305693,5.9059586650141787e-05,-0.008177146059466362,4.776998090010821e-05
0.135,0.00016612397799999672,-0.7851790759999996,4.251756950000888e-05,-2.3557031200000003,9.69438779000144e-05,1.57098468,0.78600219,0.04,0.039999994500000004,-9.826912399999996,0.001094820559956967,0.00022192838599325467,6.175407930012629e-05,-0.00829059565440366,5.035091140013502e-05
0.1375,0.00016605692499999664,-0.7851710299999995,4.2698333750009044e-05,-2.3557096,9.723690725001466e-05,1.5709848000000002,0.786002475,0.04,0.039999993750000004,-9.826851499999997,0.0011120623094038125,8.459481499312966e-05,6.432515775012863e-05,-0.008403554791590176,5.309990950013752e-05
0.14,0.00016598987199999658,-0.7851629839999996,4.2879098000009204e-05,-2.35571608,9.752993660001493e-05,1.5709849200000001,0.78600276,0.04,0.039999993000000005,-9.826790599999997,0.0011293040588506583,-5.273875600699538e-05,6.689623620013096e-05,-0.008516513928776694,5.584890760014002e-05
0.14250000000000002,0.00016592281899999653,-0.7851549379999996,4.305986225000937e-05,-2.3557225600000002,9.782296595001519e-05,1.57098504,0.786003045,0.04,0.03999999225,-9.826729699999996,0.001146545808297504,-0.0001900723270071204,6.94673146501333e-05,-0.008629473065963213,5.8597905700142524e-05
0.145,0.00016585576599999647,-0.7851468919999995,4.324062650000953e-05,-2.35572904,9.811599530001547e-05,1.57098516,0.78600333,0.04,0.0399999915,-9.826668799999997,0.0011637875577443495,-0.0003274058980072439,7.203839310013562e-05,-0.00874243220314973,6.1346903800145e-05
0.1475,0.0001657887129999964,-0.7851388459999996,4.34213907500097e-05,-2.35573552,9.840902465001572e-05,1.5709852800000002,0.786003615,0.04,0.03999999075,-9.826607899999997,0.0011810293071911951,-0.0004647394690073689,7.460947155013796e-05,-0.008855391340336246,6.40959019001475e-05
0.15,0.00016572165999999513,-0.7851307999999997,4.360215500001322e-05,-2.3557420000000002,9.870205400002123e-05,1.5709854,0.7860039,0.04,0.03999999,-9.826546999999996,0.0011982710566380342,-0.0006020730400065411,7.718055000019337e-05,-0.008968350477522721,6.684490000016707e-05
0.1525,0.00016563203349999504,-0.7851236899999996,4.384440335001344e-05,-2.35574764,9.909111065002159e-05,1.57098555,0.786004185,0.04,0.03999999075,-9.826497199999997,0.001215391827282455,-0.0007219439590066502,8.07241635001966e-05,-0.009080496570101593,6.990674050016985e-05
0.155,0.00016554240699999495,-0.7851165799999996,4.408665170001366e-05,-2.35575328,9.948016730002194e-05,1.5709857,0.78600447,0.04,0.0399999915,-9.826447399999998,0.0012325125979268754,-0.0008418148780067593,8.426777700019982e-05,-0.009192642662680463,7.296858100017265e-05
0.1575,0.00016545278049999486,-0.7851094699999996,4.4328900050013875e-05,-2.35575892,9.986922395002229e-05,1.57098585,0.786004755,0.04,0.03999999225,-9.826397599999996,0.001249633368571296,-0.0009616857970068684,8.781139050020305e-05,-0.009304788755259336,7.603042150017544e-05
0.16,0.0001653631539999948,-0.7851023599999996,4.4571148400014097e-05,-2.3557645600000003,0.00010025828060002266,1.570986,0.78600504,0.04,0.039999993000000005,-9.826347799999997,0.0012667541392157166,-0.0010815567160069775,9.135500400020626e-05,-0.009416934847838208,7.909226200017823e-05
0.1625,0.0001652735274999947,-0.7850952499999996,4.481339675001432e-05,-2.3557702000000003,0.000100647337250023,1.57098615,0.786005325,0.04,0.039999993750000004,-9.826297999999996,0.0012838749098601373,-0.0012014276350070865,9.489861750020949e-05,-0.00952908094041708,8.215410250018102e-05
0.165,0.00016518390099999462,-0.7850881399999996,4.505564510001454e-05,-2.35577584,0.00010103639390002336,1.5709863,0.78600561,0.04,0.039999994500000004,-9.826248199999997,0.0013009956805045578,-0.0013212985540071959,9.844223100021272e-05,-0.009641227032995952,8.52159430001838e-05
0.1675,0.0001650853734999929,-0.7850813679999996,4.53221830000192e-05,-2.35578132,0.00010146397125003076,1.570986615,0.78600599,0.04,0.039999995,-9.826213099999999,0.0013193780963787391,-0.001437467355006628,0.0001023329685002794,-0.009753895737237664,8.851228900022946e-05
0.17,0.0001649690439999928,-0.7850752719999996,4.5637300000019486e-05,-2.3557864800000003,0.00010196859000003121,1.57098726,0.78600656,0.04,0.039999995,-9.8262074,0.001340283802711753,-0.0015462319200067272,0.00010691795400028358,-0.009867609664804773,9.227764600023289e-05
0.17250000000000001,0.0001648527144999927,-0.7850691759999996,4.595241700001978e-05,-2.3557916400000005,0.00010247320875003167,1.570987905,0.78600713,0.04,0.039999995,-9.826201699999999,0.0013611895090447671,-0.001654996485006826,0.00011150293950028775,-0.009981323592371881,9.604300300023632e-05
0.17500000000000002,0.0001647363849999926,-0.7850630799999996,4.626753400002006e-05,-2.3557968000000002,0.00010297782750003213,1.57098855,0.7860077,0.04,0.039999995,-9.826196,0.0013820952153777812,-0.0017637610500069252,0.00011608792500029193,-0.01009503751993899,9.980836000023975e-05
0.1775,0.0001646200554999925,-0.7850569839999996,4.6582651000020345e-05,-2.3558019600000004,0.00010348244625003258,1.5709891950000001,0.7860082700000001,0.04,0.039999995,-9.826190299999999,0.0014030009217107949,-0.001872525615007023,0.00012067291050029606,-0.010208751447506097,0.00010357371700024313
0.18,0.0001645037259999924,-0.7850508879999996,4.6897768000020636e-05,-2.3558071200000006,0.00010398706500003304,1.5709898400000002,0.78600884,0.04,0.039999995,-9.8261846,0.001423906628043809,-0.001981290180007122,0.00012525789600030022,-0.010322465375073206,0.00010733907400024656
0.1825,0.00016438739649999226,-0.7850447919999995,4.721288500002092e-05,-2.3558122800000003,0.0001044916837500335,1.570990485,0.78600941,0.04,0.039999995,-9.826178899999999,0.0014448123343768229,-0.002090054745007221,0.0001298428815003044,-0.010436179302640314,0.00011110443100024999
0.185,0.00016425040499999007,-0.7850393509999997,4.758456760002692e-05,-2.3558167200000004,0.00010508518600004294,1.5709911600000002,0.78600998,0.04,0.0399999955,-9.826218300000004,0.0014660517452298907,-0.0021965142000070874,0.00013437392800030314,-0.01055094469339427,0.00011520276900028703
0.1875,0.00016410308249998996,-0.7850342374999996,4.7984533000027286e-05,-2.3558208000000005,0.00010572313000004352,1.5709918500000002,0.78601055,0.04,0.03999999625,-9.826280250000003,0.0014874580083429352,-0.0023018211000071834,0.00013887800500030724,-0.01066623581574149,0.00011946759750029092
0.19,0.00016395575999998983,-0.7850291239999996,4.8384498400027645e-05,-2.35582488,0.0001063610740000441,1.5709925400000002,0.7860111200000001,0.04,0.039999997,-9.826342200000004,0.0015088642714559796,-0.002407128000007279,0.00014338208200031133,-0.010781526938088709,0.0001237324260002948
0.1925,0.0001638084374999897,-0.7850240104999996,4.878446380002801e-05,-2.35582896,0.00010699901800004468,1.5709932300000002,0.78601169,0.04,0.03999999775,-9.826404150000004,0.0015302705345690243,-0.002512434900007375,0.00014788615900031542,-0.01089681806043593,0.00012799725450029868
0.195,0.00016366111499998957,-0.7850188969999996,4.918442920002838e-05,-2.3558330400000003,0.00010763696200004525,1.57099392,0.78601226,0.04,0.0399999985,-9.826466100000005,0.0015516767976820687,-0.0026177418000074707,0.00015239023600031954,-0.011012109182783149,0.00013226208300030256
0.1975,0.00016351379249998944,-0.7850137834999996,4.958439460002874e-05,-2.3558371200000003,0.00010827490600004583,1.57099461,0.78601283,0.04,0.03999999925,-9.826528050000004,0.0015730830607951132,-0.0027230487000075667,0.00015689431300032364,-0.01112740030513037,0.00013652691150030643
0.2,0.0001633664699999867,-0.7850086699999996,4.998436000003618e-05,-2.3558412000000004,0.00010891285000005767,1.5709953,0.7860134,0.04,0.04,-9.82659,0.0015944893239083202,-0.002828355600005804,0.00016139839000041693,-0.011242691427477709,0.0001407917400003653
0.2025,0.00016318365599998655,-0.7850045389999997,5.0481600400036634e-05,-2.355844335,0.00010970561950005841,1.5709960200000002,0.786014039,0.04,0.04,-9.82659045,0.0016181308659742218,-0.0029081167800058764,0.00016712835700042215,-0.011359629593798135,0.00014581205400036987
0.20500000000000002,0.00016300084199998637,-0.7850004079999997,5.097884080003709e-05,-2.35584747,0.00011049838900005913,1.5709967400000002,0.786014678,0.04,0.04,-9.8265909,0.0016417724080401233,-0.002987877960005949,0.00017285832400042736,-0.011476567760118562,0.00015083236800037444
0.20750000000000002,0.0001628180279999862,-0.7849962769999996,5.147608120003754e-05,-2.355850605,0.00011129115850005985,1.57099746,0.786015317,0.04,0.04,-9.82659135,0.0016654139501060248,-0.0030676391400060216,0.00017858829100043258,-0.011593505926438989,0.00015585268200037902
0.21,0.00016263521399998603,-0.7849921459999997,5.197332160003799e-05,-2.35585374,0.00011208392800006056,1.5709981800000001,0.786015956,0.04,0.04,-9.826591800000001,0.0016890554921719261,-0.0031474003200060935,0.00018431825800043774,-0.011710444092759413,0.00016087299600038354
0.2125,0.00016245239999998587,-0.7849880149999997,5.247056200003844e-05,-2.355856875,0.00011287669750006128,1.5709989000000002,0.786016595,0.04,0.04,-9.826592250000001,0.0017126970342378276,-0.003227161500006166,0.00019004822500044295,-0.01182738225907984,0.00016589331000038812
0.215,0.0001622695859999857,-0.7849838839999997,5.296780240003889e-05,-2.3558600100000002,0.000113669467000062,1.57099962,0.786017234,0.04,0.04,-9.8265927,0.0017363385763037292,-0.0033069226800062387,0.00019577819200044817,-0.011944320425400267,0.00017091362400039267
0.2175,0.00016207340299998236,-0.7849800884999998,5.350176410004806e-05,-2.355862895,0.00011452040650007654,1.5710005100000002,0.786017947,0.04,0.04,-9.826606700000005,0.0017601070925611808,-0.003380725410004897,0.00020189976350054633,-0.012062467169026059,0.00017612131550044172
0.22,0.00016185048199998217,-0.7849769639999998,5.410916840004862e-05,-2.35586528,0.00011548768600007742,1.57100174,0.786018808,0.04,0.04,-9.826647800000003,0.0017841295572016426,-0.0034426112400049533,0.00020880454400055263,-0.01218303106726173,0.0001817037620004468
0.2225,0.00016162756099998197,-0.7849738394999998,5.471657270004917e-05,-2.3558676650000003,0.0001164549655000783,1.57100297,0.7860196690000001,0.04,0.04,-9.826688900000004,0.0018081520218421045,-0.0035044970700050097,0.0002157093245005589,-0.012303594965497398,0.0001872862085004519
0.225,0.00016140463999998175,-0.7849707149999998,5.532397700004972e-05,-2.35587005,0.00011742224500007919,1.5710042,0.78602053,0.04,0.04,-9.826730000000003,0.0018321744864825663,-0.003566382900005066,0.0002226141050005652,-0.012424158863733069,0.00019286865500045696
0.2275,0.00016118171899998156,-0.7849675904999998,5.5931381300050274e-05,-2.355872435,0.00011838952450008007,1.57100543,0.7860213910000001,0.04,0.04,-9.826771100000004,0.0018561969511230283,-0.0036282687300051224,0.00022951888550057148,-0.01254472276196874,0.00019845110150046205
0.23,0.00016095879799998136,-0.7849644659999998,5.6538785600050825e-05,-2.3558748200000004,0.00011935680400008095,1.57100666,0.7860222520000001,0.04,0.04,-9.826812200000004,0.00188021941576349,-0.0036901545600051787,0.00023642366600057778,-0.012665286660204408,0.00020403354800046714
0.2325,0.00016073587699998117,-0.7849613414999997,5.714618990005138e-05,-2.3558772050000005,0.00012032408350008183,1.57100789,0.7860231130000002,0.04,0.04,-9.826853300000003,0.0019042418804039519,-0.003752040390005235,0.00024332844650058405,-0.012785850558440079,0.00020961599450047223
0.23500000000000001,0.00016048303399997712,-0.7849589099999998,5.783585060006248e-05,-2.35587916,0.00012142265400009955,1.57100916,0.7860241250000002,0.04,0.04,-9.826911100000006,0.0019309753668518015,-0.0038097232500047522,0.0002505167960006267,-0.012908209860335328,0.0002157815960005521
0.23750000000000002,0.00016021522999997687,-0.7849568249999999,5.856663950006315e-05,-2.3558809000000003,0.0001225868700001006,1.5710104500000002,0.7860252125000001,0.04,0.04,-9.826977250000006,0.001959064364202827,-0.0038653046250048026,0.00025784693000063336,-0.013031466864060025,0.00022223877500055796
0.24,0.00015994742599997663,-0.7849547399999999,5.92974284000638e-05,-2.3558826400000004,0.00012375108600010164,1.57101174,0.7860263000000002,0.04,0.04,-9.827043400000006,0.001987153361553852,-0.003920886000004853,0.00026517706400064,-0.013154723867784721,0.00022869595400056377
0.2425,0.00015967962199997637,-0.7849526549999999,6.0028217300064466e-05,-2.35588438,0.0001249153020001027,1.57101303,0.7860273875000001,0.04,0.04,-9.827109550000007,0.002015242358904878,-0.003976467375004903,0.00027250719800064665,-0.013277980871509418,0.00023515313300056964
0.245,0.00015941181799997611,-0.7849505699999999,6.075900620006513e-05,-2.35588612,0.00012607951800010377,1.5710143200000002,0.7860284750000002,0.04,0.04,-9.827175700000007,0.0020433313562559035,-0.004032048750004954,0.0002798373320006533,-0.013401237875234116,0.0002416103120005755
0.2475,0.00015914401399997588,-0.7849484849999998,6.148979510006579e-05,-2.35588786,0.00012724373400010484,1.5710156100000001,0.7860295625000001,0.04,0.04,-9.827241850000007,0.002071420353606929,-0.004087630125005005,0.00028716746600066,-0.013524494878958812,0.0002480674910005814
0.25,0.00015887620999997112,-0.7849463999999999,6.222058400007891e-05,-2.3558896,0.0001284079500001257,1.5710169000000003,0.7860306500000002,0.04,0.04,-9.82730800000001,0.0020995093509578846,-0.004143211500002507,0.00029449760000071617,-0.013647751882684047,0.00025452467000064145
0.2525,0.00015855868249997081,-0.7849453424999999,6.308834900007971e-05,-2.355890245,0.00012979002150012697,1.5710184150000002,0.7860317975000002,0.04,0.04,-9.82740715000001,0.0021268296404765947,-0.004170781470002533,0.0003023721425007234,-0.013776914076891474,0.00026157762200064785
0.255,0.00015824115499997053,-0.7849442849999999,6.39561140000805e-05,-2.35589089,0.00013117209300012823,1.57101993,0.7860329450000001,0.04,0.04,-9.827506300000008,0.0021541499299953045,-0.004198351440002557,0.00031024668500073053,-0.013906076271098902,0.0002686305740006543
0.2575,0.00015792362749997025,-0.7849432274999999,6.482387900008129e-05,-2.355891535,0.00013255416450012948,1.5710214450000002,0.7860340925000001,0.04,0.04,-9.827605450000009,0.002181470219514014,-0.004225921410002583,0.0003181212275007377,-0.01403523846530633,0.0002756835260006607
0.26,0.00015760609999996994,-0.7849421699999999,6.569164400008208e-05,-2.35589218,0.00013393623600013073,1.57102296,0.7860352400000001,0.04,0.04,-9.82770460000001,0.0022087905090327244,-0.004253491380002607,0.00032599577000074484,-0.014164400659513758,0.00028273647800066716
0.2625,0.00015728857249996966,-0.7849411125,6.655940900008288e-05,-2.3558928249999997,0.000135318307500132,1.5710244750000002,0.7860363875,0.04,0.04,-9.82780375000001,0.002236110798551434,-0.004281061350002633,0.00033387031250075206,-0.014293562853721185,0.00028978943000067356
0.265,0.00015697104499996938,-0.784940055,6.742717400008366e-05,-2.35589347,0.00013670037900013324,1.57102599,0.7860375350000001,0.04,0.04,-9.827902900000009,0.002263431088070144,-0.004308631320002658,0.0003417448550007592,-0.014422725047928613,0.00029684238200067996
0.2675,0.00015663528799996377,-0.7849393560000001,6.834519880009913e-05,-2.355893765,0.00013816202450015773,1.5710276200000002,0.7860387750000001,0.04,0.04,-9.827989700000005,0.0022913196240579247,-0.004332215335001519,0.0003501140195009108,-0.014553253678617914,0.0003040979775007456
0.27,0.00015626307199996344,-0.784939374,6.936374320010006e-05,-2.35589336,0.0001397828180001592,1.5710294800000002,0.7860402000000001,0.04,0.04,-9.828051800000006,0.002320344652983351,-0.004347827440001534,0.0003594724280009193,-0.014686515182269771,0.00031175886000075256
0.2725,0.0001558908559999631,-0.7849393920000001,7.038228760010098e-05,-2.355892955,0.0001414036115001607,1.5710313400000002,0.7860416250000001,0.04,0.04,-9.828113900000005,0.0023493696819087777,-0.004363439545001548,0.00036883083650092783,-0.014819776685921628,0.00031941974250075954
0.275,0.00015551863999996277,-0.78493941,7.140083200010191e-05,-2.3558925499999996,0.00014302440500016216,1.5710332000000002,0.7860430500000001,0.04,0.04,-9.828176000000006,0.002378394710834204,-0.004379051650001562,0.00037818924500093633,-0.014953038189573484,0.0003270806250007665
0.2775,0.0001551464239999624,-0.784939428,7.241937640010284e-05,-2.355892145,0.00014464519850016365,1.5710350600000003,0.7860444750000001,0.04,0.04,-9.828238100000007,0.0024074197397596303,-0.004394663755001576,0.0003875476535009449,-0.015086299693225341,0.0003347415075007735
0.28,0.00015477420799996208,-0.784939446,7.343792080010376e-05,-2.3558917399999997,0.00014626599200016511,1.5710369200000003,0.7860459000000001,0.04,0.04,-9.828300200000006,0.002436444768685057,-0.004410275860001591,0.0003969060620009534,-0.015219561196877196,0.0003424023900007805
0.28250000000000003,0.00015440199199996175,-0.784939464,7.44564652001047e-05,-2.355891335,0.0001478867855001666,1.5710387800000003,0.7860473250000001,0.04,0.04,-9.828362300000007,0.0024654697976104834,-0.0044258879650016045,0.0004062644705009619,-0.015352822700529054,0.00035006327250078746
0.28500000000000003,0.00015398994899995522,-0.7849402230000001,7.558486250012271e-05,-2.35589038,0.00014968291500019534,1.5710409300000003,0.7860489460000002,0.04,0.04,-9.828431600000007,0.0024969390127841597,-0.004427093149999378,0.00041592312800101713,-0.015488966368153017,0.0003583406700008903
0.28750000000000003,0.00015355799249995483,-0.7849413525000001,7.676818625012378e-05,-2.35588915,0.00015156671250019706,1.5710432250000004,0.7860506650000002,0.04,0.04,-9.828504500000008,0.0025296303210813947,-0.004421094874999373,0.0004257319100010261,-0.015626551117762368,0.0003669263250008981
0.29,0.00015312603599995444,-0.784942482,7.795151000012484e-05,-2.35588792,0.00015345051000019875,1.5710455200000002,0.7860523840000002,0.04,0.04,-9.828577400000007,0.002562321629378629,-0.004415096599999367,0.00043554069200103476,-0.015764135867371715,0.00037551198000090576
0.2925,0.00015269407949995405,-0.7849436115,7.913483375012591e-05,-2.3558866899999997,0.00015533430750020046,1.5710478150000002,0.7860541030000002,0.04,0.04,-9.828650300000007,0.0025950129376758634,-0.004409098324999362,0.0004453494740010437,-0.015901720616981065,0.0003840976350009136
0.295,0.00015226212299995363,-0.7849447410000001,8.0318157500127e-05,-2.3558854599999997,0.00015721810500020218,1.5710501100000003,0.7860558220000002,0.04,0.04,-9.828723200000008,0.0026277042459730985,-0.004403100049999356,0.00045515825600105265,-0.016039305366590415,0.0003926832900009214
0.2975,0.00015183016649995324,-0.7849458705000001,8.150148125012806e-05,-2.35588423,0.0001591019025002039,1.571052405,0.7860575410000002,0.04,0.04,-9.828796100000007,0.002660395554270333,-0.004397101774999351,0.00046496703800106155,-0.016176890116199764,0.0004012689450009292
0.3,0.00015139820999994578,-0.7849470000000002,8.268480500014868e-05,-2.3558829999999995,0.00016098570000023667,1.5710547000000001,0.7860592600000003,0.04,0.04,-9.828869000000012,0.0026930868625674744,-0.0043911034999973755,0.00047477582000113723,-0.016314474865809715,0.00040985460000100534
0.3025,0.00015090146099994533,-0.7849492590000002,8.404710125014992e-05,-2.35588075,0.00016315410450023864,1.5710571300000002,0.7860612010000002,0.04,0.04,-9.828982250000012,0.002724919794130768,-0.004367056729997354,0.00048519624200114674,-0.01645756680519956,0.0004190664090010137
0.305,0.00015040471199994487,-0.7849515180000002,8.540939750015116e-05,-2.3558784999999998,0.0001653225090002406,1.5710595600000001,0.7860631420000003,0.04,0.04,-9.829095500000012,0.002756752725694062,-0.004343009959997332,0.0004956166640011562,-0.016600658744589405,0.0004282782180010221
0.3075,0.00014990796299994442,-0.7849537770000002,8.67716937501524e-05,-2.3558762499999997,0.00016749091350024258,1.5710619900000002,0.7860650830000002,0.04,0.04,-9.829208750000012,0.0027885856572573563,-0.00431896318999731,0.0005060370860011657,-0.01674375068397925,0.0004374900270010305
0.31,0.00014941121399994397,-0.7849560360000002,8.813399000015364e-05,-2.3558739999999996,0.00016965931800024455,1.5710644200000004,0.7860670240000003,0.04,0.04,-9.829322000000014,0.00282041858882065,-0.004294916419997288,0.0005164575080011752,-0.016886842623369095,0.0004467018360010389
0.3125,0.00014891446499994352,-0.7849582950000003,8.949628625015488e-05,-2.35587175,0.00017182772250024653,1.5710668500000002,0.7860689650000002,0.04,0.04,-9.829435250000014,0.0028522515203839444,-0.004270869649997266,0.0005268779300011847,-0.01702993456275894,0.00045591364500104727
0.315,0.00014841771599994306,-0.7849605540000003,9.085858250015612e-05,-2.3558695,0.0001739961270002485,1.5710692800000003,0.7860709060000002,0.04,0.04,-9.829548500000014,0.002884084451947238,-0.004246822879997244,0.0005372983520011942,-0.017173026502148785,0.00046512545400105565
0.3175,0.00014789765599993455,-0.7849632020000004,9.228531550017968e-05,-2.3558669199999995,0.0001762664965002858,1.5710718950000004,0.7860729300000002,0.04,0.04,-9.829660725000014,0.0029167436296159486,-0.004213017314993841,0.0005480444675013165,-0.017318360321241018,0.00047454397700113566
0.32,0.00014733097399993402,-0.7849666280000004,9.38409220001811e-05,-2.3558636799999997,0.00017874079600028805,1.5710748800000003,0.7860751200000002,0.04,0.04,-9.829770900000014,0.0029510552994946346,-0.004159694159993792,0.0005594419700013269,-0.0174681778997357,0.0004843759280011446
0.3225,0.0001467642919999335,-0.7849700540000004,9.539652850018252e-05,-2.35586044,0.0001812150955002903,1.5710778650000004,0.7860773100000003,0.04,0.04,-9.829881075000014,0.002985366969373321,-0.004106371004993743,0.0005708394725013373,-0.017617995478230383,0.0004942078790011535
0.325,0.00014619760999993298,-0.7849734800000004,9.695213500018393e-05,-2.3558571999999995,0.00018368939500029258,1.5710808500000004,0.7860795000000003,0.04,0.04,-9.829991250000013,0.0030196786392520073,-0.004053047849993695,0.0005822369750013476,-0.017767813056725063,0.0005040398300011625
0.3275,0.0001456309279999325,-0.7849769060000004,9.850774150018535e-05,-2.3558539599999997,0.00018616369450029482,1.5710838350000003,0.7860816900000003,0.04,0.04,-9.830101425000015,0.0030539903091306936,-0.0039997246949936465,0.000593634477501358,-0.017917630635219745,0.0005138717810011714
0.33,0.00014506424599993196,-0.7849803320000004,0.00010006334800018677,-2.3558507199999994,0.00018863799400029707,1.5710868200000003,0.7860838800000003,0.04,0.04,-9.830211600000014,0.0030883019790093795,-0.003946401539993598,0.0006050319800013684,-0.018067448213714428,0.0005237037320011804
0.3325,0.00014449756399993144,-0.7849837580000004,0.00010161895450018817,-2.3558474799999995,0.00019111229350029932,1.5710898050000002,0.7860860700000002,0.04,0.04,-9.830321775000014,0.003122613648888066,-0.0038930783849935495,0.0006164294825013787,-0.018217265792209107,0.0005335356830011894
0.335,0.0001438807999999218,-0.7849880200000006,0.00010331302600021491,-2.355843519999999,0.00019380765400034197,1.5710930400000003,0.7860884450000003,0.04,0.04,-9.830428450000014,0.0031597010791347795,-0.0038318592499920574,0.000628449345001503,-0.01837048381568885,0.0005440232230013182
0.3375,0.0001432389949999212,-0.7849927000000005,0.00010507633000021652,-2.3558391999999992,0.00019661354500034452,1.5710964000000003,0.7860909125000003,0.04,0.04,-9.830533375000014,0.0031981763895647494,-0.003766692124991998,0.0006407803875015141,-0.018525402061660198,0.0005548385575013281
0.34,0.0001425971899999206,-0.7849973800000005,0.00010683963400021813,-2.3558348799999993,0.0001994194360003471,1.5710997600000003,0.7860933800000003,0.04,0.04,-9.830638300000015,0.0032366516999947194,-0.003701524999991939,0.0006531114300015254,-0.018680320307631542,0.0005656538920013379
0.3425,0.00014195538499992003,-0.7850020600000006,0.00010860293800021973,-2.3558305599999994,0.00020222532700034965,1.5711031200000005,0.7860958475000003,0.04,0.04,-9.830743225000013,0.0032751270104246894,-0.0036363578749918795,0.0006654424725015366,-0.01883523855360289,0.0005764692265013478
0.34500000000000003,0.00014131357999991944,-0.7850067400000006,0.00011036624200022133,-2.3558262399999994,0.0002050312180003522,1.5711064800000005,0.7860983150000003,0.04,0.04,-9.830848150000014,0.0033136023208546594,-0.00357119074999182,0.0006777735150015478,-0.018990156799574234,0.0005872845610013575
0.34750000000000003,0.00014067177499991888,-0.7850114200000006,0.00011212954600022294,-2.3558219199999995,0.00020783710900035474,1.5711098400000005,0.7861007825000004,0.04,0.04,-9.830953075000014,0.00335207763128463,-0.003506023624991761,0.0006901045575015591,-0.019145075045545582,0.0005980998955013674
0.35000000000000003,0.00014002996999990807,-0.7850161000000008,0.00011389285000025284,-2.355817599999999,0.0002106430000004023,1.5711132000000005,0.7861032500000004,0.04,0.04,-9.831058000000015,0.003390552941714478,-0.003440856499987062,0.000702435600001689,-0.019299993291517728,0.0006089152300014566
0.3525,0.00013930789249990742,-0.7850220100000007,0.0001158782920002546,-2.3558121549999993,0.0002138020450004051,1.5711168150000006,0.7861060325000003,0.04,0.04,-9.831173500000014,0.0034280729596550615,-0.003339257104986972,0.0007156991790017008,-0.0194611920975355,0.0006203539345014668
0.355,0.00013858581499990674,-0.7850279200000008,0.0001178637340002564,-2.355806709999999,0.00021696109000040795,1.5711204300000006,0.7861088150000004,0.04,0.04,-9.831289000000016,0.0034655929775956455,-0.0032376577099868793,0.0007289627580017129,-0.019622390903553277,0.0006317926390014772
0.3575,0.0001378637374999061,-0.7850338300000008,0.0001198491760002582,-2.3558012649999993,0.00022012013500041083,1.5711240450000006,0.7861115975000004,0.04,0.04,-9.831404500000016,0.0035031129955362295,-0.003136058314986787,0.0007422263370017249,-0.019783589709571052,0.0006432313435014876
0.36,0.00013714165999990544,-0.7850397400000008,0.00012183461800026002,-2.355795819999999,0.00022327918000041372,1.5711276600000006,0.7861143800000003,0.04,0.04,-9.831520000000015,0.003540633013476814,-0.0030344589199866943,0.0007554899160017371,-0.01994478851558883,0.0006546700480014981
0.3625,0.00013641958249990477,-0.7850456500000008,0.00012382006000026183,-2.3557903749999993,0.0002264382250004166,1.5711312750000004,0.7861171625000004,0.04,0.04,-9.831635500000015,0.003578153031417398,-0.002932859524986602,0.0007687534950017491,-0.020105987321606608,0.0006661087525015085
0.365,0.00013569750499990412,-0.7850515600000008,0.00012580550200026362,-2.355784929999999,0.00022959727000041946,1.5711348900000004,0.7861199450000004,0.04,0.04,-9.831751000000015,0.003615673049357982,-0.0028312601299865093,0.0007820170740017612,-0.020267186127624383,0.0006775474570015189
0.3675,0.00013494693799989202,-0.785057910000001,0.00012786982850029706,-2.355779104999999,0.00023288120800047245,1.5711386850000004,0.7861228350000004,0.03999999975,0.04,-9.831871200000018,0.003653963061520505,-0.002722632394983598,0.0007955497470018811,-0.02043088963257534,0.0006891988845016146
0.37,0.0001341393919998913,-0.7850651400000009,0.0001300919240002991,-2.355772519999999,0.00023641493200047566,1.5711428400000005,0.7861259400000004,0.039999999,0.04,-9.832000800000017,0.0036937930621259813,-0.0025999479799834863,0.000809620608001894,-0.020599602535389647,0.0007012757580016256
0.3725,0.00013333184599989057,-0.785072370000001,0.00013231401950030113,-2.355765934999999,0.00023994865600047887,1.5711469950000005,0.7861290450000004,0.03999999825,0.04,-9.832130400000016,0.0037336230627314573,-0.0024772635649833747,0.0008236914690019068,-0.020768315438203958,0.0007133526315016366
0.375,0.00013252429999988983,-0.785079600000001,0.00013453611500030316,-2.355759349999999,0.0002434823800004821,1.5711511500000006,0.7861321500000004,0.0399999975,0.04,-9.832260000000018,0.0037734530633369338,-0.002354579149983263,0.0008377623300019196,-0.020937028341018266,0.0007254295050016476
0.3775,0.0001317167539998891,-0.785086830000001,0.00013675821050030518,-2.355752764999999,0.00024701610400048533,1.5711553050000004,0.7861352550000004,0.03999999675,0.04,-9.832389600000017,0.00381328306394241,-0.002231894734983151,0.0008518331910019325,-0.021105741243832573,0.0007375063785016586
0.38,0.00013090920799988835,-0.7850940600000009,0.0001389803060003072,-2.3557461799999992,0.0002505498280004885,1.5711594600000005,0.7861383600000004,0.039999996,0.04,-9.832519200000018,0.003853113064547886,-0.0021092103199830394,0.0008659040520019453,-0.021274454146646884,0.0007495832520016696
0.3825,0.00013010166199988764,-0.785101290000001,0.00014120240150030923,-2.3557395949999993,0.00025408355200049176,1.5711636150000006,0.7861414650000004,0.03999999525,0.04,-9.832648800000017,0.0038929430651533626,-0.001986525904982928,0.0008799749130019581,-0.02144316704946119,0.0007616601255016806
0.385,0.00012923366999987419,-0.7851093960000012,0.00014359191400034642,-2.355732259999999,0.00025788297000055077,1.5711681400000006,0.7861448040000004,0.039999994500000004,0.04,-9.832771400000016,0.003934633452451209,-0.0018464843599791693,0.0008946370500020951,-0.021615938283527494,0.0007742343550017961
0.3875,0.00012833545499987337,-0.7851179400000011,0.00014606513500034867,-2.3557245499999993,0.0002618152350005544,1.5711728500000006,0.7861482600000005,0.039999993750000004,0.04,-9.832890500000017,0.0039772540330946585,-0.001697764249979034,0.0009095948250021087,-0.021790738683218517,0.0007870572625018078
0.39,0.00012743723999987256,-0.7851264840000012,0.00014853835600035092,-2.355716839999999,0.0002657475000005579,1.5711775600000006,0.7861517160000004,0.039999993000000005,0.04,-9.833009600000016,0.004019874613738107,-0.0015490441399788986,0.0009245526000021223,-0.02196553908290954,0.0007998801700018195
0.3925,0.00012653902499987172,-0.7851350280000011,0.00015101157700035317,-2.355709129999999,0.00026967976500056153,1.5711822700000007,0.7861551720000005,0.03999999225,0.04,-9.833128700000017,0.004062495194381556,-0.0014003240299787633,0.000939510375002136,-0.022140339482600566,0.0008127030775018311
0.395,0.0001256408099998709,-0.7851435720000012,0.00015348479800035542,-2.355701419999999,0.0002736120300005651,1.5711869800000007,0.7861586280000005,0.0399999915,0.04,-9.833247800000018,0.004105115775025005,-0.001251603919978628,0.0009544681500021496,-0.022315139882291588,0.0008255259850018428
0.3975,0.0001247425949998701,-0.7851521160000012,0.00015595801900035767,-2.355693709999999,0.0002775442950005687,1.5711916900000007,0.7861620840000005,0.03999999075,0.04,-9.833366900000017,0.004147736355668454,-0.0011028838099784925,0.0009694259250021631,-0.022489940281982614,0.0008383488925018545
0.4,0.00012384437999985533,-0.7851606600000014,0.00015843124000039857,-2.3556859999999986,0.00028147656000063366,1.5711964000000007,0.7861655400000006,0.03999999,0.04,-9.833486000000022,0.004190356936312294,-0.0009541636999749665,0.0009843837000023058,-0.022664740681674643,0.0008511718000019944
0.4025,0.00012285032399985443,-0.7851706110000014,0.00016117003300040105,-2.3556769999999987,0.0002858309070006376,1.5712016950000007,0.7861693665000006,0.0399999897,0.03999999925,-9.833626850000021,0.004235670622444771,-0.00078214581647481,0.0010002287850023202,-0.022846446931388712,0.0008648762890020069
0.405,0.00012185626799985352,-0.7851805620000014,0.00016390882600040356,-2.3556679999999988,0.0002901852540006416,1.5712069900000007,0.7861731930000005,0.0399999894,0.0399999985,-9.83376770000002,0.004280984308577247,-0.0006101279329746533,0.0010160738700023346,-0.023028153181102785,0.0008785807780020194
0.40750000000000003,0.00012086221199985262,-0.7851905130000014,0.00016664761900040605,-2.355658999999999,0.0002945396010006456,1.5712122850000008,0.7861770195000006,0.0399999891,0.03999999775,-9.833908550000022,0.004326297994709723,-0.0004381100494744968,0.001031918955002349,-0.023209859430816854,0.0008922852670020319
0.41000000000000003,0.0001198681559998517,-0.7852004640000014,0.00016938641200040856,-2.3556499999999985,0.00029889394800064955,1.5712175800000008,0.7861808460000006,0.0399999888,0.039999997,-9.834049400000021,0.0043716116808421995,-0.0002660921659743402,0.0010477640400023635,-0.023391565680530923,0.0009059897560020442
0.41250000000000003,0.00011887409999985081,-0.7852104150000014,0.00017212520500041104,-2.3556409999999985,0.0003032482950006535,1.5712228750000008,0.7861846725000006,0.0399999885,0.03999999625,-9.83419025000002,0.004416925366974676,-9.407428247418356e-05,0.0010636091250023779,-0.023573271930244995,0.0009196942450020567
0.41500000000000004,0.00011788004399984991,-0.7852203660000016,0.00017486399800041355,-2.3556319999999986,0.00030760264200065747,1.5712281700000008,0.7861884990000005,0.0399999882,0.0399999955,-9.834331100000021,0.004462239053107152,7.794360102597305e-05,0.0010794542100023925,-0.023754978179959065,0.0009333987340020692
0.4175,0.00011685231649983368,-0.7852308000000018,0.0001776961130004585,-2.3556225999999985,0.0003121052945007289,1.5712336450000008,0.7861924505000006,0.039999988,0.039999995,-9.834461250000016,0.004507909226238285,0.0002626250955318958,0.0010955804550025346,-0.023938795551686227,0.0009473544420021959
0.42,0.00011575724599983268,-0.7852422000000018,0.00018071487200046124,-2.3556123999999983,0.00031690455800073325,1.571239480000001,0.7861966520000007,0.039999988,0.039999995,-9.834570000000017,0.004554292373366247,0.00047263381203208705,0.00111226902000255,-0.02412683516743671,0.000961812588002209
0.4225,0.00011466217549983169,-0.7852536000000018,0.00018373363100046398,-2.3556021999999985,0.00032170382150073767,1.571245315000001,0.7862008535000007,0.039999988,0.039999995,-9.834678750000016,0.004600675520494209,0.0006826425285322783,0.001128957585002565,-0.024314874783187192,0.0009762707340022222
0.425,0.0001135671049998307,-0.7852650000000018,0.00018675239000046673,-2.3555919999999984,0.00032650308500074203,1.571251150000001,0.7862050550000006,0.039999988,0.039999995,-9.834787500000017,0.004647058667622171,0.0008926512450324695,0.0011456461500025802,-0.02450291439893767,0.0009907288800022353
0.4275,0.0001124720344998297,-0.7852764000000018,0.00018977114900046947,-2.355581799999998,0.0003313023485007464,1.5712569850000009,0.7862092565000006,0.039999988,0.039999995,-9.834896250000018,0.004693441814750133,0.0011026599615326605,0.0011623347150025954,-0.024690954014688155,0.0010051870260022486
0.43,0.00011137696399982869,-0.7852878000000018,0.00019278990800047224,-2.3555715999999984,0.00033610161200075075,1.571262820000001,0.7862134580000006,0.039999988,0.039999995,-9.835005000000017,0.0047398249618780955,0.0013126686780328518,0.0011790232800026107,-0.024878993630438634,0.0010196451720022618
0.4325,0.0001102818934998277,-0.7852992000000018,0.00019580866700047499,-2.3555613999999983,0.0003409008755007551,1.571268655000001,0.7862176595000007,0.039999988,0.039999995,-9.835113750000017,0.004786208109006058,0.001522677394533043,0.0011957118450026257,-0.025067033246189117,0.0010341033180022749
0.435,0.00010911606499980991,-0.785311607000002,0.0001990236340005243,-2.355550269999998,0.0003460118910008335,1.571274850000001,0.7862221590000007,0.039999988,0.039999995,-9.835250400000024,0.004835432255648565,0.0017506255400374926,0.0012130198900027881,-0.025259836949438917,0.0010490597400024063
0.4375,0.00010791485749980881,-0.7853245175000021,0.0002023367050005273,-2.3555386749999982,0.0003512787825008383,1.571281225000001,0.7862268075000007,0.039999988,0.039999995,-9.835401000000024,0.004886076902047336,0.0019875434000377083,0.0012306376750028042,-0.02545502269643669,0.0010642653000024203
0.44,0.00010671364999980773,-0.7853374280000021,0.00020564977600053032,-2.355527079999998,0.0003565456740008431,1.5712876000000011,0.7862314560000008,0.039999988,0.039999995,-9.835551600000025,0.004936721548446107,0.002224461260037924,0.00124825546000282,-0.025650208443434463,0.001079470860002434
0.4425,0.00010551244249980663,-0.7853503385000021,0.00020896284700053333,-2.355515484999998,0.0003618125655008479,1.571293975000001,0.7862361045000007,0.039999988,0.039999995,-9.835702200000025,0.004987366194844878,0.0024613791200381397,0.0012658732450028362,-0.025845394190432237,0.001094676420002448
0.445,0.00010431123499980554,-0.7853632490000021,0.00021227591800053634,-2.3555038899999983,0.0003670794570008527,1.5713003500000011,0.7862407530000007,0.039999988,0.039999995,-9.835852800000024,0.005038010841243648,0.0026982969800383554,0.0012834910300028523,-0.02604057993743001,0.0011098819800024616
0.4475,0.00010311002749980444,-0.7853761595000022,0.00021558898900053938,-2.355492294999998,0.0003723463485008575,1.571306725000001,0.7862454015000008,0.039999988,0.039999995,-9.836003400000026,0.00508865548764242,0.002935214840038571,0.0013011088150028684,-0.02623576568442778,0.0011250875400024756
0.45,0.00010190881999978514,-0.7853890700000024,0.00021890206000059289,-2.355480699999998,0.0003776132400009425,1.5713131000000011,0.7862500500000008,0.039999988,0.039999995,-9.836154000000022,0.0051393001340413295,0.0031721327000445755,0.0013187266000029886,-0.02643095143142665,0.001140293100002591
0.4525,0.00010059637489978394,-0.7854035345000024,0.0002225236735005962,-2.355467814999998,0.00038337027600094775,1.5713200600000012,0.7862550825000009,0.039999988,0.03999999575,-9.836279850000022,0.005190789815978186,0.0034444103000448234,0.0013369812850030052,-0.02663282118741018,0.0011561195100026054
0.455,9.928392979978274e-05,-0.7854179990000024,0.0002261452870005995,-2.355454929999998,0.00038912731200095303,1.5713270200000011,0.7862601150000008,0.039999988,0.0399999965,-9.836405700000022,0.005242279497915043,0.0037166879000450712,0.001355235970003022,-0.026834690943393705,0.0011719459200026199
0.4575,9.797148469978155e-05,-0.7854324635000024,0.00022976690050060278,-2.355442044999998,0.00039488434800095826,1.5713339800000012,0.7862651475000009,0.039999988,0.03999999725,-9.836531550000021,0.0052937691798519,0.003988965500045319,0.0013734906550030384,-0.027036560699377234,0.0011877723300026343
0.46,9.665903959978036e-05,-0.7854469280000024,0.00023338851400060608,-2.355429159999998,0.0004006413840009635,1.5713409400000011,0.7862701800000008,0.039999988,0.039999998,-9.836657400000021,0.005345258861788757,0.004261243100045567,0.001391745340003055,-0.027238430455360764,0.0012035987400026485
0.4625,9.534659449977916e-05,-0.7854613925000024,0.0002370101275006094,-2.355416274999998,0.0004063984200009687,1.5713479000000012,0.7862752125000009,0.039999988,0.03999999875,-9.836783250000021,0.005396748543725614,0.004533520700045815,0.0014100000250030717,-0.027440300211344294,0.001219425150002663
0.465,9.403414939977796e-05,-0.7854758570000024,0.00024063174100061267,-2.355403389999998,0.00041215545600097395,1.5713548600000011,0.7862802450000008,0.039999988,0.0399999995,-9.836909100000021,0.005448238225662471,0.004805798300046063,0.0014282547100030883,-0.027642169967327823,0.0012352515600026774
0.4675,9.268293219975698e-05,-0.7854908500000026,0.00024436091100067084,-2.3553900449999974,0.0004180834070010664,1.5713620250000013,0.7862854425000009,0.0399999878,0.03999999975,-9.837043500000025,0.005501035996722165,0.005089782835052284,0.0014468599800032838,-0.02784662134948951,0.0012513696650028408
0.47000000000000003,9.125417079975568e-05,-0.7855069000000027,0.00024830519400067445,-2.3553757799999975,0.0004243531880010721,1.5713696000000013,0.7862909700000009,0.0399999872,0.039999999,-9.837195000000026,0.0055564499460255354,0.005397181240052564,0.0014661664200033013,-0.028056235984003565,0.001268071160002856
0.47250000000000003,8.982540939975439e-05,-0.7855229500000027,0.00025224947700067807,-2.3553615149999976,0.0004306229690010778,1.5713771750000014,0.786296497500001,0.0399999866,0.03999999825,-9.837346500000026,0.005611863895328906,0.005704579645052844,0.0014854728600033188,-0.02826585061851762,0.0012847726550028712
0.47500000000000003,8.839664799975308e-05,-0.7855390000000028,0.00025619376000068163,-2.3553472499999977,0.0004368927500010835,1.5713847500000013,0.7863020250000009,0.039999986,0.0399999975,-9.837498000000027,0.0056672778446322765,0.006011978050053124,0.0015047793000033366,-0.028475465253031677,0.0013014741500028864
0.47750000000000004,8.696788659975178e-05,-0.7855550500000028,0.00026013804300068524,-2.3553329849999978,0.0004431625310010893,1.5713923250000013,0.786307552500001,0.0399999854,0.03999999675,-9.837649500000026,0.005722691793935647,0.006319376455053404,0.001524085740003354,-0.028685079887545734,0.0013181756450029016
0.48,8.553912519975052e-05,-0.7855711000000029,0.00026408232600068875,-2.355318719999998,0.0004494323120010948,1.5713999000000014,0.7863130800000009,0.0399999848,0.039999996,-9.837801000000027,0.005778105743239016,0.006626774860053677,0.0015433921800033714,-0.028894694522059783,0.0013348771400029163
0.4825,8.411036379974922e-05,-0.7855871500000028,0.00026802660900069236,-2.3553044549999975,0.0004557020930011005,1.5714074750000013,0.7863186075000009,0.039999984200000005,0.03999999525,-9.837952500000027,0.005833519692542386,0.006934173265053956,0.0015626986200033889,-0.02910430915657384,0.0013515786350029315
0.485,8.260072799972652e-05,-0.7856043100000032,0.0002721953470007553,-2.3552892099999974,0.0004623284780012006,1.5714154700000014,0.786324425000001,0.039999983600000004,0.039999994500000004,-9.838093900000025,0.005890257237489157,0.007262398360059748,0.001582430650003519,-0.029318712465503313,0.0013687730400030772
0.4875,8.10506549997251e-05,-0.7856220250000032,0.0002764763125007592,-2.3552734749999975,0.0004691331650012068,1.5714236750000015,0.7863303875000011,0.039999983,0.039999993750000004,-9.838230250000025,0.0059476565802571045,0.007601036800060057,0.0016023754750035372,-0.0295355101116386,0.0013862139000030932
0.49,7.950058199972369e-05,-0.7856397400000031,0.0002807572780007631,-2.355257739999997,0.000475937852001213,1.5714318800000013,0.786336350000001,0.0399999824,0.039999993000000005,-9.838366600000025,0.006005055923025052,0.007939675240060364,0.0016223203000035554,-0.029752307757773884,0.001403654760003109
0.4925,7.795050899972228e-05,-0.7856574550000032,0.000285038243500767,-2.3552420049999974,0.00048274253900121923,1.5714400850000014,0.786342312500001,0.0399999818,0.03999999225,-9.838502950000025,0.006062455265792999,0.008278313680060673,0.0016422651250035736,-0.029969105403909173,0.0014210956200031248
0.495,7.640043599972087e-05,-0.7856751700000032,0.0002893192090007709,-2.355226269999997,0.0004895472260012254,1.5714482900000015,0.786348275000001,0.0399999812,0.0399999915,-9.838639300000025,0.0061198546085609465,0.008616952120060981,0.0016622099500035916,-0.030185903050044458,0.0014385364800031408
0.4975,7.485036299971945e-05,-0.7856928850000032,0.0002936001745007748,-2.355210534999997,0.0004963519130012316,1.5714564950000014,0.786354237500001,0.0399999806,0.03999999075,-9.838775650000025,0.006177253951328894,0.008955590560061288,0.0016821547750036098,-0.030402700696179747,0.0014559773400031567
0.5,7.330028999969507e-05,-0.7857106000000036,0.00029788114000084246,-2.355194799999997,0.0005031566000013391,1.5714647000000015,0.7863602000000012,0.03999998,0.03999999,-9.838912000000025,0.006234653294097337,0.009294229000068665,0.0017020996000037968,-0.030619498342316337,0.0014734182000033064
0.5025000000000001,7.162393499969352e-05,-0.7857299800000036,0.00030251261650084674,-2.355177534999997,0.000510518165001346,1.5714735950000016,0.7863666560000011,0.03999997895,0.0399999891,-9.839052400000027,0.006294784508656474,0.009671723650069018,0.0017229720850038162,-0.030843467824201977,0.0014915957850033235
0.505,6.994757999969202e-05,-0.7857493600000036,0.00030714409300085086,-2.3551602699999967,0.0005178797300013525,1.5714824900000015,0.7863731120000012,0.0399999779,0.0399999882,-9.839192800000026,0.006354915723215607,0.010049218300069353,0.0017438445700038348,-0.031067437306087606,0.0015097733700033397
0.5075000000000001,6.827122499969045e-05,-0.7857687400000036,0.0003117755695008552,-2.355143004999997,0.0005252412950013594,1.5714913850000016,0.7863795680000012,0.03999997685,0.0399999873,-9.839333200000025,0.006415046937774743,0.010426712950069705,0.0017647170550038542,-0.03129140678797324,0.0015279509550033565
0.51,6.659486999968897e-05,-0.7857881200000036,0.0003164070460008593,-2.355125739999997,0.0005326028600013659,1.5715002800000015,0.7863860240000011,0.0399999758,0.0399999864,-9.839473600000026,0.006475178152333877,0.01080420760007004,0.0017855895400038728,-0.031515376269858876,0.0015461285400033727
0.5125,6.491851499968749e-05,-0.7858075000000037,0.00032103852250086343,-2.355108474999997,0.0005399644250013724,1.5715091750000016,0.7863924800000012,0.03999997475,0.0399999855,-9.839614000000026,0.00653530936689301,0.011181702250070376,0.0018064620250038913,-0.0317393457517445,0.0015643061250033888
0.515,6.324215999968592e-05,-0.7858268800000037,0.00032566999900086776,-2.3550912099999968,0.0005473259900013793,1.5715180700000015,0.7863989360000011,0.039999973700000004,0.0399999846,-9.839754400000027,0.006595440581452146,0.011559196900070727,0.0018273345100039108,-0.03196331523363014,0.0015824837100034057
0.5175,6.152207199965973e-05,-0.7858468450000039,0.0003304228785009404,-2.355073449999997,0.0005548804250014947,1.5715272000000018,0.7864055645000012,0.03999997235,0.039999983450000005,-9.839893250000026,0.006656609475624501,0.011948298400077618,0.0018484749500040805,-0.03218963202093416,0.0016009059000035599
0.52,5.9714517999658044e-05,-0.785867980000004,0.0003354185640009451,-2.3550546999999966,0.0005628206000015022,1.5715368000000018,0.7864125380000012,0.0399999704,0.0399999818,-9.840029000000026,0.006719853729021545,0.012360613600078002,0.0018701513000041008,-0.032420643419070985,0.0016198173000035777
0.5225,5.790696399965644e-05,-0.785889115000004,0.00034041424950094956,-2.3550359499999964,0.0005707607750015092,1.5715464000000017,0.7864195115000012,0.03999996845,0.03999998015,-9.840164750000026,0.006783097982418586,0.012772928800078368,0.00189182765000412,-0.0326516548172078,0.0016387287000035945
0.525,5.609940999965475e-05,-0.785910250000004,0.0003454099350009542,-2.3550171999999963,0.0005787009500015166,1.5715560000000017,0.7864264850000012,0.0399999665,0.0399999785,-9.840300500000026,0.00684634223581563,0.013185244000078753,0.0019135040000041403,-0.03288266621534462,0.001657640100003612
0.5275,5.4291855999653144e-05,-0.785931385000004,0.00035040562050095864,-2.3549984499999965,0.0005866411250015236,1.5715656000000018,0.7864334585000013,0.03999996455,0.03999997685,-9.840436250000026,0.006909586489212671,0.013597559200079119,0.0019351803500041594,-0.03311367761348144,0.0016765515000036289
0.53,5.248430199965146e-05,-0.785952520000004,0.00035540130600096326,-2.3549796999999963,0.0005945813000015311,1.5715752000000018,0.7864404320000014,0.0399999626,0.0399999752,-9.840572000000027,0.006972830742609714,0.014009874400079503,0.0019568567000041795,-0.033344689011618266,0.0016954629000036465
0.5325,5.067674799964985e-05,-0.785973655000004,0.0003603969915009677,-2.354960949999996,0.0006025214750015381,1.571584800000002,0.7864474055000014,0.03999996065,0.03999997355,-9.840707750000027,0.007036074996006756,0.01442218960007987,0.001978533050004199,-0.033575700409755084,0.0017143743000036635
0.535,4.8778497799621687e-05,-0.7859959950000045,0.0003656445280010459,-2.354941109999996,0.0006108617440016623,1.571594860000002,0.7864547270000014,0.0399999594,0.0399999723,-9.840851100000028,0.007100934255880912,0.014861144700088032,0.0020006926300043604,-0.033811667934106435,0.0017337696300038224
0.5375,4.683489949961996e-05,-0.7860189375000045,0.0003710179900010507,-2.354920724999996,0.0006194020600016699,1.5716051500000021,0.7864622225000014,0.0399999585,0.03999997125,-9.840998250000029,0.007166601018992915,0.015313419750088434,0.00202309382500438,-0.034050113521562876,0.0017534069250038397
0.54,4.489130119961815e-05,-0.7860418800000045,0.0003763914520010557,-2.354900339999996,0.0006279423760016779,1.571615440000002,0.7864697180000014,0.0399999576,0.0399999702,-9.841145400000029,0.007232267782104921,0.015765694800088857,0.002045495020004401,-0.034288559109019325,0.0017730442200038581
0.5425,4.294770289961642e-05,-0.7860648225000045,0.0003817649140010605,-2.354879954999996,0.0006364826920016854,1.571625730000002,0.7864772135000014,0.0399999567,0.03999996915,-9.841292550000029,0.007297934545216924,0.016217969850089258,0.002067896215004421,-0.034527004696475766,0.0017926815150038754
0.545,4.100410459961461e-05,-0.7860877650000045,0.0003871383760010655,-2.354859569999996,0.0006450230080016934,1.5716360200000021,0.7864847090000014,0.0399999558,0.0399999681,-9.841439700000029,0.007363601308328931,0.01667024490008968,0.002090297410004442,-0.03476545028393222,0.0018123188100038939
0.5475,3.906050629961289e-05,-0.7861107075000046,0.00039251183800107024,-2.354839184999996,0.000653563324001701,1.5716463100000022,0.7864922045000015,0.039999954899999995,0.03999996705,-9.841586850000029,0.007429268071440934,0.017122519950090082,0.0021126986050044616,-0.03500389587138866,0.0018319561050039112
0.55,3.711690799958289e-05,-0.786133650000005,0.00039788530000115353,-2.3548187999999954,0.0006621036400018333,1.5716566000000023,0.7864997000000016,0.039999954,0.039999966,-9.841734000000027,0.007494934834553539,0.01757479500009897,0.0021350998000046347,-0.03524234145884651,0.0018515934000040482
0.5525,3.503248339958104e-05,-0.786158442000005,0.00040364989000115867,-2.3547967799999956,0.0006712651990018414,1.5716676700000023,0.7865077340000016,0.03999995295,0.0399999651,-9.841863450000027,0.00756359309890748,0.01806938175009941,0.0021582621100046553,-0.03548777811234156,0.0018718240650040664
0.555,3.2948058799579094e-05,-0.786183234000005,0.000409414480001164,-2.3547747599999953,0.00068042675800185,1.5716787400000023,0.7865157680000017,0.0399999519,0.0399999642,-9.841992900000026,0.007632251363261424,0.01856396850009987,0.002181424420004677,-0.035733214765836616,0.0018920547300040852
0.5575,3.0863634199577246e-05,-0.7862080260000051,0.00041517907000116914,-2.3547527399999955,0.0006895883170018581,1.5716898100000023,0.7865238020000016,0.03999995085,0.0399999633,-9.842122350000027,0.007700909627615365,0.01905855525010031,0.0022045867300046974,-0.03597865141933167,0.001912285395004103
0.56,2.8779209599575303e-05,-0.786232818000005,0.0004209436600011745,-2.354730719999995,0.0006987498760018667,1.5717008800000023,0.7865318360000016,0.0399999498,0.0399999624,-9.842251800000026,0.007769567891969309,0.019553142000100773,0.0022277490400047194,-0.036224088072826725,0.001932516060004122
0.5625,2.669478499957345e-05,-0.786257610000005,0.0004267082500011796,-2.3547086999999953,0.0007079114350018748,1.5717119500000023,0.7865398700000017,0.03999994875,0.0399999615,-9.842381250000026,0.00783822615632325,0.02004772875010121,0.0022509113500047396,-0.03646952472632177,0.00195274672500414
0.5650000000000001,2.4610360399571507e-05,-0.7862824020000051,0.000432472840001185,-2.3546866799999955,0.0007170729940018833,1.5717230200000023,0.7865479040000016,0.0399999477,0.0399999606,-9.842510700000027,0.007906884420677194,0.020542315500101674,0.0022740736600047615,-0.036714961379816835,0.0019729773900041586
0.5675,2.2477416849539605e-05,-0.7863078285000055,0.00043837219300127357,-2.354664104999995,0.0007264486500020241,1.5717343600000024,0.7865561270000018,0.03999994665,0.039999959700000004,-9.842644200000029,0.007977276807666139,0.02104986460011014,0.0022975045750049483,-0.03696278110151729,0.0019934888250043507
0.5700000000000001,2.0247435399537524e-05,-0.7863345240000055,0.00044454107200127935,-2.354640419999995,0.0007362525000020332,1.5717462400000024,0.7865647280000018,0.0399999456,0.0399999588,-9.84278580000003,0.008051137439921878,0.02158333840011064,0.0023214727000049704,-0.037215366959624144,0.0020145618000043703
0.5725,1.8017453949535545e-05,-0.7863612195000056,0.0004507099510012848,-2.354616734999995,0.0007460563500020419,1.5717581200000026,0.7865733290000019,0.03999994455,0.0399999579,-9.842927400000029,0.008124998072177612,0.02211681220011111,0.0023454408250049917,-0.037467952817730986,0.002035634775004389
0.5750000000000001,1.5787472499533463e-05,-0.7863879150000056,0.0004568788300012906,-2.3545930499999947,0.0007558602000020511,1.5717700000000026,0.7865819300000019,0.039999943499999996,0.039999956999999996,-9.84306900000003,0.008198858704433352,0.022650286000111607,0.0023694089500050143,-0.03772053867583784,0.002056707750004409
0.5775,1.3557491049531484e-05,-0.7864146105000056,0.00046304770900129605,-2.354569364999995,0.0007656640500020598,1.5717818800000025,0.7865905310000019,0.03999994245,0.0399999561,-9.84321060000003,0.008272719336689088,0.023183759800112082,0.0023933770750050355,-0.037973124533944684,0.0020777807250044276
0.58,1.1327509599529504e-05,-0.7864413060000056,0.00046921658800130157,-2.354545679999995,0.0007754679000020685,1.5717937600000025,0.7865991320000019,0.039999941399999996,0.0399999552,-9.84335220000003,0.008346579968944823,0.023717233600112554,0.002417345200005057,-0.03822571039205153,0.0020988537000044463
0.5825,9.097528149527425e-06,-0.7864680015000057,0.0004753854670013073,-2.354521994999995,0.0007852717500020776,1.5718056400000024,0.7866077330000019,0.03999994035,0.039999954299999994,-9.84349380000003,0.008420440601200563,0.024250707400113054,0.002441313325005079,-0.03847829625015839,0.002119926675004466
0.585,6.767408169493477e-06,-0.7864960100000061,0.0004818325340014016,-2.3544971299999946,0.0007955174900022274,1.5718180300000026,0.786616716000002,0.0399999396,0.0399999536,-9.843631300000029,0.00849565742538989,0.024813617100122923,0.002465765630005255,-0.038735420629437294,0.0021414738400046362
0.5875,4.3872189244912585e-06,-0.7865246750000061,0.0004884186950014077,-2.3544716749999943,0.0008059841750022371,1.5718306750000026,0.786625890000002,0.039999939,0.039999953,-9.843766750000029,0.008571552345545371,0.025391244750123464,0.002490460025005278,-0.03899481426930007,0.0021632581000046564
0.59,2.007029679489145e-06,-0.7865533400000062,0.0004950048560014136,-2.3544462199999945,0.0008164508600022464,1.5718433200000026,0.786635064000002,0.0399999384,0.0399999524,-9.843902200000029,0.00864744726570085,0.025968872400123976,0.0025151544200053,-0.039254207909162835,0.0021850423600046757
0.5925,-3.731595655130748e-07,-0.7865820050000062,0.0005015910170014197,-2.3544207649999946,0.0008269175450022563,1.5718559650000028,0.786644238000002,0.039999937799999996,0.039999951799999996,-9.844037650000029,0.008723342185856329,0.026546500050124516,0.002539848815005323,-0.03951360154902561,0.002206826620004696
0.595,-2.7533488105151894e-06,-0.7866106700000063,0.0005081771780014256,-2.3543953099999944,0.0008373842300022655,1.5718686100000028,0.786653412000002,0.0399999372,0.0399999512,-9.84417310000003,0.008799237106011807,0.02712412770012503,0.002564543210005345,-0.039772995188888376,0.002228610880004715
0.5975,-5.133538055517409e-06,-0.7866393350000063,0.0005147633390014317,-2.3543698549999945,0.0008478509150022753,1.5718812550000028,0.786662586000002,0.0399999366,0.0399999506,-9.84430855000003,0.008875132026167288,0.027701755350125565,0.0025892376050053677,-0.04003238882875115,0.0022503951400047358
0.6,-7.513727300553305e-06,-0.7866680000000067,0.0005213495000015314,-2.3543443999999942,0.0008583176000024336,1.571893900000003,0.7866717600000022,0.039999936,0.03999995,-9.844444000000028,0.008951026946323453,0.028279383000136295,0.002613932000005557,-0.04029178246861545,0.0022721794000049077
0.6025,-1.0048685705555668e-05,-0.7866986600000068,0.000528365705001538,-2.354317189999994,0.000869467340002444,1.571907445000003,0.7866815460000022,0.0399999351,0.03999994895,-9.844575250000029,0.009030069969611771,0.028903807050136877,0.0026393919500055808,-0.0405581777915942,0.002294663365004929
0.605,-1.258364411055792e-05,-0.7867293200000067,0.0005353819100015442,-2.354289979999994,0.000880617080002454,1.571920990000003,0.7866913320000022,0.039999934200000004,0.0399999479,-9.844706500000028,0.009109112992900086,0.02952823110013743,0.0026648519000056032,-0.040824573114572944,0.0023171473300049486
0.6075,-1.5118602515560285e-05,-0.7867599800000068,0.0005423981150015507,-2.354262769999994,0.0008917668200024644,1.571934535000003,0.7867011180000022,0.0399999333,0.03999994685,-9.844837750000028,0.009188156016188404,0.030152655150138014,0.002690311850005627,-0.041090968437551695,0.0023396312950049697
0.61,-1.7653560920562536e-05,-0.7867906400000069,0.000549414320001557,-2.354235559999994,0.0009029165600024742,1.571948080000003,0.7867109040000022,0.0399999324,0.0399999458,-9.84496900000003,0.009267199039476719,0.030777079200138568,0.0027157718000056495,-0.04135736376053044,0.0023621152600049895
0.6125,-2.01885193255649e-05,-0.7868213000000068,0.0005564305250015635,-2.3542083499999937,0.0009140663000024846,1.571961625000003,0.7867206900000022,0.0399999315,0.03999994475,-9.845100250000028,0.009346242062765039,0.03140150325013915,0.0027412317500056732,-0.04162375908350919,0.0023845992250050106
0.615,-2.272347773056715e-05,-0.7868519600000069,0.0005634467300015697,-2.354181139999994,0.0009252160400024946,1.571975170000003,0.7867304760000022,0.039999930600000004,0.039999943700000005,-9.845231500000029,0.009425285086053354,0.0320259273001397,0.002766691700005696,-0.04189015440648793,0.0024070831900050303
0.6175,-2.5311532700605302e-05,-0.7868833100000073,0.0005706104575016757,-2.354153349999993,0.0009366001250026628,1.5719889750000031,0.7867404700000024,0.0399999295,0.03999994265,-9.84536225000003,0.009506031870860826,0.03266364880014925,0.002792364550005863,-0.042158709652783184,0.0024298002150052087
0.62,-2.8005780800607696e-05,-0.7869160400000074,0.0005780692300016824,-2.3541243999999932,0.0009484529000026734,1.572003300000003,0.7867508800000024,0.039999928000000004,0.039999941600000005,-9.845492000000029,0.00959018617870316,0.033327965200149835,0.0028184632000058866,-0.04243158474570707,0.0024529833600052293
0.6225,-3.0700028900610204e-05,-0.7869487700000074,0.0005855280025016893,-2.3540954499999933,0.0009603056750026844,1.5720176250000033,0.7867612900000024,0.039999926500000005,0.03999994055,-9.84562175000003,0.0096743404865455,0.033992281600150456,0.002844561850005911,-0.04270445983863096,0.002476166505005251
0.625,-3.33942770006126e-05,-0.7869815000000074,0.000592986775001696,-2.3540664999999934,0.000972158450002695,1.5720319500000033,0.7867717000000024,0.039999925,0.0399999395,-9.845751500000029,0.009758494794387835,0.03465659800015105,0.002870660500005934,-0.042977334931554846,0.0024993496500052715
0.6275000000000001,-3.6088525100615114e-05,-0.7870142300000075,0.0006004455475017028,-2.354037549999993,0.000984011225002706,1.5720462750000033,0.7867821100000024,0.0399999235,0.03999993845,-9.84588125000003,0.009842649102230172,0.03532091440015167,0.0028967591500059582,-0.04325021002447874,0.002522532795005293
0.63,-3.878277320061751e-05,-0.7870469600000075,0.0006079043200017095,-2.354008599999993,0.0009958640000027165,1.5720606000000032,0.7867925200000024,0.039999922,0.0399999374,-9.84601100000003,0.009926803410072507,0.03598523080015226,0.0029228578000059817,-0.043523085117402625,0.0025457159400053136
0.6325000000000001,-4.1477021300620016e-05,-0.7870796900000075,0.0006153630925017164,-2.353979649999993,0.0010077167750027277,1.5720749250000032,0.7868029300000025,0.0399999205,0.03999993635,-9.846140750000028,0.010010957717914847,0.03664954720015288,0.002948956450006006,-0.043795960210326515,0.002568899085005335
0.635,-4.428040010066023e-05,-0.787113810000008,0.0006231251650018282,-2.3539493999999928,0.001020051240002905,1.5720898500000036,0.7868137600000026,0.0399999193,0.0399999354,-9.846285900000035,0.010096712782998975,0.03734953840016583,0.0029754857000061784,-0.04407402426010892,0.0025925429400055155
0.6375000000000001,-4.7138344250662896e-05,-0.787148625000008,0.0006310388875018356,-2.3539184999999927,0.0010326265500029167,1.5721050750000034,0.7868248000000025,0.03999991825,0.0399999345,-9.846438750000035,0.010183268226703176,0.0380673670001665,0.003002230250006203,-0.0443546827883179,0.0026164171500055377
0.64,-4.999628840066543e-05,-0.7871834400000081,0.0006389526100018426,-2.3538875999999926,0.001045201860002928,1.5721203000000035,0.7868358400000026,0.0399999172,0.0399999336,-9.846591600000036,0.010269823670407373,0.03878519560016714,0.003028974800006227,-0.04463534131652687,0.0026402913600055587
0.6425,-5.285423255066797e-05,-0.7872182550000082,0.0006468663325018496,-2.3538566999999926,0.0010577771700029392,1.5721355250000035,0.7868468800000026,0.03999991615,0.039999932700000004,-9.846744450000035,0.01035637911411157,0.039503024200167776,0.0030557193500062507,-0.04491599984473584,0.00266416557000558
0.645,-5.571217670067064e-05,-0.7872530700000082,0.000654780055001857,-2.3538257999999925,0.001070352480002951,1.5721507500000036,0.7868579200000027,0.0399999151,0.0399999318,-9.846897300000036,0.01044293455781577,0.04022085280016845,0.003082463900006276,-0.04519665837294482,0.0026880397800056023
0.6475,-5.857012085067318e-05,-0.7872878850000082,0.000662693777501864,-2.3537948999999925,0.0010829277900029622,1.5721659750000034,0.7868689600000026,0.03999991405,0.0399999309,-9.847050150000037,0.010529490001519967,0.04093868140016908,0.0031092084500062996,-0.045477316901153794,0.0027119139900056233
0.65,-6.142806500071558e-05,-0.7873227000000088,0.0006706075000019818,-2.3537639999999924,0.0010955031000031493,1.5721812000000037,0.7868800000000028,0.039999913,0.03999993,-9.847203000000027,0.010616045445224957,0.041656510000179205,0.0031359530000064956,-0.04575797542936418,0.0027357882000057757
0.6525,-6.445403525071827e-05,-0.7873597050000088,0.0006789882550019893,-2.353731254999992,0.001108820175003161,1.5721973400000038,0.7868916850000028,0.03999991195,0.03999992925,-9.847312950000026,0.010705940378851102,0.042414310450179876,0.00316342149500652,-0.04604458455003143,0.0027602122050057972
0.655,-6.748000550072109e-05,-0.7873967100000089,0.0006873690100019971,-2.353698509999992,0.0011221372500031736,1.5722134800000038,0.7869033700000028,0.0399999109,0.039999928500000004,-9.847422900000026,0.01079583531247725,0.04317211090018058,0.0031908899900065456,-0.04633119367069869,0.00278463621000582
0.6575,-7.050597575072377e-05,-0.7874337150000089,0.0006957497650020045,-2.353665764999992,0.0011354543250031853,1.5722296200000039,0.7869150550000028,0.03999990985,0.039999927750000004,-9.847532850000027,0.010885730246103396,0.043929911350181254,0.00321835848500657,-0.04661780279136594,0.002809060215005842
0.66,-7.353194600072659e-05,-0.7874707200000088,0.0007041305200020123,-2.353633019999992,0.0011487714000031977,1.5722457600000037,0.7869267400000028,0.0399999088,0.039999927,-9.847642800000028,0.010975625179729545,0.04468771180018196,0.0032458269800065957,-0.0469044119120332,0.002833484220005865
0.6625,-7.655791625072928e-05,-0.7875077250000089,0.0007125112750020198,-2.3536002749999922,0.0011620884750032094,1.5722619000000038,0.7869384250000028,0.03999990775,0.03999992625,-9.847752750000026,0.01106552011335569,0.04544551225018263,0.00327329547500662,-0.047191021032700446,0.0028579082250058865
0.665,-7.95838865007321e-05,-0.7875447300000089,0.0007208920300020277,-2.3535675299999923,0.0011754055500032218,1.5722780400000038,0.7869501100000028,0.039999906700000004,0.0399999255,-9.847862700000027,0.011155415046981839,0.04620331270018334,0.0033007639700066457,-0.047477630153367714,0.0028823322300059093
0.6675,-8.266729200077663e-05,-0.7875824685000095,0.0007294324220021513,-2.3535341649999917,0.0011889762350034184,1.572294480000004,0.786962022500003,0.0399999058,0.03999992475,-9.847973450000028,0.011246212152786667,0.04698176360019906,0.0033284473350068265,-0.047766508534621915,0.002907025325006127
0.67,-8.586556800077961e-05,-0.7876216740000095,0.0007382920880021597,-2.3534995599999915,0.0012030541400034317,1.5723115200000042,0.786974390000003,0.0399999052,0.039999924,-9.848085800000028,0.011338813602946893,0.04780151540019982,0.0033565604400068528,-0.048059925437045084,0.0029322566000061505
0.6725,-8.906384400078245e-05,-0.7876608795000096,0.0007471517540021675,-2.3534649549999918,0.001217132045003444,1.572328560000004,0.786986757500003,0.0399999046,0.03999992325,-9.848198150000028,0.011431415053107115,0.04862126720020055,0.0033846735450068777,-0.04835334233946824,0.002957487875006173
0.675,-9.226212000078544e-05,-0.7877000850000097,0.0007560114200021757,-2.3534303499999916,0.0012312099500034572,1.5723456000000042,0.786999125000003,0.039999903999999996,0.0399999225,-9.848310500000029,0.01152401650326734,0.049441019000201314,0.003412786650006904,-0.04864675924189141,0.0029827191500061963
0.6775,-9.546039600078828e-05,-0.7877392905000097,0.0007648710860021836,-2.3533957449999914,0.0012452878550034698,1.5723626400000041,0.7870114925000031,0.0399999034,0.03999992175,-9.848422850000027,0.011616617953427564,0.05026077080020204,0.003440899755006929,-0.04894017614431456,0.0030079504250062187
0.68,-9.865867200079127e-05,-0.7877784960000097,0.0007737307520021919,-2.353361139999991,0.0012593657600034828,1.5723796800000043,0.7870238600000031,0.0399999028,0.039999921,-9.848535200000027,0.01170921940358779,0.05108052260020281,0.003469012860006955,-0.04923359304673773,0.0030331817000062425
0.6825,-0.0001018569480007941,-0.7878177015000097,0.0007825904180021998,-2.3533265349999914,0.0012734436650034954,1.5723967200000044,0.7870362275000031,0.0399999022,0.03999992025,-9.848647550000027,0.011801820853748013,0.05190027440020353,0.00349712596500698,-0.04952700994916089,0.0030584129750062645
0.685,-0.00010517287500084107,-0.7878584090000104,0.0007917771360023303,-2.3532905499999908,0.0012880409700037026,1.5724143900000045,0.7870490410000033,0.039999901299999994,0.0399999193,-9.848796000000041,0.011900126375283121,0.05274396900021325,0.0035256402000071563,-0.0498253233731542,0.003084090460006455
0.6875,-0.00010854762750084407,-0.7878998675000104,0.0008011273800023386,-2.3532538749999907,0.001302897975003716,1.5724323750000047,0.7870620775000033,0.03999990025,0.03999991825,-9.848962500000042,0.012001283932502476,0.05359963500021401,0.0035543550000071817,-0.05012608505792983,0.003109991050006478
0.6900000000000001,-0.00011192238000084721,-0.7879413260000104,0.0008104776240023474,-2.3532171999999907,0.0013177549800037296,1.5724503600000046,0.7870751140000033,0.0399998992,0.0399999172,-9.849129000000042,0.012102441489721836,0.05445530100021481,0.0035830698000072084,-0.050426846742705464,0.0031358916400065022
0.6925,-0.00011529713250085021,-0.7879827845000105,0.0008198278680023556,-2.3531805249999906,0.0013326119850037429,1.5724683450000045,0.7870881505000034,0.03999989815,0.03999991615,-9.849295500000043,0.012203599046941191,0.05531096700021557,0.0036117846000072343,-0.05072760842748109,0.003161792230006525
0.6950000000000001,-0.00011867188500085337,-0.7880242430000105,0.0008291781120023644,-2.3531438499999906,0.0013474689900037568,1.5724863300000045,0.7871011870000033,0.0399998971,0.0399999151,-9.849462000000042,0.01230475660416055,0.05616663300021637,0.003640499400007261,-0.051028370112256735,0.0031876928200065494
0.6975,-0.00012204663750085636,-0.7880657015000105,0.0008385283560023727,-2.3531071749999906,0.0013623259950037699,1.5725043150000044,0.7871142235000033,0.03999989605,0.03999991405,-9.849628500000042,0.012405914161379905,0.05702229900021713,0.0036692142000072864,-0.05132913179703236,0.0032135934100065724
0.7000000000000001,-0.0001254213900009055,-0.7881071600000111,0.0008478786000025092,-2.35307049999999,0.0013771830000039868,1.5725223000000048,0.7871272600000034,0.039999895,0.039999913,-9.849795000000027,0.012507071718599702,0.057877965000231846,0.003697929000007476,-0.05162989348180944,0.0032394940000067323
0.7025,-0.00012897670650090866,-0.7881509060000113,0.000857730834002518,-2.35303169499999,0.0013928372700040008,1.5725412900000049,0.7871409910000035,0.0399998938,0.039999912549999996,-9.849898950000027,0.012609945610191827,0.05878828335023265,0.003727283685007502,-0.0519363123924323,0.003265928290006756
0.705,-0.00013253202300091181,-0.7881946520000113,0.0008675830680025268,-2.35299288999999,0.0014084915400040146,1.5725602800000047,0.7871547220000035,0.039999892599999996,0.0399999121,-9.850002900000026,0.012712819501783953,0.059698601700233465,0.003756638370007528,-0.05224273130305516,0.003292362580006779
0.7075,-0.00013608733950091513,-0.7882383980000113,0.0008774353020025359,-2.35295408499999,0.0014241458100040293,1.5725792700000047,0.7871684530000035,0.0399998914,0.03999991165,-9.850106850000028,0.012815693393376085,0.06060892005023431,0.003785993055007556,-0.05254915021367803,0.003318796870006804
0.71,-0.0001396426560009183,-0.7882821440000113,0.0008872875360025447,-2.3529152799999897,0.0014398000800040433,1.5725982600000048,0.7871821840000035,0.0399998902,0.0399999112,-9.850210800000028,0.012918567284968211,0.06151923840023512,0.003815347740007582,-0.05285556912430089,0.0033452311600068274
0.7125,-0.0001431979725009216,-0.7883258900000113,0.0008971397700025538,-2.3528764749999898,0.0014554543500040578,1.5726172500000049,0.7871959150000035,0.039999889,0.03999991075,-9.850314750000027,0.013021441176560341,0.06242955675023597,0.003844702425007609,-0.05316198803492376,0.0033716654500068523
0.715,-0.00014675328900092476,-0.7883696360000113,0.0009069920040025626,-2.35283766999999,0.0014711086200040718,1.572636240000005,0.7872096460000035,0.039999887799999995,0.0399999103,-9.850418700000027,0.013124315068152467,0.06333987510023677,0.0038740571100076356,-0.053468406945546616,0.0033980997400068756
0.7175,-0.00015037012250097625,-0.788414157500012,0.0009170152870027058,-2.3527981849999895,0.0014870345500042992,1.572655545000005,0.7872236225000038,0.039999887,0.03999991,-9.850524100000028,0.013228692766307,0.06426824205025175,0.003903627395007832,-0.053776784613809955,0.003424795195007105
0.72,-0.00015410999000097956,-0.788460230000012,0.000927380668002715,-2.3527573399999895,0.0015035038000043137,1.5726754800000051,0.7872380900000038,0.039999887,0.03999991,-9.850632400000029,0.013336078077582806,0.06523270620025261,0.003933628880007858,-0.054089079797349636,0.0034520129800071292
0.7225,-0.00015784985750098306,-0.7885063025000121,0.0009377460490027247,-2.352716494999989,0.001519973050004329,1.5726954150000052,0.7872525575000038,0.039999887,0.03999991,-9.85074070000003,0.013443463388858616,0.0661971703502535,0.003963630365007886,-0.05440137498088934,0.0034792307650071547
0.725,-0.00016158972500098637,-0.7885523750000121,0.0009481114300027339,-2.352675649999989,0.0015364423000043437,1.5727153500000053,0.7872670250000038,0.039999887,0.03999991,-9.850849000000029,0.013550848700134422,0.06716163450025436,0.003993631850007913,-0.05471367016442902,0.003506448550007179
0.7275,-0.00016532959250098987,-0.7885984475000122,0.0009584768110027435,-2.352634804999989,0.001552911550004359,1.5727352850000051,0.7872814925000038,0.039999887,0.03999991,-9.85095730000003,0.013658234011410232,0.06812609865025528,0.00402363333500794,-0.05502596534796871,0.003533666335007204
0.73,-0.00016906946000099318,-0.7886445200000122,0.0009688421920027527,-2.352593959999989,0.0015693808000043737,1.5727552200000052,0.7872959600000039,0.039999887,0.03999991,-9.851065600000029,0.013765619322686037,0.06909056280025613,0.004053634820007967,-0.05533826053150839,0.003560884120007228
0.7325,-0.00017280932750099668,-0.7886905925000123,0.0009792075730027624,-2.352553114999989,0.001585850050004389,1.5727751550000053,0.7873104275000039,0.039999887,0.03999991,-9.85117390000003,0.013873004633961848,0.07005502695025703,0.004083636305007995,-0.05565055571504809,0.0035881019050072534
0.735,-0.00017667485000105038,-0.788738285000013,0.0009899223100029116,-2.3525108899999885,0.0016028741500046261,1.5727957800000056,0.7873253750000041,0.0399998873,0.0399999103,-9.851295000000034,0.013984120823473068,0.07105525650027222,0.004113951780008148,-0.05596735104927011,0.003615752710007451
0.7375,-0.00018060320000105404,-0.788786787500013,0.001000811725002922,-2.352467974999988,0.0016201756750046424,1.5728167500000056,0.7873405625000041,0.03999988775,0.03999991075,-9.851422500000034,0.014097102452099764,0.07207336875027318,0.004144424250008176,-0.0562863964588306,0.003643620025007477
0.74,-0.00018453155000105754,-0.7888352900000131,0.0010117011400029316,-2.3524250599999883,0.0016374772000046576,1.5728377200000057,0.7873557500000041,0.0399998882,0.0399999112,-9.851550000000035,0.014210084080726455,0.07309148100027409,0.004174896720008203,-0.05660544186839109,0.003671487340007502
0.7425,-0.0001884599000010612,-0.7888837925000132,0.0010225905550029417,-2.3523821449999884,0.001654778725004674,1.5728586900000057,0.7873709375000041,0.03999988865,0.03999991165,-9.851677500000035,0.01432306570935315,0.07410959325027504,0.004205369190008232,-0.05692448727795159,0.003699354655007528
0.745,-0.0001923882500010647,-0.7889322950000132,0.0010334799700029514,-2.352339229999988,0.001672080250004689,1.5728796600000057,0.787386125000004,0.039999889100000005,0.0399999121,-9.851805000000034,0.01443604733797984,0.07512770550027593,0.004235841660008259,-0.05724353268751207,0.0037272219700075528
0.7475,-0.00019631660000106834,-0.7889807975000133,0.0010443693850029614,-2.3522963149999883,0.0016893817750047054,1.5729006300000057,0.7874013125000041,0.03999988955,0.039999912549999996,-9.851932500000034,0.014549028966606536,0.07614581775027689,0.004266314130008287,-0.05756257809707257,0.003755089285007579
0.75,-0.00020024495000112432,-0.7890293000000139,0.001055258800003117,-2.3522533999999875,0.0017066833000049524,1.572921600000006,0.7874165000000043,0.03999989,0.039999913,-9.85206000000003,0.014662010595234178,0.0771639300002931,0.004296786600008479,-0.05788162350663461,0.003782956600007779
0.7525000000000001,-0.00020436561800112816,-0.789080240000014,0.0010666829800031277,-2.352208339999988,0.0017248341250049692,1.572943620000006,0.7874324450000043,0.03999989075,0.0399999136,-9.852168600000029,0.014778479514675391,0.0782381295002941,0.004327863900008508,-0.05820637363949366,0.0038114667100078055
0.755,-0.00020848628600113182,-0.789131180000014,0.0010781071600031377,-2.3521632799999876,0.0017429849500049854,1.572965640000006,0.7874483900000043,0.0399998915,0.0399999142,-9.85227720000003,0.0148949484341166,0.07931232900029506,0.004358941200008536,-0.0585311237723527,0.003839976820007831
0.7575000000000001,-0.00021260695400113566,-0.7891821200000141,0.0010895313400031484,-2.3521182199999875,0.0017611357750050023,1.572987660000006,0.7874643350000043,0.03999989225,0.0399999148,-9.852385800000029,0.015011417353557814,0.08038652850029605,0.004390018500008565,-0.05885587390521175,0.0038684869300078576
0.76,-0.00021672762200113932,-0.7892330600000141,0.0011009555200031586,-2.3520731599999873,0.0017792866000050185,1.573009680000006,0.7874802800000044,0.039999893,0.0399999154,-9.85249440000003,0.015127886272999023,0.08146072800029701,0.004421095800008592,-0.05918062403807079,0.003896997040007883
0.7625000000000001,-0.00022084829000114316,-0.7892840000000142,0.0011123797000031693,-2.3520280999999876,0.0017974374250050353,1.573031700000006,0.7874962250000044,0.03999989375,0.039999916,-9.85260300000003,0.015244355192440237,0.082534927500298,0.004452173100008621,-0.059505374170929846,0.00392550715000791
0.765,-0.00022496895800114684,-0.7893349400000143,0.0011238038800031795,-2.3519830399999875,0.0018155882500050515,1.573053720000006,0.7875121700000044,0.0399998945,0.039999916600000004,-9.85271160000003,0.015360824111881445,0.08360912700029896,0.004483250400008649,-0.05983012430378888,0.003954017260007935
0.7675000000000001,-0.00022915497400120542,-0.789386705000015,0.0011354097650033423,-2.351937249999987,0.0018340276600053102,1.5730760800000063,0.7875283665000047,0.039999895,0.039999917,-9.852822550000033,0.015478695230592173,0.08470195600031556,0.0045144870700088114,-0.060156952403578164,0.003982738550008138
0.77,-0.00023347168600120925,-0.789440120000015,0.001147379060003353,-2.3518899999999867,0.0018530442400053271,1.5730991200000064,0.7875450660000046,0.039999895,0.039999917,-9.852938200000033,0.015599370747838405,0.08583204400031658,0.004546042480008839,-0.06048793643722266,0.004011882200008164
0.7725,-0.00023778839800121308,-0.7894935350000151,0.0011593483550033637,-2.3518427499999865,0.001872060820005344,1.5731221600000065,0.7875617655000047,0.039999895,0.039999917,-9.853053850000032,0.01572004626508464,0.08696213200031758,0.004577597890008868,-0.060818920470867156,0.004041025850008191
0.775,-0.00024210511000121712,-0.7895469500000151,0.0011713176500033748,-2.351795499999987,0.0018910774000053619,1.5731452000000063,0.7875784650000047,0.039999895,0.039999917,-9.853169500000032,0.015840721782330876,0.08809222000031863,0.0046091533000088974,-0.061149904504511673,0.004070169500008217
0.7775,-0.000246421822001221,-0.7896003650000152,0.0011832869450033854,-2.3517482499999867,0.0019100939800053788,1.5731682400000064,0.7875951645000048,0.039999895,0.039999917,-9.853285150000033,0.01596139729957711,0.08922230800031963,0.004640708710008925,-0.06148088853815617,0.004099313150008243
0.78,-0.000250738534001225,-0.7896537800000152,0.0011952562400033965,-2.3517009999999865,0.0019291105600053966,1.5731912800000065,0.7876118640000047,0.039999895,0.039999917,-9.853400800000033,0.016082072816823344,0.09035239600032069,0.004672264120008955,-0.06181187257180068,0.0041284568000082705
0.7825,-0.0002550552460012288,-0.7897071950000152,0.0012072255350034072,-2.3516537499999863,0.0019481271400054135,1.5732143200000064,0.7876285635000048,0.039999895,0.039999917,-9.853516450000033,0.016202748334069577,0.09148248400032169,0.004703819530008983,-0.06214285660544518,0.004157600450008296
0.785,-0.00025950507500128984,-0.789762295000016,0.001219565060003577,-2.3516050299999858,0.001967731700005683,1.5732380700000068,0.787645783000005,0.0399998957,0.039999918300000006,-9.85362460000003,0.016326409205830023,0.09264833600033806,0.0047357181500091595,-0.062477646023131196,0.004187078000008467
0.7875,-0.00026402146250129385,-0.789818237500016,0.001232089700003588,-2.3515555749999857,0.001987630250005701,1.5732621750000069,0.7876632625000051,0.03999989675,0.03999992025,-9.85372900000003,0.016451562754845654,0.09383207000033912,0.004767788375009188,-0.0628143381328355,0.004216722500008493
0.79,-0.0002685378500012981,-0.7898741800000161,0.0012446143400035997,-2.3515061199999856,0.0020075288000057194,1.573286280000007,0.787680742000005,0.039999897799999996,0.0399999222,-9.85383340000003,0.016576716303861292,0.09501580400034022,0.004799858600009217,-0.06315103024253983,0.004246367000008521
0.7925,-0.0002730542375013021,-0.7899301225000162,0.001257138980003611,-2.3514566649999855,0.002027427350005737,1.573310385000007,0.7876982215000051,0.03999989885,0.039999924150000005,-9.853937800000029,0.016701869852876923,0.09619953800034127,0.004831928825009246,-0.06348772235224413,0.004276011500008547
0.795,-0.0002775706250013063,-0.7899860650000162,0.0012696636200036225,-2.3514072099999854,0.0020473259000057557,1.573334490000007,0.7877157010000051,0.0399998999,0.039999926100000006,-9.85404220000003,0.01682702340189256,0.09738327200034239,0.004863999050009276,-0.06382441446194846,0.0043056560000085745
0.7975,-0.0002820870125013103,-0.7900420075000163,0.0012821882600036337,-2.3513577549999853,0.0020672244500057734,1.573358595000007,0.7877331805000051,0.03999990095,0.03999992805,-9.85414660000003,0.016952176950908192,0.09856700600034343,0.004896069275009305,-0.06416110657165278,0.004335300500008601
0.8,-0.0002866034000013737,-0.790097950000017,0.00129471290000381,-2.351308299999985,0.002087123000006053,1.5733827000000074,0.7877506600000054,0.039999902,0.03999993,-9.85425100000003,0.017077330499925738,0.09975074000036215,0.004928139500009473,-0.06449779868135884,0.0043649450000088465
0.8025,-0.00029132304500137786,-0.7901564575000172,0.0013078027250038216,-2.3512565949999846,0.0021079192400060716,1.5734079000000074,0.7877689210000054,0.0399999032,0.0399999309,-9.854357050000031,0.017209044005760194,0.10099497575036324,0.004960684025009501,-0.06484046429405674,0.004395337775008873
0.805,-0.00029604269000138225,-0.7902149650000172,0.0013208925500038337,-2.351204889999985,0.002128715480006091,1.5734331000000075,0.7877871820000054,0.0399999044,0.0399999318,-9.85446310000003,0.017340757511594657,0.10223921150036441,0.004993228550009532,-0.06518312990675466,0.004425730550008901
0.8075,-0.0003007623350013865,-0.7902734725000172,0.0013339823750038453,-2.3511531849999847,0.002149511720006109,1.5734583000000073,0.7878054430000054,0.039999905599999996,0.039999932700000004,-9.854569150000032,0.017472471017429114,0.10348344725036551,0.005025773075009561,-0.06552579551945256,0.004456123325008929
0.81,-0.0003054819800013909,-0.7903319800000173,0.0013470722000038576,-2.3511014799999845,0.0021703079600061286,1.5734835000000074,0.7878237040000055,0.0399999068,0.0399999336,-9.854675200000031,0.017604184523263577,0.10472768300036667,0.005058317600009591,-0.06586846113215047,0.004486516100008957
0.8125,-0.00031020162500139506,-0.7903904875000173,0.0013601620250038692,-2.351049774999985,0.002191104200006147,1.5735087000000074,0.7878419650000055,0.039999908,0.0399999345,-9.85478125000003,0.017735898029098033,0.10597191875036778,0.00509086212500962,-0.06621112674484839,0.004516908875008984
0.8150000000000001,-0.0003149212700013995,-0.7904489950000173,0.0013732518500038813,-2.3509980699999846,0.0022119004400061666,1.5735339000000075,0.7878602260000055,0.0399999092,0.0399999354,-9.854887300000032,0.017867611534932496,0.10721615450036893,0.00512340665000965,-0.0665537923575463,0.004547301650009012
0.8175,-0.0003197098170014652,-0.7905083750000181,0.001386533320004064,-2.350945569999984,0.0022330010000064567,1.5735594750000077,0.7878787500000057,0.0399999098,0.0399999358,-9.85499065000003,0.018001024611334883,0.10847907245038671,0.00515612100000983,-0.06689827963720178,0.004577901345009223
0.8200000000000001,-0.0003246361680014697,-0.7905695000000182,0.0014001980800040768,-2.350891479999984,0.0022547102000064767,1.5735858000000078,0.7878978000000058,0.0399999092,0.0399999352,-9.855088600000029,0.018137836828868596,0.10977935480038792,0.005189175000009861,-0.06724641025076755,0.0046089148800092525
0.8225,-0.0003295625190014741,-0.7906306250000182,0.001413862840004089,-2.3508373899999837,0.002276419400006496,1.573612125000008,0.7879168500000058,0.0399999086,0.0399999346,-9.85518655000003,0.018274649046402303,0.11107963715038907,0.005222229000009891,-0.06759454086433332,0.00463992841500928
0.8250000000000001,-0.0003344888700014787,-0.7906917500000183,0.0014275276000041016,-2.350783299999984,0.0022981286000065162,1.573638450000008,0.7879359000000058,0.039999908,0.039999934,-9.85528450000003,0.018411461263936016,0.1123799195003903,0.005255283000009921,-0.06794267147789909,0.004670941950009309
0.8275,-0.0003394152210014831,-0.7907528750000183,0.0014411923600041138,-2.350729209999984,0.0023198378000065354,1.573664775000008,0.7879549500000057,0.0399999074,0.0399999334,-9.855382450000029,0.018548273481469722,0.11368020185039145,0.005288337000009951,-0.06829080209146485,0.004701955485009336
0.8300000000000001,-0.0003443415720014877,-0.7908140000000184,0.0014548571200041266,-2.3506751199999836,0.0023415470000065558,1.573691100000008,0.7879740000000057,0.0399999068,0.0399999328,-9.85548040000003,0.018685085699003436,0.11498048420039265,0.005321391000009982,-0.06863893270503063,0.004732969020009365
0.8325,-0.0003492679230014921,-0.7908751250000184,0.0014685218800041388,-2.3506210299999837,0.002363256200006575,1.573717425000008,0.7879930500000057,0.039999906200000004,0.039999932200000005,-9.85557835000003,0.018821897916537142,0.11628076655039381,0.005354445000010011,-0.06898706331859639,0.0047639825550093925
0.835,-0.0003543343230015602,-0.7909380200000193,0.0014825761600043284,-2.350565399999983,0.002385583980006876,1.5737444800000084,0.7880126500000061,0.0399999064,0.0399999328,-9.855667700000026,0.018960964866025023,0.11762314960041415,0.0053878175300101855,-0.06933860778819322,0.004795313990009565
0.8375,-0.000359470747501565,-0.7910018000000194,0.0014968252000043417,-2.350508999999983,0.0024082210500068974,1.5737719000000083,0.7880325250000061,0.039999907,0.039999934,-9.855752750000025,0.019101159181488466,0.11898658300041541,0.0054213493250102164,-0.06969185918580326,0.004826804375009594
0.84,-0.0003646071720015696,-0.7910655800000195,0.0015110742400043543,-2.350452599999983,0.0024308581200069173,1.5737993200000084,0.7880524000000061,0.0399999076,0.0399999352,-9.855837800000026,0.0192413534969519,0.12035001640041663,0.0054548811200102465,-0.07004511058341328,0.004858294760009622
0.8425,-0.0003697435965015744,-0.7911293600000195,0.0015253232800043677,-2.3503961999999827,0.0024534951900069385,1.5738267400000086,0.7880722750000061,0.0399999082,0.0399999364,-9.855922850000026,0.019381547812415342,0.1217134498004179,0.005488412915010277,-0.07039836198102334,0.004889785145009652
0.845,-0.0003748800210015789,-0.7911931400000196,0.0015395723200043803,-2.3503397999999827,0.0024761322600069585,1.5738541600000084,0.7880921500000061,0.0399999088,0.0399999376,-9.856007900000026,0.019521742127878775,0.12307688320041911,0.0055219447100103075,-0.07075161337863337,0.0049212755300096795
0.8475,-0.0003800164455015837,-0.7912569200000197,0.0015538213600043934,-2.3502833999999826,0.0024987693300069797,1.5738815800000086,0.7881120250000061,0.0399999094,0.039999938799999996,-9.856092950000026,0.019661936443342215,0.12444031660042038,0.005555476505010339,-0.0711048647762434,0.004952765915009709
0.85,-0.00038515287000165426,-0.7913207000000205,0.0015680704000045897,-2.3502269999999816,0.002521406400007291,1.5739090000000089,0.7881319000000064,0.03999991,0.03999994,-9.856178000000028,0.019802130758807844,0.12580375000043942,0.005589008300010488,-0.07145811617385511,0.004984256300009964
