rsonawane2002/My_IMU/logs_2/traj_316/imu_316.csv
time,j1,j2,j3,j4,j5,j6,j7,gripper1,gripper2,imu_ax,imu_ay,imu_az,imu_gx,imu_gy,imu_gz
719.2833333330078,0.00016700293,-0.785875,4.0107683e-05,-2.3551247,9.29385e-05,1.570997,0.786,0.04,0.04,-9.517065,-0.02467586286365986,0.114456244,-1.202752e-07,-0.0011641272576525807,8.8907285e-07
719.2999999996745,0.00016700494,-0.78576016,4.011656e-05,-2.3552213,9.297712e-05,1.5709941,0.786,0.04,0.04,-9.834453,0.0006414170493371785,0.009087602,-1.312067e-07,-0.002240376081317663,1.0938551e-06
719.3166666663411,0.00016700133,-0.7856543,4.0138297e-05,-2.35531,9.303438e-05,1.5709913,0.786,0.04,0.04,-9.832594,0.0006555066211149096,0.00753215,6.4748497e-07,-0.003236491000279784,2.2250454e-06
719.3333333330078,0.00016698356,-0.78555703,4.0194995e-05,-2.355391,9.31455e-05,1.5709884,0.786,0.04,0.04,-9.831107,0.000689396692905575,0.006124372,2.8926538e-06,-0.00417046993970871,4.460237e-06
719.3499999996744,0.0001669398,-0.7854678,4.0318377e-05,-2.3554647,9.33612e-05,1.5709856,0.786,0.04,0.04,-9.829793,0.0007402271730825305,0.004795278,7.229497e-06,-0.005050059407949448,8.290662e-06
719.3666666663411,0.00016685524,-0.78538626,4.054877e-05,-2.3555315,9.3745955e-05,1.5709827,0.786,0.04,0.04,-9.828698,0.0008077159291133285,0.0035608658,1.4576633e-05,-0.005886556580662727,1.4160979e-05
719.3833333330077,0.00016671223,-0.78531206,4.093433e-05,-2.3555915,9.437648e-05,1.5709832,0.786,0.04,0.04,-9.827786,0.0008845780976116657,0.0024142954,2.532737e-05,-0.006688443943858147,2.2457105e-05
719.3999999996744,0.00016649085,-0.78524494,4.153008e-05,-2.3556488,9.534151e-05,1.5709838,0.7860001,0.04,0.04,-9.827046,0.0009778201347216964,0.0012736795,4.043122e-05,-0.007452419493347406,3.3552944e-05
719.416666666341,0.00016616868,-0.78518444,4.239706e-05,-2.3556988,9.6748525e-05,1.5709846,0.786002,0.04,0.039999995,-9.826953,0.0010833260603249073,0.0003134841,6.0040027e-05,-0.008215289562940598,4.8518246e-05
719.4333333330077,0.00016572166,-0.7851308,4.3602155e-05,-2.355742,9.8702054e-05,1.5709854,0.7860039,0.04,0.03999999,-9.826547,0.001198271056637168,-0.00060207304,7.718055e-05,-0.008968350477516651,6.68449e-05
719.4499999996743,0.00016512415,-0.7850834,4.5217144e-05,-2.3557796,0.000101295765,1.5709864,0.7860058,0.04,0.039999995,-9.826215,0.0013124095275998116,-0.0014012125,0.00010080464,-0.009715991094708443,8.725717e-05
719.466666666341,0.00016434862,-0.78504276,4.7317924e-05,-2.355814,0.00010465989,1.5709907,0.7860096,0.04,0.039999995,-9.826177,0.0014517809031531215,-0.0021263096,0.00013137121,-0.010474083945155144,0.00011235955
719.4833333330076,0.00016336647,-0.78500867,4.998436e-05,-2.3558412,0.00010891285,1.5709953,0.7860134,0.04,0.04,-9.82659,0.0015944893239066005,-0.0028283556,0.00016139839,-0.011242691427469254,0.00014079174
719.4999999996743,0.00016214771,-0.78498113,5.3299296e-05,-2.3558621,0.00011419798,1.5710001,0.78601766,0.04,0.04,-9.826593,0.001752099604345858,-0.0033600968,0.00019959817,-0.01202227920293808,0.0001742605
719.5166666663409,0.00016066157,-0.7849603,5.7348658e-05,-2.355878,0.00012064651,1.5710083,0.7860234,0.04,0.04,-9.826867,0.0019122493686154485,-0.003772669,0.00024563004,-0.012826038524508476,0.00021147681
719.5333333330076,0.00015887621,-0.7849464,6.2220584e-05,-2.3558896,0.00012840795,1.5710169,0.78603065,0.04,0.04,-9.827308,0.0020995093509554863,-0.0041432115,0.0002944976,-0.01364775188267231,0.00025452467
719.5499999996742,0.00015675936,-0.78493935,6.8005684e-05,-2.3558939,0.00013762176,1.571027,0.7860383,0.04,0.04,-9.827969,0.0022816446144133806,-0.0043270113,0.00034699455,-0.014508833177387714,0.00030154435
719.5666666663409,0.00015427792,-0.78493947,7.479598e-05,-2.3558912,0.00014842705,1.5710394,0.7860478,0.04,0.04,-9.828383,0.0024751448072493076,-0.004431092,0.00040938394,-0.015397243201732635,0.0003526169
719.5833333330075,0.00015139821,-0.784947,8.2684805e-05,-2.355883,0.0001609857,1.5710547,0.78605926,0.04,0.04,-9.828869,0.002693086862564087,-0.0043911035,0.00047477582,-0.016314474865794182,0.0004098546
719.5999999996742,0.00014808655,-0.78496206,9.176678e-05,-2.355868,0.00017544173,1.5710709,0.7860722,0.04,0.04,-9.829624,0.0029053064063191414,-0.0042307917,0.0005442453,-0.01726842112839222,0.00047126666
719.6166666663408,0.00014430867,-0.7849849,0.00010213749,-2.3558464,0.00019193706,1.5710908,0.7860868,0.04,0.04,-9.8303585,0.0031340508721768856,-0.003875304,0.00062022865,-0.018267204985022545,0.000536813
719.6333333330075,0.00014002997,-0.7850161,0.00011389285,-2.3558176,0.000210643,1.5711132,0.78610325,0.04,0.04,-9.831058,0.003390552941709757,-0.0034408565,0.0007024356,-0.01929999329149723,0.00060891523
719.6499999996742,0.00013521612,-0.7850555,0.00012712913,-2.3557813,0.0002317033,1.5711373,0.7861218,0.04,0.04,-9.831828,0.003640686394646764,-0.0027635272,0.00079085946,-0.02037465199828148,0.00068517326
719.6666666663408,0.00012983248,-0.7851037,0.0001419431,-2.3557374,0.00025526146,1.571165,0.7861425,0.039999995,0.04,-9.832692,0.003906219732016325,-0.0019456311,0.0008846652,-0.021499404683709145,0.00076568575
719.6833333330075,0.00012384438,-0.78516066,0.00015843124,-2.355686,0.00028147656,1.5711964,0.78616554,0.03999999,0.04,-9.833486,0.004190356936305761,-0.0009541637,0.0009843837,-0.022664740681648254,0.0008511718
719.6999999996741,0.00011721734,-0.785227,0.00017668986,-2.355626,0.00031050554,1.5712317,0.78619105,0.039999988,0.039999995,-9.834425,0.004492448177188635,0.00019262219,0.0010900176,-0.023876115679740906,0.00094253506
719.7166666663408,0.00010991687,-0.785303,0.00019681492,-2.355558,0.00034250063,1.5712706,0.78621906,0.039999988,0.039999995,-9.83515,0.004801669158041477,0.0015926803,0.0012012747,-0.025129713118076324,0.0010389227
719.7333333330074,0.00010190882,-0.78538907,0.00021890206,-2.3554807,0.00037761324,1.5713131,0.78625005,0.039999988,0.039999995,-9.836154,0.005139300134032965,0.0031721327,0.0013187266,-0.026430951431393623,0.0011402931
719.7499999996741,9.3159186e-05,-0.7854855,0.00024304615,-2.3553948,0.00041599348,1.5713595,0.7862836,0.039999988,0.04,-9.836993,0.005482564680278301,0.0049873167,0.0014404245,-0.027776749804615974,0.0012458025
719.7666666663407,8.363411e-05,-0.7855925,0.00026934137,-2.3552997,0.00045779202,1.57141,0.78632045,0.039999984,0.039999995,-9.838003,0.005851991008967161,0.0070366394,0.0015691341,-0.029174180701375008,0.0013571458
719.7833333330074,7.330029e-05,-0.7857106,0.00029788114,-2.3551948,0.0005031566,1.5714647,0.7863602,0.03999998,0.03999999,-9.838912,0.006234653294086456,0.009294229,0.0017020996,-0.03061949834227562,0.0014734182
719.799999999674,6.212459e-05,-0.7858398,0.00032875765,-2.3550797,0.0005522337,1.571524,0.78640324,0.039999973,0.039999984,-9.839848,0.006635528057813644,0.01181086,0.0018412495,-0.03211262822151184,0.0015946021
719.8166666663407,5.007423e-05,-0.7859807,0.00036206222,-2.3549547,0.0006051682,1.571588,0.78644973,0.03999996,0.039999973,-9.840753,0.007057156413793564,0.014559628,0.0019857585,-0.03365270420908928,0.0017206781
719.8333333330073,3.7116908e-05,-0.78613365,0.0003978853,-2.3548188,0.00066210364,1.5716566,0.7864997,0.039999954,0.039999966,-9.841734,0.00749493483453989,0.017574795,0.0021350998,-0.035242341458797455,0.0018515934
719.849999999674,2.3220744e-05,-0.78629893,0.0004363159,-2.354672,0.0007231807,1.5717304,0.78655326,0.039999947,0.03999996,-9.842597,0.007952656596899033,0.02087204,0.0022895152,-0.03687858581542969,0.0019864645
719.8666666663406,8.354201e-06,-0.7864769,0.00047744176,-2.3545141,0.0007885397,1.5718096,0.7866106,0.03999994,0.039999954,-9.843541,0.008445060811936855,0.024428532,0.0024493027,-0.03856249153614044,0.002126951
719.8833333330073,-7.5137273e-06,-0.786668,0.0005213495,-2.3543444,0.0008583176,1.5718939,0.78667176,0.039999936,0.03999995,-9.844444,0.008951026946306229,0.028279383,0.002613932,-0.04029178246855736,0.0022721794
719.8999999996739,-2.441345e-05,-0.7868724,0.0005681242,-2.354163,0.0009326492,1.5719842,0.786737,0.03999993,0.039999943,-9.845319,0.009477980434894562,0.03244221,0.002783665,-0.042067751288414,0.0024220725
719.9166666663406,-4.2375104e-05,-0.7870906,0.00061784935,-2.35397,0.0010116677,1.5720797,0.7868064,0.03999992,0.039999936,-9.846184,0.010039009153842926,0.036870986,0.002957656,-0.04388691857457161,0.0025766268
719.9333333330072,-6.1428065e-05,-0.7873227,0.0006706075,-2.353764,0.0010955031,1.5721812,0.78688,0.039999913,0.03999993,-9.847203,0.010616045445203781,0.04165651,0.003135953,-0.045757975429296494,0.0027357882
719.9499999996739,-8.16012e-05,-0.7875694,0.0007264792,-2.3535457,0.0011842836,1.5722888,0.7869579,0.039999906,0.039999925,-9.847936,0.01121534500271082,0.046708513,0.0033190763,-0.0476687029004097,0.0028986149
719.9666666663405,-0.00010292304,-0.78783077,0.00078554364,-2.353315,0.0012781363,1.5724024,0.78704035,0.039999902,0.03999992,-9.848685,0.011832688003778458,0.052173525,0.003506497,-0.049624815583229065,0.0030668234
719.9833333330072,-0.00012542139,-0.78810716,0.0008478786,-2.3530705,0.001377183,1.5725223,0.78712726,0.039999895,0.039999913,-9.849795,0.01250707171857357,0.057877965,0.003697929,-0.051629893481731415,0.003239494
719.9999999996738,-0.0001491235,-0.7883988,0.00091356016,-2.3528118,0.0014815448,1.5726489,0.7872188,0.039999887,0.03999991,-9.850488,0.013192897662520409,0.063946754,0.0038936269,-0.05367268621921539,0.0034157226
720.0166666663405,-0.00017405595,-0.78870595,0.0009826627,-2.3525395,0.0015913398,1.5727818,0.78731525,0.039999887,0.03999991,-9.85121,0.01390879973769188,0.070376515,0.0040936368,-0.055754654109478,0.0035971745
720.0333333330071,-0.00020024495,-0.7890293,0.0010552588,-2.3522534,0.0017066833,1.5729216,0.7874165,0.03999989,0.039999913,-9.85206,0.014662010595202446,0.07716393,0.0042967866,-0.05788162350654602,0.0037829566
720.0499999996738,-0.00022771607,-0.7893689,0.00113142,-2.351953,0.0018276888,1.5730684,0.7875228,0.039999895,0.039999917,-9.852784,0.015438470058143139,0.08432526,0.0045039686,-0.06004662439227104,0.003973024
720.0666666663404,-0.00025649415,-0.789725,0.0012112153,-2.351638,0.001954466,1.573222,0.78763413,0.039999895,0.039999917,-9.853555,0.016242973506450653,0.09185918,0.004714338,-0.062253184616565704,0.004167315
720.0833333330071,-0.0002866034,-0.79009795,0.0012947129,-2.3513083,0.002087123,1.5733827,0.78775066,0.039999902,0.03999993,-9.854251,0.017077330499887466,0.09975074,0.0049281395,-0.06449779868125916,0.004364945
720.0999999996737,-0.0003180677,-0.790488,0.0013819784,-2.3509636,0.0022257646,1.5735507,0.7878724,0.03999991,0.039999936,-9.854958,0.017955420538783073,0.108045645,0.005145103,-0.06678223609924316,0.0045675635
720.1166666663404,-0.00035091004,-0.7908955,0.0014730768,-2.350603,0.0023704926,1.5737262,0.7879994,0.039999906,0.039999932,-9.855611,0.018867501989006996,0.116714194,0.005365463,-0.06910310685634613,0.0047743204
720.133333333007,-0.00038515287,-0.7913207,0.0015680704,-2.350227,0.0025214064,1.573909,0.7881319,0.03999991,0.03999994,-9.856178,0.01980213075876236,0.12580375,0.0055890083,-0.0714581161737442,0.0049842563
720.1499999996737,-0.00042081813,-0.7917637,0.0016670201,-2.3498347,0.002678603,1.5740997,0.78826994,0.03999991,0.03999994,-9.856797,0.02078404277563095,0.13527761,0.00581513,-0.07384935766458511,0.0051990733
720.1666666663403,-0.0004579271,-0.792225,0.0017699852,-2.3494263,0.0028421765,1.574298,0.7884135,0.039999913,0.039999943,-9.857258,0.02180171012878418,0.14516497,0.0060438206,-0.07627081125974655,0.005417885
720.183333333007,-0.0004965002,-0.7927047,0.0018770227,-2.3490021,0.0030122169,1.5745043,0.78856283,0.039999913,0.039999943,-9.857764,0.022852914407849312,0.15547404,0.006275092,-0.07872486114501953,0.0056405966
720.1999999996737,-0.0005365576,-0.7932032,0.0019881895,-2.3485622,0.0031888143,1.5747185,0.7887179,0.039999917,0.039999947,-9.858367,0.02394559234380722,0.16621616,0.0065086093,-0.08121524751186371,0.0058672666
720.2166666663403,-0.00057811855,-0.79372054,0.0021035385,-2.348105,0.0033720534,1.5749406,0.7888788,0.039999917,0.039999947,-9.858687,0.025042904540896416,0.17740859,0.0067444337,-0.08373820036649704,0.006097786
720.233333333007,-0.0006212016,-0.794257,0.0022231226,-2.34763,0.003562017,1.5751708,0.78904563,0.039999917,0.03999995,-9.859239,0.026231341063976288,0.18896286,0.006982198,-0.08629076927900314,0.0063312408
720.2499999996736,-0.0006658254,-0.79481274,0.0023469918,-2.3471384,0.0037587865,1.5754093,0.7892184,0.039999913,0.03999995,-9.859487,0.027441516518592834,0.20097351,0.007221929,-0.08886846154928207,0.0065685245
720.2666666663403,-0.00071200734,-0.7953882,0.0024751956,-2.3466299,0.0039624395,1.5756562,0.78939724,0.03999991,0.039999943,-9.859874,0.028700584545731544,0.21344274,0.007463323,-0.09147615730762482,0.006811273
720.2833333330069,-0.0007597644,-0.79598325,0.0026077803,-2.3461034,0.00417305,1.5759114,0.78958225,0.039999902,0.03999994,-9.860194,0.02998228557407856,0.22637704,0.0077063735,-0.0941123366355896,0.007056043
720.2999999996736,-0.00080911274,-0.7965986,0.002744792,-2.34556,0.0043906895,1.5761751,0.7897733,0.039999902,0.03999994,-9.860413,0.03132002800703049,0.23972128,0.0079505285,-0.09677479416131973,0.007305353
720.3166666663402,-0.0008600682,-0.7972337,0.0028862744,-2.3449986,0.004615428,1.5764475,0.7899706,0.039999902,0.03999994,-9.860642,0.032699327915906906,0.2535736,0.008196527,-0.09946353733539581,0.0075583085
720.3333333330069,-0.0009126455,-0.79788923,0.0030322687,-2.3444183,0.0048473305,1.5767287,0.79017425,0.0399999,0.03999994,-9.860793,0.034122735261917114,0.26781285,0.008443545,-0.10217698663473129,0.007814062
720.3499999996735,-0.00096685946,-0.7985654,0.0031828159,-2.343821,0.0050864643,1.5770189,0.79038423,0.03999989,0.039999932,-9.860742,0.03559450805187225,0.28256428,0.008691106,-0.10490863025188446,0.008074222
720.3666666663402,-0.0010227235,-0.799262,0.003337954,-2.3432045,0.005332888,1.5773177,0.79060054,0.039999884,0.039999925,-9.860951,0.03710551559925079,0.29779074,0.0089396555,-0.10766781866550446,0.0083379755
720.3833333330068,-0.0010802511,-0.7999795,0.0034977202,-2.3425705,0.0055866605,1.5776252,0.79082334,0.039999876,0.03999992,-9.860778,0.038663752377033234,0.31345242,0.00918945,-0.11044375598430634,0.008604421
720.3999999996735,-0.0011394555,-0.8007181,0.0036621506,-2.3419173,0.005847839,1.5779419,0.79105264,0.039999872,0.039999917,-9.86085,0.0402807891368866,0.32963446,0.009439056,-0.1132471114397049,0.0088752415
720.4166666663401,-0.0012003481,-0.8014779,0.0038312774,-2.3412461,0.0061164764,1.5782676,0.7912885,0.039999865,0.03999991,-9.860594,0.04193753004074097,0.34626696,0.009689368,-0.11606462299823761,0.009149515
720.4333333330068,-0.0012629406,-0.8022591,0.004005134,-2.3405554,0.0063926238,1.5786023,0.791531,0.03999987,0.039999913,-9.860497,0.04364631325006485,0.36339083,0.009939728,-0.1189042329788208,0.009427274
720.4499999996734,-0.001327244,-0.80306184,0.004183749,-2.3398464,0.0066763265,1.5789464,0.79178005,0.03999987,0.039999917,-9.860113,0.045399464666843414,0.3810123,0.010189617,-0.12175797671079636,0.009707573
720.4666666663401,-0.0013932681,-0.8038858,0.00436715,-2.3391175,0.006967634,1.5792997,0.79203576,0.039999865,0.039999913,-9.85961,0.04718047380447388,0.399161,0.010440106,-0.12462908774614334,0.009992128
720.4833333330067,-0.0014610231,-0.8047315,0.0045553674,-2.3383696,0.007266585,1.5796621,0.7922982,0.03999986,0.039999913,-9.859319,0.04906366020441055,0.41766572,0.010690368,-0.12751275300979614,0.010279203
720.4999999996734,-0.0015305182,-0.805599,0.0047484254,-2.337603,0.0075732223,1.5800338,0.7925675,0.03999986,0.039999913,-9.858882,0.05098968744277954,0.43675792,0.010939962,-0.1304137259721756,0.010570546
720.51666666634,-0.0016017617,-0.8064886,0.004946347,-2.3368165,0.007887582,1.580415,0.79284346,0.039999858,0.03999991,-9.858351,0.052950892597436905,0.45633438,0.011188523,-0.133329838514328,0.010865172
720.5333333330067,-0.0016747614,-0.8074,0.005149155,-2.3360112,0.008209701,1.5808054,0.7931262,0.03999985,0.039999906,-9.857626,0.054973095655441284,0.47641045,0.011436662,-0.13625440001487732,0.011162287
720.5499999996733,-0.0017495254,-0.8083336,0.0053568673,-2.335186,0.008539614,1.5812054,0.79341584,0.039999846,0.039999902,-9.856968,0.05705320090055466,0.49697703,0.0116842175,-0.13919496536254883,0.011463502
720.56666666634,-0.0018260598,-0.8092892,0.005569506,-2.3343406,0.008877351,1.5816149,0.7937123,0.03999984,0.039999895,-9.856099,0.059188563376665115,0.51804954,0.011930236,-0.14214396476745605,0.011767989
720.5833333330066,-0.0019043712,-0.8102674,0.005787088,-2.333477,0.009222932,1.5820339,0.79401577,0.039999828,0.039999887,-9.855119,0.06137394905090332,0.5396133,0.012175305,-0.1450997292995453,0.012074833
720.5999999996733,-0.001984465,-0.8112677,0.006009628,-2.3325932,0.0095763905,1.5824625,0.79432607,0.039999824,0.039999884,-9.854264,0.06362442672252655,0.56171495,0.0124188615,-0.14806979894638062,0.012385772
720.6166666663399,-0.0020663475,-0.8122903,0.0062371423,-2.3316884,0.00993774,1.5829005,0.7946433,0.039999817,0.03999988,-9.853113,0.06592445820569992,0.58427376,0.012660833,-0.15104590356349945,0.012699038
720.6333333330066,-0.0021500224,-0.8133354,0.006469642,-2.3307652,0.010307012,1.5833483,0.7949675,0.03999981,0.039999872,-9.851775,0.06829561293125153,0.60736287,0.012901488,-0.15402530133724213,0.013016377
720.6499999996732,-0.0022354946,-0.814403,0.0067071384,-2.3298218,0.01068422,1.5838058,0.79529864,0.039999798,0.03999986,-9.850632,0.07072024047374725,0.63095784,0.013139936,-0.1570156067609787,0.013336816
720.6666666663399,-0.0023227658,-0.81549317,0.006949641,-2.328858,0.011069376,1.5842726,0.79563683,0.039999794,0.03999986,-9.84918,0.07320061326026917,0.6550497,0.013376478,-0.1600094735622406,0.013659511
720.6833333330065,-0.0024118414,-0.8166058,0.007197158,-2.327875,0.011462498,1.5847492,0.79598194,0.039999787,0.039999854,-9.84754,0.07575669884681702,0.6796648,0.013610815,-0.16300486028194427,0.013986211
720.6999999996732,-0.0025027217,-0.81774116,0.0074496972,-2.3268719,0.011863593,1.5852352,0.7963341,0.03999978,0.039999846,-9.846043,0.07836341112852097,0.704775,0.013843185,-0.16600848734378815,0.014316036
720.7166666663398,-0.00259541,-0.81889904,0.0077072647,-2.3258479,0.0122726755,1.5857311,0.79669315,0.039999772,0.039999843,-9.844004,0.08099152147769928,0.73046243,0.014073039,-0.16901351511478424,0.014647974
720.7333333330065,-0.0026899073,-0.8200796,0.007969865,-2.3248048,0.012689746,1.586237,0.79705936,0.03999977,0.03999984,-9.842237,0.08377918601036072,0.7565324,0.014300495,-0.17201608419418335,0.0149838235
720.7499999996732,-0.002786215,-0.8212828,0.0082375,-2.323742,0.013114811,1.5867523,0.7974324,0.03999976,0.039999835,-9.84035,0.08657105267047882,0.783177,0.014524909,-0.1750226616859436,0.015321892
720.7666666663398,-0.0028843333,-0.8225087,0.008510168,-2.322658,0.01354787,1.5872772,0.7978125,0.039999753,0.039999828,-9.838199,0.08944036066532135,0.8103148,0.014747258,-0.17802943289279938,0.015663719
720.7833333330065,-0.0029842614,-0.8237572,0.0087878695,-2.3215547,0.013988925,1.587812,0.7981997,0.03999975,0.039999824,-9.835823,0.09237635135650635,0.83797246,0.014966643,-0.18103274703025818,0.016008561
720.7999999996731,-0.0030860002,-0.82502836,0.0090706,-2.3204317,0.014437971,1.5883564,0.798594,0.03999974,0.039999817,-9.833443,0.09536891430616379,0.86612105,0.015182614,-0.18403451144695282,0.016355434
720.8166666663398,-0.003189548,-0.82632196,0.009358365,-2.319288,0.014895004,1.5889106,0.79899526,0.039999727,0.039999805,-9.83092,0.09843961894512177,0.8947944,0.0153947575,-0.18703527748584747,0.0167062
720.8333333330064,-0.0032949026,-0.82763827,0.009651156,-2.3181248,0.015360019,1.5894742,0.7994035,0.03999972,0.0399998,-9.828127,0.10157537460327148,0.9239374,0.015603883,-0.19003014266490936,0.017058887
720.8499999996731,-0.0034020622,-0.8289772,0.009948964,-2.316942,0.015833003,1.5900476,0.79981875,0.039999716,0.039999798,-9.825323,0.10478102415800095,0.9536177,0.015809843,-0.19302307069301605,0.017415354
720.8666666663397,-0.0035110249,-0.83033824,0.010251785,-2.3157387,0.01631395,1.5906308,0.800241,0.03999971,0.03999979,-9.822304,0.10805611312389374,0.98378956,0.016011944,-0.19601093232631683,0.017774703
720.8833333330064,-0.0036217866,-0.8317222,0.010559605,-2.3145156,0.016802836,1.5912234,0.80067015,0.0399997,0.039999787,-9.819119,0.11139888316392899,1.0144114,0.016210107,-0.19899344444274902,0.018135903
720.899999999673,-0.003734344,-0.83312863,0.010872423,-2.3132732,0.017299661,1.5918255,0.80110633,0.039999694,0.03999978,-9.815723,0.11481783539056778,1.0456083,0.016405018,-0.20196759700775146,0.018500803
720.9166666663397,-0.0038486938,-0.8345574,0.01119022,-2.3120103,0.017804392,1.5924374,0.80154943,0.039999682,0.039999772,-9.8122425,0.11829951405525208,1.0772675,0.016595501,-0.20493574440479279,0.01886764
720.9333333330063,-0.003964831,-0.83600855,0.011512985,-2.3107278,0.018317016,1.593059,0.80199957,0.039999668,0.039999757,-9.808493,0.12186102569103241,1.1094036,0.016782138,-0.20789320766925812,0.01923803
720.949999999673,-0.0040827496,-0.8374822,0.011840707,-2.309426,0.018837502,1.5936899,0.8024565,0.039999653,0.039999746,-9.804603,0.1254940927028656,1.142045,0.016963955,-0.21084141731262207,0.019610234
720.9666666663396,-0.0042024483,-0.8389779,0.012173368,-2.3081038,0.019365843,1.5943304,0.8029203,0.03999964,0.039999735,-9.800318,0.12916351854801178,1.1752499,0.017141897,-0.21378017961978912,0.019986032
720.9833333330063,-0.0043239174,-0.8404959,0.012510954,-2.3067627,0.019902,1.5949805,0.803391,0.039999627,0.039999723,-9.796228,0.13297472894191742,1.2087941,0.01731597,-0.21670624613761902,0.020363512
720.9999999996729,-0.004447153,-0.84203583,0.012853447,-2.3054023,0.020445954,1.5956397,0.80386853,0.03999961,0.03999971,-9.791826,0.1368330419063568,1.2429047,0.017485,-0.2196221500635147,0.020744482
721.0166666663396,-0.0045721456,-0.8435978,0.013200823,-2.3040218,0.020997668,1.5963086,0.804353,0.0399996,0.0399997,-9.787192,0.14076536893844604,1.2774748,0.017649123,-0.22252808511257172,0.021127267
721.0333333330062,-0.0046988917,-0.8451816,0.01355307,-2.3026228,0.021557111,1.5969868,0.80484396,0.039999586,0.039999686,-9.782261,0.14477455615997314,1.3125185,0.017808268,-0.225417360663414,0.021513272
721.0499999996729,-0.00482738,-0.8467874,0.01391016,-2.3012037,0.022124259,1.5976744,0.80534184,0.039999574,0.03999968,-9.77731,0.14884750545024872,1.3480364,0.017964007,-0.22829769551753998,0.02190098
721.0666666663395,-0.004957605,-0.84841484,0.014272076,-2.299766,0.022699066,1.598371,0.8058464,0.03999956,0.039999664,-9.771887,0.15301059186458588,1.384045,0.018113932,-0.2311580777168274,0.022292027
721.0833333330062,-0.005089559,-0.85006374,0.01463879,-2.298309,0.023281496,1.5990772,0.80635756,0.03999955,0.039999656,-9.76645,0.15724502503871918,1.4204972,0.018259248,-0.23400631546974182,0.02268459
721.0999999996728,-0.005223231,-0.8517342,0.015010283,-2.296833,0.02387152,1.5997925,0.8068755,0.03999954,0.03999965,-9.760708,0.16156037151813507,1.4573935,0.01839955,-0.23683777451515198,0.023080362
721.1166666663395,-0.005358612,-0.85342616,0.0153865265,-2.2953384,0.02446909,1.6005173,0.8074001,0.039999537,0.03999965,-9.754739,0.1659434735774994,1.494782,0.018533971,-0.2396526336669922,0.023477558
721.1333333330061,-0.005495692,-0.85513943,0.015767489,-2.2938244,0.025074152,1.6012503,0.8079311,0.039999537,0.03999965,-9.748552,0.1704178899526596,1.532611,0.018663391,-0.24244928359985352,0.023877995
721.1499999996728,-0.0056344643,-0.85687363,0.016153146,-2.2922924,0.025686674,1.6019928,0.8084689,0.039999533,0.03999965,-9.742053,0.17496523261070251,1.5709099,0.018787945,-0.24522896111011505,0.024279747
721.1666666663394,-0.005774913,-0.8586289,0.016543468,-2.290741,0.026306609,1.6027447,0.80901307,0.03999953,0.039999645,-9.735444,0.17959293723106384,1.6096016,0.018905893,-0.24799025058746338,0.02468465
721.1833333330061,-0.0059170313,-0.860405,0.016938424,-2.2891715,0.026933901,1.603505,0.80956376,0.03999952,0.039999638,-9.728378,0.18429653346538544,1.6487567,0.019019071,-0.2507266402244568,0.025090678
721.1999999996727,-0.0060608075,-0.8622019,0.017337983,-2.287584,0.027568504,1.6042744,0.8101208,0.039999507,0.039999627,-9.721256,0.18908274173736572,1.6883684,0.019126242,-0.2534473240375519,0.025499888
721.2166666663394,-0.0062062307,-0.86401933,0.01774212,-2.2859778,0.02821038,1.6050524,0.81068426,0.039999492,0.039999615,-9.713627,0.19389981031417847,1.7284298,0.019228024,-0.2561475336551666,0.025910111
721.233333333006,-0.0063532856,-0.86585724,0.01815079,-2.284354,0.028859455,1.6058393,0.811254,0.039999478,0.0399996,-9.706052,0.19889777898788452,1.7688334,0.019323736,-0.2588246166706085,0.02632337
721.2499999996727,-0.006501963,-0.8677155,0.01856396,-2.2827122,0.029515684,1.6066346,0.81183,0.03999947,0.039999597,-9.698127,0.20391669869422913,1.8097069,0.019413956,-0.2614811360836029,0.026737556
721.2666666663393,-0.006652248,-0.8695937,0.018981598,-2.2810524,0.030179014,1.6074386,0.81241226,0.039999466,0.039999593,-9.689847,0.20903092622756958,1.8509932,0.019498343,-0.264114648103714,0.027154557
721.283333333006,-0.0068041277,-0.8714919,0.01940366,-2.279375,0.030849382,1.6082513,0.8130007,0.03999946,0.03999959,-9.681282,0.2142098844051361,1.8926644,0.019576507,-0.2667243778705597,0.027572475
721.2999999996727,-0.00695759,-0.87340987,0.019830115,-2.2776804,0.031526722,1.6090726,0.8135952,0.039999448,0.03999958,-9.672472,0.21948352456092834,1.9347595,0.019648938,-0.2693093419075012,0.02799306
721.3166666663393,-0.007112622,-0.87534755,0.02026093,-2.2759686,0.032210972,1.609902,0.8141959,0.039999433,0.039999567,-9.663399,0.22482863068580627,1.9772413,0.019715285,-0.2718716561794281,0.028414506
721.333333333006,-0.0072692055,-0.87730455,0.020696057,-2.2742393,0.032902084,1.6107398,0.8148025,0.039999418,0.039999556,-9.65396,0.2302546352148056,2.0201178,0.019775208,-0.27440768480300903,0.028837677
721.3499999996726,-0.007427331,-0.8792809,0.021135457,-2.2724931,0.03359998,1.6115859,0.8154151,0.039999407,0.039999545,-9.644243,0.23577150702476501,2.063383,0.019828895,-0.2769182622432709,0.029263273
721.3666666663393,-0.0075869807,-0.88127637,0.021579092,-2.2707303,0.0343046,1.61244,0.8160335,0.039999396,0.039999533,-9.634246,0.2413579523563385,2.107023,0.01987706,-0.27940258383750916,0.029690472
721.3833333330059,-0.00774814,-0.8832907,0.022026919,-2.2689507,0.035015896,1.6133022,0.81665784,0.03999939,0.03999953,-9.623958,0.2470313161611557,2.1510293,0.019918932,-0.28186118602752686,0.030118268
721.3999999996726,-0.007910793,-0.8853237,0.022478892,-2.2671547,0.035733767,1.6141723,0.817288,0.039999384,0.03999953,-9.613293,0.2527768313884735,2.1953998,0.01995402,-0.2842909097671509,0.030547323
721.4166666663392,-0.008074927,-0.8873752,0.022934964,-2.265342,0.03645816,1.6150504,0.81792384,0.03999938,0.039999526,-9.602364,0.25861433148384094,2.2401235,0.019982712,-0.28669410943984985,0.030978778
721.4333333330059,-0.008240524,-0.88944495,0.023395095,-2.263513,0.037189007,1.6159363,0.81856537,0.039999373,0.039999522,-9.5910425,0.264519602060318,2.285203,0.020005202,-0.28906700015068054,0.031410486
721.4499999996725,-0.008407565,-0.8915327,0.023859235,-2.2616687,0.03792623,1.61683,0.81921244,0.039999362,0.03999951,-9.579427,0.27051734924316406,2.3306222,0.020021385,-0.2914097011089325,0.03184416
721.4666666663392,-0.008576035,-0.893638,0.024327341,-2.2598083,0.038669743,1.6177313,0.8198651,0.03999935,0.039999504,-9.567401,0.27653175592422485,2.3764076,0.020031113,-0.29372638463974,0.03227821
721.4833333330058,-0.008745916,-0.89576125,0.02479936,-2.2579322,0.03941948,1.6186402,0.8205232,0.03999934,0.039999492,-9.555318,0.28273776173591614,2.422433,0.02003433,-0.2960122227668762,0.032714143
721.4999999996725,-0.008917191,-0.8979021,0.025275247,-2.2560406,0.04017537,1.6195565,0.82118666,0.039999317,0.039999474,-9.542689,0.28895971179008484,2.4688525,0.020031247,-0.29826658964157104,0.03315008
721.5166666663391,-0.009089842,-0.9000601,0.025754957,-2.2541344,0.04093733,1.6204801,0.8218555,0.039999302,0.039999463,-9.529713,0.2952670753002167,2.5155928,0.020021865,-0.300487756729126,0.033586927
721.5333333330058,-0.009263854,-0.9022352,0.026238432,-2.2522132,0.041705284,1.621411,0.82252955,0.039999295,0.03999946,-9.516519,0.3016498386859894,2.562609,0.02000559,-0.3026815354824066,0.03402465
721.5499999996724,-0.009439206,-0.9044269,0.026725633,-2.250277,0.042479135,1.6223491,0.8232088,0.039999284,0.039999448,-9.502854,0.30812209844589233,2.6099374,0.01998304,-0.30484166741371155,0.034463905
721.5666666663391,-0.009615879,-0.9066352,0.027216494,-2.2483263,0.043258816,1.6232942,0.82389313,0.03999927,0.039999437,-9.488849,0.31464818120002747,2.6575265,0.019954018,-0.30696871876716614,0.034902956
721.5833333330057,-0.009793856,-0.90885985,0.02771097,-2.2463608,0.044044252,1.624246,0.8245826,0.039999258,0.039999425,-9.4745245,0.32127645611763,2.705439,0.019918941,-0.30906373262405396,0.03534345
721.5999999996724,-0.0099731125,-0.9111006,0.02820901,-2.2443812,0.044835333,1.6252048,0.82527685,0.03999924,0.03999941,-9.459761,0.3279554545879364,2.7536025,0.019876657,-0.311124324798584,0.03578341
721.616666666339,-0.010153639,-0.91335714,0.028710555,-2.2423878,0.045631997,1.6261705,0.8259762,0.03999923,0.039999403,-9.444694,0.33472850918769836,2.8020437,0.019828938,-0.31315043568611145,0.03622468
721.6333333330057,-0.010335408,-0.91562927,0.029215546,-2.2403808,0.046434138,1.6271427,0.82668006,0.039999224,0.0399994,-9.429269,0.341563880443573,2.8507195,0.019773675,-0.3151423931121826,0.036665242
721.6499999996723,-0.010518406,-0.91791666,0.02972393,-2.23836,0.047241684,1.6281219,0.8273888,0.039999217,0.039999392,-9.413483,0.3484850227832794,2.8996742,0.019713335,-0.3171008825302124,0.03710684
721.666666666339,-0.010702606,-0.9202192,0.030235657,-2.236326,0.04805454,1.6291074,0.8281021,0.039999213,0.039999392,-9.397251,0.35546034574508667,2.9488378,0.019645987,-0.31902119517326355,0.03754766
721.6833333330056,-0.010887993,-0.92253655,0.030750666,-2.2342792,0.048872616,1.630099,0.8288201,0.03999921,0.039999392,-9.380687,0.36252349615097046,2.998248,0.019572923,-0.32090598344802856,0.037988428
721.6999999996723,-0.011074542,-0.9248684,0.031268902,-2.2322192,0.04969581,1.6310967,0.8295425,0.039999202,0.039999384,-9.363807,0.36966007947921753,3.0479016,0.019492818,-0.3227570950984955,0.038430005
721.7166666663389,-0.011262237,-0.9272145,0.03179031,-2.230147,0.05052405,1.6321006,0.83027,0.039999202,0.03999939,-9.346271,0.3767898976802826,3.0977669,0.019406935,-0.3245716094970703,0.0388705
721.7333333330056,-0.0114510525,-0.92957485,0.032314815,-2.228062,0.051357225,1.6331105,0.8310014,0.039999202,0.039999392,-9.328782,0.3841152787208557,3.14778,0.019311558,-0.32635068893432617,0.039310835
721.7499999996722,-0.01164097,-0.93194884,0.032842375,-2.2259653,0.052195244,1.6341263,0.8317368,0.039999202,0.039999392,-9.31062,0.3914485275745392,3.1980364,0.019211797,-0.3280888795852661,0.039751373
721.7666666663389,-0.011831967,-0.93433636,0.03337294,-2.2238564,0.05303802,1.6351478,0.832476,0.03999921,0.039999403,-9.292237,0.3988564610481262,3.2484853,0.019106813,-0.3297941982746124,0.04019075
721.7833333330055,-0.012024023,-0.9367371,0.03390642,-2.2217364,0.05388546,1.636175,0.83321947,0.03999921,0.039999403,-9.273319,0.4063187539577484,3.299083,0.018997772,-0.331459105014801,0.040630125
721.7999999996722,-0.012217114,-0.93915087,0.03444277,-2.2196045,0.054737456,1.6372077,0.8339671,0.039999202,0.0399994,-9.254122,0.4138520658016205,3.3498669,0.01888148,-0.3330886960029602,0.04106793
721.8166666663388,-0.012411217,-0.94157726,0.034981932,-2.2174613,0.055593904,1.6382458,0.83471864,0.039999187,0.03999939,-9.234389,0.4214400053024292,3.4008105,0.018758487,-0.33467650413513184,0.041504893
721.8333333330055,-0.012606313,-0.94401616,0.035523847,-2.215307,0.056454718,1.6392891,0.835474,0.039999187,0.039999392,-9.21435,0.4291027784347534,3.4518864,0.018629152,-0.336226224899292,0.041940838
721.8499999996721,-0.012802378,-0.94646704,0.036068436,-2.2131424,0.057319794,1.6403376,0.83623314,0.039999194,0.0399994,-9.193826,0.43681976199150085,3.5031304,0.018494481,-0.33773475885391235,0.042376615
721.8666666663388,-0.01299939,-0.9489298,0.036615636,-2.210967,0.05818905,1.641391,0.836996,0.0399992,0.039999403,-9.173065,0.44459453225135803,3.5544994,0.018353412,-0.33920690417289734,0.042811334
721.8833333330055,-0.013197323,-0.9514041,0.037165377,-2.208782,0.059062365,1.6424494,0.8377626,0.039999194,0.039999403,-9.151759,0.4524311423301697,3.6059773,0.018206263,-0.3406369388103485,0.04324357
721.8999999996721,-0.013396157,-0.95388955,0.03771764,-2.2065864,0.05993963,1.6435126,0.83853275,0.039999202,0.039999414,-9.130196,0.4603203535079956,3.6575787,0.018052517,-0.34203046560287476,0.043674633
721.9166666663388,-0.013595868,-0.95638615,0.03827231,-2.2043812,0.06082076,1.6445806,0.8393061,0.03999921,0.039999425,-9.108053,0.4682687222957611,3.7092576,0.01789254,-0.3433804214000702,0.044104103
721.9333333330054,-0.01379643,-0.95889336,0.038829356,-2.2021666,0.061705638,1.6456531,0.8400827,0.03999921,0.039999425,-9.085602,0.4762754738330841,3.7610693,0.01772782,-0.3446888327598572,0.04453258
721.9499999996721,-0.01399782,-0.96141094,0.039388675,-2.199943,0.06259417,1.64673,0.8408627,0.039999213,0.039999433,-9.062736,0.4843098819255829,3.8129482,0.017558167,-0.34595587849617004,0.04495851
721.9666666663387,-0.01420002,-0.96393865,0.03995022,-2.1977105,0.06348624,1.6478112,0.84164566,0.03999922,0.039999444,-9.039413,0.4923786222934723,3.8649163,0.017381603,-0.34718456864356995,0.04538253
721.9833333330054,-0.014403,-0.96647614,0.040513933,-2.1954696,0.06438173,1.6488966,0.84243166,0.039999228,0.03999945,-9.015817,0.5005781054496765,3.9169168,0.017200535,-0.3483688533306122,0.045805164
721.999999999672,-0.0146067375,-0.96902317,0.041079745,-2.19322,0.065280564,1.6499859,0.8432206,0.039999228,0.03999945,-8.991828,0.5087840557098389,3.969002,0.017013883,-0.3495142161846161,0.046225935
722.0166666663387,-0.01481121,-0.9715794,0.041647587,-2.190962,0.06618261,1.6510792,0.8440124,0.039999235,0.039999463,-8.9672785,0.5170114636421204,4.021112,0.016822262,-0.3506152033805847,0.046643395
722.0333333330053,-0.015016391,-0.97414446,0.042217378,-2.1886966,0.06708779,1.6521761,0.84480685,0.039999243,0.03999947,-8.942437,0.5253139138221741,4.0732813,0.016624982,-0.3516741991043091,0.047059238
722.049999999672,-0.015222255,-0.9767181,0.04278906,-2.1864238,0.06799598,1.6532768,0.8456039,0.039999247,0.03999948,-8.9171715,0.5336275100708008,4.1254506,0.016423292,-0.35269173979759216,0.04747066
722.0666666663386,-0.015428778,-0.9793001,0.04336256,-2.1841433,0.068907075,1.6543812,0.84640366,0.03999925,0.039999485,-8.891543,0.5420173406600952,4.17766,0.01621679,-0.35366758704185486,0.04788117
722.0833333330053,-0.015635937,-0.98189,0.04393781,-2.1818566,0.06982095,1.6554886,0.8472058,0.039999258,0.039999496,-8.865414,0.5504096746444702,4.2298694,0.016004667,-0.35459744930267334,0.048287924
722.0999999996719,-0.015843708,-0.9844875,0.04451474,-2.179563,0.07073749,1.6565998,0.8480102,0.03999927,0.039999507,-8.839048,0.558872401714325,4.2820673,0.015787832,-0.35548916459083557,0.04869287
722.1166666663386,-0.016052065,-0.9870923,0.045093298,-2.1772625,0.07165661,1.6577138,0.84881663,0.039999273,0.03999951,-8.812206,0.5673502683639526,4.334255,0.015566779,-0.35633644461631775,0.049094513
722.1333333330052,-0.016260978,-0.98970413,0.045673404,-2.1749558,0.07257817,1.6588308,0.8496256,0.039999276,0.03999952,-8.784858,0.5758442878723145,4.386417,0.0153426025,-0.35713812708854675,0.049491797
722.1499999996719,-0.016470429,-0.99232256,0.046254978,-2.172643,0.07350209,1.6599506,0.8504365,0.039999295,0.03999954,-8.757253,0.5843936204910278,4.438555,0.015111944,-0.3578980267047882,0.049886025
722.1666666663385,-0.016680384,-0.9949475,0.046837952,-2.1703246,0.07442824,1.6610732,0.85124934,0.039999306,0.039999556,-8.729144,0.5929527878761292,4.4906535,0.014877934,-0.3586112856864929,0.050276313
722.1833333330052,-0.016890822,-0.9975785,0.047422264,-2.1680012,0.0753565,1.6621984,0.852064,0.03999931,0.03999956,-8.700742,0.6015620231628418,4.5427065,0.014639817,-0.35928112268447876,0.05066412
722.1999999996718,-0.017101726,-1.0002153,0.04800784,-2.1656725,0.07628678,1.663326,0.8528805,0.039999314,0.039999567,-8.671995,0.6101847887039185,4.594703,0.014397393,-0.35990989208221436,0.05104727
722.2166666663385,-0.017313058,-1.0028574,0.0485946,-2.1633391,0.07721896,1.6644558,0.8536987,0.03999932,0.039999574,-8.642677,0.6187860369682312,4.6466303,0.014151099,-0.36049312353134155,0.051427305
722.2333333330051,-0.017524796,-1.0055046,0.04918248,-2.161001,0.0781529,1.6655878,0.8545183,0.039999325,0.039999582,-8.613173,0.6274885535240173,4.6984663,0.01390074,-0.3610321879386902,0.051802296
722.2499999996718,-0.017736917,-1.0081569,0.049771406,-2.1586583,0.0790885,1.6667217,0.8553394,0.03999934,0.039999597,-8.583246,0.6361818909645081,4.750213,0.013647137,-0.36152753233909607,0.052173954
722.2666666663384,-0.017949391,-1.0108135,0.05036131,-2.1563125,0.08002565,1.6678575,0.8561619,0.03999935,0.03999961,-8.552815,0.6448666453361511,4.8018985,0.013390087,-0.36197546124458313,0.05254034
722.2833333330051,-0.018162195,-1.0134743,0.05095211,-2.1539621,0.08096425,1.6689953,0.85698575,0.03999936,0.03999962,-8.522246,0.6535947918891907,4.853449,0.013129284,-0.3623831272125244,0.052903417
722.2999999996717,-0.0183753,-1.0161388,0.051543746,-2.1516094,0.08190418,1.6701345,0.8578106,0.03999937,0.039999634,-8.491037,0.6623032689094543,4.9048877,0.012865261,-0.36274054646492004,0.053260352
722.3166666663384,-0.01858868,-1.0188067,0.052136134,-2.149253,0.08284534,1.6712753,0.8586366,0.03999938,0.03999965,-8.459783,0.6710533499717712,4.9562106,0.012597905,-0.3630603551864624,0.053612888
722.333333333005,-0.018802315,-1.0214779,0.052729208,-2.1468942,0.08378757,1.6724175,0.8594635,0.03999939,0.039999656,-8.427875,0.6797866821289062,5.007374,0.012327708,-0.3633314371109009,0.053961165
722.3499999996717,-0.019016169,-1.0241518,0.05332291,-2.144533,0.08473081,1.6735609,0.86029136,0.039999403,0.039999675,-8.395822,0.68853759765625,5.0584335,0.012054695,-0.36355969309806824,0.054303486
722.3666666663383,-0.019230224,-1.0268284,0.05391715,-2.1421692,0.08567489,1.674705,0.86111987,0.039999407,0.03999968,-8.363338,0.6972967982292175,5.1093187,0.011778334,-0.3637443482875824,0.054641522
722.383333333005,-0.019444447,-1.0295072,0.054511856,-2.139803,0.0866197,1.6758502,0.86194915,0.03999942,0.039999697,-8.330428,0.7060335874557495,5.1600533,0.011500021,-0.36388254165649414,0.054973215
722.3999999996716,-0.019658824,-1.0321877,0.055106964,-2.1374362,0.08756514,1.6769962,0.862779,0.03999945,0.039999727,-8.297195,0.7147817015647888,5.210621,0.011219011,-0.36397403478622437,0.05530025
722.4166666663383,-0.01987332,-1.0348699,0.055702392,-2.1350684,0.0885111,1.6781427,0.86360925,0.039999466,0.039999746,-8.263802,0.723539412021637,5.261011,0.010934747,-0.36402490735054016,0.05562105
722.433333333005,-0.020087907,-1.0375533,0.056298047,-2.132699,0.08945745,1.6792899,0.8644397,0.039999485,0.039999764,-8.230007,0.7322897911071777,5.311232,0.010648791,-0.36403363943099976,0.05593714
722.4499999996716,-0.02030256,-1.0402373,0.056893893,-2.130329,0.090404086,1.6804373,0.8652706,0.039999504,0.039999787,-8.195738,0.7410076260566711,5.361216,0.010361427,-0.3639928698539734,0.0562458
722.4666666663383,-0.020517252,-1.0429221,0.057489835,-2.1279583,0.09135089,1.681585,0.86610156,0.03999952,0.0399998,-8.161232,0.749695897102356,5.411012,0.010071469,-0.3639093041419983,0.0565496
722.4833333330049,-0.020731956,-1.045607,0.058085818,-2.1255877,0.092297755,1.6827326,0.8669326,0.03999954,0.039999828,-8.126448,0.7584459781646729,5.460645,0.009780025,-0.36378079652786255,0.056846146
722.4999999996716,-0.02094665,-1.0482916,0.05868174,-2.123217,0.09324453,1.6838802,0.86776346,0.03999956,0.039999846,-8.091361,0.7671473622322083,5.5100183,0.009486754,-0.3636094033718109,0.057137337
722.5166666663382,-0.021161307,-1.0509759,0.059277557,-2.120847,0.09419111,1.6850276,0.86859417,0.03999959,0.03999988,-8.055936,0.7758162617683411,5.559158,0.009192486,-0.36339297890663147,0.057420913
722.5333333330049,-0.021375898,-1.0536591,0.059873175,-2.118478,0.09513742,1.6861746,0.8694246,0.03999962,0.03999991,-8.02017,0.784475564956665,5.6080985,0.0088968845,-0.36313095688819885,0.057698872
722.5499999996715,-0.021590395,-1.0563415,0.060468532,-2.1161096,0.09608328,1.687321,0.87025464,0.039999645,0.039999936,-7.9842978,0.7931299805641174,5.6567574,0.008599932,-0.3628297448158264,0.0579704
722.5666666663382,-0.021804776,-1.0590224,0.06106355,-2.1137419,0.09702862,1.6884668,0.8710844,0.039999668,0.039999958,-7.9478874,0.8017383217811584,5.705227,0.008302123,-0.362481027841568,0.0582347
722.5833333330048,-0.022019017,-1.0617017,0.061658163,-2.1113763,0.09797331,1.689612,0.87191355,0.039999686,0.039999977,-7.9112487,0.8103109002113342,5.753379,0.008003157,-0.3620848059654236,0.05849161
722.5999999996715,-0.022233084,-1.064379,0.06225229,-2.1090124,0.09891724,1.6907563,0.87274194,0.03999971,0.04,-7.8744187,0.8188588619232178,5.801319,0.0077032815,-0.36164525151252747,0.058737334
722.6166666663381,-0.022446956,-1.0670537,0.06284586,-2.1066508,0.09986029,1.6918993,0.8735697,0.03999973,0.04,-7.8373017,0.8273606896400452,5.8489876,0.0074033514,-0.361162006855011,0.058971077
722.6333333330048,-0.022660602,-1.0697256,0.0634388,-2.1042914,0.100802384,1.6930411,0.87439644,0.039999753,0.04,-7.799954,0.8359046578407288,5.896364,0.0071019973,-0.36063671112060547,0.059204444
722.6499999996714,-0.022873996,-1.0723946,0.064031035,-2.1019347,0.10174341,1.6941814,0.8752223,0.03999976,0.04,-7.762286,0.8443983197212219,5.943432,0.0068013454,-0.3600656986236572,0.05943603
722.6666666663381,-0.02308712,-1.07506,0.06462253,-2.0995812,0.10268322,1.6953205,0.8760469,0.039999764,0.04,-7.72438,0.8527866005897522,5.990262,0.006500046,-0.3594503402709961,0.059654035
722.6833333330047,-0.023299946,-1.0777217,0.06521316,-2.0972311,0.10362169,1.6964581,0.8768705,0.039999757,0.04,-7.686351,0.8611921668052673,6.0367694,0.00619963,-0.35879427194595337,0.059865348
722.6999999996714,-0.023512438,-1.0803794,0.065802865,-2.0948842,0.104558654,1.6975937,0.87769276,0.039999764,0.04,-7.647991,0.8695479035377502,6.0829635,0.0058986307,-0.3580930233001709,0.060069505
722.716666666338,-0.02372458,-1.083033,0.066391595,-2.092542,0.105494134,1.6987274,0.8785136,0.039999753,0.04,-7.609392,0.8778116703033447,6.1288433,0.005598307,-0.3573475778102875,0.060264222
722.7333333330047,-0.023936344,-1.0856814,0.06697924,-2.0902035,0.10642784,1.6998589,0.87933284,0.039999757,0.04,-7.5706654,0.8860998153686523,6.17449,0.005298532,-0.35656142234802246,0.060450055
722.7499999996713,-0.024147697,-1.0883251,0.06756575,-2.0878696,0.10735979,1.7009884,0.88015056,0.039999753,0.04,-7.5317054,0.8943344354629517,6.219717,0.0049997475,-0.3557337820529938,0.060629554
722.766666666338,-0.02435862,-1.0909632,0.068151064,-2.0855405,0.108289786,1.7021157,0.8809667,0.03999975,0.04,-7.4925075,0.902491569519043,6.264676,0.004701526,-0.3548623323440552,0.060799323
722.7833333330046,-0.024569089,-1.0935955,0.06873509,-2.0832162,0.10921776,1.7032405,0.8817811,0.03999975,0.04,-7.4531755,0.9106036424636841,6.3092585,0.00440371,-0.3539493978023529,0.06096065
722.7999999996713,-0.024779076,-1.096222,0.06931779,-2.0808973,0.11014357,1.7043625,0.8825935,0.039999753,0.04,-7.413611,0.918673038482666,6.3535194,0.0041071135,-0.35299375653266907,0.06111327
722.8166666663379,-0.024988549,-1.098842,0.069899105,-2.0785842,0.11106717,1.7054819,0.883404,0.039999742,0.04,-7.373853,0.9266757965087891,6.397464,0.0038121827,-0.3519950211048126,0.06125682
722.8333333330046,-0.025197497,-1.1014557,0.07047886,-2.0762768,0.11198839,1.7065986,0.8842124,0.039999735,0.04,-7.3340745,0.9346323609352112,6.4410243,0.0035180408,-0.35095861554145813,0.061391704
722.8499999996712,-0.025405882,-1.1040623,0.071057096,-2.0739758,0.112907104,1.7077123,0.8850186,0.03999974,0.04,-7.2939377,0.9425320029258728,6.4842796,0.0032257354,-0.3498762845993042,0.061516985
722.8666666663379,-0.025613679,-1.1066616,0.07163373,-2.0716813,0.11382324,1.7088227,0.88582253,0.03999972,0.04,-7.2537856,0.9503704905509949,6.527148,0.0029350678,-0.34875431656837463,0.06163453
722.8833333330045,-0.025820868,-1.109253,0.07220862,-2.0693932,0.11473666,1.70993,0.8866243,0.039999716,0.04,-7.2134757,0.9581491351127625,6.5696354,0.0026463603,-0.34759193658828735,0.06174343
722.8999999996712,-0.026027426,-1.1118369,0.07278174,-2.0671124,0.11564728,1.7110337,0.8874236,0.039999716,0.04,-7.173017,0.9658616185188293,6.6117754,0.0023583816,-0.34638872742652893,0.061841197
722.9166666663378,-0.026233317,-1.1144125,0.07335303,-2.0648384,0.11655496,1.7121341,0.88822,0.03999972,0.04,-7.1324654,0.9735069274902344,6.6535683,0.0020724798,-0.3451462984085083,0.061929315
722.9333333330045,-0.026438525,-1.11698,0.07392243,-2.0625722,0.11745964,1.7132307,0.889014,0.039999716,0.04,-7.0916815,0.9810857176780701,6.6949563,0.0017904395,-0.343860000371933,0.06200751
722.9499999996711,-0.02664303,-1.1195384,0.07448985,-2.060314,0.11836117,1.7143236,0.8898052,0.039999716,0.04,-7.0509048,0.9885966181755066,6.736009,0.001510033,-0.34253495931625366,0.062076166
722.9666666663378,-0.0268468,-1.1220877,0.07505527,-2.058064,0.11925946,1.7154127,0.8905936,0.039999716,0.04,-7.0101156,0.9960421919822693,6.776612,0.0012317703,-0.34117087721824646,0.062134966
722.9833333330045,-0.027049813,-1.1246276,0.07561853,-2.055822,0.12015439,1.7164974,0.89137906,0.03999972,0.04,-6.969103,1.0034253597259521,6.8168983,0.0009561955,-0.33976835012435913,0.062184013
722.9999999996711,-0.02725204,-1.1271574,0.076179616,-2.0535882,0.121045895,1.717578,0.8921615,0.039999712,0.04,-6.927965,1.0107307434082031,6.8567543,0.0006833473,-0.3383251130580902,0.062223528
723.0166666663378,-0.027453467,-1.1296775,0.076738454,-2.0513637,0.12193381,1.7186544,0.8929407,0.03999971,0.04,-6.886865,1.0179541110992432,6.896222,0.000413453,-0.3368437588214874,0.062251925
723.0333333330044,-0.027654065,-1.1321874,0.07729498,-2.0491476,0.12281803,1.719726,0.8937167,0.039999716,0.04,-6.8456945,1.0251189470291138,6.93532,0.00014679569,-0.3353242576122284,0.062270686
723.0499999996711,-0.027853804,-1.1346864,0.07784916,-2.0469418,0.123698495,1.7207931,0.8944894,0.039999712,0.04,-6.804354,1.0321910381317139,6.974011,-0.000116515635,-0.33376389741897583,0.06227853
723.0666666663377,-0.028052667,-1.1371744,0.07840089,-2.0447457,0.12457507,1.7218555,0.8952588,0.039999712,0.04,-6.7632413,1.0392040014266968,7.012288,-0.00037696166,-0.33217111229896545,0.0622766
723.0833333330044,-0.028250631,-1.1396513,0.078950115,-2.042559,0.12544768,1.7229134,0.896025,0.039999716,0.04,-6.721962,1.0461363792419434,7.0501647,-0.00063448335,-0.33054104447364807,0.062264364
723.099999999671,-0.02844767,-1.1421167,0.07949677,-2.0403826,0.12631622,1.7239661,0.8967874,0.03999972,0.04,-6.6805243,1.0529823303222656,7.087638,-0.0008897821,-0.32886964082717896,0.062242176
723.1166666663377,-0.028643766,-1.1445701,0.08004081,-2.038217,0.12718056,1.7250137,0.89754605,0.03999972,0.04,-6.639279,1.059752106666565,7.1247153,-0.0011405183,-0.3271647095680237,0.062208403
723.1333333330043,-0.028838895,-1.1470118,0.08058214,-2.0360622,0.12804064,1.7260562,0.8983009,0.03999972,0.04,-6.597973,1.066440463066101,7.1613617,-0.0013872136,-0.32542508840560913,0.062164716
723.149999999671,-0.029033031,-1.1494408,0.08112071,-2.0339184,0.12889634,1.7270935,0.89905185,0.03999972,0.04,-6.556613,1.0730499029159546,7.197638,-0.001629936,-0.32364755868911743,0.062109917
723.1666666663376,-0.029226152,-1.1518575,0.08165647,-2.0317855,0.12974757,1.7281255,0.89979887,0.039999723,0.04,-6.515357,1.0795778036117554,7.23343,-0.0018689501,-0.3218362629413605,0.06204426
723.1833333330043,-0.029418232,-1.1542611,0.08218933,-2.029664,0.13059418,1.7291515,0.90054196,0.03999972,0.04,-6.4739704,1.086001992225647,7.2688856,-0.0021033166,-0.31998544931411743,0.061968304
723.1999999996709,-0.029609257,-1.1566514,0.08271929,-2.027554,0.13143611,1.7301724,0.90128094,0.039999716,0.04,-6.432809,1.0923738479614258,7.303887,-0.0023344308,-0.31810519099235535,0.061881486
723.2166666663376,-0.029799204,-1.1590283,0.083246216,-2.0254557,0.13227327,1.7311871,0.902016,0.03999971,0.04,-6.3916717,1.0986268520355225,7.3383965,-0.0025607974,-0.31618544459342957,0.061783135
723.2333333330042,-0.029988047,-1.1613915,0.083770104,-2.0233703,0.13310552,1.732196,0.9027462,0.03999973,0.04,-6.35039,1.1048166751861572,7.3726277,-0.0027840706,-0.3142336905002594,0.061674315
723.2499999996709,-0.030175773,-1.1637406,0.084290855,-2.0212963,0.1339329,1.7331988,0.90347207,0.03999972,0.04,-6.309367,1.1109188795089722,7.406391,-0.0030004494,-0.3122502863407135,0.061554465
723.2666666663375,-0.030362353,-1.1660753,0.08480842,-2.0192356,0.13475518,1.7341957,0.90419376,0.039999716,0.04,-6.2682486,1.1169203519821167,7.4397063,-0.0032123108,-0.31023108959198,0.061424065
723.2833333330042,-0.030547762,-1.1683955,0.08532274,-2.0171874,0.13557225,1.7351865,0.90491104,0.03999972,0.04,-6.227396,1.1228516101837158,7.4726186,-0.0034210207,-0.3081808090209961,0.06128216
723.2999999996708,-0.030731987,-1.170701,0.08583377,-2.0151527,0.13638411,1.7361708,0.90562344,0.03999972,0.04,-6.186519,1.128685712814331,7.50508,-0.0036255203,-0.3060968816280365,0.06112934
723.3166666663375,-0.030915005,-1.1729914,0.08634144,-2.0131311,0.13719064,1.7371485,0.90633136,0.039999723,0.04,-6.1458178,1.1344435214996338,7.5371885,-0.003824212,-0.30398306250572205,0.060966313
723.3333333330041,-0.031096786,-1.1752665,0.0868457,-2.0111234,0.13799179,1.7381197,0.90703434,0.039999716,0.04,-6.1051764,1.1401007175445557,7.568815,-0.004018854,-0.3018379807472229,0.060791377
723.3499999996708,-0.03127733,-1.1775261,0.08734651,-2.0091293,0.13878742,1.7390842,0.90773267,0.03999972,0.04,-6.0647063,1.1456750631332397,7.60006,-0.0042081564,-0.2996635437011719,0.06060548
723.3666666663374,-0.0314566,-1.1797701,0.0878438,-2.0071492,0.13957742,1.740042,0.90842605,0.039999723,0.04,-6.0242834,1.1511528491973877,7.6308694,-0.0043927124,-0.2974579334259033,0.060409397
723.3833333330041,-0.031634588,-1.1819978,0.08833751,-2.0051827,0.1403618,1.7409928,0.9091144,0.03999972,0.04,-5.984019,1.1565519571304321,7.6612453,-0.004572495,-0.2952215075492859,0.06020159
723.3999999996707,-0.03181127,-1.1842091,0.0888276,-2.0032308,0.1411403,1.7419366,0.90979797,0.03999972,0.04,-5.9438705,1.161845088005066,7.691206,-0.004746729,-0.29295480251312256,0.05998229
723.4166666663374,-0.03198664,-1.1864039,0.08931404,-2.0012937,0.14191298,1.7428733,0.91047615,0.03999972,0.04,-5.9039545,1.1670684814453125,7.7207365,-0.0049169366,-0.2906607389450073,0.059752528
723.433333333004,-0.03216067,-1.1885822,0.08979671,-1.9993716,0.14267974,1.7438029,0.9111491,0.039999727,0.04,-5.8641787,1.172196388244629,7.749865,-0.0050807963,-0.2883386015892029,0.059512477
723.4499999996707,-0.032333322,-1.1907436,0.0902756,-1.9974648,0.14344057,1.7447252,0.9118168,0.03999972,0.04,-5.824559,1.177245020866394,7.778604,-0.005239583,-0.2859879434108734,0.059260808
723.4666666663373,-0.032504596,-1.1928873,0.09075064,-1.9955732,0.14419524,1.74564,0.9124792,0.039999716,0.04,-5.785336,1.1822154521942139,7.806848,-0.005393319,-0.28361135721206665,0.058997925
723.483333333004,-0.032674477,-1.195014,0.09122183,-1.9936967,0.14494376,1.7465473,0.91313624,0.03999972,0.04,-5.7459555,1.1870545148849487,7.834734,-0.005542493,-0.28120967745780945,0.05872358
723.4999999996706,-0.032842927,-1.1971227,0.09168909,-1.9918357,0.14568599,1.747447,0.9137879,0.039999727,0.04,-5.7068343,1.1918359994888306,7.86222,-0.005685607,-0.2787798345088959,0.058441147
723.5166666663373,-0.033009958,-1.1992135,0.092152365,-1.9899904,0.14642192,1.7483392,0.91443396,0.039999723,0.04,-5.6680274,1.1965131759643555,7.889224,-0.0058241826,-0.27632492780685425,0.058146834
723.533333333004,-0.033175528,-1.2012861,0.09261162,-1.9881612,0.14715144,1.7492235,0.9150743,0.039999723,0.04,-5.629346,1.2010961771011353,7.9158597,-0.0059570684,-0.27384328842163086,0.057839144
723.5499999996706,-0.033339635,-1.2033404,0.0930668,-1.9863479,0.1478745,1.7501,0.915709,0.039999727,0.04,-5.591013,1.2056268453598022,7.9420676,-0.0060840202,-0.27133989334106445,0.05752348
723.5666666663373,-0.033502262,-1.2053764,0.09351789,-1.9845514,0.14859104,1.7509688,0.916338,0.039999723,0.04,-5.5527964,1.2100422382354736,7.96787,-0.006205533,-0.26881006360054016,0.0571976
723.5833333330039,-0.033663396,-1.2073936,0.09396482,-1.9827713,0.14930095,1.7518296,0.9169613,0.03999973,0.04,-5.514863,1.214370608329773,7.9932942,-0.0063218456,-0.26625674962997437,0.056859788
723.5999999996706,-0.033823013,-1.2093922,0.094407536,-1.9810082,0.15000415,1.7526824,0.9175785,0.03999973,0.04,-5.477174,1.2186166048049927,8.018273,-0.0064326953,-0.26368001103401184,0.056511298
723.6166666663372,-0.033981096,-1.2113714,0.09484601,-1.9792616,0.15070063,1.7535268,0.9181898,0.039999735,0.04,-5.439743,1.2227884531021118,8.042887,-0.0065376074,-0.26108071208000183,0.05615176
723.6333333330039,-0.034137648,-1.2133315,0.0952802,-1.9775324,0.15139027,1.754363,0.9187951,0.039999735,0.04,-5.4025707,1.2268749475479126,8.067072,-0.0066368813,-0.258461058139801,0.055783585
723.6499999996705,-0.034292642,-1.215272,0.09571005,-1.9758201,0.15207304,1.7551908,0.91939455,0.039999727,0.04,-5.3656836,1.2308660745620728,8.090866,-0.0067304242,-0.25582069158554077,0.055403654
723.6666666663372,-0.034446068,-1.2171926,0.09613554,-1.974125,0.15274887,1.7560102,0.9199878,0.039999727,0.04,-5.3290157,1.2347725629806519,8.114246,-0.0068192934,-0.2531581521034241,0.055014092
723.6833333330038,-0.034597885,-1.2190936,0.09655663,-1.9724479,0.15341768,1.756821,0.92057484,0.039999727,0.04,-5.292713,1.2385889291763306,8.137229,-0.0069020935,-0.25047773122787476,0.05461217
723.6999999996705,-0.034748107,-1.2209743,0.09697328,-1.9707884,0.15407947,1.7576236,0.92115575,0.039999723,0.04,-5.2566886,1.2423744201660156,8.159845,-0.0069795167,-0.24777814745903015,0.054206703
723.7166666663371,-0.03489671,-1.2228352,0.09738545,-1.9691461,0.15473409,1.758417,0.9217304,0.039999723,0.04,-5.221169,1.2460556030273438,8.181996,-0.0070516,-0.24505963921546936,0.053785697
723.7333333330038,-0.035043705,-1.2246758,0.09779312,-1.9675223,0.15538152,1.7592024,0.92229867,0.03999972,0.04,-5.1854105,1.2495776414871216,8.203895,-0.0071174945,-0.2423219531774521,0.05335499
723.7499999996704,-0.035189047,-1.2264959,0.09819621,-1.9659166,0.15602173,1.7599787,0.9228606,0.039999723,0.04,-5.1502967,1.2531030178070068,8.225329,-0.007177833,-0.23956483602523804,0.052917484
723.7666666663371,-0.03533274,-1.228295,0.09859472,-1.9643294,0.15665467,1.760746,0.92341626,0.039999723,0.04,-5.1155005,1.2565293312072754,8.246396,-0.007233223,-0.23679283261299133,0.052470613
723.7833333330037,-0.03547477,-1.2300733,0.09898864,-1.9627603,0.15728024,1.7615043,0.9239655,0.039999723,0.04,-5.081082,1.2598721981048584,8.26706,-0.0072836825,-0.2340075820684433,0.052011874
723.7999999996704,-0.035615128,-1.2318312,0.09937788,-1.9612094,0.15789844,1.7622544,0.9245082,0.039999727,0.04,-5.0469246,1.2631618976593018,8.287355,-0.0073287683,-0.23120692372322083,0.051548168
723.816666666337,-0.0357538,-1.2335677,0.09976247,-1.9596771,0.15850918,1.7629949,0.9250443,0.039999727,0.04,-5.0129766,1.26632559299469,8.307285,-0.007367829,-0.22838431596755981,0.05107227
723.8333333330037,-0.035890765,-1.235283,0.10014234,-1.9581633,0.15911247,1.7637261,0.925574,0.03999973,0.04,-4.9795346,1.2694437503814697,8.326844,-0.0074011222,-0.2255507856607437,0.05058805
723.8499999996703,-0.036026027,-1.2369769,0.100517504,-1.9566686,0.15970822,1.7644489,0.926097,0.039999727,0.04,-4.9463954,1.2724921703338623,8.346021,-0.007430147,-0.22270357608795166,0.050095122
723.866666666337,-0.036159575,-1.2386492,0.10088789,-1.9551934,0.16029638,1.7651621,0.9266134,0.039999723,0.04,-4.913659,1.2754701375961304,8.3648405,-0.007453278,-0.21984237432479858,0.049594346
723.8833333330036,-0.0362914,-1.2403002,0.1012535,-1.9537376,0.1608769,1.7658662,0.9271231,0.03999972,0.04,-4.8813357,1.2783690690994263,8.383317,-0.007471916,-0.21697324514389038,0.049084034
723.8999999996703,-0.036421493,-1.2419295,0.10161429,-1.9523011,0.16144979,1.7665608,0.9276262,0.039999727,0.04,-4.8493547,1.2812137603759766,8.401426,-0.0074856845,-0.21409375965595245,0.048566066
723.9166666663369,-0.036549848,-1.2435371,0.10197025,-1.9508836,0.16201507,1.7672461,0.92812234,0.039999727,0.04,-4.817682,1.2839876413345337,8.419189,-0.0074946303,-0.2112031728029251,0.04804368
723.9333333330036,-0.03667646,-1.2451227,0.10232136,-1.949485,0.16257262,1.7679222,0.9286119,0.03999973,0.04,-4.786375,1.2866564989089966,8.436564,-0.00749779,-0.20830221474170685,0.04751028
723.9499999996702,-0.03680129,-1.2466865,0.10266759,-1.9481058,0.16312243,1.768589,0.9290946,0.03999973,0.04,-4.7554016,1.289262056350708,8.453601,-0.00749603,-0.20538866519927979,0.046968672
723.9666666663369,-0.03692437,-1.2482278,0.1030089,-1.946746,0.16366442,1.7692463,0.9295704,0.03999973,0.04,-4.7251267,1.2918858528137207,8.4702635,-0.007489649,-0.20246480405330658,0.04641944
723.9833333330035,-0.037045673,-1.249747,0.10334528,-1.9454055,0.16419859,1.7698941,0.93003947,0.039999735,0.04,-4.6947813,1.294319987297058,8.486633,-0.007477925,-0.1995345950126648,0.045863204
723.9999999996702,-0.037165195,-1.2512441,0.103676744,-1.9440844,0.1647249,1.7705326,0.9305015,0.03999973,0.04,-4.6650176,1.296748161315918,8.502659,-0.007462159,-0.19659575819969177,0.045300495
724.0166666663368,-0.03728294,-1.2527186,0.10400326,-1.9427834,0.16524336,1.7711613,0.9309567,0.03999973,0.04,-4.635634,1.2990968227386475,8.518337,-0.0074405055,-0.19364792108535767,0.04472995
724.0333333330035,-0.03739889,-1.2541705,0.1043248,-1.9415021,0.16575395,1.7717805,0.93140495,0.039999735,0.04,-4.6067944,1.3014003038406372,8.533683,-0.007414723,-0.1906970739364624,0.04415278
724.0499999996701,-0.037513047,-1.2556003,0.104641356,-1.9402406,0.16625659,1.77239,0.93184626,0.039999742,0.04,-4.5782895,1.3036572933197021,8.548707,-0.007384605,-0.1877414882183075,0.043569434
724.0666666663368,-0.037625413,-1.2570078,0.10495291,-1.9389993,0.16675134,1.7729901,0.93228054,0.039999742,0.04,-4.550188,1.305848479270935,8.563408,-0.0073499787,-0.18478097021579742,0.042981714
724.0833333330035,-0.037735965,-1.2583928,0.10525947,-1.9377775,0.16723809,1.7735803,0.93270785,0.03999975,0.04,-4.522465,1.3079582452774048,8.577814,-0.007310594,-0.18181447684764862,0.042385742
724.0999999996701,-0.037844706,-1.2597551,0.10556102,-1.9365755,0.16771688,1.7741609,0.9331282,0.039999746,0.04,-4.495183,1.3100188970565796,8.591864,-0.0072666313,-0.17884531617164612,0.041784137
724.1166666663368,-0.037951633,-1.2610948,0.10585756,-1.9353939,0.16818768,1.774732,0.93354154,0.039999746,0.04,-4.4683247,1.3120347261428833,8.605615,-0.0072185034,-0.17587295174598694,0.041177996
724.1333333330034,-0.038056754,-1.2624116,0.10614906,-1.9342324,0.1686505,1.7752932,0.933948,0.039999746,0.04,-4.4419427,1.3139878511428833,8.619042,-0.0071665975,-0.1728990525007248,0.040565457
724.1499999996701,-0.038160045,-1.2637056,0.10643552,-1.9330906,0.1691053,1.7758448,0.9343473,0.039999742,0.039999995,-4.416013,1.3159115314483643,8.632172,-0.007111304,-0.1699266880750656,0.039949343
724.1666666663367,-0.038261525,-1.2649772,0.10671692,-1.931969,0.1695521,1.7763869,0.93473965,0.039999746,0.04,-4.390422,1.3177516460418701,8.64498,-0.0070515117,-0.1669529378414154,0.03932609
724.1833333330034,-0.03836119,-1.2662258,0.106993295,-1.9308677,0.16999088,1.776919,0.93512505,0.039999753,0.04,-4.3653193,1.3195700645446777,8.657521,-0.0069883186,-0.1639787256717682,0.038700327
724.19999999967,-0.038459036,-1.2674521,0.107264616,-1.9297866,0.17042169,1.7774414,0.93550324,0.039999753,0.04,-4.3406878,1.321327567100525,8.669738,-0.0069216317,-0.16100828349590302,0.038070392
724.2166666663367,-0.038555063,-1.2686552,0.107530884,-1.9287255,0.17084444,1.777954,0.9358742,0.03999976,0.04,-4.316677,1.3231148719787598,8.68166,-0.006850644,-0.1580386608839035,0.037436362
724.2333333330033,-0.03864928,-1.2698355,0.10779211,-1.9276845,0.1712592,1.778457,0.93623835,0.03999976,0.04,-4.2926917,1.3247007131576538,8.693318,-0.0067756306,-0.15507416427135468,0.036798786
724.24999999967,-0.03874168,-1.2709932,0.10804831,-1.9266634,0.17166595,1.7789503,0.9365957,0.03999976,0.04,-4.2693615,1.3263212442398071,8.704679,-0.006698184,-0.15211379528045654,0.036156904
724.2666666663366,-0.03883226,-1.2721279,0.10829946,-1.9256625,0.17206474,1.779434,0.9369458,0.039999757,0.039999995,-4.246381,1.3278778791427612,8.715766,-0.0066179642,-0.149154931306839,0.035512343
724.2833333330033,-0.038921017,-1.27324,0.10854555,-1.9246819,0.17245546,1.7799078,0.9372888,0.039999764,0.04,-4.2240367,1.3294180631637573,8.726535,-0.006534293,-0.1462051421403885,0.034864005
724.2999999996699,-0.039007973,-1.2743295,0.10878664,-1.923721,0.1728382,1.780372,0.9376248,0.03999977,0.04,-4.202039,1.3309211730957031,8.737073,-0.006447304,-0.14326103031635284,0.0342153
724.3166666663366,-0.03909311,-1.2753965,0.10902273,-1.9227803,0.17321298,1.7808264,0.9379539,0.039999776,0.04,-4.180441,1.3323410749435425,8.747333,-0.006356811,-0.14032335579395294,0.03356124
724.3333333330032,-0.039176445,-1.2764406,0.10925378,-1.9218593,0.1735798,1.7812715,0.9382761,0.039999772,0.04,-4.159371,1.3337730169296265,8.757318,-0.0062637865,-0.13739381730556488,0.032908093
724.3499999996699,-0.039257977,-1.2774625,0.109479845,-1.920958,0.17393868,1.7817068,0.93859124,0.039999776,0.04,-4.1387343,1.3351383209228516,8.767018,-0.0061691166,-0.13447250425815582,0.032251112
724.3666666663365,-0.039337713,-1.2784616,0.10970094,-1.9200771,0.17428963,1.7821324,0.93889934,0.039999776,0.04,-4.1184688,1.3364636898040771,8.776497,-0.0060705757,-0.1315588504076004,0.031593323
724.3833333330032,-0.03941566,-1.2794383,0.109917045,-1.9192158,0.17463268,1.7825485,0.9392006,0.03999978,0.04,-4.09886,1.3377729654312134,8.785687,-0.005969888,-0.12865975499153137,0.03093316
724.3999999996698,-0.03949182,-1.2803924,0.11012821,-1.918374,0.17496783,1.782955,0.939495,0.039999783,0.04,-4.079563,1.3390454053878784,8.79463,-0.005867277,-0.12577109038829803,0.030273946
724.4166666663365,-0.039566208,-1.2813244,0.11033441,-1.9175521,0.17529516,1.7833521,0.93978256,0.039999783,0.04,-4.0607247,1.3402692079544067,8.803311,-0.0057625817,-0.12289423495531082,0.029614098
724.4333333330031,-0.03963882,-1.282234,0.11053573,-1.9167498,0.1756147,1.7837397,0.9400631,0.039999783,0.04,-4.0423675,1.3414771556854248,8.811786,-0.0056559243,-0.12003107368946075,0.028954186
724.4499999996698,-0.039709672,-1.2831217,0.11073212,-1.9159669,0.17592646,1.784118,0.940337,0.039999787,0.04,-4.0245137,1.3426482677459717,8.819962,-0.0055469195,-0.11718357354402542,0.028294466
724.4666666663364,-0.039778758,-1.2839875,0.11092366,-1.9152032,0.17623052,1.7844867,0.94060385,0.03999979,0.04,-4.007228,1.3438527584075928,8.827911,-0.005436466,-0.11434729397296906,0.027633687
724.4833333330031,-0.039846092,-1.2848315,0.111110345,-1.9144591,0.17652681,1.7848461,0.9408641,0.039999794,0.04,-3.9899511,1.3448779582977295,8.835693,-0.005323146,-0.11152788251638412,0.026973553
724.4999999996697,-0.03991169,-1.285654,0.1112922,-1.9137344,0.17681548,1.7851961,0.94111764,0.03999979,0.039999995,-3.9733894,1.3459702730178833,8.843205,-0.0052088425,-0.10872472822666168,0.026316695
724.5166666663364,-0.03997557,-1.2864546,0.11146928,-1.9130287,0.17709652,1.7855371,0.94136435,0.039999794,0.04,-3.9573073,1.34702467918396,8.850487,-0.005093608,-0.10594022274017334,0.02565941
724.533333333003,-0.040037718,-1.2872331,0.11164157,-1.912342,0.17736997,1.7858688,0.9416045,0.039999794,0.04,-3.9416373,1.3480442762374878,8.85753,-0.00497595,-0.10317321866750717,0.025003657
724.5499999996697,-0.040098164,-1.2879906,0.11180912,-1.9116743,0.1776359,1.7861915,0.94183797,0.0399998,0.04,-3.9265213,1.3490735292434692,8.8643,-0.0048581413,-0.10042846202850342,0.024351219
724.5666666663363,-0.04015692,-1.2887269,0.11197196,-1.9110252,0.17789437,1.7865047,0.94206494,0.0399998,0.04,-3.9117212,1.3500453233718872,8.87093,-0.004739001,-0.09770260751247406,0.02370097
724.583333333003,-0.040213984,-1.2894422,0.112130135,-1.9103947,0.17814542,1.7868093,0.94228536,0.039999813,0.04,-3.897386,1.3510031700134277,8.877338,-0.0046187853,-0.09499871730804443,0.023053596
724.5999999996696,-0.040269375,-1.2901363,0.11228368,-1.9097828,0.17838912,1.7871047,0.94249934,0.039999805,0.039999995,-3.883503,1.3519340753555298,8.883503,-0.0044976114,-0.09231546521186829,0.022408757
724.6166666663363,-0.040323105,-1.29081,0.11243262,-1.9091893,0.17862548,1.7873914,0.9427068,0.03999981,0.04,-3.8701088,1.3528468608856201,8.88947,-0.0043762135,-0.08965791761875153,0.02176582
724.633333333003,-0.0403752,-1.2914628,0.112577,-1.908614,0.1788546,1.7876694,0.94290805,0.03999982,0.04,-3.8570938,1.3537554740905762,8.895249,-0.004253754,-0.08702317625284195,0.02112866
724.6499999996696,-0.04042567,-1.2920953,0.11271685,-1.9080565,0.17907661,1.7879388,0.9431031,0.039999817,0.039999995,-3.8445847,1.3546485900878906,8.900788,-0.0041314713,-0.08441475033760071,0.020497454
724.6666666663363,-0.04047452,-1.2927074,0.11285225,-1.9075165,0.17929141,1.7881994,0.9432917,0.039999824,0.04,-3.8324025,1.3554822206497192,8.906149,-0.004009163,-0.08183007687330246,0.019867154
724.6833333330029,-0.040521786,-1.2932999,0.112983234,-1.9069943,0.1794993,1.7884517,0.9434742,0.039999824,0.04,-3.8206859,1.356313943862915,8.911301,-0.0038857916,-0.07927294075489044,0.01924195
724.6999999996696,-0.040567458,-1.293872,0.11310981,-1.9064901,0.1797002,1.7886951,0.94365066,0.039999824,0.04,-3.8093574,1.3571337461471558,8.916311,-0.0037622354,-0.07674157619476318,0.018622072
724.7166666663362,-0.04061157,-1.2944249,0.11323207,-1.9060026,0.17989421,1.7889303,0.943821,0.03999983,0.04,-3.7989209,1.3580530881881714,8.921034,-0.0036406224,-0.07424622029066086,0.01800874
724.7333333330029,-0.040654134,-1.2949585,0.11335003,-1.9055325,0.18008146,1.7891573,0.9439853,0.039999828,0.04,-3.7881343,1.358744502067566,8.92568,-0.003517894,-0.07177619636058807,0.017399393
724.7499999996695,-0.04069519,-1.2954732,0.11346374,-1.905079,0.18026191,1.7893763,0.9441438,0.03999983,0.04,-3.778144,1.35953688621521,8.93011,-0.0033952831,-0.06933870166540146,0.016797299
724.7666666663362,-0.040734723,-1.2959691,0.113573276,-1.9046425,0.18043575,1.7895868,0.9442965,0.039999824,0.039999988,-3.7684598,1.3602925539016724,8.934367,-0.0032732566,-0.06692945212125778,0.016201474
724.7833333330028,-0.040772773,-1.2964462,0.11367871,-1.9042218,0.180603,1.7897897,0.94444346,0.03999983,0.04,-3.7593098,1.3610512018203735,8.938449,-0.003152427,-0.06455725431442261,0.015611251
724.7999999996695,-0.040809352,-1.2969048,0.113780096,-1.9038178,0.1807638,1.7899848,0.9445847,0.03999984,0.04,-3.7504394,1.3617768287658691,8.942312,-0.0030318145,-0.06221487745642662,0.015029246
724.8166666663361,-0.040844493,-1.2973453,0.11387745,-1.9034295,0.18091828,1.7901723,0.9447205,0.039999843,0.04,-3.7421167,1.3625341653823853,8.946045,-0.002912323,-0.0599103681743145,0.014456162
724.8333333330028,-0.040878214,-1.2977676,0.11397087,-1.9030572,0.18106647,1.7903522,0.94485074,0.039999843,0.04,-3.7340739,1.3632391691207886,8.949598,-0.0027943265,-0.057640936225652695,0.013888656
724.8499999996694,-0.040910527,-1.2981727,0.11406039,-1.9027002,0.18120854,1.7905246,0.9449755,0.03999985,0.04,-3.726553,1.3639705181121826,8.952976,-0.002677528,-0.055411722511053085,0.013330839
724.8666666663361,-0.04094148,-1.2985605,0.11414609,-1.9023583,0.18134454,1.7906896,0.94509476,0.03999985,0.04,-3.719215,1.36465322971344,8.956241,-0.0025616123,-0.05321791023015976,0.012779912
724.8833333330027,-0.040971078,-1.2989312,0.11422804,-1.9020314,0.18147463,1.7908474,0.945209,0.039999846,0.03999999,-3.7123728,1.3653583526611328,8.959322,-0.0024459504,-0.05106402188539505,0.012240043
724.8999999996694,-0.040999353,-1.2992854,0.114306316,-1.9017192,0.1815988,1.7909981,0.9453181,0.03999985,0.039999995,-3.7058997,1.366043210029602,8.962258,-0.0023331721,-0.048951469361782074,0.01170748
724.916666666336,-0.041026328,-1.2996233,0.11438098,-1.9014214,0.18171725,1.7911416,0.9454221,0.039999854,0.04,-3.6997705,1.366715669631958,8.965037,-0.0022217305,-0.046879999339580536,0.011184715
724.9333333330027,-0.041052017,-1.2999452,0.11445212,-1.9011381,0.18183014,1.7912782,0.94552124,0.039999854,0.039999995,-3.6940231,1.3674023151397705,8.9676895,-0.0021117288,-0.044852644205093384,0.010673122
724.9499999996693,-0.041076474,-1.3002516,0.114519805,-1.9008684,0.18193746,1.7914084,0.94561565,0.03999986,0.04,-3.6886258,1.3680541515350342,8.970216,-0.002003884,-0.042870067059993744,0.010169872
724.966666666336,-0.04109971,-1.3005426,0.11458406,-1.9006121,0.18203942,1.7915322,0.9457051,0.03999986,0.04,-3.683726,1.3687855005264282,8.972543,-0.0018983063,-0.04093090444803238,0.009679375
724.9833333330026,-0.041121755,-1.3008184,0.11464505,-1.900369,0.18213618,1.7916496,0.9457902,0.039999865,0.04,-3.6788418,1.3693956136703491,8.974783,-0.0017940848,-0.039038319140672684,0.009200887
724.9999999996693,-0.041142624,-1.3010798,0.114702806,-1.9001387,0.18222782,1.7917604,0.94587064,0.039999872,0.04,-3.6744547,1.3700342178344727,8.976871,-0.0016929498,-0.037192393094301224,0.008732515
725.0166666663359,-0.041162368,-1.3013269,0.11475744,-1.899921,0.18231452,1.7918658,0.9459467,0.039999872,0.04,-3.670408,1.3706856966018677,8.978848,-0.0015934962,-0.03539687767624855,0.0082751075
725.0333333330026,-0.041181013,-1.3015604,0.11480901,-1.8997154,0.18239634,1.7919649,0.9460184,0.03999987,0.039999995,-3.6666307,1.3713258504867554,8.980688,-0.0014963263,-0.03364791348576546,0.007830217
725.0499999996692,-0.04119859,-1.30178,0.11485762,-1.8995218,0.18247347,1.7920587,0.946086,0.03999987,0.03999999,-3.6631877,1.37196946144104,8.982433,-0.0014012024,-0.03195120021700859,0.0073981546
725.0666666663359,-0.041215133,-1.3019873,0.11490334,-1.8993396,0.18254599,1.7921466,0.94614965,0.03999987,0.039999995,-3.6601346,1.3726081848144531,8.984004,-0.0013092029,-0.030306605622172356,0.006976815
725.0833333330025,-0.041230682,-1.3021815,0.11494627,-1.8991685,0.18261409,1.7922294,0.9462095,0.039999876,0.04,-3.6571863,1.3732444047927856,8.985561,-0.0012195982,-0.028713155537843704,0.0065707345
725.0999999996692,-0.04124525,-1.3023635,0.114986494,-1.899008,0.18267791,1.7923065,0.9462656,0.039999876,0.04,-3.654715,1.3738925457000732,8.986901,-0.0011334223,-0.027174757793545723,0.006177198
725.1166666663358,-0.04125889,-1.3025339,0.115024135,-1.8988577,0.18273765,1.792379,0.9463181,0.039999876,0.039999995,-3.6524394,1.374534010887146,8.988195,-0.001050359,-0.025693677365779877,0.005798705
725.1333333330025,-0.041271616,-1.3026929,0.115059294,-1.8987178,0.1827934,1.7924469,0.9463671,0.039999876,0.039999995,-3.6503885,1.3751572370529175,8.989376,-0.0009700517,-0.024266449734568596,0.005432924
725.1499999996691,-0.041283496,-1.3028412,0.115092054,-1.8985869,0.18284531,1.7925099,0.9464126,0.039999876,0.039999995,-3.64872,1.375809669494629,8.990459,-0.00089294696,-0.02289862371981144,0.0050820536
725.1666666663358,-0.041294545,-1.3029789,0.11512251,-1.8984658,0.18289362,1.7925683,0.9464551,0.039999876,0.03999999,-3.6471438,1.3764333724975586,8.991447,-0.000818334,-0.02158689685165882,0.0047467733
725.1833333330025,-0.041304804,-1.3031071,0.11515079,-1.8983531,0.18293844,1.7926229,0.94649446,0.039999884,0.04,-3.646025,1.377090334892273,8.992361,-0.00074819085,-0.020340723916888237,0.00442556
725.1999999996691,-0.04131431,-1.3032254,0.115176976,-1.8982486,0.18297996,1.7926736,0.946531,0.039999884,0.039999995,-3.6448972,1.3777272701263428,8.993174,-0.0006803633,-0.019150281324982643,0.004122089
725.2166666663358,-0.04132311,-1.3033354,0.11520119,-1.8981518,0.18301839,1.7927204,0.9465647,0.039999884,0.039999995,-3.644266,1.378404974937439,8.993866,-0.0006165609,-0.018024126067757607,0.0038326434
725.2333333330024,-0.041331246,-1.3034371,0.115223564,-1.8980623,0.18305387,1.7927635,0.94659585,0.039999887,0.04,-3.6434748,1.3789970874786377,8.994577,-0.0005554076,-0.016958704218268394,0.0035590655
725.2499999996691,-0.041338746,-1.3035306,0.11524419,-1.89798,0.18308659,1.7928028,0.94662464,0.039999887,0.04,-3.643085,1.3796473741531372,8.995183,-0.0004984171,-0.015958495438098907,0.0033022023
725.2666666663357,-0.04134566,-1.3036169,0.11526316,-1.8979043,0.1831166,1.7928387,0.94665104,0.039999884,0.039999995,-3.6429875,1.3803160190582275,8.995676,-0.00044525508,-0.015028638765215874,0.0030627998
725.2833333330024,-0.041352026,-1.3036964,0.11528064,-1.8978349,0.1831442,1.7928724,0.94667536,0.039999887,0.04,-3.6429675,1.3809734582901,8.996155,-0.00039562915,-0.014166218228638172,0.0028413215
725.299999999669,-0.0413579,-1.3037685,0.11529671,-1.8977709,0.18316974,1.7929038,0.9466978,0.03999989,0.04,-3.6431441,1.3816399574279785,8.996538,-0.00034989533,-0.013369794934988022,0.0026382033
725.3166666663357,-0.04136331,-1.3038356,0.11531152,-1.8977118,0.18319327,1.7929317,0.9467184,0.039999887,0.039999995,-3.643437,1.38226318359375,8.996811,-0.0003088911,-0.012639651075005531,0.0024496582
725.3333333330023,-0.041368295,-1.3038963,0.11532514,-1.8976582,0.18321489,1.7929584,0.94673735,0.039999887,0.039999995,-3.64347,1.3828022480010986,8.997218,-0.0002702655,-0.01196776982396841,0.0022763566
725.349999999669,-0.04137288,-1.3039529,0.11533762,-1.8976086,0.18323472,1.7929823,0.94675475,0.039999884,0.039999988,-3.6438725,1.3833774328231812,8.997436,-0.00023618607,-0.011353575624525547,0.0021184196
725.3666666663356,-0.041377105,-1.3040051,0.11534912,-1.8975629,0.183253,1.793005,0.9467707,0.03999989,0.04,-3.6438475,1.3838313817977905,8.997776,-0.00020392657,-0.01078622043132782,0.0019713207
725.3833333330023,-0.041381005,-1.3040532,0.1153597,-1.8975208,0.18326981,1.793025,0.94678575,0.039999895,0.04,-3.643908,1.3842653036117554,8.99802,-0.00017376935,-0.010260106064379215,0.0018370335
725.3999999996689,-0.041384604,-1.3040974,0.11536943,-1.8974824,0.18328524,1.7930447,0.9467991,0.0399999,0.04,-3.644053,1.3846734762191772,8.998279,-0.00014755217,-0.00978000182658434,0.0017133214
725.4166666663356,-0.041387916,-1.304138,0.115378365,-1.8974466,0.1832995,1.793061,0.9468116,0.039999895,0.039999995,-3.644158,1.3850536346435547,8.998467,-0.00012150075,-0.009333782829344273,0.0015999621
725.4333333330022,-0.04139095,-1.304175,0.1153866,-1.8974134,0.18331258,1.7930771,0.94682294,0.0399999,0.04,-3.6442716,1.3853960037231445,8.9986925,-9.8555334e-05,-0.008930358104407787,0.0014955516
725.4499999996689,-0.04139375,-1.3042089,0.115394175,-1.8973832,0.18332464,1.7930928,0.9468336,0.0399999,0.04,-3.6443112,1.3856914043426514,8.998822,-7.62572e-05,-0.008553441613912582,0.0013984613
725.4666666663355,-0.041396335,-1.304241,0.115401186,-1.8973554,0.18333575,1.7931054,0.946843,0.039999902,0.04,-3.644492,1.3860142230987549,8.998959,-5.74809e-05,-0.008205685764551163,0.001308942
725.4833333330022,-0.041398723,-1.3042699,0.1154076,-1.8973296,0.18334597,1.7931176,0.9468523,0.0399999,0.04,-3.644449,1.3862478733062744,8.999242,-3.7499765e-05,-0.007890471257269382,0.0012275542
725.4999999996688,-0.041400924,-1.3042961,0.115413494,-1.8973062,0.18335538,1.7931297,0.9468603,0.0399999,0.039999995,-3.6445303,1.386505126953125,8.99931,-2.2345044e-05,-0.0075977579690515995,0.0011530813
725.5166666663355,-0.04140295,-1.3043212,0.11541892,-1.8972843,0.18336405,1.7931402,0.9468678,0.0399999,0.04,-3.6446924,1.386736273765564,8.999408,-6.510066e-06,-0.007329168729484081,0.0010826885
725.5333333330021,-0.041404814,-1.304343,0.11542391,-1.8972646,0.183372,1.7931489,0.94687515,0.039999895,0.03999999,-3.644569,1.3869287967681885,8.999598,8.361918e-06,-0.007078511640429497,0.0010193979
725.5499999996688,-0.04140653,-1.3043642,0.115428545,-1.897246,0.1833793,1.7931573,0.9468814,0.039999895,0.039999995,-3.6449108,1.38715660572052,8.999665,1.87671e-05,-0.0068602547980844975,0.00096106215
725.5666666663354,-0.041408118,-1.3043838,0.11543278,-1.8972292,0.18338606,1.7931656,0.946887,0.0399999,0.04,-3.6447067,1.3872896432876587,8.999816,3.2084456e-05,-0.006649754475802183,0.0009071391
725.5833333330021,-0.041409574,-1.3044012,0.115436696,-1.8972138,0.1833923,1.7931738,0.9468926,0.0399999,0.039999995,-3.6447806,1.3874657154083252,8.999903,4.4634304e-05,-0.006455203518271446,0.0008582896
725.5999999996687,-0.041410916,-1.3044177,0.11544027,-1.8971993,0.18339802,1.7931817,0.94689804,0.039999902,0.04,-3.644901,1.3876166343688965,8.999938,5.3707437e-05,-0.006276544649153948,0.00081214914
725.6166666663354,-0.041412145,-1.3044318,0.11544358,-1.8971862,0.1834033,1.7931867,0.9469026,0.039999902,0.04,-3.6447816,1.3877465724945068,9.000037,6.14534e-05,-0.006106318440288305,0.0007689523
725.633333333002,-0.041413292,-1.3044454,0.11544661,-1.8971742,0.18340816,1.7931916,0.94690627,0.039999906,0.04,-3.6451037,1.3879077434539795,9.000105,6.962315e-05,-0.005966503173112869,0.0007315431
725.6499999996687,-0.041414358,-1.3044583,0.115449406,-1.8971629,0.18341261,1.7931962,0.94690996,0.039999906,0.04,-3.6450555,1.3880183696746826,9.000202,7.963819e-05,-0.00583409471437335,0.00069779623
725.6666666663353,-0.041415323,-1.3044704,0.11545197,-1.8971525,0.18341668,1.7932009,0.94691366,0.039999902,0.04,-3.644976,1.3880856037139893,9.000275,8.810382e-05,-0.00570841645821929,0.000664343
725.683333333002,-0.041416205,-1.3044806,0.11545434,-1.8971432,0.18342043,1.7932054,0.9469172,0.039999906,0.04,-3.644954,1.3881850242614746,9.000342,9.473273e-05,-0.005589975975453854,0.00063425116
725.6999999996686,-0.041417036,-1.3044903,0.11545651,-1.8971349,0.18342392,1.7932098,0.9469207,0.039999906,0.04,-3.4964192,1.3864967823028564,8.958833,0.0,-0.0,0.0
725.7166666663353,-0.041417036,-1.3044903,0.11545651,-1.8971349,0.18342392,1.7932098,0.9469207,0.039999906,0.04,-3.6478648,1.3892203569412231,8.999959,0.0,-0.0,0.0
725.733333333002,-0.041417036,-1.3044903,0.11545651,-1.8971349,0.18342392,1.7932098,0.9469207,0.039999906,0.04,-3.6478648,1.3892203569412231,8.999959,0.0,-0.0,0.0
725.7499999996686,-0.041417036,-1.3044903,0.11545651,-1.8971349,0.18342392,1.7932098,0.9469207,0.039999906,0.04,-3.6478648,1.3892203569412231,8.999959,0.0,-0.0,0.0
725.7666666663353,-0.041417036,-1.3044903,0.11545651,-1.8971349,0.18342392,1.7932098,0.9469207,0.039999906,0.04,-3.6478648,1.3892203569412231,8.999959,0.0,-0.0,0.0
725.7833333330019,-0.041417036,-1.3044903,0.11545651,-1.8971349,0.18342392,1.7932098,0.9469207,0.039999906,0.04,-3.6478648,1.3892203569412231,8.999959,0.0,-0.0,0.0
725.7999999996686,-0.041417036,-1.3044903,0.11545651,-1.8971349,0.18342392,1.7932098,0.9469207,0.039999906,0.04,-3.6478648,1.3892203569412231,8.999959,0.0,-0.0,0.0
725.8166666663352,-0.041417036,-1.3044903,0.11545651,-1.8971349,0.18342392,1.7932098,0.9469207,0.039999906,0.04,-3.6478648,1.3892203569412231,8.999959,0.0,-0.0,0.0
725.8333333330019,-0.041417036,-1.3044903,0.11545651,-1.8971349,0.18342392,1.7932098,0.9469207,0.039999906,0.04,-3.6478648,1.3892203569412231,8.999959,0.0,-0.0,0.0
725.8499999996685,-0.041417036,-1.3044903,0.11545651,-1.8971349,0.18342392,1.7932098,0.9469207,0.039999906,0.04,-3.6478648,1.3892203569412231,8.999959,0.0,-0.0,0.0
725.8666666663352,-0.041417036,-1.3044903,0.11545651,-1.8971349,0.18342392,1.7932098,0.9469207,0.039999906,0.04,-3.6478648,1.3892203569412231,8.999959,0.0,-0.0,0.0
725.8833333330018,-0.041417036,-1.3044903,0.11545651,-1.8971349,0.18342392,1.7932098,0.9469207,0.039999906,0.04,-3.6478648,1.3892203569412231,8.999959,0.0,-0.0,0.0
725.8999999996685,-0.041417036,-1.3044903,0.11545651,-1.8971349,0.18342392,1.7932098,0.9469207,0.039999906,0.04,-3.6478648,1.3892203569412231,8.999959,0.0,-0.0,0.0
725.9166666663351,-0.041417036,-1.3044903,0.11545651,-1.8971349,0.18342392,1.7932098,0.9469207,0.039999906,0.04,-3.6478648,1.3892203569412231,8.999959,0.0,-0.0,0.0
725.9333333330018,-0.041417036,-1.3044903,0.11545651,-1.8971349,0.18342392,1.7932098,0.9469207,0.039999906,0.04,-3.6478648,1.3892203569412231,8.999959,0.0,-0.0,0.0
725.9499999996684,-0.041417036,-1.3044903,0.11545651,-1.8971349,0.18342392,1.7932098,0.9469207,0.039999906,0.04,-3.6478648,1.3892203569412231,8.999959,0.0,-0.0,0.0
725.9666666663351,-0.041417036,-1.3044903,0.11545651,-1.8971349,0.18342392,1.7932098,0.9469207,0.039999906,0.04,-3.6478648,1.3892203569412231,8.999959,0.0,-0.0,0.0
725.9833333330017,-0.041417036,-1.3044903,0.11545651,-1.8971349,0.18342392,1.7932098,0.9469207,0.039999906,0.04,-3.6478648,1.3892203569412231,8.999959,0.0,-0.0,0.0
725.9999999996684,-0.041417036,-1.3044903,0.11545651,-1.8971349,0.18342392,1.7932098,0.9469207,0.039999906,0.04,-3.6478648,1.3892203569412231,8.999959,0.0,-0.0,0.0
726.016666666335,-0.041417036,-1.3044903,0.11545651,-1.8971349,0.18342392,1.7932098,0.9469207,0.039999906,0.04,-3.6478648,1.3892203569412231,8.999959,0.0,-0.0,0.0
726.0333333330017,-0.041417036,-1.3044903,0.11545651,-1.8971349,0.18342392,1.7932098,0.9469207,0.039999906,0.04,-3.6478648,1.3892203569412231,8.999959,0.0,-0.0,0.0
726.0499999996683,-0.041417036,-1.3044903,0.11545651,-1.8971349,0.18342392,1.7932098,0.9469207,0.039999906,0.04,-3.6478648,1.3892203569412231,8.999959,0.0,-0.0,0.0
726.066666666335,-0.041417036,-1.3044903,0.11545651,-1.8971349,0.18342392,1.7932098,0.9469207,0.039999906,0.04,-3.6478648,1.3892203569412231,8.999959,0.0,-0.0,0.0
726.0833333330016,-0.041417036,-1.3044903,0.11545651,-1.8971349,0.18342392,1.7932098,0.9469207,0.039999906,0.04,-3.6478648,1.3892203569412231,8.999959,0.0,-0.0,0.0
726.0999999996683,-0.041417036,-1.3044903,0.11545651,-1.8971349,0.18342392,1.7932098,0.9469207,0.039999906,0.04,-3.6478648,1.3892203569412231,8.999959,0.0,-0.0,0.0
726.1166666663349,-0.041417036,-1.3044903,0.11545651,-1.8971349,0.18342392,1.7932098,0.9469207,0.039999906,0.04,-3.6478648,1.3892203569412231,8.999959,0.0,-0.0,0.0
726.1333333330016,-0.041417036,-1.3044903,0.11545651,-1.8971349,0.18342392,1.7932098,0.9469207,0.039999906,0.04,-3.6478648,1.3892203569412231,8.999959,0.0,-0.0,0.0
726.1499999996682,-0.041417036,-1.3044903,0.11545651,-1.8971349,0.18342392,1.7932098,0.9469207,0.039999906,0.04,-3.6478648,1.3892203569412231,8.999959,0.0,-0.0,0.0
726.1666666663349,-0.041417036,-1.3044903,0.11545651,-1.8971349,0.18342392,1.7932098,0.9469207,0.039999906,0.04,-3.6478648,1.3892203569412231,8.999959,0.0,-0.0,0.0
726.1833333330015,-0.041417036,-1.3044903,0.11545651,-1.8971349,0.18342392,1.7932098,0.9469207,0.039999906,0.04,-3.6478648,1.3892203569412231,8.999959,0.0,-0.0,0.0
726.1999999996682,-0.041417036,-1.3044903,0.11545651,-1.8971349,0.18342392,1.7932098,0.9469207,0.039999906,0.04,-3.6478648,1.3892203569412231,8.999959,0.0,-0.0,0.0
726.2166666663348,-0.041417036,-1.3044903,0.11545651,-1.8971349,0.18342392,1.7932098,0.9469207,0.039999906,0.04,-3.6478648,1.3892203569412231,8.999959,0.0,-0.0,0.0
726.2333333330015,-0.041417036,-1.3044903,0.11545651,-1.8971349,0.18342392,1.7932098,0.9469207,0.039999906,0.04,-3.6478648,1.3892203569412231,8.999959,0.0,-0.0,0.0
726.2499999996681,-0.041417036,-1.3044903,0.11545651,-1.8971349,0.18342392,1.7932098,0.9469207,0.039999906,0.04,-3.6478648,1.3892203569412231,8.999959,0.0,-0.0,0.0
726.2666666663348,-0.041417036,-1.3044903,0.11545651,-1.8971349,0.18342392,1.7932098,0.9469207,0.039999906,0.04,-3.6478648,1.3892203569412231,8.999959,0.0,-0.0,0.0
726.2833333330015,-0.041417036,-1.3044903,0.11545651,-1.8971349,0.18342392,1.7932098,0.9469207,0.039999906,0.04,-3.6478648,1.3892203569412231,8.999959,0.0,-0.0,0.0
726.2999999996681,-0.041417036,-1.3044903,0.11545651,-1.8971349,0.18342392,1.7932098,0.9469207,0.039999906,0.04,-3.6478648,1.3892203569412231,8.999959,0.0,-0.0,0.0
726.3166666663348,-0.041417036,-1.3044903,0.11545651,-1.8971349,0.18342392,1.7932098,0.9469207,0.039999906,0.04,-3.6478648,1.3892203569412231,8.999959,0.0,-0.0,0.0
726.3333333330014,-0.041417036,-1.3044903,0.11545651,-1.8971349,0.18342392,1.7932098,0.9469207,0.039999906,0.04,-3.6478648,1.3892203569412231,8.999959,0.0,-0.0,0.0
726.3499999996681,-0.041417036,-1.3044903,0.11545651,-1.8971349,0.18342392,1.7932098,0.9469207,0.039999906,0.04,-3.6478648,1.3892203569412231,8.999959,0.0,-0.0,0.0
726.3666666663347,-0.041417036,-1.3044903,0.11545651,-1.8971349,0.18342392,1.7932098,0.9469207,0.039999906,0.04,-3.6478648,1.3892203569412231,8.999959,0.0,-0.0,0.0
726.3833333330014,-0.041417036,-1.3044903,0.11545651,-1.8971349,0.18342392,1.7932098,0.9469207,0.039999906,0.04,-3.6478648,1.3892203569412231,8.999959,0.0,-0.0,0.0
726.399999999668,-0.041417036,-1.3044903,0.11545651,-1.8971349,0.18342392,1.7932098,0.9469207,0.039999906,0.04,-3.6478648,1.3892203569412231,8.999959,0.0,-0.0,0.0
726.4166666663347,-0.041417036,-1.3044903,0.11545651,-1.8971349,0.18342392,1.7932098,0.9469207,0.039999906,0.04,-3.6478648,1.3892203569412231,8.999959,0.0,-0.0,0.0
726.4333333330013,-0.041417036,-1.3044903,0.11545651,-1.8971349,0.18342392,1.7932098,0.9469207,0.039999906,0.04,-3.6478648,1.3892203569412231,8.999959,0.0,-0.0,0.0
726.449999999668,-0.041417036,-1.3044903,0.11545651,-1.8971349,0.18342392,1.7932098,0.9469207,0.039999906,0.04,-3.6478648,1.3892203569412231,8.999959,0.0,-0.0,0.0
726.4666666663346,-0.041417036,-1.3044903,0.11545651,-1.8971349,0.18342392,1.7932098,0.9469207,0.039999906,0.04,-3.6478648,1.3892203569412231,8.999959,0.0,-0.0,0.0
726.4833333330013,-0.041417036,-1.3044903,0.11545651,-1.8971349,0.18342392,1.7932098,0.9469207,0.039999906,0.04,-3.6478648,1.3892203569412231,8.999959,0.0,-0.0,0.0
726.4999999996679,-0.041417036,-1.3044903,0.11545651,-1.8971349,0.18342392,1.7932098,0.9469207,0.039999906,0.04,-3.6478648,1.3892203569412231,8.999959,0.0,-0.0,0.0
726.5166666663346,-0.041417036,-1.3044903,0.11545651,-1.8971349,0.18342392,1.7932098,0.9469207,0.039999906,0.04,-3.6478648,1.3892203569412231,8.999959,0.0,-0.0,0.0
726.5333333330012,-0.041417036,-1.3044903,0.11545651,-1.8971349,0.18342392,1.7932098,0.9469207,0.039999906,0.04,-3.6478648,1.3892203569412231,8.999959,0.0,-0.0,0.0
726.5499999996679,-0.041417036,-1.3044903,0.11545651,-1.8971349,0.18342392,1.7932098,0.9469207,0.039999906,0.04,-3.6478648,1.3892203569412231,8.999959,0.0,-0.0,0.0
726.5666666663345,-0.041417036,-1.3044903,0.11545651,-1.8971349,0.18342392,1.7932098,0.9469207,0.039999906,0.04,-3.6478648,1.3892203569412231,8.999959,0.0,-0.0,0.0
726.5833333330012,-0.041417036,-1.3044903,0.11545651,-1.8971349,0.18342392,1.7932098,0.9469207,0.039999906,0.04,-3.6478648,1.3892203569412231,8.999959,0.0,-0.0,0.0
726.5999999996678,-0.041417036,-1.3044903,0.11545651,-1.8971349,0.18342392,1.7932098,0.9469207,0.039999906,0.04,-3.6478648,1.3892203569412231,8.999959,0.0,-0.0,0.0
726.6166666663345,-0.041417036,-1.3044903,0.11545651,-1.8971349,0.18342392,1.7932098,0.9469207,0.039999906,0.04,-3.6478648,1.3892203569412231,8.999959,0.0,-0.0,0.0
726.6333333330011,-0.041417036,-1.3044903,0.11545651,-1.8971349,0.18342392,1.7932098,0.9469207,0.039999906,0.04,-3.6478648,1.3892203569412231,8.999959,0.0,-0.0,0.0
726.6499999996678,-0.041417036,-1.3044903,0.11545651,-1.8971349,0.18342392,1.7932098,0.9469207,0.039999906,0.04,-3.6478648,1.3892203569412231,8.999959,0.0,-0.0,0.0
726.6666666663344,-0.041417036,-1.3044903,0.11545651,-1.8971349,0.18342392,1.7932098,0.9469207,0.039999906,0.04,-3.6478648,1.3892203569412231,8.999959,0.0,-0.0,0.0
726.6833333330011,-0.041417036,-1.3044903,0.11545651,-1.8971349,0.18342392,1.7932098,0.9469207,0.039999906,0.04,-3.6478648,1.3892203569412231,8.999959,0.0,-0.0,0.0
726.6999999996677,-0.041417036,-1.3044903,0.11545651,-1.8971349,0.18342392,1.7932098,0.9469207,0.039999906,0.04,-3.6478648,1.3892203569412231,8.999959,0.0,-0.0,0.0
726.7166666663344,-0.041417036,-1.3044903,0.11545651,-1.8971349,0.18342392,1.7932098,0.9469207,0.039999906,0.04,-3.6478648,1.3892203569412231,8.999959,0.0,-0.0,0.0
726.733333333001,-0.041417036,-1.3044903,0.11545651,-1.8971349,0.18342392,1.7932098,0.9469207,0.039999906,0.04,-3.6478648,1.3892203569412231,8.999959,0.0,-0.0,0.0
726.7499999996677,-0.041417036,-1.3044903,0.11545651,-1.8971349,0.18342392,1.7932098,0.9469207,0.039999906,0.04,-3.6478648,1.3892203569412231,8.999959,0.0,-0.0,0.0
726.7666666663343,-0.041417036,-1.3044903,0.11545651,-1.8971349,0.18342392,1.7932098,0.9469207,0.039999906,0.04,-3.6478648,1.3892203569412231,8.999959,0.0,-0.0,0.0
726.783333333001,-0.041417036,-1.3044903,0.11545651,-1.8971349,0.18342392,1.7932098,0.9469207,0.039999906,0.04,-3.6478648,1.3892203569412231,8.999959,0.0,-0.0,0.0
726.7999999996676,-0.041417036,-1.3044903,0.11545651,-1.8971349,0.18342392,1.7932098,0.9469207,0.039999906,0.04,-3.6478648,1.3892203569412231,8.999959,0.0,-0.0,0.0
726.8166666663343,-0.041417036,-1.3044903,0.11545651,-1.8971349,0.18342392,1.7932098,0.9469207,0.039999906,0.04,-3.6478648,1.3892203569412231,8.999959,0.0,-0.0,0.0
726.833333333001,-0.041417036,-1.3044903,0.11545651,-1.8971349,0.18342392,1.7932098,0.9469207,0.039999906,0.04,-3.6478648,1.3892203569412231,8.999959,0.0,-0.0,0.0
726.8499999996676,-0.041417036,-1.3044903,0.11545651,-1.8971349,0.18342392,1.7932098,0.9469207,0.039999906,0.04,-3.6478648,1.3892203569412231,8.999959,0.0,-0.0,0.0
726.8666666663343,-0.041417036,-1.3044903,0.11545651,-1.8971349,0.18342392,1.7932098,0.9469207,0.039999906,0.04,-3.6478648,1.3892203569412231,8.999959,0.0,-0.0,0.0
726.8833333330009,-0.041417036,-1.3044903,0.11545651,-1.8971349,0.18342392,1.7932098,0.9469207,0.039999906,0.04,-3.6478648,1.3892203569412231,8.999959,0.0,-0.0,0.0
726.8999999996676,-0.041417036,-1.3044903,0.11545651,-1.8971349,0.18342392,1.7932098,0.9469207,0.039999906,0.04,-3.6478648,1.3892203569412231,8.999959,0.0,-0.0,0.0
726.9166666663342,-0.041417036,-1.3044903,0.11545651,-1.8971349,0.18342392,1.7932098,0.9469207,0.039999906,0.04,-3.6478648,1.3892203569412231,8.999959,0.0,-0.0,0.0
726.9333333330009,-0.041417036,-1.3044903,0.11545651,-1.8971349,0.18342392,1.7932098,0.9469207,0.039999906,0.04,-3.6478648,1.3892203569412231,8.999959,0.0,-0.0,0.0
726.9499999996675,-0.041417036,-1.3044903,0.11545651,-1.8971349,0.18342392,1.7932098,0.9469207,0.039999906,0.04,-3.6478648,1.3892203569412231,8.999959,0.0,-0.0,0.0
726.9666666663342,-0.041417036,-1.3044903,0.11545651,-1.8971349,0.18342392,1.7932098,0.9469207,0.039999906,0.04,-3.6478648,1.3892203569412231,8.999959,0.0,-0.0,0.0
726.9833333330008,-0.041417036,-1.3044903,0.11545651,-1.8971349,0.18342392,1.7932098,0.9469207,0.039999906,0.04,-3.6478648,1.3892203569412231,8.999959,0.0,-0.0,0.0
726.9999999996675,-0.041417036,-1.3044903,0.11545651,-1.8971349,0.18342392,1.7932098,0.9469207,0.039999906,0.04,-3.6478648,1.3892203569412231,8.999959,0.0,-0.0,0.0
727.0166666663341,-0.041417036,-1.3044903,0.11545651,-1.8971349,0.18342392,1.7932098,0.9469207,0.039999906,0.04,-3.6478648,1.3892203569412231,8.999959,0.0,-0.0,0.0
727.0333333330008,-0.041417036,-1.3044903,0.11545651,-1.8971349,0.18342392,1.7932098,0.9469207,0.039999906,0.04,-3.6478648,1.3892203569412231,8.999959,0.0,-0.0,0.0
727.0499999996674,-0.041417036,-1.3044903,0.11545651,-1.8971349,0.18342392,1.7932098,0.9469207,0.039999906,0.04,-3.6478648,1.3892203569412231,8.999959,0.0,-0.0,0.0
727.0666666663341,-0.041417036,-1.3044903,0.11545651,-1.8971349,0.18342392,1.7932098,0.9469207,0.039999906,0.04,-3.6478648,1.3892203569412231,8.999959,0.0,-0.0,0.0
727.0833333330007,-0.041417036,-1.3044903,0.11545651,-1.8971349,0.18342392,1.7932098,0.9469207,0.039999906,0.04,-3.6478648,1.3892203569412231,8.999959,0.0,-0.0,0.0
727.0999999996674,-0.041417036,-1.3044903,0.11545651,-1.8971349,0.18342392,1.7932098,0.9469207,0.039999906,0.04,-3.6478648,1.3892203569412231,8.999959,0.0,-0.0,0.0
727.116666666334,-0.041417036,-1.3044903,0.11545651,-1.8971349,0.18342392,1.7932098,0.9469207,0.039999906,0.04,-3.6478648,1.3892203569412231,8.999959,0.0,-0.0,0.0
727.1333333330007,-0.041417036,-1.3044903,0.11545651,-1.8971349,0.18342392,1.7932098,0.9469207,0.039999906,0.04,-3.6478648,1.3892203569412231,8.999959,0.0,-0.0,0.0
727.1499999996673,-0.041417036,-1.3044903,0.11545651,-1.8971349,0.18342392,1.7932098,0.9469207,0.039999906,0.04,-3.6478648,1.3892203569412231,8.999959,0.0,-0.0,0.0
727.166666666334,-0.041417036,-1.3044903,0.11545651,-1.8971349,0.18342392,1.7932098,0.9469207,0.039999906,0.04,-3.6478648,1.3892203569412231,8.999959,0.0,-0.0,0.0
727.1833333330006,-0.041417036,-1.3044903,0.11545651,-1.8971349,0.18342392,1.7932098,0.9469207,0.039999906,0.04,-3.6478648,1.3892203569412231,8.999959,0.0,-0.0,0.0
727.1999999996673,-0.041417036,-1.3044903,0.11545651,-1.8971349,0.18342392,1.7932098,0.9469207,0.039999906,0.04,-3.6478648,1.3892203569412231,8.999959,0.0,-0.0,0.0
727.2166666663339,-0.041417036,-1.3044903,0.11545651,-1.8971349,0.18342392,1.7932098,0.9469207,0.039999906,0.04,-3.6478648,1.3892203569412231,8.999959,0.0,-0.0,0.0
727.2333333330006,-0.041417036,-1.3044903,0.11545651,-1.8971349,0.18342392,1.7932098,0.9469207,0.039999906,0.04,-3.6478648,1.3892203569412231,8.999959,0.0,-0.0,0.0
727.2499999996672,-0.041417036,-1.3044903,0.11545651,-1.8971349,0.18342392,1.7932098,0.9469207,0.039999906,0.04,-3.6478648,1.3892203569412231,8.999959,0.0,-0.0,0.0
727.2666666663339,-0.041417036,-1.3044903,0.11545651,-1.8971349,0.18342392,1.7932098,0.9469207,0.039999906,0.04,-3.6478648,1.3892203569412231,8.999959,0.0,-0.0,0.0
727.2833333330005,-0.041417036,-1.3044903,0.11545651,-1.8971349,0.18342392,1.7932098,0.9469207,0.039999906,0.04,-3.6478648,1.3892203569412231,8.999959,0.0,-0.0,0.0
727.2999999996672,-0.041417036,-1.3044903,0.11545651,-1.8971349,0.18342392,1.7932098,0.9469207,0.039999906,0.04,-3.6478648,1.3892203569412231,8.999959,0.0,-0.0,0.0
