rsonawane2002/My_IMU/logs_2/traj_392/imu_392.csv
time,j1,j2,j3,j4,j5,j6,j7,gripper1,gripper2,imu_ax,imu_ay,imu_az,imu_gx,imu_gy,imu_gz
1559.0833333322441,0.00016700293,-0.785875,4.0107683e-05,-2.3551247,9.29385e-05,1.570997,0.786,0.04,0.04,-9.473184,-0.03451532870531082,0.10669919,-1.7727848e-07,-0.001164127024821937,1.1106657e-06
1559.0999999989108,0.00016699615,-0.78576016,4.0117226e-05,-2.3552213,9.296584e-05,1.5709941,0.786,0.04,0.04,-9.834505,0.0006286721327342093,0.009073928,9.8504906e-08,-0.0022382442839443684,4.1194357e-07
1559.1166666655774,0.00016692265,-0.7856543,4.0144143e-05,-2.35531,9.2934046e-05,1.5709913,0.786,0.04,0.04,-9.832331,0.0005654303822666407,0.007584238,2.7021888e-06,-0.003226273227483034,-3.149048e-06
1559.133333332244,0.00016667251,-0.785557,4.0217572e-05,-2.355391,9.276022e-05,1.5709884,0.786,0.04,0.039999995,-9.830589,0.00045488408068194985,0.006154459,9.444844e-06,-0.004132294096052647,-1.2539052e-05
1559.1499999989107,0.00016608798,-0.7854675,4.0379462e-05,-2.3554654,9.228736e-05,1.5709856,0.786,0.04,0.04,-9.828616,0.00028149521676823497,0.0049241553,2.203785e-05,-0.004960802383720875,-3.3524302e-05
1559.1666666655774,0.00016496764,-0.78538525,4.0682502e-05,-2.355533,9.136245e-05,1.5709827,0.786,0.04,0.04,-9.826874,8.323544170707464e-05,0.0037508323,4.2240852e-05,-0.005714953411370516,-6.439526e-05
1559.183333332244,0.0001630716,-0.78530973,4.1189884e-05,-2.3555982,8.978188e-05,1.5709798,0.786,0.04,0.04,-9.825287,-0.0001835825969465077,0.0026014107,7.133254e-05,-0.006397723685950041,-0.000110132685
1559.1999999989107,0.00016012507,-0.7852407,4.1973562e-05,-2.355657,8.731617e-05,1.570977,0.786,0.04,0.04,-9.824068,-0.00047546735731884837,0.0015998436,0.00011012152,-0.007031032349914312,-0.00017213695
1559.2166666655773,0.00015582237,-0.78517747,4.311375e-05,-2.3557143,8.370867e-05,1.5709741,0.786,0.04,0.04,-9.822481,-0.0008264822536148131,0.00059828116,0.00015979825,-0.00759525690227747,-0.00025224354
1559.233333332244,0.00014983014,-0.7851199,4.469781e-05,-2.3557656,7.8670004e-05,1.5709713,0.7859981,0.039999995,0.04,-9.821377,-0.0012035639956593513,-0.00030353526,0.00022138789,-0.008114609867334366,-0.0003528674
1559.2499999989107,0.00014179054,-0.7850673,4.681924e-05,-2.355816,7.1908435e-05,1.5709699,0.7859962,0.03999999,0.039999995,-9.819776,-0.0016345195472240448,-0.0012090143,0.00030426838,-0.008566499687731266,-0.00047379697
1559.2666666655773,0.00013132438,-0.78501976,4.957742e-05,-2.3558645,6.310549e-05,1.5709671,0.7859943,0.039999988,0.039999988,-9.818741,-0.002080687088891864,-0.0020317722,0.00040013163,-0.008971359580755234,-0.00061626855
1559.283333332244,0.00011803335,-0.7849767,5.30764e-05,-2.3559093,5.192679e-05,1.5709642,0.7859924,0.039999984,0.03999998,-9.817733,-0.002610856434330344,-0.0028139276,0.0005096001,-0.009336893446743488,-0.000782241
1559.2999999989106,0.00010150296,-0.7849382,5.742465e-05,-2.355953,3.802399e-05,1.5709614,0.7859905,0.039999977,0.039999973,-9.816322,-0.00315246544778347,-0.0035546212,0.0006326294,-0.009648635052144527,-0.00097355375
1559.3166666655773,8.130437e-05,-0.784904,6.273443e-05,-2.3559961,2.103825e-05,1.5709585,0.78598666,0.03999997,0.03999996,-9.81532,-0.0037757784593850374,-0.0042917,0.0007698857,-0.009916783310472965,-0.0011893136
1559.333333332244,5.699663e-05,-0.7848737,6.912101e-05,-2.3560393,5.984851e-07,1.5709556,0.78598285,0.03999997,0.03999996,-9.814304,-0.0044016451574862,-0.0049511525,0.00093017454,-0.01014493778347969,-0.0014319676
1559.3499999989106,2.8128494e-05,-0.7848473,7.670252e-05,-2.3560827,-2.3673276e-05,1.5709528,0.78597903,0.039999973,0.039999966,-9.813391,-0.005141265224665403,-0.005656032,0.0011046685,-0.010334840044379234,-0.0017012373
1559.3666666655772,-5.759912e-06,-0.7848248,8.5599e-05,-2.356127,-5.216284e-05,1.5709499,0.7859733,0.039999973,0.039999966,-9.812448,-0.005858652293682098,-0.0062979385,0.001293485,-0.010487002320587635,-0.0019976296
1559.3833333322439,-4.5135224e-05,-0.78480595,9.59326e-05,-2.3561742,-8.526123e-05,1.570947,0.7859676,0.03999997,0.039999958,-9.81164,-0.00671393983066082,-0.0069647077,0.0015054762,-0.010605358518660069,-0.0023207013
1559.3999999989105,-9.0469664e-05,-0.7847907,0.000107826956,-2.3562238,-0.00012336543,1.5709442,0.78595996,0.03999997,0.039999958,-9.810986,-0.007548319175839424,-0.007580271,0.0017315625,-0.010696367360651493,-0.0026724674
1559.4166666655772,-0.00014223957,-0.78477895,0.00012140646,-2.3562744,-0.00016687483,1.5709412,0.7859523,0.039999973,0.03999996,-9.810283,-0.008490935899317265,-0.008243902,0.0019801944,-0.01075868308544159,-0.0030523313
1559.4333333322438,-0.00020092432,-0.7847708,0.00013679675,-2.3563256,-0.00021619158,1.5709382,0.7859428,0.039999973,0.03999996,-9.809352,-0.009549902752041817,-0.008914354,0.0022427295,-0.010784604586660862,-0.0034604645
1559.4499999989105,-0.0002670052,-0.7847659,0.0001541236,-2.3563828,-0.00027171898,1.570935,0.78593254,0.039999977,0.03999996,-9.808357,-0.010570426471531391,-0.009537403,0.0025274896,-0.010770712979137897,-0.0038961205
1559.4666666655771,-0.00034096415,-0.7847645,0.00017351312,-2.3564415,-0.00033386267,1.5709314,0.7859211,0.039999977,0.03999996,-9.808051,-0.011786522343754768,-0.010207769,0.0028287675,-0.01074370089918375,-0.004361028
1559.4833333322438,-0.00042328317,-0.7847667,0.00019509118,-2.3565063,-0.00040302472,1.5709248,0.78590775,0.039999977,0.039999958,-9.807135,-0.012956267222762108,-0.010851521,0.0031481744,-0.010681499727070332,-0.004853478
1559.4999999989104,-0.0005144431,-0.7847721,0.00021898386,-2.3565729,-0.00047961134,1.5709181,0.7858935,0.03999998,0.03999996,-9.806852,-0.014345108531415462,-0.011487152,0.00348879,-0.010617769323289394,-0.005375195
1559.516666665577,-0.00061492313,-0.78478074,0.00024531642,-2.3566458,-0.000564023,1.5709114,0.785878,0.03999998,0.03999996,-9.805894,-0.01568431220948696,-0.012208351,0.0038457247,-0.01051621325314045,-0.0059259203
1559.5333333322437,-0.00072519993,-0.78479284,0.0002742137,-2.356721,-0.0006566602,1.5709046,0.78586084,0.039999984,0.03999997,-9.805519,-0.01725691556930542,-0.012995329,0.004219789,-0.010399026796221733,-0.0065047997
1559.5499999989104,-0.000845747,-0.78480846,0.00030579962,-2.3568025,-0.0007579193,1.5708976,0.78584176,0.039999984,0.03999997,-9.804605,-0.018768377602100372,-0.013740827,0.0046129636,-0.010245231911540031,-0.00711149
1559.566666665577,-0.0009770348,-0.78482735,0.00034019697,-2.3568912,-0.00086819404,1.5708903,0.78582114,0.039999988,0.03999997,-9.804113,-0.020519375801086426,-0.014538526,0.0050251214,-0.010072710923850536,-0.007743176
1559.5833333322437,-0.0011195285,-0.7848498,0.0003775279,-2.3569868,-0.0009878773,1.5708808,0.78579885,0.039999988,0.03999997,-9.803831,-0.02224462293088436,-0.01534327,0.005455005,-0.009886299259960651,-0.008404128
1559.5999999989103,-0.0012736892,-0.7848757,0.00041791293,-2.3570848,-0.0011173543,1.5708703,0.78577477,0.039999988,0.03999996,-9.803431,-0.02421557903289795,-0.016192222,0.0059020827,-0.009692789986729622,-0.009090285
1559.616666665577,-0.0014399728,-0.784905,0.0004614713,-2.3571904,-0.0012570089,1.5708597,0.7857488,0.039999984,0.039999958,-9.802451,-0.02615274488925934,-0.017068822,0.0063664024,-0.009462878108024597,-0.009805143
1559.6333333322436,-0.0016188297,-0.784938,0.00050832104,-2.3573031,-0.0014072175,1.5708488,0.7857209,0.039999977,0.039999947,-9.80201,-0.02836560271680355,-0.018043265,0.0068482193,-0.009216665290296078,-0.0105455015
1559.6499999989103,-0.0018107034,-0.7849746,0.00055857835,-2.3574235,-0.0015683537,1.5708375,0.78569096,0.039999977,0.039999943,-9.801645,-0.030524151399731636,-0.018992007,0.0073467186,-0.008952721022069454,-0.011312808
1559.666666665577,-0.002016033,-0.78501487,0.00061235786,-2.3575516,-0.0017407851,1.5708237,0.7856589,0.03999998,0.03999995,-9.801194,-0.032898347824811935,-0.020017086,0.00786189,-0.008671144023537636,-0.012106673
1559.6833333322436,-0.002235249,-0.7850589,0.0006697727,-2.3576875,-0.0019248738,1.5708094,0.78562456,0.03999999,0.03999998,-9.800732,-0.035524267703294754,-0.021071961,0.00839422,-0.00838124193251133,-0.012929328
1559.6999999989102,-0.0024687762,-0.7851068,0.0007309338,-2.3578312,-0.002120974,1.5707949,0.78558797,0.039999995,0.039999995,-9.800348,-0.038035597652196884,-0.022168297,0.008942872,-0.008073684759438038,-0.013774917
1559.716666665577,-0.0027170328,-0.7851585,0.0007959503,-2.3579826,-0.002329416,1.57078,0.78554904,0.039999995,0.039999995,-9.799791,-0.040892548859119415,-0.02339163,0.009508073,-0.007745672017335892,-0.014641788
1559.7333333322435,-0.0029804287,-0.7852142,0.0008649299,-2.3581424,-0.0025505694,1.5707632,0.78550786,0.03999999,0.039999995,-9.799352,-0.04369989037513733,-0.024571177,0.010089182,-0.007397812325507402,-0.015534374
1559.7499999989102,-0.0032593664,-0.7852737,0.00093797845,-2.3583121,-0.0027847881,1.570745,0.7854642,0.039999988,0.04,-9.798825,-0.04687042906880379,-0.025851574,0.010685039,-0.007038002368062735,-0.016451223
1559.7666666655768,-0.0035542408,-0.78533715,0.0010151989,-2.358492,-0.0030323826,1.5707265,0.7854181,0.039999988,0.04,-9.798679,-0.04994135722517967,-0.027162734,0.011296383,-0.006671443581581116,-0.017389392
1559.7833333322435,-0.0038654387,-0.7854046,0.0010966928,-2.3586812,-0.0032936744,1.5707074,0.78536934,0.039999988,0.04,-9.798288,-0.05341359227895737,-0.028619638,0.0119225625,-0.006291399244219065,-0.018350149
1559.7999999989102,-0.00419334,-0.7854762,0.0011825595,-2.3588789,-0.0035689834,1.5706862,0.7853181,0.039999988,0.04,-9.797991,-0.056796327233314514,-0.030064179,0.012563757,-0.005896417889744043,-0.019332998
1559.8166666655768,-0.004538316,-0.785552,0.0012728964,-2.359087,-0.0038586184,1.5706642,0.7852642,0.039999988,0.04,-9.79739,-0.06058637052774429,-0.03161856,0.013218737,-0.0054878974333405495,-0.020337448
1559.8333333322435,-0.0049007284,-0.78563213,0.0013677978,-2.3593059,-0.0041628866,1.5706418,0.7852074,0.039999988,0.04,-9.797183,-0.06428905576467514,-0.03318555,0.013887666,-0.005068053025752306,-0.021362985
1559.84999999891,-0.005280933,-0.78571653,0.0014673575,-2.359535,-0.0044820826,1.5706179,0.78514796,0.039999988,0.04,-9.796767,-0.06841056793928146,-0.034896396,0.014570997,-0.004634433891624212,-0.022409106
1559.8666666655768,-0.005679277,-0.7858053,0.001571666,-2.3597746,-0.004816496,1.570592,0.7850856,0.039999984,0.039999995,-9.796507,-0.07243902236223221,-0.036597647,0.015266953,-0.004189294297248125,-0.023475287
1559.8833333322434,-0.0060960962,-0.78589845,0.001680812,-2.3600247,-0.0051664463,1.5705659,0.78502053,0.039999977,0.039999995,-9.796066,-0.0769176110625267,-0.038431924,0.015976233,-0.0037362875882536173,-0.024562543
1559.89999999891,-0.0065317214,-0.78599626,0.0017948815,-2.360286,-0.0055321674,1.5705388,0.78495246,0.039999984,0.039999995,-9.795774,-0.08127424120903015,-0.040313475,0.016697586,-0.003266720799729228,-0.025665408
1559.9166666655767,-0.0069864737,-0.7860983,0.0019139586,-2.3605583,-0.00591394,1.5705093,0.7848813,0.039999984,0.04,-9.795415,-0.08597558736801147,-0.042254273,0.017431414,-0.0027843404095619917,-0.026789311
1559.9333333322434,-0.0074606645,-0.7862051,0.002038125,-2.360843,-0.0063120383,1.5704794,0.7848071,0.039999984,0.04,-9.794998,-0.0909869372844696,-0.044334896,0.018177953,-0.00229599024169147,-0.027930208
1559.94999999891,-0.0079546,-0.78631663,0.002167461,-2.361138,-0.006726698,1.5704485,0.7847299,0.039999984,0.04,-9.794876,-0.09590132534503937,-0.04642809,0.018936157,-0.0017974950606003404,-0.029088499
1559.9666666655767,-0.008468571,-0.786433,0.0023020431,-2.3614461,-0.007158185,1.5704155,0.7846495,0.039999988,0.04,-9.794295,-0.10129497945308685,-0.04866267,0.019705037,-0.0012824850855395198,-0.030264534
1559.9833333322433,-0.009002869,-0.78655386,0.002441947,-2.3617651,-0.0076067136,1.5703818,0.784566,0.03999999,0.04,-9.794197,-0.10657215118408203,-0.050877273,0.020485375,-0.0007640497060492635,-0.031455126
1559.99999999891,-0.009557768,-0.7866795,0.0025872458,-2.3620968,-0.008072519,1.570347,0.78447926,0.039999988,0.04,-9.793642,-0.11236197501420975,-0.053326685,0.02127613,-0.00022959349735174328,-0.032662373
1560.0166666655766,-0.0101335365,-0.7868103,0.0027380092,-2.362441,-0.008555869,1.5703101,0.78438926,0.039999988,0.04,-9.793497,-0.11804671585559845,-0.055734813,0.02207745,0.0003130958357360214,-0.03388643
1560.0333333322433,-0.010730436,-0.786946,0.0028943059,-2.3627975,-0.009056959,1.5702722,0.784296,0.039999984,0.04,-9.793068,-0.1242184191942215,-0.058282226,0.022888405,0.0008629552321508527,-0.0351242
1560.04999999891,-0.011348723,-0.7870865,0.0030562023,-2.3631666,-0.009575988,1.5702333,0.7841993,0.039999984,0.04,-9.792822,-0.13028839230537415,-0.060871437,0.023709092,0.0014254790730774403,-0.036375314
1560.0666666655766,-0.011988636,-0.7872321,0.003223761,-2.3635485,-0.010113174,1.5701925,0.7840993,0.03999998,0.04,-9.792394,-0.13688498735427856,-0.063654155,0.024539387,0.0019972773734480143,-0.037640806
1560.0833333322432,-0.012650412,-0.7873829,0.0033970457,-2.3639436,-0.010668714,1.5701505,0.78399587,0.039999984,0.04,-9.79218,-0.1433572769165039,-0.06639011,0.025378596,0.0025765642058104277,-0.03891839
1560.0999999989099,-0.013334273,-0.78753865,0.0035761134,-2.3643513,-0.011242798,1.5701073,0.78388894,0.03999998,0.04,-9.791754,-0.1503758430480957,-0.0693281,0.026226325,0.003165298141539097,-0.040209312
1560.1166666655765,-0.014040442,-0.78769964,0.0037610224,-2.3647723,-0.011835612,1.5700623,0.78377855,0.03999998,0.04,-9.79146,-0.15727382898330688,-0.072289206,0.027082656,0.003766882000491023,-0.04151215
1560.1333333322432,-0.014769126,-0.7878658,0.003951826,-2.3652077,-0.012447315,1.5700163,0.7836646,0.03999998,0.04,-9.791064,-0.16470663249492645,-0.07540217,0.02794668,0.004373149015009403,-0.04282544
1560.1499999989098,-0.015520524,-0.7880374,0.004148579,-2.3656561,-0.013078079,1.5699687,0.78354716,0.039999988,0.04,-9.790946,-0.17203004658222198,-0.07854456,0.02881886,0.004986308515071869,-0.04414886
1560.1666666655765,-0.016294833,-0.78821415,0.004351331,-2.3661177,-0.013728067,1.5699193,0.78342605,0.039999984,0.04,-9.790538,-0.17974793910980225,-0.08180908,0.029697524,0.0056105246767401695,-0.04548516
1560.1833333322431,-0.01709223,-0.7883961,0.004560131,-2.3665934,-0.01439744,1.569869,0.78330135,0.039999984,0.04,-9.790012,-0.187838613986969,-0.08522742,0.030584002,0.006242863368242979,-0.046830304
1560.1999999989098,-0.017912898,-0.7885836,0.0047750245,-2.3670826,-0.015086328,1.569817,0.7831731,0.039999984,0.04,-9.789832,-0.19581001996994019,-0.088665016,0.031477116,0.006883519701659679,-0.04818299
1560.2166666655764,-0.018756997,-0.78877634,0.0049960534,-2.3675857,-0.015794886,1.5697634,0.7830411,0.039999977,0.04,-9.789277,-0.2043687254190445,-0.09227024,0.0323758,0.007533680647611618,-0.049546972
1560.233333332243,-0.019624691,-0.78897464,0.005223261,-2.368103,-0.016523264,1.5697086,0.7829055,0.039999973,0.04,-9.78905,-0.21278654038906097,-0.09589507,0.0332811,0.008191137574613094,-0.050918162
1560.2499999989097,-0.02051613,-0.78917855,0.005456688,-2.3686347,-0.017271567,1.5696518,0.78276616,0.039999973,0.04,-9.788544,-0.22177806496620178,-0.09970967,0.03419149,0.00885726511478424,-0.052296158
1560.2666666655764,-0.021431461,-0.78938794,0.0056963693,-2.3691807,-0.018039906,1.5695939,0.7826231,0.039999973,0.04,-9.788331,-0.23065826296806335,-0.1035125,0.035107415,0.009528589434921741,-0.053681254
1560.283333332243,-0.0223708,-0.7896027,0.005942343,-2.3697407,-0.018828426,1.5695344,0.7824763,0.039999973,0.04,-9.787756,-0.24011579155921936,-0.107545875,0.036028378,0.010209619998931885,-0.055074655
1560.2999999989097,-0.023334298,-0.7898231,0.006194639,-2.370315,-0.019637197,1.5694731,0.78232574,0.039999977,0.04,-9.787495,-0.2494407743215561,-0.11157988,0.036953885,0.010897793807089329,-0.056471635
1560.3166666655763,-0.024322055,-0.790049,0.0064532897,-2.3709037,-0.020466324,1.5694106,0.7821713,0.039999973,0.04,-9.786883,-0.25936201214790344,-0.11580287,0.037883624,0.01159368921071291,-0.057875853
1560.333333332243,-0.025334196,-0.7902806,0.006718325,-2.3715072,-0.021315929,1.5693463,0.78201306,0.03999997,0.04,-9.786604,-0.26917076110839844,-0.120061055,0.03881785,0.01229774672538042,-0.05928594
1560.3499999989097,-0.026370808,-0.79051775,0.006989772,-2.3721244,-0.022186078,1.5692806,0.78185093,0.03999997,0.04,-9.786005,-0.2795466482639313,-0.12448902,0.03975557,0.013007762841880322,-0.060698744
1560.3666666655763,-0.027431993,-0.7907607,0.0072676535,-2.3727565,-0.023076855,1.5692133,0.781685,0.039999966,0.04,-9.785582,-0.28981268405914307,-0.12894528,0.040696908,0.013729631900787354,-0.062116474
1560.383333332243,-0.02851784,-0.79100907,0.0075519937,-2.3734033,-0.023988344,1.5691442,0.7815153,0.039999954,0.04,-9.784956,-0.300682008266449,-0.13358264,0.04164131,0.014457814395427704,-0.063539416
1560.3999999989096,-0.029628428,-0.79126316,0.007842814,-2.3740647,-0.024920594,1.569074,0.7813416,0.039999958,0.04,-9.784634,-0.3114064931869507,-0.1382572,0.042588033,0.01519103441387415,-0.06496184
1560.4166666655763,-0.030763824,-0.7915231,0.008140134,-2.374741,-0.025873685,1.569002,0.7811641,0.039999966,0.04,-9.784073,-0.3225761651992798,-0.1430837,0.043537613,0.015933824703097343,-0.06638943
1560.433333332243,-0.0319241,-0.7917888,0.008443966,-2.3754325,-0.026847627,1.5689285,0.78098273,0.039999966,0.04,-9.783364,-0.33413320779800415,-0.1480489,0.044489007,0.016683276742696762,-0.0678173
1560.4499999989096,-0.0331093,-0.79206014,0.008754327,-2.3761382,-0.027842501,1.5688534,0.7807975,0.03999996,0.04,-9.782998,-0.3455941379070282,-0.1530289,0.045442063,0.01743837632238865,-0.069248416
1560.4666666655762,-0.034319483,-0.79233706,0.00907123,-2.3768592,-0.028858343,1.5687764,0.78060836,0.039999954,0.04,-9.78219,-0.3576449155807495,-0.15824626,0.04639656,0.01820208504796028,-0.07068055
1560.4833333322429,-0.035554677,-0.7926198,0.009394685,-2.3775952,-0.029895196,1.5686979,0.78041524,0.039999958,0.04,-9.781808,-0.3695748746395111,-0.16344927,0.047352348,0.01896851323544979,-0.07211229
1560.4999999989095,-0.036814928,-0.7929084,0.009724703,-2.3783462,-0.030953076,1.5686179,0.78021824,0.039999954,0.04,-9.781014,-0.3821062445640564,-0.16888048,0.048309173,0.01974213682115078,-0.07354418
1560.5166666655762,-0.038100258,-0.7932027,0.010061292,-2.3791118,-0.032032013,1.5685365,0.7800173,0.03999995,0.04,-9.780488,-0.3945228159427643,-0.17430677,0.049266387,0.02052324451506138,-0.07497651
1560.5333333322428,-0.039410695,-0.79350275,0.010404455,-2.3798923,-0.033132017,1.5684534,0.77981246,0.039999954,0.04,-9.779598,-0.4075506925582886,-0.17996268,0.050223727,0.021312767639756203,-0.07641048
1560.5499999989095,-0.040746246,-0.7938085,0.010754192,-2.3806877,-0.034253117,1.5683686,0.7796037,0.03999996,0.04,-9.779048,-0.42044177651405334,-0.18562393,0.05118142,0.022108042612671852,-0.07784222
1560.5666666655761,-0.042106904,-0.79412013,0.011110512,-2.381498,-0.035395272,1.5682822,0.779391,0.039999966,0.04,-9.778123,-0.43392765522003174,-0.19148938,0.052138273,0.02290944941341877,-0.07927237
1560.5833333322428,-0.04349269,-0.79443747,0.011473404,-2.3823237,-0.036558513,1.5681943,0.7791744,0.03999996,0.04,-9.777488,-0.447297066450119,-0.19736847,0.05309474,0.023718111217021942,-0.08069774
1560.5999999989094,-0.044903565,-0.7947604,0.011842873,-2.3831646,-0.03774282,1.5681046,0.77895385,0.039999958,0.04,-9.776575,-0.4612676203250885,-0.20347668,0.054050162,0.02453077770769596,-0.0821203
1560.616666665576,-0.046339545,-0.7950893,0.012218915,-2.38402,-0.03894819,1.5680137,0.7787293,0.039999954,0.04,-9.775926,-0.4751380383968353,-0.20960706,0.055004694,0.02534758299589157,-0.083540484
1560.6333333322427,-0.047800593,-0.795424,0.012601523,-2.38489,-0.040174596,1.5679209,0.778501,0.03999995,0.04,-9.77483,-0.4895784854888916,-0.21593198,0.05595754,0.026173602789640427,-0.08495632
1560.6499999989094,-0.04928668,-0.7957644,0.012990687,-2.3857756,-0.04142202,1.5678267,0.77826864,0.039999947,0.04,-9.77402,-0.5039248466491699,-0.22226682,0.056908272,0.0270070843398571,-0.086368196
1560.666666665576,-0.05079775,-0.7961104,0.013386402,-2.3866754,-0.04269044,1.5677309,0.77803236,0.039999943,0.04,-9.773124,-0.5186886191368103,-0.22876868,0.057857152,0.027844669297337532,-0.08777553
1560.6833333322427,-0.05233379,-0.7964622,0.013788653,-2.3875902,-0.04397982,1.5676334,0.7777923,0.03999994,0.04,-9.771911,-0.5338647961616516,-0.23546128,0.058803927,0.028689740225672722,-0.08917967
1560.6999999989093,-0.053894743,-0.7968196,0.014197429,-2.3885198,-0.045290105,1.5675344,0.7775484,0.039999936,0.04,-9.771087,-0.5489153861999512,-0.24212395,0.059747424,0.0295383520424366,-0.09057676
1560.716666665576,-0.055480536,-0.7971828,0.014612713,-2.3894644,-0.046621248,1.5674336,0.77730054,0.039999936,0.04,-9.76983,-0.564567506313324,-0.24904507,0.0606878,0.030393896624445915,-0.09196974
1560.7333333322426,-0.05709113,-0.79755175,0.015034494,-2.3904233,-0.0479732,1.5673316,0.77704877,0.039999936,0.04,-9.768876,-0.5801012516021729,-0.2559571,0.061625183,0.03125414252281189,-0.093354836
1560.7499999989093,-0.05872645,-0.79792637,0.015462751,-2.3913972,-0.049345892,1.567228,0.7767931,0.03999993,0.04,-9.767516,-0.5962135195732117,-0.26308644,0.062559135,0.03212195634841919,-0.094733715
1560.766666665576,-0.06038641,-0.7983065,0.015897457,-2.392386,-0.050739277,1.5671227,0.7765336,0.039999925,0.04,-9.766512,-0.6122337579727173,-0.27023426,0.06348925,0.03299431502819061,-0.096105255
1560.7833333322426,-0.062070936,-0.79869235,0.016338598,-2.3933895,-0.05215329,1.5670159,0.7762703,0.039999917,0.04,-9.7651005,-0.628818154335022,-0.27760807,0.06441565,0.03387104347348213,-0.09747059
1560.7999999989092,-0.06377993,-0.79908377,0.016786149,-2.394408,-0.053587828,1.5669073,0.776003,0.039999913,0.04,-9.764,-0.6453045010566711,-0.28498495,0.06533755,0.0347517654299736,-0.09882708
1560.816666665576,-0.0655133,-0.79948074,0.017240085,-2.3954406,-0.055042837,1.5667975,0.77573204,0.039999913,0.04,-9.762561,-0.6623629927635193,-0.29258913,0.06625531,0.035633672028779984,-0.10017636
1560.8333333322425,-0.067270964,-0.7998834,0.017700383,-2.396488,-0.056518234,1.5666859,0.77545726,0.039999913,0.04,-9.761244,-0.679320216178894,-0.30020943,0.06716796,0.036524396389722824,-0.101517126
1560.8499999989092,-0.06905281,-0.8002916,0.018167013,-2.3975496,-0.058013923,1.566573,0.77517873,0.039999913,0.04,-9.759649,-0.6968218684196472,-0.30802828,0.068075374,0.03741830587387085,-0.10284805
1560.8666666655758,-0.07085872,-0.8007054,0.018639944,-2.3986256,-0.059529822,1.5664586,0.77489644,0.0399999,0.04,-9.7582855,-0.7142518162727356,-0.3158852,0.06897714,0.03831867128610611,-0.10417154
1560.8833333322425,-0.07268856,-0.8011246,0.019119153,-2.399716,-0.061065815,1.5663424,0.77461034,0.039999895,0.04,-9.756563,-0.7322022318840027,-0.32394835,0.06987327,0.03922339156270027,-0.1054835
1560.8999999989092,-0.074542254,-0.80154926,0.0196046,-2.40082,-0.0626218,1.5662248,0.77432054,0.039999887,0.04,-9.755128,-0.7500995993614197,-0.33201745,0.07076393,0.040130287408828735,-0.1067872
1560.9166666655758,-0.07641961,-0.80197936,0.020096255,-2.401939,-0.064197704,1.5661056,0.77402705,0.03999989,0.04,-9.753409,-0.7683372497558594,-0.3402661,0.07164802,0.041043978184461594,-0.10807881
1560.9333333322425,-0.07832053,-0.80241483,0.020594083,-2.4030714,-0.065793365,1.5659851,0.7737298,0.039999876,0.04,-9.7515955,-0.7869974970817566,-0.3486741,0.0725261,0.04195785894989967,-0.10936205
1560.949999998909,-0.08024486,-0.8028556,0.021098042,-2.4042177,-0.06740872,1.5658631,0.77342904,0.039999884,0.04,-9.749887,-0.8055264353752136,-0.35711437,0.07339766,0.04287903755903244,-0.11063092
1560.9666666655758,-0.08219247,-0.8033018,0.021608096,-2.405378,-0.069043584,1.5657396,0.7731246,0.03999987,0.04,-9.747844,-0.8246210217475891,-0.36575145,0.074261785,0.0438045896589756,-0.11189179
1560.9833333322424,-0.08416321,-0.8037534,0.022124207,-2.4065523,-0.07069788,1.5656146,0.7728164,0.039999865,0.04,-9.746092,-0.8436048626899719,-0.37439516,0.075118795,0.04473304748535156,-0.11313835
1560.999999998909,-0.08615693,-0.8042101,0.02264633,-2.40774,-0.07237144,1.5654881,0.77250475,0.03999986,0.04,-9.7439575,-0.8631228804588318,-0.383261,0.075968914,0.04566439986228943,-0.11437436
1561.0166666655757,-0.08817344,-0.80467206,0.023174431,-2.4089415,-0.07406415,1.5653602,0.7721895,0.039999854,0.04,-9.742037,-0.8825530409812927,-0.39214846,0.07681095,0.04660001024603844,-0.11559728
1561.0333333322424,-0.09021259,-0.8051392,0.023708457,-2.4101562,-0.07577585,1.5652308,0.77187073,0.03999985,0.04,-9.739767,-0.9024799466133118,-0.4012459,0.07764531,0.04753792658448219,-0.116806574
1561.049999998909,-0.0922742,-0.80561143,0.024248367,-2.4113843,-0.07750641,1.5651002,0.77154833,0.039999835,0.04,-9.737719,-0.9223646521568298,-0.41035685,0.078471355,0.04847937449812889,-0.118005395
1561.0666666655757,-0.09435808,-0.80608886,0.02479411,-2.4126253,-0.07925568,1.564968,0.7712226,0.03999983,0.04,-9.735234,-0.9427005648612976,-0.41968226,0.07928959,0.0494261272251606,-0.11918907
1561.0833333322423,-0.09646408,-0.80657136,0.025345648,-2.4138799,-0.08102353,1.5648345,0.7708934,0.039999828,0.04,-9.733027,-0.9629902839660645,-0.42900577,0.0800984,0.050375815480947495,-0.12035984
1561.099999998909,-0.09859199,-0.80705893,0.025902916,-2.4151475,-0.08280975,1.5646996,0.77056074,0.03999982,0.04,-9.730508,-0.9837552905082703,-0.43855003,0.08089886,0.05132652074098587,-0.121516064
1561.1166666655756,-0.10074161,-0.8075514,0.026465878,-2.416428,-0.084614225,1.5645632,0.7702246,0.039999828,0.04,-9.72817,-1.0044550895690918,-0.4481076,0.08169008,0.05227980762720108,-0.12265788
1561.1333333322423,-0.102912754,-0.8080487,0.02703448,-2.4177213,-0.08643677,1.5644253,0.7698851,0.03999981,0.04,-9.725408,-1.0256197452545166,-0.45787087,0.082472764,0.053235091269016266,-0.12378688
1561.149999998909,-0.10510526,-0.80855095,0.027608667,-2.4190273,-0.08827723,1.5642864,0.76954234,0.039999805,0.04,-9.722904,-1.0467214584350586,-0.46766433,0.083245635,0.054193492978811264,-0.124899395
1561.1666666655756,-0.107318856,-0.8090583,0.028188383,-2.4203463,-0.09013537,1.5641458,0.76919633,0.039999794,0.04,-9.720218,-1.0681620836257935,-0.47759834,0.08400892,0.05515259876847267,-0.1259975
1561.1833333322422,-0.109553374,-0.80957025,0.028773567,-2.421677,-0.0920111,1.5640041,0.768847,0.039999783,0.04,-9.717236,-1.0899032354354858,-0.48767608,0.084762156,0.05611301213502884,-0.12708043
1561.1999999989089,-0.11180856,-0.8100869,0.029364172,-2.4230204,-0.09390419,1.5638613,0.76849455,0.03999978,0.04,-9.71445,-1.1115939617156982,-0.49779996,0.08550504,0.057076744735240936,-0.12814692
1561.2166666655755,-0.114084244,-0.8106082,0.029960133,-2.4243758,-0.09581445,1.5637168,0.7681387,0.039999772,0.04,-9.711304,-1.133718729019165,-0.5081211,0.08623746,0.05804304778575897,-0.1291975
1561.2333333322422,-0.11638014,-0.81113434,0.030561404,-2.4257436,-0.09774171,1.5635712,0.7677798,0.039999764,0.04,-9.708368,-1.1557978391647339,-0.51843596,0.08696008,0.05900977924466133,-0.13023293
1561.2499999989088,-0.11869608,-0.81166494,0.031167915,-2.4271233,-0.09968581,1.5634245,0.7674177,0.039999753,0.04,-9.705117,-1.178302526473999,-0.5289537,0.0876718,0.059976059943437576,-0.13125186
1561.2666666655755,-0.12103178,-0.81220007,0.031779606,-2.4285145,-0.1016465,1.563276,0.7670524,0.03999974,0.04,-9.701996,-1.2007460594177246,-0.53951186,0.08837295,0.06094415858387947,-0.13225384
1561.2833333322421,-0.12338702,-0.81273973,0.03239642,-2.4299176,-0.103623606,1.5631267,0.76668423,0.039999727,0.04,-9.698495,-1.223601222038269,-0.5502377,0.089063525,0.061911363154649734,-0.13324092
1561.2999999989088,-0.12576154,-0.8132836,0.033018295,-2.4313319,-0.10561691,1.5629762,0.76631314,0.039999727,0.04,-9.695219,-1.2463977336883545,-0.5609981,0.08974197,0.0628802627325058,-0.13420758
1561.3166666655754,-0.12815522,-0.813832,0.033645142,-2.4327579,-0.10762622,1.5628244,0.7659391,0.03999972,0.04,-9.691526,-1.2695989608764648,-0.57196105,0.09040919,0.06385017931461334,-0.13515869
1561.333333332242,-0.13056767,-0.8143847,0.034276925,-2.4341946,-0.10965131,1.5626714,0.76556206,0.03999971,0.04,-9.688095,-1.2927666902542114,-0.5829105,0.091063604,0.06481803953647614,-0.13609396
1561.3499999989087,-0.13299862,-0.81494176,0.034913555,-2.435643,-0.11169199,1.5625175,0.7651821,0.0399997,0.04,-9.684158,-1.3162645101547241,-0.59406126,0.091706745,0.06578866392374039,-0.13700828
1561.3666666655754,-0.13544782,-0.81550294,0.035554983,-2.4371018,-0.11374804,1.5623621,0.7647992,0.039999694,0.04,-9.680573,-1.3398051261901855,-0.60522443,0.09233891,0.06675679236650467,-0.13790764
1561.383333332242,-0.13791512,-0.81606835,0.036201138,-2.4385717,-0.1158192,1.5622054,0.7644135,0.039999682,0.04,-9.676462,-1.3636373281478882,-0.616588,0.09295887,0.06772477179765701,-0.13878754
1561.3999999989087,-0.14040017,-0.81663775,0.036851946,-2.4400525,-0.11790528,1.562048,0.7640249,0.039999675,0.04,-9.672612,-1.3874536752700806,-0.6279377,0.09356642,0.06869100034236908,-0.13964826
1561.4166666655753,-0.1429027,-0.8172111,0.037507325,-2.441543,-0.120006055,1.5618892,0.7636336,0.039999664,0.04,-9.668578,-1.411545753479004,-0.63947225,0.09416228,0.06965499371290207,-0.14049134
1561.433333332242,-0.14542244,-0.8177885,0.038167223,-2.443044,-0.1221213,1.5617291,0.7632397,0.03999965,0.04,-9.664122,-1.4358525276184082,-0.65111893,0.09474551,0.07061924785375595,-0.14131755
1561.4499999989087,-0.14795919,-0.8183696,0.03883155,-2.4445553,-0.124250785,1.5615683,0.7628431,0.03999965,0.04,-9.659954,-1.4601490497589111,-0.6627801,0.09531548,0.07158159464597702,-0.14212465
1561.4666666655753,-0.15051256,-0.81895465,0.039500244,-2.4460764,-0.12639423,1.5614065,0.7624439,0.039999645,0.04,-9.655437,-1.4847244024276733,-0.67464566,0.09587278,0.07254110276699066,-0.14290886
1561.483333332242,-0.15308231,-0.8195436,0.040173233,-2.447607,-0.12855145,1.5612434,0.76204216,0.039999623,0.04,-9.651014,-1.5093505382537842,-0.6865045,0.09641705,0.0735006183385849,-0.14367974
1561.4999999989086,-0.15566818,-0.82013613,0.04085043,-2.4491482,-0.13072218,1.5610793,0.7616378,0.039999608,0.04,-9.646228,-1.53422212600708,-0.6985142,0.096948065,0.07445761561393738,-0.14443052
1561.5166666655753,-0.1582699,-0.82073224,0.041531783,-2.4506974,-0.13290624,1.5609143,0.76123106,0.039999608,0.04,-9.641738,-1.5590847730636597,-0.7105836,0.09746658,0.07540766894817352,-0.1451576
1561.533333332242,-0.16088714,-0.82133186,0.042217188,-2.452257,-0.13510332,1.5607485,0.7608218,0.03999959,0.04,-9.636588,-1.5842266082763672,-0.72280335,0.09797071,0.07636107504367828,-0.14586836
1561.5499999989086,-0.16351955,-0.8219351,0.04290658,-2.4538252,-0.13731314,1.5605816,0.76041025,0.039999574,0.04,-9.631888,-1.6093823909759521,-0.7350463,0.09846215,0.07730761170387268,-0.14655918
1561.5666666655752,-0.16616687,-0.82254165,0.043599878,-2.4554017,-0.13953555,1.5604135,0.75999635,0.039999567,0.04,-9.626658,-1.6347734928131104,-0.7474322,0.09893964,0.07825127243995667,-0.14722885
1561.5833333322419,-0.16882877,-0.8231516,0.044297002,-2.4569874,-0.14177018,1.5602447,0.7595802,0.039999563,0.04,-9.6215,-1.6601485013961792,-0.759857,0.09940272,0.07919484376907349,-0.1478774
1561.5999999989085,-0.17150502,-0.8237651,0.04499788,-2.4585822,-0.14401685,1.560075,0.75916183,0.039999545,0.04,-9.616169,-1.6858208179473877,-0.77242106,0.099852666,0.0801318883895874,-0.14850871
1561.6166666655752,-0.17419529,-0.82438135,0.04570242,-2.4601848,-0.14627533,1.5599045,0.75874126,0.039999526,0.04,-9.610955,-1.711474061012268,-0.7849953,0.100288585,0.08106311410665512,-0.14912048
1561.6333333322418,-0.17689922,-0.8250012,0.046410553,-2.4617953,-0.1485453,1.5597329,0.7583185,0.03999953,0.04,-9.605251,-1.7372978925704956,-0.7977848,0.1007103,0.08199162036180496,-0.14970742
1561.6499999989085,-0.17961657,-0.8256235,0.04712218,-2.4634137,-0.15082645,1.5595607,0.7578937,0.03999951,0.04,-9.599699,-1.7631878852844238,-0.81050724,0.10111777,0.08291731774806976,-0.15027755
1561.6666666655751,-0.18234701,-0.8262495,0.047837235,-2.46504,-0.15311861,1.5593874,0.7574668,0.039999485,0.04,-9.593974,-1.789222240447998,-0.8234307,0.101510905,0.08383674919605255,-0.15082833
1561.6833333322418,-0.18509026,-0.82687783,0.048555616,-2.4666739,-0.15542153,1.5592134,0.757038,0.039999474,0.04,-9.587968,-1.8153759241104126,-0.836365,0.10188905,0.08475209772586823,-0.15135753
1561.6999999989084,-0.18784587,-0.8275092,0.04927725,-2.4683154,-0.15773481,1.5590384,0.7566073,0.039999474,0.04,-9.58216,-1.841549038887024,-0.8494113,0.102252916,0.08565957099199295,-0.15186176
1561.716666665575,-0.19061354,-0.8281436,0.050002053,-2.469964,-0.16005827,1.5588628,0.7561746,0.03999945,0.04,-9.575958,-1.8679289817810059,-0.8625463,0.10260237,0.08656026422977448,-0.15234978
1561.7333333322417,-0.19339307,-0.82878035,0.050729953,-2.4716198,-0.16239163,1.5586866,0.7557401,0.039999425,0.04,-9.569817,-1.8943184614181519,-0.87570196,0.10293724,0.08745796978473663,-0.15281843
1561.7499999989084,-0.19618398,-0.82941955,0.05146084,-2.4732823,-0.1647346,1.5585096,0.7553038,0.039999414,0.04,-9.563437,-1.9208275079727173,-0.8890275,0.10325791,0.08834686875343323,-0.1532612
1561.766666665575,-0.19898605,-0.83006203,0.052194647,-2.4749515,-0.16708696,1.5583318,0.75486565,0.03999941,0.04,-9.557097,-1.9474074840545654,-0.9023588,0.10356373,0.089228555560112,-0.1536859
1561.7833333322417,-0.20179893,-0.8307068,0.052931268,-2.4766273,-0.16944832,1.5581533,0.75442594,0.039999392,0.04,-9.550369,-1.974082350730896,-0.9157569,0.10385473,0.09010683000087738,-0.1540891
1561.7999999989083,-0.20462224,-0.8313539,0.053670626,-2.4783092,-0.17181852,1.5579742,0.7539846,0.03999937,0.04,-9.543877,-2.0008349418640137,-0.9292301,0.10413074,0.09097369760274887,-0.15447418
1561.816666665575,-0.20745566,-0.8320032,0.054412633,-2.4799974,-0.1741972,1.5577945,0.7535416,0.039999362,0.04,-9.536908,-2.0276405811309814,-0.94283324,0.10439209,0.09183578193187714,-0.15483366
1561.8333333322416,-0.21029888,-0.83265454,0.055157203,-2.4816906,-0.17658408,1.5576142,0.7530971,0.03999936,0.04,-9.530156,-2.0545356273651123,-0.9564467,0.1046385,0.09268759191036224,-0.15517491
1561.8499999989083,-0.21315151,-0.8333081,0.05590423,-2.4833899,-0.17897893,1.5574332,0.75265115,0.039999343,0.04,-9.522904,-2.0814695358276367,-0.97019047,0.1048695,0.09353499859571457,-0.1554934
1561.866666665575,-0.21601325,-0.8339639,0.056653634,-2.4850945,-0.18138142,1.5572518,0.75220376,0.039999325,0.04,-9.515926,-2.108504295349121,-0.9839235,0.10508577,0.0943712666630745,-0.15579309
1561.8833333322416,-0.21888374,-0.83462155,0.05740533,-2.4868045,-0.18379126,1.5570697,0.751755,0.03999931,0.04,-9.508506,-2.13556170463562,-0.99776584,0.10528697,0.09520027786493301,-0.156069
1561.8999999989082,-0.22176264,-0.8352813,0.058159236,-2.4885194,-0.18620813,1.556887,0.7513049,0.03999929,0.04,-9.501259,-2.162705898284912,-1.0116454,0.10547343,0.09601825475692749,-0.1563258
1561.916666665575,-0.22464956,-0.835943,0.05891524,-2.4902394,-0.18863177,1.5567039,0.75085366,0.03999928,0.04,-9.4937,-2.1898655891418457,-1.0255951,0.105644345,0.0968286395072937,-0.1565596
1561.9333333322415,-0.22754423,-0.8366063,0.059673265,-2.4919634,-0.19106188,1.5565203,0.7504011,0.039999254,0.04,-9.4859915,-2.217106819152832,-1.0396255,0.1058003,0.09762893617153168,-0.15677404
1561.9499999989082,-0.23044625,-0.8372713,0.06043322,-2.4936922,-0.1934982,1.5563363,0.74994737,0.03999924,0.04,-9.478278,-2.2443645000457764,-1.0536768,0.105940774,0.09842054545879364,-0.15696736
1561.9666666655748,-0.2333553,-0.83793783,0.061195005,-2.495425,-0.19594039,1.5561516,0.7494926,0.03999922,0.04,-9.470339,-2.271660327911377,-1.0678325,0.10606691,0.0992012545466423,-0.157138
1561.9833333322415,-0.23627101,-0.8386061,0.06195854,-2.4971616,-0.19838813,1.5559666,0.74903685,0.0399992,0.04,-9.46245,-2.299015998840332,-1.081997,0.10617732,0.09997005760669708,-0.15728918
1561.9999999989082,-0.23919302,-0.8392757,0.06272375,-2.4989023,-0.20084126,1.5557814,0.74858004,0.039999187,0.04,-9.454191,-2.3263654708862305,-1.0962399,0.10627213,0.10073065012693405,-0.15741923
1562.0166666655748,-0.24212094,-0.83994675,0.063490465,-2.5006464,-0.20329934,1.5555956,0.74812233,0.03999917,0.04,-9.446106,-2.353792428970337,-1.1105134,0.10635237,0.10147810727357864,-0.15752716
1562.0333333322415,-0.24505447,-0.8406191,0.064258665,-2.5023937,-0.20576213,1.5554096,0.74766374,0.039999153,0.04,-9.437633,-2.381187915802002,-1.1248653,0.10641745,0.10221602022647858,-0.1576151
1562.049999998908,-0.24799323,-0.84129244,0.065028206,-2.5041444,-0.2082293,1.5552231,0.74720424,0.03999913,0.04,-9.429237,-2.408660888671875,-1.1392334,0.10646717,0.10294240713119507,-0.15768355
1562.0666666655748,-0.25093684,-0.8419671,0.065799035,-2.5058978,-0.2107006,1.5550365,0.746744,0.03999912,0.04,-9.420644,-2.436089277267456,-1.1536932,0.106502995,0.10365325212478638,-0.15772806
1562.0833333322414,-0.25388503,-0.8426427,0.06657104,-2.507654,-0.21317567,1.5548496,0.74628305,0.039999105,0.04,-9.411924,-2.4635753631591797,-1.1681442,0.106523015,0.10435700416564941,-0.15775302
1562.099999998908,-0.2568373,-0.84331936,0.06734413,-2.5094128,-0.21565424,1.5546625,0.7458216,0.039999083,0.04,-9.403093,-2.4910330772399902,-1.1826788,0.10652819,0.10504535585641861,-0.15775764
1562.1166666655747,-0.25979334,-0.843997,0.06811824,-2.5111735,-0.21813597,1.5544752,0.7453595,0.039999064,0.04,-9.39422,-2.518547296524048,-1.1972177,0.10651793,0.10572123527526855,-0.15774184
1562.1333333322414,-0.26275292,-0.8446751,0.06889321,-2.5129368,-0.22062062,1.5542873,0.7448968,0.039999045,0.04,-9.38504,-2.5459787845611572,-1.2118171,0.106492765,0.10638720542192459,-0.1577039
1562.149999998908,-0.26571548,-0.84535414,0.069668986,-2.5147016,-0.2231078,1.5540993,0.7444337,0.039999027,0.04,-9.3760605,-2.573514223098755,-1.2264569,0.106453195,0.10703376680612564,-0.15764654
1562.1666666655747,-0.26868084,-0.8460338,0.07044546,-2.5164678,-0.22559728,1.5539112,0.74397016,0.039999012,0.04,-9.366723,-2.6009745597839355,-1.2411245,0.10639895,0.107669398188591,-0.15756746
1562.1833333322413,-0.27164838,-0.84671396,0.07122255,-2.5182357,-0.22808872,1.5537229,0.74350613,0.039998993,0.04,-9.357258,-2.628390073776245,-1.2558205,0.106328756,0.10829128324985504,-0.15747063
1562.199999998908,-0.2746179,-0.84739465,0.07200018,-2.5200047,-0.23058192,1.5535344,0.7430419,0.03999897,0.04,-9.34781,-2.6558845043182373,-1.2705607,0.10624568,0.1088995411992073,-0.15735227
1562.2166666655746,-0.27758905,-0.8480756,0.07277821,-2.5217745,-0.23307638,1.5533459,0.74257743,0.039998956,0.04,-9.338177,-2.6832616329193115,-1.2853167,0.10614751,0.10949157178401947,-0.15721093
1562.2333333322413,-0.28056154,-0.8487568,0.073556565,-2.5235453,-0.23557197,1.5531574,0.7421127,0.039998937,0.04,-9.328468,-2.710719347000122,-1.3001126,0.10603425,0.11007116734981537,-0.15705238
1562.249999998908,-0.28353482,-0.8494381,0.07433515,-2.5253167,-0.23806825,1.552969,0.74164784,0.039998922,0.04,-9.318616,-2.7380383014678955,-1.3149362,0.10590676,0.11063391715288162,-0.15687345
1562.2666666655746,-0.2865086,-0.8501196,0.07511387,-2.5270884,-0.24056499,1.5527805,0.74118286,0.0399989,0.04,-9.308748,-2.76544451713562,-1.3297887,0.105765685,0.11118130385875702,-0.15667374
1562.2833333322412,-0.28948265,-0.8508012,0.075892635,-2.5288603,-0.24306186,1.5525919,0.7407179,0.03999888,0.04,-9.298626,-2.792703151702881,-1.3446451,0.105610326,0.1117146834731102,-0.15645334
1562.2999999989079,-0.29245642,-0.85148287,0.07667133,-2.530632,-0.24555856,1.5524035,0.7402529,0.039998863,0.04,-9.2885685,-2.82004714012146,-1.3595219,0.10544005,0.11223001033067703,-0.15621571
1562.3166666655745,-0.29542974,-0.8521643,0.07744987,-2.532403,-0.24805482,1.552215,0.7397881,0.039998844,0.04,-9.278225,-2.847208261489868,-1.3744172,0.10525596,0.11273147165775299,-0.15595733
1562.3333333322412,-0.298402,-0.8528456,0.07822815,-2.5341737,-0.25055024,1.5520265,0.73932344,0.039998826,0.04,-9.267904,-2.8744325637817383,-1.3893352,0.10505687,0.11321680247783661,-0.1556779
1562.3499999989078,-0.30137298,-0.85352665,0.079006106,-2.5359433,-0.25304458,1.551838,0.738859,0.039998807,0.04,-9.257421,-2.901529550552368,-1.404254,0.10484429,0.11368492245674133,-0.1553809
1562.3666666655745,-0.3043423,-0.8542072,0.0797836,-2.537712,-0.25553742,1.5516496,0.7383948,0.03999879,0.04,-9.246854,-2.9286656379699707,-1.4191885,0.10461759,0.1141376718878746,-0.15506288
1562.3833333322411,-0.30730963,-0.85488737,0.080560565,-2.5394795,-0.25802863,1.5514613,0.7379309,0.039998766,0.04,-9.236192,-2.955643653869629,-1.4341401,0.10437721,0.11457215994596481,-0.15472794
1562.3999999989078,-0.3102744,-0.8555669,0.081336886,-2.5412452,-0.26051787,1.5512733,0.7374674,0.039998744,0.04,-9.225458,-2.982679605484009,-1.4491097,0.10412309,0.1149900034070015,-0.15437412
1562.4166666655744,-0.31323647,-0.8562459,0.08211249,-2.5430098,-0.26300466,1.5510854,0.73700434,0.03999873,0.04,-9.214595,-3.009579658508301,-1.464065,0.103856005,0.11539100110530853,-0.1539983
1562.433333332241,-0.3161953,-0.85692406,0.08288727,-2.5447724,-0.26548895,1.5508976,0.7365418,0.039998706,0.04,-9.203649,-3.0363590717315674,-1.479025,0.10357509,0.11577359586954117,-0.15360671
1562.4499999989077,-0.31915084,-0.8576015,0.08366113,-2.546533,-0.2679703,1.5507102,0.73607975,0.03999868,0.04,-9.192663,-3.063220500946045,-1.4940095,0.10328194,0.11613703519105911,-0.15319592
1562.4666666655744,-0.3221025,-0.85827816,0.08443397,-2.548291,-0.27044842,1.550523,0.7356183,0.039998665,0.04,-9.181535,-3.0898303985595703,-1.5089662,0.102975115,0.11648275703191757,-0.15276706
1562.483333332241,-0.32504988,-0.8589538,0.08520574,-2.5500464,-0.272923,1.5503361,0.73515755,0.039998654,0.04,-9.170271,-3.1165053844451904,-1.5239323,0.10265488,0.11681216955184937,-0.15231809
1562.4999999989077,-0.32799268,-0.8596282,0.08597626,-2.5517998,-0.2753937,1.5501496,0.73469746,0.039998624,0.04,-9.15895,-3.1429781913757324,-1.5388827,0.10232163,0.11712369322776794,-0.1518533
1562.5166666655743,-0.33093056,-0.8603017,0.086745515,-2.5535493,-0.27786028,1.5499632,0.73423827,0.039998606,0.04,-9.1477,-3.169543743133545,-1.5538719,0.101977274,0.11741238832473755,-0.15137039
1562.533333332241,-0.33386308,-0.860974,0.08751339,-2.555296,-0.2803224,1.5497772,0.7337798,0.03999859,0.04,-9.1360655,-3.195775270462036,-1.5687842,0.101617955,0.1176876574754715,-0.15086837
1562.5499999989077,-0.33678997,-0.86164504,0.08827974,-2.5570393,-0.28277993,1.5495914,0.73332226,0.03999857,0.04,-9.124602,-3.222177743911743,-1.5837245,0.10124792,0.11794094741344452,-0.15034957
1562.5666666655743,-0.3397108,-0.8623144,0.089044526,-2.5587795,-0.28523228,1.5494063,0.7328656,0.03999855,0.04,-9.112947,-3.2482330799102783,-1.5986265,0.10086508,0.11817561089992523,-0.14980988
1562.583333332241,-0.3426254,-0.8629823,0.08980765,-2.5605154,-0.28767926,1.5492215,0.73241,0.03999852,0.04,-9.101336,-3.274480104446411,-1.6135907,0.10047198,0.11838850378990173,-0.1492583
1562.5999999989076,-0.3455333,-0.86364883,0.09056904,-2.5622478,-0.29012057,1.5490372,0.7319554,0.039998505,0.04,-9.089517,-3.300312042236328,-1.6284604,0.10006511,0.11858253926038742,-0.14868404
1562.6166666655743,-0.34843397,-0.8643138,0.091328554,-2.563975,-0.292556,1.5488532,0.73150194,0.03999847,0.04,-9.077703,-3.3263399600982666,-1.6433386,0.09964752,0.11875584721565247,-0.14809886
1562.633333332241,-0.35132724,-0.86497706,0.09208609,-2.5656986,-0.29498515,1.5486696,0.73104966,0.039998453,0.04,-9.065677,-3.3519794940948486,-1.6581696,0.09921723,0.11891356855630875,-0.14749454
1562.6499999989076,-0.3542128,-0.8656386,0.0928416,-2.5674176,-0.29740787,1.5484867,0.7305985,0.039998427,0.04,-9.053772,-3.3777525424957275,-1.673011,0.098776296,0.11904743313789368,-0.14687298
1562.6666666655742,-0.35709023,-0.8662982,0.093594976,-2.5691314,-0.2998238,1.5483042,0.7301486,0.039998405,0.04,-9.041707,-3.4033055305480957,-1.68781,0.09832424,0.11916200071573257,-0.14623436
1562.6833333322409,-0.35995916,-0.86695564,0.09434616,-2.5708404,-0.30223253,1.5481223,0.72970015,0.03999839,0.04,-9.02957,-3.428624391555786,-1.7025744,0.097860605,0.11925730854272842,-0.14557956
1562.6999999989075,-0.36281928,-0.8676109,0.09509503,-2.5725443,-0.30463386,1.547941,0.729253,0.039998364,0.04,-9.017446,-3.454090118408203,-1.7173666,0.09738711,0.11932903528213501,-0.1449116
1562.7166666655742,-0.3656702,-0.86826426,0.09584147,-2.574242,-0.30702758,1.5477602,0.7288072,0.039998334,0.04,-9.005256,-3.4791884422302246,-1.7320818,0.09690338,0.11937939375638962,-0.14422813
1562.7333333322408,-0.36851162,-0.8689158,0.09658544,-2.575935,-0.30941334,1.54758,0.72836304,0.03999832,0.04,-8.992841,-3.504310131072998,-1.7467644,0.096408695,0.11941271275281906,-0.14352542
1562.7499999989075,-0.37134326,-0.86956537,0.09732681,-2.5776215,-0.31179073,1.5474002,0.72792035,0.0399983,0.04,-8.980573,-3.529165267944336,-1.7613628,0.095902674,0.11942412704229355,-0.1428071
1562.7666666655741,-0.37416467,-0.8702117,0.098065525,-2.5793028,-0.31415963,1.5472213,0.7274793,0.039998274,0.04,-8.968088,-3.55407452583313,-1.7759709,0.09538594,0.1194162666797638,-0.14207666
1562.7833333322408,-0.3769756,-0.87085605,0.09880147,-2.580977,-0.3165198,1.547043,0.7270399,0.039998252,0.04,-8.9558325,-3.5787034034729004,-1.790596,0.09486185,0.11938049644231796,-0.14133194
1562.7999999989074,-0.3797757,-0.87149835,0.09953457,-2.582645,-0.3188707,1.5468656,0.7266022,0.039998233,0.04,-8.943206,-3.6032955646514893,-1.8051252,0.09432601,0.11932802200317383,-0.14056975
1562.816666665574,-0.38256454,-0.8721374,0.10026476,-2.584306,-0.3212123,1.5466887,0.7261662,0.039998222,0.04,-8.930669,-3.6275815963745117,-1.8195639,0.0937796,0.11925764381885529,-0.13979352
1562.8333333322407,-0.3853419,-0.8727744,0.100991905,-2.58596,-0.3235442,1.5465125,0.725732,0.03999821,0.04,-8.918083,-3.651970863342285,-1.8340628,0.09322556,0.1191621646285057,-0.13900343
1562.8499999989074,-0.38810745,-0.8734082,0.10171596,-2.587607,-0.3258662,1.546337,0.7252998,0.039998185,0.04,-8.905448,-3.6759581565856934,-1.8483971,0.09266054,0.11904924362897873,-0.13820101
1562.866666665574,-0.39086077,-0.8740396,0.10243682,-2.5892467,-0.32817793,1.5461625,0.7248694,0.039998155,0.04,-8.8927965,-3.700059413909912,-1.8627956,0.0920872,0.11891178041696548,-0.1373848
1562.8833333322407,-0.39360157,-0.87466776,0.1031544,-2.59088,-0.33047915,1.5459888,0.72444093,0.03999814,0.04,-8.88014,-3.723745822906494,-1.8770348,0.09150457,0.11875554174184799,-0.1365531
1562.8999999989073,-0.39632973,-0.8752933,0.10386865,-2.5925052,-0.33276966,1.5458158,0.72401446,0.03999812,0.04,-8.867503,-3.747588872909546,-1.8913428,0.090915844,0.1185719445347786,-0.13570935
1562.916666665574,-0.39904466,-0.87591577,0.10457945,-2.5941226,-0.33504915,1.5456437,0.72358996,0.039998107,0.04,-8.854716,-3.7710583209991455,-1.9055074,0.09031718,0.11836906522512436,-0.13485023
1562.9333333322406,-0.40174612,-0.87653494,0.1052867,-2.5957322,-0.33731738,1.5454723,0.7231676,0.039998077,0.04,-8.841989,-3.7943167686462402,-1.9196151,0.08971061,0.11814501881599426,-0.13398062
1562.9499999989073,-0.40443382,-0.8771511,0.105990365,-2.597334,-0.339574,1.5453019,0.7227473,0.039998055,0.04,-8.829184,-3.8176333904266357,-1.9337318,0.0890971,0.117896668612957,-0.133096
1562.966666665574,-0.40710738,-0.8777641,0.10669033,-2.598926,-0.34181878,1.5451325,0.7223294,0.039998036,0.04,-8.816481,-3.840575933456421,-1.9477152,0.0884764,0.1176261454820633,-0.13220045
1562.9833333322406,-0.40976658,-0.8783737,0.10738652,-2.6005096,-0.3440515,1.5449638,0.72191364,0.039998014,0.04,-8.803422,-3.863517999649048,-1.961681,0.08784552,0.11734050512313843,-0.13129191
1562.9999999989072,-0.41241103,-0.8789799,0.10807887,-2.602085,-0.34627193,1.5447959,0.7215002,0.039997995,0.04,-8.79067,-3.8860883712768555,-1.9755414,0.087207735,0.11703216284513474,-0.13037018
1563.016666665574,-0.41504055,-0.87958276,0.108767286,-2.603652,-0.34847984,1.5446292,0.72108907,0.039997976,0.04,-8.777812,-3.908790349960327,-1.9893869,0.08656375,0.11669845134019852,-0.1294383
1563.0333333322405,-0.4176549,-0.88018215,0.10945172,-2.6052086,-0.3506748,1.5444635,0.72068036,0.039997946,0.04,-8.765077,-3.931049346923828,-2.0031135,0.08591325,0.11634386330842972,-0.12849532
1563.0499999989072,-0.4202537,-0.88077796,0.110132046,-2.6067564,-0.3528568,1.5442988,0.7202741,0.03999793,0.04,-8.752011,-3.9533140659332275,-2.0168192,0.08525387,0.11597103625535965,-0.12753959
1563.0666666655738,-0.4228364,-0.8813701,0.11080824,-2.6082954,-0.35502538,1.544135,0.7198703,0.03999792,0.04,-8.739279,-3.9752161502838135,-2.0303843,0.08458841,0.11557581275701523,-0.1265707
1563.0833333322405,-0.42540306,-0.88195854,0.11148018,-2.6098242,-0.3571804,1.5439721,0.7194691,0.03999789,0.04,-8.726384,-3.9972522258758545,-2.0439525,0.08391789,0.11515610665082932,-0.1255956
1563.0999999989072,-0.42795312,-0.88254315,0.1121478,-2.611343,-0.35932156,1.5438105,0.7190704,0.039997872,0.04,-8.713567,-4.01875114440918,-2.057378,0.08324044,0.1147172749042511,-0.12460781
1563.1166666655738,-0.43048653,-0.88312393,0.11281105,-2.6128523,-0.3614488,1.5436498,0.71867424,0.039997853,0.04,-8.70058,-4.040356636047363,-2.0708008,0.08255688,0.1142580434679985,-0.12360789
1563.1333333322405,-0.4330029,-0.8837009,0.11346985,-2.6143513,-0.36356163,1.5434903,0.7182808,0.039997835,0.04,-8.687938,-4.061575889587402,-2.084065,0.0818691,0.11377386003732681,-0.122598425
1563.149999998907,-0.43550208,-0.88427395,0.11412413,-2.6158397,-0.36566,1.543332,0.7178901,0.03999782,0.04,-8.674917,-4.082801342010498,-2.0973225,0.08117478,0.11327216029167175,-0.12158005
1563.1666666655738,-0.43798363,-0.884843,0.11477379,-2.6173184,-0.36774364,1.5431747,0.7175021,0.0399978,0.04,-8.66211,-4.103729724884033,-2.1104534,0.08047446,0.11274932324886322,-0.12055089
1563.1833333322404,-0.44044742,-0.8854079,0.11541878,-2.6187856,-0.36981228,1.5430185,0.7171169,0.03999778,0.04,-8.649461,-4.124363422393799,-2.123463,0.07976972,0.11220429837703705,-0.119510494
1563.199999998907,-0.44289306,-0.8859687,0.116059035,-2.6202424,-0.37186563,1.5428634,0.7167344,0.039997756,0.04,-8.636512,-4.145046710968018,-2.1364713,0.07905913,0.11163953691720963,-0.11846433
1563.2166666655737,-0.44532043,-0.8865251,0.11669449,-2.6216874,-0.37390366,1.5427094,0.71635497,0.039997738,0.04,-8.623892,-4.165287494659424,-2.1493053,0.078344986,0.111053466796875,-0.11740603
1563.2333333322404,-0.44772905,-0.8870773,0.11732504,-2.6231222,-0.3759261,1.5425565,0.7159784,0.03999771,0.04,-8.610978,-4.1855669021606445,-2.1621392,0.07762411,0.11044873297214508,-0.1163404
1563.249999998907,-0.45011884,-0.8876253,0.11795065,-2.6245456,-0.37793267,1.5424049,0.71560484,0.03999769,0.04,-8.598508,-4.205488204956055,-2.1747952,0.07690121,0.10981953144073486,-0.11526677
1563.2666666655737,-0.45248947,-0.8881689,0.11857126,-2.6259577,-0.37992316,1.5422546,0.71523416,0.039997675,0.04,-8.585663,-4.225372314453125,-2.187432,0.07617253,0.10917222499847412,-0.114182636
1563.2833333322403,-0.45484075,-0.888708,0.11918679,-2.627358,-0.38189742,1.5421054,0.7148664,0.03999766,0.04,-8.57318,-4.244869709014893,-2.1999073,0.07544102,0.1085047572851181,-0.113091126
1563.299999998907,-0.45717242,-0.8892427,0.11979719,-2.6287472,-0.38385516,1.5419575,0.7145018,0.039997637,0.04,-8.5604315,-4.264388084411621,-2.212365,0.07470594,0.10781767219305038,-0.11199328
1563.3166666655736,-0.45948422,-0.88977283,0.1204024,-2.6301239,-0.38579625,1.5418109,0.7141406,0.039997615,0.04,-8.548103,-4.283502101898193,-2.2246397,0.07396818,0.1071074977517128,-0.11088744
1563.3333333322403,-0.46177608,-0.8902984,0.121002354,-2.631489,-0.38772058,1.5416656,0.71378237,0.0399976,0.04,-8.535343,-4.3025898933410645,-2.236906,0.073223926,0.1063820943236351,-0.10977385
1563.349999998907,-0.46404746,-0.8908192,0.12159699,-2.6328425,-0.38962772,1.5415214,0.71342707,0.039997585,0.04,-8.523095,-4.321271896362305,-2.2489727,0.07247794,0.1056349128484726,-0.108650476
1563.3666666655736,-0.46629828,-0.8913351,0.12218622,-2.634183,-0.3915176,1.5413787,0.71307534,0.03999756,0.04,-8.510577,-4.340053558349609,-2.2610614,0.0717315,0.10486669838428497,-0.107523926
1563.3833333322402,-0.4685284,-0.89184654,0.12277006,-2.6355114,-0.39339012,1.5412372,0.71272665,0.039997544,0.04,-8.498283,-4.358299732208252,-2.272937,0.07097971,0.10408197343349457,-0.10639102
1563.3999999989069,-0.47073755,-0.8923531,0.12334838,-2.6368277,-0.39524502,1.5410972,0.71238136,0.03999753,0.04,-8.4858885,-4.3766255378723145,-2.2847836,0.0702265,0.10327669233083725,-0.10524878
1563.4166666655735,-0.47292545,-0.8928549,0.12392113,-2.638131,-0.39708212,1.5409584,0.71203923,0.039997514,0.04,-8.473658,-4.39462947845459,-2.2965045,0.06947093,0.10245292633771896,-0.104101375
1563.4333333322402,-0.47509202,-0.8933518,0.12448832,-2.6394215,-0.39890125,1.5408211,0.7117005,0.039997496,0.04,-8.461567,-4.4122700691223145,-2.3080409,0.0687126,0.1016126424074173,-0.10294717
1563.4499999989068,-0.47723702,-0.8938436,0.12504981,-2.6406996,-0.40070224,1.540685,0.71136516,0.03999748,0.04,-8.4493265,-4.429988861083984,-2.3195887,0.06795265,0.1007530614733696,-0.10178834
1563.4666666655735,-0.47936022,-0.89433056,0.1256056,-2.6419644,-0.40248492,1.5405504,0.71103317,0.039997455,0.04,-8.437473,-4.447278022766113,-2.3309336,0.06719192,0.09987351298332214,-0.1006259
1563.4833333322401,-0.48146144,-0.89481235,0.12615566,-2.6432161,-0.4042492,1.5404172,0.7107047,0.039997444,0.04,-8.425276,-4.464524745941162,-2.3422546,0.06642811,0.09897854179143906,-0.09945645
1563.4999999989068,-0.48354045,-0.89528906,0.12669988,-2.6444542,-0.40599486,1.5402852,0.71037966,0.03999742,0.04,-8.413521,-4.481371879577637,-2.3533697,0.06566331,0.09806600213050842,-0.09828213
1563.5166666655734,-0.48559713,-0.89576066,0.12723826,-2.6456795,-0.40772173,1.5401548,0.71005815,0.039997414,0.04,-8.401506,-4.498232841491699,-2.3644693,0.064896934,0.09713660925626755,-0.09710194
1563.53333333224,-0.4876313,-0.8962272,0.12777074,-2.646891,-0.40942964,1.540026,0.7097402,0.039997395,0.04,-8.389936,-4.514676570892334,-2.3753505,0.06412974,0.09618915617465973,-0.0959195
1563.5499999989067,-0.48964277,-0.8966884,0.1282973,-2.6480896,-0.4111186,1.5398983,0.70942575,0.03999738,0.04,-8.378048,-4.531108856201172,-2.3862226,0.06336061,0.09522750973701477,-0.09473186
1563.5666666655734,-0.4916313,-0.8971445,0.12881789,-2.649274,-0.41278827,1.5397724,0.7091149,0.039997365,0.04,-8.366691,-4.5471367835998535,-2.3968737,0.062592685,0.09424535930156708,-0.09353927
1563.58333333224,-0.49359688,-0.8975952,0.12933241,-2.650445,-0.41443872,1.5396477,0.70880765,0.03999734,0.04,-8.354934,-4.563159942626953,-2.407515,0.061822902,0.09325173497200012,-0.09234532
1563.5999999989067,-0.49553922,-0.89804053,0.12984085,-2.6516018,-0.4160696,1.5395246,0.70850414,0.039997328,0.04,-8.343681,-4.578718662261963,-2.4179335,0.061052524,0.09224076569080353,-0.09114586
1563.6166666655733,-0.49745825,-0.8984805,0.1303432,-2.6527443,-0.4176808,1.5394031,0.70820415,0.039997317,0.04,-8.332163,-4.59432315826416,-2.4283395,0.06028179,0.0912146046757698,-0.08994261
1563.63333333224,-0.49935386,-0.89891523,0.13083938,-2.653873,-0.4192724,1.5392828,0.7079079,0.039997302,0.04,-8.321024,-4.609466552734375,-2.4385068,0.05951085,0.0901760533452034,-0.08873803
1563.6499999989067,-0.50122565,-0.8993445,0.13132937,-2.6549878,-0.4208442,1.5391642,0.7076153,0.039997283,0.04,-8.309714,-4.624646186828613,-2.4486425,0.05873898,0.0891219824552536,-0.08753041
1563.6666666655733,-0.50307375,-0.8997684,0.13181315,-2.6560884,-0.42239588,1.539047,0.7073264,0.03999726,0.04,-8.298672,-4.6395263671875,-2.458638,0.057968974,0.08805301785469055,-0.08632132
1563.68333333224,-0.5048979,-0.9001869,0.13229063,-2.6571753,-0.42392763,1.5389311,0.7070412,0.039997257,0.04,-8.287871,-4.654028415679932,-2.468434,0.05719913,0.08697093278169632,-0.08510836
1563.6999999989066,-0.50669795,-0.90059984,0.13276188,-2.6582472,-0.4254392,1.5388172,0.70675975,0.03999725,0.04,-8.276896,-4.668591499328613,-2.4782186,0.056430887,0.085872121155262,-0.08389335
1563.7166666655733,-0.508474,-0.9010072,0.13322681,-2.6593058,-0.42693052,1.5387045,0.70648205,0.03999723,0.04,-8.266226,-4.682666778564453,-2.487785,0.05566256,0.0847644954919815,-0.082676955
1563.73333333224,-0.5102256,-0.9014092,0.1336854,-2.6603498,-0.42840135,1.5385934,0.70620817,0.03999722,0.04,-8.255532,-4.696827411651611,-2.49733,0.054896932,0.08363763242959976,-0.0814587
1563.7499999989066,-0.511953,-0.9018056,0.1341376,-2.661379,-0.42985186,1.538484,0.7059381,0.03999721,0.04,-8.245127,-4.710510730743408,-2.5066323,0.05413257,0.08250066637992859,-0.08024007
1563.7666666655732,-0.51365596,-0.90219617,0.13458338,-2.6623938,-0.43128172,1.5383757,0.7056718,0.039997187,0.04,-8.234478,-4.724182605743408,-2.5159285,0.053368326,0.08135297894477844,-0.07902107
1563.7833333322399,-0.5153345,-0.9025811,0.13502274,-2.663394,-0.432691,1.5382694,0.70540935,0.03999717,0.04,-8.224353,-4.737432479858398,-2.5249841,0.052606262,0.08019041270017624,-0.07780157
1563.7999999989065,-0.5169883,-0.9029605,0.13545567,-2.6643794,-0.43407953,1.5381644,0.7051507,0.03999716,0.04,-8.213954,-4.750678539276123,-2.5340352,0.05184539,0.07901830226182938,-0.07657954
1563.8166666655732,-0.51861745,-0.90333414,0.13588211,-2.66535,-0.43544742,1.5380613,0.70489603,0.039997146,0.04,-8.204018,-4.76350736618042,-2.5428147,0.051086023,0.0778348296880722,-0.07535968
1563.8333333322398,-0.5202217,-0.90370214,0.13630205,-2.6663058,-0.4367945,1.5379597,0.70464534,0.03999713,0.04,-8.193823,-4.776334285736084,-2.5516095,0.05032794,0.07664299011230469,-0.07413875
1563.8499999989065,-0.5218011,-0.90406436,0.1367155,-2.6672463,-0.43812063,1.5378593,0.70439845,0.039997127,0.04,-8.18414,-4.788729190826416,-2.560141,0.04957138,0.07544080913066864,-0.07291679
1563.8666666655731,-0.5233555,-0.9044208,0.13712244,-2.6681721,-0.43942586,1.537761,0.70415556,0.03999712,0.04,-8.174183,-4.801146030426025,-2.5686514,0.04881724,0.07422810047864914,-0.071696535
1563.8833333322398,-0.52488524,-0.9047715,0.1375228,-2.669083,-0.44071007,1.5376639,0.7039165,0.039997105,0.04,-8.164712,-4.81312370300293,-2.5769455,0.048064962,0.07300915569067001,-0.07047768
1563.8999999989064,-0.5263896,-0.9051165,0.13791661,-2.669979,-0.44197333,1.5375686,0.7036814,0.03999709,0.04,-8.155074,-4.825113773345947,-2.5851877,0.047315277,0.07177828252315521,-0.06925974
1563.916666665573,-0.52786887,-0.9054558,0.13830401,-2.67086,-0.44321564,1.5374748,0.7034501,0.039997075,0.04,-8.145644,-4.83677864074707,-2.5932627,0.046568073,0.07054165750741959,-0.068042584
1563.9333333322397,-0.52932304,-0.9057895,0.1386847,-2.6717265,-0.44443667,1.5373825,0.70322263,0.039997064,0.04,-8.136585,-4.848148822784424,-2.6011333,0.045824923,0.06929655373096466,-0.06682534
1563.9499999989064,-0.5307521,-0.90611744,0.13905883,-2.6725776,-0.44563678,1.537292,0.7029991,0.03999704,0.04,-8.127303,-4.859543323516846,-2.608988,0.04508485,0.0680430680513382,-0.06561522
1563.966666665573,-0.53215617,-0.9064396,0.13942637,-2.6734138,-0.44681567,1.537203,0.70277953,0.03999703,0.04,-8.11844,-4.870424747467041,-2.6166105,0.044346843,0.06678548455238342,-0.064403035
1563.9833333322397,-0.5335349,-0.906756,0.1397873,-2.674235,-0.4479733,1.5371155,0.70256394,0.039997023,0.04,-8.109395,-4.881372451782227,-2.6241999,0.043611407,0.06552034616470337,-0.063193314
1563.9999999989063,-0.5348885,-0.9070665,0.14014164,-2.6750414,-0.44910994,1.5370296,0.7023523,0.03999701,0.04,-8.10087,-4.89191198348999,-2.6315572,0.042880155,0.06424815952777863,-0.061986726
1564.016666665573,-0.536217,-0.90737116,0.14048938,-2.6758327,-0.4502254,1.5369453,0.70214456,0.039997015,0.04,-8.092069,-4.902430534362793,-2.638891,0.042152166,0.062970370054245,-0.060781647
1564.0333333322396,-0.5375204,-0.9076701,0.14083052,-2.676609,-0.45131972,1.5368626,0.7019408,0.039997,0.04,-8.083797,-4.912562847137451,-2.6459825,0.041427523,0.06168704852461815,-0.05958242
1564.0499999989063,-0.53879845,-0.9079633,0.14116508,-2.6773703,-0.45239288,1.5367817,0.701741,0.03999698,0.04,-8.0752535,-4.922672748565674,-2.653053,0.04070609,0.06039952486753464,-0.058387946
1564.066666665573,-0.54005146,-0.9082508,0.14149305,-2.6781166,-0.45344484,1.5367023,0.701545,0.03999697,0.04,-8.0672455,-4.932387828826904,-2.659875,0.039988622,0.05910920351743698,-0.057196334
1564.0833333322396,-0.5412793,-0.9085326,0.14181446,-2.678848,-0.45447573,1.5366244,0.7013531,0.039996963,0.04,-8.0589485,-4.942070960998535,-2.6666632,0.039274726,0.057816196233034134,-0.05600809
1564.0999999989062,-0.542482,-0.90880877,0.14212929,-2.6795645,-0.4554856,1.536548,0.701165,0.03999695,0.04,-8.051262,-4.951397895812988,-2.6732304,0.038565505,0.056518737226724625,-0.05482341
1564.116666665573,-0.5436597,-0.90907913,0.14243755,-2.6802661,-0.45647445,1.5364733,0.70098084,0.03999694,0.04,-8.043252,-4.960704803466797,-2.679745,0.037860293,0.05521893873810768,-0.053643793
1564.1333333322395,-0.54481244,-0.9093438,0.14273931,-2.6809525,-0.45744228,1.5364004,0.70080066,0.03999693,0.04,-8.0358,-4.969611644744873,-2.686052,0.037159916,0.05391699820756912,-0.05246847
1564.1499999989062,-0.5459401,-0.9096026,0.1430345,-2.6816242,-0.45838928,1.5363287,0.7006244,0.03999692,0.04,-8.028019,-4.97848653793335,-2.6923232,0.036462087,0.05261727422475815,-0.051298954
1564.1666666655728,-0.5470431,-0.90985566,0.14332324,-2.682281,-0.4593154,1.5362589,0.70045197,0.039996915,0.04,-8.02068,-4.987117290496826,-2.6984043,0.035769965,0.05131356045603752,-0.05013389
1564.1833333322395,-0.54812115,-0.910103,0.14360544,-2.682923,-0.46022072,1.5361905,0.70028335,0.039996915,0.04,-8.013636,-4.995418548583984,-2.7043166,0.0350825,0.05001028999686241,-0.048973527
1564.1999999989062,-0.54917455,-0.9103447,0.14388117,-2.6835504,-0.46110526,1.5361238,0.7001188,0.03999691,0.04,-8.006336,-5.003738880157471,-2.710189,0.034400247,0.04870693013072014,-0.04782022
1564.2166666655728,-0.5502033,-0.91058075,0.14415047,-2.6841636,-0.46196908,1.5360588,0.699958,0.039996896,0.04,-7.9995513,-5.011669635772705,-2.7158318,0.033721965,0.04740576446056366,-0.046673913
1564.2333333322395,-0.5512074,-0.9108111,0.1444133,-2.6847622,-0.4628123,1.5359949,0.6998011,0.03999689,0.04,-7.992621,-5.01962947845459,-2.7214644,0.033050373,0.046103160828351974,-0.045533873
1564.249999998906,-0.5521871,-0.91103595,0.14466979,-2.6853456,-0.46363485,1.535933,0.6996479,0.039996874,0.04,-7.9861465,-5.027189254760742,-2.7268376,0.032385,0.044800400733947754,-0.04440085
1564.2666666655728,-0.5531424,-0.9112552,0.14491989,-2.6859145,-0.46443707,1.5358722,0.69949853,0.039996862,0.04,-7.9793344,-5.034703254699707,-2.7321992,0.031723756,0.043505024164915085,-0.043276194
1564.2833333322394,-0.55407363,-0.9114688,0.14516369,-2.686469,-0.46521887,1.5358132,0.6993529,0.03999685,0.04,-7.9730945,-5.041857719421387,-2.7373164,0.031067748,0.04221228137612343,-0.04215754
1564.299999998906,-0.55498075,-0.91167706,0.14540116,-2.687009,-0.46598053,1.5357561,0.69921094,0.039996848,0.04,-7.9666758,-5.049037933349609,-2.7424297,0.030417707,0.0409226156771183,-0.041048184
1564.3166666655727,-0.55586386,-0.9118798,0.14563239,-2.6875346,-0.4667221,1.5356996,0.6990728,0.03999684,0.04,-7.9607105,-5.055814743041992,-2.747294,0.029773124,0.03964003548026085,-0.039945602
1564.3333333322394,-0.5567232,-0.9120771,0.14585735,-2.6880467,-0.46744367,1.5356455,0.69893837,0.039996833,0.04,-7.954557,-5.062621116638184,-2.752112,0.029134654,0.0383581779897213,-0.0388519
1564.349999998906,-0.55755895,-0.912269,0.14607616,-2.6885445,-0.46814546,1.5355923,0.6988077,0.039996825,0.04,-7.9489164,-5.069077014923096,-2.7567546,0.02850284,0.03708518669009209,-0.037766725
1564.3666666655727,-0.55837107,-0.91245544,0.14628877,-2.689028,-0.46882746,1.5355407,0.6986807,0.039996818,0.04,-7.9430532,-5.075510501861572,-2.7613447,0.02787658,0.03581484034657478,-0.036690537
1564.3833333322393,-0.55916023,-0.9126366,0.14649527,-2.689498,-0.46949,1.5354912,0.6985573,0.03999681,0.04,-7.9376574,-5.081585884094238,-2.765714,0.027257163,0.0345517173409462,-0.035624016
1564.399999998906,-0.55992585,-0.9128123,0.14669588,-2.689954,-0.47013304,1.5354421,0.6984375,0.039996807,0.04,-7.9320526,-5.087646007537842,-2.7700777,0.026643218,0.03329800069332123,-0.034566235
1564.4166666655726,-0.56066847,-0.9129827,0.14689037,-2.6903968,-0.47075674,1.5353953,0.6983213,0.0399968,0.04,-7.9267707,-5.093496322631836,-2.7742364,0.02603821,0.03204783797264099,-0.03351787
1564.4333333322393,-0.56138897,-0.913148,0.1470789,-2.6908255,-0.47136143,1.5353497,0.6982087,0.03999679,0.04,-7.9218216,-5.099081516265869,-2.7782729,0.025440807,0.030808517709374428,-0.032482248
1564.449999998906,-0.5620864,-0.9133083,0.14726156,-2.691241,-0.47194722,1.5353049,0.6980997,0.039996788,0.04,-7.9165835,-5.10453987121582,-2.7822387,0.02484589,0.02957839146256447,-0.03145519
1564.4666666655726,-0.5627614,-0.91346335,0.14743833,-2.6916432,-0.47251418,1.535263,0.6979942,0.03999678,0.04,-7.911935,-5.109835624694824,-2.785984,0.024260813,0.028354087844491005,-0.03044018
1564.4833333322392,-0.56341434,-0.9136132,0.14760932,-2.6920319,-0.4730626,1.5352215,0.69789207,0.039996773,0.04,-7.9069595,-5.115046501159668,-2.7897806,0.023683246,0.02714714966714382,-0.029436471
1564.4999999989059,-0.5640456,-0.9137582,0.14777464,-2.6924083,-0.4735927,1.5351808,0.69779336,0.039996766,0.04,-7.9024973,-5.119914531707764,-2.7932901,0.02311262,0.025948278605937958,-0.028444517
1564.5166666655725,-0.5646552,-0.91389817,0.14793424,-2.692771,-0.47410464,1.5351429,0.6976981,0.039996758,0.04,-7.897948,-5.124834060668945,-2.7967896,0.02254974,0.024754883721470833,-0.027465176
1564.5333333322392,-0.56524336,-0.91403306,0.14808828,-2.6931217,-0.47459853,1.5351053,0.6976062,0.039996758,0.04,-7.893626,-5.129345417022705,-2.8001313,0.02199343,0.023583367466926575,-0.026495783
1564.5499999989058,-0.5658104,-0.9141634,0.14823678,-2.6934588,-0.4750747,1.5350689,0.6975175,0.039996754,0.04,-7.88938,-5.133971691131592,-2.8034067,0.021446783,0.022415127605199814,-0.025541153
1564.5666666655725,-0.56635666,-0.9142888,0.1483798,-2.6937842,-0.4755335,1.5350348,0.6974322,0.039996754,0.04,-7.8853073,-5.138169765472412,-2.80646,0.020906227,0.02126505970954895,-0.024599038
1564.5833333322391,-0.5668824,-0.9144097,0.14851743,-2.6940978,-0.4759749,1.535001,0.69734997,0.03999675,0.04,-7.8812394,-5.142454147338867,-2.8095682,0.02037439,0.020130008459091187,-0.023669915
1564.5999999989058,-0.5673877,-0.9145258,0.14864977,-2.6943982,-0.47639933,1.5349685,0.697271,0.039996743,0.04,-7.877625,-5.1464409828186035,-2.8124008,0.019852249,0.019003622233867645,-0.022757407
1564.6166666655724,-0.5678732,-0.9146373,0.14877689,-2.6946874,-0.47680694,1.5349382,0.6971951,0.03999674,0.04,-7.8736405,-5.15034294128418,-2.8152535,0.019337159,0.017895614728331566,-0.021856593
1564.633333332239,-0.5683388,-0.9147442,0.14889884,-2.6949644,-0.47719797,1.5349084,0.6971223,0.039996736,0.04,-7.870226,-5.154016017913818,-2.8179362,0.018830972,0.016805648803710938,-0.020970682
1564.6499999989057,-0.5687852,-0.91484666,0.14901572,-2.6952305,-0.47757286,1.5348793,0.6970525,0.039996736,0.04,-7.8666067,-5.157680988311768,-2.8205678,0.018334728,0.01572854444384575,-0.020099102
1564.6666666655724,-0.56921244,-0.91494495,0.1491276,-2.6954849,-0.47793168,1.5348529,0.6969857,0.039996732,0.04,-7.863286,-5.161145210266113,-2.8230531,0.01784793,0.014665043912827969,-0.019243771
1564.683333332239,-0.569621,-0.91503876,0.14923461,-2.6957283,-0.4782748,1.5348268,0.6969218,0.03999673,0.04,-7.8600974,-5.164370059967041,-2.8254397,0.017369026,0.013627853244543076,-0.018403545
1564.6999999989057,-0.5700112,-0.9151284,0.1493368,-2.695961,-0.4786025,1.5348009,0.69686097,0.03999672,0.04,-7.856863,-5.1676249504089355,-2.827759,0.016901016,0.012603500857949257,-0.017579881
1564.7166666655723,-0.5703834,-0.915214,0.14943428,-2.6961825,-0.478915,1.5347782,0.6968027,0.039996717,0.04,-7.8540382,-5.170627593994141,-2.8299088,0.016442126,0.011592398397624493,-0.016774157
1564.733333332239,-0.5707381,-0.91529554,0.14952718,-2.696393,-0.47921276,1.534756,0.69674736,0.03999671,0.04,-7.850886,-5.173565864562988,-2.8320956,0.015992958,0.010612891986966133,-0.0159847
1564.7499999989057,-0.5710754,-0.91537315,0.14961553,-2.696595,-0.47949606,1.5347339,0.69669455,0.039996706,0.04,-7.8481703,-5.17625617980957,-2.8340485,0.015551957,0.009651986882090569,-0.015211502
1564.7666666655723,-0.57139575,-0.9154469,0.14969945,-2.6967857,-0.47976518,1.5347149,0.6966445,0.039996702,0.04,-7.8455386,-5.179076194763184,-2.836005,0.015125654,0.008701043203473091,-0.014456501
1564.783333332239,-0.5716996,-0.91551685,0.1497791,-2.696966,-0.48002052,1.5346963,0.6965969,0.039996695,0.04,-7.842897,-5.1814961433410645,-2.8378463,0.014707073,0.007785135414451361,-0.01371979
1564.7999999989056,-0.5719874,-0.91558313,0.14985451,-2.6971376,-0.48026237,1.5346781,0.6965518,0.039996695,0.04,-7.8401833,-5.183927536010742,-2.8396034,0.014298481,0.00689208647236228,-0.012999326
1564.8166666655723,-0.57225955,-0.9156458,0.14992581,-2.6973002,-0.48049098,1.5346599,0.6965093,0.03999669,0.04,-7.8380537,-5.186254978179932,-2.8412266,0.013903315,0.006013690494000912,-0.01229919
1564.833333332239,-0.5725165,-0.91570485,0.14999315,-2.6974545,-0.4807069,1.5346448,0.696469,0.039996687,0.04,-7.8356533,-5.188505172729492,-2.842823,0.013518572,0.00515337847173214,-0.011618755
1564.8499999989056,-0.57275856,-0.9157606,0.15005662,-2.6975987,-0.48091036,1.5346301,0.69643104,0.039996684,0.04,-7.8335977,-5.1905951499938965,-2.844388,0.013148113,0.004323986824601889,-0.010957893
1564.8666666655722,-0.57298625,-0.9158131,0.15011632,-2.6977336,-0.48110175,1.5346156,0.69639546,0.039996684,0.04,-7.8311934,-5.19254732131958,-2.8458097,0.012786422,0.003521774895489216,-0.010316956
1564.8833333322389,-0.5732001,-0.91586244,0.1501724,-2.69786,-0.4812815,1.5346012,0.69636226,0.039996684,0.04,-7.8291903,-5.19434118270874,-2.847109,0.012434159,0.002745336852967739,-0.009696289
1564.8999999989055,-0.5734007,-0.91590863,0.15022495,-2.6979783,-0.48145,1.534588,0.696331,0.03999668,0.04,-7.827128,-5.196178913116455,-2.8483856,0.012092834,0.0019910677801817656,-0.0090984795
1564.9166666655722,-0.5735883,-0.91595185,0.15027413,-2.6980886,-0.48160753,1.534577,0.69630176,0.039996676,0.04,-7.8251915,-5.197832107543945,-2.8496032,0.011763015,0.001266010571271181,-0.008521403
1564.9333333322388,-0.57376343,-0.9159921,0.15032002,-2.6981916,-0.48175463,1.5345662,0.6962744,0.039996676,0.04,-7.8234468,-5.199390411376953,-2.8507502,0.011446238,0.0005753510631620884,-0.007965333
1564.9499999989055,-0.5739265,-0.91602963,0.15036282,-2.698292,-0.48189178,1.5345556,0.6962489,0.039996676,0.04,-7.8216286,-5.20095157623291,-2.851839,0.011142573,-9.079417213797569e-05,-0.0074321646
1564.9666666655721,-0.5740782,-0.9160647,0.15040259,-2.6983848,-0.48201942,1.5345451,0.6962252,0.039996672,0.04,-7.820564,-5.2026166915893555,-2.8528743,0.010862053,-0.0007486750255338848,-0.0069234036
1564.9833333322388,-0.5742189,-0.9160971,0.1504395,-2.6984699,-0.48213774,1.5345358,0.6962033,0.039996672,0.04,-7.8187666,-5.203938007354736,-2.853864,0.010592388,-0.0013764813775196671,-0.0064371643
1564.9999999989054,-0.57434934,-0.91612715,0.15047371,-2.6985474,-0.48224735,1.5345286,0.69618297,0.03999667,0.04,-7.8171806,-5.205121040344238,-2.854776,0.010333918,-0.001968667609617114,-0.0059758313
1565.016666665572,-0.5744698,-0.916155,0.15050536,-2.6986177,-0.4823487,1.5345216,0.696164,0.03999667,0.04,-7.8154125,-5.206270694732666,-2.8556862,0.010086553,-0.002516959561035037,-0.0055369353
1565.0333333322387,-0.5745809,-0.9161808,0.15053459,-2.6986837,-0.4824421,1.5345148,0.6961465,0.03999667,0.04,-7.813905,-5.207303047180176,-2.8564324,0.009851187,-0.0030303779058158398,-0.005122563
1565.0499999989054,-0.5746835,-0.91620445,0.15056151,-2.698746,-0.48252833,1.534508,0.69613034,0.03999667,0.04,-7.8125896,-5.208486557006836,-2.8571937,0.009632944,-0.003517945995554328,-0.0047345636
1565.066666665572,-0.57477784,-0.9162263,0.15058629,-2.6988008,-0.48260778,1.5345013,0.6961156,0.03999667,0.04,-7.8115125,-5.209545612335205,-2.8579025,0.009431912,-0.003982512280344963,-0.0043727634
1565.0833333322387,-0.5748646,-0.9162465,0.15060909,-2.698855,-0.48268083,1.5344946,0.69610196,0.039996665,0.04,-7.809835,-5.2103800773620605,-2.8585615,0.0092390645,-0.0044036246836185455,-0.00403708
1565.0999999989053,-0.57494473,-0.916265,0.15063006,-2.698902,-0.48274806,1.5344894,0.69608927,0.03999666,0.04,-7.8091083,-5.2114973068237305,-2.8592188,0.009070415,-0.004809665028005838,-0.0037288505
1565.116666665572,-0.57501817,-0.916282,0.15064944,-2.698946,-0.4828099,1.5344857,0.6960779,0.03999666,0.04,-7.8075347,-5.212153911590576,-2.85983,0.008908769,-0.005168084986507893,-0.0034442213
1565.1333333322386,-0.5750859,-0.9162976,0.15066732,-2.6989853,-0.4828668,1.5344824,0.696067,0.03999666,0.04,-7.8065925,-5.21298360824585,-2.8603957,0.008762004,-0.005496086087077856,-0.0031815781
1565.1499999989053,-0.57514805,-0.91631216,0.15068378,-2.6990242,-0.48291913,1.5344791,0.69605726,0.03999666,0.04,-7.8054314,-5.2136335372924805,-2.8608863,0.00862593,-0.005792686715722084,-0.002939566
1565.166666665572,-0.5752052,-0.91632545,0.15069881,-2.6990564,-0.48296726,1.5344759,0.69604826,0.03999666,0.04,-7.804832,-5.214450836181641,-2.8613524,0.008504958,-0.006076394114643335,-0.002717563
1565.1833333322386,-0.57525796,-0.9163377,0.1507127,-2.699088,-0.48301154,1.534473,0.69603986,0.03999666,0.04,-7.8036404,-5.214814186096191,-2.8617225,0.008386563,-0.006324320565909147,-0.0025129647
1565.1999999989052,-0.57530665,-0.916349,0.15072536,-2.6991177,-0.48305228,1.53447,0.69603246,0.039996658,0.04,-7.8031,-5.215517520904541,-2.8621264,0.00828207,-0.006561099551618099,-0.0023260408
1565.216666665572,-0.5753514,-0.9163594,0.15073705,-2.699143,-0.48308977,1.534467,0.6960254,0.039996658,0.04,-7.802498,-5.216012001037598,-2.8624697,0.008184527,-0.006782370153814554,-0.0021542353
1565.2333333322385,-0.57539254,-0.91636896,0.1507478,-2.699167,-0.48312432,1.534464,0.6960187,0.039996658,0.04,-7.801593,-5.216379165649414,-2.8627717,0.008092035,-0.006978833582252264,-0.0019954904
1565.2499999989052,-0.57543033,-0.91637784,0.15075774,-2.6991906,-0.48315609,1.534461,0.696013,0.039996658,0.04,-7.801138,-5.216860771179199,-2.863071,0.008009751,-0.007164110895246267,-0.0018494661
1565.2666666655718,-0.57546496,-0.9163859,0.15076694,-2.6992111,-0.4831854,1.5344582,0.6960078,0.039996658,0.04,-7.800728,-5.2173542976379395,-2.863367,0.007935188,-0.007341072428971529,-0.0017153921
1565.2833333322385,-0.575497,-0.91639334,0.15077534,-2.6992292,-0.48321223,1.5344553,0.6960026,0.039996658,0.04,-7.800095,-5.217648506164551,-2.863618,0.007864539,-0.00749952532351017,-0.0015909718
1565.2999999989052,-0.57552636,-0.9164003,0.1507831,-2.6992457,-0.483237,1.5344524,0.6959976,0.039996658,0.04,-7.7995415,-5.21793794631958,-2.863845,0.0077991975,-0.0076436386443674564,-0.0014774814
1565.3166666655718,-0.57555336,-0.91640645,0.15079024,-2.6992621,-0.48325977,1.53445,0.6959935,0.039996658,0.04,-7.799111,-5.218227386474609,-2.8640442,0.007739539,-0.0077758063562214375,-0.0013724935
1565.3333333322385,-0.57557833,-0.9164121,0.1507968,-2.699278,-0.48328072,1.5344481,0.69598985,0.039996658,0.04,-7.7988653,-5.218609809875488,-2.8642914,0.0076861465,-0.007902496494352818,-0.0012763266
1565.349999998905,-0.5756013,-0.9164176,0.15080284,-2.6992924,-0.4833,1.5344465,0.69598657,0.039996658,0.04,-7.7986073,-5.218905925750732,-2.8644912,0.0076375725,-0.008021464571356773,-0.0011881306
1565.3666666655718,-0.5756224,-0.91642255,0.15080841,-2.6993046,-0.48331773,1.534445,0.6959833,0.039996658,0.04,-7.798185,-5.219113826751709,-2.8646505,0.0075910995,-0.008127886801958084,-0.0011066784
1565.3833333322384,-0.57564175,-0.91642696,0.15081352,-2.6993153,-0.48333406,1.534444,0.69598,0.039996658,0.04,-7.797774,-5.219273567199707,-2.864808,0.0075478125,-0.008221437223255634,-0.001031396
1565.399999998905,-0.57565945,-0.91643107,0.15081821,-2.699325,-0.48334908,1.5344433,0.6959768,0.039996658,0.04,-7.7974324,-5.219461917877197,-2.8649607,0.00750864,-0.008305075578391552,-0.00096192205
1565.4166666655717,-0.5756759,-0.9164348,0.15082254,-2.699334,-0.48336297,1.5344427,0.695974,0.039996658,0.04,-7.7971554,-5.21965217590332,-2.8650906,0.0074736723,-0.008379820734262466,-0.0008977051
1565.4333333322384,-0.575691,-0.91643846,0.15082654,-2.6993427,-0.48337576,1.5344422,0.6959717,0.039996658,0.04,-7.796933,-5.219803810119629,-2.8651934,0.007439779,-0.00844817515462637,-0.00083847594
1565.449999998905,-0.5757048,-0.91644186,0.15083022,-2.6993513,-0.48338753,1.5344418,0.69596976,0.039996658,0.04,-7.796782,-5.22001314163208,-2.8652966,0.0074085346,-0.008512933738529682,-0.00078386924
1565.4666666655717,-0.5757176,-0.9164449,0.15083358,-2.6993597,-0.48339835,1.5344415,0.6959681,0.039996658,0.04,-7.7966385,-5.220186233520508,-2.8653986,0.007380211,-0.008573603816330433,-0.0007336173
1565.4833333322383,-0.57572937,-0.91644764,0.15083672,-2.6993675,-0.4834083,1.5344412,0.6959667,0.039996658,0.04,-7.7965016,-5.220348358154297,-2.8654997,0.0073543633,-0.00863193441182375,-0.00068780064
1565.499999998905,-0.5757403,-0.91645,0.15083955,-2.6993752,-0.48341742,1.534441,0.69596535,0.039996658,0.04,-7.6191807,-5.07840633392334,-2.7777636,0.0,-0.0,0.0
1565.5166666655716,-0.5757403,-0.91645,0.15083955,-2.6993752,-0.48341742,1.534441,0.69596535,0.039996658,0.04,-7.7952337,-5.220861911773682,-2.8658397,0.0,-0.0,0.0
1565.5333333322383,-0.5757403,-0.91645,0.15083955,-2.6993752,-0.48341742,1.534441,0.69596535,0.039996658,0.04,-7.7952337,-5.220861911773682,-2.8658397,0.0,-0.0,0.0
1565.549999998905,-0.5757403,-0.91645,0.15083955,-2.6993752,-0.48341742,1.534441,0.69596535,0.039996658,0.04,-7.7952337,-5.220861911773682,-2.8658397,0.0,-0.0,0.0
1565.5666666655716,-0.5757403,-0.91645,0.15083955,-2.6993752,-0.48341742,1.534441,0.69596535,0.039996658,0.04,-7.7952337,-5.220861911773682,-2.8658397,0.0,-0.0,0.0
1565.5833333322382,-0.5757403,-0.91645,0.15083955,-2.6993752,-0.48341742,1.534441,0.69596535,0.039996658,0.04,-7.7952337,-5.220861911773682,-2.8658397,0.0,-0.0,0.0
1565.5999999989049,-0.5757403,-0.91645,0.15083955,-2.6993752,-0.48341742,1.534441,0.69596535,0.039996658,0.04,-7.7952337,-5.220861911773682,-2.8658397,0.0,-0.0,0.0
1565.6166666655715,-0.5757403,-0.91645,0.15083955,-2.6993752,-0.48341742,1.534441,0.69596535,0.039996658,0.04,-7.7952337,-5.220861911773682,-2.8658397,0.0,-0.0,0.0
1565.6333333322382,-0.5757403,-0.91645,0.15083955,-2.6993752,-0.48341742,1.534441,0.69596535,0.039996658,0.04,-7.7952337,-5.220861911773682,-2.8658397,0.0,-0.0,0.0
1565.6499999989048,-0.5757403,-0.91645,0.15083955,-2.6993752,-0.48341742,1.534441,0.69596535,0.039996658,0.04,-7.7952337,-5.220861911773682,-2.8658397,0.0,-0.0,0.0
1565.6666666655715,-0.5757403,-0.91645,0.15083955,-2.6993752,-0.48341742,1.534441,0.69596535,0.039996658,0.04,-7.7952337,-5.220861911773682,-2.8658397,0.0,-0.0,0.0
1565.6833333322381,-0.5757403,-0.91645,0.15083955,-2.6993752,-0.48341742,1.534441,0.69596535,0.039996658,0.04,-7.7952337,-5.220861911773682,-2.8658397,0.0,-0.0,0.0
1565.6999999989048,-0.5757403,-0.91645,0.15083955,-2.6993752,-0.48341742,1.534441,0.69596535,0.039996658,0.04,-7.7952337,-5.220861911773682,-2.8658397,0.0,-0.0,0.0
1565.7166666655714,-0.5757403,-0.91645,0.15083955,-2.6993752,-0.48341742,1.534441,0.69596535,0.039996658,0.04,-7.7952337,-5.220861911773682,-2.8658397,0.0,-0.0,0.0
1565.733333332238,-0.5757403,-0.91645,0.15083955,-2.6993752,-0.48341742,1.534441,0.69596535,0.039996658,0.04,-7.7952337,-5.220861911773682,-2.8658397,0.0,-0.0,0.0
1565.7499999989047,-0.5757403,-0.91645,0.15083955,-2.6993752,-0.48341742,1.534441,0.69596535,0.039996658,0.04,-7.7952337,-5.220861911773682,-2.8658397,0.0,-0.0,0.0
1565.7666666655714,-0.5757403,-0.91645,0.15083955,-2.6993752,-0.48341742,1.534441,0.69596535,0.039996658,0.04,-7.7952337,-5.220861911773682,-2.8658397,0.0,-0.0,0.0
1565.783333332238,-0.5757403,-0.91645,0.15083955,-2.6993752,-0.48341742,1.534441,0.69596535,0.039996658,0.04,-7.7952337,-5.220861911773682,-2.8658397,0.0,-0.0,0.0
1565.7999999989047,-0.5757403,-0.91645,0.15083955,-2.6993752,-0.48341742,1.534441,0.69596535,0.039996658,0.04,-7.7952337,-5.220861911773682,-2.8658397,0.0,-0.0,0.0
1565.8166666655713,-0.5757403,-0.91645,0.15083955,-2.6993752,-0.48341742,1.534441,0.69596535,0.039996658,0.04,-7.7952337,-5.220861911773682,-2.8658397,0.0,-0.0,0.0
1565.833333332238,-0.5757403,-0.91645,0.15083955,-2.6993752,-0.48341742,1.534441,0.69596535,0.039996658,0.04,-7.7952337,-5.220861911773682,-2.8658397,0.0,-0.0,0.0
1565.8499999989047,-0.5757403,-0.91645,0.15083955,-2.6993752,-0.48341742,1.534441,0.69596535,0.039996658,0.04,-7.7952337,-5.220861911773682,-2.8658397,0.0,-0.0,0.0
1565.8666666655713,-0.5757403,-0.91645,0.15083955,-2.6993752,-0.48341742,1.534441,0.69596535,0.039996658,0.04,-7.7952337,-5.220861911773682,-2.8658397,0.0,-0.0,0.0
1565.883333332238,-0.5757403,-0.91645,0.15083955,-2.6993752,-0.48341742,1.534441,0.69596535,0.039996658,0.04,-7.7952337,-5.220861911773682,-2.8658397,0.0,-0.0,0.0
1565.8999999989046,-0.5757403,-0.91645,0.15083955,-2.6993752,-0.48341742,1.534441,0.69596535,0.039996658,0.04,-7.7952337,-5.220861911773682,-2.8658397,0.0,-0.0,0.0
1565.9166666655713,-0.5757403,-0.91645,0.15083955,-2.6993752,-0.48341742,1.534441,0.69596535,0.039996658,0.04,-7.7952337,-5.220861911773682,-2.8658397,0.0,-0.0,0.0
1565.933333332238,-0.5757403,-0.91645,0.15083955,-2.6993752,-0.48341742,1.534441,0.69596535,0.039996658,0.04,-7.7952337,-5.220861911773682,-2.8658397,0.0,-0.0,0.0
1565.9499999989046,-0.5757403,-0.91645,0.15083955,-2.6993752,-0.48341742,1.534441,0.69596535,0.039996658,0.04,-7.7952337,-5.220861911773682,-2.8658397,0.0,-0.0,0.0
1565.9666666655712,-0.5757403,-0.91645,0.15083955,-2.6993752,-0.48341742,1.534441,0.69596535,0.039996658,0.04,-7.7952337,-5.220861911773682,-2.8658397,0.0,-0.0,0.0
1565.9833333322379,-0.5757403,-0.91645,0.15083955,-2.6993752,-0.48341742,1.534441,0.69596535,0.039996658,0.04,-7.7952337,-5.220861911773682,-2.8658397,0.0,-0.0,0.0
1565.9999999989045,-0.5757403,-0.91645,0.15083955,-2.6993752,-0.48341742,1.534441,0.69596535,0.039996658,0.04,-7.7952337,-5.220861911773682,-2.8658397,0.0,-0.0,0.0
1566.0166666655712,-0.5757403,-0.91645,0.15083955,-2.6993752,-0.48341742,1.534441,0.69596535,0.039996658,0.04,-7.7952337,-5.220861911773682,-2.8658397,0.0,-0.0,0.0
1566.0333333322378,-0.5757403,-0.91645,0.15083955,-2.6993752,-0.48341742,1.534441,0.69596535,0.039996658,0.04,-7.7952337,-5.220861911773682,-2.8658397,0.0,-0.0,0.0
1566.0499999989045,-0.5757403,-0.91645,0.15083955,-2.6993752,-0.48341742,1.534441,0.69596535,0.039996658,0.04,-7.7952337,-5.220861911773682,-2.8658397,0.0,-0.0,0.0
1566.0666666655711,-0.5757403,-0.91645,0.15083955,-2.6993752,-0.48341742,1.534441,0.69596535,0.039996658,0.04,-7.7952337,-5.220861911773682,-2.8658397,0.0,-0.0,0.0
1566.0833333322378,-0.5757403,-0.91645,0.15083955,-2.6993752,-0.48341742,1.534441,0.69596535,0.039996658,0.04,-7.7952337,-5.220861911773682,-2.8658397,0.0,-0.0,0.0
1566.0999999989044,-0.5757403,-0.91645,0.15083955,-2.6993752,-0.48341742,1.534441,0.69596535,0.039996658,0.04,-7.7952337,-5.220861911773682,-2.8658397,0.0,-0.0,0.0
1566.116666665571,-0.5757403,-0.91645,0.15083955,-2.6993752,-0.48341742,1.534441,0.69596535,0.039996658,0.04,-7.7952337,-5.220861911773682,-2.8658397,0.0,-0.0,0.0
1566.1333333322377,-0.5757403,-0.91645,0.15083955,-2.6993752,-0.48341742,1.534441,0.69596535,0.039996658,0.04,-7.7952337,-5.220861911773682,-2.8658397,0.0,-0.0,0.0
1566.1499999989044,-0.5757403,-0.91645,0.15083955,-2.6993752,-0.48341742,1.534441,0.69596535,0.039996658,0.04,-7.7952337,-5.220861911773682,-2.8658397,0.0,-0.0,0.0
1566.166666665571,-0.5757403,-0.91645,0.15083955,-2.6993752,-0.48341742,1.534441,0.69596535,0.039996658,0.04,-7.7952337,-5.220861911773682,-2.8658397,0.0,-0.0,0.0
1566.1833333322377,-0.5757403,-0.91645,0.15083955,-2.6993752,-0.48341742,1.534441,0.69596535,0.039996658,0.04,-7.7952337,-5.220861911773682,-2.8658397,0.0,-0.0,0.0
1566.1999999989043,-0.5757403,-0.91645,0.15083955,-2.6993752,-0.48341742,1.534441,0.69596535,0.039996658,0.04,-7.7952337,-5.220861911773682,-2.8658397,0.0,-0.0,0.0
1566.216666665571,-0.5757403,-0.91645,0.15083955,-2.6993752,-0.48341742,1.534441,0.69596535,0.039996658,0.04,-7.7952337,-5.220861911773682,-2.8658397,0.0,-0.0,0.0
1566.2333333322376,-0.5757403,-0.91645,0.15083955,-2.6993752,-0.48341742,1.534441,0.69596535,0.039996658,0.04,-7.7952337,-5.220861911773682,-2.8658397,0.0,-0.0,0.0
1566.2499999989043,-0.5757403,-0.91645,0.15083955,-2.6993752,-0.48341742,1.534441,0.69596535,0.039996658,0.04,-7.7952337,-5.220861911773682,-2.8658397,0.0,-0.0,0.0
1566.266666665571,-0.5757403,-0.91645,0.15083955,-2.6993752,-0.48341742,1.534441,0.69596535,0.039996658,0.04,-7.7952337,-5.220861911773682,-2.8658397,0.0,-0.0,0.0
1566.2833333322376,-0.5757403,-0.91645,0.15083955,-2.6993752,-0.48341742,1.534441,0.69596535,0.039996658,0.04,-7.7952337,-5.220861911773682,-2.8658397,0.0,-0.0,0.0
1566.2999999989042,-0.5757403,-0.91645,0.15083955,-2.6993752,-0.48341742,1.534441,0.69596535,0.039996658,0.04,-7.7952337,-5.220861911773682,-2.8658397,0.0,-0.0,0.0
1566.316666665571,-0.5757403,-0.91645,0.15083955,-2.6993752,-0.48341742,1.534441,0.69596535,0.039996658,0.04,-7.7952337,-5.220861911773682,-2.8658397,0.0,-0.0,0.0
1566.3333333322375,-0.5757403,-0.91645,0.15083955,-2.6993752,-0.48341742,1.534441,0.69596535,0.039996658,0.04,-7.7952337,-5.220861911773682,-2.8658397,0.0,-0.0,0.0
1566.3499999989042,-0.5757403,-0.91645,0.15083955,-2.6993752,-0.48341742,1.534441,0.69596535,0.039996658,0.04,-7.7952337,-5.220861911773682,-2.8658397,0.0,-0.0,0.0
1566.3666666655708,-0.5757403,-0.91645,0.15083955,-2.6993752,-0.48341742,1.534441,0.69596535,0.039996658,0.04,-7.7952337,-5.220861911773682,-2.8658397,0.0,-0.0,0.0
1566.3833333322375,-0.5757403,-0.91645,0.15083955,-2.6993752,-0.48341742,1.534441,0.69596535,0.039996658,0.04,-7.7952337,-5.220861911773682,-2.8658397,0.0,-0.0,0.0
1566.3999999989041,-0.5757403,-0.91645,0.15083955,-2.6993752,-0.48341742,1.534441,0.69596535,0.039996658,0.04,-7.7952337,-5.220861911773682,-2.8658397,0.0,-0.0,0.0
1566.4166666655708,-0.5757403,-0.91645,0.15083955,-2.6993752,-0.48341742,1.534441,0.69596535,0.039996658,0.04,-7.7952337,-5.220861911773682,-2.8658397,0.0,-0.0,0.0
1566.4333333322375,-0.5757403,-0.91645,0.15083955,-2.6993752,-0.48341742,1.534441,0.69596535,0.039996658,0.04,-7.7952337,-5.220861911773682,-2.8658397,0.0,-0.0,0.0
1566.449999998904,-0.5757403,-0.91645,0.15083955,-2.6993752,-0.48341742,1.534441,0.69596535,0.039996658,0.04,-7.7952337,-5.220861911773682,-2.8658397,0.0,-0.0,0.0
1566.4666666655708,-0.5757403,-0.91645,0.15083955,-2.6993752,-0.48341742,1.534441,0.69596535,0.039996658,0.04,-7.7952337,-5.220861911773682,-2.8658397,0.0,-0.0,0.0
1566.4833333322374,-0.5757403,-0.91645,0.15083955,-2.6993752,-0.48341742,1.534441,0.69596535,0.039996658,0.04,-7.7952337,-5.220861911773682,-2.8658397,0.0,-0.0,0.0
1566.499999998904,-0.5757403,-0.91645,0.15083955,-2.6993752,-0.48341742,1.534441,0.69596535,0.039996658,0.04,-7.7952337,-5.220861911773682,-2.8658397,0.0,-0.0,0.0
1566.5166666655707,-0.5757403,-0.91645,0.15083955,-2.6993752,-0.48341742,1.534441,0.69596535,0.039996658,0.04,-7.7952337,-5.220861911773682,-2.8658397,0.0,-0.0,0.0
1566.5333333322374,-0.5757403,-0.91645,0.15083955,-2.6993752,-0.48341742,1.534441,0.69596535,0.039996658,0.04,-7.7952337,-5.220861911773682,-2.8658397,0.0,-0.0,0.0
1566.549999998904,-0.5757403,-0.91645,0.15083955,-2.6993752,-0.48341742,1.534441,0.69596535,0.039996658,0.04,-7.7952337,-5.220861911773682,-2.8658397,0.0,-0.0,0.0
1566.5666666655707,-0.5757403,-0.91645,0.15083955,-2.6993752,-0.48341742,1.534441,0.69596535,0.039996658,0.04,-7.7952337,-5.220861911773682,-2.8658397,0.0,-0.0,0.0
1566.5833333322373,-0.5757403,-0.91645,0.15083955,-2.6993752,-0.48341742,1.534441,0.69596535,0.039996658,0.04,-7.7952337,-5.220861911773682,-2.8658397,0.0,-0.0,0.0
1566.599999998904,-0.5757403,-0.91645,0.15083955,-2.6993752,-0.48341742,1.534441,0.69596535,0.039996658,0.04,-7.7952337,-5.220861911773682,-2.8658397,0.0,-0.0,0.0
1566.6166666655706,-0.5757403,-0.91645,0.15083955,-2.6993752,-0.48341742,1.534441,0.69596535,0.039996658,0.04,-7.7952337,-5.220861911773682,-2.8658397,0.0,-0.0,0.0
1566.6333333322373,-0.5757403,-0.91645,0.15083955,-2.6993752,-0.48341742,1.534441,0.69596535,0.039996658,0.04,-7.7952337,-5.220861911773682,-2.8658397,0.0,-0.0,0.0
1566.649999998904,-0.5757403,-0.91645,0.15083955,-2.6993752,-0.48341742,1.534441,0.69596535,0.039996658,0.04,-7.7952337,-5.220861911773682,-2.8658397,0.0,-0.0,0.0
1566.6666666655706,-0.5757403,-0.91645,0.15083955,-2.6993752,-0.48341742,1.534441,0.69596535,0.039996658,0.04,-7.7952337,-5.220861911773682,-2.8658397,0.0,-0.0,0.0
1566.6833333322372,-0.5757403,-0.91645,0.15083955,-2.6993752,-0.48341742,1.534441,0.69596535,0.039996658,0.04,-7.7952337,-5.220861911773682,-2.8658397,0.0,-0.0,0.0
1566.6999999989039,-0.5757403,-0.91645,0.15083955,-2.6993752,-0.48341742,1.534441,0.69596535,0.039996658,0.04,-7.7952337,-5.220861911773682,-2.8658397,0.0,-0.0,0.0
1566.7166666655705,-0.5757403,-0.91645,0.15083955,-2.6993752,-0.48341742,1.534441,0.69596535,0.039996658,0.04,-7.7952337,-5.220861911773682,-2.8658397,0.0,-0.0,0.0
1566.7333333322372,-0.5757403,-0.91645,0.15083955,-2.6993752,-0.48341742,1.534441,0.69596535,0.039996658,0.04,-7.7952337,-5.220861911773682,-2.8658397,0.0,-0.0,0.0
1566.7499999989038,-0.5757403,-0.91645,0.15083955,-2.6993752,-0.48341742,1.534441,0.69596535,0.039996658,0.04,-7.7952337,-5.220861911773682,-2.8658397,0.0,-0.0,0.0
1566.7666666655705,-0.5757403,-0.91645,0.15083955,-2.6993752,-0.48341742,1.534441,0.69596535,0.039996658,0.04,-7.7952337,-5.220861911773682,-2.8658397,0.0,-0.0,0.0
1566.7833333322371,-0.5757403,-0.91645,0.15083955,-2.6993752,-0.48341742,1.534441,0.69596535,0.039996658,0.04,-7.7952337,-5.220861911773682,-2.8658397,0.0,-0.0,0.0
1566.7999999989038,-0.5757403,-0.91645,0.15083955,-2.6993752,-0.48341742,1.534441,0.69596535,0.039996658,0.04,-7.7952337,-5.220861911773682,-2.8658397,0.0,-0.0,0.0
1566.8166666655704,-0.5757403,-0.91645,0.15083955,-2.6993752,-0.48341742,1.534441,0.69596535,0.039996658,0.04,-7.7952337,-5.220861911773682,-2.8658397,0.0,-0.0,0.0
1566.833333332237,-0.5757403,-0.91645,0.15083955,-2.6993752,-0.48341742,1.534441,0.69596535,0.039996658,0.04,-7.7952337,-5.220861911773682,-2.8658397,0.0,-0.0,0.0
1566.8499999989037,-0.5757403,-0.91645,0.15083955,-2.6993752,-0.48341742,1.534441,0.69596535,0.039996658,0.04,-7.7952337,-5.220861911773682,-2.8658397,0.0,-0.0,0.0
1566.8666666655704,-0.5757403,-0.91645,0.15083955,-2.6993752,-0.48341742,1.534441,0.69596535,0.039996658,0.04,-7.7952337,-5.220861911773682,-2.8658397,0.0,-0.0,0.0
1566.883333332237,-0.5757403,-0.91645,0.15083955,-2.6993752,-0.48341742,1.534441,0.69596535,0.039996658,0.04,-7.7952337,-5.220861911773682,-2.8658397,0.0,-0.0,0.0
1566.8999999989037,-0.5757403,-0.91645,0.15083955,-2.6993752,-0.48341742,1.534441,0.69596535,0.039996658,0.04,-7.7952337,-5.220861911773682,-2.8658397,0.0,-0.0,0.0
1566.9166666655703,-0.5757403,-0.91645,0.15083955,-2.6993752,-0.48341742,1.534441,0.69596535,0.039996658,0.04,-7.7952337,-5.220861911773682,-2.8658397,0.0,-0.0,0.0
1566.933333332237,-0.5757403,-0.91645,0.15083955,-2.6993752,-0.48341742,1.534441,0.69596535,0.039996658,0.04,-7.7952337,-5.220861911773682,-2.8658397,0.0,-0.0,0.0
1566.9499999989036,-0.5757403,-0.91645,0.15083955,-2.6993752,-0.48341742,1.534441,0.69596535,0.039996658,0.04,-7.7952337,-5.220861911773682,-2.8658397,0.0,-0.0,0.0
1566.9666666655703,-0.5757403,-0.91645,0.15083955,-2.6993752,-0.48341742,1.534441,0.69596535,0.039996658,0.04,-7.7952337,-5.220861911773682,-2.8658397,0.0,-0.0,0.0
1566.983333332237,-0.5757403,-0.91645,0.15083955,-2.6993752,-0.48341742,1.534441,0.69596535,0.039996658,0.04,-7.7952337,-5.220861911773682,-2.8658397,0.0,-0.0,0.0
1566.9999999989036,-0.5757403,-0.91645,0.15083955,-2.6993752,-0.48341742,1.534441,0.69596535,0.039996658,0.04,-7.7952337,-5.220861911773682,-2.8658397,0.0,-0.0,0.0
1567.0166666655703,-0.5757403,-0.91645,0.15083955,-2.6993752,-0.48341742,1.534441,0.69596535,0.039996658,0.04,-7.7952337,-5.220861911773682,-2.8658397,0.0,-0.0,0.0
1567.033333332237,-0.5757403,-0.91645,0.15083955,-2.6993752,-0.48341742,1.534441,0.69596535,0.039996658,0.04,-7.7952337,-5.220861911773682,-2.8658397,0.0,-0.0,0.0
1567.0499999989036,-0.5757403,-0.91645,0.15083955,-2.6993752,-0.48341742,1.534441,0.69596535,0.039996658,0.04,-7.7952337,-5.220861911773682,-2.8658397,0.0,-0.0,0.0
1567.0666666655702,-0.5757403,-0.91645,0.15083955,-2.6993752,-0.48341742,1.534441,0.69596535,0.039996658,0.04,-7.7952337,-5.220861911773682,-2.8658397,0.0,-0.0,0.0
1567.0833333322369,-0.5757403,-0.91645,0.15083955,-2.6993752,-0.48341742,1.534441,0.69596535,0.039996658,0.04,-7.7952337,-5.220861911773682,-2.8658397,0.0,-0.0,0.0
1567.0999999989035,-0.5757403,-0.91645,0.15083955,-2.6993752,-0.48341742,1.534441,0.69596535,0.039996658,0.04,-7.7952337,-5.220861911773682,-2.8658397,0.0,-0.0,0.0
