rsonawane2002/My_IMU/logs_2/traj_392/imu_400hz_392.csv
time,j1,j2,j3,j4,j5,j6,j7,gripper1,gripper2,imu_ax,imu_ay,imu_az,imu_gx,imu_gy,imu_gz
0.0,0.00016700293,-0.785875,4.0107683e-05,-2.3551247,9.29385e-05,1.570997,0.786,0.04,0.04,-9.473184,-0.0345153287053108,0.10669919,-1.7727848e-07,-0.0011641270248219,1.1106657e-06
0.0025,0.00016700191300000002,-0.7858577740000002,4.0109114449999986e-05,-2.35513919,9.294260099999995e-05,1.570996565,0.786,0.04,0.04,-9.52738214999931,-0.029243728579671172,0.09205540070018646,-1.3591097210052673e-07,-0.0013252446136882085,1.0058573805013346e-06
0.005,0.00016700089600000002,-0.7858405480000005,4.011054589999997e-05,-2.35515368,9.29467019999999e-05,1.57099613,0.786,0.04,0.04,-9.58158029999862,-0.023972128454031544,0.07741161140037292,-9.454346420105346e-08,-0.001486362202554517,9.010490610026691e-07
0.0075,0.00016699987900000004,-0.7858233220000007,4.0111977349999945e-05,-2.35516817,9.295080299999985e-05,1.5709956950000001,0.786,0.04,0.04,-9.635778449997929,-0.01870052832839192,0.06276782210055937,-5.31759563015802e-08,-0.0016474797914208254,7.962407415040036e-07
0.01,0.00016699886200000007,-0.785806096000001,4.011340879999993e-05,-2.3551826599999997,9.29549039999998e-05,1.5709952600000001,0.786,0.04,0.04,-9.68997659999724,-0.01342892820275229,0.04812403280074583,-1.1808448402106928e-08,-0.001808597380287134,6.914324220053381e-07
0.0125,0.00016699784500000007,-0.7857888700000011,4.011484024999991e-05,-2.355197149999999,9.295900499999974e-05,1.570994825,0.786,0.04,0.04,-9.74417474999655,-0.008157328077112662,0.033480243500932275,2.9559059497366347e-08,-0.0019697149691534424,5.866241025066726e-07
0.015,0.0001669968280000001,-0.7857716440000013,4.0116271699999894e-05,-2.355211639999999,9.29631059999997e-05,1.57099439,0.786,0.04,0.04,-9.79837289999586,-0.002885727951473037,0.01883645420111875,7.09265673968396e-08,-0.002130832558019751,4.818157830080072e-07
0.0175,0.00016699247500000095,-0.7857548670000014,4.0118571849999656e-05,-2.355225734999999,9.296425030000041e-05,1.57099396,0.786,0.04,0.04,-9.834396300000028,0.0006255100452116223,0.0089994435000189,2.2868910066696617e-07,-0.0022876457311086992,2.3389399154517956e-07
0.02,0.00016698145000000093,-0.7857389880000014,4.012260939999966e-05,-2.355239039999999,9.295948120000041e-05,1.5709935400000001,0.786,0.04,0.04,-9.834070200000028,0.0006160237826414737,0.008775990000018698,6.192416847673213e-07,-0.002435850072639639,-3.0025474395530605e-07
0.0225,0.0001669704250000009,-0.7857231090000013,4.0126646949999664e-05,-2.355252344999999,9.295471210000039e-05,1.57099312,0.786,0.04,0.04,-9.833744100000027,0.0006065375200713251,0.008552536500018495,1.0097942688676764e-06,-0.0025840544141705786,-8.344034794557915e-07
0.025,0.0001669594000000009,-0.7857072300000013,4.013068449999967e-05,-2.355265649999999,9.294994300000039e-05,1.5709927000000001,0.786,0.04,0.04,-9.833418000000027,0.0005970512575011764,0.00832908300001829,1.400346852968032e-06,-0.0027322587557015187,-1.3685522149562777e-06
0.0275,0.0001669483750000009,-0.7856913510000013,4.013472204999967e-05,-2.355278954999999,9.294517390000038e-05,1.57099228,0.786,0.04,0.04,-9.833091900000026,0.0005875649949310278,0.008105629500018087,1.790899437068387e-06,-0.0028804630972324584,-1.9027009504567632e-06
0.03,0.00016693735000000088,-0.7856754720000013,4.0138759599999675e-05,-2.355292259999999,9.294040480000038e-05,1.5709918600000001,0.786,0.04,0.04,-9.832765800000026,0.0005780787323608793,0.007882176000017884,2.1814520211687422e-06,-0.003028667438763398,-2.4368496859572487e-06
0.0325,0.00016692632500000086,-0.7856595930000013,4.014279714999968e-05,-2.3553055649999988,9.293563570000037e-05,1.57099144,0.786,0.04,0.04,-9.832439700000025,0.0005685924697907307,0.0076587225000176815,2.572004605269098e-06,-0.003176871780294338,-2.970998421457735e-06
0.035,0.00016689763600000293,-0.7856445700000012,4.015148589999914e-05,-2.355318099999999,9.291666340000204e-05,1.57099101,0.786,0.04,0.0399999995,-9.832156800000021,0.000554375752109427,0.007441260100016774,3.3764543199208936e-06,-0.0033168753143293303,-4.088048399889834e-06
0.0375,0.00016686011500000289,-0.7856299750000011,4.0162500249999146e-05,-2.355330249999999,9.289058950000201e-05,1.570990575,0.786,0.04,0.03999999875,-9.83189550000002,0.0005377938068717069,0.00722679325001658,4.387852599921811e-06,-0.0034527784446148936,-5.496548999891112e-06
0.04,0.00016682259400000287,-0.7856153800000011,4.017351459999916e-05,-2.355342399999999,9.2864515600002e-05,1.5709901400000001,0.786,0.04,0.039999998,-9.83163420000002,0.0005212118616339868,0.007012326400016385,5.399250879922733e-06,-0.0035886815749004574,-6.905049599892394e-06
0.0425,0.00016678507300000282,-0.7856007850000011,4.018452894999917e-05,-2.355354549999999,9.283844170000197e-05,1.5709897050000001,0.786,0.04,0.03999999725,-9.83137290000002,0.0005046299163962667,0.0067978595500161896,6.410649159923652e-06,-0.003724584705186021,-8.313550199893676e-06
0.045,0.0001667475520000028,-0.7855861900000011,4.019554329999918e-05,-2.355366699999999,9.281236780000194e-05,1.57098927,0.786,0.04,0.0399999965,-9.83111160000002,0.00048804797115854667,0.006583392700015995,7.422047439924571e-06,-0.0038604878354715844,-9.722050799894955e-06
0.0475,0.00016671003100000276,-0.7855715950000011,4.020655764999919e-05,-2.3553788499999992,9.278629390000193e-05,1.570988835,0.786,0.04,0.03999999575,-9.83085030000002,0.00047146602592082655,0.0063689258500158,8.433445719925492e-06,-0.003996390965757148,-1.1130551399896237e-05
0.05,0.00016667251000000274,-0.7855570000000011,4.02175719999992e-05,-2.355390999999999,9.27602200000019e-05,1.5709884,0.786,0.04,0.039999995,-9.83058900000002,0.0004548840806831065,0.006154459000015605,9.444843999926412e-06,-0.004132294096042712,-1.253905199989752e-05
0.0525,0.0001665848305000063,-0.7855435750000009,4.024185549999826e-05,-2.3554021599999992,9.268929100000509e-05,1.5709879800000002,0.786,0.04,0.03999999575,-9.830293050000021,0.0004288757510967137,0.00596991344501326,1.1333794899864278e-05,-0.004256570339193901,-1.568683949977383e-05
0.055,0.00016649715100000622,-0.7855301500000009,4.0266138999998276e-05,-2.3554133199999994,9.261836200000503e-05,1.57098756,0.786,0.04,0.0399999965,-9.829997100000021,0.00040286742150963503,0.0057853678900130915,1.3222745799865997e-05,-0.004380846582344244,-1.8834626999776693e-05
0.0575,0.00016640947150000615,-0.7855167250000009,4.02904224999983e-05,-2.355424479999999,9.254743300000497e-05,1.57098714,0.786,0.04,0.03999999725,-9.829701150000021,0.0003768590919225564,0.005600822335012924,1.5111696699867717e-05,-0.004505122825494587,-2.198241449977956e-05
0.06,0.00016632179200000606,-0.7855033000000009,4.031470599999832e-05,-2.355435639999999,9.247650400000491e-05,1.57098672,0.786,0.04,0.039999998,-9.829405200000021,0.0003508507623354777,0.005416276780012756,1.700064759986943e-05,-0.004629399068644929,-2.513020199978242e-05
0.0625,0.00016623411250000597,-0.7854898750000009,4.033898949999834e-05,-2.3554467999999993,9.240557500000484e-05,1.5709863,0.786,0.04,0.03999999875,-9.82910925000002,0.00032484243274839906,0.005231731225012588,1.888959849987115e-05,-0.0047536753117952725,-2.8277989499785285e-05
0.065,0.0001661464330000059,-0.7854764500000009,4.036327299999837e-05,-2.3554579599999994,9.233464600000478e-05,1.57098588,0.786,0.04,0.0399999995,-9.82881330000002,0.0002988341031613204,0.005047185670012421,2.0778549399872872e-05,-0.0048779515549456165,-3.142577699978815e-05
0.0675,0.00016603196300001116,-0.7854633875000008,4.039461399999698e-05,-2.3554687799999994,9.224111450000922e-05,1.570985455,0.786,0.04,0.04,-9.828528900000018,0.00027158222801711813,0.004865489150011685,2.3048000099798804e-05,-0.004998509935095775,-3.506784989969256e-05
0.07,0.000165863912000011,-0.7854510500000008,4.044006999999702e-05,-2.3554789199999995,9.21023780000091e-05,1.57098502,0.786,0.04,0.04,-9.828267600000018,0.00024184326175792227,0.004689490700011525,2.6078450399801565e-05,-0.005111632589243333,-3.969849359969678e-05
0.0725,0.00016569586100001086,-0.7854387125000007,4.048552599999706e-05,-2.355489059999999,9.196364150000896e-05,1.570984585,0.786,0.04,0.04,-9.828006300000016,0.00021210429549872658,0.004513492250011365,2.9108900699804305e-05,-0.00522475524339089,-4.432913729970097e-05
0.075,0.0001655278100000107,-0.7854263750000008,4.0530981999997106e-05,-2.3554991999999992,9.182490500000883e-05,1.5709841500000001,0.786,0.04,0.04,-9.827745000000016,0.0001823653292395307,0.004337493800011205,3.2139350999807065e-05,-0.0053378778975384485,-4.8959780999705185e-05
0.0775,0.00016535975900001056,-0.7854140375000008,4.0576437999997144e-05,-2.3555093399999993,9.168616850000871e-05,1.5709837150000001,0.786,0.04,0.04,-9.827483700000016,0.0001526263629803348,0.004161495350011045,3.5169801299809825e-05,-0.005451000551686006,-5.35904246997094e-05
0.08,0.0001651917080000104,-0.7854017000000008,4.062189399999719e-05,-2.3555194799999994,9.154743200000858e-05,1.57098328,0.786,0.04,0.04,-9.827222400000016,0.00012288739672113892,0.003985496900010885,3.820025159981258e-05,-0.005564123205833564,-5.822106839971362e-05
0.0825,0.00016502365700001026,-0.7853893625000008,4.066734999999723e-05,-2.355529619999999,9.140869550000846e-05,1.570982845,0.786,0.04,0.04,-9.826961100000016,9.314843046194306e-05,0.0038094984500107246,4.123070189981534e-05,-0.005677245859981122,-6.285171209971784e-05
0.085,0.0001647780360000171,-0.7853776980000007,4.073324019999543e-05,-2.3555395199999993,9.120439300001423e-05,1.57098241,0.786,0.04,0.04,-9.826715300000014,5.655363784411951e-05,0.003635890140010349,4.515002079973807e-05,-0.005783230438822303,-6.896900249958819e-05
0.08750000000000001,0.00016449363000001682,-0.7853663700000008,4.08093474999955e-05,-2.3555492999999994,9.096730750001402e-05,1.570981975,0.786,0.04,0.04,-9.826477250000014,1.6530932046046875e-05,0.0034634769000101923,4.9513773999742044e-05,-0.005885645980009321,-7.582961624959444e-05
0.09,0.00016420922400001657,-0.7853550420000007,4.088545479999557e-05,-2.3555590799999995,9.07302220000138e-05,1.57098154,0.786,0.04,0.04,-9.826239200000014,-2.349177375202554e-05,0.003291063660010036,5.387752719974599e-05,-0.005988061521196339,-8.269022999960065e-05
0.0925,0.0001639248180000163,-0.7853437140000007,4.096156209999564e-05,-2.3555688599999995,9.049313650001358e-05,1.570981105,0.786,0.04,0.04,-9.826001150000014,-6.351447955009817e-05,0.003118650420009879,5.824128039974996e-05,-0.006090477062383357,-8.95508437496069e-05
0.095,0.00016364041200001605,-0.7853323860000007,4.103766939999571e-05,-2.3555786399999996,9.025605100001336e-05,1.57098067,0.786,0.04,0.04,-9.825763100000014,-0.00010353718534817082,0.0029462371800097224,6.260503359975393e-05,-0.006192892603570375,-9.641145749961314e-05
0.0975,0.00016335600600001578,-0.7853210580000006,4.111377669999578e-05,-2.3555884199999997,9.001896550001314e-05,1.570980235,0.786,0.04,0.04,-9.825525050000012,-0.00014355989114624344,0.002773823940009565,6.69687867997579e-05,-0.006295308144757393,-0.00010327207124961939
0.1,0.00016307160000001553,-0.7853097300000007,4.1189883999995846e-05,-2.3555981999999998,8.978188000001294e-05,1.5709798,0.786,0.04,0.04,-9.825287000000012,-0.00018358259694431609,0.0026014107000094083,7.133253999976188e-05,-0.006397723685944412,-0.00011013268499962563
0.10250000000000001,0.00016262962050002372,-0.7852993755000006,4.130743569999369e-05,-2.35560702,8.941202350001985e-05,1.57097938,0.786,0.04,0.04,-9.82510415000001,-0.00022736531099999574,0.002451175635008061,7.71508869996878e-05,-0.006492719985539548,-0.00011943332474950095
0.105,0.00016218764100002332,-0.7852890210000005,4.1424987399993794e-05,-2.3556158399999996,8.90421670000195e-05,1.57097896,0.786,0.04,0.04,-9.824921300000009,-0.00027114802505588036,0.0023009405700079254,8.296923399969306e-05,-0.006587716285134279,-0.00012873396449950936
0.1075,0.00016174566150002292,-0.7852786665000006,4.1542539099993904e-05,-2.3556246599999997,8.867231050001918e-05,1.57097854,0.786,0.04,0.04,-9.824738450000009,-0.0003149307391117652,0.0021507055050077883,8.878758099969836e-05,-0.00668271258472901,-0.00013803460424951784
0.11,0.0001613036820000225,-0.7852683120000006,4.166009079999401e-05,-2.3556334799999994,8.830245400001884e-05,1.57097812,0.786,0.04,0.04,-9.824555600000009,-0.0003587134531676501,0.0020004704400076517,9.460592799970366e-05,-0.006777708884323742,-0.00014733524399952632
0.1125,0.0001608617025000221,-0.7852579575000005,4.1777642499994116e-05,-2.3556422999999995,8.79325975000185e-05,1.5709777,0.786,0.04,0.04,-9.824372750000009,-0.00040249616722353495,0.001850235375007515,0.00010042427499970896,-0.006872705183918473,-0.00015663588374953478
0.115,0.0001604197230000217,-0.7852476030000005,4.1895194199994225e-05,-2.3556511199999997,8.756274100001817e-05,1.5709772800000001,0.786,0.04,0.04,-9.82418990000001,-0.0004462788812794198,0.0017000003100073782,0.00010624262199971426,-0.006967701483513205,-0.00016593652349954324
0.11750000000000001,0.00015990993500002816,-0.7852375385000004,4.203057139999253e-05,-2.3556598649999994,8.713579500002363e-05,1.570976855,0.786,0.04,0.04,-9.823988650000011,-0.0004930181021313016,0.0015497654780065582,0.00011260535649967472,-0.007059243577528761,-0.00017614227949947547
0.12,0.00015926453000001878,-0.7852280540000003,4.220159959999502e-05,-2.3556684599999995,8.659467000001575e-05,1.57097642,0.786,0.04,0.04,-9.823750600000007,-0.0005456703365764675,0.0013995311120043727,0.00012005686599978312,-0.007143877260384457,-0.00018815826799965026
0.1225,0.0001586191250000094,-0.7852185695000001,4.237262779999751e-05,-2.3556770549999997,8.605354500000788e-05,1.570975985,0.786,0.04,0.04,-9.823512550000004,-0.0005983225710216337,0.0012492967460021865,0.00012750837549989157,-0.007228510943240153,-0.00020017425649982513
0.125,0.00015797372,-0.785209085,4.2543656e-05,-2.35568565,8.551241999999999e-05,1.57097555,0.786,0.04,0.04,-9.8232745,-0.0006509748054667999,0.00109906238,0.000134959885,-0.00731314462609585,-0.000212190245
0.1275,0.0001573283149999906,-0.7851996004999999,4.2714684200002486e-05,-2.355694245,8.497129499999212e-05,1.570975115,0.786,0.04,0.04,-9.823036449999996,-0.0007036270399119662,0.0009488280139978137,0.00014241139450010845,-0.007397778308951547,-0.00022420623350017486
0.13,0.00015668290999998121,-0.7851901159999998,4.2885712400004975e-05,-2.35570284,8.443016999998425e-05,1.57097468,0.786,0.04,0.04,-9.822798399999993,-0.0007562792743571324,0.0007985936479956273,0.0001498629040002169,-0.0074824119918072435,-0.0002362222220003497
0.1325,0.0001560375049999718,-0.7851806314999996,4.3056740600007464e-05,-2.3557114350000004,8.388904499997637e-05,1.570974245,0.786,0.04,0.04,-9.82256034999999,-0.0008089315088022986,0.000648359281993441,0.00015731441350032532,-0.00756704567466294,-0.0002482382105005246
0.135,0.00015522314699996403,-0.7851717129999997,4.327215600000951e-05,-2.35571943,8.320480339996975e-05,1.5709738199999999,0.78599981,0.0399999995,0.04,-9.822370599999994,-0.0008641904278215137,0.0005080995179945862,0.00016595721400036975,-0.007647192198786208,-0.00026230592600060405
0.1375,0.00015432431249997548,-0.7851630774999998,4.3509765000006484e-05,-2.355727125,8.244900349997937e-05,1.5709734,0.785999525,0.03999999875,0.04,-9.822204999999995,-0.0009207526891274685,0.00037282705499630856,0.0001751956600002521,-0.007725095143543751,-0.0002773995050004119
0.14,0.00015342547799998693,-0.7851544419999998,4.374737400000346e-05,-2.35573482,8.169320359998899e-05,1.57097298,0.78599924,0.039999998,0.04,-9.822039399999998,-0.0009773149504334233,0.00023755459199803085,0.00018443410600013448,-0.0078029980883012945,-0.0002924930840002197
0.14250000000000002,0.00015252664349999837,-0.7851458065,4.3984983000000434e-05,-2.3557425149999998,8.093740369999862e-05,1.57097256,0.785998955,0.03999999725,0.04,-9.821873799999999,-0.001033877211739378,0.00010228212899975313,0.00019367255200001686,-0.007880901033058838,-0.00030758666300002754
0.145,0.00015162780900000982,-0.7851371710000001,4.42225919999974e-05,-2.3557502099999996,8.018160380000825e-05,1.57097214,0.78599867,0.0399999965,0.04,-9.821708200000002,-0.0010904394730453324,-3.299033399852306e-05,0.00020291099799989913,-0.00795880397781638,-0.0003226802419998352
0.1475,0.00015072897450002127,-0.7851285355000002,4.446020099999438e-05,-2.3557579049999995,7.942580390001788e-05,1.57097172,0.7859983850000001,0.03999999575,0.04,-9.821542600000004,-0.0011470017343512872,-0.00016826279699680077,0.0002121494439997815,-0.008036706922573923,-0.00033777382099964303
0.15,0.0001498301400000327,-0.7851199000000003,4.469780999999135e-05,-2.3557655999999993,7.86700040000275e-05,1.5709713,0.7859981,0.039999995,0.04,-9.821377000000005,-0.0012035639956572421,-0.0003035352599950785,0.0002213878899996639,-0.008114609867331465,-0.00035286739999945086
0.1525,0.00014862420000005924,-0.7851120100000004,4.501602449998437e-05,-2.3557731599999996,7.765576865004982e-05,1.57097109,0.7859978150000001,0.039999994250000004,0.03999999925,-9.821136850000011,-0.00126820732839083,-0.00043935711599332923,0.0002338199634993894,-0.008182393340390505,-0.0003710068354991091
0.155,0.00014741826000007457,-0.7851041200000005,4.533423899998032e-05,-2.3557807199999994,7.664153330006273e-05,1.57097088,0.78599753,0.039999993500000004,0.0399999985,-9.820896700000015,-0.001332850661124712,-0.0005751789719915999,0.0002462520369992311,-0.008250176813449177,-0.00038914627099887817
0.1575,0.00014621232000008993,-0.7850962300000006,4.565245349997626e-05,-2.355788279999999,7.562729795007564e-05,1.5709706700000001,0.785997245,0.039999992750000005,0.03999999775,-9.820656550000017,-0.001397493993858594,-0.0007110008279898706,0.00025868411049907286,-0.00831796028650785,-0.0004072857064986472
0.16,0.0001450063800001053,-0.7850883400000007,4.597066799997221e-05,-2.3557958399999994,7.461306260008855e-05,1.57097046,0.7859969600000001,0.039999992,0.039999997,-9.82041640000002,-0.0014621373265924758,-0.0008468226839881413,0.0002711161839989146,-0.008385743759566522,-0.0004254251419984162
0.1625,0.00014380044000012065,-0.7850804500000008,4.6288882499968164e-05,-2.355803399999999,7.359882725010146e-05,1.57097025,0.785996675,0.03999999125,0.03999999625,-9.820176250000024,-0.001526780659326358,-0.0009826445399864119,0.00028354825749875626,-0.008453527232625194,-0.00044356457749818526
0.165,0.000142594500000136,-0.7850725600000009,4.660709699996411e-05,-2.355810959999999,7.258459190011438e-05,1.57097004,0.7859963900000001,0.0399999905,0.0399999955,-9.819936100000026,-0.0015914239920602397,-0.0011184663959846828,0.000295980330998598,-0.008521310705683866,-0.00046170401299795434
0.1675,0.00014126723200018275,-0.7850649230000009,4.695714899995183e-05,-2.355818424999999,7.146828775015372e-05,1.5709697599999999,0.7859961050000001,0.0399999899,0.03999999465,-9.819724250000018,-0.0016568279242995991,-0.0012501521949856331,0.00030906154249832606,-0.008586742682375331,-0.0004809205489975122
0.17,0.0001396973080001599,-0.7850577920000007,4.737087599995786e-05,-2.355825699999999,7.01478460001345e-05,1.57096934,0.78599582,0.0399999896,0.039999993600000006,-9.819569000000016,-0.001723753055550743,-0.001373565879987429,0.00032344102999853534,-0.008647471666329815,-0.0005022912859978232
0.17250000000000001,0.00013812738400013707,-0.7850506610000006,4.7784602999963874e-05,-2.3558329749999993,6.882740425011529e-05,1.57096892,0.7859955350000001,0.0399999893,0.03999999255,-9.819413750000013,-0.001790678186801887,-0.0014969795649892252,0.0003378205174987446,-0.008708200650284298,-0.0005236620229981341
0.17500000000000002,0.0001365574600001142,-0.7850435300000005,4.81983299999699e-05,-2.3558402499999995,6.750696250009606e-05,1.5709685,0.78599525,0.039999989,0.039999991500000005,-9.81925850000001,-0.001857603318053031,-0.0016203932499910213,0.00035220000499895383,-0.008768929634238783,-0.0005450327599984452
0.1775,0.00013498753600009138,-0.7850363990000004,4.8612056999975914e-05,-2.3558475249999997,6.618652075007686e-05,1.57096808,0.7859949650000001,0.0399999887,0.03999999045,-9.819103250000008,-0.0019245284493041742,-0.001743806934992816,0.00036657949249916294,-0.008829658618193265,-0.000566403496998756
0.18,0.00013341761200006853,-0.7850292680000003,4.902578399998194e-05,-2.3558547999999995,6.486607900005765e-05,1.57096766,0.7859946800000001,0.0399999884,0.0399999894,-9.818948000000006,-0.001991453580555318,-0.0018672206199946118,0.0003809589799993722,-0.00889038760214775,-0.000587774233999067
0.1825,0.00013184768800004567,-0.7850221370000001,4.9439510999987955e-05,-2.3558620749999997,6.354563725003843e-05,1.57096724,0.785994395,0.0399999881,0.03999998835,-9.818792750000004,-0.0020583787118064623,-0.0019906343049964077,0.0003953384674995815,-0.008951116586102233,-0.000609144970999378
0.185,0.00012999527700004713,-0.7850154540000001,4.992731799998759e-05,-2.35586898,6.198762000003965e-05,1.57096681,0.7859941100000001,0.0399999876,0.0399999872,-9.818640200000003,-0.0021337040234337694,-0.0021099877399972256,0.0004110784769996117,-0.009007912967352724,-0.0006328657949994113
0.1875,0.00012800162250004534,-0.7850089950000001,5.045216499998806e-05,-2.3558757,6.031081500003812e-05,1.570966375,0.785993825,0.039999987,0.039999986,-9.818489000000003,-0.002213229425249617,-0.0022273110499973323,0.00042749874749962666,-0.009062743047251003,-0.000657761662499434
0.19,0.0001260079680000435,-0.7850025360000001,5.0977011999988544e-05,-2.35588242,5.8634010000036594e-05,1.57096594,0.78599354,0.0399999864,0.0399999848,-9.818337800000004,-0.002292754827065464,-0.0023446343599974394,0.0004439190179996416,-0.009117573127149285,-0.0006826575299994566
0.1925,0.0001240143135000417,-0.7849960770000001,5.150185899998902e-05,-2.35588914,5.695720500003507e-05,1.570965505,0.7859932550000001,0.0399999858,0.0399999836,-9.818186600000002,-0.0023722802288813115,-0.002461957669997546,0.0004603392884996565,-0.009172403207047564,-0.0007075533974994793
0.195,0.00012202065900003988,-0.7849896180000001,5.20267059999895e-05,-2.35589586,5.528040000003354e-05,1.57096507,0.78599297,0.039999985200000004,0.0399999824,-9.818035400000003,-0.002451805630697159,-0.002579280979997653,0.00047675955899967147,-0.009227233286945843,-0.000732449264999502
0.1975,0.00012002700450003807,-0.784983159,5.2551552999989976e-05,-2.35590258,5.3603595000032014e-05,1.570964635,0.7859926850000001,0.0399999846,0.0399999812,-9.817884200000004,-0.0025313310325130066,-0.0026966042899977598,0.0004931798294996864,-0.009282063366844123,-0.0007573451324995246
0.2,0.00011803335000003625,-0.7849767000000001,5.307639999999045e-05,-2.3559093,5.192679000003049e-05,1.5709642,0.7859924,0.039999984,0.03999998,-9.817733000000004,-0.0026108564343288536,-0.0028139275999978664,0.0005096000999997014,-0.009336893446742402,-0.0007822409999995473
0.2025,0.00011555379150004283,-0.7849709250000001,5.372863749998873e-05,-2.3559158549999997,4.984137000003602e-05,1.57096378,0.785992115,0.03999998295,0.03999997895,-9.817521350000003,-0.0026920977863468614,-0.002925031639998081,0.0005280544949996811,-0.009383654687552758,-0.0008109379124995043
0.20500000000000002,0.00011307423300004058,-0.7849651500000001,5.4380874999989325e-05,-2.35592241,4.775595000003412e-05,1.57096336,0.7859918300000001,0.0399999819,0.0399999779,-9.817309700000004,-0.0027733391383649004,-0.003036135679998182,0.000546508889999698,-0.009430415928362964,-0.0008396348249995304
0.20750000000000002,0.00011059467450003832,-0.7849593750000001,5.503311249998992e-05,-2.355928965,4.5670530000032226e-05,1.57096294,0.785991545,0.03999998085,0.03999997685,-9.817098050000004,-0.0028545804903829393,-0.0031472397199982832,0.0005649632849997148,-0.009477177169173172,-0.0008683317374995565
0.21,0.00010811511600003609,-0.7849536000000001,5.568534999999051e-05,-2.35593552,4.358511000003035e-05,1.57096252,0.7859912600000001,0.0399999798,0.0399999758,-9.816886400000003,-0.0029358218424009775,-0.003258343759998383,0.0005834176799997314,-0.00952393840998338,-0.0008970286499995823
0.2125,0.00010563555750003384,-0.784947825,5.63375874999911e-05,-2.3559420749999997,4.149969000002846e-05,1.5709621,0.785990975,0.03999997875,0.03999997475,-9.816674750000002,-0.0030170631944190164,-0.0033694477999984844,0.0006018720749997482,-0.009570699650793586,-0.0009257255624996084
0.215,0.00010315599900003158,-0.7849420500000001,5.6989824999991695e-05,-2.35594863,3.9414270000026554e-05,1.5709616800000001,0.78599069,0.0399999777,0.039999973700000004,-9.816463100000002,-0.0030983045464370554,-0.003480551839998585,0.0006203264699997651,-0.009617460891603794,-0.0009544224749996346
0.2175,0.00010049303050003583,-0.7849364900000001,5.7690138999990586e-05,-2.3559551549999997,3.7174703000030124e-05,1.570961255,0.785990308,0.03999997665,0.03999997235,-9.816271900000002,-0.0031836310983623744,-0.003591475139998693,0.0006394922149997566,-0.009662042465060444,-0.0009843417424996173
0.22,9.746324200003308e-05,-0.7849313600000001,5.848660599999131e-05,-2.35596162,3.462684200002781e-05,1.57096082,0.785989732,0.0399999756,0.0399999704,-9.8161216,-0.0032771280501026996,-0.0037020369599987933,0.0006600806599997754,-0.00970226470380974,-0.0010167057199996468
0.2225,9.443345350003032e-05,-0.7849262300000001,5.928307299999203e-05,-2.3559680849999998,3.207898100002549e-05,1.570960385,0.785989156,0.03999997455,0.03999996845,-9.815971300000001,-0.003370625001843025,-0.003812598779998894,0.0006806691049997941,-0.009742486942559038,-0.0010490696974996762
0.225,9.140366500002756e-05,-0.7849211,6.007953999999276e-05,-2.35597455,2.953112000002317e-05,1.57095995,0.78598858,0.0399999735,0.039999966500000005,-9.815821000000001,-0.00346412195358335,-0.003923160599998994,0.0007012575499998128,-0.009782709181308333,-0.0010814336749997058
0.2275,8.83738765000248e-05,-0.7849159700000001,6.0876006999993485e-05,-2.355981015,2.6983259000020848e-05,1.570959515,0.785988004,0.039999972450000004,0.03999996455,-9.8156707,-0.003557618905323675,-0.004033722419999095,0.0007218459949998316,-0.009822931420057631,-0.0011137976524997352
0.23,8.534408800002204e-05,-0.7849108400000001,6.16724739999942e-05,-2.35598748,2.443539800001853e-05,1.57095908,0.785987428,0.0399999714,0.0399999626,-9.8155204,-0.0036511158570640004,-0.004144284239999196,0.0007424344399998503,-0.009863153658806927,-0.0011461616299997647
0.2325,8.231429950001928e-05,-0.7849057100000001,6.246894099999494e-05,-2.355993945,2.188753700001621e-05,1.570958645,0.785986852,0.039999970350000004,0.03999996065,-9.8153701,-0.003744612808804325,-0.004254846059999297,0.0007630228849998691,-0.009903375897556223,-0.001178525607499794
0.23500000000000001,7.887359600001987e-05,-0.78490097,6.337308799999477e-05,-2.35600042,1.8994273510016713e-05,1.57095821,0.785986279,0.03999997,0.03999996,-9.815218400000001,-0.0038383651291946084,-0.004357645249999461,0.0007859145839998689,-0.009939598757773383,-0.0012135789999998016
0.23750000000000002,7.522743500001656e-05,-0.784896425,6.433107499999565e-05,-2.3560069,1.5928308775013923e-05,1.570957775,0.7859857075,0.03999997,0.03999996,-9.815066,-0.003932245133909874,-0.004456563124999551,0.0008099579099998908,-0.00997382192872442,-0.0012499770999998348
0.24,7.158127400001328e-05,-0.7848918800000001,6.528906199999652e-05,-2.35601338,1.2862344040011167e-05,1.5709573399999999,0.785985136,0.03999997,0.03999996,-9.8149136,-0.0040261251386251385,-0.004555480999999639,0.0008340012359999124,-0.010008045099675456,-0.0012863751999998673
0.2425,6.793511300000996e-05,-0.7848873350000001,6.624704899999738e-05,-2.35601986,9.796379305008376e-06,1.570956905,0.7859845645,0.03999997,0.03999996,-9.8147612,-0.004120005143340404,-0.0046543988749997295,0.0008580445619999343,-0.010042268270626492,-0.0013227732999999005
0.245,6.428895200000664e-05,-0.78488279,6.720503599999826e-05,-2.35602634,6.730414570005585e-06,1.57095647,0.785983993,0.03999997,0.03999996,-9.8146088,-0.004213885148055669,-0.00475331674999982,0.0008820878879999563,-0.010076491441577528,-0.0013591713999999337
0.2475,6.0642791000003324e-05,-0.784878245,6.816302299999913e-05,-2.35603282,3.664449835002795e-06,1.570956035,0.7859834215,0.03999997,0.03999996,-9.8144564,-0.004307765152770935,-0.00485223462499991,0.0009061312139999781,-0.010110714612528564,-0.0013955694999999667
0.25,5.699663e-05,-0.7848737,6.912101e-05,-2.3560393,5.984851000000017e-07,1.5709556,0.78598285,0.03999997,0.03999996,-9.814304,-0.0044016451574862,-0.0049511525,0.00093017454,-0.0101449377834796,-0.0014319676
0.2525,5.266640959999606e-05,-0.78486974,7.025823650000104e-05,-2.35604581,-3.0422790650033143e-06,1.57095518,0.785982277,0.039999970450000005,0.0399999609,-9.81416705,-0.004512588167563181,-0.005056884425000096,0.0009563486340000238,-0.010173423122614567,-0.0014723580550000366
0.255,4.833618919999211e-05,-0.78486578,7.139546300000207e-05,-2.35605232,-6.683043230006629e-06,1.57095476,0.785981704,0.0399999709,0.0399999618,-9.8140301,-0.004623531177640162,-0.005162616350000193,0.0009825227280000476,-0.010201908461749532,-0.0015127485100000736
0.2575,4.400596879998817e-05,-0.78486182,7.25326895000031e-05,-2.35605883,-1.0323807395009942e-05,1.57095434,0.785981131,0.03999997135,0.0399999627,-9.813893149999998,-0.004734474187717143,-0.005268348275000289,0.0010086968220000714,-0.010230393800884498,-0.0015531389650001103
0.26,3.9675748399984226e-05,-0.78485786,7.366991600000413e-05,-2.35606534,-1.3964571560013257e-05,1.57095392,0.785980558,0.0399999718,0.0399999636,-9.813756199999998,-0.004845417197794124,-0.005374080200000385,0.0010348709160000952,-0.010258879140019463,-0.001593529420000147
0.2625,3.534552799998029e-05,-0.7848539,7.480714250000518e-05,-2.35607185,-1.7605335725016572e-05,1.5709535,0.785979985,0.03999997225,0.0399999645,-9.813619249999999,-0.004956360207871105,-0.005479812125000481,0.001061045010000119,-0.01028736447915443,-0.0016339198750001838
0.265,3.101530759997635e-05,-0.78484994,7.594436900000621e-05,-2.35607836,-2.1246099890019887e-05,1.57095308,0.785979412,0.039999972700000004,0.0399999654,-9.813482299999999,-0.005067303217948086,-0.005585544050000578,0.001087219104000143,-0.010315849818289395,-0.0016743103300002208
0.2675,2.6434073699967605e-05,-0.784846175,7.71473440000085e-05,-2.356084915,-2.5097754200027233e-05,1.570952655,0.7859787435,0.039999973,0.039999966,-9.813343849999999,-0.005177134578116915,-0.0056881273250006135,0.0011141093250001805,-0.010342448158189766,-0.0017160569150002833
0.27,2.135081279996298e-05,-0.7848428,7.848181600000972e-05,-2.35609156,-2.9371188800031124e-05,1.57095222,0.785977884,0.039999973,0.039999966,-9.813202399999998,-0.005284742638469504,-0.005784413300000702,0.0011424318000002062,-0.010365272499621046,-0.0017605157600003238
0.2725,1.626755189995835e-05,-0.784839425,7.981628800001093e-05,-2.356098205,-3.3644623400035015e-05,1.5709517849999999,0.7859770245,0.039999973,0.039999966,-9.813060949999999,-0.005392350698822092,-0.005880699275000789,0.001170754275000232,-0.010388096841052326,-0.0018049746050003645
0.275,1.118429099995372e-05,-0.78483605,8.115076000001215e-05,-2.35610485,-3.7918058000038906e-05,1.5709513499999999,0.785976165,0.039999973,0.039999966,-9.812919499999998,-0.00549995875917468,-0.0059769852500008765,0.001199076750000258,-0.010410921182483608,-0.001849433450000405
0.2775,6.101030099949092e-06,-0.784832675,8.248523200001336e-05,-2.356111495,-4.219149260004279e-05,1.570950915,0.7859753054999999,0.039999973,0.039999966,-9.812778049999999,-0.005607566819527268,-0.006073271225000964,0.0012273992250002837,-0.010433745523914888,-0.0018938922950004454
0.28,1.0177691999444625e-06,-0.7848293,8.381970400001458e-05,-2.35611814,-4.646492720004669e-05,1.57095048,0.785974446,0.039999973,0.039999966,-9.812636599999998,-0.0057151748798798556,-0.006169557200001052,0.0012557217000003095,-0.01045656986534617,-0.0019383511400004859
0.28250000000000003,-4.065491700060163e-06,-0.7848259249999999,8.51541760000158e-05,-2.356124785,-5.073836180005057e-05,1.570950045,0.7859735864999999,0.039999973,0.039999966,-9.812495149999998,-0.005822782940232444,-0.0062658431750011396,0.0012840441750003352,-0.01047939420677745,-0.0019828099850005263
0.28500000000000003,-9.697443200021561e-06,-0.784822915,8.663236000000567e-05,-2.35613172,-5.5472679000018124e-05,1.57094961,0.78597273,0.039999972700000004,0.0399999652,-9.812367199999999,-0.0059441810473803485,-0.006364615420000365,0.0013146841200001162,-0.010498837940394905,-0.002029936770000177
0.28750000000000003,-1.5603739999946363e-05,-0.7848200875,8.818239999998592e-05,-2.3561387999999996,-6.043743749995491e-05,1.570949175,0.785971875,0.03999997225,0.039999964,-9.812246000000002,-0.006072474177925535,-0.006464630799999092,0.0013464827999997112,-0.010516591370105539,-0.00207839752499956
0.29,-2.1510036799871035e-05,-0.7848172600000001,8.973243999996616e-05,-2.3561458799999997,-6.540219599989159e-05,1.57094874,0.78597102,0.0399999718,0.0399999628,-9.812124800000003,-0.006200767308470719,-0.0065646461799978165,0.0013782814799993058,-0.010534344799816173,-0.002126858279998942
0.2925,-2.7416333599795835e-05,-0.7848144325,9.128247999994642e-05,-2.3561529599999997,-7.036695449982838e-05,1.5709483050000002,0.785970165,0.03999997135,0.0399999616,-9.812003600000004,-0.006329060439015905,-0.006664661559996543,0.0014100801599989008,-0.010552098229526807,-0.0021753190349983248
0.295,-3.3322630399720635e-05,-0.7848116050000001,9.283251999992668e-05,-2.3561600399999993,-7.533171299976517e-05,1.5709478700000001,0.78596931,0.0399999709,0.0399999604,-9.811882400000005,-0.006457353569561092,-0.00676467693999527,0.0014418788399984958,-0.01056985165923744,-0.002223779789997708
0.2975,-3.9228927199645436e-05,-0.7848087775000001,9.438255999990695e-05,-2.3561671199999994,-8.029647149970196e-05,1.5709474350000001,0.785968455,0.039999970450000005,0.039999959200000004,-9.811761200000008,-0.006585646700106278,-0.006864692319993996,0.001473677519998091,-0.010587605088948075,-0.002272240544997091
0.3,-4.5135223999570236e-05,-0.7848059500000002,9.593259999988722e-05,-2.3561741999999994,-8.526122999963874e-05,1.570947,0.7859676000000001,0.03999997,0.039999958,-9.81164000000001,-0.006713939830651465,-0.006964707699992722,0.0015054761999976863,-0.010605358518658708,-0.002320701299996474
0.3025,-5.193538999969692e-05,-0.7848036625000001,9.771675339992049e-05,-2.3561816399999995,-9.097685999974526e-05,1.5709465800000002,0.7859664540000001,0.03999997,0.039999958,-9.811541900000005,-0.006839096732432012,-0.007057042194995885,0.0015393891449984886,-0.010619009844958102,-0.0023734662149976484
0.305,-5.873555599988865e-05,-0.784801375,9.950090679997078e-05,-2.3561890799999996,-9.669248999990642e-05,1.57094616,0.785965308,0.03999997,0.039999958,-9.811443800000003,-0.00696425363421233,-0.007149376689998489,0.0015733020899994447,-0.010632661171257198,-0.002426231129999136
0.3075,-6.553572200008038e-05,-0.7847990874999999,0.00010128506020002109,-2.35619652,-0.00010240812000006757,1.57094574,0.785964162,0.03999997,0.039999958,-9.811345699999999,-0.0070894105359926496,-0.007241711185001092,0.001607215035000401,-0.010646312497556291,-0.002478996045000624
0.31,-7.233588800027211e-05,-0.7847967999999999,0.0001030692136000714,-2.35620396,-0.00010812375000022872,1.57094532,0.785963016,0.03999997,0.039999958,-9.811247599999996,-0.007214567437772969,-0.007334045680003696,0.001641127980001357,-0.010659963823855386,-0.0025317609600021117
0.3125,-7.913605400046385e-05,-0.7847945124999998,0.00010485336700012169,-2.3562114000000003,-0.00011383938000038987,1.5709449,0.78596187,0.03999997,0.039999958,-9.811149499999994,-0.007339724339553287,-0.007426380175006299,0.0016750409250023133,-0.010673615150154482,-0.0025845258750035994
0.315,-8.593622000065558e-05,-0.7847922249999998,0.000106637520400172,-2.356218840000001,-0.00011955501000055102,1.57094448,0.7859607239999999,0.03999997,0.039999958,-9.81105139999999,-0.0074648812413336055,-0.007518714670008902,0.0017089538700032695,-0.010687266476453575,-0.002637290790005087
0.3175,-9.305815930086165e-05,-0.7847901124999997,0.00010850593120022601,-2.356226330000001,-0.00012554090000072417,1.57094405,0.7859595769999999,0.03999997015,0.0399999581,-9.810950849999989,-0.007595450012028979,-0.007613452550011046,0.0017439940950041382,-0.010699483146891942,-0.0026914605950063225
0.32,-0.00010082364520076279,-0.7847883499999998,0.00011054285680020008,-2.3562339200000006,-0.00013206731000064108,1.5709435999999999,0.7859584279999999,0.039999970600000004,0.0399999584,-9.81084539999999,-0.007736842520548849,-0.007712997200009778,0.0017812888800036635,-0.010708830505610337,-0.0027484401800055972
0.3225,-0.00010858913110066391,-0.7847865874999999,0.00011257978240017414,-2.3562415100000007,-0.000138593720000558,1.57094315,0.7859572789999999,0.03999997105,0.039999958700000005,-9.810739949999991,-0.007878235029068719,-0.00781254185000851,0.0018185836650031885,-0.010718177864328734,-0.0028054197650048715
0.325,-0.00011635461700056505,-0.7847848249999998,0.00011461670800014822,-2.3562491000000008,-0.0001451201300004749,1.5709427,0.78595613,0.0399999715,0.039999959,-9.810634499999992,-0.008019627537588588,-0.007912086500007243,0.0018558784500027137,-0.01072752522304713,-0.002862399350004146
0.3275,-0.00012412010290046617,-0.7847830624999999,0.00011665363360012227,-2.3562566900000004,-0.0001516465400003918,1.57094225,0.7859549809999999,0.039999971950000004,0.0399999593,-9.810529049999994,-0.008161020046108459,-0.008011631150005975,0.0018931732350022388,-0.010736872581765526,-0.0029193789350034204
0.33,-0.0001318855888003673,-0.7847812999999999,0.00011869055920009635,-2.3562642800000004,-0.00015817295000030871,1.5709418,0.785953832,0.0399999724,0.0399999596,-9.810423599999995,-0.008302412554628328,-0.008111175800004708,0.001930468020001764,-0.010746219940483921,-0.002976358520002695
0.3325,-0.00013965107470026845,-0.7847795375,0.00012072748480007041,-2.3562718700000005,-0.00016469936000022562,1.57094135,0.785952683,0.03999997285,0.0399999599,-9.810318149999997,-0.008443805063148197,-0.00821072045000344,0.0019677628050012892,-0.010755567299202318,-0.0030333381050019694
0.335,-0.00014810804500027227,-0.7847781349999999,0.0001229454890000714,-2.3562795200000006,-0.00017180650500022882,1.5709409,0.78595135,0.039999973,0.03999996,-9.810189899999996,-0.008596832584594573,-0.00831094720000311,0.002006447910001218,-0.01076127523556355,-0.0030931446200018935
0.3375,-0.0001569107575002803,-0.7847769124999999,0.0001252540325000735,-2.3562872000000006,-0.00017920401750023555,1.57094045,0.785949925,0.039999973,0.03999996,-9.810050249999996,-0.008755677612503407,-0.008411515000003202,0.002045828175001254,-0.010765163460746447,-0.0031543646000019494
0.34,-0.0001657134700002883,-0.7847756899999999,0.0001275625760000756,-2.3562948800000005,-0.00018660153000024229,1.57094,0.7859485,0.039999973,0.03999996,-9.809910599999995,-0.008914522640412242,-0.008512082800003293,0.0020852084400012896,-0.010769051685929346,-0.003215584580002005
0.3425,-0.0001745161825002963,-0.7847744674999999,0.0001298711195000777,-2.3563025600000005,-0.00019399904250024902,1.57093955,0.785947075,0.039999973,0.03999996,-9.809770949999995,-0.009073367668321076,-0.008612650600003385,0.0021245887050013257,-0.010772939911112245,-0.0032768045600020607
0.34500000000000003,-0.00018331889500030433,-0.7847732449999999,0.00013217966300007981,-2.3563102400000004,-0.00020139655500025575,1.5709391000000001,0.78594565,0.039999973,0.03999996,-9.809631299999996,-0.00923221269622991,-0.008713218400003477,0.0021639689700013614,-0.010776828136295144,-0.0033380245400021166
0.34750000000000003,-0.00019212160750031233,-0.7847720225,0.00013448820650008192,-2.3563179200000004,-0.00020879406750026248,1.57093865,0.785944225,0.039999973,0.03999996,-9.809491649999995,-0.009391057724138747,-0.008813786200003568,0.002203349235001397,-0.010780716361478043,-0.0033992445200021724
0.35000000000000003,-0.00020092432000036074,-0.7847708,0.0001367967500000946,-2.3563256000000004,-0.00021619158000030312,1.5709382,0.7859427999999999,0.039999973,0.03999996,-9.809351999999995,-0.00954990275204737,-0.008914354000003401,0.002242729500001554,-0.010784604586660723,-0.0034604645000023784
0.3525,-0.00021083645200036953,-0.784770065,0.0001393957775000969,-2.35633418,-0.00022452069000031052,1.57093772,0.785941261,0.0399999736,0.03999996,-9.809202749999995,-0.009702981309970932,-0.009007811350003484,0.0022854435150015924,-0.010782520845532271,-0.0035258129000024364
0.355,-0.00022074858400037857,-0.7847693299999999,0.00014199480500009926,-2.3563427600000004,-0.0002328498000003181,1.5709372400000001,0.785939722,0.0399999742,0.03999996,-9.809053499999996,-0.009856059867894496,-0.009101268700003568,0.002328157530001631,-0.010780437104403821,-0.0035911613000024958
0.3575,-0.0002306607160003876,-0.784768595,0.00014459383250010161,-2.3563513400000002,-0.00024117891000032568,1.57093676,0.785938183,0.0399999748,0.03999996,-9.808904249999994,-0.01000913842581806,-0.009194726050003654,0.00237087154500167,-0.010778353363275369,-0.0036565097000025555
0.36,-0.00024057284800039661,-0.78476786,0.000147192860000104,-2.3563599200000005,-0.00024950802000033327,1.57093628,0.785936644,0.0399999754,0.03999996,-9.808754999999994,-0.010162216983741625,-0.009288183400003739,0.0024135855600017093,-0.010776269622146917,-0.003721858100002615
0.3625,-0.0002504849800004056,-0.784767125,0.00014979188750010637,-2.3563685000000003,-0.00025783713000034086,1.5709358,0.785935105,0.039999976,0.03999996,-9.808605749999995,-0.010315295541665189,-0.009381640750003825,0.002456299575001748,-0.010774185881018465,-0.0037872065000026742
0.365,-0.0002603971120004147,-0.78476639,0.00015239091500010872,-2.3563770800000006,-0.00026616624000034845,1.57093532,0.785933566,0.0399999766,0.03999996,-9.808456499999995,-0.010468374099588753,-0.00947509810000391,0.002499013590001787,-0.010772102139890013,-0.003852554900002734
0.3675,-0.0002707031475004742,-0.78476583,0.00015509307600012433,-2.3563857350000004,-0.0002748261645003984,1.57093482,0.785931968,0.039999977,0.03999996,-9.8083417,-0.010631231265150266,-0.009570921300004299,0.0025425534950019317,-0.010769362375139922,-0.003919365875002981
0.37,-0.0002817969900004843,-0.78476562,0.00015800150400012696,-2.35639454,-0.0002841477180004069,1.57093428,0.785930252,0.039999977,0.03999996,-9.808295799999998,-0.010813645645983942,-0.00967147620000439,0.0025877451800019728,-0.010765310563146804,-0.003989102000003044
0.3725,-0.0002928908325004944,-0.78476541,0.00016090993200012962,-2.3564033450000004,-0.0002934692715004154,1.57093374,0.7859285359999999,0.039999977,0.03999996,-9.808249899999998,-0.01099606002681762,-0.00977203110000448,0.0026329368650020142,-0.010761258751153685,-0.004058838125003108
0.375,-0.00030398467500050453,-0.7847651999999999,0.00016381836000013228,-2.35641215,-0.0003027908250004239,1.5709332,0.7859268199999999,0.039999977,0.03999996,-9.808203999999998,-0.011178474407651295,-0.009872586000004572,0.0026781285500020553,-0.010757206939160565,-0.004128574250003171
0.3775,-0.0003150785175005146,-0.78476499,0.0001667267880001349,-2.3564209550000004,-0.0003121123785004324,1.57093266,0.7859251039999999,0.039999977,0.03999996,-9.808158099999998,-0.011360888788484971,-0.009973140900004665,0.0027233202350020963,-0.010753155127167447,-0.004198310375003235
0.38,-0.00032617236000052473,-0.7847647799999999,0.00016963521600013757,-2.35642976,-0.0003214339320004409,1.57093212,0.785923388,0.039999977,0.03999996,-9.808112199999998,-0.011543303169318647,-0.010073695800004756,0.0027685119200021374,-0.010749103315174329,-0.0042680465000032985
0.3825,-0.0003372662025005348,-0.78476457,0.0001725436440001402,-2.3564385650000004,-0.0003307554855004494,1.57093158,0.785921672,0.039999977,0.03999996,-9.808066299999998,-0.011725717550152325,-0.010174250700004847,0.0028137036050021784,-0.010745051503181209,-0.004337782625003362
0.385,-0.0003491960520006065,-0.78476472,0.000175670926000159,-2.3564479800000004,-0.00034077887500050957,1.57093074,0.7859197649999999,0.039999977,0.0399999598,-9.807959399999994,-0.011903496831664058,-0.010272144200004742,0.0028607081900023533,-0.010737480781971901,-0.004410273000003628
0.3875,-0.0003615439050006177,-0.78476505,0.00017890763500016192,-2.3564577000000004,-0.00035115318250051903,1.5709297500000001,0.7859177624999999,0.039999977,0.0399999595,-9.807821999999994,-0.012078958563515329,-0.01036870700000483,0.002908619225002397,-0.010728150606154884,-0.004484140500003696
0.39,-0.000373891758000629,-0.7847653800000001,0.00018214434400016488,-2.3564674200000004,-0.00036152749000052843,1.57092876,0.78591576,0.039999977,0.039999959200000004,-9.807684599999993,-0.012254420295366598,-0.01046526980000492,0.0029565302600024403,-0.010718820430337865,-0.004558008000003762
0.3925,-0.00038623961100064025,-0.7847657100000001,0.00018538105300016782,-2.3564771400000004,-0.0003719017975005379,1.57092777,0.7859137574999999,0.039999977,0.0399999589,-9.807547199999993,-0.012429882027217867,-0.010561832600005006,0.003004441295002484,-0.010709490254520846,-0.00463187550000383
0.395,-0.0003985874640006515,-0.78476604,0.00018861776200017078,-2.3564868600000004,-0.0003822761050005473,1.57092678,0.7859117549999999,0.039999977,0.0399999586,-9.807409799999993,-0.012605343759069137,-0.010658395400005094,0.0030523523300025274,-0.010700160078703828,-0.004705743000003897
0.3975,-0.0004109353170006627,-0.78476637,0.00019185447100017371,-2.3564965800000004,-0.00039265041250055675,1.57092579,0.7859097525,0.039999977,0.0399999583,-9.807272399999993,-0.012780805490920406,-0.010754958200005181,0.003100263365002571,-0.01069082990288681,-0.004779610500003964
0.4,-0.00042328317000074633,-0.7847667,0.00019509118000019562,-2.3565063000000004,-0.00040302472000062697,1.5709248,0.7859077499999999,0.039999977,0.039999958,-9.807134999999999,-0.012956267222773469,-0.010851521000005204,0.0031481744000027884,-0.010681499727069778,-0.0048534780000042705
0.4025,-0.00043695715950075876,-0.7847675100000001,0.00019867508200019886,-2.3565162900000005,-0.00041451271300063745,1.570923795,0.7859056124999999,0.03999997745,0.0399999583,-9.807092549999998,-0.013164593419071655,-0.010946865650005291,0.0031992667400028347,-0.01067194016650262,-0.004931735550004342
0.405,-0.0004506311490007712,-0.7847683200000001,0.00020225898400020212,-2.3565262800000006,-0.0004260007060006479,1.57092279,0.7859034749999999,0.0399999779,0.0399999586,-9.807050099999998,-0.013372919615369839,-0.011042210300005377,0.0032503590800028815,-0.01066238060593546,-0.0050099931000044135
0.40750000000000003,-0.0004643051385007837,-0.78476913,0.00020584288600020538,-2.3565362700000008,-0.00043748869900065834,1.570921785,0.7859013374999999,0.03999997835,0.0399999589,-9.807007649999997,-0.013581245811668023,-0.011137554950005464,0.003301451420002928,-0.010652821045368303,-0.005088250650004485
0.41000000000000003,-0.0004779791280007961,-0.78476994,0.00020942678800020865,-2.356546260000001,-0.0004489766920006688,1.57092078,0.7858991999999999,0.039999978799999995,0.039999959200000004,-9.806965199999997,-0.01378957200796621,-0.011232899600005552,0.0033525437600029745,-0.010643261484801145,-0.005166508200004556
0.41250000000000003,-0.0004916531175008086,-0.7847707500000001,0.0002130106900002119,-2.3565562500000006,-0.0004604646850006793,1.570919775,0.7858970624999999,0.03999997925,0.0399999595,-9.806922749999996,-0.013997898204264394,-0.011328244250005637,0.003403636100003021,-0.010633701924233985,-0.005244765750004627
0.41500000000000004,-0.000505327107000821,-0.78477156,0.00021659459200021517,-2.3565662400000007,-0.00047195267800068975,1.57091877,0.7858949249999999,0.0399999797,0.0399999598,-9.806880299999996,-0.014206224400562578,-0.011423588900005725,0.0034547284400030676,-0.010624142363666827,-0.005323023300004699
0.4175,-0.0005194671015009183,-0.7847725320000001,0.00022030048800024066,-2.3565765450000007,-0.00048383192300077146,1.5709177650000001,0.7858927249999998,0.03999998,0.03999996,-9.80680409999999,-0.014412068715331215,-0.011523211950006591,0.003506636735003262,-0.010612691519780927,-0.005402731265005034
0.42,-0.000534539106000932,-0.7847738280000001,0.00022425037200024425,-2.356587480000001,-0.000496493672000783,1.57091676,0.7858903999999999,0.03999998,0.03999996,-9.806660399999991,-0.014612949267042123,-0.01163139180000669,0.003560176940003311,-0.010597458109258578,-0.0054853400600051085
0.4225,-0.0005496111105009457,-0.784775124,0.00022820025600024785,-2.3565984150000006,-0.0005091554210007945,1.570915755,0.7858880749999999,0.03999998,0.03999996,-9.80651669999999,-0.01481382981875303,-0.011739571650006789,0.0036137171450033594,-0.01058222469873623,-0.0055679488550051835
0.425,-0.0005646831150009595,-0.78477642,0.00023215014000025144,-2.3566093500000007,-0.000521817170000806,1.57091475,0.7858857499999998,0.03999998,0.03999996,-9.80637299999999,-0.015014710370463938,-0.011847751500006887,0.0036672573500034084,-0.01056699128821388,-0.005650557650005259
0.4275,-0.0005797551195009732,-0.784777716,0.00023610002400025504,-2.356620285000001,-0.0005344789190008175,1.570913745,0.7858834249999999,0.03999998,0.03999996,-9.806229299999991,-0.015215590922174844,-0.011955931350006985,0.003720797555003457,-0.01055175787769153,-0.005733166445005334
0.43,-0.0005948271240009869,-0.7847790120000001,0.00024004990800025863,-2.3566312200000006,-0.0005471406680008291,1.57091274,0.7858810999999998,0.03999998,0.03999996,-9.80608559999999,-0.015416471473885753,-0.012064111200007083,0.003774337760003506,-0.010536524467169182,-0.005815775240005409
0.4325,-0.0006098991285010006,-0.7847803080000001,0.00024399979200026223,-2.3566421550000007,-0.0005598024170008406,1.570911735,0.7858787749999998,0.03999998,0.03999996,-9.80594189999999,-0.015617352025596661,-0.01217229105000718,0.0038278779650035544,-0.010521291056646833,-0.005898384035005484
0.435,-0.0006259508100012637,-0.7847819500000002,0.0002482061480003311,-2.356653320000001,-0.0005732867200010616,1.5709107199999999,0.7858762839999998,0.039999980399999996,0.039999961,-9.805856499999996,-0.01584157254548677,-0.012287048800009017,0.0038831311300042866,-0.010504494607447186,-0.005983808240006634
0.4375,-0.0006424923300015045,-0.7847837650000001,0.00025254074000039423,-2.356664600000001,-0.0005871823000012637,1.5709096999999999,0.7858737099999997,0.039999981,0.0399999625,-9.805800249999995,-0.01607746304946298,-0.012405095500010736,0.003939240775005103,-0.010486916638909126,-0.006070640150007897
0.44,-0.0006590338500017452,-0.7847855800000002,0.0002568753320004573,-2.356675880000001,-0.000601077880001466,1.5709086799999998,0.7858711359999997,0.0399999816,0.039999964,-9.805743999999994,-0.016313353553439186,-0.012523142200012454,0.00399535042000592,-0.010469338670371066,-0.006157472060009161
0.4425,-0.000675575370001986,-0.7847873950000003,0.0002612099240005204,-2.3566871600000012,-0.0006149734600016682,1.5709076599999998,0.7858685619999997,0.0399999822,0.039999965500000005,-9.805687749999993,-0.016549244057415393,-0.012641188900014172,0.004051460065006736,-0.010451760701833004,-0.006244303970010425
0.445,-0.0006921168900022266,-0.7847892100000002,0.00026554451600058345,-2.3566984400000015,-0.0006288690400018704,1.5709066399999998,0.7858659879999996,0.0399999828,0.039999967000000004,-9.805631499999993,-0.0167851345613916,-0.01275923560001589,0.004107569710007553,-0.010434182733294944,-0.006331135880011688
0.4475,-0.0007086584100024673,-0.7847910250000003,0.00026987910800064656,-2.3567097200000013,-0.0006427646200020727,1.5709056199999998,0.7858634139999996,0.0399999834,0.039999968500000004,-9.805575249999992,-0.01702102506536781,-0.012877282300017608,0.004163679355008369,-0.010416604764756882,-0.006417967790012952
0.45,-0.0007251999300029603,-0.7847928400000004,0.00027421370000077565,-2.356721000000002,-0.0006566602000024866,1.5709045999999998,0.7858608399999996,0.039999984,0.03999997,-9.805518999999977,-0.017256915569342515,-0.012995329000018306,0.004219789000009655,-0.010399026796217924,-0.006504799700014899
0.4525,-0.0007432819905027301,-0.7847951830000004,0.00027895158800071533,-2.356733225000002,-0.0006718490650022932,1.5709035499999997,0.7858579779999996,0.039999984,0.03999997,-9.805381899999979,-0.017483634874258865,-0.013107153700016883,0.004278765190008904,-0.010375957563515963,-0.00659580324501374
0.455,-0.0007613640510024998,-0.7847975260000004,0.000283689476000655,-2.356745450000002,-0.0006870379300020998,1.5709024999999999,0.7858551159999996,0.039999984,0.03999997,-9.805244799999981,-0.017710354179175214,-0.01321897840001546,0.004337741380008153,-0.010352888330814,-0.006686806790012581
0.4575,-0.0007794461115022696,-0.7847998690000003,0.0002884273640005947,-2.3567576750000017,-0.0007022267950019065,1.5709014499999998,0.7858522539999996,0.039999984,0.03999997,-9.805107699999983,-0.017937073484091563,-0.013330803100014036,0.004396717570007402,-0.01032981909811204,-0.006777810335011423
0.46,-0.0007975281720020394,-0.7848022120000003,0.0002931652520005344,-2.3567699000000015,-0.0007174156600017131,1.5709003999999998,0.7858493919999996,0.039999984,0.03999997,-9.804970599999985,-0.01816379278900791,-0.013442627800012612,0.0044556937600066515,-0.01030674986541008,-0.006868813880010264
0.4625,-0.0008156102325018092,-0.7848045550000002,0.0002979031400004741,-2.3567821250000014,-0.0007326045250015197,1.57089935,0.7858465299999997,0.039999984,0.03999997,-9.804833499999987,-0.01839051209392426,-0.013554452500011189,0.0045146699500059,-0.010283680632708117,-0.006959817425009105
0.465,-0.000833692293001579,-0.7848068980000003,0.0003026410280004137,-2.3567943500000013,-0.0007477933900013263,1.5708982999999999,0.7858436679999997,0.039999984,0.03999997,-9.804696399999989,-0.018617231398840608,-0.013666277200009765,0.00457364614000515,-0.010260611400006156,-0.0070508209700079465
0.4675,-0.0008523113900015584,-0.7848094045000003,0.00030751948750040834,-2.356806935000001,-0.000763433037001309,1.570897235,0.7858407289999997,0.039999984200000005,0.03999997,-9.804580399999995,-0.01885592751207039,-0.01378071195000947,0.004633571490004892,-0.010236605862153478,-0.007143074300007498
0.47000000000000003,-0.0008720045600015764,-0.7848122380000002,0.000312679090000413,-2.356820240000001,-0.0007799742480013241,1.5708961399999999,0.7858376359999997,0.0399999848,0.03999997,-9.804506599999995,-0.019118577241918545,-0.013900366800009578,0.004695395160004948,-0.010210727714000029,-0.007237827200007585
0.47250000000000003,-0.0008916977300015943,-0.7848150715000003,0.0003178386925004177,-2.356833545000001,-0.0007965154590013391,1.5708950449999999,0.7858345429999998,0.0399999854,0.03999997,-9.804432799999994,-0.0193812269717667,-0.014020021650009687,0.0047572188300050045,-0.01018484956584658,-0.0073325801000076705
0.47500000000000003,-0.0009113909000016122,-0.7848179050000003,0.00032299829500042243,-2.356846850000001,-0.0008130566700013542,1.5708939499999999,0.7858314499999998,0.039999986,0.03999997,-9.804358999999994,-0.019643876701614854,-0.014139676500009796,0.004819042500005061,-0.010158971417693131,-0.007427333000007757
0.47750000000000004,-0.0009310840700016301,-0.7848207385000002,0.0003281578975004271,-2.3568601550000015,-0.0008295978810013692,1.5708928549999999,0.7858283569999998,0.0399999866,0.03999997,-9.804285199999994,-0.01990652643146301,-0.014259331350009905,0.004880866170005117,-0.010133093269539683,-0.007522085900007844
0.48,-0.0009507772400016476,-0.7848235720000003,0.0003333175000004317,-2.3568734600000014,-0.0008461390920013839,1.5708917599999999,0.7858252639999997,0.0399999872,0.03999997,-9.804211399999993,-0.020169176161311156,-0.01437898620001001,0.004942689840005172,-0.010107215121386235,-0.007616838800007928
0.4825,-0.0009704704100016655,-0.7848264055000003,0.00033847710250043637,-2.3568867650000014,-0.000862680303001399,1.570890665,0.7858221709999997,0.0399999878,0.03999997,-9.804137599999994,-0.02043182589115931,-0.014498641050010119,0.0050045135100052285,-0.010081336973232786,-0.007711591700008014
0.485,-0.0009912841700018271,-0.7848295950000003,0.0003439300630004787,-2.3569007600000016,-0.0008801623660015347,1.5708893499999999,0.7858189109999998,0.039999988,0.03999997,-9.804084799999996,-0.020691900514088313,-0.014619000400010318,0.005068109760005512,-0.01005406975745912,-0.0078092712000084755
0.4875,-0.0010126582250018466,-0.7848329625000003,0.0003495297025004838,-2.3569151000000015,-0.0008981148550015511,1.5708879249999999,0.7858155674999997,0.039999988,0.03999997,-9.804042499999996,-0.020950687583558236,-0.01473971200001043,0.005132592300005571,-0.010026108007875609,-0.007908414000008565
0.49,-0.0010340322800018661,-0.7848363300000003,0.0003551293420004889,-2.3569294400000014,-0.0009160673440015674,1.5708864999999999,0.7858122239999997,0.039999988,0.03999997,-9.804000199999996,-0.021209474653028155,-0.014860423600010539,0.00519707484000563,-0.009998146258292099,-0.008007556800008656
0.4925,-0.0010554063350018857,-0.7848396975000004,0.000360728981500494,-2.3569437800000013,-0.0009340198330015837,1.5708850749999999,0.7858088804999998,0.039999988,0.03999997,-9.803957899999997,-0.021468261722498074,-0.01498113520001065,0.005261557380005688,-0.009970184508708587,-0.008106699600008746
0.495,-0.001076780390001905,-0.7848430650000003,0.0003663286210004991,-2.356958120000001,-0.0009519723220016,1.5708836499999999,0.7858055369999998,0.039999988,0.03999997,-9.803915599999996,-0.021727048791967993,-0.01510184680001076,0.005326039920005747,-0.009942222759125078,-0.008205842400008836
0.4975,-0.0010981544450019245,-0.7848464325000003,0.0003719282605005042,-2.3569724600000015,-0.0009699248110016164,1.5708822249999999,0.7858021934999997,0.039999988,0.03999997,-9.803873299999996,-0.021985835861437916,-0.015222558400010869,0.005390522460005806,-0.009914261009541566,-0.008304985200008927
0.5,-0.0011195285000021031,-0.7848498000000004,0.0003775279000005509,-2.3569868000000014,-0.0009878773000017663,1.5708807999999999,0.7857988499999997,0.039999988,0.03999997,-9.803830999999995,-0.022244622930911187,-0.015343270000011582,0.005455005000006099,-0.009886299259957959,-0.00840412800000936
0.5025000000000001,-0.0011426526050021246,-0.7848536850000004,0.0003835856545005566,-2.3570015000000013,-0.0010072988500017845,1.5708792249999999,0.7857952379999997,0.039999988,0.039999968500000004,-9.803770999999996,-0.022540266346213502,-0.015470612800011701,0.005522066655006161,-0.009857272868973282,-0.008507051550009456
0.505,-0.0011657767100021453,-0.7848575700000003,0.000389643409000562,-2.3570162000000012,-0.0010267204000018017,1.57087765,0.7857916259999996,0.039999988,0.039999967000000004,-9.803710999999995,-0.022835909761515807,-0.015597955600011815,0.005589128310006221,-0.009828246477988606,-0.008609975100009548
0.5075000000000001,-0.0011889008150021668,-0.7848614550000004,0.0003957011635005676,-2.3570309000000016,-0.0010461419500018198,1.570876075,0.7857880139999996,0.039999988,0.039999965500000005,-9.803650999999995,-0.023131553176818122,-0.015725298400011932,0.005656189965006284,-0.00979922008700393,-0.008712898650009644
0.51,-0.0012120249200021874,-0.7848653400000004,0.000401758918000573,-2.3570456000000015,-0.001065563500001837,1.5708745,0.7857844019999997,0.039999988,0.039999964,-9.803590999999994,-0.023427196592120426,-0.015852641200012046,0.0057232516200063435,-0.009770193696019254,-0.008815822200009735
0.5125,-0.0012351490250022078,-0.7848692250000003,0.0004078166725005784,-2.3570603000000014,-0.0010849850500018543,1.5708729249999998,0.7857807899999997,0.039999988,0.0399999625,-9.803530999999994,-0.023722840007422728,-0.01597998400001216,0.005790313275006403,-0.009741167305034578,-0.008918745750009827
0.515,-0.0012582731300022293,-0.7848731100000004,0.00041387442700058404,-2.3570750000000014,-0.0011044066000018725,1.5708713499999998,0.7857771779999996,0.039999988,0.039999961,-9.803470999999995,-0.024018483422725043,-0.016107326800012277,0.005857374930006465,-0.009712140914049901,-0.009021669300009923
0.5175,-0.001282003380002427,-0.7848771650000004,0.00042009084850063577,-2.3570900800000016,-0.0011243370300020382,1.5708697699999998,0.7857734714999995,0.0399999878,0.0399999599,-9.803381999999985,-0.024312437325744243,-0.016236052000012793,0.005925298685006777,-0.009681294392790989,-0.009126027900010433
0.52,-0.0013069459200024502,-0.7848815600000004,0.00042662460400064183,-2.3571059200000017,-0.0011452852200020578,1.5708681799999997,0.7857695759999996,0.0399999872,0.0399999596,-9.803234999999985,-0.024603012204198724,-0.016367542000012916,0.005994946640006842,-0.009646807610985192,-0.009233256600010533
0.5225,-0.0013318884600024724,-0.7848859550000004,0.0004331583595006476,-2.3571217600000014,-0.0011662334100020764,1.5708665899999998,0.7857656804999996,0.0399999866,0.0399999593,-9.803087999999985,-0.02489358708265319,-0.01649903200001303,0.0060645945950069035,-0.009612320829179396,-0.009340485300010628
0.525,-0.0013568310000024956,-0.7848903500000004,0.00043969211500065374,-2.3571376000000015,-0.001187181600002096,1.5708649999999997,0.7857617849999996,0.039999986,0.039999959,-9.802940999999985,-0.025184161961107673,-0.016630522000013154,0.006134242550006969,-0.009577834047373598,-0.009447714000010729
0.5275,-0.0013817735400025177,-0.7848947450000004,0.00044622587050065953,-2.3571534400000016,-0.0012081297900021146,1.5708634099999998,0.7857578894999996,0.0399999854,0.039999958700000005,-9.802793999999984,-0.02547473683956214,-0.016762012000013274,0.00620389050500703,-0.009543347265567804,-0.009554942700010824
0.53,-0.001406716080002541,-0.7848991400000004,0.00045275962600066564,-2.3571692800000017,-0.0012290779800021342,1.5708618199999997,0.7857539939999996,0.0399999848,0.0399999584,-9.802646999999984,-0.02576531171801662,-0.016893502000013397,0.006273538460007095,-0.009508860483762007,-0.009662171400010924
0.5325,-0.0014316586200025631,-0.7849035350000004,0.00045929338150067143,-2.3571851200000014,-0.0012500261700021528,1.5708602299999999,0.7857500984999997,0.039999984200000005,0.0399999581,-9.802499999999984,-0.02605588659647109,-0.017024992000013513,0.006343186415007158,-0.009474373701956211,-0.00976940010001102
0.535,-0.0014578584900027819,-0.7849083000000004,0.00046615627400072875,-2.3572016700000016,-0.0012720297600023365,1.5708586099999997,0.7857460099999996,0.0399999833,0.0399999569,-9.802406899999992,-0.02637403067204814,-0.017166266300015158,0.006414584090007495,-0.009438256826247821,-0.009879178850011517
0.5375,-0.0014846870250028058,-0.7849132500000005,0.000473183735000735,-2.357218575000002,-0.0012945610500023565,1.5708569749999999,0.7857418249999996,0.03999998225,0.039999955250000004,-9.802340749999992,-0.026705959346180065,-0.01731243275001529,0.006486856625007559,-0.009401324903588512,-0.009990232625011615
0.54,-0.0015115155600028307,-0.7849182000000006,0.00048021119600074154,-2.3572354800000017,-0.0013170923400023776,1.5708553399999998,0.7857376399999996,0.0399999812,0.0399999536,-9.802274599999992,-0.027037888020312005,-0.017458599200015423,0.0065591291600076256,-0.009364392980929203,-0.01010128640001172
0.5425,-0.0015383440950028546,-0.7849231500000006,0.0004872386570007478,-2.357252385000002,-0.0013396236300023975,1.5708537049999998,0.7857334549999996,0.03999998015,0.03999995195,-9.802208449999993,-0.027369816694443928,-0.017604765650015553,0.00663140169500769,-0.009327461058269895,-0.010212340175011816
0.545,-0.0015651726300028796,-0.7849281000000006,0.0004942661180007543,-2.357269290000002,-0.0013621549200024184,1.57085207,0.7857292699999996,0.0399999791,0.0399999503,-9.802142299999993,-0.027701745368575868,-0.017750932100015687,0.006703674230007757,-0.009290529135610586,-0.01032339395001192
0.5475,-0.0015920011650029035,-0.7849330500000006,0.0005012935790007605,-2.357286195000002,-0.0013846862100024386,1.5708504349999999,0.7857250849999996,0.03999997805,0.03999994865,-9.802076149999992,-0.02803367404270779,-0.017897098550015818,0.0067759467650078216,-0.009253597212951277,-0.010434447725012019
0.55,-0.0016188297000031416,-0.7849380000000006,0.0005083210400008229,-2.357303100000002,-0.0014072175000026384,1.5708487999999998,0.7857208999999996,0.039999977,0.039999947,-9.802009999999994,-0.028365602716838842,-0.018043265000015532,0.0068482193000081616,-0.009216665290291678,-0.010545501500012563
0.5525,-0.0016476107550031673,-0.7849434900000006,0.0005158596365008296,-2.3573211600000024,-0.0014313879300026598,1.570847105,0.7857164089999995,0.039999977,0.0399999464,-9.801955249999994,-0.028689385019278344,-0.01818557630001566,0.006922994195008228,-0.009177073650057653,-0.010660597475012665
0.555,-0.001676391810003194,-0.7849489800000006,0.0005233982330008366,-2.3573392200000023,-0.0014555583600026824,1.5708454099999998,0.7857119179999995,0.039999977,0.0399999458,-9.801900499999993,-0.029013167321717864,-0.018327887600015795,0.006997769090008298,-0.009137482009823627,-0.010775693450012773
0.5575,-0.0017051728650032197,-0.7849544700000006,0.0005309368295008433,-2.357357280000002,-0.001479728790002704,1.5708437149999999,0.7857074269999995,0.039999977,0.039999945200000005,-9.801845749999993,-0.029336949624157366,-0.01847019890001592,0.0070725439850083645,-0.009097890369589601,-0.010890789425012875
0.56,-0.0017339539200032464,-0.7849599600000006,0.0005384754260008503,-2.357375340000002,-0.0015038992200027265,1.57084202,0.7857029359999995,0.039999977,0.039999944600000004,-9.801790999999994,-0.029660731926596882,-0.018612510200016055,0.007147318880008434,-0.009058298729355574,-0.011005885400012983
0.5625,-0.001762734975003272,-0.7849654500000006,0.000546014022500857,-2.357393400000002,-0.0015280696500027478,1.5708403249999998,0.7856984449999995,0.039999977,0.039999944,-9.801736249999994,-0.029984514229036384,-0.01875482150001618,0.007222093775008501,-0.00901870708912155,-0.011120981375013085
0.5650000000000001,-0.0017915160300032988,-0.7849709400000006,0.000553552619000864,-2.357411460000002,-0.0015522400800027703,1.57083863,0.7856939539999995,0.039999977,0.0399999434,-9.801681499999994,-0.030308296531475903,-0.018897132800016314,0.00729686867000857,-0.008979115448887522,-0.011236077350013193
0.5675,-0.0018209698800035576,-0.7849766135000007,0.0005612673255009318,-2.3574299050000023,-0.0015769752700029876,1.5708368099999999,0.7856893569999995,0.03999997715,0.039999943350000004,-9.801622449999993,-0.030642861221026753,-0.01904326095001776,0.007372477170008926,-0.008938642172137932,-0.011352501250013755
0.5700000000000001,-0.0018517693200035862,-0.7849826540000007,0.0005693342520009393,-2.3574491200000023,-0.0016028399800030117,1.5708347399999998,0.7856845479999995,0.0399999776,0.0399999444,-9.801554799999993,-0.03099899068478913,-0.019197022800017907,0.0074497528800089976,-0.008896405622358123,-0.011471581000013865
0.5725,-0.0018825687600036137,-0.7849886945000007,0.0005774011785009465,-2.3574683350000023,-0.0016287046900030347,1.57083267,0.7856797389999994,0.039999978049999996,0.039999945450000005,-9.801487149999993,-0.03135512014855149,-0.019350784650018042,0.007527028590009067,-0.008854169072578315,-0.011590660750013972
0.5750000000000001,-0.0019133682000036423,-0.7849947350000007,0.000585468105000954,-2.3574875500000023,-0.0016545694000030587,1.5708305999999999,0.7856749299999994,0.0399999785,0.0399999465,-9.801419499999993,-0.03171124961231387,-0.019504546500018184,0.007604304300009138,-0.008811932522798506,-0.011709740500014082
0.5775,-0.0019441676400036698,-0.7850007755000007,0.0005935350315009612,-2.3575067650000023,-0.0016804341100030817,1.5708285299999998,0.7856701209999994,0.03999997895,0.03999994755,-9.801351849999993,-0.03206737907607623,-0.019658308350018323,0.007681580010009207,-0.008769695973018698,-0.011828820250014188
0.58,-0.001974967080003697,-0.7850068160000008,0.0006016019580009684,-2.3575259800000024,-0.0017062988200031047,1.5708264599999997,0.7856653119999994,0.039999979399999996,0.0399999486,-9.801284199999992,-0.03242350853983859,-0.019812070200018458,0.0077588557200092756,-0.00872745942323889,-0.011947900000014295
0.5825,-0.002005766520003726,-0.7850128565000007,0.0006096688845009759,-2.3575451950000024,-0.0017321635300031287,1.5708243899999998,0.7856605029999995,0.03999997985,0.03999994965,-9.801216549999992,-0.03277963800360097,-0.0199658320500186,0.007836131430009347,-0.00868522287345908,-0.012066979750014405
0.585,-0.002037954600004007,-0.7850192730000009,0.0006180993440010495,-2.3575651900000025,-0.0017591939700033648,1.5708222699999999,0.7856554659999995,0.039999981,0.039999953,-9.801147799999992,-0.03316093981270818,-0.02012257350001928,0.00791512300000973,-0.008642153814429671,-0.012188938500015038
0.5875,-0.0020708370000040374,-0.7850258775000009,0.0006267115700010575,-2.3575855750000025,-0.0017868072750033906,1.5708201249999998,0.7856503149999994,0.039999982499999996,0.0399999575,-9.801078499999992,-0.03355482779448096,-0.020280804750019428,0.007994972500009806,-0.008598668500775685,-0.012312336750015153
0.59,-0.0021037194000040668,-0.7850324820000009,0.0006353237960010652,-2.3576059600000026,-0.001814420580003415,1.5708179799999997,0.7856451639999994,0.039999983999999995,0.039999962,-9.801009199999992,-0.03394871577625373,-0.02043903600001957,0.008074822000009876,-0.008555183187121701,-0.012435735000015262
0.5925,-0.0021366018000040974,-0.7850390865000009,0.0006439360220010732,-2.3576263450000026,-0.0018420338850034408,1.5708158349999997,0.7856400129999994,0.0399999855,0.0399999665,-9.800939899999992,-0.03434260375802652,-0.020597267250019716,0.00815467150000995,-0.008511697873467715,-0.012559133250015377
0.595,-0.0021694842000041267,-0.7850456910000009,0.0006525482480010809,-2.3576467300000026,-0.0018696471900034653,1.5708136899999996,0.7856348619999994,0.039999987,0.039999970999999995,-9.80087059999999,-0.03473649173979929,-0.02075549850001986,0.008234521000010021,-0.008468212559813733,-0.012682531500015486
0.5975,-0.0022023666000041573,-0.7850522955000009,0.0006611604740010889,-2.3576671150000026,-0.0018972604950034911,1.5708115449999998,0.7856297109999993,0.0399999885,0.0399999755,-9.800801299999991,-0.035130379721572076,-0.020913729750020007,0.008314370500010096,-0.008424727246159747,-0.012805929750015602
0.6,-0.00223524900000446,-0.7850589000000009,0.000669772700001168,-2.3576875000000026,-0.001924873800003745,1.5708093999999997,0.7856245599999994,0.03999999,0.03999998,-9.800731999999993,-0.03552426770334266,-0.02107196100002094,0.008394220000010479,-0.008381241932505426,-0.012929328000016149
0.6025,-0.0022702780800044923,-0.785066085000001,0.0006789468650011766,-2.3577090550000026,-0.0019542888300037725,1.5708072249999996,0.7856190714999993,0.03999999075,0.039999982249999996,-9.800674399999993,-0.03590096719567833,-0.021236411400021093,0.008476517800010555,-0.008335108356544389,-0.013056166350016267
0.605,-0.0023053071600045234,-0.7850732700000009,0.0006881210300011848,-2.3577306100000026,-0.0019837038600037985,1.5708050499999997,0.7856135829999993,0.0399999915,0.0399999845,-9.800616799999993,-0.03627766668801398,-0.021400861800021237,0.008558815600010629,-0.008288974780583352,-0.01318300470001638
0.6075,-0.0023403362400045563,-0.7850804550000009,0.0006972951950011934,-2.3577521650000026,-0.0020131188900038262,1.5708028749999998,0.7856080944999994,0.03999999225,0.03999998675,-9.800559199999991,-0.036654366180349646,-0.02156531220002139,0.008641113400010706,-0.008242841204622315,-0.013309843050016498
0.61,-0.0023753653200045874,-0.785087640000001,0.0007064693600012014,-2.357773720000003,-0.002042533920003852,1.5708006999999997,0.7856026059999993,0.039999993000000005,0.039999989,-9.800501599999992,-0.03703106567268529,-0.021729762600021536,0.008723411200010777,-0.008196707628661279,-0.01343668140001661
0.6125,-0.00241039440000462,-0.7850948250000009,0.00071564352500121,-2.357795275000003,-0.0020719489500038795,1.5707985249999998,0.7855971174999993,0.039999993750000004,0.039999991250000005,-9.800443999999992,-0.03740776516502096,-0.02189421300002169,0.008805709000010854,-0.00815057405270024,-0.013563519750016729
0.615,-0.002445423480004651,-0.7851020100000009,0.0007248176900012182,-2.357816830000003,-0.0021013639800039055,1.5707963499999997,0.7855916289999993,0.039999994500000004,0.039999993500000004,-9.800386399999992,-0.03778446465735661,-0.022058663400021838,0.008888006800010928,-0.008104440476739205,-0.013690358100016842
0.6175,-0.0024811890300049794,-0.785109385000001,0.000734184625001304,-2.357838770000003,-0.0021313961000041805,1.5707941549999997,0.7855860234999993,0.039999995,0.039999995,-9.800320149999989,-0.038178445212600234,-0.022229463650024536,0.008971132050011335,-0.00805728412232631,-0.013818260550017386
0.62,-0.0025184275200050123,-0.785117140000001,0.0007439371000013126,-2.357861480000003,-0.0021626624000042082,1.5707919199999998,0.7855801839999993,0.039999995,0.039999995,-9.80023659999999,-0.038606987893639005,-0.0224129636000247,0.009055912200011411,-0.008008082211010938,-0.013948291200017502
0.6225,-0.002555666010005047,-0.785124895000001,0.0007536895750013218,-2.357884190000003,-0.0021939287000042377,1.5707896849999998,0.7855743444999992,0.039999995,0.039999995,-9.800153049999988,-0.0390355305746778,-0.02259646355002487,0.009140692350011491,-0.007958880299695562,-0.014078321850017624
0.625,-0.0025929045000050804,-0.7851326500000011,0.0007634420500013305,-2.3579069000000032,-0.0022251950000042654,1.5707874499999999,0.7855685049999992,0.039999995,0.039999995,-9.800069499999989,-0.03946407325571656,-0.022779963500025036,0.009225472500011565,-0.007909678388380187,-0.01420835250001774
0.6275000000000001,-0.002630142990005115,-0.785140405000001,0.0007731945250013395,-2.3579296100000033,-0.0022564613000042944,1.5707852149999997,0.7855626654999992,0.039999995,0.039999995,-9.79998594999999,-0.03989261593675535,-0.022963463450025205,0.009310252650011645,-0.007860476477064811,-0.01433838315001786
0.63,-0.002667381480005148,-0.7851481600000011,0.0007829470000013482,-2.3579523200000034,-0.0022877276000043225,1.5707829799999997,0.7855568259999992,0.039999995,0.039999995,-9.799902399999988,-0.040321158617794124,-0.023146963400025367,0.009395032800011721,-0.007811274565749438,-0.014468413800017975
0.6325000000000001,-0.002704619970005183,-0.785155915000001,0.0007926994750013574,-2.3579750300000035,-0.0023189939000043515,1.5707807449999998,0.7855509864999992,0.039999995,0.039999995,-9.799818849999989,-0.040749701298832916,-0.02333046335002554,0.0094798129500118,-0.007762072654434062,-0.014598444450018096
0.635,-0.002743372390005534,-0.7851640700000011,0.0008028482600014493,-2.3579985800000034,-0.0023515313400046464,1.5707783199999996,0.7855449219999991,0.039999994500000004,0.039999995,-9.799747099999992,-0.04117328301078017,-0.02350958470002478,0.00956618390001221,-0.007710886048145652,-0.014731046600018753
0.6375000000000001,-0.002782881775005571,-0.7851724250000012,0.0008131952000014589,-2.3580225500000034,-0.0023847043500046772,1.5707757999999996,0.7855387449999991,0.039999993750000004,0.039999995,-9.799681249999992,-0.04159438423818325,-0.023686516750024946,0.00965335025001229,-0.007658707094371343,-0.014864934500018877
0.64,-0.002822391160005606,-0.7851807800000011,0.0008235421400014681,-2.3580465200000034,-0.0024178773600047067,1.5707732799999996,0.7855325679999992,0.039999993000000005,0.039999995,-9.799615399999992,-0.04201548546558631,-0.023863448800025104,0.009740516600012369,-0.007606528140597036,-0.014998822400018997
0.6425,-0.002861900545005641,-0.7851891350000012,0.0008338890800014773,-2.358070490000004,-0.0024510503700047362,1.5707707599999996,0.7855263909999991,0.03999999225,0.039999995,-9.799549549999991,-0.042436586692989366,-0.024040380850025262,0.009827682950012446,-0.00755434918682273,-0.015132710300019116
0.645,-0.0029014099300056777,-0.7851974900000012,0.000844236020001487,-2.358094460000004,-0.002484223380004767,1.5707682399999996,0.785520213999999,0.0399999915,0.039999995,-9.79948369999999,-0.04285768792039245,-0.024217312900025427,0.009914849300012527,-0.0075021702330484216,-0.01526659820001924
0.6475,-0.002940919315005713,-0.7852058450000012,0.0008545829600014962,-2.3581184300000038,-0.0025173963900047966,1.5707657199999996,0.7855140369999991,0.03999999075,0.039999995,-9.79941784999999,-0.0432787891477955,-0.02439424495002558,0.010002015650012604,-0.007449991279274115,-0.015400486100019359
0.65,-0.002980428700006089,-0.7852142000000013,0.0008649299000015947,-2.3581424000000037,-0.0025505694000051127,1.5707631999999996,0.785507859999999,0.03999999,0.039999995,-9.79935199999999,-0.04369989037520651,-0.02457117700002795,0.010089182000013007,-0.007397812325499546,-0.015534374000020014
0.6525,-0.0030222693550061262,-0.7852231250000012,0.0008758871825016043,-2.358167855000004,-0.002585702205005144,1.5707604699999995,0.785501310999999,0.0399999897,0.03999999575,-9.79927294999999,-0.044175471179256895,-0.02476323655002812,0.010178560550013087,-0.007343840831882793,-0.015671901350020136
0.655,-0.0030641100100061653,-0.7852320500000013,0.0008868444650016146,-2.358193310000004,-0.002620835010005177,1.5707577399999997,0.785494761999999,0.0399999894,0.0399999965,-9.79919389999999,-0.044651051983307294,-0.0249552961000283,0.01026793910001317,-0.007289869338266038,-0.015809428700020264
0.6575,-0.003105950665006202,-0.7852409750000013,0.0008978017475016242,-2.3582187650000037,-0.002655967815005208,1.5707550099999996,0.7854882129999989,0.0399999891,0.03999999725,-9.79911484999999,-0.04512663278735768,-0.025147355650028468,0.01035731765001325,-0.007235897844649284,-0.01594695605002039
0.66,-0.003147791320006241,-0.7852499000000013,0.0009087590300016345,-2.358244220000004,-0.002691100620005241,1.5707522799999996,0.785481663999999,0.0399999888,0.039999998,-9.79903579999999,-0.04560221359140808,-0.025339415200028647,0.010446696200013332,-0.007181926351032529,-0.016084483400020517
0.6625,-0.0031896319750062785,-0.7852588250000013,0.0009197163125016442,-2.358269675000004,-0.002726233425005272,1.5707495499999997,0.785475114999999,0.0399999885,0.03999999875,-9.79895674999999,-0.04607779439545846,-0.02553147475002882,0.010536074750013412,-0.007127954857415776,-0.016222010750020638
0.665,-0.0032314726300063175,-0.7852677500000013,0.0009306735950016544,-2.3582951300000037,-0.0027613662300053046,1.5707468199999997,0.7854685659999989,0.0399999882,0.0399999995,-9.79887769999999,-0.04655337519950887,-0.025723534300028997,0.010625453300013495,-0.007073983363799021,-0.016359538100020766
0.6675,-0.0032741101200067175,-0.7852768725000014,0.0009418394725017592,-2.358321095000004,-0.0027971678250056403,1.5707440749999997,0.7854618949999989,0.039999988,0.04,-9.798817699999997,-0.04702397547669245,-0.02591713200002987,0.010715606200013928,-0.007019674428730269,-0.016498131450021374
0.67,-0.003318341280006759,-0.7852863900000014,0.00095342254000177,-2.3583480800000043,-0.002834307000005675,1.5707412999999997,0.7854549799999989,0.039999988,0.04,-9.798795799999997,-0.047484614700149266,-0.026113806000030052,0.010807307800014014,-0.006964690610757978,-0.016638856800021504
0.6725,-0.0033625724400067982,-0.7852959075000014,0.0009650056075017803,-2.358375065000004,-0.002871446175005708,1.5707385249999997,0.7854480649999989,0.039999988,0.04,-9.798773899999997,-0.04794525392360607,-0.026310480000030226,0.010899009400014094,-0.006909706792785689,-0.01677958215002163
0.675,-0.0034068036000068393,-0.7853054250000014,0.000976588675001791,-2.358402050000004,-0.0029085853500057427,1.5707357499999997,0.7854411499999989,0.039999988,0.04,-9.798751999999997,-0.04840589314706288,-0.02650715400003041,0.01099071100001418,-0.006854722974813398,-0.016920307500021763
0.6775,-0.0034510347600068786,-0.7853149425000014,0.0009881717425018013,-2.3584290350000043,-0.0029457245250057757,1.5707329749999996,0.7854342349999989,0.039999988,0.04,-9.798730099999997,-0.048866532370519675,-0.026703828000030586,0.011082412600014262,-0.006799739156841109,-0.017061032850021886
0.68,-0.00349526592000692,-0.7853244600000016,0.0009997548100018122,-2.358456020000004,-0.0029828637000058104,1.5707301999999994,0.7854273199999989,0.039999988,0.04,-9.798708199999997,-0.04932717159397649,-0.02690050200003077,0.011174114200014348,-0.006744755338868817,-0.017201758200022017
0.6825,-0.0035394970800069593,-0.7853339775000016,0.0010113378775018225,-2.358483005000004,-0.0030200028750058433,1.5707274249999994,0.7854204049999989,0.039999988,0.04,-9.798686299999996,-0.04978781081743328,-0.027097176000030945,0.011265815800014428,-0.006689771520896529,-0.01734248355002214
0.685,-0.003585360590007388,-0.7853438950000017,0.0010233482900019347,-2.3585109200000045,-0.003058511780006203,1.5707245899999995,0.7854132239999988,0.039999988,0.04,-9.79863989999999,-0.050288580730639805,-0.02730842440003459,0.011359000950014866,-0.006633439147835867,-0.017485467700022808
0.6875,-0.0036320402750074296,-0.7853540125000017,0.0010355723750019457,-2.3585393000000043,-0.003097705550006238,1.5707217249999994,0.7854059099999988,0.039999988,0.04,-9.798581249999991,-0.050809415988706925,-0.027526960000034784,0.01145292787501495,-0.006576432497231502,-0.017629581250022938
0.6900000000000001,-0.0036787199600074733,-0.7853641300000016,0.001047796460001957,-2.3585676800000046,-0.003136899320006275,1.5707188599999995,0.7853985959999988,0.039999988,0.04,-9.798522599999991,-0.05133025124677407,-0.027745495600034985,0.011546854800015037,-0.0065194258466271336,-0.01777369480002307
0.6925,-0.0037253996450075147,-0.7853742475000016,0.0010600205450019679,-2.3585960600000044,-0.0031760930900063093,1.5707159949999996,0.7853912819999989,0.039999988,0.04,-9.79846394999999,-0.05185108650484118,-0.02796403120003518,0.01164078172501512,-0.006462419196022768,-0.0179178083500232
0.6950000000000001,-0.003772079330007558,-0.7853843650000016,0.0010722446300019794,-2.3586244400000047,-0.003215286860006346,1.5707131299999997,0.7853839679999989,0.039999988,0.04,-9.79840529999999,-0.05237192176290832,-0.028182566800035384,0.011734708650015208,-0.0064054125454184,-0.018061921900023335
0.6975,-0.0038187590150075995,-0.7853944825000017,0.0010844687150019902,-2.3586528200000045,-0.003254480630006381,1.5707102649999996,0.7853766539999988,0.039999988,0.04,-9.79834664999999,-0.052892757020975435,-0.02840110240003558,0.011828635575015291,-0.006348405894814034,-0.018206035450023462
0.7000000000000001,-0.0038654387000080534,-0.7854046000000018,0.001096692800002109,-2.358681200000005,-0.0032936744000067616,1.5707073999999996,0.7853693399999988,0.039999988,0.04,-9.798287999999992,-0.05341359227904038,-0.028619638000035478,0.011922562500015747,-0.006291399244209299,-0.01835014900002414
0.7025,-0.003914623895008097,-0.7854153400000018,0.0011095728050021204,-2.358710855000005,-0.0033349707500067985,1.5707042199999994,0.7853616539999988,0.039999988,0.04,-9.798243449999992,-0.05392100252219441,-0.02883631915003567,0.012018741675015833,-0.006232152041037996,-0.018497576350024268
0.705,-0.003963809090008141,-0.7854260800000018,0.001122452810002132,-2.358740510000005,-0.003376267100006835,1.5707010399999994,0.7853539679999988,0.039999988,0.04,-9.798198899999992,-0.05442841276534844,-0.029053000300035863,0.012114920850015918,-0.0061729048378666935,-0.0186450037000244
0.7075,-0.004012994285008187,-0.7854368200000018,0.0011353328150021439,-2.358770165000005,-0.0034175634500068735,1.5706978599999994,0.7853462819999988,0.039999988,0.04,-9.798154349999992,-0.05493582300850249,-0.029269681450036066,0.012211100025016007,-0.006113657634695388,-0.01879243105002454
0.71,-0.00406217948000823,-0.7854475600000018,0.0011482128200021554,-2.358799820000005,-0.0034588598000069104,1.5706946799999995,0.7853385959999988,0.039999988,0.04,-9.798109799999992,-0.055443233251656523,-0.02948636260003626,0.012307279200016093,-0.006054410431524086,-0.01893985840002467
0.7125,-0.004111364675008276,-0.7854583000000018,0.0011610928250021673,-2.358829475000005,-0.0035001561500069486,1.5706914999999995,0.7853309099999988,0.039999988,0.04,-9.798065249999992,-0.055950643494810576,-0.02970304375003646,0.012403458375016184,-0.005995163228352781,-0.01908728575002481
0.715,-0.00416054987000832,-0.7854690400000017,0.0011739728300021789,-2.3588591300000052,-0.0035414525000069855,1.5706883199999995,0.7853232239999988,0.039999988,0.04,-9.798020699999991,-0.05645805373796461,-0.02991972490003665,0.01249963755001627,-0.005935916025181478,-0.019234713100024937
0.7175,-0.004210588800008802,-0.7854799900000019,0.0011870763450023047,-2.3588893050000053,-0.0035834651500073894,1.5706850999999993,0.7853154049999986,0.039999988,0.04,-9.797960949999984,-0.05698582939813268,-0.030141898050039657,0.012596506000016711,-0.005875991866913403,-0.019383220500025628
0.72,-0.004262335200008847,-0.785491360000002,0.0012006268800023169,-2.3589205200000056,-0.003626910400007428,1.5706817999999994,0.7853073199999986,0.039999988,0.04,-9.797870799999984,-0.057554335892297644,-0.030375055200039865,0.012694753000016797,-0.005814713798452823,-0.01953388800002576
0.7225,-0.004314081600008896,-0.7855027300000019,0.0012141774150023295,-2.3589517350000055,-0.0036703556500074686,1.5706784999999994,0.7852992349999987,0.039999988,0.04,-9.797780649999984,-0.05812284238646263,-0.03060821235004008,0.01279300000001689,-0.005753435729992241,-0.019684555500025902
0.725,-0.004365828000008941,-0.785514100000002,0.0012277279500023416,-2.3589829500000055,-0.003713800900007507,1.5706751999999993,0.7852911499999986,0.039999988,0.04,-9.797690499999984,-0.05869134888062759,-0.030841369500040287,0.012891247000016976,-0.005692157661531662,-0.019835223000026034
0.7275,-0.00441757440000899,-0.785525470000002,0.0012412784850023542,-2.3590141650000054,-0.0037572461500075477,1.5706718999999993,0.7852830649999986,0.039999988,0.04,-9.797600349999984,-0.05925985537479257,-0.031074526650040502,0.012989494000017069,-0.005630879593071079,-0.019985890500026176
0.73,-0.004469320800009035,-0.785536840000002,0.0012548290200023661,-2.3590453800000057,-0.0038006914000075862,1.5706685999999994,0.7852749799999985,0.039999988,0.04,-9.797510199999984,-0.059828361868957534,-0.03130768380004071,0.013087741000017155,-0.0055696015246104996,-0.02013655800002631
0.7325,-0.004521067200009084,-0.785548210000002,0.001268379555002379,-2.3590765950000057,-0.003844136650007627,1.5706652999999993,0.7852668949999986,0.039999988,0.04,-9.797420049999984,-0.06039686836312252,-0.03154084095004093,0.013185988000017246,-0.005508323456149918,-0.02028722550002645
0.735,-0.004574557240009097,-0.785560013000002,0.0012823865400023822,-2.3591088900000057,-0.0038890452200076374,1.5706619599999994,0.7852585199999985,0.039999988,0.04,-9.797369299999994,-0.06095663905153023,-0.03177525900003933,0.01328562990001679,-0.005445912992571141,-0.020440001700025745
0.7375,-0.004628919100008406,-0.7855720325000018,0.0012966217500022014,-2.359141725000005,-0.003934685450007058,1.5706585999999993,0.7852499999999987,0.039999988,0.04,-9.797338249999996,-0.06151204183706281,-0.03201030750003635,0.013385969250015515,-0.005382936331433712,-0.02059383225002379
0.74,-0.004683280960007713,-0.7855840520000017,0.0013108569600020197,-2.3591745600000045,-0.0039803256800064754,1.5706552399999996,0.7852414799999988,0.039999988,0.04,-9.797307199999995,-0.062067444622595364,-0.032245356000033344,0.013486308600014235,-0.005319959670296285,-0.020747662800021827
0.7425,-0.004737642820007022,-0.7855960715000015,0.0013250921700018387,-2.3592073950000043,-0.0040259659100058956,1.5706518799999996,0.7852329599999989,0.039999988,0.04,-9.797276149999997,-0.06262284740812793,-0.03248040450003036,0.013586647950012961,-0.005256983009158856,-0.02090149335001987
0.745,-0.004792004680006328,-0.7856080910000014,0.0013393273800016573,-2.3592402300000037,-0.004071606140005313,1.5706485199999995,0.785224439999999,0.039999988,0.04,-9.797245099999996,-0.06317825019366048,-0.032715453000027366,0.01368698730001168,-0.005194006348021429,-0.021055323900017908
0.7475,-0.004846366540005638,-0.7856201105000012,0.0013535625900014763,-2.359273065000003,-0.004117246370004733,1.5706451599999995,0.7852159199999991,0.039999988,0.04,-9.797214049999997,-0.06373365297919306,-0.032950501500024376,0.013787326650010406,-0.005131029686883999,-0.021209154450015952
0.75,-0.004900728400005187,-0.7856321300000011,0.0013677978000013584,-2.359305900000003,-0.004162886600004355,1.5706417999999998,0.7852073999999992,0.039999988,0.04,-9.797182999999995,-0.06428905576473133,-0.033185550000023344,0.013887666000009322,-0.0050680530257463845,-0.021362985000014274
0.7525000000000001,-0.004957759090006018,-0.7856447900000013,0.001382731755001576,-2.3593402650000037,-0.004210766000005053,1.5706382149999996,0.785198483999999,0.039999988,0.04,-9.797120599999994,-0.06490728259093129,-0.033442176900027085,0.013990165650010817,-0.0050030101556262216,-0.021519903150016558
0.755,-0.005014789780006847,-0.7856574500000015,0.001397665710001793,-2.359374630000004,-0.004258645400005748,1.5706346299999996,0.785189567999999,0.039999988,0.04,-9.797058199999993,-0.06552550941713121,-0.03369880380003081,0.014092665300012306,-0.004937967285506061,-0.02167682130001884
0.7575000000000001,-0.005071820470007678,-0.7856701100000016,0.0014125996650020105,-2.359408995000005,-0.0043065248000064464,1.5706310449999996,0.7851806519999988,0.039999988,0.04,-9.79699579999999,-0.06614373624333117,-0.03395543070003455,0.0141951649500138,-0.004872924415385898,-0.021833739450021126
0.76,-0.005128851160008507,-0.7856827700000019,0.0014275336200022277,-2.359443360000005,-0.004354404200007142,1.5706274599999994,0.7851717359999987,0.039999988,0.04,-9.79693339999999,-0.0667619630695311,-0.03421205760003828,0.014297664600015289,-0.004807881545265738,-0.021990657600023406
0.7625000000000001,-0.005185881850009338,-0.7856954300000021,0.0014424675750024452,-2.359477725000006,-0.00440228360000784,1.5706238749999994,0.7851628199999985,0.039999988,0.04,-9.796870999999989,-0.06738018989573105,-0.03446868450004202,0.014400164250016783,-0.004742838675145575,-0.022147575750025694
0.765,-0.0052429125400101665,-0.7857080900000022,0.0014574015300026623,-2.359512090000006,-0.004450163000008536,1.5706202899999995,0.7851539039999984,0.039999988,0.04,-9.796808599999988,-0.06799841672193098,-0.03472531140004575,0.014502663900018272,-0.0046777958050254155,-0.022304493900027974
0.7675000000000001,-0.005300850200011251,-0.7857209685000025,0.001472572925002946,-2.359546980000007,-0.004498803270009445,1.5706166049999992,0.7851448419999982,0.0399999878,0.03999999975,-9.796753999999991,-0.06861199066054272,-0.034981458550048056,0.014605794800019656,-0.0046121769118928225,-0.022462415050030115
0.77,-0.005360601800011304,-0.7857342840000024,0.00148821920000296,-2.359582920000007,-0.00454896528000949,1.5706127199999993,0.7851354879999982,0.0399999872,0.039999999,-9.796714999999992,-0.06921625882398587,-0.03523664620004828,0.01471018820001975,-0.004545405972736348,-0.022622342200030256
0.7725,-0.005420353400011357,-0.7857475995000025,0.0015038654750029739,-2.359618860000007,-0.004599127290009534,1.5706088349999994,0.7851261339999982,0.0399999866,0.03999999825,-9.796675999999993,-0.06982052698742902,-0.035491833850048504,0.014814581600019843,-0.004478635033579874,-0.022782269350030398
0.775,-0.005480105000011413,-0.7857609150000026,0.0015195117500029884,-2.359654800000007,-0.0046492893000095814,1.5706049499999992,0.7851167799999982,0.039999986,0.0399999975,-9.796636999999992,-0.07042479515087222,-0.03574702150004874,0.01491897500001994,-0.004411864094423397,-0.022942196500030546
0.7775,-0.005539856600011466,-0.7857742305000026,0.0015351580250030023,-2.359690740000007,-0.004699451310009626,1.5706010649999993,0.7851074259999983,0.0399999854,0.03999999675,-9.796597999999992,-0.07102906331431537,-0.03600220915004897,0.015023368400020031,-0.004345093155266922,-0.02310212365003069
0.78,-0.005599608200011521,-0.7857875460000026,0.001550804300003017,-2.359726680000007,-0.004749613320009672,1.5705971799999991,0.7850980719999983,0.0399999848,0.039999996,-9.796558999999993,-0.07163333147775855,-0.036257396800049205,0.01512776180002013,-0.004278322216110445,-0.02326205080003084
0.7825,-0.0056593598000115744,-0.7858008615000026,0.001566450575003031,-2.3597626200000072,-0.004799775330009717,1.5705932949999992,0.7850887179999982,0.039999984200000005,0.03999999525,-9.796519999999992,-0.0722375996412017,-0.03651258445004943,0.015232155200020222,-0.004211551276953971,-0.02342197795003098
0.785,-0.00572095892001217,-0.7858146150000027,0.0015825806000031868,-2.3597996100000076,-0.004851491030010218,1.5705893899999992,0.7850790929999981,0.0399999833,0.039999995,-9.796462899999987,-0.07288688123239241,-0.036781074700053554,0.015337881000020709,-0.004143993626335424,-0.023584012600031744
0.7875,-0.005783481800012225,-0.7858285875000027,0.0015989525000032012,-2.3598371250000074,-0.004903983575010264,1.5705854749999992,0.7850693324999981,0.03999998225,0.039999995,-9.796396749999987,-0.07355866953743717,-0.0370562162500538,0.015444273000020802,-0.0040760426199861885,-0.02374710100003189
0.79,-0.005846004680012284,-0.7858425600000027,0.0016153244000032165,-2.3598746400000072,-0.004956476120010313,1.5705815599999993,0.7850595719999981,0.0399999812,0.039999995,-9.796330599999987,-0.07423045784248199,-0.03733135780005405,0.015550665000020902,-0.00400809161363695,-0.02391018940003204
0.7925,-0.005908527560012339,-0.7858565325000028,0.001631696300003231,-2.3599121550000075,-0.00500896866501036,1.5705776449999993,0.7850498114999981,0.03999998015,0.039999995,-9.796264449999986,-0.07490224614752676,-0.0376064993500543,0.015657057000020996,-0.003940140607287715,-0.024073277800032187
0.795,-0.0059710504400123975,-0.7858705050000028,0.0016480682000032463,-2.3599496700000073,-0.005061461210010409,1.5705737299999993,0.7850400509999981,0.0399999791,0.039999995,-9.796198299999986,-0.07557403445257156,-0.03788164090005455,0.015763449000021097,-0.0038721896009384763,-0.024236366200032337
0.7975,-0.006033573320012453,-0.7858844775000028,0.001664440100003261,-2.3599871850000076,-0.005113953755010455,1.5705698149999994,0.7850302904999981,0.03999997805,0.039999995,-9.796132149999986,-0.07624582275761634,-0.0381567824500548,0.01586984100002119,-0.003804238594589241,-0.024399454600032483
0.8,-0.006096096200013075,-0.7858984500000029,0.001680812000003424,-2.360024700000008,-0.005166446300010978,1.5705658999999992,0.785020529999998,0.039999977,0.039999995,-9.79606599999999,-0.07691761106265747,-0.038431924000056475,0.015976233000021652,-0.0037362875882395053,-0.0245625430000331
0.8025,-0.0061614399800131335,-0.7859131215000029,0.0016979224250034393,-2.3600638950000077,-0.005221304465011027,1.5705618349999992,0.785010319499998,0.03999997805,0.039999995,-9.79602219999999,-0.07757110558463357,-0.03871415665005673,0.016084435950021746,-0.003665852569960783,-0.02472797275003325
0.805,-0.006226783760013194,-0.7859277930000029,0.0017150328500034552,-2.360103090000008,-0.005276162630011078,1.5705577699999993,0.785000108999998,0.0399999791,0.039999995,-9.79597839999999,-0.07822460010660968,-0.03899638930005699,0.016192638900021847,-0.0035954175516820573,-0.024893402500033406
0.8075,-0.006292127540013253,-0.785942464500003,0.0017321432750034703,-2.360142285000008,-0.005331020795011126,1.5705537049999991,0.7849898984999979,0.03999998015,0.039999995,-9.79593459999999,-0.07887809462858576,-0.03927862195005724,0.016300841850021945,-0.0035249825334033344,-0.025058832250033553
0.81,-0.0063574713200133135,-0.785957136000003,0.0017492537000034863,-2.360181480000008,-0.0053858789600111775,1.5705496399999992,0.784979687999998,0.0399999812,0.039999995,-9.795890799999992,-0.07953158915056188,-0.0395608546000575,0.016409044800022046,-0.003454547515124609,-0.025224262000033706
0.8125,-0.006422815100013372,-0.7859718075000031,0.0017663641250035016,-2.360220675000008,-0.005440737125011226,1.5705455749999992,0.7849694774999979,0.03999998225,0.039999995,-9.795846999999991,-0.08018508367253797,-0.03984308725005776,0.016517247750022144,-0.0033841124968458864,-0.025389691750033853
0.8150000000000001,-0.006488158880013433,-0.7859864790000031,0.0017834745500035175,-2.360259870000008,-0.005495595290011278,1.570541509999999,0.7849592669999979,0.0399999833,0.039999995,-9.795803199999991,-0.0808385781945141,-0.04012531990005802,0.016625450700022245,-0.003313677478567161,-0.025555121500034007
0.8175,-0.006554459015014083,-0.7860013620000031,0.0018008353550036877,-2.360299615000008,-0.005551256030011823,1.5705373249999992,0.7849489019999978,0.039999984,0.03999999525,-9.795756049999989,-0.08150930851712476,-0.040410514900060104,0.016734277400022726,-0.0032426017802058963,-0.025721603150034807
0.8200000000000001,-0.006622671860014147,-0.7860166680000031,0.0018186969200037044,-2.360340460000008,-0.005608521920011877,1.570532899999999,0.7849382279999978,0.039999984,0.039999996,-9.795702199999988,-0.08221451044097261,-0.04070163460006038,0.016844351600022827,-0.003170244721680734,-0.025890188600034964
0.8225,-0.006690884705014207,-0.7860319740000032,0.0018365584850037202,-2.3603813050000086,-0.005665787810011928,1.570528474999999,0.7849275539999978,0.039999984,0.03999999675,-9.795648349999988,-0.08291971236482043,-0.040992754300060635,0.016954425800022925,-0.0030978876631555744,-0.02605877405003511
0.8250000000000001,-0.006759097550014271,-0.7860472800000032,0.001854420050003737,-2.3604221500000087,-0.005723053700011981,1.570524049999999,0.7849168799999977,0.039999984,0.0399999975,-9.79559449999999,-0.08362491428866829,-0.04128387400006091,0.01706450000002303,-0.003025530604630412,-0.02622735950003527
0.8275,-0.006827310395014332,-0.7860625860000032,0.0018722816150037527,-2.3604629950000087,-0.005780319590012032,1.570519624999999,0.7849062059999977,0.039999984,0.03999999825,-9.795540649999989,-0.08433011621251611,-0.041574993700061166,0.017174574200023125,-0.002953173546105253,-0.02639594495003542
0.8300000000000001,-0.006895523240014395,-0.7860778920000032,0.0018901431800037694,-2.3605038400000087,-0.005837585480012085,1.5705151999999991,0.7848955319999977,0.039999984,0.039999999,-9.795486799999988,-0.08503531813636396,-0.04186611340006144,0.01728464840002323,-0.0028808164875800905,-0.026564530400035577
0.8325,-0.006963736085014455,-0.7860931980000033,0.0019080047450037853,-2.3605446850000087,-0.005894851370012136,1.5705107749999991,0.7848848579999977,0.039999984,0.03999999975,-9.795432949999988,-0.08574052006021178,-0.0421572331000617,0.017394722600023328,-0.0028084594290549315,-0.026733115850035728
0.835,-0.007033892780015137,-0.7861089800000034,0.0019263752400039637,-2.360586770000009,-0.005953749830012708,1.5705063099999992,0.7848738799999976,0.039999984,0.04,-9.795373299999987,-0.0864767223598172,-0.04246233530006642,0.01750606790002383,-0.0027355053927592614,-0.02690340070003642
0.8375,-0.007105021400015203,-0.7861250000000034,0.001945000200003981,-2.3606294750000094,-0.006013464575012764,1.5705018249999991,0.7848627499999976,0.039999984,0.04,-9.795310749999986,-0.08722842484728663,-0.042774428750066706,0.017618048750023933,-0.0026622528675786183,-0.02707453525003658
0.84,-0.007176150020015266,-0.7861410200000034,0.0019636251600039976,-2.3606721800000092,-0.006073179320012817,1.570497339999999,0.7848516199999976,0.039999984,0.04,-9.795248199999987,-0.08798012733475602,-0.043086522200066986,0.017730029600024035,-0.002589000342397978,-0.02724566980003673
0.8425,-0.007247278640015333,-0.7861570400000034,0.001982250120004015,-2.3607148850000095,-0.0061328940650128725,1.570492854999999,0.7848404899999976,0.039999984,0.04,-9.795185649999986,-0.08873182982222545,-0.04339861565006727,0.017842010450024138,-0.0025157478172173346,-0.02741680435003689
0.845,-0.007318407260015396,-0.7861730600000034,0.0020008750800040312,-2.3607575900000093,-0.006192608810012925,1.570488369999999,0.7848293599999976,0.039999984,0.04,-9.795123099999985,-0.08948353230969484,-0.04371070910006755,0.017953991300024237,-0.0024424952920366946,-0.027587938900037044
0.8475,-0.0073895358800154624,-0.7861890800000034,0.0020195000400040487,-2.3608002950000095,-0.0062523235550129815,1.570483884999999,0.7848182299999976,0.039999984,0.04,-9.795060549999986,-0.09023523479716428,-0.044022802550067845,0.018065972150024343,-0.002369242766856051,-0.027759073450037204
