rsonawane2002/My_IMU/logs_2/traj_490/clean_490.csv
time,j1,j2,j3,j4,j5,j6,j7,gripper1,gripper2,imu_ax,imu_ay,imu_az,imu_gx,imu_gy,imu_gz,quat_x,quat_y,quat_z,quat_w
2641.9833333393626,0.00016700293,-0.785875,4.0107683e-05,-2.3551247,9.29385e-05,1.570997,0.786,0.04,0.04,0.0,-0.0,0.0,2.875329272945135e-08,-0.0011641195053377316,4.421952117202833e-08,0.9999995971961153,0.00020320632366974898,0.0008736418299892524,3.263050917662294e-05
2642.0000000060295,0.00016700929,-0.78576016,4.0115527e-05,-2.3552213,9.2983224e-05,1.5709941,0.786,0.04,0.04,-0.2919984596576608,-4.71173530383845e-05,0.020128405703800922,-4.778324761533182e-07,-0.0022381868875656786,5.761183833753806e-07,0.9999996850590629,0.0002032051125753318,0.0007665025170063106,3.260902761924505e-05
2642.0166666726964,0.00016704007,-0.7856543,4.012924e-05,-2.35531,9.308833e-05,1.5709913,0.786,0.04,0.04,0.023328727755766998,-7.912093767215131e-05,-0.0016704528500444127,-3.874416262771221e-06,-0.003227397933544013,4.0020080923084675e-06,0.9999997558484686,0.00020318921926122985,0.0006677972382397357,3.261890494105727e-05
2642.0333333393633,0.0001671364,-0.785557,4.0159535e-05,-2.355391,9.335803e-05,1.5709884,0.786,0.04,0.04,0.022394876989051404,-0.0002149291364162407,-0.0014910973463955202,-1.2649578729633062e-05,-0.004136375077825305,1.2983428642212498e-05,0.9999998122716445,0.00020313428663032453,0.0005771683485006759,3.2708329648538094e-05
2642.05000000603,0.00016735794,-0.7854675,4.0221872e-05,-2.3554652,9.3943294e-05,1.5709856,0.786,0.04,0.04,0.020453087856364682,-0.0004115981914821381,-0.00142530170805788,-2.9700636814207944e-05,-0.004968394185063009,2.991127761723878e-05,0.9999998568681053,0.00020300505276646852,0.0004939303673605106,3.2947071424590554e-05
2642.066666672697,0.00016778088,-0.7853854,4.033593e-05,-2.3555324,9.504297e-05,1.5709827,0.786,0.04,0.039999995,0.01985900899286186,-0.000667306208243664,-0.0011098716208080006,-5.752450201806786e-05,-0.00573098268889924,5.770903725483306e-05,0.9999998916014982,0.00020275647699821307,0.0004178150368152416,3.3427500763026955e-05
2642.083333339364,0.0001684963,-0.7853099,4.0525352e-05,-2.3555975,9.6872674e-05,1.5709798,0.786,0.04,0.039999995,0.011029086577218905,-0.0009560290113715586,-0.0028610037291265655,-9.795094088263226e-05,-0.006424136489684396,9.675287442729416e-05,0.9999999190476694,0.00020233483705299038,0.00034611030492529053,3.424799741001412e-05
2642.1000000060308,0.00016960892,-0.785241,4.0817467e-05,-2.355656,9.967816e-05,1.570977,0.7859981,0.04,0.04,0.01859583445569246,-0.0012877900488204245,-0.0007608966890559898,-0.00015325239686106375,-0.007072421858078111,0.00014819472194903705,0.9999999397373946,0.00020072435713572447,0.0002810215292412885,3.552238019924361e-05
2642.1166666726976,0.0001712347,-0.78517795,4.124199e-05,-2.3557112,0.00010376395,1.5709741,0.7859962,0.04,0.04,0.011726617036011966,-0.0016776158433453561,-0.0019488046740345766,-0.00021683010480446225,-0.007655436942399335,0.00021708518992201298,0.9999999552494261,0.00019881039287509712,0.00022040285160849476,3.739193087545158e-05
2642.1333333393645,0.00017350056,-0.78512055,4.183181e-05,-2.3557618,0.00010944995,1.5709713,0.7859943,0.04,0.039999995,0.01436482656305138,-0.002095376688879405,-0.001095337414769304,-0.0002995438325750539,-0.008191795823571615,0.00030280403956057497,0.9999999662777705,0.0001965178893148819,0.00016499926607348075,4.000524015398828e-05
2642.1500000060314,0.00017654264,-0.7850684,4.2622192e-05,-2.3558114,0.000117062635,1.5709684,0.7859905,0.04,0.039999995,0.007420591562223855,-0.002530292994060851,-0.0025630731051551336,-0.0004025733591705241,-0.008675105322951912,0.00040566356308661185,0.9999999741148903,0.00019281287073450142,0.00011269478161936492,4.3512088742886784e-05
2642.1666666726983,0.00018050561,-0.78502125,4.365075e-05,-2.3558555,0.00012694224,1.5709655,0.78598666,0.04,0.04,0.01485484952705729,-0.0029888343009472386,-0.00039505070914547247,-0.0005196215918494498,-0.00912361603001066,0.0005261293136471453,0.9999999789125779,0.0001885633254747978,6.563505793346151e-05,4.807031504179526e-05
2642.183333339365,0.0001855408,-0.784979,4.495643e-05,-2.3558984,0.00013948731,1.5709627,0.78598094,0.04,0.04,0.007430048031631387,-0.0034984865417062995,-0.002247372791663871,-0.0006604970766931179,-0.009516748038213162,0.0006687404031773977,0.9999999816212394,0.00018272642200754737,2.1614686244400068e-05,5.38644688440811e-05
2642.200000006032,0.00019180647,-0.7849413,4.658023e-05,-2.3559408,0.00015507937,1.5709598,0.78597426,0.039999995,0.039999995,0.0058852452251567655,-0.0040059899677574035,-0.0023973703812130154,-0.0008182203437348606,-0.009874350927046931,0.0008314562227617378,0.9999999825050093,0.00017568556351645707,-1.9873073724112574e-05,6.107065344461834e-05
2642.216666672699,0.00019946593,-0.784908,4.8564467e-05,-2.3559828,0.00017411089,1.570957,0.78596663,0.03999999,0.04,0.005621794867227692,-0.004528921756743239,-0.0022609229608505643,-0.0009986407895595925,-0.010200978524369103,0.0010140638838545095,0.9999999818196247,0.00016734429177117272,-5.894751850813879e-05,6.987008292377858e-05
2642.233333339366,0.0002086871,-0.78487897,5.0952563e-05,-2.3560221,0.0001970069,1.5709541,0.7859571,0.039999988,0.039999995,0.009202008925646155,-0.005082810003019707,-0.001263050499389351,-0.001202895223837839,-0.01049712658832219,0.0012204900381334737,0.9999999799473664,0.00015712650904034633,-9.456562946321767e-05,8.046035340883917e-05
2642.2500000060327,0.00021964207,-0.7848541,5.3789063e-05,-2.35606,0.00022419056,1.5709512,0.78594565,0.039999984,0.03999999,0.007044641745346247,-0.005640695073010256,-0.0017288966866146893,-0.0014282329665961883,-0.010752976590770433,0.0014495664952887406,0.9999999770563764,0.00014493063422778776,-0.0001273831499215212,9.303703978897973e-05
2642.2666666726996,0.00023250602,-0.78483325,5.711917e-05,-2.3560975,0.0002560935,1.5709484,0.7859323,0.03999998,0.039999988,0.00522669704616785,-0.006209084998383342,-0.002054796033923445,-0.0016756928269854934,-0.010973684660453845,0.001701723487896692,0.999999973177766,0.00013065332376483777,-0.0001579664245151007,0.0001077997452781855
2642.2833333393664,0.00024745698,-0.78481627,6.0989012e-05,-2.3561354,0.00029315366,1.5709454,0.78591657,0.039999973,0.039999984,0.0034370691674778797,-0.006786295249423152,-0.002503921373642193,-0.0019465498772102702,-0.011163463613779982,0.001976454286593329,0.9999999682332414,0.00011395108480787228,-0.00018691158076023672,0.00012495089992177032
2642.3000000060333,0.00026467463,-0.78480315,6.544512e-05,-2.3561747,0.00033581536,1.5709424,0.78589827,0.039999966,0.039999977,0.0018548414880026343,-0.007370549230675924,-0.0028433712246700438,-0.0022395684894519785,-0.0113283955699401,0.002275758629785868,0.9999999620199517,9.462850745979093e-05,-0.00021463594839818173,0.00014469606210263408
2642.3166666727,0.00028434084,-0.7847939,7.053452e-05,-2.3562164,0.00038452543,1.5709392,0.78587735,0.039999958,0.03999997,0.0001595927446196299,-0.007959451782771604,-0.003449895975493611,-0.002555404895099622,-0.011470878419959753,0.0025989920181199023,0.999999954165382,7.254854357822162e-05,-0.0002417356851112652,0.0001672417445745807
2642.333333339367,0.00030663828,-0.78478855,7.6304445e-05,-2.3562584,0.00043973405,1.5709358,0.78585374,0.039999954,0.039999966,0.0038436654213436228,-0.008552694020885545,-0.0023978030806892647,-0.002894135890785074,-0.011596686327385598,0.0029463030953484253,0.9999999446176431,4.7573381165636116e-05,-0.0002670784251831643,0.00019279678084870098
2642.350000006034,0.0003317504,-0.78478694,8.2802384e-05,-2.3563013,0.0005018929,1.570931,0.7858273,0.03999995,0.03999996,0.0020447700270986857,-0.00914731330780765,-0.0037186534495692314,-0.0032571775448122877,-0.01169447316751092,0.003317791897838836,0.9999999326905226,1.950521738528506e-05,-0.00029179677934107733,0.00022156970986233476
2642.366666672701,0.000359861,-0.7847891,9.0076035e-05,-2.3563445,0.00057145435,1.5709243,0.7857976,0.03999995,0.039999966,0.0031854935885089475,-0.009743561703817452,-0.0035759841957583305,-0.003644276974869626,-0.011774679209425019,0.0037126394452292556,0.9999999179108393,-1.1943524245823599e-05,-0.0003156524376777287,0.00025376998480987123
2642.3833333393677,0.00039115362,-0.78479505,9.817275e-05,-2.3563907,0.00064887153,1.5709176,0.78576446,0.039999947,0.03999996,-0.0010426754877501665,-0.010338706101805517,-0.003564094840058374,-0.004054591406886731,-0.011833633166570434,0.004132559802154754,0.9999998994472598,-4.6999737399768805e-05,-0.00033915216249572023,0.0002896071577796159
2642.4000000060346,0.00042581183,-0.7848048,0.00010714007,-2.3564405,0.0007345955,1.5709108,0.78572786,0.039999947,0.039999966,-0.0018892575526008315,-0.010932849037462276,-0.0038693992004512623,-0.0044880980472174125,-0.01187765649967048,0.004575805343696369,0.9999998763684718,-8.577163076842657e-05,-0.0003625941429594231,0.000329289774845592
2642.4166666727015,0.00046401823,-0.7848185,0.00011702531,-2.3564913,0.00082907674,1.5709038,0.78568757,0.039999947,0.039999966,0.0025958636770129218,-0.011526098447611245,-0.002815168966541215,-0.0049453065511252,-0.011906967232891702,0.005043987350870686,0.9999998481751744,-0.00012848671292537632,-0.000384697025827623,0.0003730267967585247
2642.4333333393683,0.0005059544,-0.784836,0.00012787539,-2.3565457,0.00093276193,1.5708961,0.7856434,0.039999958,0.03999998,-0.0019711914272857456,-0.012112969376983076,-0.004263537886539659,-0.005425861046037857,-0.011909307937997602,0.005535276529241334,0.9999998131924128,-0.00017534101328084103,-0.0004069510918703437,0.00042102431945780617
2642.450000006035,0.00055180106,-0.7848574,0.00013973712,-2.3566039,0.0010460969,1.5708857,0.7855952,0.039999958,0.03999998,-0.003090412316053559,-0.012698394397074684,-0.006062526416084069,-0.005929960498311262,-0.011900119392843387,0.006051248219318867,0.9999997695346191,-0.00022653101719712022,-0.00043060821617994826,0.0004734880896829936
2642.466666672702,0.0006017376,-0.78488266,0.0001526569,-2.3566632,0.0011695229,1.5708752,0.78554255,0.039999958,0.03999998,0.0022717560364871048,-0.013280408204113248,-0.0027537594880389094,-0.0064575077887672385,-0.011889203160969046,0.006590853062272647,0.9999997167896809,-0.0002823414985406059,-0.00045292672971999714,0.0005306234198681722
2642.483333339369,0.000655941,-0.78491193,0.00016668066,-2.356729,0.0013034759,1.5708646,0.7854855,0.039999958,0.039999984,-0.006542538243570206,-0.013851040389648754,-0.00527355726707146,-0.007007262585246661,-0.011850567586846049,0.007153015650894586,0.9999996520723702,-0.00034287530663473526,-0.000476529477596153,0.0005926308460742629
2642.500000006036,0.0007145872,-0.78494525,0.00018185396,-2.3567963,0.0014483905,1.5708537,0.7854238,0.039999958,0.039999984,0.0019938808298425315,-0.01442357151748004,-0.0031483846785640424,-0.007579694933284831,-0.011808909491328796,0.007739227951714126,0.9999995745398336,-0.0004083570012927179,-0.000498943068724344,0.0006597124567331528
2642.5166666727027,0.00077785004,-0.7849828,0.00019822169,-2.3568697,0.001604693,1.5708413,0.78535724,0.03999996,0.03999999,-0.006320389779745916,-0.014981218005955888,-0.0063777327251379745,-0.008174627432162677,-0.011739882758876842,0.008347506724823955,0.9999994804908008,-0.0004790069483727226,-0.0005231181392268738,0.0007320641257531439
2642.5333333393696,0.00084590114,-0.7850247,0.00021582839,-2.3569465,0.0017728067,1.570827,0.78528565,0.03999996,0.03999999,-0.0014379997324898142,-0.015538125584237767,-0.005430265384953614,-0.008791635317328718,-0.01167164132737598,0.008979225196601381,0.9999993680281875,-0.0005549873316515814,-0.0005477436508740898,0.0008098822015780603
2642.5500000060365,0.0009189099,-0.78507066,0.00023471782,-2.3570282,0.0019531494,1.5708126,0.7852088,0.039999958,0.03999999,-0.004033440080730699,-0.016085007389477022,-0.004686618049842828,-0.00943005316621975,-0.011591867053014125,0.009632605563510772,0.9999992342652114,-0.0006365155888786281,-0.00057290924640316,0.0008933598891599474
2642.5666666727034,0.0009970432,-0.78512084,0.0002549332,-2.3571165,0.0021461316,1.5707977,0.7851267,0.039999958,0.039999995,-0.006374659441910069,-0.016621926973488244,-0.005705696474689326,-0.010089915822611751,-0.011499471436938878,0.010307953562678867,0.9999990756263953,-0.0007237190364491665,-0.0005994199180186897,0.0009826865589515111
2642.5833333393703,0.0010804654,-0.7851757,0.00027651724,-2.3572068,0.0023521602,1.5707806,0.78503895,0.039999954,0.03999999,0.0008535086173822037,-0.017156810927736275,-0.005261448197724228,-0.010771400654222522,-0.01140316241414787,0.011005871137561851,0.9999988894975498,-0.0008168469736078414,-0.0006257559907219519,0.001078051078970553
2642.600000006037,0.0011693382,-0.78523487,0.00029951162,-2.3573039,0.002571632,1.5707624,0.7849455,0.039999947,0.039999984,-0.006864083380886399,-0.01767339409660734,-0.006430734861417875,-0.011473168518832497,-0.011287571490062926,0.011725157330035563,0.9999986708907815,-0.0009160509341135926,-0.0006538549549989297,0.001179635983847872
2642.616666672704,0.0012638214,-0.7852985,0.00032395785,-2.3574078,0.0028049385,1.5707439,0.7848462,0.039999947,0.039999988,-0.006830466616314368,-0.018186208077227047,-0.0059044217547210565,-0.012195556377459733,-0.011170195414612206,0.01246462329258817,0.9999984158494841,-0.001021483471586241,-0.000683299950785206,0.0012876223114007689
2642.633333339371,0.0013640706,-0.78536683,0.0003498962,-2.3575144,0.003052468,1.5707244,0.7847409,0.039999947,0.03999999,0.00039903086155312906,-0.01869491002988409,-0.004705075257205316,-0.012937937092274466,-0.011048165840708158,0.013224735932102247,0.9999981210786131,-0.00113329950932553,-0.0007122734437702349,0.001402190431681276
2642.6500000060378,0.0014702401,-0.7854398,0.0003773666,-2.3576276,0.0033145957,1.5707023,0.78462934,0.039999947,0.039999995,-0.006930458119192018,-0.019182683771752553,-0.007609016027854132,-0.013700533211042103,-0.010902650856161246,0.014005103450640051,0.9999977795837401,-0.001251766518272786,-0.000743517499859528,0.0015235123564732202
2642.6666666727047,0.0015824797,-0.78551745,0.00040640793,-2.3577476,0.003591694,1.57068,0.7845114,0.03999995,0.04,-0.006142197507608138,-0.019666761950414002,-0.005966548712499353,-0.014482064759634365,-0.010760123412539737,0.014806165861609162,0.9999973867873775,-0.0013770004959008186,-0.000775870306213742,0.0016517606722301686
2642.6833333393715,0.0017009373,-0.78559995,0.00043705842,-2.3578749,0.0038841378,1.5706569,0.7843869,0.039999947,0.04,-0.007405709042807018,-0.02014766240516488,-0.0068144025872074465,-0.01528211010311697,-0.010608206796195212,0.01562598277404962,0.9999969363168174,-0.0015091770810150556,-0.0008099283291057935,0.0017871087316607961
2642.7000000060384,0.0018257577,-0.7856876,0.00046935552,-2.3580093,0.0041922685,1.570631,0.78425574,0.039999947,0.04,-0.007199398890245234,-0.020598809618324956,-0.008345778905560763,-0.016100918474709146,-0.010454083809021242,0.016464855977531476,0.9999964213124888,-0.0016484129709436728,-0.0008463477648108404,0.0019297130237118812
2642.7166666727053,0.0019570817,-0.7857801,0.0005033361,-2.3581471,0.0045164353,1.5706049,0.78411776,0.039999943,0.04,-0.0003820283569488936,-0.02105907391253296,-0.004539761499722239,-0.01693780292604611,-0.01030197357328196,0.017322443841197206,0.9999958373659017,-0.0017949117302308434,-0.0008821786081562732,0.0020797364383848423
2642.733333339372,0.0020950483,-0.78587765,0.00053903554,-2.3582919,0.004856982,1.5705777,0.78397286,0.039999936,0.04,-0.0063149416308139195,-0.021497258158989854,-0.0069926056724956,-0.01779223076371344,-0.010124579147961138,0.01819828049742635,0.9999951755840424,-0.0019487813988733947,-0.0009194480282920071,0.0022373365913404305
2642.750000006039,0.0022397928,-0.7859805,0.0005764892,-2.358444,0.005214237,1.570548,0.78382075,0.03999993,0.039999995,-0.00736818524913474,-0.021924353674575726,-0.008393454991839633,-0.01866452975764261,-0.00994161431365432,0.019091994752537537,0.9999944271450041,-0.002110251319438467,-0.000959020672049157,0.002402664698708515
2642.766666672706,0.002391446,-0.7860885,0.0006157312,-2.358603,0.005588525,1.5705179,0.7836614,0.039999925,0.039999988,-0.006105293875857676,-0.02234373292306288,-0.006585773337075551,-0.01955277296300816,-0.009759239623254338,0.020004942469824212,0.9999935848670749,-0.0022793958463161847,-0.0009997349917266402,0.0025758705748202136
2642.783333339373,0.0025501375,-0.7862018,0.00065679505,-2.3587697,0.0059801666,1.5704864,0.7834947,0.03999992,0.03999999,-0.0074396970450196775,-0.022755561398501815,-0.007618692813027295,-0.02045791645557714,-0.00956730168571488,0.02093137132605203,0.9999926390639478,-0.0024563799997349366,-0.001042306812746194,0.0027571020521731846
2642.8000000060397,0.0027159927,-0.7863207,0.00069971284,-2.358944,0.006389475,1.5704528,0.7833205,0.03999992,0.03999999,-0.007229800399954911,-0.02315429849443218,-0.00849796744972764,-0.0213788667383025,-0.009371712887310433,0.021877073577368986,0.9999915799655313,-0.002641337753817202,-0.0010869454203134893,0.002946503447130739
2642.8166666727066,0.0028891354,-0.78644496,0.00074451667,-2.3591259,0.0068167537,1.5704185,0.7831387,0.03999992,0.04,-0.007094111358552091,-0.023546048496666735,-0.00728674693903919,-0.02231541706989365,-0.009175232650617747,0.022837304441492116,0.9999903981473229,-0.002834368240523542,-0.001133085373240281,0.0031442149055886026
2642.8333333393734,0.003069683,-0.78657484,0.000791237,-2.3593154,0.0072622984,1.5703822,0.78294915,0.03999993,0.04,-0.007192610093520457,-0.023920482047156896,-0.008334781166041694,-0.023267561786489414,-0.008970542803483111,0.023814885326476253,0.9999890822926353,-0.0030356311021458183,-0.0011812041591584064,0.003350372528405308
2642.8500000060403,0.003257751,-0.78671026,0.0008399042,-2.3595126,0.0077263974,1.5703447,0.7827516,0.039999925,0.04,-0.007055398391120349,-0.02428781027350082,-0.00788283574475468,-0.024234532255141335,-0.008764595036338906,0.02480773697729824,0.9999876211756124,-0.0032453115171409536,-0.0012310341160215324,0.0035651092131642518
2642.866666672707,0.0034534528,-0.7868514,0.00089054747,-2.3597176,0.008209331,1.5703058,0.7825461,0.039999932,0.04,-0.007247204952554043,-0.024643514467711028,-0.008118619695318685,-0.025215292875168594,-0.008552283984238001,0.02581635607899749,0.9999860029641268,-0.0034634746978032148,-0.001282606034438288,0.003788553893954046
2642.883333339374,0.0036568975,-0.78699833,0.00094319467,-2.3599303,0.008711365,1.5702648,0.78233236,0.03999993,0.04,-0.007022700638015245,-0.0249822373393372,-0.0086959112744589,-0.026210154689090395,-0.0083347436832777,0.02683833089547832,0.999984214468526,-0.0036903047930479643,-0.001336188719977999,0.004020828770763771
2642.900000006041,0.0038681894,-0.78715104,0.0009978733,-2.3601508,0.009232778,1.5702227,0.78211045,0.039999932,0.04,-0.007071961532378879,-0.0253243736071853,-0.008033784477867734,-0.027217767957143386,-0.008113206453431367,0.027875847866080175,0.9999822432339798,-0.00392582970608072,-0.0013913661402966994,0.004262062660281477
2642.916666672708,0.004087432,-0.7873097,0.0010546102,-2.3603795,0.009773781,1.5701789,0.7818802,0.03999993,0.04,-0.007486654589472508,-0.02561133168392498,-0.00880745739799682,-0.0282387653172587,-0.00788561915454345,0.028923711571482498,0.9999800747537372,-0.004170199414618352,-0.00144852647798965,0.004512350096693465
2642.9333333393747,0.0043147258,-0.7874744,0.0011134311,-2.3606164,0.010334621,1.5701332,0.7816415,0.03999992,0.04,-0.007806294731826924,-0.025922406578227954,-0.00898235154376259,-0.029272295255928657,-0.007654939198229099,0.029984791068891205,0.9999776942057103,-0.004423530711328363,-0.001507760047185336,0.004771805393891726
2642.9500000060416,0.004550167,-0.78764504,0.0011743612,-2.3608615,0.010915536,1.5700862,0.78139436,0.039999917,0.04,-0.007296841838155821,-0.026220246625784267,-0.00852046658228467,-0.030317643616175068,-0.007420917840234409,0.031058650833102462,0.9999750871242372,-0.004685848034460821,-0.0015687404036467646,0.005040536937466691
2642.9666666727085,0.004793847,-0.7878217,0.0012374241,-2.361115,0.011516773,1.5700371,0.78113836,0.039999913,0.04,-0.007876908293225071,-0.02651511289601307,-0.009321239681514548,-0.03137560816720683,-0.007179804948585241,0.032146306301895605,0.9999722357566396,-0.004957443401923504,-0.0016319742495198362,0.005318658743829619
2642.9833333393753,0.005045855,-0.78800464,0.0013026427,-2.3613775,0.012138549,1.5699869,0.7808737,0.03999991,0.04,-0.008469060192339839,-0.02678307541152565,-0.00901640356596456,-0.03244348022856117,-0.006938737611944098,0.03324581409862663,0.9999691246065389,-0.005238243562545105,-0.0016971654476642597,0.005606270369417658
2643.0000000060422,0.005306279,-0.7881936,0.00137004,-2.3616486,0.012781065,1.5699348,0.78060025,0.03999991,0.04,-0.0081611575121876,-0.027040184752983448,-0.009329838905647314,-0.03352302608158468,-0.006691960512961823,0.03435512376116888,0.9999657354966409,-0.005528390579538063,-0.0017646128926221806,0.0059034626789145495
2643.016666672709,0.0055752005,-0.78838897,0.001439637,-2.3619282,0.013444531,1.5698811,0.7803178,0.039999913,0.04,-0.007602928653249741,-0.027292777016979172,-0.009427200769018818,-0.03461257579025475,-0.006443374652005857,0.035476212959186924,0.9999620504957664,-0.005828020465878453,-0.001833989613583307,0.006210332346103037
2643.033333339376,0.005852699,-0.78859067,0.0015114548,-2.3622172,0.014129154,1.5698256,0.7800263,0.039999906,0.04,-0.00892283925566506,-0.02753641118114422,-0.009727875792897578,-0.035711854621700026,-0.0061906591116101545,0.03660864448068358,0.9999580500955272,-0.006137174430423053,-0.001905714236106696,0.006526974215659626
2643.050000006043,0.0061388514,-0.7887985,0.0015855131,-2.3625147,0.014835093,1.5697683,0.77972585,0.039999902,0.04,-0.007954380735486488,-0.027746138972537318,-0.00952672174787672,-0.03682073682401124,-0.0059365854339320226,0.0377487215385052,0.9999537151820196,-0.006455898435118333,-0.00197963922655957,0.006853458805928813
2643.0666666727097,0.0064337305,-0.789013,0.0016618312,-2.3628218,0.015562561,1.5697094,0.7794162,0.0399999,0.04,-0.008843388681545328,-0.02798035412366097,-0.010038907750886672,-0.03793890325491688,-0.005678943021838762,0.03890111353419756,0.9999490248413385,-0.006784318725965872,-0.002055795309288689,0.007189884834068845
2643.0833333393766,0.0067374078,-0.7892338,0.0017404262,-2.363138,0.016311696,1.5696484,0.7790973,0.039999895,0.04,-0.008651889141919611,-0.02816266563621314,-0.010082804660593858,-0.03906562620539157,-0.005419626093565109,0.04005930443759381,0.999943957428353,-0.007122506575550447,-0.0021344520104393696,0.0075363132379555504
2643.1000000060435,0.0070499484,-0.7894613,0.0018213165,-2.3634627,0.017082695,1.569586,0.7787692,0.039999887,0.04,-0.00702759815840448,-0.028383040704129184,-0.009559967211858478,-0.04020062615489141,-0.00516046441285571,0.041229819903930584,0.9999384930195226,-0.0074704988563670405,-0.002214716891741693,0.00789283559772726
2643.1166666727104,0.0073714172,-0.7896953,0.0019045185,-2.363797,0.017875697,1.5695215,0.7784317,0.039999887,0.04,-0.009139561301174659,-0.028547247601233908,-0.010534192061051328,-0.04134373099414962,-0.0048929390350288295,0.04240781670802516,0.9999326066252107,-0.007828388120245201,-0.0022976043633591878,0.008259513383961846
2643.1333333393773,0.007701875,-0.78993595,0.0019900475,-2.36414,0.018690856,1.5694556,0.7780848,0.0399999,0.04,-0.00753961397355063,-0.028726602526657832,-0.00979543497314772,-0.042494436397259555,-0.004625274138641758,0.043593986316018504,0.9999262765065431,-0.008196237807902433,-0.002382341013747674,0.008636416435717578
2643.150000006044,0.008041378,-0.7901828,0.0020779185,-2.3644931,0.019528361,1.5693877,0.7777282,0.039999895,0.04,-0.010108541965081486,-0.028914444485679536,-0.010638170114418699,-0.043651855297815095,-0.004351558273166535,0.04479006002758629,0.9999194746995942,-0.008574221453929267,-0.002470000052075625,0.009023632455369544
2643.166666672711,0.008389981,-0.7904367,0.0021681455,-2.364855,0.020388305,1.569318,0.777362,0.039999884,0.04,-0.007156262345109354,-0.0290399427717334,-0.010284748307598512,-0.04481508227844801,-0.0040822131949154895,0.04599078401952614,0.9999121796727112,-0.008962316195377941,-0.002559451190035965,0.00942120163182748
2643.183333339378,0.008747736,-0.7906972,0.002260741,-2.365227,0.021270787,1.5692464,0.77698624,0.039999884,0.04,-0.00958385168505771,-0.029148914649823263,-0.010985842589827932,-0.04598408297682423,-0.0038065646532809225,0.047196489819357014,0.999904364032224,-0.009360512220510457,-0.002651620249531249,0.009829166309293045
2643.200000006045,0.009114692,-0.7909646,0.002355719,-2.3656082,0.022175988,1.569173,0.776601,0.039999884,0.04,-0.008063602967944838,-0.029330862750415534,-0.010642881764688639,-0.04715919181181023,-0.003531304943155387,0.04841280839325442,0.9998960029127321,-0.009768809410137615,-0.002745943190750928,0.010247610347950745
2643.2166666727117,0.009490891,-0.7912385,0.002453091,-2.365999,0.02310397,1.5690976,0.77620614,0.03999989,0.04,-0.008861817718441856,-0.02940699223964692,-0.010702895165937143,-0.0483404326949648,-0.003252380967321453,0.04963165858578904,0.9998870677773745,-0.010187315666991355,-0.002842778548134786,0.010676558490061326
2643.2333333393785,0.009876379,-0.79151934,0.0025528667,-2.366399,0.024054853,1.5690205,0.7758015,0.039999884,0.04,-0.00785996035097547,-0.029527861849539677,-0.010834010419991102,-0.04952684561585885,-0.0029731700448053597,0.05085772441142563,0.9998775312444578,-0.010616115375678139,-0.002941710333658799,0.011116067071207039
2643.2500000060454,0.010271191,-0.79180694,0.0026550577,-2.3668094,0.025028737,1.5689415,0.775387,0.03999988,0.04,-0.00973767700753747,-0.029615318677481822,-0.011289999763075542,-0.050717821800270686,-0.0026892411401464728,0.052088839050655,0.9998673625701254,-0.011055249442182934,-0.0030433956269256307,0.011566177842770963
2643.2666666727123,0.01067536,-0.79210144,0.0027596715,-2.3672292,0.0260257,1.5688605,0.77496266,0.039999872,0.04,-0.008289578030606926,-0.029691469880212956,-0.011130100664713538,-0.05191243697725906,-0.0024079921758539896,0.05332326813462374,0.9998565337100788,-0.011504738264008725,-0.0031473892377924272,0.012026925447878338
2643.283333339379,0.01108893,-0.79240274,0.0028667187,-2.3676581,0.027045816,1.5687778,0.77452856,0.0399999,0.04,-0.007534292960720279,-0.029778568440670672,-0.010825967640548662,-0.053110704791949875,-0.00212362000846343,0.05456356640647994,0.9998450157064428,-0.01196457411404625,-0.0032534550858526906,0.012498342420380155
2643.300000006046,0.011511926,-0.79271084,0.0029762052,-2.3680973,0.0280892,1.568693,0.77408457,0.03999991,0.04,-0.009588115711789413,-0.02985159367004664,-0.011617778221650887,-0.05431293920044206,-0.0018352322110977764,0.055805182066357636,0.999832774658056,-0.012434819772178862,-0.0033623095290688625,0.012980479630479554
2643.316666672713,0.01194437,-0.7930259,0.0030881395,-2.3685465,0.029155903,1.5686066,0.7736305,0.039999917,0.04,-0.00883467277474903,-0.029892996153119827,-0.011412256177267821,-0.05551778036067104,-0.0015483959271269335,0.05705282689686851,0.9998197791930961,-0.012915574427395516,-0.003473565848604689,0.013473359335159793
2643.33333333938,0.012386294,-0.79334795,0.0032025273,-2.3690052,0.030245993,1.568518,0.77316654,0.039999917,0.04,-0.008131573152625471,-0.029949491845125686,-0.011624156707190636,-0.056724874710916445,-0.0012608526776325246,0.058302731390678014,0.999805997969725,-0.013406767254177094,-0.0035872271439539166,0.013977010301636953
2643.3500000060467,0.012837713,-0.7936769,0.0033193745,-2.369474,0.03135951,1.5684278,0.7726926,0.039999917,0.04,-0.00881291689565078,-0.029960134209097017,-0.011526527859384572,-0.057933873922538084,-0.0009712215648776338,0.05955623299677683,0.9997913977760695,-0.013908425139608247,-0.003703324690782594,0.014491446765030959
2643.3666666727136,0.013298648,-0.79401284,0.0034386865,-2.369953,0.032496467,1.5683355,0.7722087,0.039999917,0.04,-0.009218849209013946,-0.029961820591967864,-0.01201163926503046,-0.05914514545030414,-0.0006802382646867401,0.06081136495952442,0.9997759436783588,-0.014420586003371743,-0.003822128173602992,0.015016673319709763
2643.3833333393804,0.013769116,-0.79435563,0.0035604662,-2.3704412,0.033656936,1.5682414,0.7717147,0.039999925,0.04,-0.007648846655250452,-0.030003640297709966,-0.011498348393623736,-0.06035741338146144,-0.000390353258295755,0.06206939506415471,0.9997596023384118,-0.01494328886502617,-0.003943162273144831,0.015552720704904327
2643.4000000060473,0.01424913,-0.79470545,0.0036847172,-2.3709395,0.03484095,1.5681453,0.7712108,0.039999925,0.04,-0.008619249937580342,-0.029997725797688973,-0.01200269375609686,-0.06157053317047763,-9.85278464903528e-05,0.06332906505028238,0.9997423390884526,-0.015476441727233278,-0.004066698477237179,0.016099600892826037
2643.416666672714,0.014738698,-0.7950623,0.0038114437,-2.371448,0.036048517,1.5680473,0.7706969,0.03999993,0.04,-0.0089760735624278,-0.029973863068571277,-0.012191647784320914,-0.06278472481474041,0.00019489120650284172,0.06458930881786562,0.9997241170275718,-0.01602010080710411,-0.004192856970367856,0.01665731532985026
2643.433333339381,0.01523783,-0.7954259,0.003940644,-2.3719661,0.037279673,1.5679475,0.7701729,0.039999925,0.04,-0.008002958335229238,-0.029977992767435402,-0.01169261297384594,-0.06399930493887414,0.00048723608051378774,0.06585116249232172,0.9997049001985246,-0.016574297895431904,-0.004321371007687847,0.017225879395408487
2643.450000006048,0.015746525,-0.7957967,0.0040723234,-2.3724945,0.03853441,1.5678458,0.7696389,0.03999993,0.04,-0.008683487075389351,-0.029918297167184915,-0.012453855571403771,-0.06521352138291667,0.0007806707896750075,0.06711292101413775,0.9996846516019653,-0.017138995264492397,-0.004452421697971007,0.017805283873183662
2643.466666672715,0.016264789,-0.79617435,0.0042064805,-2.373033,0.039812755,1.5677422,0.76909477,0.039999925,0.04,-0.009022418080051331,-0.029901089739202413,-0.012341683227590217,-0.06642768216453193,0.001075485873448103,0.06837561756049827,0.9996633315819055,-0.017714245182034148,-0.004586188659480934,0.01839553972504446
2643.4833333393817,0.01679262,-0.79655904,0.004343115,-2.3735807,0.041114677,1.5676367,0.7685406,0.03999993,0.04,-0.00675795022702097,-0.029844094259728893,-0.011977541399099678,-0.06764028117089818,0.0013681624723941958,0.06963820119121872,0.9996409060721205,-0.01829999400015519,-0.004721989458129859,0.018996629765867357
2643.5000000060486,0.01733002,-0.79695076,0.004482227,-2.3741386,0.04244018,1.5675294,0.7679766,0.03999993,0.04,-0.00868890610101758,-0.029787866009978875,-0.012521660994879724,-0.0688522308581524,0.001665761281213124,0.07089949954446234,0.9996173350797347,-0.018896163102123026,-0.004860363509871105,0.019608551569644066
2643.5166666727155,0.01787698,-0.79734945,0.004623812,-2.3747067,0.043789268,1.5674201,0.7674024,0.03999993,0.04,-0.008774451588910992,-0.029723992891016182,-0.01275461855052562,-0.07006293822175688,0.001960844442234542,0.0721606677454274,0.9995925760909148,-0.019502858406786724,-0.005001459248991932,0.020231306019981764
2643.5333333393824,0.018433489,-0.797755,0.004767871,-2.3752844,0.045161884,1.5673088,0.7668182,0.039999932,0.04,-0.007640493978500196,-0.029633103646142106,-0.012448501907491583,-0.07127150065335866,0.002255607904699204,0.07342002697581473,0.9995665919299547,-0.020120014538339965,-0.00514498161820127,0.02086486224879116
2643.5500000060492,0.018999536,-0.7981676,0.0049144,-2.3758721,0.04655802,1.5671955,0.7662241,0.039999936,0.04,-0.008162677721346157,-0.029551597184618306,-0.01276565240315719,-0.07247791177841523,0.0025514750921527135,0.07467863890632603,0.9995393422333293,-0.020747583167915695,-0.0052910223919472405,0.021509212038140366
2643.566666672716,0.019575108,-0.7985872,0.005063396,-2.3764696,0.04797765,1.5670801,0.7656199,0.039999932,0.04,-0.0077778491159641305,-0.029467686863839104,-0.012924641586176122,-0.0736817997686878,0.002847036783676261,0.07593534809303217,0.999510784530361,-0.021385613680160946,-0.005439582015457193,0.022164342591701046
2643.583333339383,0.020160189,-0.79901373,0.0052148527,-2.3770769,0.04942073,1.5669631,0.7650057,0.03999993,0.04,-0.007705347108966087,-0.02935988070976031,-0.0125931419062697,-0.07488258152706892,0.003141614688666857,0.07718907459466733,0.9994808797331425,-0.022034021612127842,-0.0055904846318257755,0.02283023042024129
2643.60000000605,0.020754762,-0.7994473,0.0053687673,-2.3776941,0.05088719,1.5668441,0.76438165,0.039999932,0.04,-0.007998628938787888,-0.02922506593843882,-0.013037817110528316,-0.07608015222175016,0.0034378929502184856,0.07844108175248855,0.999449585886371,-0.022692760020393343,-0.0057439113374177595,0.023506837234431904
2643.6166666727167,0.021358797,-0.79988766,0.0055251354,-2.3783216,0.05237701,1.5667232,0.7637476,0.039999936,0.04,-0.008603387949057684,-0.0291171216609723,-0.013110486573575386,-0.07727433634510475,0.003733864055250528,0.07969022356936133,0.9994168576971016,-0.023361857078210396,-0.0059001005668451074,0.024194152144880743
2643.6333333393836,0.021972276,-0.80033493,0.0056839483,-2.3789582,0.053890124,1.5666004,0.76310354,0.03999994,0.04,-0.006399917172816849,-0.02899849398982357,-0.012718838075942429,-0.07846445760306403,0.0040266656323979045,0.08093622222185047,0.9993826564495011,-0.024041279969757634,-0.006058399104766494,0.024892140238271538
2643.6500000060505,0.022595175,-0.80078894,0.0058452007,-2.3796048,0.055426475,1.5664759,0.7624497,0.03999994,0.04,-0.008113592843983497,-0.028855745293697443,-0.013066205310519052,-0.07964994452256272,0.004322471536511809,0.08217854853695727,0.999346937598497,-0.024730928998127674,-0.006219316342997741,0.025600772793431766
2643.6666666727174,0.023227468,-0.80124986,0.006008884,-2.3802617,0.056985945,1.5663494,0.7617859,0.039999947,0.04,-0.008304112559986976,-0.02866470456749648,-0.013456528929545186,-0.0808311848948538,0.0046164649835147165,0.08341575548137672,0.9993096567865325,-0.02543080923092398,-0.006382942264415684,0.026319989420443803
2643.6833333393843,0.023869114,-0.8017176,0.0061749904,-2.3809278,0.058568526,1.566221,0.76111233,0.03999994,0.04,-0.006758550221874771,-0.0285653375082906,-0.013046665561700088,-0.08200722403231539,0.004909148663432707,0.08465087317274168,0.999270772301522,-0.026140870193961312,-0.006548861805426672,0.02704978629260717
2643.700000006051,0.024520092,-0.8021922,0.006343511,-2.3816035,0.060174074,1.5660907,0.760429,0.039999943,0.04,-0.006977329773150132,-0.028358171969142254,-0.013315867723862063,-0.08317792514294897,0.005201625985658136,0.08588023232238796,0.9992302418277821,-0.0268610275131286,-0.006717137516037436,0.027790089624210753
2643.716666672718,0.025180357,-0.8026736,0.0065144366,-2.3822885,0.061802518,1.5659586,0.75973606,0.03999995,0.04,-0.006671468303198758,-0.028194077469516354,-0.013114290446791799,-0.08434358157609498,0.0054936435748152886,0.0871048844591659,0.9991880222072856,-0.027591216105603576,-0.006887682022732214,0.028540863821202852
2643.733333339385,0.025849868,-0.8031617,0.00668776,-2.3829837,0.06345381,1.5658246,0.75903296,0.039999958,0.04,-0.008260175472019071,-0.028021954474546917,-0.013741636847419691,-0.0855040382256051,0.005787130410639372,0.0883251582466729,0.999144058041022,-0.02833162659084026,-0.007061025669587231,0.02930208409873886
2643.750000006052,0.026528595,-0.80365646,0.0068634683,-2.383688,0.06512779,1.565689,0.7583204,0.039999954,0.04,-0.00617814504215719,-0.027823730218862197,-0.01307426387193722,-0.08665614480375189,0.006078238331934058,0.08953982046412359,0.9990983182209864,-0.029081917539798597,-0.0072364938185656225,0.030073672163848247
2643.7666666727187,0.027216492,-0.804158,0.0070415493,-2.3844018,0.066824354,1.5655513,0.7575984,0.039999966,0.04,-0.006970320217414283,-0.027601815830247123,-0.013690723367787427,-0.08780287262497857,0.006369666834454488,0.09074205865836173,0.9990507559828374,-0.029842019179001828,-0.0074144756382672075,0.03085557344225949
2643.7833333393855,0.027913509,-0.804666,0.0072219926,-2.3851256,0.06854345,1.5654118,0.75686693,0.03999996,0.04,-0.007898059314759287,-0.027425109927461944,-0.013701908845731303,-0.08894342518816253,0.006659681487443335,0.09194618856976475,0.9990013229245579,-0.030611905564477737,-0.007595209445562893,0.031647761787728906
2643.8000000060524,0.028619604,-0.80518067,0.007404789,-2.3858588,0.07028491,1.5652704,0.7561259,0.039999966,0.04,-0.00647455633386862,-0.02719570525661491,-0.013651728109365102,-0.09007757862654124,0.006945842734920103,0.09314265743613905,0.9989499754631753,-0.03139158921999402,-0.007778307987259995,0.03245015521102691
2643.8166666727193,0.029334731,-0.805702,0.007589921,-2.386601,0.072048634,1.5651275,0.75537515,0.03999997,0.04,-0.005965880208846919,-0.0269902883075393,-0.013336712071709833,-0.09120440213634586,0.007230860248754203,0.09433261435804192,0.9988966657711036,-0.032181146800149024,-0.007963499850908311,0.03326270542400317
2643.833333339386,0.030058822,-0.80623,0.007777378,-2.3873527,0.07383444,1.5649824,0.7546148,0.03999997,0.04,-0.006768035787607651,-0.026686204886870735,-0.014162087015101577,-0.09232210766632773,0.00751813982056012,0.09551486142529884,0.9988413478735826,-0.03298044221311304,-0.008151264407813087,0.03408532085907599
2643.850000006053,0.030791836,-0.8067643,0.007967146,-2.3881137,0.07564231,1.5648359,0.75384533,0.039999977,0.04,-0.006594151719263586,-0.02656018733711296,-0.01335872070462596,-0.09343103408439174,0.00780186602650693,0.09669260844252509,0.9987839848379034,-0.033789155744723104,-0.008341373259350525,0.03491799074296293
2643.86666667272,0.03153372,-0.80730516,0.008159209,-2.388884,0.07747206,1.5646873,0.75306666,0.039999973,0.04,-0.006432877647366553,-0.026274267952219876,-0.014149737465318779,-0.09453313669571367,0.008085510067187978,0.09786274280765528,0.9987245261622022,-0.03460735042305574,-0.008534032320282898,0.03576062682807756
2643.883333339387,0.032284416,-0.80785227,0.008353553,-2.3896635,0.079323515,1.564537,0.7522786,0.03999998,0.04,-0.0061106207112304745,-0.026001591406027424,-0.013525445654671842,-0.09562713227304333,0.008365958137292847,0.09902377442567685,0.9986629269921826,-0.03543502649760981,-0.008728971486943184,0.03661314252151037
2643.9000000060537,0.033043854,-0.80840594,0.008550161,-2.3904517,0.08119656,1.5643852,0.7514814,0.03999998,0.04,-0.005362548690501789,-0.025759568018246526,-0.013757471991215908,-0.09671194287168612,0.008645242721167175,0.10017768194736665,0.9985991452444736,-0.036272056653312464,-0.008925985471919933,0.03747548273873175
2643.9166666727206,0.033811994,-0.8089659,0.008749022,-2.3912487,0.08309101,1.5642315,0.75067514,0.03999998,0.04,-0.005596789430906135,-0.025497137671068315,-0.013814963283342863,-0.09778771955487245,0.008926126359092115,0.10132254370774049,0.9985331358884107,-0.03711834306023456,-0.009125255593051287,0.038347553398890497
2643.9333333393874,0.034588747,-0.80953217,0.008950117,-2.3920555,0.08500672,1.5640762,0.7498597,0.03999998,0.04,-0.007174814053678702,-0.025168189805396812,-0.014228898851764704,-0.09885456405122582,0.00920483948077361,0.10245981744191991,0.9984648479175151,-0.037973855673533556,-0.009327225363110175,0.039229282753637476
2643.9500000060543,0.035374075,-0.81010467,0.009153427,-2.392871,0.08694353,1.5639192,0.74903536,0.03999998,0.04,-0.0051014575821684005,-0.024952073994224944,-0.01376857519397312,-0.09991104677858363,0.00947963004915173,0.10358793318296583,0.9983942448179932,-0.03883843438869279,-0.009531305323340301,0.04012059505263584
2643.966666672721,0.03616787,-0.8106834,0.009358935,-2.3936949,0.08890126,1.5637604,0.7482021,0.039999988,0.04,-0.00507929624660175,-0.02461127489845616,-0.013944704629809124,-0.10095845965679173,0.009753448134021056,0.1047070633718294,0.9983212802157541,-0.03971203930984186,-0.009737552651622159,0.04102140259167354
2643.983333339388,0.036970094,-0.8112683,0.009566624,-2.3945277,0.09087978,1.5636,0.74736005,0.039999995,0.04,-0.0055116530499610406,-0.024372987688367487,-0.013998424844086088,-0.10199543836917041,0.010026567714641358,0.1058185247781955,0.9982459099132547,-0.04059453058880214,-0.009946090082875132,0.041931643418741615
2644.000000006055,0.03778067,-0.81185937,0.009776472,-2.3953688,0.09287889,1.5634378,0.7465092,0.039999995,0.04,-0.004650078160728377,-0.024054954711863474,-0.013863713724426852,-0.10302259397005509,0.010298343889560973,0.10691970543337204,0.99816808997228,-0.04148589212478922,-0.010156677397831824,0.042851217251521155
2644.016666672722,0.038599517,-0.8124564,0.009988464,-2.3962188,0.094898425,1.5632739,0.74564964,0.04,0.04,-0.0055588985894416965,-0.023741654861925143,-0.014202296976661977,-0.1040389125066005,0.010570449619504636,0.10801114012138768,0.9980877743217179,-0.04238599444205392,-0.010369673346446914,0.043780042249471275
2644.0333333393887,0.039426558,-0.8130595,0.010202584,-2.3970773,0.09693818,1.5631083,0.7447815,0.039999995,0.04,-0.005063970545693408,-0.023417334434885917,-0.014087836147047561,-0.10504428308766628,0.010837393635980597,0.10909212181432273,0.9980049227136708,-0.043294720910386,-0.010584900722155274,0.04471801938004216
2644.0500000060556,0.040261716,-0.81366855,0.010418804,-2.3979445,0.09899795,1.5629411,0.7439049,0.04,0.04,-0.005070602415346848,-0.023082673926180797,-0.014142184306020766,-0.10603884936323067,0.011103261869156156,0.11016285533415192,0.9979194931283155,-0.04421195048243989,-0.010802390703902752,0.04566505254726455
2644.0666666727225,0.041104935,-0.81428355,0.01063711,-2.3988202,0.10107756,1.5627726,0.74301964,0.04,0.04,-0.0048710095437165535,-0.022791804029337337,-0.013872367333256364,-0.10702233464563451,0.011366362867541254,0.11122409895396775,0.9978314397189569,-0.04513771362858283,-0.01102190023516867,0.046621051382218684
2644.0833333393894,0.04195612,-0.81490445,0.010857478,-2.399704,0.103176825,1.5626024,0.7421262,0.04,0.04,-0.004250552710005628,-0.022470588611897546,-0.014148248787537732,-0.1079934361870801,0.011628790016195253,0.11227490561151887,0.9977407269355394,-0.046071726717063256,-0.01124352781823771,0.04758593167786125
2644.1000000060562,0.042815182,-0.8155303,0.01107989,-2.4005957,0.105295524,1.5624305,0.74122447,0.04,0.04,-0.004771732340458357,-0.022140301610198976,-0.013527930259593646,-0.1089535059242745,0.011889216456790301,0.11331536733043758,0.9976473053624454,-0.047013996882229486,-0.011467565286405645,0.04855958346826209
2644.116666672723,0.043682046,-0.81616205,0.011304317,-2.4014952,0.10743343,1.5622572,0.7403146,0.04,0.04,-0.003633583264073259,-0.02176111519840429,-0.013929512984267589,-0.10990160548302572,0.012145292671699375,0.1143419634178186,0.9975511437997641,-0.04796435908415536,-0.011693421191061353,0.0495418980487933
2644.13333333939,0.04455663,-0.81679946,0.011530741,-2.4024029,0.109590314,1.5620822,0.7393965,0.04,0.04,-0.0043076731507829535,-0.021396431950779227,-0.014175385097137116,-0.11083787181755256,0.01239962184496051,0.11535345218776888,0.9974521934560651,-0.04892280397779942,-0.011921447803201722,0.05053276266849153
2644.150000006057,0.045438834,-0.8174428,0.01175914,-2.4033184,0.11176602,1.5619056,0.7384705,0.04,0.04,-0.0035603014718388337,-0.021076759420532443,-0.014176578294278208,-0.1117608138517793,0.012652731426167517,0.11635988050637172,0.9973504212051426,-0.0498891222144691,-0.012151352602993288,0.05153210102947408
2644.1666666727237,0.046328556,-0.8180917,0.01198949,-2.4042418,0.11396031,1.5617275,0.73753655,0.04,0.04,-0.0038247884855291403,-0.0206961188244148,-0.014093953062421782,-0.11267163184419993,0.012905202413124421,0.11735451222419102,0.9972457847480224,-0.0508632317108712,-0.01238328165648879,0.05253980203277471
2644.1833333393906,0.047225744,-0.8187457,0.01222177,-2.405173,0.116172954,1.5615481,0.73659474,0.04,0.04,-0.004270716463272706,-0.020372729358708597,-0.01371451179241756,-0.1135695209631536,0.013154849194348226,0.11833734340032731,0.9971382430158345,-0.051845033145934076,-0.012617383675644894,0.053555751162440594
2644.2000000060575,0.048130274,-0.81940514,0.012455955,-2.4061117,0.11840373,1.5613673,0.7356453,0.04,0.04,-0.0030096510086119466,-0.019982127135542704,-0.013865440867255607,-0.11445433612749847,0.013402001341307647,0.11930809261766591,0.9970277655833021,-0.05283435124159685,-0.012853274714377395,0.054579843476912214
2644.2166666727244,0.049042065,-0.82006997,0.01269202,-2.407058,0.12065242,1.5611849,0.7346881,0.04,0.04,-0.0035223945188622707,-0.019613403965620946,-0.014077958803104806,-0.11532613458501034,0.013646775378285288,0.12026571443504218,0.996914306333744,-0.053831173389512356,-0.013091186902426506,0.05561197194942657
2644.2333333393913,0.049961023,-0.82073987,0.012929941,-2.4080117,0.12291881,1.5610011,0.7337234,0.04,0.04,-0.003349211067282809,-0.019264037744667895,-0.013790841523353414,-0.11618422077639945,0.01388872953822091,0.12121167775608985,0.9967978322004732,-0.054835306166002344,-0.013331093964571836,0.05665203307760235
2644.250000006058,0.05088704,-0.8214149,0.013169692,-2.408973,0.12520258,1.5608158,0.7327515,0.04,0.04,-0.003645496089399458,-0.018803009591389364,-0.013996465713228545,-0.11702841258813224,0.014128449332732869,0.1221441479229177,0.9966783142463785,-0.0558465168265836,-0.013573089886652706,0.05769987608534377
2644.266666672725,0.051820032,-0.82209516,0.013411248,-2.4099414,0.12750356,1.5606292,0.7317722,0.04,0.04,-0.0026304274482580325,-0.0184826272642713,-0.013811723924161967,-0.11785982663625588,0.014363385161793607,0.12306493712918251,0.9965557117626306,-0.05686484287938396,-0.013816809696738307,0.05875541479203387
2644.283333339392,0.05275989,-0.8227801,0.013654583,-2.4109173,0.1298215,1.5604413,0.73078567,0.04,0.04,-0.003648045710313852,-0.01807989608071936,-0.013767375519613267,-0.1186767679828876,0.014597714088199366,0.12397223673945684,0.9964299874908826,-0.05789009389241927,-0.014062730470564822,0.059818531156815055
2644.300000006059,0.05370652,-0.82347035,0.013899668,-2.4119,0.13215613,1.5602517,0.7297921,0.04,0.04,-0.002084000435220723,-0.017681507485131642,-0.014061615721616683,-0.11947982298553819,0.014825172169419955,0.12486683452672347,0.9963011152357936,-0.0589221502384619,-0.014310318525316407,0.060889102267105456
2644.3166666727257,0.054659825,-0.82416517,0.01414648,-2.4128895,0.13450721,1.5600612,0.7287915,0.04,0.04,-0.0023428296450855868,-0.017313660796522412,-0.013127434554593975,-0.12026870418316574,0.015052940068029184,0.12574696038111866,0.9961690598860901,-0.05996093494486502,-0.014559568287807741,0.0619670023276412
2644.3333333393925,0.055619683,-0.82486504,0.014394992,-2.413886,0.13687444,1.5598693,0.72778386,0.04,0.04,-0.0026830178003312,-0.016822096409302434,-0.014039315905622907,-0.12104265741659292,0.01527816310029461,0.12661343592890953,0.9960337879736241,-0.06100631591858034,-0.01481068640908848,0.06305209117109153
2644.3500000060594,0.056585997,-0.8255695,0.014645177,-2.4148896,0.13925762,1.5596759,0.7267695,0.04,0.04,-0.0027345592960026366,-0.01648879207889198,-0.01373882478443722,-0.12180156927564159,0.01550002677718738,0.12746728414494335,0.9958952689418835,-0.06205809373678213,-0.015063795133429056,0.0641442778204615
2644.3666666727263,0.057558674,-0.8262787,0.014897006,-2.4158998,0.14165643,1.5594814,0.72574854,0.04,0.04,-0.002106885335195763,-0.016034482612145573,-0.013555754579241963,-0.12254584100394189,0.015716520201121215,0.12830776324530446,0.9957534797217598,-0.06311614195566993,-0.015318596585861346,0.06524339694772313
2644.383333339393,0.058537584,-0.8269925,0.015150451,-2.416916,0.14407061,1.5592855,0.7247211,0.04,0.04,-0.0009609492853446255,-0.015647608362634458,-0.01332097951385336,-0.12327525326023778,0.0159307857643262,0.12913225405826664,0.9956083941320757,-0.06418034047136739,-0.015574821822049457,0.06634933576110623
2644.40000000606,0.059522625,-0.8277106,0.015405488,-2.4179378,0.14649993,1.5590885,0.7236871,0.04,0.04,-0.0008600798181657154,-0.015282966602522818,-0.012983309028080647,-0.12398998923897431,0.016145003250649506,0.12994317309064082,0.9954599801393801,-0.06525060883145269,-0.015832466294578136,0.06746198187913537
2644.416666672727,0.0605137,-0.8284332,0.015662082,-2.4189665,0.14894412,1.5588902,0.7226468,0.04,0.04,-0.0026415918610522837,-0.014796659814333979,-0.013683710740708399,-0.12468909773468098,0.016357608605915463,0.13074015062723665,0.9953082056341814,-0.06632676998394699,-0.016092033818240578,0.06858120608705666
2644.433333339394,0.06151067,-0.8291602,0.015920207,-2.4200013,0.1514029,1.5586908,0.7216002,0.04,0.04,-0.0010680534606732905,-0.014384293903615952,-0.01323499123015992,-0.12537244370791067,0.016565057367043584,0.1315227985115486,0.9951530511114405,-0.06740870553560789,-0.01635307634274318,0.06970687323164663
2644.4500000060607,0.06251344,-0.82989144,0.016179826,-2.4210424,0.15387596,1.55849,0.7205476,0.04,0.04,-0.0020610923899599953,-0.013912288506848225,-0.013497593803246666,-0.12603983002008454,0.016770189652681594,0.13229063889903336,0.9949944941349838,-0.06849617010931176,-0.01661598508932533,0.07083883370677
2644.4666666727276,0.063521884,-0.8306268,0.016440932,-2.4220893,0.15636308,1.5582883,0.71948904,0.04,0.04,-0.0008434560326175955,-0.013584940413016722,-0.012865621954394335,-0.1266919458460345,0.01697013589819004,0.13304467290852667,0.9948325103777531,-0.06958912387224413,-0.016880277022888537,0.07197698508427473
2644.4833333393944,0.06453594,-0.8313661,0.016703468,-2.4231412,0.15886389,1.5580856,0.7184247,0.04,0.04,0.0002199412334258355,-0.013136245032191463,-0.012587133655572735,-0.12732849193704085,0.017168007209773517,0.13378188110009864,0.9946670857161434,-0.07068741297078279,-0.017145718192356753,0.07312115007383578
2644.5000000060613,0.06555541,-0.83210945,0.016967421,-2.4241996,0.16137816,1.5578815,0.7173546,0.04,0.04,-0.002217992408937164,-0.012605080570751714,-0.013466392747707445,-0.12794915183170963,0.01736609906312236,0.13450175968661263,0.9944981870569414,-0.07179083754425677,-0.01741313364739914,0.07427122162539732
2644.516666672728,0.06658022,-0.8328567,0.01723276,-2.4252636,0.16390559,1.5576766,0.71627885,0.04,0.04,-0.0009176654378384441,-0.01223139829405473,-0.01276769900284691,-0.12855376529283058,0.017556364676435836,0.13520590291228107,0.9943258007120128,-0.07289931488665893,-0.0176819561040493,0.07542705320907558
2644.533333339395,0.06761024,-0.8336077,0.017499447,-2.426333,0.16644587,1.5574706,0.7151978,0.04,0.04,-0.00041026166084368043,-0.011774811777609528,-0.012617183053342806,-0.12914173287547093,0.017742531857619027,0.1358970075908328,0.9941499167965107,-0.074012591961121,-0.017952191652637166,0.0765884976974646
2644.550000006062,0.06864539,-0.8343623,0.017767454,-2.427407,0.16899873,1.5572634,0.71411127,0.04,0.04,0.00038251424028246106,-0.011425256553718177,-0.012510379277119732,-0.12971451119574098,0.01792640254780767,0.13657426087728416,0.9939705054880617,-0.07513071851923595,-0.018223650205502054,0.0777554366445089
2644.566666672729,0.0696855,-0.8351206,0.01803675,-2.4284863,0.17156386,1.5570554,0.7130193,0.04,0.04,-0.00036058106500647114,-0.010882878565995902,-0.012440957218418092,-0.13026973837108483,0.018109351906297644,0.1372354977421815,0.9937875524145691,-0.07625351977680489,-0.01849641374826485,0.07892771418178512
2644.5833333393957,0.07073048,-0.8358826,0.018307302,-2.4295714,0.17414095,1.5568461,0.7119224,0.04,0.04,-0.0011846324978970202,-0.01041286141542086,-0.012987269041597749,-0.13080780980346202,0.018289107741346643,0.13788102394908375,0.9936010492544072,-0.07738068128541561,-0.018770880566750955,0.08010517540767581
2644.6000000060626,0.071780175,-0.83664805,0.018579079,-2.4306607,0.17672972,1.5566362,0.71082056,0.04,0.04,0.00112839606059012,-0.010058094018861041,-0.011829283513931088,-0.13132939766138482,0.018461283342229136,0.1385104056678703,0.9934109897740563,-0.07851213729758949,-0.01904621103022104,0.0812877084096154
2644.6166666727295,0.072834484,-0.8374169,0.018852053,-2.4317553,0.17932993,1.5564253,0.70971394,0.04,0.04,-0.0005827690917836748,-0.009590096905723322,-0.012447754339683925,-0.13183487393069043,0.018633558619924225,0.13912419300141637,0.9932173536192078,-0.07964768399345447,-0.019323028747409068,0.08247518089803214
2644.6333333393964,0.07389328,-0.8381889,0.019126188,-2.4328551,0.18194123,1.5562135,0.70860255,0.04,0.04,-0.0008184485950968323,-0.009101891899726544,-0.012328322346188969,-0.1323236379521511,0.018801450112352392,0.13972180295617484,0.9930201252528088,-0.08078721967564748,-0.01960144405404218,0.0836674331563405
2644.6500000060632,0.074956454,-0.8389641,0.019401457,-2.4339583,0.18456328,1.5560008,0.7074865,0.04,0.04,0.002483551015841634,-0.008777399573067779,-0.01136254295213135,-0.13279517992561513,0.018961727474486226,0.14030337241914737,0.9928193077326812,-0.08193070143063474,-0.019880416604677955,0.08486431165047094
2644.66666667273,0.076023884,-0.83974224,0.019677823,-2.4350662,0.1871957,1.5557873,0.70636606,0.04,0.04,-0.00022219640907206184,-0.008169838577853916,-0.011886992056076018,-0.1332494734929189,0.01912357680264468,0.14086823318385192,0.9926148912325762,-0.08307783736220409,-0.020160807875567295,0.08606562884429853
2644.683333339397,0.0770954,-0.8405235,0.01995525,-2.4361787,0.18983835,1.5555731,0.70524126,0.04,0.04,0.00042364029444463824,-0.007786082740546263,-0.011763239638362677,-0.1336864482466944,0.01928017191461836,0.1414171163365886,0.9924068657494243,-0.08422849839950355,-0.02044234289464458,0.08727132110691792
2644.700000006064,0.0781709,-0.8413076,0.020233713,-2.437295,0.19249077,1.5553578,0.7041124,0.04,0.04,0.0012638663481778778,-0.007324768384631142,-0.01156732296627716,-0.13410656418830214,0.019432697529212877,0.14194911012121839,0.9921952352848382,-0.08538251237672088,-0.02072496871860248,0.08848116935210841
2644.7166666727308,0.07925023,-0.8420947,0.020513171,-2.4384153,0.1951527,1.5551419,0.7029795,0.04,0.04,0.0011917796026050809,-0.006824531619220586,-0.011384026378968848,-0.13450956309199566,0.019581041200312926,0.14246400990469987,0.9919799973171463,-0.08653974074351885,-0.021008466389547842,0.0896950530111811
2644.7333333393976,0.08033331,-0.8428844,0.020793602,-2.4395394,0.19782387,1.5549251,0.70184267,0.04,0.04,0.001009086318704,-0.006490004881609668,-0.011307548010530688,-0.13489561178300802,0.019727539519795393,0.1429628310964643,0.9917611379863084,-0.08770007179388814,-0.021293131771281806,0.09091284357460341
2644.7500000060645,0.08141997,-0.84367675,0.021074956,-2.4406674,0.20050389,1.5547075,0.70070195,0.04,0.04,0.0011290710488554012,-0.005924145995162,-0.011119614582111303,-0.13526380576645158,0.019868470587964218,0.14344396829946157,0.9915386618399595,-0.08886335706405354,-0.021578807492729765,0.09213436337827777
2644.7666666727314,0.08251011,-0.84447163,0.021357208,-2.441799,0.20319246,1.5544895,0.69955754,0.04,0.04,0.0015331484190195255,-0.005538069048249827,-0.010782515742469023,-0.13561399324012824,0.02000474876996713,0.14390916808563475,0.9913125739167775,-0.09002943625537857,-0.021865286328007917,0.09335947009182524
2644.7833333393983,0.08360358,-0.8452691,0.021640321,-2.4429338,0.20588925,1.5542709,0.69840974,0.04,0.04,0.0018930087281709973,-0.005045264780306757,-0.010721888348563802,-0.13594689125843584,0.020140143370991587,0.1443563472481048,0.9910828856565975,-0.09119807290521814,-0.022152511624266662,0.09458800920678448
2644.800000006065,0.08470026,-0.8460687,0.021924265,-2.4440722,0.20859393,1.5540516,0.69725853,0.04,0.04,0.0010582842770112677,-0.004579539762405993,-0.010602944853310703,-0.1362623997062939,0.020271860200966628,0.14478560468835194,0.9908495913135568,-0.09236915113293936,-0.022440800235322876,0.09581981944011403
2644.816666672732,0.0858,-0.84687054,0.022209005,-2.445214,0.2113062,1.5538316,0.69610417,0.04,0.04,0.001507280100732089,-0.004138558866706443,-0.010695965285067999,-0.13656044957587274,0.020397629184938187,0.14520110590908555,0.9906126986557012,-0.09354249168368747,-0.022730094159141352,0.09705475944636881
2644.833333339399,0.08690267,-0.84767467,0.022494512,-2.4463584,0.21402574,1.5536109,0.6949467,0.04,0.04,0.0027605389977924943,-0.003733061941169069,-0.010133904209785882,-0.1368408532617183,0.020519067791362717,0.1455971865225207,0.9903722188529074,-0.09471800175940284,-0.023019911826814694,0.09829268501043348
2644.850000006066,0.08800814,-0.84848076,0.02278074,-2.4475057,0.21675216,1.5533897,0.69378626,0.04,0.04,0.0020374077297269366,-0.0032148091155148606,-0.010056841675432082,-0.13710351391177786,0.020638024866303766,0.14597656315639054,0.9901281588777501,-0.09589550525314852,-0.02331051513250205,0.09953341626739107
2644.8666666727327,0.08911628,-0.8492889,0.023067662,-2.4486558,0.21948518,1.553168,0.6926231,0.04,0.04,0.0021538530956766166,-0.0027875324130954837,-0.009863774101503964,-0.13734829899651824,0.02075437183944054,0.14633842914717526,0.9898805360547364,-0.09707478648896704,-0.023601757200183267,0.100776818887942
2644.8833333393995,0.09022698,-0.8500987,0.023355234,-2.4498086,0.22222443,1.5529459,0.6914571,0.04,0.04,0.0021616923717049374,-0.00233122887149384,-0.009739591139590331,-0.13757581367921334,0.02086546275917727,0.14668148542834797,0.9896293490044616,-0.09825580430608646,-0.02389377332991735,0.10202272347486258
2644.9000000060664,0.09134006,-0.8509104,0.023643434,-2.4509645,0.22496969,1.5527233,0.6902888,0.04,0.04,0.0015452335800913986,-0.0018807060923109464,-0.00979278017276819,-0.13778436088868407,0.020972435530877152,0.14700931609956294,0.9893746263412247,-0.09943818281715212,-0.024186634244049494,0.10327101855859352
2644.9166666727333,0.09245541,-0.85172373,0.02393222,-2.4521222,0.22772044,1.5525002,0.689118,0.04,0.04,0.003216267554284613,-0.0014093356632716159,-0.009135177424912655,-0.13797682920810042,0.021073040233901382,0.1473182956867293,0.9891163811819504,-0.10062196837425978,-0.024479909724877607,0.10452147137250606
2644.9333333394,0.09357288,-0.8525385,0.024221554,-2.453282,0.23047647,1.5522767,0.687945,0.04,0.04,0.0026901003382873157,-0.0009871958711993312,-0.009134309215408365,-0.13815076206089372,0.02117227481629414,0.14760966426711697,0.9888546252339194,-0.1018069499414886,-0.0247737741569671,0.10577398173045957
2644.950000006067,0.09469235,-0.85335493,0.024511406,-2.4544442,0.23323748,1.5520526,0.6867698,0.04,0.04,0.0027558925451698357,-0.0005717104844538135,-0.009231670614351373,-0.13830654988746569,0.021267327333364967,0.14788396937479528,0.9885893681047643,-0.10299303474590826,-0.025068220552527293,0.10702840923035896
2644.966666672734,0.095813714,-0.85417265,0.024801739,-2.4556086,0.23600297,1.5518283,0.68559265,0.04,0.04,0.002101278736410528,-1.674639217297269e-05,-0.008859180333131711,-0.13844418800068467,0.021356281776496896,0.14813994703209665,0.9883206473319145,-0.1041799488888366,-0.025363342615090486,0.10828451947685953
2644.983333339401,0.09693677,-0.85499156,0.025092514,-2.4567742,0.23877273,1.5516037,0.68441373,0.04,0.04,0.0039621578042492445,0.00030968770023398484,-0.008153110309283562,-0.13856363990122914,0.021441378562953455,0.14837937099552745,0.9880484856941895,-0.10536758061864332,-0.025658599863678532,0.10954222530617364
2645.0000000060677,0.0980614,-0.85581154,0.025383698,-2.4579415,0.24154636,1.5513787,0.6832332,0.04,0.04,0.0029665887684382497,0.000847264298819983,-0.008341812948997607,-0.1386657986251768,0.021523839341942866,0.1486007384649073,0.9877729059638046,-0.10655573162006371,-0.025954345878453775,0.1108013277571853
2645.0166666727346,0.09918748,-0.85663253,0.025675269,-2.4591103,0.24432363,1.5511535,0.6820512,0.04,0.04,0.003318066577895351,0.0011637299855260519,-0.008050853659336,-0.13875050642790504,0.021601887092236746,0.148802878086106,0.9874939275973283,-0.10774427310340845,-0.026250429199758053,0.11206172200465696
2645.0333333394015,0.10031487,-0.8574547,0.025967177,-2.460281,0.24710408,1.5509281,0.6808678,0.04,0.04,0.0026469688181318674,0.0017697267420513363,-0.008272424412480994,-0.1388171417454659,0.021675652656240295,0.14898984575897986,0.9872115803936163,-0.1089330304527529,-0.02654699073886804,0.11332320016584647
2645.0500000060683,0.10144342,-0.8582776,0.026259387,-2.4614527,0.2498874,1.5507023,0.6796832,0.04,0.04,0.003295467220110204,0.0021409198514510397,-0.007707463530803871,-0.13886617483835734,0.021744620134371506,0.1491572392842877,0.9869258917982859,-0.11012184497804499,-0.026843968802013358,0.1145856216797994
2645.066666672735,0.10257298,-0.85910124,0.02655186,-2.4626253,0.25267333,1.5504764,0.67849755,0.04,0.04,0.0041233576780985715,0.0025115757685600926,-0.007214763402707547,-0.13889757886814608,0.021807308397071144,0.14930750741905396,0.9866368940535175,-0.11131058653083954,-0.027141002904350082,0.11584886093499029
2645.083333339402,0.10370346,-0.85992545,0.026844565,-2.4637988,0.2554614,1.5502503,0.6773108,0.04,0.04,0.0035100494478967903,0.0030054646570965016,-0.0072827442608502935,-0.13891120277558583,0.02186818259673735,0.14943928127316886,0.9863446089622511,-0.11249917855669565,-0.02743831970375744,0.11711270557461757
2645.100000006069,0.104834676,-0.8607503,0.02713746,-2.464973,0.25825134,1.550024,0.6761234,0.04,0.04,0.003965644765768772,0.0034416439096629503,-0.007000760891595625,-0.13890630206003246,0.02192491631354322,0.1495535816170354,0.986049083960841,-0.11368734124784989,-0.02773571704413569,0.1183770351885403
2645.116666672736,0.10596651,-0.86157584,0.02743052,-2.4661477,0.26104283,1.5497977,0.6749353,0.04,0.04,0.004314061711063744,0.003821769108980355,-0.006803428635060449,-0.13888398689835912,0.02197756590458435,0.14965057001497,0.9857503475072779,-0.11487499241322445,-0.028033069700750837,0.1196416963708527
2645.1333333394027,0.10709881,-0.8624015,0.027723702,-2.4673226,0.26383552,1.5495712,0.6737467,0.04,0.04,0.004124187354626052,0.004244178789314379,-0.006331262066416876,-0.13884424857483127,0.0220270724348954,0.14972743420965584,0.9854484358812309,-0.11606193642907085,-0.028330522781467377,0.12090652840313719
2645.1500000060696,0.10823145,-0.86322737,0.028016971,-2.468498,0.26662895,1.5493447,0.6725578,0.04,0.04,0.003804113746608273,0.004784321004969172,-0.006302234641153426,-0.13878661718894722,0.022073209015476703,0.14978765731984645,0.9851433930491442,-0.11724801595314242,-0.02862807022464944,0.12217132021011884
2645.1666666727365,0.10936428,-0.86405355,0.028310291,-2.4696734,0.26942298,1.549118,0.67136866,0.04,0.04,0.004605446138050695,0.005049254102879042,-0.006104211142354821,-0.13871170438209057,0.02211445602794302,0.1498289746799536,0.9848352488136416,-0.11843309983245207,-0.028925503537932093,0.12343601096651673
2645.1833333394034,0.11049718,-0.86487967,0.028603628,-2.4708493,0.27221718,1.5488914,0.6701795,0.04,0.04,0.0034157066625128962,0.005553495216592541,-0.005963387080143434,-0.13861904799956015,0.022153171033364054,0.14985220215584472,0.9845240430257496,-0.11961698809641966,-0.029223171600087527,0.12470040539069857
2645.2000000060702,0.111630015,-0.8657058,0.02889694,-2.4720252,0.27501112,1.5486648,0.6689904,0.04,0.04,0.004190546706639431,0.006015403995868196,-0.005647100162886609,-0.13850880103799787,0.022183621522266037,0.1498580084638358,0.9842098245823375,-0.12079958236971175,-0.029520803429738177,0.12596429755994407
2645.216666672737,0.11276261,-0.86653185,0.029190198,-2.4732003,0.2778045,1.5484382,0.66780156,0.04,0.04,0.005267443020962048,0.0063830465369785205,-0.005152693479493209,-0.1383808321872027,0.022211350286964995,0.1498456820528855,0.9838926458994696,-0.12198071010698826,-0.029818073920748582,0.12722755273286013
2645.233333339404,0.11389486,-0.86735743,0.029483363,-2.4743755,0.28059703,1.5482118,0.666613,0.04,0.04,0.003675802417446583,0.006762654853859074,-0.005021155160456203,-0.1382358023418502,0.02223640387059802,0.14981587732292598,0.9835725306468748,-0.12316024243655209,-0.030115410655560275,0.128490052848146
2645.250000006071,0.1150266,-0.8681826,0.029776402,-2.4755504,0.28338835,1.5479854,0.665425,0.04,0.04,0.003994245313099221,0.007231866115253727,-0.00498643738839899,-0.13807288380134813,0.022255655971900073,0.14976861296932775,0.9832495388679177,-0.12433794555958563,-0.03041279190262048,0.12975161539933425
2645.2666666727378,0.1161577,-0.86900747,0.030069273,-2.476725,0.28617805,1.5477593,0.6642377,0.04,0.04,0.004097340754283252,0.007691140634519256,-0.004733617639662846,-0.13789270090600803,0.02226777947453705,0.14970148826570692,0.9829237221254431,-0.12551370242340937,-0.030710030564026155,0.13101206436732937
2645.2833333394046,0.11728803,-0.8698318,0.03036194,-2.4778986,0.28896585,1.5475332,0.6630512,0.04,0.04,0.005325200914030326,0.007972712209175503,-0.004230077982292357,-0.1376956135686812,0.022275750445187245,0.149618419655504,0.9825951261120103,-0.12668741939172004,-0.03100689016377698,0.13227126925814367
2645.3000000060715,0.11841744,-0.8706553,0.030654369,-2.4790711,0.29175138,1.5473073,0.66186565,0.04,0.04,0.004620515663278368,0.008403144393970274,-0.0038938803759380747,-0.13748106975238897,0.022280324751497563,0.14951556164672294,0.982263803244461,-0.1278589044611114,-0.031303512028863195,0.13352906620054675
2645.3166666727384,0.11954578,-0.8714782,0.03094653,-2.4802423,0.2945343,1.5470816,0.66068125,0.04,0.04,0.005568388524279655,0.008805313476306642,-0.0036404820632052193,-0.1372497040485996,0.022278829364190587,0.14939585903661978,0.9819298142981143,-0.1290280375300382,-0.03159953979475786,0.13478529002965178
2645.3333333394053,0.12067292,-0.87230015,0.031238383,-2.4814122,0.2973143,1.546856,0.6594981,0.04,0.04,0.004722013230828992,0.009188359804962465,-0.0035535543843501216,-0.1370012736070995,0.022276429119859803,0.14925777063731707,0.9815932008067667,-0.13019464968613778,-0.03189532200780813,0.1360398094568227
2645.350000006072,0.12179875,-0.8731211,0.031529885,-2.4825807,0.30009097,1.5466309,0.6583164,0.04,0.04,0.0050343091413607155,0.00957540542976254,-0.0030983860890954062,-0.13673572350114138,0.022267457438231806,0.14910071002936287,0.9812540277515563,-0.13135858677075576,-0.032190652166533974,0.13729244923167178
2645.366666672739,0.12292312,-0.87394094,0.031821012,-2.483748,0.30286402,1.5464059,0.65713614,0.04,0.04,0.004467643455585701,0.009990026922002126,-0.003141414224150374,-0.1364536997765026,0.02225683437540838,0.1489283127379188,0.9809123409991417,-0.1325197278697248,-0.032485726770480346,0.13854305669037076
2645.383333339406,0.124045864,-0.8747598,0.03211172,-2.4849136,0.3056331,1.5461813,0.6559576,0.04,0.04,0.00527048935994312,0.010380745115401435,-0.002692782480795408,-0.13615421575773395,0.022238225578383567,0.1487357642499737,0.9805682078831082,-0.13367792063515946,-0.03278021703556301,0.13979148970760388
2645.400000006073,0.12516686,-0.8755773,0.03240198,-2.486077,0.3083979,1.5459571,0.6547809,0.04,0.04,0.005629002888007939,0.01066382634385965,-0.0021716639520663605,-0.1358384912289382,0.022217160422644683,0.1485272592516045,0.9802216908190665,-0.13483300269345863,-0.03307406978295979,0.1410375983221079
2645.4166666727397,0.12628597,-0.8763934,0.032691747,-2.4872386,0.31115812,1.5457331,0.6536061,0.04,0.04,0.0051318547063861075,0.011056980056245447,-0.002231921434470152,-0.13550622780344707,0.022191681341291535,0.1483004728957917,0.979872828014474,-0.1359849073021234,-0.03336744202404989,0.1422812697361173
2645.4333333394065,0.12740304,-0.87720805,0.032981005,-2.4883983,0.31391338,1.5455096,0.65243345,0.04,0.04,0.005025762087895735,0.011490012661019566,-0.0018670097024386934,-0.13515711659157506,0.022161889343758717,0.14805594336411096,0.9795217036648485,-0.13713339407293212,-0.03366025204039849,0.14352230388384773
2645.4500000060734,0.12851804,-0.8780212,0.033269703,-2.4895558,0.31666332,1.5452865,0.6512631,0.04,0.04,0.005219470941852933,0.011735912113719493,-0.0015939313706914149,-0.13479129308480228,0.022127207087304507,0.14779328214780876,0.9791683741863372,-0.1382783691145849,-0.0339524482062982,0.14476055709030136
2645.4666666727403,0.12963068,-0.87883264,0.0335578,-2.4907112,0.3194076,1.545064,0.6500951,0.04,0.04,0.005008258923178133,0.012300648039942352,-0.0013146810338371395,-0.13440945960977538,0.02208758495494055,0.14751304311715552,0.9788129065624881,-0.1394196619117196,-0.03424406207333684,0.1459958767631244
2645.483333339407,0.13074096,-0.87964225,0.033845283,-2.491864,0.3221459,1.5448418,0.6489297,0.04,0.04,0.0054979987498704475,0.012459986962198855,-0.0010066630109495378,-0.13401171654760138,0.022043515519179293,0.14721542160314524,0.9784553647807928,-0.1405571665265171,-0.03453502499459167,0.14722810233900874
2645.500000006074,0.13184854,-0.8804501,0.0341321,-2.493014,0.32487792,1.5446202,0.64776695,0.04,0.04,0.005589680966688881,0.01299275419422985,-0.000650063177287663,-0.13359748513258515,0.021993032084168442,0.1469005579197681,0.9780958222934972,-0.14169071111947745,-0.03482513204371542,0.1484571149275173
2645.516666672741,0.13295357,-0.8812559,0.034418218,-2.4941611,0.32760334,1.5443991,0.646607,0.04,0.04,0.00594459560896432,0.013024305137387948,-0.00020850913555747752,-0.13316770611828913,0.021941277606845742,0.14656766717891626,0.9777343280086559,-0.14282027827638663,-0.03511434334366439,0.14968278069992136
2645.533333339408,0.13405575,-0.8820596,0.034703586,-2.4953055,0.3303218,1.5441786,0.64545,0.04,0.04,0.004956978549031099,0.013636401911204521,-0.0002722270856736486,-0.13272133040787887,0.021884792347293527,0.1462172217133466,0.9773709620332068,-0.14394559715974475,-0.035402969274294566,0.1509049283461991
2645.5500000060747,0.13515492,-0.88286114,0.03498819,-2.4964461,0.33303288,1.5439585,0.64429617,0.04,0.04,0.006874496424114085,0.013908519350236404,0.00043841114898413025,-0.13225947478607283,0.02182085957074493,0.14584892208084246,0.9770058086234267,-0.14506661751817163,-0.03569039228773267,0.15212337853291522
2645.5666666727416,0.13625103,-0.8836605,0.035272,-2.4975839,0.33573636,1.5437392,0.6431456,0.04,0.04,0.005153934492985179,0.01421833963096697,0.0003403391574563486,-0.13178234771832642,0.021757752434965152,0.14546354462008532,0.9766389262838202,-0.14618314427282023,-0.035977024455391374,0.1533380243417621
2645.5833333394085,0.1373439,-0.8844575,0.035554983,-2.498718,0.3384319,1.5435207,0.64199835,0.04,0.04,0.006142191114322237,0.014542963390240526,0.0010140162431726552,-0.13128970388617134,0.021688715086780243,0.14506124731454542,0.9762703887705101,-0.14729513205272762,-0.03626249597858267,0.15454870904944404
2645.6000000060753,0.13843341,-0.88525206,0.035837095,-2.4998493,0.34111905,1.5433027,0.6408548,0.04,0.04,0.004571143266507427,0.015031295181694437,0.0006485038488213135,-0.13078135476506503,0.021616450006341218,0.14464222277690378,0.9759002800212025,-0.14840226910062068,-0.036547442610357715,0.15575523881708792
2645.616666672742,0.13951942,-0.8860441,0.036118302,-2.500976,0.34379768,1.5430855,0.6397149,0.04,0.04,0.007360748661988659,0.015048568994474598,0.0018688369401997917,-0.1302584938496184,0.021536656897517416,0.14420656392284095,0.97552866803163,-0.14950460963667597,-0.036830853159538,0.15695756688149626
2645.633333339409,0.14060181,-0.8868333,0.03639859,-2.5021,0.34646744,1.5428687,0.63857865,0.04,0.04,0.004098769552163262,0.0155833242538983,0.0010987278259211308,-0.12972078471877618,0.021456887228218365,0.14375203608316392,0.9751555962707809,-0.15060197859519778,-0.03711385408583988,0.15815552137021463
2645.650000006076,0.14168043,-0.88762003,0.036677886,-2.5032191,0.3491279,1.5426531,0.63744634,0.04,0.04,0.007569183907252253,0.01579810041390517,0.002523905701434792,-0.12916706677245582,0.021368245951138037,0.1432828104434484,0.974781187018826,-0.1516943093876155,-0.037395073771273525,0.15934893282110096
2645.666666672743,0.1427552,-0.8884037,0.036956176,-2.504335,0.35177875,1.5424379,0.63631815,0.04,0.04,0.004427072322332748,0.01622338777418353,0.001775258583336381,-0.12859913805009507,0.021280776670311374,0.14279505494332523,0.9744054892242056,-0.15278134490933415,-0.03767577779359098,0.16053765597229755
2645.6833333394097,0.14382593,-0.8891846,0.037233442,-2.505446,0.35441986,1.5422238,0.6351941,0.04,0.04,0.007096869340794676,0.016261313040361047,0.0029661350102072603,-0.12801629525875768,0.021184125313041806,0.14229164485183218,0.9740285884669547,-0.15386309209674676,-0.037954841936648186,0.16172163650255278
2645.7000000060766,0.14489256,-0.88996255,0.037509628,-2.5065536,0.3570506,1.5420105,0.6340744,0.04,0.04,0.0043711183748573745,0.01696942082631825,0.0023571970097835404,-0.12741878268047166,0.021086486807981905,0.14177057537937743,0.9736505704866206,-0.15493932156477244,-0.038233141839887366,0.16290058345253822
2645.7166666727435,0.1459549,-0.89073735,0.03778471,-2.5076566,0.35967097,1.541798,0.6329592,0.04,0.04,0.006442795622008113,0.016891057734652604,0.0031987611503581093,-0.1268070815672518,0.02098300874180313,0.14123390561189694,0.973271499238823,-0.15600996796148467,-0.03851015589692745,0.16407451526323283
2645.7333333394104,0.1470129,-0.89150894,0.03805866,-2.508755,0.3622805,1.5415863,0.63184875,0.04,0.04,0.0058638680505263,0.017290498720989866,0.0033726582588711196,-0.12618119431051653,0.020874506905962167,0.14068120383799543,0.9728914743927791,-0.15707485077528358,-0.038785982229059116,0.16524320830307707
2645.7500000060772,0.14806637,-0.89227724,0.038331445,-2.5098484,0.36487874,1.5413755,0.63074297,0.04,0.04,0.006482021109066594,0.017648840074679928,0.003925637162338624,-0.12554167308033437,0.020761126259722627,0.14011168528681273,0.9725105742820076,-0.15813398158336536,-0.039060330270564436,0.16640648237801933
2645.766666672744,0.1491152,-0.8930422,0.038603023,-2.5109367,0.3674656,1.5411658,0.6296421,0.04,0.04,0.006376711457267703,0.01781739145977901,0.004196026321401369,-0.124888038460519,0.020645736548334768,0.13952623551858578,0.97212888193845,-0.1591871519009508,-0.03933318361722357,0.1675642809112264
2645.783333339411,0.15015924,-0.8938037,0.03887337,-2.5120208,0.3700407,1.5409567,0.6285461,0.04,0.04,0.004845135434461412,0.018237830823553125,0.003734635269436737,-0.12422108308751442,0.020527408697052257,0.13892431120656043,0.9717464437648986,-0.1602343057792889,-0.03960516015679152,0.16871647095247397
2645.800000006078,0.1511984,-0.89456165,0.039142463,-2.5131,0.37260392,1.5407488,0.62745506,0.04,0.04,0.00596294365144967,0.018289229159390574,0.00472666546572631,-0.12353959912967297,0.02040124467817623,0.1383068783438291,0.9713633496646104,-0.1612753703738429,-0.039875675799234116,0.16986296923897842
2645.8166666727448,0.1522326,-0.895316,0.039410256,-2.5141735,0.3751548,1.540542,0.6263694,0.04,0.04,0.0065761818592635635,0.018578272748004387,0.005037625765835774,-0.12284416042156157,0.02027186574873615,0.13767380655243544,0.970979714381396,-0.16231013536805558,-0.04014458533723523,0.17100358617504988
2645.8333333394116,0.15326168,-0.89606655,0.039676726,-2.5152419,0.377693,1.5403361,0.6252892,0.04,0.04,0.005796217143450022,0.018928150974995006,0.005135999321836948,-0.12213601441836822,0.020140355333059638,0.13702371079073544,0.9705956109508044,-0.1633384982893809,-0.040412165846119036,0.1721381765653123
2645.8500000060785,0.15428548,-0.8968133,0.039941844,-2.5163045,0.38021827,1.5401313,0.6242145,0.04,0.04,0.006498000192523001,0.01913765944117074,0.005638650176076343,-0.12141492204619658,0.020003872310584505,0.13636009614884623,0.9702111227890493,-0.16436040707420282,-0.040678115457972,0.17326662900166986
2645.8666666727454,0.15530394,-0.897556,0.04020557,-2.5173619,0.38273028,1.5399275,0.62314534,0.04,0.04,0.00538210253364646,0.01944110728722137,0.005558599255683916,-0.1206810738976988,0.019864018157045193,0.13567922524452017,0.9698263252358109,-0.1653757285885756,-0.04094281646837588,0.17438879853086306
2645.8833333394123,0.1563169,-0.89829487,0.04046789,-2.518413,0.38522878,1.5397248,0.62208194,0.04,0.04,0.007015077086824917,0.019565644844088403,0.006325371503979049,-0.11993415668034911,0.01971900063124999,0.13498333469789042,0.9694413127287421,-0.1663844296811295,-0.041205621355371674,0.17550458541923092
2645.900000006079,0.15732427,-0.89902943,0.04072876,-2.5194592,0.38771343,1.5395234,0.6210245,0.04,0.04,0.004512801004086242,0.020010707306972186,0.006136725465688553,-0.11917446484448649,0.019571027951312988,0.13427205749736917,0.9690561796183792,-0.16738618983695347,-0.041467326825455564,0.17661383015282228
2645.916666672746,0.15832596,-0.8997599,0.040988136,-2.520499,0.39018404,1.5393231,0.6199731,0.04,0.04,0.00695094149558706,0.019972475015539448,0.006875308029297145,-0.11840303389686796,0.019416211939310417,0.1335464147824031,0.9686710020475422,-0.16838108990719092,-0.041727147616867535,0.17771646942711086
2645.933333339413,0.15932181,-0.9004862,0.04124601,-2.521533,0.39264032,1.5391239,0.6189278,0.04,0.04,0.005550887577188135,0.020345147904787808,0.006663804753503921,-0.11761981134351955,0.01925982124477977,0.13280457978514193,0.9682858490517136,-0.16936903395749558,-0.0419855019519819,0.17881236670976317
2645.95000000608,0.16031171,-0.90120816,0.04150234,-2.5225606,0.39508194,1.5389259,0.61788857,0.04,0.04,0.00651464650225364,0.020538654586965688,0.0073402682959855525,-0.11682392763459482,0.019098594159551424,0.13204929860270204,0.9679008163028547,-0.1703499647167947,-0.04224203634081784,0.17990138878573253
2645.9666666727467,0.16129556,-0.9019257,0.041757114,-2.5235815,0.39750862,1.5387292,0.6168559,0.04,0.04,0.006640416431724638,0.02068144304262498,0.007780738614104887,-0.11601600700138248,0.018933808360747338,0.1312779134770314,0.9675160162284822,-0.171323655678121,-0.0424966928024308,0.1809834093150747
2645.9833333394135,0.16227323,-0.90263873,0.04201029,-2.5245962,0.39992014,1.5385336,0.61582965,0.03999999,0.04,0.005683547251233989,0.02099621921535233,0.007561347574569499,-0.11519748238458342,0.018767362551491248,0.1304925507005902,0.9671314990756292,-0.17229010751581006,-0.04274979087963625,0.1820583360565074
2646.0000000060804,0.16324465,-0.9033472,0.042261846,-2.5256045,0.4023162,1.5383393,0.61481,0.03999998,0.04,0.005893782160715233,0.021116354903449874,0.008057351592427597,-0.1143665405279339,0.01859680077762495,0.12969360728327187,0.9667473652902626,-0.17324918809202058,-0.04300117102366052,0.1831260489946342
2646.0166666727473,0.16420971,-0.904051,0.04251175,-2.5266066,0.40469658,1.5381463,0.61379695,0.039999984,0.04,0.005320524445417973,0.02138551045529624,0.008156311699936136,-0.11352519381403553,0.018421213198857943,0.128879166378113,0.9663636914135578,-0.17420082026851486,-0.04325096599973771,0.184186438359147
2646.033333339414,0.16516826,-0.90475017,0.04275997,-2.5276022,0.407061,1.5379546,0.6127906,0.03999998,0.04,0.005595635200794646,0.021586738782597426,0.008460151548417283,-0.11267183063545294,0.018239663721880205,0.1280517324135708,0.9659805604841155,-0.17514494364575964,-0.0434990497476364,0.18523940766794333
2646.050000006081,0.16612022,-0.9054443,0.043006483,-2.5285907,0.40940914,1.5377641,0.6117913,0.039999977,0.04,0.006260992469675486,0.021705754075918016,0.009024506203925142,-0.11180775768075246,0.018055160903981193,0.1272099561852753,0.965598085405808,-0.176081396641657,-0.04374533853007044,0.1862847942647245
2646.066666672748,0.16706549,-0.9061338,0.043251276,-2.529572,0.41174075,1.537575,0.61079913,0.039999973,0.04,0.006477563538154207,0.02187634925929771,0.00924157346289256,-0.11093315186304319,0.017865643644893018,0.12635518850087502,0.9652163493347239,-0.17701015641984572,-0.04398955954240764,0.18732250839777648
2646.083333339415,0.16800398,-0.90681833,0.043494318,-2.5305464,0.41405568,1.5373871,0.6098139,0.039999966,0.04,0.005757870936640153,0.02204559793297367,0.009181611211328544,-0.11004840838039859,0.017674942689961653,0.1254865535821734,0.9648353996163369,-0.17793122967982503,-0.04423201318482923,0.18835248382069755
2646.1000000060817,0.16893555,-0.90749764,0.04373557,-2.5315137,0.4163535,1.5372007,0.60883594,0.03999997,0.04,0.00570439745299911,0.022319637436363227,0.009843536181264323,-0.10915261794148796,0.01747948352957532,0.12460426964463484,0.9644553585664064,-0.17884442616973456,-0.04447264995150865,0.189374538855817
2646.1166666727486,0.16986018,-0.908172,0.043975,-2.5324736,0.41863412,1.5370158,0.6078653,0.039999958,0.04,0.006323187821144494,0.0223286103332887,0.010036885412090246,-0.1082463547818419,0.017279757821803354,0.12370971204999903,0.9640762985454008,-0.17974973079659687,-0.04471115630787633,0.19038864819931586
2646.1333333394155,0.1707777,-0.9088414,0.044212613,-2.5334263,0.42089722,1.5368321,0.60690206,0.03999995,0.04,0.005632934192689731,0.022651946512819432,0.009880809651574562,-0.10733068443086319,0.017078543937994958,0.12280121171876784,0.9636983077983943,-0.18064703052128006,-0.04494784914688106,0.19139465187779994
2646.1500000060823,0.17168804,-0.90950537,0.044448357,-2.5343714,0.4231426,1.5366504,0.6059464,0.03999995,0.04,0.006178870270234782,0.022633976160113534,0.011048934449864323,-0.1064047262442469,0.01687304962795018,0.1218805688082992,0.9633214925709244,-0.18153619960022738,-0.04518226746286676,0.192392496975706
2646.166666672749,0.17259109,-0.9101638,0.0446822,-2.535309,0.42536995,1.5364698,0.6049986,0.039999947,0.04,0.0052447565796365225,0.022975746015330145,0.010471088919439264,-0.10547051108803561,0.016667168695175486,0.12094639543954233,0.9629459253229012,-0.18241712747989214,-0.045415093318413736,0.19338202037647126
2646.183333339416,0.17348678,-0.9108168,0.044914145,-2.5362391,0.42757908,1.5362905,0.6040584,0.03999993,0.04,0.005640780243698629,0.023003991416448155,0.010875946805155579,-0.1045269569779186,0.016452329033767508,0.12000130422944888,0.9625716658432424,-0.18328990140671675,-0.045646041565828105,0.19436316278413504
2646.200000006083,0.17437495,-0.9114642,0.045144152,-2.5371614,0.42976984,1.5361129,0.60312593,0.03999993,0.04,0.005963034179634619,0.023124399052609768,0.011484026695796068,-0.10357327886805881,0.016234866233027365,0.11904421500902371,0.962198812639267,-0.18415438882591165,-0.045874844810917595,0.19533587649306502
2646.21666667275,0.17525558,-0.9121066,0.0453722,-2.538076,0.43194196,1.5359367,0.60220146,0.03999993,0.04,0.0058111671958460676,0.02334696544142867,0.011115346883916466,-0.102611029183707,0.016014941600902555,0.11807526089554336,0.9618274556717132,-0.1850105323337306,-0.04610152405625543,0.19630002017666393
2646.2333333394167,0.17612854,-0.9127438,0.045598272,-2.5389824,0.4340952,1.5357623,0.60128516,0.03999993,0.04,0.006500020060595801,0.023424636893198958,0.011817646303535767,-0.1016399290848769,0.015792809855505484,0.11709809786496433,0.9614577031275874,-0.18585822234944102,-0.04632570698488729,0.19725550728453714
2646.2500000060836,0.1769938,-0.9133752,0.04582234,-2.5398803,0.43622935,1.5355893,0.6003769,0.039999913,0.04,0.006419095225562721,0.02341355861650296,0.012193921544401132,-0.10066232109442091,0.01556966238258661,0.1161029281080998,0.9610895943591508,-0.18669754691893312,-0.04654767415043777,0.19820224928138575
2646.2666666727505,0.17785122,-0.9140007,0.046044383,-2.54077,0.4383442,1.5354177,0.5994768,0.039999913,0.04,0.005441410269568792,0.02366842716027273,0.012100350964117101,-0.09967532217750302,0.015345214166190212,0.1150965923376751,0.9607232129721454,-0.18752833955866968,-0.04676774050968493,0.1991401726585194
2646.2833333394174,0.17870067,-0.9146203,0.046264384,-2.5416517,0.44043952,1.5352478,0.59858507,0.03999991,0.04,0.005409004717327193,0.02383099091602947,0.012641304645066853,-0.0986793965430524,0.01511494071594211,0.11407972607683134,0.9603586764744267,-0.18835044490058067,-0.046985680853554125,0.2000691585946435
2646.3000000060842,0.17954217,-0.915234,0.04648231,-2.542525,0.44251516,1.5350795,0.5977016,0.039999906,0.04,0.005712453993633737,0.023818111652074148,0.012644200423383989,-0.0976767347655472,0.014881668499376312,0.1130526986504183,0.9599960259265373,-0.18916396504720545,-0.04720146068467758,0.20098917045977296
2646.316666672751,0.18037558,-0.9158418,0.046698146,-2.5433898,0.4445709,1.534913,0.5968266,0.0399999,0.04,0.005917325444437793,0.02394702048917896,0.013171512621390491,-0.0966660678770439,0.014646003088718966,0.11201546793488076,0.9596353682720272,-0.18996876904891066,-0.04741491151435891,0.2019001062742118
2646.333333339418,0.18120088,-0.9164437,0.04691187,-2.5442462,0.44660655,1.534748,0.5959604,0.039999895,0.04,0.0054145261816129775,0.02405247533643351,0.012965752817095666,-0.09564830196393692,0.014409039557151847,0.11096596467990795,0.9592767862556063,-0.1907647284005501,-0.04762626577066392,0.20280188499647137
2646.350000006085,0.18201794,-0.9170397,0.047123473,-2.5450947,0.448622,1.5345843,0.59510255,0.039999887,0.04,0.004478822544040639,0.024238606586746148,0.012726146022190576,-0.09462396555310822,0.01416640198601208,0.10990742231655408,0.9589203058449031,-0.191551939399555,-0.04783582300139621,0.20369446626839402
2646.3666666727518,0.18282668,-0.9176296,0.04733293,-2.5459342,0.45061693,1.5344224,0.5942534,0.039999887,0.04,0.006236528775405148,0.02419719734750858,0.013879719732545759,-0.09359126159634398,0.013918565012078388,0.10883899949862383,0.9585660540647793,-0.1923303289899466,-0.04804288252511802,0.20457772602112606
2646.3833333394186,0.18362708,-0.91821325,0.04754021,-2.5467653,0.45259115,1.5342621,0.5934133,0.03999988,0.04,0.004725561792873201,0.02440211784967561,0.013572827384711328,-0.09255207002893764,0.013670004445878733,0.10775961238763775,0.958214117345913,-0.1930996762488868,-0.04824802252215213,0.2054515725767749
2646.4000000060855,0.184419,-0.9187909,0.047745302,-2.547587,0.45454457,1.5341038,0.592582,0.03999988,0.04,0.0069207324709053,0.024281615540344692,0.014544017081374871,-0.09150723721909554,0.01341560466489236,0.10667331857824608,0.9578645647783266,-0.1938601535395157,-0.048450285758142544,0.20631598634525788
2646.4166666727524,0.18520245,-0.9193623,0.047948197,-2.5484,0.45647693,1.533947,0.59175956,0.03999987,0.04,0.004940466273883892,0.024533491446976363,0.013925177560547564,-0.09045643265724274,0.013164336424729134,0.10557537966142183,0.9575174532815891,-0.1946116698702139,-0.0486504625077288,0.20717084039326272
2646.4333333394193,0.18597727,-0.9199275,0.04814886,-2.549204,0.45838812,1.5337921,0.5909462,0.03999987,0.04,0.005275791837999755,0.02458303446626342,0.014513526788983988,-0.08939933711682635,0.012909042540251938,0.10446820144384807,0.9571728821419746,-0.19535407390009701,-0.048848294846411046,0.20801611378270451
2646.450000006086,0.18674345,-0.9204864,0.048347287,-2.5499997,0.4602779,1.5336391,0.59014195,0.039999865,0.04,0.004712562368536233,0.024710806341543545,0.014419093662965121,-0.08833688778848292,0.012650706515860932,0.10335327673088215,0.956830923717404,-0.19608734901677305,-0.04904396492456161,0.2088516805729653
2646.466666672753,0.1875009,-0.9210389,0.048543476,-2.5507863,0.4621462,1.5334876,0.58934677,0.03999986,0.04,0.00526507586569025,0.024653993531287277,0.01464083203442934,-0.0872692052789027,0.012389482895505791,0.10223095503722278,0.9564916185049472,-0.1968115610710364,-0.0492374001046776,0.20967754192926844
2646.48333333942,0.18824956,-0.921585,0.048737396,-2.5515633,0.463993,1.5333378,0.58856076,0.039999854,0.04,0.005984454649832216,0.024526377404820998,0.015168589058911497,-0.08619603737826118,0.012125366855911182,0.10109947383925755,0.9561550358985994,-0.19752668624588793,-0.04942829213699689,0.2104937041407327
2646.500000006087,0.18898942,-0.9221246,0.048929002,-2.5523312,0.465818,1.5331899,0.58778423,0.039999854,0.04,0.004986524302075246,0.02480236031154881,0.015125251273451212,-0.08511742981656067,0.011859581184005898,0.09995831078888365,0.9558212875527922,-0.19823252274178316,-0.04961692878630791,0.21130000843863134
2646.5166666727537,0.18972035,-0.92265785,0.04911831,-2.55309,0.46762103,1.5330437,0.58701706,0.039999846,0.04,0.005000375976083049,0.02485635500426575,0.015212911478046376,-0.08403503608492055,0.01159079616164027,0.09881209906522975,0.9554904266659473,-0.19892911464336935,-0.049803230513791576,0.21209641705441729
2646.5333333394206,0.19044237,-0.92318445,0.049305297,-2.5538397,0.46940196,1.5328993,0.5862588,0.039999846,0.04,0.005039590707744956,0.024829226995726206,0.015419510395520142,-0.08294828647205477,0.011319755519327613,0.097656231213043,0.9551624633628858,-0.1996167076282871,-0.04998721487547385,0.21288287147438575
2646.5500000060874,0.19115539,-0.9237046,0.049489964,-2.5545797,0.47116077,1.5327566,0.58551013,0.03999984,0.04,0.0055584330048708,0.02477019793039048,0.01565875692051133,-0.08185487988181372,0.011046687052575787,0.09649446472863389,0.9548375134073699,-0.20029503711309027,-0.050168677557810376,0.2136593664925484
2646.5666666727543,0.19185935,-0.9242182,0.049672287,-2.5553105,0.4728972,1.5326159,0.58477104,0.03999983,0.04,0.004917609124710509,0.024931504230607526,0.01595364151035783,-0.08075796016741199,0.010771605804910128,0.09532478031520802,0.954515668583863,-0.20096399790716374,-0.050347706163680915,0.2144257877614682
2646.583333339421,0.19255424,-0.9247252,0.04985226,-2.556032,0.47461116,1.5324769,0.5840415,0.039999824,0.04,0.004808450488780203,0.024932969068758304,0.015736387579612376,-0.07965804557084721,0.010496084462918843,0.0941490145873489,0.9541969588968005,-0.20162367830692618,-0.050524440381554424,0.21518210172366423
2646.600000006088,0.19323991,-0.92522526,0.050029855,-2.5567439,0.47630256,1.5323399,0.5833216,0.03999982,0.04,0.004874028579937573,0.024936762189775585,0.0164332809675094,-0.07855379751240024,0.010217406361238822,0.09296816122278793,0.953881473827696,-0.20227393227522142,-0.050698764379752785,0.21592828786564283
2646.616666672755,0.19391645,-0.9257187,0.050205067,-2.5574458,0.47797123,1.5322044,0.5826114,0.039999813,0.04,0.005685598011795356,0.02487726673451318,0.016104069350741934,-0.07744747086746781,0.009936783427344793,0.0917801949535675,0.9535692429719352,-0.20291494921615014,-0.050870610184018915,0.21666426392472507
2646.633333339422,0.19458376,-0.92620546,0.050377887,-2.5581388,0.47961727,1.532071,0.5819107,0.03999981,0.04,0.0037550359573756964,0.02494669271837502,0.016280961446613063,-0.07633707773327916,0.009654266368617277,0.09058597623065277,0.9532603229508895,-0.20354654278747716,-0.05104023414328007,0.2173901012130747
2646.6500000060887,0.19524178,-0.9266855,0.050548308,-2.558822,0.48124027,1.5319391,0.58122003,0.039999813,0.04,0.005450576611054636,0.025004355291591285,0.01647090422981501,-0.07522427328736106,0.009368552290458701,0.08938507693515348,0.9529548123951459,-0.20416874891252154,-0.0512073654209946,0.2181056010905469
2646.6666666727556,0.19589052,-0.9271587,0.05071632,-2.5594954,0.4828404,1.5318096,0.5805392,0.03999981,0.04,0.004652758025058823,0.024846615704099406,0.01693280204431158,-0.07410872901768703,0.00908143563971121,0.08818032765756487,0.9526527632951721,-0.204781457737364,-0.0513719683111814,0.2188108498792239
2646.6833333394225,0.19652982,-0.92762506,0.05088191,-2.560159,0.48441744,1.5316813,0.5798681,0.0399998,0.04,0.005121650447947879,0.02496395590345646,0.016571865247960726,-0.07299257548626464,0.008793059562876517,0.08697016953687677,0.952354177053588,-0.20538489844670682,-0.05153423754213856,0.21950577964957926
2646.7000000060893,0.19715978,-0.92808455,0.05104508,-2.560813,0.4859713,1.5315555,0.5792067,0.0399998,0.04,0.004499573916660893,0.024903505666640235,0.01731221925436177,-0.07187223481045625,0.00850250266463922,0.08575652531600456,0.9520591658170926,-0.20597889727889437,-0.051693847485694104,0.22019033764349977
2646.716666672756,0.19778036,-0.9285372,0.051205814,-2.5614572,0.48750195,1.5314312,0.5785553,0.039999798,0.04,0.004601452787200699,0.024885811486519138,0.0166704937492268,-0.0707513402166035,0.00821256415000744,0.08453708612310745,0.9517677412796576,-0.20656351111005622,-0.05185122285328051,0.22086451327889658
2646.733333339423,0.19839145,-0.92898303,0.05136409,-2.562091,0.4890092,1.5313094,0.5779138,0.039999798,0.04,0.005560028479623114,0.024871882124155587,0.017835780342545515,-0.06962844700665294,0.007918869953856086,0.08331308725745587,0.951480018103094,-0.2071386787071922,-0.0520055737178823,0.22152824478212335
2646.75000000609,0.19899306,-0.9294219,0.05151992,-2.5627158,0.49049324,1.5311888,0.57728237,0.03999979,0.04,0.003583788783934061,0.024875222814180198,0.016587670867374005,-0.06850546975917844,0.007629540671278654,0.08208769082415182,0.9511959678219404,-0.20770436100878578,-0.05215803559767181,0.22218161161492667
2646.766666672757,0.19958518,-0.929854,0.051673293,-2.5633302,0.49195382,1.5310707,0.57666075,0.039999787,0.04,0.005407259281331456,0.024730878076917318,0.017855470705785415,-0.06738090092135869,0.007331799724127991,0.08085652244899173,0.9509156804005846,-0.20826071480492517,-0.05230752394158063,0.22282451924403637
2646.7833333394237,0.20016782,-0.93027896,0.05182422,-2.5639348,0.49339098,1.530954,0.5760491,0.039999783,0.04,0.004112198413785961,0.024734607891974125,0.017075967931057257,-0.06625588730144144,0.007039264092807701,0.07962325032572977,0.950639156983939,-0.20880770101889598,-0.05245489262512697,0.22345697895513483
2646.8000000060906,0.20074089,-0.9306972,0.05197266,-2.5645297,0.49480462,1.5308397,0.5754476,0.039999776,0.04,0.0045643482983193095,0.024775354121464588,0.017790771272574446,-0.06512897820059224,0.006742734668247485,0.07838721636396599,0.9503665216869613,-0.20934512741016584,-0.05259952200492168,0.224078964588605
2646.8166666727575,0.20130444,-0.93110824,0.05211863,-2.5651145,0.49619466,1.5307268,0.574856,0.039999776,0.04,0.004245102073063833,0.024670505820523214,0.017384136685572038,-0.06400404401554075,0.006446394829751997,0.07714855032757748,0.9500977275796256,-0.209873289558264,-0.05274196204758041,0.2246904444283206
2646.8333333394244,0.20185837,-0.9315125,0.05226212,-2.5656896,0.4975611,1.5306162,0.5742745,0.039999772,0.04,0.004353608295870615,0.02469114762508884,0.01785570526405822,-0.06287717491563269,0.006147895016567302,0.07590812261488641,0.9498328926127434,-0.210391953067907,-0.052881744400838704,0.22529141862109295
2646.8500000060912,0.20240274,-0.9319095,0.052403137,-2.5662549,0.49890387,1.5305071,0.573703,0.039999772,0.04,0.0037613144876713633,0.024609502661199212,0.01750037795618109,-0.061752126134370186,0.005848332986414965,0.0746655802839147,0.9495720029171354,-0.21090124657590226,-0.053019414638230115,0.22588186545203165
2646.866666672758,0.20293753,-0.9322998,0.052541666,-2.5668101,0.500223,1.5304003,0.5731417,0.03999977,0.04,0.0046847437649155665,0.024509619925616732,0.01802654130147463,-0.06062682383743751,0.005546627254266089,0.073424538240382,0.949315147158577,-0.21140110784981095,-0.05315429843691059,0.2264617926557188
2646.883333339425,0.20346276,-0.93268305,0.05267771,-2.5673556,0.5015186,1.530295,0.5725903,0.03999976,0.04,0.0038900651889717253,0.024336353576048797,0.01748893588029432,-0.05950356895791491,0.005246898943049808,0.07217954826524661,0.9490622679995618,-0.21189171710921884,-0.05328697569935202,0.22703129718356282
2646.900000006092,0.20397837,-0.9330592,0.05281127,-2.5678911,0.5027903,1.5301921,0.572049,0.03999977,0.04,0.004195313209232054,0.024538668395945873,0.018423552688240363,-0.05837999454885244,0.004943718382315874,0.07093375881534765,0.948813522625532,-0.21237289877875234,-0.05341697681464637,0.2275901529838722
2646.9166666727588,0.20448439,-0.9334284,0.05294235,-2.5684166,0.50403863,1.5300908,0.5715178,0.03999976,0.04,0.0043010086961947636,0.024047981334063273,0.017656061046000815,-0.05725889781111683,0.004641494867700926,0.0696911473107046,0.9485688194071064,-0.21284479939947826,-0.053544648567868856,0.22813867893662407
2646.9333333394256,0.20498082,-0.9337907,0.05307094,-2.5689323,0.5052631,1.5299916,0.5709967,0.03999976,0.04,0.0038468372697275655,0.024381317094757105,0.018111090448957867,-0.05613937425528587,0.004338262223496013,0.06844453158500652,0.9483282834208554,-0.21330737166691735,-0.053669790886167794,0.22867659609772167
2646.9500000060925,0.20546769,-0.93414587,0.053197056,-2.5694377,0.50646406,1.5298941,0.5704857,0.039999753,0.04,0.0044616455863843996,0.02392505796687816,0.017992929791599277,-0.05502212099114835,0.004036389000269479,0.0672006511350539,0.9480918766580426,-0.21376070142862402,-0.05379250524767339,0.22920410624365486
2646.9666666727594,0.20594496,-0.93449396,0.05332069,-2.569933,0.5076413,1.529799,0.5699846,0.039999753,0.04,0.004488527633572659,0.02399736324524282,0.018644302135562008,-0.053906900346891995,0.0037315403407391047,0.06595565147137891,0.9478596681254682,-0.21420483649763752,-0.053912415774165355,0.2297211113230369
2646.9833333394263,0.20641267,-0.93483514,0.05344185,-2.5704186,0.50879496,1.5297053,0.5694937,0.039999753,0.04,0.0032761342740661448,0.024002067127026905,0.017502518078160723,-0.0527946382939029,0.0034317365218413352,0.06471305691360207,0.9476316562245146,-0.21463969681421458,-0.05403028464147561,0.2302276547555625
2647.000000006093,0.20687082,-0.93516934,0.05356052,-2.5708942,0.50992507,1.5296139,0.56901276,0.03999975,0.04,0.004158436989154524,0.023770397734357296,0.018432509668797614,-0.05168447731979523,0.003128311434663543,0.06347317467807076,0.9474078776690233,-0.2150653729282437,-0.05414547905386445,0.23072378680131753
2647.01666667276,0.2073194,-0.9354967,0.05367672,-2.5713599,0.5110315,1.5295238,0.5685418,0.039999746,0.04,0.004009020608086722,0.023837228153855694,0.01778816525297433,-0.05057834844287551,0.0028261158300170114,0.06223347361624197,0.9471883388009824,-0.21548195807467696,-0.05425835509875071,0.23120944506165012
2647.033333339427,0.20775843,-0.93581694,0.053790458,-2.5718157,0.51211447,1.5294361,0.5680808,0.039999742,0.04,0.0035954313044817,0.023580479272899968,0.018414479126238614,-0.04947466360026103,0.002524251991440023,0.06099609687046835,0.9469730723758559,-0.21588939461693665,-0.05436873211468139,0.23168472210140828
2647.050000006094,0.20818803,-0.93613046,0.05390175,-2.5722618,0.5131741,1.5293499,0.5676299,0.039999742,0.04,0.003783835865434071,0.02336853378633874,0.01764741995635699,-0.04837523859562112,0.002222659509813753,0.059763311416172124,0.9467620634859782,-0.21628775511483334,-0.05447682703642103,0.2321496875879916
2647.0666666727607,0.2086081,-0.93643695,0.05401058,-2.5726976,0.5142104,1.529266,0.5671889,0.039999742,0.04,0.004395712676052987,0.023273420738001427,0.018644007017731834,-0.047279522743115435,0.0019207643491936507,0.05853405746374375,0.9465553670005521,-0.2166770501557685,-0.05458217839784637,0.23260433989844254
2647.0833333394276,0.20901878,-0.9367366,0.054116953,-2.5731242,0.51522326,1.5291839,0.56675786,0.03999974,0.04,0.00283639770470856,0.02336709357009248,0.017744368133842947,-0.04618903978304663,0.0016217675687564695,0.057304782875222664,0.9463529763717513,-0.21705732325920352,-0.05468539828033151,0.23304864244787768
2647.1000000060944,0.20941998,-0.9370295,0.054220896,-2.5735404,0.516213,1.5291036,0.5663366,0.039999735,0.04,0.004586329813527357,0.02297108970239492,0.018231866125018037,-0.04510349863968166,0.0013196211254536032,0.05608009508034276,0.9461548788952678,-0.217428745665363,-0.054785894748173324,0.233482743340295
2647.1166666727613,0.20981182,-0.93731534,0.054322425,-2.573947,0.5171794,1.5290252,0.56592524,0.039999735,0.04,0.003415562210862255,0.022989531479000735,0.018030039602423553,-0.04402226909123283,0.0010224999213800587,0.054858932135679155,0.9459611206864036,-0.21779122551454744,-0.05488413755870573,0.23390654476314257
2647.133333339428,0.2101943,-0.93759435,0.05442151,-2.5743444,0.51812285,1.5289488,0.56552374,0.03999973,0.04,0.002530288685576032,0.022889042591389686,0.01782861542588554,-0.0429464214813821,0.0007251942076865261,0.05364350550602886,0.9457716942323529,-0.2181447116596469,-0.05498025285695528,0.23432020604203063
2647.150000006095,0.21056747,-0.9378668,0.054518186,-2.5747316,0.5190435,1.5288742,0.5651319,0.03999973,0.04,0.004737888773109766,0.022433353122131017,0.017999066104656958,-0.04187709181198927,0.00042650444368301597,0.052434753415087715,0.9455865520842174,-0.2184895560270096,-0.05507362848980612,0.2347238417152566
