rsonawane2002/My_IMU/logs_2/traj_490/imu_490.csv
time,j1,j2,j3,j4,j5,j6,j7,gripper1,gripper2,imu_ax,imu_ay,imu_az,imu_gx,imu_gy,imu_gz
2641.9833333393626,0.00016700293,-0.785875,4.0107683e-05,-2.3551247,9.29385e-05,1.570997,0.786,0.04,0.04,-9.517839,-0.013353491201996803,0.08707443,-1.196111e-07,-0.001164127024821937,1.1672423e-06
2642.0000000060295,0.00016700929,-0.78576016,4.0115527e-05,-2.3552213,9.2983224e-05,1.5709941,0.786,0.04,0.04,-9.834498,0.0006492153625003994,0.00905645,-6.2208693e-07,-0.002238243818283081,1.4854866e-06
2642.0166666726964,0.00016704007,-0.7856543,4.012924e-05,-2.35531,9.308833e-05,1.5709913,0.786,0.04,0.04,-9.832528,0.0006944707711227238,0.007531463,-4.078117e-06,-0.003227398730814457,5.3177814e-06
2642.0333333393633,0.0001671364,-0.785557,4.0159535e-05,-2.355391,9.335803e-05,1.5709884,0.786,0.04,0.04,-9.830665,0.0007930152933113277,0.0061427015,-1.2901851e-05,-0.004136370029300451,1.4678055e-05
2642.05000000603,0.00016735794,-0.7854675,4.0221872e-05,-2.3554652,9.3943294e-05,1.5709856,0.786,0.04,0.04,-9.828585,0.0009367868769913912,0.004959838,-2.9995106e-05,-0.004968391731381416,3.1958327e-05
2642.066666672697,0.00016778088,-0.7853854,4.033593e-05,-2.3555324,9.504297e-05,1.5709827,0.786,0.04,0.039999995,-9.82722,0.0011280498001724482,0.003690226,-5.785361e-05,-0.005730981472879648,6.0082362e-05
2642.083333339364,0.0001684963,-0.7853099,4.0525352e-05,-2.3555975,9.6872674e-05,1.5709798,0.786,0.04,0.039999995,-9.825577,0.0013485883828252554,0.0025835685,-9.831552e-05,-0.006424110382795334,9.942483e-05
2642.1000000060308,0.00016960892,-0.785241,4.0817467e-05,-2.355656,9.967816e-05,1.570977,0.7859981,0.04,0.04,-9.824594,0.0016019202303141356,0.0015331139,-0.00015365993,-0.0070723253302276134,0.00015113951
2642.1166666726976,0.0001712347,-0.78517795,4.124199e-05,-2.3557112,0.00010376395,1.5709741,0.7859962,0.04,0.04,-9.822826,0.0019006573129445314,0.00063602393,-0.00021729477,-0.007655338849872351,0.00022024877
2642.1333333393645,0.00017350056,-0.78512055,4.183181e-05,-2.3557618,0.00010944995,1.5709713,0.7859943,0.04,0.039999995,-9.821919,0.0022514420561492443,-0.00037095044,-0.0003000836,-0.008191676810383797,0.00030615038
2642.1500000060314,0.00017654264,-0.7850684,4.2622192e-05,-2.3558114,0.000117062635,1.5709684,0.7859905,0.04,0.039999995,-9.820662,0.0026188488118350506,-0.0012374094,-0.00040321634,-0.008674891665577888,0.00040915146
2642.1666666726983,0.00018050561,-0.78502125,4.365075e-05,-2.3558555,0.00012694224,1.5709655,0.78598666,0.04,0.04,-9.819864,0.003018709132447839,-0.0020556569,-0.0005204031,-0.009123323485255241,0.0005296955
2642.183333339365,0.0001855408,-0.784979,4.495643e-05,-2.3558984,0.00013948731,1.5709627,0.78598094,0.04,0.04,-9.818379,0.0034407922066748142,-0.002789575,-0.00066146074,-0.009516444057226181,0.0006723293
2642.200000006032,0.00019180647,-0.7849413,4.658023e-05,-2.3559408,0.00015507937,1.5709598,0.78597426,0.039999995,0.039999995,-9.817664,0.003959344699978828,-0.003569246,-0.0008194226,-0.009873982518911362,0.00083499216
2642.216666672699,0.00019946593,-0.784908,4.8564467e-05,-2.3559828,0.00017411089,1.570957,0.78596663,0.03999999,0.04,-9.816964,0.004475048743188381,-0.004267966,-0.0010001432,-0.010200513526797295,0.0010174772
2642.233333339366,0.0002086871,-0.78487897,5.0952563e-05,-2.3560221,0.0001970069,1.5709541,0.7859571,0.039999988,0.039999995,-9.816162,0.004998704418540001,-0.004893963,-0.0012047645,-0.0104965316131711,0.001223705
2642.2500000060327,0.00021964207,-0.7848541,5.3789063e-05,-2.35606,0.00022419056,1.5709512,0.78594565,0.039999984,0.03999999,-9.815259,0.005667838267982006,-0.005603394,-0.0014305486,-0.010752313770353794,0.0014524905
2642.2666666726996,0.00023250602,-0.78483325,5.711917e-05,-2.3560975,0.0002560935,1.5709484,0.7859323,0.03999998,0.039999988,-9.8144045,0.006326738744974136,-0.00621137,-0.0016785334,-0.010972884483635426,0.0017042585
2642.2833333393664,0.00024745698,-0.78481627,6.0989012e-05,-2.3561354,0.00029315366,1.5709454,0.78591657,0.039999973,0.039999984,-9.813649,0.007028389256447554,-0.006801294,-0.0019500082,-0.011162572540342808,0.0019785068
2642.3000000060333,0.00026467463,-0.78480315,6.544512e-05,-2.3561747,0.00033581536,1.5709424,0.78589827,0.039999966,0.039999977,-9.813019,0.007718268781900406,-0.007307805,-0.002243748,-0.011327287182211876,0.0022772169
2642.3166666727,0.00028434084,-0.7847939,7.053452e-05,-2.3562164,0.00038452543,1.5709392,0.78587735,0.039999958,0.03999997,-9.8125515,0.008610490709543228,-0.007918482,-0.002560417,-0.011469585821032524,0.0025997355
2642.333333339367,0.00030663828,-0.78478855,7.6304445e-05,-2.3562584,0.00043973405,1.5709358,0.78585374,0.039999954,0.039999966,-9.812162,0.009481389075517654,-0.008455193,-0.0029000912,-0.011595255695283413,0.0029462157
2642.350000006034,0.0003317504,-0.78478694,8.2802384e-05,-2.3563013,0.0005018929,1.570931,0.7858273,0.03999995,0.03999996,-9.811478,0.01041821762919426,-0.0089916345,-0.0032642,-0.011692882515490055,0.0033167435
2642.366666672701,0.000359861,-0.7847891,9.0076035e-05,-2.3563445,0.00057145435,1.5709243,0.7857976,0.03999995,0.039999966,-9.81091,0.01130916178226471,-0.009428335,-0.0036524886,-0.011772858910262585,0.0037105011
2642.3833333393677,0.00039115362,-0.78479505,9.817275e-05,-2.3563907,0.00064887153,1.5709176,0.78576446,0.039999947,0.03999996,-9.810231,0.012477180920541286,-0.00997612,-0.004064133,-0.011831666342914104,0.0041291984
2642.4000000060346,0.00042581183,-0.7848048,0.00010714007,-2.3564405,0.0007345955,1.5709108,0.78572786,0.039999947,0.039999966,-9.809906,0.013605894520878792,-0.0104959365,-0.0044991137,-0.011875445954501629,0.004571062
2642.4166666727015,0.00046401823,-0.7848185,0.00011702531,-2.3564913,0.00082907674,1.5709038,0.78568757,0.039999947,0.039999966,-9.809589,0.014824447222054005,-0.01101963,-0.0049579428,-0.011904539540410042,0.0050377278
2642.4333333393683,0.0005059544,-0.784836,0.00012787539,-2.3565457,0.00093276193,1.5708961,0.7856434,0.039999958,0.03999998,-9.808919,0.015975363552570343,-0.011484989,-0.005440261,-0.01190664991736412,0.005527346
2642.450000006035,0.00055180106,-0.7848574,0.00013973712,-2.3566039,0.0010460969,1.5708857,0.7855952,0.039999958,0.03999998,-9.808614,0.01747778430581093,-0.012049756,-0.0059462897,-0.011897215619683266,0.0060414835
2642.466666672702,0.0006017376,-0.78488266,0.0001526569,-2.3566632,0.0011695229,1.5708752,0.78554255,0.039999958,0.03999998,-9.808353,0.018927302211523056,-0.01252057,-0.0064759376,-0.011886068619787693,0.0065790755
2642.483333339369,0.000655941,-0.78491193,0.00016668066,-2.356729,0.0013034759,1.5708646,0.7854855,0.039999958,0.039999984,-9.807703,0.02031572535634041,-0.013024244,-0.007027965,-0.011847132816910744,0.007139078
2642.500000006036,0.0007145872,-0.78494525,0.00018185396,-2.3567963,0.0014483905,1.5708537,0.7854238,0.039999958,0.039999984,-9.807657,0.02210003137588501,-0.0136277,-0.007602831,-0.011805183254182339,0.0077229426
2642.5166666727027,0.00077785004,-0.7849828,0.00019822169,-2.3568697,0.001604693,1.5708413,0.78535724,0.03999996,0.03999999,-9.806969,0.02382100746035576,-0.014190726,-0.008200373,-0.011735868640244007,0.008328714
2642.5333333393696,0.00084590114,-0.7850247,0.00021582839,-2.3569465,0.0017728067,1.570827,0.78528565,0.03999996,0.03999999,-9.806931,0.025648467242717743,-0.014710646,-0.008820186,-0.01166742667555809,0.008957713
2642.5500000060365,0.0009189099,-0.78507066,0.00023471782,-2.3570282,0.0019531494,1.5708126,0.7852088,0.039999958,0.03999999,-9.806546,0.02740141749382019,-0.0151829235,-0.009461607,-0.011587328277528286,0.009608199
2642.5666666727034,0.0009970432,-0.78512084,0.0002549332,-2.3571165,0.0021461316,1.5707977,0.7851267,0.039999958,0.039999995,-9.806232,0.0296066552400589,-0.015871886,-0.010124679,-0.011494514532387257,0.010280454
2642.5833333393703,0.0010804654,-0.7851757,0.00027651724,-2.3572068,0.0023521602,1.5707806,0.78503895,0.039999954,0.03999999,-9.806157,0.03175026550889015,-0.01648529,-0.010809547,-0.011397886089980602,0.0109750815
2642.600000006037,0.0011693382,-0.78523487,0.00029951162,-2.3573039,0.002571632,1.5707624,0.7849455,0.039999947,0.039999984,-9.805503,0.03399885445833206,-0.017062332,-0.011514901,-0.011281890794634819,0.011690887
2642.616666672704,0.0012638214,-0.7852985,0.00032395785,-2.3574078,0.0028049385,1.5707439,0.7848462,0.039999947,0.039999988,-9.805483,0.03617406263947487,-0.017623927,-0.012241126,-0.011164188385009766,0.012426645
2642.633333339371,0.0013640706,-0.78536683,0.0003498962,-2.3575144,0.003052468,1.5707244,0.7847409,0.039999947,0.03999999,-9.805365,0.03885051608085632,-0.018385995,-0.012987517,-0.011041752994060516,0.013182839
2642.6500000060378,0.0014702401,-0.7854398,0.0003773666,-2.3576276,0.0033145957,1.5707023,0.78462934,0.039999947,0.039999995,-9.80469,0.04145936667919159,-0.019062068,-0.013754319,-0.010895845480263233,0.0139591135
2642.6666666727047,0.0015824797,-0.78551745,0.00040640793,-2.3577476,0.003591694,1.57068,0.7845114,0.03999995,0.04,-9.804608,0.04420207813382149,-0.019725574,-0.014540331,-0.010752926580607891,0.014755837
2642.6833333393715,0.0017009373,-0.78559995,0.00043705842,-2.3578749,0.0038841378,1.5706569,0.7843869,0.039999947,0.04,-9.804496,0.04685141146183014,-0.020385204,-0.015345075,-0.010600644163787365,0.015571096
2642.7000000060384,0.0018257577,-0.7856876,0.00046935552,-2.3580093,0.0041922685,1.570631,0.78425574,0.039999947,0.04,-9.804377,0.05005808547139168,-0.021227125,-0.016168838,-0.01044609397649765,0.016405132
2642.7166666727053,0.0019570817,-0.7857801,0.0005033361,-2.3581471,0.0045164353,1.5706049,0.78411776,0.039999943,0.04,-9.804252,0.053192138671875,-0.021955783,-0.017010916,-0.010293540544807911,0.01725763
2642.733333339372,0.0020950483,-0.78587765,0.00053903554,-2.3582919,0.004856982,1.5705777,0.78397286,0.039999936,0.04,-9.803694,0.056234002113342285,-0.022725955,-0.017870702,-0.010115647688508034,0.018128276
2642.750000006039,0.0022397928,-0.7859805,0.0005764892,-2.358444,0.005214237,1.570548,0.78382075,0.03999993,0.039999995,-9.803453,0.05986517667770386,-0.023618046,-0.01874859,-0.009932232089340687,0.019016525
2642.766666672706,0.002391446,-0.7860885,0.0006157312,-2.358603,0.005588525,1.5705179,0.7836614,0.039999925,0.039999988,-9.803298,0.06343274563550949,-0.024421373,-0.019642727,-0.009749331511557102,0.019923732
2642.783333339373,0.0025501375,-0.7862018,0.00065679505,-2.3587697,0.0059801666,1.5704864,0.7834947,0.03999992,0.03999999,-9.803073,0.06711792200803757,-0.025315417,-0.02055397,-0.009556891396641731,0.020844227
2642.8000000060397,0.0027159927,-0.7863207,0.00069971284,-2.358944,0.006389475,1.5704528,0.7833205,0.03999992,0.03999999,-9.803052,0.07074220478534698,-0.026140597,-0.021481287,-0.00936082936823368,0.021783706
2642.8166666727066,0.0028891354,-0.78644496,0.00074451667,-2.3591259,0.0068167537,1.5704185,0.7831387,0.03999992,0.04,-9.802794,0.07498311251401901,-0.027117688,-0.022424504,-0.00916385743767023,0.022737443
2642.8333333393734,0.003069683,-0.78657484,0.000791237,-2.3593154,0.0072622984,1.5703822,0.78294915,0.03999993,0.04,-9.802593,0.07915227115154266,-0.028117541,-0.023383552,-0.008958566933870316,0.023708288
2642.8500000060403,0.003257751,-0.78671026,0.0008399042,-2.3595126,0.0077263974,1.5703447,0.7827516,0.039999925,0.04,-9.802456,0.08347095549106598,-0.029086038,-0.024357697,-0.008752168156206608,0.024694126
2642.866666672707,0.0034534528,-0.7868514,0.00089054747,-2.3597176,0.008209331,1.5703058,0.7825461,0.039999932,0.04,-9.802342,0.08769169449806213,-0.030032387,-0.025345895,-0.008539197035133839,0.025695484
2642.883333339374,0.0036568975,-0.78699833,0.00094319467,-2.3599303,0.008711365,1.5702648,0.78233236,0.03999993,0.04,-9.802038,0.09259077161550522,-0.03117919,-0.026348447,-0.00832113903015852,0.026709944
2642.900000006041,0.0038681894,-0.78715104,0.0009978733,-2.3601508,0.009232778,1.5702227,0.78211045,0.039999932,0.04,-9.801807,0.0974070206284523,-0.032251254,-0.027364042,-0.0080990856513381,0.027739698
2642.916666672708,0.004087432,-0.7873097,0.0010546102,-2.3603795,0.009773781,1.5701789,0.7818802,0.03999993,0.04,-9.801608,0.1023678332567215,-0.033378437,-0.028393246,-0.007870829664170742,0.028779518
2642.9333333393747,0.0043147258,-0.7874744,0.0011134311,-2.3606164,0.010334621,1.5701332,0.7816415,0.03999992,0.04,-9.801533,0.1072382777929306,-0.03441975,-0.029435268,-0.007639436982572079,0.029832315
2642.9500000060416,0.004550167,-0.78764504,0.0011743612,-2.3608615,0.010915536,1.5700862,0.78139436,0.039999917,0.04,-9.801232,0.11283081769943237,-0.03568184,-0.03048937,-0.007404877804219723,0.03089759
2642.9666666727085,0.004793847,-0.7878217,0.0012374241,-2.361115,0.011516773,1.5700371,0.78113836,0.039999913,0.04,-9.800961,0.11833325773477554,-0.03690201,-0.031556353,-0.007163065019994974,0.03197647
2642.9833333393753,0.005045855,-0.78800464,0.0013026427,-2.3613775,0.012138549,1.5699869,0.7808737,0.03999991,0.04,-9.800942,0.1237194687128067,-0.038037855,-0.03263356,-0.006921345833688974,0.033066828
2643.0000000060422,0.005306279,-0.7881936,0.00137004,-2.3616486,0.012781065,1.5699348,0.78060025,0.03999991,0.04,-9.800626,0.12984532117843628,-0.039418153,-0.033722665,-0.00667400611564517,0.034166787
2643.016666672709,0.0055752005,-0.78838897,0.001439637,-2.3619282,0.013444531,1.5698811,0.7803178,0.039999913,0.04,-9.800439,0.13588011264801025,-0.04073142,-0.034822088,-0.0064246938563883305,0.03527824
2643.033333339376,0.005852699,-0.78859067,0.0015114548,-2.3622172,0.014129154,1.5698256,0.7800263,0.039999906,0.04,-9.800214,0.14209699630737305,-0.0420612,-0.035931535,-0.006171246059238911,0.036400743
2643.050000006043,0.0061388514,-0.7887985,0.0015855131,-2.3625147,0.014835093,1.5697683,0.77972585,0.039999902,0.04,-9.800178,0.148188054561615,-0.04332986,-0.03705087,-0.005916386842727661,0.037530605
2643.0666666727097,0.0064337305,-0.789013,0.0016618312,-2.3628218,0.015562561,1.5697094,0.7794162,0.0399999,0.04,-9.799801,0.1550801694393158,-0.044857692,-0.038179774,-0.005658103618770838,0.038672492
2643.0833333393766,0.0067374078,-0.7892338,0.0017404262,-2.363138,0.016311696,1.5696484,0.7790973,0.039999895,0.04,-9.799648,0.1618277132511139,-0.04627517,-0.039317507,-0.005398007575422525,0.039819904
2643.1000000060435,0.0070499484,-0.7894613,0.0018213165,-2.3634627,0.017082695,1.569586,0.7787692,0.039999887,0.04,-9.799448,0.1688157320022583,-0.047766265,-0.04046388,-0.005138042848557234,0.040979277
2643.1166666727104,0.0073714172,-0.7896953,0.0019045185,-2.363797,0.017875697,1.5695215,0.7784317,0.039999887,0.04,-9.799261,0.17565582692623138,-0.04916677,-0.04161852,-0.004869871307164431,0.042145994
2643.1333333393773,0.007701875,-0.78993595,0.0019900475,-2.36414,0.018690856,1.5694556,0.7780848,0.0399999,0.04,-9.798917,0.1833106279373169,-0.05080786,-0.042781107,-0.004601496271789074,0.043320555
2643.150000006044,0.008041378,-0.7901828,0.0020779185,-2.3644931,0.019528361,1.5693877,0.7777282,0.039999895,0.04,-9.798607,0.19086246192455292,-0.05238737,-0.043950673,-0.004326939582824707,0.044504754
2643.166666672711,0.008389981,-0.7904367,0.0021681455,-2.364855,0.020388305,1.569318,0.777362,0.039999884,0.04,-9.798501,0.1985873579978943,-0.05401727,-0.04512637,-0.004056905396282673,0.045693252
2643.183333339378,0.008747736,-0.7906972,0.002260741,-2.365227,0.021270787,1.5692464,0.77698624,0.039999884,0.04,-9.798295,0.2062000036239624,-0.0555316,-0.046308093,-0.0037803545128554106,0.046886545
2643.200000006045,0.009114692,-0.7909646,0.002355719,-2.3656082,0.022175988,1.569173,0.776601,0.039999884,0.04,-9.797943,0.21466326713562012,-0.057308,-0.047496237,-0.003504298161715269,0.04809009
2643.2166666727117,0.009490891,-0.7912385,0.002453091,-2.365999,0.02310397,1.5690976,0.77620614,0.03999989,0.04,-9.797619,0.2229711413383484,-0.059010107,-0.048690803,-0.003224432934075594,0.04929592
2643.2333333393785,0.009876379,-0.79151934,0.0025528667,-2.366399,0.024054853,1.5690205,0.7758015,0.039999884,0.04,-9.797523,0.23120428621768951,-0.06066927,-0.049890827,-0.0029443579260259867,0.050508678
2643.2500000060454,0.010271191,-0.79180694,0.0026550577,-2.3668094,0.025028737,1.5689415,0.775387,0.03999988,0.04,-9.797005,0.2402448207139969,-0.06252732,-0.051095687,-0.0026596137322485447,0.051726233
2643.2666666727123,0.01067536,-0.79210144,0.0027596715,-2.3672292,0.0260257,1.5688605,0.77496266,0.039999872,0.04,-9.796807,0.24917730689048767,-0.064334385,-0.05230452,-0.0023774467408657074,0.052946724
2643.283333339379,0.01108893,-0.79240274,0.0028667187,-2.3676581,0.027045816,1.5687778,0.77452856,0.0399999,0.04,-9.796454,0.25832900404930115,-0.06617368,-0.053517252,-0.0020922389812767506,0.05417286
2643.300000006046,0.011511926,-0.79271084,0.0029762052,-2.3680973,0.0280892,1.568693,0.77408457,0.03999991,0.04,-9.796209,0.2673390209674835,-0.067934506,-0.05473417,-0.001802875311113894,0.05540009
2643.316666672713,0.01194437,-0.7930259,0.0030881395,-2.3685465,0.029155903,1.5686066,0.7736305,0.039999917,0.04,-9.795779,0.277217835187912,-0.069946244,-0.05595412,-0.0015151038533076644,0.056633037
2643.33333333938,0.012386294,-0.79334795,0.0032025273,-2.3690052,0.030245993,1.568518,0.77316654,0.039999917,0.04,-9.795461,0.2869684398174286,-0.07187757,-0.05717658,-0.001226663589477539,0.057867896
2643.3500000060467,0.012837713,-0.7936769,0.0033193745,-2.369474,0.03135951,1.5684278,0.7726926,0.039999917,0.04,-9.795037,0.29692864418029785,-0.07382229,-0.058401156,-0.0009360628318972886,0.059106115
2643.3666666727136,0.013298648,-0.79401284,0.0034386865,-2.369953,0.032496467,1.5683355,0.7722087,0.039999917,0.04,-9.794836,0.30677807331085205,-0.07571585,-0.059628353,-0.0006440627621486783,0.0603457
2643.3833333393804,0.013769116,-0.79435563,0.0035604662,-2.3704412,0.033656936,1.5682414,0.7717147,0.039999925,0.04,-9.794319,0.31747967004776,-0.077840574,-0.060856882,-0.00035336409928277135,0.061587863
2643.4000000060473,0.01424913,-0.79470545,0.0036847172,-2.3709395,0.03484095,1.5681453,0.7712108,0.039999925,0.04,-9.793868,0.32805800437927246,-0.0798904,-0.062086485,-6.0580547142308205e-05,0.062831365
2643.416666672714,0.014738698,-0.7950623,0.0038114437,-2.371448,0.036048517,1.5680473,0.7706969,0.03999993,0.04,-9.793419,0.33885079622268677,-0.08196245,-0.06331741,0.00023394465097226202,0.06407527
2643.433333339381,0.01523783,-0.7954259,0.003940644,-2.3719661,0.037279673,1.5679475,0.7701729,0.039999925,0.04,-9.793172,0.34953585267066956,-0.083958514,-0.064549044,0.0005272133275866508,0.06532043
2643.450000006048,0.015746525,-0.7957967,0.0040723234,-2.3724945,0.03853441,1.5678458,0.7696389,0.03999993,0.04,-9.792538,0.36106303334236145,-0.08621867,-0.06578061,0.0008216104470193386,0.066565216
2643.466666672715,0.016264789,-0.79617435,0.0042064805,-2.373033,0.039812755,1.5677422,0.76909477,0.039999925,0.04,-9.792039,0.37248727679252625,-0.088359624,-0.06701241,0.0011174085084348917,0.06781067
2643.4833333393817,0.01679262,-0.79655904,0.004343115,-2.3735807,0.041114677,1.5676367,0.7685406,0.03999993,0.04,-9.791761,0.3838052451610565,-0.090446256,-0.06824297,0.001411006087437272,0.06905573
2643.5000000060486,0.01733002,-0.79695076,0.004482227,-2.3741386,0.04244018,1.5675294,0.7679766,0.03999993,0.04,-9.790937,0.39595186710357666,-0.092756405,-0.0694729,0.001709587057121098,0.070299424
2643.5166666727155,0.01787698,-0.79734945,0.004623812,-2.3747067,0.043789268,1.5674201,0.7674024,0.03999993,0.04,-9.790471,0.40800225734710693,-0.09498067,-0.07070206,0.002005698624998331,0.071542636
2643.5333333393824,0.018433489,-0.797755,0.004767871,-2.3752844,0.045161884,1.5673088,0.7668182,0.039999932,0.04,-9.789912,0.42026200890541077,-0.09724057,-0.071929306,0.002301460364833474,0.072783634
2643.5500000060492,0.018999536,-0.7981676,0.0049144,-2.3758721,0.04655802,1.5671955,0.7662241,0.039999936,0.04,-9.789441,0.4324190020561218,-0.099422626,-0.07315466,0.0025983627419918776,0.07402377
2643.566666672716,0.019575108,-0.7985872,0.005063396,-2.3764696,0.04797765,1.5670801,0.7656199,0.039999932,0.04,-9.788661,0.4454077184200287,-0.101817645,-0.07437774,0.00289487699046731,0.075261705
2643.583333339383,0.020160189,-0.79901373,0.0052148527,-2.3770769,0.04942073,1.5669631,0.7650057,0.03999993,0.04,-9.788015,0.4582844376564026,-0.10413317,-0.07559806,0.003190410789102316,0.07649638
2643.60000000605,0.020754762,-0.7994473,0.0053687673,-2.3776941,0.05088719,1.5668441,0.76438165,0.039999932,0.04,-9.787313,0.4713849723339081,-0.10648033,-0.07681532,0.003487626789137721,0.07772923
2643.6166666727167,0.021358797,-0.79988766,0.0055251354,-2.3783216,0.05237701,1.5667232,0.7637476,0.039999936,0.04,-9.786802,0.4843767583370209,-0.108734265,-0.07802948,0.0037845515180379152,0.078958906
2643.6333333393836,0.021972276,-0.80033493,0.0056839483,-2.3789582,0.053890124,1.5666004,0.76310354,0.03999994,0.04,-9.785971,0.4981974959373474,-0.11122572,-0.07923992,0.004078282974660397,0.08018504
2643.6500000060505,0.022595175,-0.80078894,0.0058452007,-2.3796048,0.055426475,1.5664759,0.7624497,0.03999994,0.04,-9.785131,0.5119179487228394,-0.11361705,-0.080445826,0.004375071730464697,0.0814075
2643.6666666727174,0.023227468,-0.80124986,0.006008884,-2.3802617,0.056985945,1.5663494,0.7617859,0.039999947,0.04,-9.784375,0.5258350372314453,-0.11604389,-0.08164781,0.004669928457587957,0.08262446
2643.6833333393843,0.023869114,-0.8017176,0.0061749904,-2.3809278,0.058568526,1.566221,0.76111233,0.03999994,0.04,-9.783772,0.5396831631660461,-0.1183863,-0.08284493,0.0049634515307843685,0.08383908
2643.700000006051,0.024520092,-0.8021922,0.006343511,-2.3816035,0.060174074,1.5660907,0.760429,0.039999943,0.04,-9.782727,0.5543159246444702,-0.12093352,-0.084036835,0.005256827920675278,0.08504774
2643.716666672718,0.025180357,-0.8026736,0.0065144366,-2.3822885,0.061802518,1.5659586,0.75973606,0.03999995,0.04,-9.781851,0.5688573718070984,-0.123387866,-0.08522392,0.005549726076424122,0.08625147
2643.733333339385,0.025849868,-0.8031617,0.00668776,-2.3829837,0.06345381,1.5658246,0.75903296,0.039999958,0.04,-9.781058,0.5833118557929993,-0.12576805,-0.08640593,0.0058440049178898335,0.087450795
2643.750000006052,0.026528595,-0.80365646,0.0068634683,-2.383688,0.06512779,1.565689,0.7583204,0.039999954,0.04,-9.779988,0.5985592007637024,-0.12835033,-0.087579936,0.006135860458016396,0.088644214
2643.7666666727187,0.027216492,-0.804158,0.0070415493,-2.3844018,0.066824354,1.5655513,0.7575984,0.039999966,0.04,-9.778972,0.6136736869812012,-0.13084723,-0.08874858,0.006428302265703678,0.089825064
2643.7833333393855,0.027913509,-0.804666,0.0072219926,-2.3851256,0.06854345,1.5654118,0.75686693,0.03999996,0.04,-9.777975,0.6290736794471741,-0.1333577,-0.08991148,0.006719053722918034,0.091007516
2643.8000000060524,0.028619604,-0.80518067,0.007404789,-2.3858588,0.07028491,1.5652704,0.7561259,0.039999966,0.04,-9.777161,0.6443450450897217,-0.13579711,-0.091068335,0.007006028201431036,0.0921819
2643.8166666727193,0.029334731,-0.805702,0.007589921,-2.386601,0.072048634,1.5651275,0.75537515,0.03999997,0.04,-9.775905,0.66038978099823,-0.1384116,-0.09221807,0.0072917817160487175,0.09334957
2643.833333339386,0.030058822,-0.80623,0.007777378,-2.3873527,0.07383444,1.5649824,0.7546148,0.03999997,0.04,-9.774712,0.6763368248939514,-0.14094658,-0.093358636,0.007579655386507511,0.09450965
2643.850000006053,0.030791836,-0.8067643,0.007967146,-2.3881137,0.07564231,1.5648359,0.75384533,0.039999977,0.04,-9.773577,0.6925123333930969,-0.14346573,-0.09449097,0.007863764651119709,0.09566484
2643.86666667272,0.03153372,-0.80730516,0.008159209,-2.388884,0.07747206,1.5646873,0.75306666,0.039999973,0.04,-9.772556,0.7085863351821899,-0.14595692,-0.09561653,0.008147827349603176,0.09681229
2643.883333339387,0.032284416,-0.80785227,0.008353553,-2.3896635,0.079323515,1.564537,0.7522786,0.03999998,0.04,-9.771138,0.7254024147987366,-0.14857976,-0.09673428,0.008428803645074368,0.097950295
2643.9000000060537,0.033043854,-0.80840594,0.008550161,-2.3904517,0.08119656,1.5643852,0.7514814,0.03999998,0.04,-9.769871,0.7421485185623169,-0.15114573,-0.097843,0.008708338253200054,0.09908106
2643.9166666727206,0.033811994,-0.8089659,0.008749022,-2.3912487,0.08309101,1.5642315,0.75067514,0.03999998,0.04,-9.76846,0.7590775489807129,-0.15370353,-0.09894265,0.008989599533379078,0.10020286
2643.9333333393874,0.034588747,-0.80953217,0.008950117,-2.3920555,0.08500672,1.5640762,0.7498597,0.03999998,0.04,-9.767277,0.7759385704994202,-0.15616831,-0.10003367,0.009268593974411488,0.10131687
2643.9500000060543,0.035374075,-0.81010467,0.009153427,-2.392871,0.08694353,1.5639192,0.74903536,0.03999998,0.04,-9.765759,0.7935281991958618,-0.15881468,-0.10111468,0.0095434645190835,0.10242125
2643.966666672721,0.03616787,-0.8106834,0.009358935,-2.3936949,0.08890126,1.5637604,0.7482021,0.039999988,0.04,-9.764273,0.8110326528549194,-0.16136713,-0.10218671,0.009817395359277725,0.10351668
2643.983333339388,0.036970094,-0.8112683,0.009566624,-2.3945277,0.09087978,1.5636,0.74736005,0.039999995,0.04,-9.762909,0.8284814953804016,-0.16383088,-0.103248425,0.0100904181599617,0.1046044
2644.000000006055,0.03778067,-0.81185937,0.009776472,-2.3953688,0.09287889,1.5634378,0.7465092,0.039999995,0.04,-9.761173,0.8466127514839172,-0.16645685,-0.10430044,0.010362005792558193,0.10568163
2644.016666672722,0.038599517,-0.8124564,0.009988464,-2.3962188,0.094898425,1.5632739,0.74564964,0.04,0.04,-9.759502,0.8646730780601501,-0.16899921,-0.105341606,0.010634046979248524,0.106749214
2644.0333333393887,0.039426558,-0.8130595,0.010202584,-2.3970773,0.09693818,1.5631083,0.7447815,0.039999995,0.04,-9.757915,0.8829208016395569,-0.17152059,-0.10637228,0.010900666937232018,0.10780587
2644.0500000060556,0.040261716,-0.81366855,0.010418804,-2.3979445,0.09899795,1.5629411,0.7439049,0.04,0.04,-9.756374,0.9011061191558838,-0.1739832,-0.10739224,0.011166203767061234,0.108852245
2644.0666666727225,0.041104935,-0.81428355,0.01063711,-2.3988202,0.10107756,1.5627726,0.74301964,0.04,0.04,-9.754459,0.9199591875076294,-0.17656896,-0.10840138,0.011428776197135448,0.10988897
2644.0833333393894,0.04195612,-0.81490445,0.010857478,-2.399704,0.103176825,1.5626024,0.7421262,0.04,0.04,-9.752656,0.938744843006134,-0.17907135,-0.109398074,0.011690396815538406,0.11091532
2644.1000000060562,0.042815182,-0.8155303,0.01107989,-2.4005957,0.105295524,1.5624305,0.74122447,0.04,0.04,-9.75078,0.9577040672302246,-0.1815698,-0.11038403,0.011950036510825157,0.11193104
2644.116666672723,0.043682046,-0.81616205,0.011304317,-2.4014952,0.10743343,1.5622572,0.7403146,0.04,0.04,-9.749057,0.9765973687171936,-0.1840497,-0.111358225,0.012205546721816063,0.112932704
2644.13333333939,0.04455663,-0.81679946,0.011530741,-2.4024029,0.109590314,1.5620822,0.7393965,0.04,0.04,-9.746907,0.9961093068122864,-0.1865771,-0.11232058,0.012459452264010906,0.11391928
2644.150000006057,0.045438834,-0.8174428,0.01175914,-2.4033184,0.11176602,1.5619056,0.7384705,0.04,0.04,-9.744857,1.015615463256836,-0.18902938,-0.11326979,0.012711328454315662,0.11490067
2644.1666666727237,0.046328556,-0.8180917,0.01198949,-2.4042418,0.11396031,1.5617275,0.73753655,0.04,0.04,-9.742753,1.0352602005004883,-0.19144057,-0.11420677,0.012962494045495987,0.115870506
2644.1833333393906,0.047225744,-0.8187457,0.01222177,-2.405173,0.116172954,1.5615481,0.73659474,0.04,0.04,-9.740795,1.0548518896102905,-0.19380157,-0.115131155,0.013210576958954334,0.116828255
2644.2000000060575,0.048130274,-0.81940514,0.012455955,-2.4061117,0.11840373,1.5613673,0.7356453,0.04,0.04,-9.738444,1.0750406980514526,-0.19630075,-0.11604248,0.01345613319426775,0.11777386
2644.2166666727244,0.049042065,-0.82006997,0.01269202,-2.407058,0.12065242,1.5611849,0.7346881,0.04,0.04,-9.736188,1.0951662063598633,-0.1986734,-0.116940886,0.013699128292500973,0.11870643
2644.2333333393913,0.049961023,-0.82073987,0.012929941,-2.4080117,0.12291881,1.5610011,0.7337234,0.04,0.04,-9.734067,1.115265965461731,-0.20098062,-0.11782577,0.013939149677753448,0.11962721
2644.250000006058,0.05088704,-0.8214149,0.013169692,-2.408973,0.12520258,1.5608158,0.7327515,0.04,0.04,-9.731501,1.1359038352966309,-0.20339364,-0.11869688,0.014176730997860432,0.120534346
2644.266666672725,0.051820032,-0.82209516,0.013411248,-2.4099414,0.12750356,1.5606292,0.7317722,0.04,0.04,-9.729124,1.1565234661102295,-0.20570897,-0.11955546,0.014409355819225311,0.12142951
2644.283333339392,0.05275989,-0.8227801,0.013654583,-2.4109173,0.1298215,1.5604413,0.73078567,0.04,0.04,-9.7266035,1.1772751808166504,-0.20801164,-0.12039965,0.014641261659562588,0.12231138
2644.300000006059,0.05370652,-0.82347035,0.013899668,-2.4119,0.13215613,1.5602517,0.7297921,0.04,0.04,-9.724302,1.1980068683624268,-0.21025802,-0.12123041,0.014865996316075325,0.12318003
2644.3166666727257,0.054659825,-0.82416517,0.01414648,-2.4128895,0.13450721,1.5600612,0.7287915,0.04,0.04,-9.721432,1.2192333936691284,-0.21252647,-0.12204676,0.015091104432940483,0.12403447
2644.3333333393925,0.055619683,-0.82486504,0.014394992,-2.413886,0.13687444,1.5598693,0.72778386,0.04,0.04,-9.718783,1.2404390573501587,-0.21478076,-0.122848146,0.015313321724534035,0.12487536
2644.3500000060594,0.056585997,-0.8255695,0.014645177,-2.4148896,0.13925762,1.5596759,0.7267695,0.04,0.04,-9.71604,1.2617779970169067,-0.21695171,-0.12363476,0.015531804412603378,0.12570342
2644.3666666727263,0.057558674,-0.8262787,0.014897006,-2.4158998,0.14165643,1.5594814,0.72574854,0.04,0.04,-9.713472,1.2831132411956787,-0.21908233,-0.124407224,0.01574469730257988,0.12651777
2644.383333339393,0.058537584,-0.8269925,0.015150451,-2.416916,0.14407061,1.5592855,0.7247211,0.04,0.04,-9.710401,1.304887294769287,-0.22125317,-0.12516467,0.01595538854598999,0.12731631
2644.40000000606,0.059522625,-0.8277106,0.015405488,-2.4179378,0.14649993,1.5590885,0.7236871,0.04,0.04,-9.707394,1.3266345262527466,-0.22335099,-0.12590705,0.016165709123015404,0.12810154
2644.416666672727,0.0605137,-0.8284332,0.015662082,-2.4189665,0.14894412,1.5588902,0.7226468,0.04,0.04,-9.704345,1.3485268354415894,-0.22543597,-0.12663387,0.01637408137321472,0.12887317
2644.433333339394,0.06151067,-0.8291602,0.015920207,-2.4200013,0.1514029,1.5586908,0.7216002,0.04,0.04,-9.701498,1.3704028129577637,-0.22741988,-0.12734511,0.016576986759901047,0.12963007
2644.4500000060607,0.06251344,-0.82989144,0.016179826,-2.4210424,0.15387596,1.55849,0.7205476,0.04,0.04,-9.698178,1.3926968574523926,-0.22945024,-0.12804055,0.016777336597442627,0.13037232
2644.4666666727276,0.063521884,-0.8306268,0.016440932,-2.4220893,0.15636308,1.5582883,0.71948904,0.04,0.04,-9.695028,1.414987325668335,-0.23140828,-0.12872112,0.016972161829471588,0.13110043
2644.4833333393944,0.06453594,-0.8313661,0.016703468,-2.4231412,0.15886389,1.5580856,0.7184247,0.04,0.04,-9.691885,1.4372259378433228,-0.23330495,-0.12938564,0.01716478355228901,0.13181202
2644.5000000060613,0.06555541,-0.83210945,0.016967421,-2.4241996,0.16137816,1.5578815,0.7173546,0.04,0.04,-9.688279,1.459844946861267,-0.23523,-0.13003398,0.017357712611556053,0.13250679
2644.516666672728,0.06658022,-0.8328567,0.01723276,-2.4252636,0.16390559,1.5576766,0.71627885,0.04,0.04,-9.684985,1.4824867248535156,-0.23707627,-0.130667,0.017542820423841476,0.13318506
2644.533333339395,0.06761024,-0.8336077,0.017499447,-2.426333,0.16644587,1.5574706,0.7151978,0.04,0.04,-9.681545,1.5052502155303955,-0.2388832,-0.13128361,0.01772300712764263,0.13385013
2644.550000006062,0.06864539,-0.8343623,0.017767454,-2.427407,0.16899873,1.5572634,0.71411127,0.04,0.04,-9.678116,1.5279910564422607,-0.24063838,-0.13188492,0.017900696024298668,0.13450174
2644.566666672729,0.0696855,-0.8351206,0.01803675,-2.4284863,0.17156386,1.5570554,0.7130193,0.04,0.04,-9.67426,1.5510538816452026,-0.24238396,-0.1324683,0.018076885491609573,0.1351377
2644.5833333393957,0.07073048,-0.8358826,0.018307302,-2.4295714,0.17414095,1.5568461,0.7119224,0.04,0.04,-9.670584,1.5741212368011475,-0.24407224,-0.13303468,0.018249470740556717,0.13575801
2644.6000000060626,0.071780175,-0.83664805,0.018579079,-2.4306607,0.17672972,1.5566362,0.71082056,0.04,0.04,-9.666912,1.5972998142242432,-0.24569003,-0.1335851,0.018414288759231567,0.1363615
2644.6166666727295,0.072834484,-0.8374169,0.018852053,-2.4317553,0.17932993,1.5564253,0.70971394,0.04,0.04,-9.663143,1.6204582452774048,-0.24727081,-0.13411908,0.018578987568616867,0.13695005
2644.6333333393964,0.07389328,-0.8381889,0.019126188,-2.4328551,0.18194123,1.5562135,0.70860255,0.04,0.04,-9.659123,1.6439263820648193,-0.24883494,-0.13463643,0.018738968297839165,0.13752228
2644.6500000060632,0.074956454,-0.8389641,0.019401457,-2.4339583,0.18456328,1.5560008,0.7074865,0.04,0.04,-9.655253,1.6674015522003174,-0.25034872,-0.13513723,0.018891001120209694,0.13807788
2644.66666667273,0.076023884,-0.83974224,0.019677823,-2.4350662,0.1871957,1.5557873,0.70636606,0.04,0.04,-9.651057,1.6909204721450806,-0.2518022,-0.13561997,0.019044214859604836,0.1386177
2644.683333339397,0.0770954,-0.8405235,0.01995525,-2.4361787,0.18983835,1.5555731,0.70524126,0.04,0.04,-9.647123,1.7144821882247925,-0.25321224,-0.13608581,0.01919175311923027,0.13914144
2644.700000006064,0.0781709,-0.8413076,0.020233713,-2.437295,0.19249077,1.5553578,0.7041124,0.04,0.04,-9.64281,1.7382845878601074,-0.25457284,-0.13653478,0.019334957003593445,0.13964817
2644.7166666727308,0.07925023,-0.8420947,0.020513171,-2.4384153,0.1951527,1.5551419,0.7029795,0.04,0.04,-9.638522,1.7620787620544434,-0.25588533,-0.13696672,0.019473928958177567,0.14013778
2644.7333333393976,0.08033331,-0.8428844,0.020793602,-2.4395394,0.19782387,1.5549251,0.70184267,0.04,0.04,-9.634301,1.7858942747116089,-0.25712538,-0.1373814,0.019610527902841568,0.14061177
2644.7500000060645,0.08141997,-0.84367675,0.021074956,-2.4406674,0.20050389,1.5547075,0.70070195,0.04,0.04,-9.629769,1.809901237487793,-0.25834218,-0.13777862,0.019741332158446312,0.14106783
2644.7666666727314,0.08251011,-0.84447163,0.021357208,-2.441799,0.20319246,1.5544895,0.69955754,0.04,0.04,-9.625315,1.8339385986328125,-0.25949997,-0.13815795,0.01986691541969776,0.14150777
2644.7833333393983,0.08360358,-0.8452691,0.021640321,-2.4429338,0.20588925,1.5542709,0.69840974,0.04,0.04,-9.620711,1.858018398284912,-0.2606107,-0.13851945,0.019991261884570122,0.14193057
2644.800000006065,0.08470026,-0.8460687,0.021924265,-2.4440722,0.20859393,1.5540516,0.69725853,0.04,0.04,-9.616202,1.8821156024932861,-0.26164755,-0.13886355,0.020111769437789917,0.14233534
2644.816666672732,0.0858,-0.84687054,0.022209005,-2.445214,0.2113062,1.5538316,0.69610417,0.04,0.04,-9.611442,1.9064218997955322,-0.262658,-0.1391907,0.02022554725408554,0.14272614
2644.833333339399,0.08690267,-0.84767467,0.022494512,-2.4463584,0.21402574,1.5536109,0.6949467,0.04,0.04,-9.606657,1.9306813478469849,-0.26359674,-0.13950022,0.0203351192176342,0.14309746
2644.850000006066,0.08800814,-0.84848076,0.02278074,-2.4475057,0.21675216,1.5533897,0.69378626,0.04,0.04,-9.601769,1.9550073146820068,-0.26447132,-0.13979171,0.020441565662622452,0.1434525
2644.8666666727327,0.08911628,-0.8492889,0.023067662,-2.4486558,0.21948518,1.553168,0.6926231,0.04,0.04,-9.596936,1.9793626070022583,-0.2653204,-0.14006509,0.020544923841953278,0.14379035
2644.8833333393995,0.09022698,-0.8500987,0.023355234,-2.4498086,0.22222443,1.5529459,0.6914571,0.04,0.04,-9.591868,2.0038232803344727,-0.26608226,-0.14032131,0.02064330317080021,0.14410937
2644.9000000060664,0.09134006,-0.8509104,0.023643434,-2.4509645,0.22496969,1.5527233,0.6902888,0.04,0.04,-9.586808,2.0283167362213135,-0.2668041,-0.1405589,0.020736252889037132,0.14441316
2644.9166666727333,0.09245541,-0.85172373,0.02393222,-2.4521222,0.22772044,1.5525002,0.689118,0.04,0.04,-9.58175,2.0528464317321777,-0.26747814,-0.14078057,0.02082335576415062,0.14469756
2644.9333333394,0.09357288,-0.8525385,0.024221554,-2.453282,0.23047647,1.5522767,0.687945,0.04,0.04,-9.576577,2.077385902404785,-0.26809,-0.14098327,0.020908577367663383,0.14496523
2644.950000006067,0.09469235,-0.85335493,0.024511406,-2.4544442,0.23323748,1.5520526,0.6867698,0.04,0.04,-9.571191,2.101996421813965,-0.26863143,-0.14116795,0.020988786593079567,0.14521582
2644.966666672734,0.095813714,-0.85417265,0.024801739,-2.4556086,0.23600297,1.5518283,0.68559265,0.04,0.04,-9.565885,2.126634359359741,-0.2691065,-0.14133486,0.021062878891825676,0.14544772
2644.983333339401,0.09693677,-0.85499156,0.025092514,-2.4567742,0.23877273,1.5516037,0.68441373,0.04,0.04,-9.560584,2.151308536529541,-0.26956585,-0.14148358,0.021132269874215126,0.14566316
2645.0000000060677,0.0980614,-0.85581154,0.025383698,-2.4579415,0.24154636,1.5513787,0.6832332,0.04,0.04,-9.5549555,2.175987482070923,-0.2699286,-0.14161462,0.02119896374642849,0.1458611
2645.0166666727346,0.09918748,-0.85663253,0.025675269,-2.4591103,0.24432363,1.5511535,0.6820512,0.04,0.04,-9.549394,2.2006924152374268,-0.27025324,-0.14172818,0.021261164918541908,0.14603998
2645.0333333394015,0.10031487,-0.8574547,0.025967177,-2.460281,0.24710408,1.5509281,0.6808678,0.04,0.04,-9.543781,2.2254421710968018,-0.2705082,-0.1418238,0.021318238228559494,0.14620355
2645.0500000060683,0.10144342,-0.8582776,0.026259387,-2.4614527,0.2498874,1.5507023,0.6796832,0.04,0.04,-9.538208,2.250206470489502,-0.2707105,-0.14190191,0.02137053571641445,0.14634755
2645.066666672735,0.10257298,-0.85910124,0.02655186,-2.4626253,0.25267333,1.5504764,0.67849755,0.04,0.04,-9.532383,2.2749521732330322,-0.2708354,-0.14196298,0.021416114643216133,0.14647408
2645.083333339402,0.10370346,-0.85992545,0.026844565,-2.4637988,0.2554614,1.5502503,0.6773108,0.04,0.04,-9.526508,2.299715757369995,-0.27092835,-0.14200552,0.02145964652299881,0.14658277
2645.100000006069,0.104834676,-0.8607503,0.02713746,-2.464973,0.25825134,1.550024,0.6761234,0.04,0.04,-9.520602,2.324491262435913,-0.27094328,-0.14202958,0.0214983019977808,0.1466741
2645.116666672736,0.10596651,-0.86157584,0.02743052,-2.4661477,0.26104283,1.5497977,0.6749353,0.04,0.04,-9.514722,2.349316358566284,-0.2709147,-0.14203624,0.02153240516781807,0.14674835
2645.1333333394027,0.10709881,-0.8624015,0.027723702,-2.4673226,0.26383552,1.5495712,0.6737467,0.04,0.04,-9.508589,2.3740334510803223,-0.2707871,-0.14202501,0.021563820540905,0.14680281
2645.1500000060696,0.10823145,-0.86322737,0.028016971,-2.468498,0.26662895,1.5493447,0.6725578,0.04,0.04,-9.502464,2.3988101482391357,-0.270626,-0.14199574,0.02159085124731064,0.14684102
2645.1666666727365,0.10936428,-0.86405355,0.028310291,-2.4696734,0.26942298,1.549118,0.67136866,0.04,0.04,-9.496322,2.4235780239105225,-0.27040252,-0.14194909,0.021613165736198425,0.14686038
2645.1833333394034,0.11049718,-0.86487967,0.028603628,-2.4708493,0.27221718,1.5488914,0.6701795,0.04,0.04,-9.490138,2.4483840465545654,-0.27013856,-0.1418845,0.021632328629493713,0.14686202
2645.2000000060702,0.111630015,-0.8657058,0.02889694,-2.4720252,0.27501112,1.5486648,0.6689904,0.04,0.04,-9.483879,2.4730939865112305,-0.26976126,-0.14180323,0.02164313942193985,0.14684543
2645.216666672737,0.11276261,-0.86653185,0.029190198,-2.4732003,0.2778045,1.5484382,0.66780156,0.04,0.04,-9.477503,2.4978187084198,-0.26935893,-0.14170364,0.02165079116821289,0.1468113
2645.233333339404,0.11389486,-0.86735743,0.029483363,-2.4743755,0.28059703,1.5482118,0.666613,0.04,0.04,-9.471103,2.5225930213928223,-0.2689112,-0.14158675,0.021655434742569923,0.14676023
2645.250000006071,0.1150266,-0.8681826,0.029776402,-2.4755504,0.28338835,1.5479854,0.665425,0.04,0.04,-9.464642,2.547222137451172,-0.26837754,-0.14145236,0.021653689444065094,0.14669123
2645.2666666727378,0.1161577,-0.86900747,0.030069273,-2.476725,0.28617805,1.5477593,0.6642377,0.04,0.04,-9.458163,2.5718793869018555,-0.26779667,-0.14130121,0.021645313128829002,0.14660189
2645.2833333394046,0.11728803,-0.8698318,0.03036194,-2.4778986,0.28896585,1.5475332,0.6630512,0.04,0.04,-9.451602,2.5965306758880615,-0.26714757,-0.14113335,0.021632123738527298,0.14649674
2645.3000000060715,0.11841744,-0.8706553,0.030654369,-2.4790711,0.29175138,1.5473073,0.66186565,0.04,0.04,-9.444965,2.6211929321289062,-0.26648012,-0.14094752,0.021615514531731606,0.14637212
2645.3166666727384,0.11954578,-0.8714782,0.03094653,-2.4802423,0.2945343,1.5470816,0.66068125,0.04,0.04,-9.438258,2.6456847190856934,-0.26570442,-0.14074528,0.021592602133750916,0.14623037
2645.3333333394053,0.12067292,-0.87230015,0.031238383,-2.4814122,0.2973143,1.546856,0.6594981,0.04,0.04,-9.431437,2.6701853275299072,-0.26487353,-0.14052506,0.021568400785326958,0.1460712
2645.350000006072,0.12179875,-0.8731211,0.031529885,-2.4825807,0.30009097,1.5466309,0.6583164,0.04,0.04,-9.42466,2.694659948348999,-0.26399398,-0.14028823,0.021537739783525467,0.14589268
2645.366666672739,0.12292312,-0.87394094,0.031821012,-2.483748,0.30286402,1.5464059,0.65713614,0.04,0.04,-9.417782,2.719205141067505,-0.26311278,-0.14003436,0.021504683420062065,0.14569947
2645.383333339406,0.124045864,-0.8747598,0.03211172,-2.4849136,0.3056331,1.5461813,0.6559576,0.04,0.04,-9.410916,2.743492603302002,-0.26207426,-0.13976371,0.021463967859745026,0.14548534
2645.400000006073,0.12516686,-0.8755773,0.03240198,-2.486077,0.3083979,1.5459571,0.6547809,0.04,0.04,-9.403929,2.7678346633911133,-0.26102152,-0.13947651,0.021420227363705635,0.1452558
2645.4166666727397,0.12628597,-0.8763934,0.032691747,-2.4872386,0.31115812,1.5457331,0.6536061,0.04,0.04,-9.396913,2.7921013832092285,-0.25992262,-0.13917266,0.02137196809053421,0.14500807
2645.4333333394065,0.12740304,-0.87720805,0.032981005,-2.4883983,0.31391338,1.5455096,0.65243345,0.04,0.04,-9.3898535,2.8164379596710205,-0.2587957,-0.13885185,0.021319231018424034,0.14474289
2645.4500000060734,0.12851804,-0.8780212,0.033269703,-2.4895558,0.31666332,1.5452865,0.6512631,0.04,0.04,-9.382742,2.840477228164673,-0.25753757,-0.13851447,0.02126157470047474,0.14445932
2645.4666666727403,0.12963068,-0.87883264,0.0335578,-2.4907112,0.3194076,1.545064,0.6500951,0.04,0.04,-9.375606,2.864577054977417,-0.25626633,-0.13816121,0.02119903638958931,0.14415824
2645.483333339407,0.13074096,-0.87964225,0.033845283,-2.491864,0.3221459,1.5448418,0.6489297,0.04,0.04,-9.368428,2.888740062713623,-0.25499526,-0.137792,0.021131861954927444,0.14383969
2645.500000006074,0.13184854,-0.8804501,0.0341321,-2.493014,0.32487792,1.5446202,0.64776695,0.04,0.04,-9.361208,2.9125688076019287,-0.25356594,-0.13740684,0.02105831913650036,0.14350344
2645.516666672741,0.13295357,-0.8812559,0.034418218,-2.4941611,0.32760334,1.5443991,0.646607,0.04,0.04,-9.353867,2.93644642829895,-0.2521322,-0.13700521,0.020983384922146797,0.14315008
2645.533333339408,0.13405575,-0.8820596,0.034703586,-2.4953055,0.3303218,1.5441786,0.64545,0.04,0.04,-9.346544,2.9602417945861816,-0.2506517,-0.13658692,0.02090359665453434,0.1427792
2645.5500000060747,0.13515492,-0.88286114,0.03498819,-2.4964461,0.33303288,1.5439585,0.64429617,0.04,0.04,-9.339228,2.984126091003418,-0.24916992,-0.13615394,0.02081676945090294,0.14238973
2645.5666666727416,0.13625103,-0.8836605,0.035272,-2.4975839,0.33573636,1.5437392,0.6431456,0.04,0.04,-9.331697,3.0075936317443848,-0.24752206,-0.13570419,0.020730357617139816,0.14198476
2645.5833333394085,0.1373439,-0.8844575,0.035554983,-2.498718,0.3384319,1.5435207,0.64199835,0.04,0.04,-9.324308,3.0311672687530518,-0.24588619,-0.13523929,0.020638100802898407,0.14156246
2645.6000000060753,0.13843341,-0.88525206,0.035837095,-2.4998493,0.34111905,1.5433027,0.6408548,0.04,0.04,-9.316825,3.054638147354126,-0.24418724,-0.1347584,0.020542312413454056,0.14112382
2645.616666672742,0.13951942,-0.8860441,0.036118302,-2.500976,0.34379768,1.5430855,0.6397149,0.04,0.04,-9.309351,3.0781917572021484,-0.24250087,-0.1342638,0.020439401268959045,0.14066754
2645.633333339409,0.14060181,-0.8868333,0.03639859,-2.5021,0.34646744,1.5428687,0.63857865,0.04,0.04,-9.301727,3.1012792587280273,-0.2406626,-0.13375296,0.020337030291557312,0.1401939
2645.650000006076,0.14168043,-0.88762003,0.036677886,-2.5032191,0.3491279,1.5426531,0.63744634,0.04,0.04,-9.29426,3.1245174407958984,-0.23883046,-0.13322754,0.020225107669830322,0.13970412
2645.666666672743,0.1427552,-0.8884037,0.036956176,-2.504335,0.35177875,1.5424379,0.63631815,0.04,0.04,-9.286545,3.1475634574890137,-0.23693702,-0.13268599,0.020114701241254807,0.13919775
2645.6833333394097,0.14382593,-0.8891846,0.037233442,-2.505446,0.35441986,1.5422238,0.6351941,0.04,0.04,-9.278956,3.170742988586426,-0.23506704,-0.13213105,0.01999535970389843,0.13867414
2645.7000000060766,0.14489256,-0.88996255,0.037509628,-2.5065536,0.3570506,1.5420105,0.6340744,0.04,0.04,-9.271292,3.193439483642578,-0.2330272,-0.13156036,0.019875120371580124,0.13813405
2645.7166666727435,0.1459549,-0.89073735,0.03778471,-2.5076566,0.35967097,1.541798,0.6329592,0.04,0.04,-9.263664,3.2162370681762695,-0.23100874,-0.13097584,0.019749173894524574,0.13757771
2645.7333333394104,0.1470129,-0.89150894,0.03805866,-2.508755,0.3622805,1.5415863,0.63184875,0.04,0.04,-9.255916,3.2390847206115723,-0.2290038,-0.13037741,0.0196183230727911,0.13700525
2645.7500000060772,0.14806637,-0.89227724,0.038331445,-2.5098484,0.36487874,1.5413755,0.63074297,0.04,0.04,-9.248223,3.261441469192505,-0.22684096,-0.12976547,0.019483283162117004,0.13641572
2645.766666672744,0.1491152,-0.8930422,0.038603023,-2.5109367,0.3674656,1.5411658,0.6296421,0.04,0.04,-9.240445,3.283871650695801,-0.22469965,-0.12913845,0.019346056506037712,0.13581114
2645.783333339411,0.15015924,-0.8938037,0.03887337,-2.5120208,0.3700407,1.5409567,0.6285461,0.04,0.04,-9.232649,3.306178092956543,-0.22250156,-0.12849776,0.01920626498758793,0.13519037
2645.800000006078,0.1511984,-0.89456165,0.039142463,-2.5131,0.37260392,1.5407488,0.62745506,0.04,0.04,-9.22488,3.328584671020508,-0.22033629,-0.12784374,0.019058898091316223,0.13455303
2645.8166666727448,0.1522326,-0.895316,0.039410256,-2.5141735,0.3751548,1.540542,0.6263694,0.04,0.04,-9.217152,3.350477695465088,-0.21800962,-0.12717535,0.018908174708485603,0.13390045
2645.8333333394116,0.15326168,-0.89606655,0.039676726,-2.5152419,0.377693,1.5403361,0.6252892,0.04,0.04,-9.209285,3.3723974227905273,-0.21570975,-0.12649332,0.01875610090792179,0.13323149
2645.8500000060785,0.15428548,-0.8968133,0.039941844,-2.5163045,0.38021827,1.5401313,0.6242145,0.04,0.04,-9.201478,3.394235610961914,-0.21336986,-0.12579878,0.01859891042113304,0.13254863
2645.8666666727454,0.15530394,-0.897556,0.04020557,-2.5173619,0.38273028,1.5399275,0.62314534,0.04,0.04,-9.193538,3.416093111038208,-0.21106634,-0.12509088,0.0184391587972641,0.13184893
2645.8833333394123,0.1563169,-0.89829487,0.04046789,-2.518413,0.38522878,1.5397248,0.62208194,0.04,0.04,-9.185809,3.437471866607666,-0.20859036,-0.12437018,0.018274614587426186,0.13113384
2645.900000006079,0.15732427,-0.89902943,0.04072876,-2.5194592,0.38771343,1.5395234,0.6210245,0.04,0.04,-9.177926,3.4588749408721924,-0.2061413,-0.12363634,0.01810726337134838,0.13040376
2645.916666672746,0.15832596,-0.8997599,0.040988136,-2.520499,0.39018404,1.5393231,0.6199731,0.04,0.04,-9.170149,3.480196475982666,-0.20367984,-0.122891605,0.017934054136276245,0.12965827
2645.933333339413,0.15932181,-0.9004862,0.04124601,-2.521533,0.39264032,1.5391239,0.6189278,0.04,0.04,-9.162135,3.5015130043029785,-0.20124672,-0.12213401,0.017759978771209717,0.12889756
2645.95000000608,0.16031171,-0.90120816,0.04150234,-2.5225606,0.39508194,1.5389259,0.61788857,0.04,0.04,-9.1543865,3.5223278999328613,-0.19862895,-0.121363975,0.01758081093430519,0.12812304
2645.9666666727467,0.16129556,-0.9019257,0.041757114,-2.5235815,0.39750862,1.5387292,0.6168559,0.04,0.04,-9.146523,3.543168067932129,-0.1960583,-0.120581575,0.017398886382579803,0.12733275
2645.9833333394135,0.16227323,-0.90263873,0.04201029,-2.5245962,0.39992014,1.5385336,0.61582965,0.03999999,0.04,-9.138509,3.5640757083892822,-0.19355397,-0.11978764,0.017216050997376442,0.12652908
2646.0000000060804,0.16324465,-0.9033472,0.042261846,-2.5256045,0.4023162,1.5383393,0.61481,0.03999998,0.04,-9.130753,3.5844314098358154,-0.19085804,-0.11898139,0.01702902652323246,0.12571175
2646.0166666727473,0.16420971,-0.904051,0.04251175,-2.5266066,0.40469658,1.5381463,0.61379695,0.039999984,0.04,-9.122937,3.6048474311828613,-0.18821123,-0.118164815,0.016838327050209045,0.12487865
2646.033333339414,0.16516826,-0.90475017,0.04275997,-2.5276022,0.407061,1.5379546,0.6127906,0.03999998,0.04,-9.115154,3.6251325607299805,-0.18553704,-0.11733704,0.01664191111922264,0.12403163
2646.050000006081,0.16612022,-0.9054443,0.043006483,-2.5285907,0.40940914,1.5377641,0.6117913,0.039999977,0.04,-9.10721,3.645454168319702,-0.18291792,-0.1164981,0.016443295404314995,0.1231706
2646.066666672748,0.16706549,-0.9061338,0.043251276,-2.529572,0.41174075,1.537575,0.61079913,0.039999973,0.04,-9.099494,3.665186882019043,-0.18014176,-0.115648896,0.016240298748016357,0.122296154
2646.083333339415,0.16800398,-0.90681833,0.043494318,-2.5305464,0.41405568,1.5373871,0.6098139,0.039999966,0.04,-9.091626,3.6849470138549805,-0.177402,-0.11478843,0.0160366240888834,0.1214087
2646.1000000060817,0.16893555,-0.90749764,0.04373557,-2.5315137,0.4163535,1.5372007,0.60883594,0.03999997,0.04,-9.08387,3.7045907974243164,-0.1746462,-0.11391737,0.01582871936261654,0.120507285
2646.1166666727486,0.16986018,-0.908172,0.043975,-2.5324736,0.41863412,1.5370158,0.6078653,0.039999958,0.04,-9.075968,3.7242887020111084,-0.17195836,-0.113035925,0.01561707817018032,0.11959318
2646.1333333394155,0.1707777,-0.9088414,0.044212613,-2.5334263,0.42089722,1.5368321,0.60690206,0.03999995,0.04,-9.0683,3.7433533668518066,-0.16909839,-0.112143986,0.015404781326651573,0.11866605
2646.1500000060823,0.17168804,-0.90950537,0.044448357,-2.5343714,0.4231426,1.5366504,0.6059464,0.03999995,0.04,-9.060571,3.7624905109405518,-0.16626602,-0.111242026,0.015188432298600674,0.11772657
2646.166666672749,0.17259109,-0.9101638,0.0446822,-2.535309,0.42536995,1.5364698,0.6049986,0.039999947,0.04,-9.052811,3.781450033187866,-0.16347659,-0.11033028,0.014972941018640995,0.11677461
2646.183333339416,0.17348678,-0.9108168,0.044914145,-2.5362391,0.42757908,1.5362905,0.6040584,0.03999993,0.04,-9.04505,3.8005173206329346,-0.16072254,-0.10941124,0.01474958285689354,0.115809605
2646.200000006083,0.17437495,-0.9114642,0.045144152,-2.5371614,0.42976984,1.5361129,0.60312593,0.03999993,0.04,-9.037491,3.818908214569092,-0.15780868,-0.108481675,0.014523664489388466,0.11483278
2646.21666667275,0.17525558,-0.9121066,0.0453722,-2.538076,0.43194196,1.5359367,0.60220146,0.03999993,0.04,-9.029835,3.8373749256134033,-0.15496802,-0.10754319,0.014295942150056362,0.113844566
2646.2333333394167,0.17612854,-0.9127438,0.045598272,-2.5389824,0.4340952,1.5357623,0.60128516,0.03999993,0.04,-9.022079,3.8559162616729736,-0.15215334,-0.1065957,0.014065436087548733,0.112848274
2646.2500000060836,0.1769938,-0.9133752,0.04582234,-2.5398803,0.43622935,1.5355893,0.6003769,0.039999913,0.04,-9.014571,3.873728036880493,-0.14917856,-0.1056394,0.01383715309202671,0.11183532
2646.2666666727505,0.17785122,-0.9140007,0.046044383,-2.54077,0.4383442,1.5354177,0.5994768,0.039999913,0.04,-9.006954,3.891631841659546,-0.1463068,-0.10467304,0.013607646338641644,0.11081195
2646.2833333394174,0.17870067,-0.9146203,0.046264384,-2.5416517,0.44043952,1.5352478,0.59858507,0.03999991,0.04,-8.999457,3.9093990325927734,-0.14341597,-0.10369873,0.013372974470257759,0.10977687
2646.3000000060842,0.17954217,-0.915234,0.04648231,-2.542525,0.44251516,1.5350795,0.5977016,0.039999906,0.04,-8.991821,3.9272348880767822,-0.14061442,-0.10271741,0.013136327266693115,0.10873177
2646.316666672751,0.18037558,-0.9158418,0.046698146,-2.5433898,0.4445709,1.534913,0.5968266,0.0399999,0.04,-8.984511,3.9443883895874023,-0.13764119,-0.10172777,0.012897429056465626,0.10767664
2646.333333339418,0.18120088,-0.9164437,0.04691187,-2.5442462,0.44660655,1.534748,0.5959604,0.039999895,0.04,-8.977052,3.961576461791992,-0.13474913,-0.10072983,0.012658766470849514,0.106609985
2646.350000006085,0.18201794,-0.9170397,0.047123473,-2.5450947,0.448622,1.5345843,0.59510255,0.039999887,0.04,-8.969723,3.9786298274993896,-0.13183674,-0.09972643,0.012415414676070213,0.10553312
2646.3666666727518,0.18282668,-0.9176296,0.04733293,-2.5459342,0.45061693,1.5344224,0.5942534,0.039999887,0.04,-8.962275,3.9957332611083984,-0.12899014,-0.09871529,0.012167458422482014,0.10444555
2646.3833333394186,0.18362708,-0.91821325,0.04754021,-2.5467653,0.45259115,1.5342621,0.5934133,0.03999988,0.04,-8.955086,4.012120246887207,-0.12602413,-0.097696535,0.01191990077495575,0.10334785
2646.4000000060855,0.184419,-0.9187909,0.047745302,-2.547587,0.45454457,1.5341038,0.592582,0.03999988,0.04,-8.947901,4.0286455154418945,-0.12313753,-0.09667343,0.011667185463011265,0.1022419
2646.4166666727524,0.18520245,-0.9193623,0.047948197,-2.5484,0.45647693,1.533947,0.59175956,0.03999987,0.04,-8.940567,4.044866561889648,-0.12024578,-0.09564137,0.011418587528169155,0.10112683
2646.4333333394193,0.18597727,-0.9199275,0.04814886,-2.549204,0.45838812,1.5337921,0.5909462,0.03999987,0.04,-8.933276,4.06121826171875,-0.117432386,-0.09460345,0.011166759766638279,0.10000194
2646.450000006086,0.18674345,-0.9204864,0.048347287,-2.5499997,0.4602779,1.5336391,0.59014195,0.039999865,0.04,-8.926348,4.076897144317627,-0.114470206,-0.09356018,0.010912842117249966,0.09886908
2646.466666672753,0.1875009,-0.9210389,0.048543476,-2.5507863,0.4621462,1.5334876,0.58934677,0.03999986,0.04,-8.919325,4.092634201049805,-0.111589886,-0.09251175,0.010656751692295074,0.09772859
2646.48333333942,0.18824956,-0.921585,0.048737396,-2.5515633,0.463993,1.5333378,0.58856076,0.039999854,0.04,-8.91213,4.108392238616943,-0.10880397,-0.09145767,0.010398809798061848,0.09657877
2646.500000006087,0.18898942,-0.9221246,0.048929002,-2.5523312,0.465818,1.5331899,0.58778423,0.039999854,0.04,-8.905328,4.12346076965332,-0.105873965,-0.09039732,0.010140486992895603,0.09541987
2646.5166666727537,0.18972035,-0.92265785,0.04911831,-2.55309,0.46762103,1.5330437,0.58701706,0.039999846,0.04,-8.898452,4.138624668121338,-0.103023015,-0.089333594,0.00987961981445551,0.09425541
2646.5333333394206,0.19044237,-0.92318445,0.049305297,-2.5538397,0.46940196,1.5328993,0.5862588,0.039999846,0.04,-8.891593,4.153558254241943,-0.1001823,-0.0882649,0.009618343785405159,0.09308151
2646.5500000060874,0.19115539,-0.9237046,0.049489964,-2.5545797,0.47116077,1.5327566,0.58551013,0.03999984,0.04,-8.884634,4.1685686111450195,-0.09744008,-0.087189674,0.009354216046631336,0.09190165
2646.5666666727543,0.19185935,-0.9242182,0.049672287,-2.5553105,0.4728972,1.5326159,0.58477104,0.03999983,0.04,-8.878093,4.182871341705322,-0.09454659,-0.086110346,0.00908975675702095,0.090714045
2646.583333339421,0.19255424,-0.9247252,0.04985226,-2.556032,0.47461116,1.5324769,0.5840415,0.039999824,0.04,-8.871399,4.197226524353027,-0.09174834,-0.08502709,0.008825492113828659,0.08952099
2646.600000006088,0.19323991,-0.92522526,0.050029855,-2.5567439,0.47630256,1.5323399,0.5833216,0.03999982,0.04,-8.864832,4.211409091949463,-0.088957965,-0.08394018,0.008558357134461403,0.088322274
2646.616666672755,0.19391645,-0.9257187,0.050205067,-2.5574458,0.47797123,1.5322044,0.5826114,0.039999813,0.04,-8.858071,4.225621223449707,-0.08630462,-0.08285043,0.008291151374578476,0.08711652
2646.633333339422,0.19458376,-0.92620546,0.050377887,-2.5581388,0.47961727,1.532071,0.5819107,0.03999981,0.04,-8.851776,4.239124298095703,-0.08346744,-0.081756614,0.008022734895348549,0.08590464
2646.6500000060887,0.19524178,-0.9266855,0.050548308,-2.558822,0.48124027,1.5319391,0.58122003,0.039999813,0.04,-8.845408,4.2527174949646,-0.08074078,-0.080660306,0.00775274308398366,0.08468563
2646.6666666727556,0.19589052,-0.9271587,0.05071632,-2.5594954,0.4828404,1.5318096,0.5805392,0.03999981,0.04,-8.839036,4.266082286834717,-0.07802507,-0.0795611,0.007481774780899286,0.08346281
2646.6833333394225,0.19652982,-0.92762506,0.05088191,-2.560159,0.48441744,1.5316813,0.5798681,0.0399998,0.04,-8.832571,4.279521465301514,-0.07544675,-0.07846062,0.007211268413811922,0.082234725
2646.7000000060893,0.19715978,-0.92808455,0.05104508,-2.560813,0.4859713,1.5315555,0.5792067,0.0399998,0.04,-8.826539,4.292245388031006,-0.07269046,-0.07735645,0.006938180886209011,0.08100289
2646.716666672756,0.19778036,-0.9285372,0.051205814,-2.5614572,0.48750195,1.5314312,0.5785553,0.039999798,0.04,-8.820412,4.305038928985596,-0.07007223,-0.07625021,0.006667075678706169,0.07976629
2646.733333339423,0.19839145,-0.92898303,0.05136409,-2.562091,0.4890092,1.5313094,0.5779138,0.039999798,0.04,-8.814134,4.317844867706299,-0.06752395,-0.075142525,0.006393696181476116,0.07852426
2646.75000000609,0.19899306,-0.9294219,0.05151992,-2.5627158,0.49049324,1.5311888,0.57728237,0.03999979,0.04,-8.808286,4.329986572265625,-0.06486512,-0.07403249,0.00612415699288249,0.077283055
2646.766666672757,0.19958518,-0.929854,0.051673293,-2.5633302,0.49195382,1.5310707,0.57666075,0.039999787,0.04,-8.802458,4.342185974121094,-0.062283233,-0.07292311,0.005848906934261322,0.07603337
2646.7833333394237,0.20016782,-0.93027896,0.05182422,-2.5639348,0.49339098,1.530954,0.5760491,0.039999783,0.04,-8.796523,4.354147911071777,-0.0597463,-0.071810566,0.005578356329351664,0.07478421
2646.8000000060906,0.20074089,-0.9306972,0.05197266,-2.5645297,0.49480462,1.5308397,0.5754476,0.039999776,0.04,-8.790563,4.366177558898926,-0.057312317,-0.07069721,0.005304444115608931,0.073531084
2646.8166666727575,0.20130444,-0.93110824,0.05211863,-2.5651145,0.49619466,1.5307268,0.574856,0.039999776,0.04,-8.785083,4.377531051635742,-0.054742184,-0.069584765,0.005032444838434458,0.072275974
2646.8333333394244,0.20185837,-0.9315125,0.05226212,-2.5656896,0.4975611,1.5306162,0.5742745,0.039999772,0.04,-8.779465,4.388919353485107,-0.052290738,-0.068470955,0.004758317954838276,0.07101852
2646.8500000060912,0.20240274,-0.9319095,0.052403137,-2.5662549,0.49890387,1.5305071,0.573703,0.039999772,0.04,-8.77394,4.400123119354248,-0.049863897,-0.06735856,0.00448472099378705,0.069758974
2646.866666672758,0.20293753,-0.9322998,0.052541666,-2.5668101,0.500223,1.5304003,0.5731417,0.03999977,0.04,-8.768293,4.411386013031006,-0.047553174,-0.06624686,0.004208478145301342,0.06850014
2646.883333339425,0.20346276,-0.93268305,0.05267771,-2.5673556,0.5015186,1.530295,0.5725903,0.03999976,0.04,-8.76307,4.421894073486328,-0.045103576,-0.06513516,0.003936136607080698,0.06723877
2646.900000006092,0.20397837,-0.9330592,0.05281127,-2.5678911,0.5027903,1.5301921,0.572049,0.03999977,0.04,-8.757814,4.432513236999512,-0.04277228,-0.0640243,0.0036608523223549128,0.06597548
2646.9166666727588,0.20448439,-0.9334284,0.05294235,-2.5684166,0.50403863,1.5300908,0.5715178,0.03999976,0.04,-8.752592,4.4429473876953125,-0.04048835,-0.062915504,0.003386173862963915,0.064715646
2646.9333333394256,0.20498082,-0.9337907,0.05307094,-2.5689323,0.5052631,1.5299916,0.5709967,0.03999976,0.04,-8.747209,4.453344821929932,-0.038304854,-0.06180763,0.00311272288672626,0.063452005
2646.9500000060925,0.20546769,-0.93414587,0.053197056,-2.5694377,0.50646406,1.5298941,0.5704857,0.039999753,0.04,-8.742359,4.463130474090576,-0.035991132,-0.06070147,0.0028402090538293123,0.06219173
2646.9666666727594,0.20594496,-0.93449396,0.05332069,-2.569933,0.5076413,1.529799,0.5699846,0.039999753,0.04,-8.737407,4.472933769226074,-0.033798356,-0.059597876,0.002566403243690729,0.060929384
2646.9833333394263,0.20641267,-0.93483514,0.05344185,-2.5704186,0.50879496,1.5297053,0.5694937,0.039999753,0.04,-8.732218,4.4827704429626465,-0.031736415,-0.058495063,0.0022969385609030724,0.059671532
2647.000000006093,0.20687082,-0.93516934,0.05356052,-2.5708942,0.50992507,1.5296139,0.56901276,0.03999975,0.04,-8.727678,4.491973400115967,-0.029504221,-0.05739598,0.0020243581384420395,0.058414925
2647.01666667276,0.2073194,-0.9354967,0.05367672,-2.5713599,0.5110315,1.5295238,0.5685418,0.039999746,0.04,-8.722933,4.501195907592773,-0.027430166,-0.05629971,0.0017543405992910266,0.057159185
2647.033333339427,0.20775843,-0.93581694,0.053790458,-2.5718157,0.51211447,1.5294361,0.5680808,0.039999742,0.04,-8.718265,4.510209560394287,-0.025360623,-0.055205815,0.001484663225710392,0.055905864
2647.050000006094,0.20818803,-0.93613046,0.05390175,-2.5722618,0.5131741,1.5293499,0.5676299,0.039999742,0.04,-8.713524,4.519319534301758,-0.02344379,-0.054116264,0.001215194584801793,0.054657064
2647.0666666727607,0.2086081,-0.93643695,0.05401058,-2.5726976,0.5142104,1.529266,0.5671889,0.039999742,0.04,-8.709267,4.527724266052246,-0.021366619,-0.053030584,0.0009457113337703049,0.053411573
2647.0833333394276,0.20901878,-0.9367366,0.054116953,-2.5731242,0.51522326,1.5291839,0.56675786,0.03999974,0.04,-8.704809,4.536142349243164,-0.019446295,-0.051948152,0.0006807107129134238,0.052167572
2647.1000000060944,0.20941998,-0.9370295,0.054220896,-2.5735404,0.516213,1.5291036,0.5663366,0.039999735,0.04,-8.7006,4.54445743560791,-0.017531246,-0.050872,0.00041372791747562587,0.050926477
2647.1166666727613,0.20981182,-0.93731534,0.054322425,-2.573947,0.5171794,1.5290252,0.56592524,0.039999735,0.04,-8.696074,4.552709579467773,-0.015742317,-0.049798228,0.00015107404033187777,0.049691003
2647.133333339428,0.2101943,-0.93759435,0.05442151,-2.5743444,0.51812285,1.5289488,0.56552374,0.03999973,0.04,-8.692167,4.560385704040527,-0.013849557,-0.048730202,-0.0001115902850870043,0.04846078
2647.150000006095,0.21056747,-0.9378668,0.054518186,-2.5747316,0.5190435,1.5288742,0.5651319,0.03999973,0.04,-8.688198,4.568149089813232,-0.012066308,-0.047669597,-0.0003749919997062534,0.047236156
2647.166666672762,0.21093144,-0.9381324,0.054612476,-2.5751092,0.5199412,1.5288016,0.56474996,0.039999727,0.04,-8.684155,4.575597286224365,-0.010312051,-0.04661209,-0.0006344146095216274,0.0460154
2647.183333339429,0.2112861,-0.9383913,0.054704376,-2.5754776,0.520816,1.5287305,0.56437784,0.03999973,0.04,-8.680056,4.5831451416015625,-0.008686301,-0.045561068,-0.00089126086095348,0.044801284
2647.2000000060957,0.21163158,-0.9386435,0.054793905,-2.5758364,0.5216684,1.5286616,0.56401515,0.03999972,0.04,-8.676544,4.5901288986206055,-0.0069331843,-0.044518914,-0.0011498997919261456,0.043594632
2647.2166666727626,0.21196797,-0.93888897,0.054881074,-2.5761857,0.52249825,1.5285941,0.56366193,0.039999723,0.04,-8.672804,4.597066879272461,-0.005322097,-0.043481633,-0.0014047418953850865,0.042392742
2647.2333333394295,0.21229528,-0.9391279,0.054965883,-2.5765254,0.5233058,1.5285289,0.56331825,0.03999972,0.04,-8.668986,4.604071617126465,-0.0038111391,-0.042451408,-0.0016598416259512305,0.041197807
2647.2500000060963,0.2126136,-0.9393601,0.055048358,-2.5768561,0.5240911,1.528465,0.562984,0.039999727,0.04,-8.665617,4.6104607582092285,-0.0021967548,-0.041427687,-0.0019099703058600426,0.040012244
2647.266666672763,0.21292298,-0.9395859,0.055128522,-2.577177,0.5248548,1.5284034,0.5626591,0.039999723,0.04,-8.662251,4.616931438446045,-0.0006928998,-0.040413175,-0.002163104945793748,0.038833
2647.28333333943,0.21322346,-0.93980515,0.055206385,-2.5774887,0.52559584,1.5283428,0.56234366,0.03999972,0.04,-8.658766,4.623115062713623,0.0007593357,-0.039404377,-0.0024078176356852055,0.03766142
2647.300000006097,0.21351515,-0.9400181,0.05528197,-2.5777915,0.52631545,1.5282848,0.56203735,0.03999972,0.04,-8.655327,4.629431247711182,0.0021346314,-0.038405098,-0.0026557985693216324,0.036500905
2647.316666672764,0.21379809,-0.9402247,0.055355296,-2.578086,0.52701354,1.5282279,0.5617402,0.03999972,0.04,-8.652327,4.6351318359375,0.003574595,-0.037414223,-0.0028979803901165724,0.03534929
2647.3333333394307,0.21407238,-0.9404249,0.05542637,-2.5783708,0.5276902,1.5281732,0.56145227,0.03999972,0.04,-8.649306,4.6409196853637695,0.0049318527,-0.036434133,-0.0031435582786798477,0.034206636
2647.3500000060976,0.21433808,-0.94061893,0.05549523,-2.5786462,0.52834547,1.5281202,0.56117314,0.039999723,0.04,-8.646195,4.646438121795654,0.0062112985,-0.035462122,-0.003383123781532049,0.033074193
2647.3666666727645,0.21459524,-0.94080675,0.055561874,-2.5789127,0.52898,1.5280684,0.5609031,0.039999727,0.04,-8.643001,4.652012348175049,0.0073958896,-0.034498356,-0.0036180822644382715,0.031954326
2647.3833333394314,0.21484397,-0.9409883,0.05562634,-2.579171,0.5295937,1.528019,0.56064194,0.039999727,0.04,-8.6403265,4.657043933868408,0.008704459,-0.033544943,-0.0038525424897670746,0.03084535
2647.4000000060983,0.21508442,-0.9411639,0.055688653,-2.5794206,0.5301869,1.5279704,0.56038964,0.039999723,0.04,-8.637583,4.662134647369385,0.009862349,-0.032603886,-0.0040831612423062325,0.02974634
2647.416666672765,0.21531664,-0.94133353,0.055748835,-2.5796618,0.53075963,1.5279245,0.56014585,0.039999723,0.04,-8.634883,4.667038440704346,0.011022715,-0.031673465,-0.004314621444791555,0.02866026
2647.433333339432,0.2155407,-0.94149715,0.055806927,-2.5798945,0.53131247,1.5278795,0.55991066,0.03999973,0.04,-8.632047,4.671974182128906,0.012029741,-0.030753301,-0.00453853327780962,0.027587391
2647.450000006099,0.21575676,-0.9416548,0.055862904,-2.5801187,0.5318453,1.5278363,0.55968386,0.039999727,0.04,-8.629712,4.676379203796387,0.013173353,-0.029845497,-0.0047637829557061195,0.026526649
2647.4666666727658,0.21596484,-0.94180655,0.05591683,-2.5803342,0.53235847,1.5277947,0.5594654,0.03999972,0.04,-8.627211,4.680791854858398,0.014175007,-0.028948717,-0.004984007216989994,0.0254791
2647.4833333394326,0.21616507,-0.9419529,0.055968735,-2.5805416,0.5328525,1.5277542,0.55925506,0.03999973,0.04,-8.624604,4.685242652893066,0.015082728,-0.028063776,-0.005201018415391445,0.024446089
2647.5000000060995,0.21635754,-0.94209355,0.05601864,-2.580741,0.5333274,1.5277162,0.559053,0.039999727,0.04,-8.622484,4.689189434051514,0.016110446,-0.027191177,-0.005416451022028923,0.023427678
2647.5166666727664,0.21654251,-0.94222856,0.05606656,-2.5809326,0.5337835,1.5276788,0.5588589,0.039999727,0.04,-8.6201725,4.693141460418701,0.016996013,-0.026331507,-0.005622844211757183,0.022424638
2647.5333333394333,0.2167199,-0.94235814,0.056112535,-2.5811167,0.53422105,1.5276437,0.5586724,0.03999973,0.04,-8.618093,4.697003364562988,0.017878307,-0.025485849,-0.00583215057849884,0.021435568
2647.5500000061,0.21688989,-0.9424823,0.056156605,-2.581293,0.53464055,1.5276098,0.5584939,0.039999723,0.04,-8.615821,4.7008867263793945,0.018629294,-0.02465381,-0.006035597063601017,0.020464072
2647.566666672767,0.21705262,-0.9426011,0.056198783,-2.581462,0.5350421,1.5275766,0.558323,0.03999973,0.04,-8.613968,4.704245567321777,0.019482924,-0.02383686,-0.006236459128558636,0.019506354
2647.583333339434,0.21720825,-0.94271475,0.056239128,-2.581623,0.5354262,1.527546,0.5581596,0.039999723,0.04,-8.612002,4.707657337188721,0.020238437,-0.023034438,-0.006436306983232498,0.018567536
2647.600000006101,0.21735688,-0.94282347,0.05627766,-2.5817766,0.5357929,1.5275164,0.5580034,0.039999735,0.04,-8.610088,4.710923194885254,0.020930463,-0.022246476,-0.006626715883612633,0.017645158
2647.6166666727677,0.21749866,-0.94292694,0.056314416,-2.5819228,0.5361428,1.5274873,0.5578544,0.039999735,0.04,-8.6080475,4.714173793792725,0.021576414,-0.02147204,-0.006812498904764652,0.016741935
2647.6333333394346,0.21763366,-0.94302565,0.05634943,-2.5820618,0.5364761,1.5274609,0.5577126,0.039999735,0.04,-8.60648,4.7170281410217285,0.022282528,-0.02071344,-0.0069991848431527615,0.015855748
2647.6500000061014,0.21776211,-0.9431196,0.05638274,-2.582196,0.5367929,1.5274351,0.5575778,0.039999735,0.04,-8.604715,4.719897747039795,0.022862528,-0.019970795,-0.007173273246735334,0.014991047
2647.6666666727683,0.21788417,-0.9432087,0.056414388,-2.5823245,0.537094,1.52741,0.5574496,0.039999742,0.04,-8.603353,4.722779273986816,0.023481386,-0.019250425,-0.007355788256973028,0.014141783
2647.683333339435,0.21799989,-0.9432933,0.05644441,-2.5824459,0.5373796,1.5273875,0.5573281,0.03999973,0.04,-8.601769,4.72563362121582,0.023961576,-0.018548716,-0.007540139835327864,0.01331182
2647.700000006102,0.21810952,-0.94337344,0.05647284,-2.58256,0.53765017,1.5273654,0.55721295,0.039999735,0.04,-8.600316,4.727983474731445,0.024465678,-0.017864048,-0.0077118948101997375,0.012503562
2647.716666672769,0.21821319,-0.9434491,0.056499735,-2.582667,0.53790593,1.527344,0.5571042,0.039999742,0.04,-8.598773,4.730306625366211,0.024942655,-0.017194044,-0.007878312841057777,0.011716406
2647.733333339436,0.21831103,-0.94352067,0.05652511,-2.582767,0.5381474,1.5273253,0.55700135,0.039999742,0.04,-8.597197,4.73268985748291,0.025335692,-0.016541593,-0.00804129894822836,0.010951511
2647.7500000061027,0.21840324,-0.94358826,0.05654904,-2.5828645,0.53837496,1.527307,0.5569045,0.039999742,0.04,-8.595824,4.734659671783447,0.025758008,-0.015904035,-0.008186770603060722,0.010210913
2647.7666666727696,0.21849002,-0.9436518,0.056571547,-2.5829551,0.53858906,1.5272893,0.55681336,0.039999746,0.04,-8.59494,4.736956596374512,0.026197154,-0.015293986,-0.008343431167304516,0.009489408
2647.7833333394365,0.21857147,-0.94371146,0.05659268,-2.583039,0.53879017,1.5272726,0.55672777,0.039999753,0.04,-8.593617,4.7388529777526855,0.02653539,-0.014700864,-0.008494246751070023,0.00879059
2647.8000000061033,0.21864784,-0.9437675,0.056612488,-2.5831187,0.5389785,1.5272579,0.55664766,0.039999746,0.04,-8.592185,4.7407755851745605,0.02679639,-0.014125128,-0.00863482803106308,0.008117092
2647.81666667277,0.21871926,-0.9438198,0.056631017,-2.5831935,0.53915477,1.5272436,0.5565727,0.03999975,0.04,-8.591258,4.742492198944092,0.02712801,-0.013572413,-0.00876963697373867,0.007466874
2647.833333339437,0.21878593,-0.94386876,0.05664831,-2.5832617,0.5393196,1.5272297,0.5565026,0.039999746,0.04,-8.590229,4.744215488433838,0.027400412,-0.013041127,-0.008903346955776215,0.006841525
2647.850000006104,0.21884802,-0.9439142,0.05666443,-2.5833285,0.5394731,1.5272168,0.5564374,0.03999975,0.04,-8.589031,4.745697021484375,0.027637165,-0.012527427,-0.009027254767715931,0.006239978
2647.866666672771,0.21890579,-0.94395626,0.05667942,-2.5833883,0.5396157,1.527206,0.5563766,0.03999975,0.04,-8.588271,4.747540473937988,0.027817834,-0.012043614,-0.009157678112387657,0.005662567
2647.8833333394377,0.21895939,-0.94399565,0.056693338,-2.5834436,0.539748,1.5271955,0.55632025,0.03999975,0.04,-8.587167,4.748762607574463,0.027982788,-0.011576491,-0.009270315989851952,0.0051155305
2647.9000000061046,0.21900904,-0.94403183,0.056706227,-2.5834954,0.53987044,1.5271853,0.5562681,0.039999753,0.04,-8.586222,4.750087738037109,0.028181316,-0.011131565,-0.00937699619680643,0.004594244
2647.9166666727715,0.21905492,-0.94406563,0.056718145,-2.5835428,0.5399838,1.5271754,0.55621976,0.03999975,0.04,-8.585433,4.751448154449463,0.028320909,-0.010712364,-0.009483232162892818,0.004101066
2647.9333333394384,0.21909732,-0.94409657,0.056729153,-2.583587,0.54008853,1.5271679,0.5561751,0.03999975,0.04,-8.58446,4.7527031898498535,0.028445074,-0.010314716,-0.009583046659827232,0.0036345718
2647.9500000061053,0.21913636,-0.9441251,0.0567393,-2.5836277,0.5401849,1.5271609,0.556134,0.03999975,0.04,-8.58373,4.753820419311523,0.02852063,-0.009942056,-0.009671351872384548,0.0031973065
2647.966666672772,0.21917234,-0.94415164,0.056748625,-2.5836647,0.54027367,1.5271541,0.5560963,0.039999753,0.04,-8.582944,4.754931926727295,0.028609646,-0.009594625,-0.009753845632076263,0.0027897088
2647.983333339439,0.21920544,-0.944176,0.05675721,-2.5837007,0.5403554,1.5271474,0.55606145,0.039999757,0.04,-8.58207,4.756005764007568,0.028682936,-0.009271702,-0.009829584509134293,0.0024120715
2648.000000006106,0.21923588,-0.9441984,0.056765117,-2.5837312,0.5404306,1.5271411,0.5560295,0.039999753,0.04,-8.581642,4.757078170776367,0.028774392,-0.008977983,-0.009908897802233696,0.002062292
2648.0166666727728,0.21926388,-0.9442191,0.05677239,-2.58376,0.54049987,1.527135,0.5560001,0.039999757,0.04,-8.580669,4.757812976837158,0.028793901,-0.0087022465,-0.009972486644983292,0.001741248
2648.0333333394397,0.21928962,-0.9442381,0.056779083,-2.5837884,0.5405636,1.5271289,0.555973,0.039999753,0.04,-8.580142,4.758720874786377,0.028854996,-0.0084503405,-0.010034897364675999,0.0014461001
2648.0500000061065,0.21931332,-0.9442555,0.056785233,-2.5838125,0.54062223,1.527123,0.5559479,0.039999753,0.04,-8.579736,4.759668350219727,0.028889462,-0.008222634,-0.010101514868438244,0.0011715039
2648.0666666727734,0.21933511,-0.9442714,0.056790896,-2.5838342,0.540676,1.5271196,0.5559249,0.03999976,0.04,-8.579039,4.7602033615112305,0.028911086,-0.008007925,-0.010157231241464615,0.000919441
2648.0833333394403,0.21935515,-0.94428617,0.0567961,-2.5838552,0.5407257,1.5271164,0.55590373,0.03999976,0.04,-8.578455,4.760869979858398,0.028886305,-0.0078098993,-0.010197549127042294,0.0006925591
2648.100000006107,0.21937358,-0.9442997,0.0568009,-2.5838757,0.5407715,1.5271134,0.55588436,0.039999757,0.04,-8.578127,4.761529445648193,0.028946768,-0.007629822,-0.010238436050713062,0.0004809375
2648.116666672774,0.21939054,-0.9443121,0.0568053,-2.5838938,0.54081357,1.5271106,0.5558668,0.03999976,0.04,-8.577825,4.762199878692627,0.028972331,-0.0074676573,-0.010280932299792767,0.0002841516
2648.133333339441,0.21940616,-0.94432366,0.05680935,-2.583909,0.54085207,1.5271077,0.5558503,0.039999753,0.04,-8.577389,4.762641906738281,0.028994294,-0.0073178364,-0.010317865759134293,0.00010590154
2648.150000006108,0.21942052,-0.9443341,0.056813087,-2.583923,0.5408877,1.5271049,0.555835,0.039999757,0.04,-8.576883,4.762994766235352,0.02902959,-0.007175131,-0.010346991941332817,-5.8723508e-05
2648.1666666727747,0.21943372,-0.9443438,0.056816522,-2.5839367,0.5409203,1.5271021,0.55582124,0.03999976,0.04,-8.576593,4.76345682144165,0.029050885,-0.0070434227,-0.010375749319791794,-0.0002095013
2648.1833333394416,0.21944588,-0.94435287,0.05681968,-2.58395,0.5409508,1.5270994,0.5558082,0.03999976,0.04,-8.576349,4.7639265060424805,0.029084463,-0.0069250436,-0.010404885746538639,-0.00034779814
2648.2000000061084,0.21945706,-0.944361,0.056822583,-2.583963,0.54097855,1.5270969,0.5557965,0.039999764,0.04,-8.576196,4.764310359954834,0.029128728,-0.0068160775,-0.010434849187731743,-0.00047885822
2648.2166666727753,0.21946733,-0.9443686,0.056825254,-2.5839741,0.54100364,1.5270944,0.55578536,0.03999976,0.04,-8.576015,4.764712333679199,0.029122531,-0.0067193527,-0.010465843603014946,-0.00059851573
2648.233333339442,0.21947679,-0.9443757,0.056827717,-2.583984,0.5410268,1.5270921,0.5557755,0.03999976,0.04,-8.575678,4.76498556137085,0.029130112,-0.006626691,-0.010492452420294285,-0.0007071638
2648.250000006109,0.2194855,-0.9443821,0.056829974,-2.583992,0.541048,1.5270898,0.55576617,0.039999757,0.04,-8.575422,4.7652177810668945,0.029142732,-0.0065419334,-0.010514460504055023,-0.0008061182
2648.266666672776,0.21949354,-0.94438803,0.056832056,-2.5839996,0.54106814,1.5270876,0.5557581,0.039999757,0.04,-8.575145,4.765422344207764,0.029143797,-0.006460685,-0.010532686486840248,-0.0008970307
2648.283333339443,0.21950084,-0.94439346,0.056833968,-2.5840065,0.5410868,1.5270853,0.5557504,0.039999757,0.04,-8.574987,4.765664100646973,0.02916151,-0.0063885814,-0.010549966245889664,-0.0009830008
2648.3000000061097,0.21950763,-0.9443985,0.056835733,-2.5840127,0.5411037,1.527083,0.555743,0.039999757,0.04,-8.574808,4.765904903411865,0.029169312,-0.0063211173,-0.01056615449488163,-0.0010637147
2648.3166666727766,0.21951391,-0.94440305,0.056837354,-2.5840187,0.5411189,1.5270808,0.55573684,0.039999757,0.04,-8.57466,4.766097545623779,0.02919656,-0.0062564616,-0.010581630282104015,-0.0011351864
2648.3333333394435,0.2195197,-0.9444072,0.056838848,-2.5840244,0.5411337,1.5270789,0.55573106,0.039999757,0.04,-8.574571,4.76632833480835,0.029203944,-0.0062012626,-0.0105985002592206,-0.0011998734
2648.3500000061103,0.21952502,-0.94441116,0.056840222,-2.5840302,0.5411468,1.527078,0.5557254,0.039999757,0.04,-8.574464,4.7664899826049805,0.029200282,-0.0061501013,-0.01061331294476986,-0.0012637539
2648.3666666727772,0.21952987,-0.94441485,0.05684148,-2.5840356,0.5411583,1.527078,0.55571985,0.039999757,0.04,-8.574361,4.766708850860596,0.02918655,-0.0061025177,-0.010624628514051437,-0.0013204851
2648.383333339444,0.21953428,-0.9444182,0.056842636,-2.584041,0.5411694,1.527078,0.5557153,0.039999757,0.04,-8.574257,4.766878128051758,0.029194064,-0.006057763,-0.010632524266839027,-0.0013695039
2648.400000006111,0.21953827,-0.9444212,0.05684371,-2.5840466,0.5411798,1.527078,0.55571115,0.039999757,0.04,-8.351182,4.622979640960693,0.08352224,0.0,-0.0,0.0
2648.416666672778,0.21953827,-0.9444212,0.05684371,-2.5840466,0.5411798,1.527078,0.55571115,0.039999757,0.04,-8.573565,4.767521858215332,0.029018184,0.0,-0.0,0.0
2648.4333333394447,0.21953827,-0.9444212,0.05684371,-2.5840466,0.5411798,1.527078,0.55571115,0.039999757,0.04,-8.573565,4.767521858215332,0.029018184,0.0,-0.0,0.0
2648.4500000061116,0.21953827,-0.9444212,0.05684371,-2.5840466,0.5411798,1.527078,0.55571115,0.039999757,0.04,-8.573565,4.767521858215332,0.029018184,0.0,-0.0,0.0
2648.4666666727785,0.21953827,-0.9444212,0.05684371,-2.5840466,0.5411798,1.527078,0.55571115,0.039999757,0.04,-8.573565,4.767521858215332,0.029018184,0.0,-0.0,0.0
2648.4833333394454,0.21953827,-0.9444212,0.05684371,-2.5840466,0.5411798,1.527078,0.55571115,0.039999757,0.04,-8.573565,4.767521858215332,0.029018184,0.0,-0.0,0.0
2648.5000000061123,0.21953827,-0.9444212,0.05684371,-2.5840466,0.5411798,1.527078,0.55571115,0.039999757,0.04,-8.573565,4.767521858215332,0.029018184,0.0,-0.0,0.0
2648.516666672779,0.21953827,-0.9444212,0.05684371,-2.5840466,0.5411798,1.527078,0.55571115,0.039999757,0.04,-8.573565,4.767521858215332,0.029018184,0.0,-0.0,0.0
2648.533333339446,0.21953827,-0.9444212,0.05684371,-2.5840466,0.5411798,1.527078,0.55571115,0.039999757,0.04,-8.573565,4.767521858215332,0.029018184,0.0,-0.0,0.0
2648.550000006113,0.21953827,-0.9444212,0.05684371,-2.5840466,0.5411798,1.527078,0.55571115,0.039999757,0.04,-8.573565,4.767521858215332,0.029018184,0.0,-0.0,0.0
2648.56666667278,0.21953827,-0.9444212,0.05684371,-2.5840466,0.5411798,1.527078,0.55571115,0.039999757,0.04,-8.573565,4.767521858215332,0.029018184,0.0,-0.0,0.0
2648.5833333394467,0.21953827,-0.9444212,0.05684371,-2.5840466,0.5411798,1.527078,0.55571115,0.039999757,0.04,-8.573565,4.767521858215332,0.029018184,0.0,-0.0,0.0
2648.6000000061135,0.21953827,-0.9444212,0.05684371,-2.5840466,0.5411798,1.527078,0.55571115,0.039999757,0.04,-8.573565,4.767521858215332,0.029018184,0.0,-0.0,0.0
2648.6166666727804,0.21953827,-0.9444212,0.05684371,-2.5840466,0.5411798,1.527078,0.55571115,0.039999757,0.04,-8.573565,4.767521858215332,0.029018184,0.0,-0.0,0.0
2648.6333333394473,0.21953827,-0.9444212,0.05684371,-2.5840466,0.5411798,1.527078,0.55571115,0.039999757,0.04,-8.573565,4.767521858215332,0.029018184,0.0,-0.0,0.0
2648.650000006114,0.21953827,-0.9444212,0.05684371,-2.5840466,0.5411798,1.527078,0.55571115,0.039999757,0.04,-8.573565,4.767521858215332,0.029018184,0.0,-0.0,0.0
2648.666666672781,0.21953827,-0.9444212,0.05684371,-2.5840466,0.5411798,1.527078,0.55571115,0.039999757,0.04,-8.573565,4.767521858215332,0.029018184,0.0,-0.0,0.0
2648.683333339448,0.21953827,-0.9444212,0.05684371,-2.5840466,0.5411798,1.527078,0.55571115,0.039999757,0.04,-8.573565,4.767521858215332,0.029018184,0.0,-0.0,0.0
2648.700000006115,0.21953827,-0.9444212,0.05684371,-2.5840466,0.5411798,1.527078,0.55571115,0.039999757,0.04,-8.573565,4.767521858215332,0.029018184,0.0,-0.0,0.0
2648.7166666727817,0.21953827,-0.9444212,0.05684371,-2.5840466,0.5411798,1.527078,0.55571115,0.039999757,0.04,-8.573565,4.767521858215332,0.029018184,0.0,-0.0,0.0
2648.7333333394486,0.21953827,-0.9444212,0.05684371,-2.5840466,0.5411798,1.527078,0.55571115,0.039999757,0.04,-8.573565,4.767521858215332,0.029018184,0.0,-0.0,0.0
2648.7500000061154,0.21953827,-0.9444212,0.05684371,-2.5840466,0.5411798,1.527078,0.55571115,0.039999757,0.04,-8.573565,4.767521858215332,0.029018184,0.0,-0.0,0.0
2648.7666666727823,0.21953827,-0.9444212,0.05684371,-2.5840466,0.5411798,1.527078,0.55571115,0.039999757,0.04,-8.573565,4.767521858215332,0.029018184,0.0,-0.0,0.0
2648.783333339449,0.21953827,-0.9444212,0.05684371,-2.5840466,0.5411798,1.527078,0.55571115,0.039999757,0.04,-8.573565,4.767521858215332,0.029018184,0.0,-0.0,0.0
2648.800000006116,0.21953827,-0.9444212,0.05684371,-2.5840466,0.5411798,1.527078,0.55571115,0.039999757,0.04,-8.573565,4.767521858215332,0.029018184,0.0,-0.0,0.0
2648.816666672783,0.21953827,-0.9444212,0.05684371,-2.5840466,0.5411798,1.527078,0.55571115,0.039999757,0.04,-8.573565,4.767521858215332,0.029018184,0.0,-0.0,0.0
2648.83333333945,0.21953827,-0.9444212,0.05684371,-2.5840466,0.5411798,1.527078,0.55571115,0.039999757,0.04,-8.573565,4.767521858215332,0.029018184,0.0,-0.0,0.0
2648.8500000061167,0.21953827,-0.9444212,0.05684371,-2.5840466,0.5411798,1.527078,0.55571115,0.039999757,0.04,-8.573565,4.767521858215332,0.029018184,0.0,-0.0,0.0
2648.8666666727836,0.21953827,-0.9444212,0.05684371,-2.5840466,0.5411798,1.527078,0.55571115,0.039999757,0.04,-8.573565,4.767521858215332,0.029018184,0.0,-0.0,0.0
2648.8833333394505,0.21953827,-0.9444212,0.05684371,-2.5840466,0.5411798,1.527078,0.55571115,0.039999757,0.04,-8.573565,4.767521858215332,0.029018184,0.0,-0.0,0.0
2648.9000000061174,0.21953827,-0.9444212,0.05684371,-2.5840466,0.5411798,1.527078,0.55571115,0.039999757,0.04,-8.573565,4.767521858215332,0.029018184,0.0,-0.0,0.0
2648.9166666727842,0.21953827,-0.9444212,0.05684371,-2.5840466,0.5411798,1.527078,0.55571115,0.039999757,0.04,-8.573565,4.767521858215332,0.029018184,0.0,-0.0,0.0
2648.933333339451,0.21953827,-0.9444212,0.05684371,-2.5840466,0.5411798,1.527078,0.55571115,0.039999757,0.04,-8.573565,4.767521858215332,0.029018184,0.0,-0.0,0.0
2648.950000006118,0.21953827,-0.9444212,0.05684371,-2.5840466,0.5411798,1.527078,0.55571115,0.039999757,0.04,-8.573565,4.767521858215332,0.029018184,0.0,-0.0,0.0
2648.966666672785,0.21953827,-0.9444212,0.05684371,-2.5840466,0.5411798,1.527078,0.55571115,0.039999757,0.04,-8.573565,4.767521858215332,0.029018184,0.0,-0.0,0.0
2648.9833333394517,0.21953827,-0.9444212,0.05684371,-2.5840466,0.5411798,1.527078,0.55571115,0.039999757,0.04,-8.573565,4.767521858215332,0.029018184,0.0,-0.0,0.0
2649.0000000061186,0.21953827,-0.9444212,0.05684371,-2.5840466,0.5411798,1.527078,0.55571115,0.039999757,0.04,-8.573565,4.767521858215332,0.029018184,0.0,-0.0,0.0
2649.0166666727855,0.21953827,-0.9444212,0.05684371,-2.5840466,0.5411798,1.527078,0.55571115,0.039999757,0.04,-8.573565,4.767521858215332,0.029018184,0.0,-0.0,0.0
2649.0333333394524,0.21953827,-0.9444212,0.05684371,-2.5840466,0.5411798,1.527078,0.55571115,0.039999757,0.04,-8.573565,4.767521858215332,0.029018184,0.0,-0.0,0.0
2649.0500000061193,0.21953827,-0.9444212,0.05684371,-2.5840466,0.5411798,1.527078,0.55571115,0.039999757,0.04,-8.573565,4.767521858215332,0.029018184,0.0,-0.0,0.0
2649.066666672786,0.21953827,-0.9444212,0.05684371,-2.5840466,0.5411798,1.527078,0.55571115,0.039999757,0.04,-8.573565,4.767521858215332,0.029018184,0.0,-0.0,0.0
2649.083333339453,0.21953827,-0.9444212,0.05684371,-2.5840466,0.5411798,1.527078,0.55571115,0.039999757,0.04,-8.573565,4.767521858215332,0.029018184,0.0,-0.0,0.0
2649.10000000612,0.21953827,-0.9444212,0.05684371,-2.5840466,0.5411798,1.527078,0.55571115,0.039999757,0.04,-8.573565,4.767521858215332,0.029018184,0.0,-0.0,0.0
2649.116666672787,0.21953827,-0.9444212,0.05684371,-2.5840466,0.5411798,1.527078,0.55571115,0.039999757,0.04,-8.573565,4.767521858215332,0.029018184,0.0,-0.0,0.0
2649.1333333394537,0.21953827,-0.9444212,0.05684371,-2.5840466,0.5411798,1.527078,0.55571115,0.039999757,0.04,-8.573565,4.767521858215332,0.029018184,0.0,-0.0,0.0
2649.1500000061205,0.21953827,-0.9444212,0.05684371,-2.5840466,0.5411798,1.527078,0.55571115,0.039999757,0.04,-8.573565,4.767521858215332,0.029018184,0.0,-0.0,0.0
2649.1666666727874,0.21953827,-0.9444212,0.05684371,-2.5840466,0.5411798,1.527078,0.55571115,0.039999757,0.04,-8.573565,4.767521858215332,0.029018184,0.0,-0.0,0.0
2649.1833333394543,0.21953827,-0.9444212,0.05684371,-2.5840466,0.5411798,1.527078,0.55571115,0.039999757,0.04,-8.573565,4.767521858215332,0.029018184,0.0,-0.0,0.0
2649.200000006121,0.21953827,-0.9444212,0.05684371,-2.5840466,0.5411798,1.527078,0.55571115,0.039999757,0.04,-8.573565,4.767521858215332,0.029018184,0.0,-0.0,0.0
2649.216666672788,0.21953827,-0.9444212,0.05684371,-2.5840466,0.5411798,1.527078,0.55571115,0.039999757,0.04,-8.573565,4.767521858215332,0.029018184,0.0,-0.0,0.0
2649.233333339455,0.21953827,-0.9444212,0.05684371,-2.5840466,0.5411798,1.527078,0.55571115,0.039999757,0.04,-8.573565,4.767521858215332,0.029018184,0.0,-0.0,0.0
2649.250000006122,0.21953827,-0.9444212,0.05684371,-2.5840466,0.5411798,1.527078,0.55571115,0.039999757,0.04,-8.573565,4.767521858215332,0.029018184,0.0,-0.0,0.0
2649.2666666727887,0.21953827,-0.9444212,0.05684371,-2.5840466,0.5411798,1.527078,0.55571115,0.039999757,0.04,-8.573565,4.767521858215332,0.029018184,0.0,-0.0,0.0
2649.2833333394556,0.21953827,-0.9444212,0.05684371,-2.5840466,0.5411798,1.527078,0.55571115,0.039999757,0.04,-8.573565,4.767521858215332,0.029018184,0.0,-0.0,0.0
2649.3000000061224,0.21953827,-0.9444212,0.05684371,-2.5840466,0.5411798,1.527078,0.55571115,0.039999757,0.04,-8.573565,4.767521858215332,0.029018184,0.0,-0.0,0.0
2649.3166666727893,0.21953827,-0.9444212,0.05684371,-2.5840466,0.5411798,1.527078,0.55571115,0.039999757,0.04,-8.573565,4.767521858215332,0.029018184,0.0,-0.0,0.0
2649.333333339456,0.21953827,-0.9444212,0.05684371,-2.5840466,0.5411798,1.527078,0.55571115,0.039999757,0.04,-8.573565,4.767521858215332,0.029018184,0.0,-0.0,0.0
2649.350000006123,0.21953827,-0.9444212,0.05684371,-2.5840466,0.5411798,1.527078,0.55571115,0.039999757,0.04,-8.573565,4.767521858215332,0.029018184,0.0,-0.0,0.0
2649.36666667279,0.21953827,-0.9444212,0.05684371,-2.5840466,0.5411798,1.527078,0.55571115,0.039999757,0.04,-8.573565,4.767521858215332,0.029018184,0.0,-0.0,0.0
2649.383333339457,0.21953827,-0.9444212,0.05684371,-2.5840466,0.5411798,1.527078,0.55571115,0.039999757,0.04,-8.573565,4.767521858215332,0.029018184,0.0,-0.0,0.0
2649.4000000061237,0.21953827,-0.9444212,0.05684371,-2.5840466,0.5411798,1.527078,0.55571115,0.039999757,0.04,-8.573565,4.767521858215332,0.029018184,0.0,-0.0,0.0
2649.4166666727906,0.21953827,-0.9444212,0.05684371,-2.5840466,0.5411798,1.527078,0.55571115,0.039999757,0.04,-8.573565,4.767521858215332,0.029018184,0.0,-0.0,0.0
2649.4333333394575,0.21953827,-0.9444212,0.05684371,-2.5840466,0.5411798,1.527078,0.55571115,0.039999757,0.04,-8.573565,4.767521858215332,0.029018184,0.0,-0.0,0.0
2649.4500000061244,0.21953827,-0.9444212,0.05684371,-2.5840466,0.5411798,1.527078,0.55571115,0.039999757,0.04,-8.573565,4.767521858215332,0.029018184,0.0,-0.0,0.0
2649.4666666727912,0.21953827,-0.9444212,0.05684371,-2.5840466,0.5411798,1.527078,0.55571115,0.039999757,0.04,-8.573565,4.767521858215332,0.029018184,0.0,-0.0,0.0
2649.483333339458,0.21953827,-0.9444212,0.05684371,-2.5840466,0.5411798,1.527078,0.55571115,0.039999757,0.04,-8.573565,4.767521858215332,0.029018184,0.0,-0.0,0.0
2649.500000006125,0.21953827,-0.9444212,0.05684371,-2.5840466,0.5411798,1.527078,0.55571115,0.039999757,0.04,-8.573565,4.767521858215332,0.029018184,0.0,-0.0,0.0
2649.516666672792,0.21953827,-0.9444212,0.05684371,-2.5840466,0.5411798,1.527078,0.55571115,0.039999757,0.04,-8.573565,4.767521858215332,0.029018184,0.0,-0.0,0.0
2649.5333333394587,0.21953827,-0.9444212,0.05684371,-2.5840466,0.5411798,1.527078,0.55571115,0.039999757,0.04,-8.573565,4.767521858215332,0.029018184,0.0,-0.0,0.0
2649.5500000061256,0.21953827,-0.9444212,0.05684371,-2.5840466,0.5411798,1.527078,0.55571115,0.039999757,0.04,-8.573565,4.767521858215332,0.029018184,0.0,-0.0,0.0
2649.5666666727925,0.21953827,-0.9444212,0.05684371,-2.5840466,0.5411798,1.527078,0.55571115,0.039999757,0.04,-8.573565,4.767521858215332,0.029018184,0.0,-0.0,0.0
2649.5833333394594,0.21953827,-0.9444212,0.05684371,-2.5840466,0.5411798,1.527078,0.55571115,0.039999757,0.04,-8.573565,4.767521858215332,0.029018184,0.0,-0.0,0.0
2649.6000000061263,0.21953827,-0.9444212,0.05684371,-2.5840466,0.5411798,1.527078,0.55571115,0.039999757,0.04,-8.573565,4.767521858215332,0.029018184,0.0,-0.0,0.0
2649.616666672793,0.21953827,-0.9444212,0.05684371,-2.5840466,0.5411798,1.527078,0.55571115,0.039999757,0.04,-8.573565,4.767521858215332,0.029018184,0.0,-0.0,0.0
2649.63333333946,0.21953827,-0.9444212,0.05684371,-2.5840466,0.5411798,1.527078,0.55571115,0.039999757,0.04,-8.573565,4.767521858215332,0.029018184,0.0,-0.0,0.0
2649.650000006127,0.21953827,-0.9444212,0.05684371,-2.5840466,0.5411798,1.527078,0.55571115,0.039999757,0.04,-8.573565,4.767521858215332,0.029018184,0.0,-0.0,0.0
2649.666666672794,0.21953827,-0.9444212,0.05684371,-2.5840466,0.5411798,1.527078,0.55571115,0.039999757,0.04,-8.573565,4.767521858215332,0.029018184,0.0,-0.0,0.0
2649.6833333394607,0.21953827,-0.9444212,0.05684371,-2.5840466,0.5411798,1.527078,0.55571115,0.039999757,0.04,-8.573565,4.767521858215332,0.029018184,0.0,-0.0,0.0
2649.7000000061275,0.21953827,-0.9444212,0.05684371,-2.5840466,0.5411798,1.527078,0.55571115,0.039999757,0.04,-8.573565,4.767521858215332,0.029018184,0.0,-0.0,0.0
2649.7166666727944,0.21953827,-0.9444212,0.05684371,-2.5840466,0.5411798,1.527078,0.55571115,0.039999757,0.04,-8.573565,4.767521858215332,0.029018184,0.0,-0.0,0.0
2649.7333333394613,0.21953827,-0.9444212,0.05684371,-2.5840466,0.5411798,1.527078,0.55571115,0.039999757,0.04,-8.573565,4.767521858215332,0.029018184,0.0,-0.0,0.0
2649.750000006128,0.21953827,-0.9444212,0.05684371,-2.5840466,0.5411798,1.527078,0.55571115,0.039999757,0.04,-8.573565,4.767521858215332,0.029018184,0.0,-0.0,0.0
2649.766666672795,0.21953827,-0.9444212,0.05684371,-2.5840466,0.5411798,1.527078,0.55571115,0.039999757,0.04,-8.573565,4.767521858215332,0.029018184,0.0,-0.0,0.0
2649.783333339462,0.21953827,-0.9444212,0.05684371,-2.5840466,0.5411798,1.527078,0.55571115,0.039999757,0.04,-8.573565,4.767521858215332,0.029018184,0.0,-0.0,0.0
2649.800000006129,0.21953827,-0.9444212,0.05684371,-2.5840466,0.5411798,1.527078,0.55571115,0.039999757,0.04,-8.573565,4.767521858215332,0.029018184,0.0,-0.0,0.0
2649.8166666727957,0.21953827,-0.9444212,0.05684371,-2.5840466,0.5411798,1.527078,0.55571115,0.039999757,0.04,-8.573565,4.767521858215332,0.029018184,0.0,-0.0,0.0
2649.8333333394626,0.21953827,-0.9444212,0.05684371,-2.5840466,0.5411798,1.527078,0.55571115,0.039999757,0.04,-8.573565,4.767521858215332,0.029018184,0.0,-0.0,0.0
2649.8500000061294,0.21953827,-0.9444212,0.05684371,-2.5840466,0.5411798,1.527078,0.55571115,0.039999757,0.04,-8.573565,4.767521858215332,0.029018184,0.0,-0.0,0.0
2649.8666666727963,0.21953827,-0.9444212,0.05684371,-2.5840466,0.5411798,1.527078,0.55571115,0.039999757,0.04,-8.573565,4.767521858215332,0.029018184,0.0,-0.0,0.0
2649.883333339463,0.21953827,-0.9444212,0.05684371,-2.5840466,0.5411798,1.527078,0.55571115,0.039999757,0.04,-8.573565,4.767521858215332,0.029018184,0.0,-0.0,0.0
2649.90000000613,0.21953827,-0.9444212,0.05684371,-2.5840466,0.5411798,1.527078,0.55571115,0.039999757,0.04,-8.573565,4.767521858215332,0.029018184,0.0,-0.0,0.0
2649.916666672797,0.21953827,-0.9444212,0.05684371,-2.5840466,0.5411798,1.527078,0.55571115,0.039999757,0.04,-8.573565,4.767521858215332,0.029018184,0.0,-0.0,0.0
2649.933333339464,0.21953827,-0.9444212,0.05684371,-2.5840466,0.5411798,1.527078,0.55571115,0.039999757,0.04,-8.573565,4.767521858215332,0.029018184,0.0,-0.0,0.0
2649.9500000061307,0.21953827,-0.9444212,0.05684371,-2.5840466,0.5411798,1.527078,0.55571115,0.039999757,0.04,-8.573565,4.767521858215332,0.029018184,0.0,-0.0,0.0
2649.9666666727976,0.21953827,-0.9444212,0.05684371,-2.5840466,0.5411798,1.527078,0.55571115,0.039999757,0.04,-8.573565,4.767521858215332,0.029018184,0.0,-0.0,0.0
2649.9833333394645,0.21953827,-0.9444212,0.05684371,-2.5840466,0.5411798,1.527078,0.55571115,0.039999757,0.04,-8.573565,4.767521858215332,0.029018184,0.0,-0.0,0.0
2650.0000000061314,0.21953827,-0.9444212,0.05684371,-2.5840466,0.5411798,1.527078,0.55571115,0.039999757,0.04,-8.573565,4.767521858215332,0.029018184,0.0,-0.0,0.0
