rsonawane2002/My_IMU/logs_2/traj_448/clean_448.csv
time,j1,j2,j3,j4,j5,j6,j7,gripper1,gripper2,imu_ax,imu_ay,imu_az,imu_gx,imu_gy,imu_gz,quat_x,quat_y,quat_z,quat_w
2177.8833333334533,0.00016700293,-0.785875,4.0107683e-05,-2.3551247,9.29385e-05,1.570997,0.786,0.04,0.04,0.0,-0.0,0.0,2.875329272945135e-08,-0.0011641195053377316,4.421952117202833e-08,0.9999995971961153,0.00020320632366974898,0.0008736418299892524,3.263050917662294e-05
2177.90000000012,0.00016700172,-0.78576016,4.010736e-05,-2.3552213,9.297577e-05,1.5709941,0.786,0.04,0.04,-0.29199845934171353,-2.3539091908232916e-05,0.020128411356878928,3.50346416483727e-07,-0.00223818303794221,4.799647484956631e-07,0.9999996850577336,0.00020321178692182297,0.0007665025176395113,3.2608185824647374e-05
2177.916666666787,0.00016697218,-0.78565425,4.0056482e-05,-2.35531,9.3022194e-05,1.5709913,0.786,0.04,0.04,0.023262854796479715,8.410151154871642e-05,-0.0016365544613483607,2.382118268362239e-06,-0.003220781056730705,3.240928434699773e-06,0.9999997558564766,0.00020324891189616053,0.0006677674415287127,3.261151453563256e-05
2177.933333333454,0.00016686528,-0.78555685,3.9872277e-05,-2.355391,9.310679e-05,1.5709884,0.786,0.04,0.039999995,0.022394881213672058,0.00021454467717479616,-0.001491023238076039,8.107188325673658e-06,-0.004116984808251009,1.1229190811941296e-05,0.9999998122586102,0.00020337149896502792,0.0005771087640852365,3.2684128643898317e-05
2177.950000000121,0.00016660964,-0.78546715,3.9436563e-05,-2.3554654,9.3235285e-05,1.5709856,0.786,0.04,0.04,0.019850225232542762,0.00042898224685645396,-0.0014301542106576193,1.8662837259216366e-05,-0.004924053610420395,2.4051056541177953e-05,0.9999998568851809,0.00020365709164378159,0.000493632403899405,3.287029915686645e-05
2177.9666666667877,0.00016611283,-0.7853846,3.859812e-05,-2.3555338,9.345385e-05,1.5709827,0.786,0.04,0.04,0.01804052493912245,0.0006755388172878984,-0.0014346420105892932,3.4901353197993276e-05,-0.005644766295776639,4.5814378986688005e-05,0.9999998917727615,0.0002042054117797091,0.00041671248829600353,3.3246308963937395e-05
2177.9833333334545,0.00016526443,-0.7853084,3.7176884e-05,-2.3555994,9.379915e-05,1.5709798,0.7859998,0.04,0.04,0.011915483645363878,0.0009834645309971814,-0.0023723134630726506,5.7969465219835115e-05,-0.0062809430267242615,7.670208003901235e-05,0.9999999191000215,0.0002050162758203928,0.0003444118453131791,3.3893328582832725e-05
2178.0000000001214,0.00016393705,-0.78523827,3.4966477e-05,-2.3556585,9.432777e-05,1.570977,0.78599787,0.04,0.04,0.017597787290180023,0.001325502172144186,-0.0005632125793741949,8.93263413256523e-05,-0.0068463339827457255,0.00011982376871417384,0.9999999395366268,0.0002055110213412495,0.00027833979370294284,3.4913062329828584e-05
2178.0166666667883,0.00016198908,-0.7851736,3.1737545e-05,-2.3557167,9.508687e-05,1.570974,0.78599596,0.04,0.04,0.0076469942300372296,0.0017185577401102427,-0.002795441833813861,0.0001359746602311284,-0.007320699107259152,0.00017468621482294309,0.9999999547753318,0.00020667622443833894,0.0002154266368935039,3.640929521249064e-05
2178.033333333455,0.00015926543,-0.78511405,2.7239812e-05,-2.355773,9.6133765e-05,1.570971,0.78599393,0.04,0.04,0.00891019990230113,0.002142789843789995,-0.0020733155014829308,0.00019100487989587005,-0.00772885810972291,0.00024298005399949927,0.9999999653254166,0.0002086183531563027,0.00015602997309921676,3.8499297756669945e-05
2178.050000000122,0.00015559964,-0.785059,2.1204887e-05,-2.3558247,9.75287e-05,1.5709678,0.7859901,0.04,0.04,0.01256645061809003,0.0025985805887337675,-0.0007006565377887242,0.0002544557094115616,-0.008062199841868359,0.00032568715163459915,0.9999999718516369,0.00021068104520057063,0.00010101407383146836,4.130834572130372e-05
2178.066666666789,0.00015081515,-0.78500795,1.33481e-05,-2.355876,9.932226e-05,1.5709641,0.7859853,0.03999999,0.03999999,0.005141760752769287,0.0030926852996330384,-0.0024543636824914117,0.0003341583246759536,-0.008309986314273625,0.00042401213715081683,0.9999999750575508,0.0002134408421508264,4.802452289078232e-05,4.4961649900485206e-05
2178.083333333456,0.00014472613,-0.78496075,3.3702997e-06,-2.355927,0.000101595324,1.5709574,0.78597957,0.039999988,0.039999988,0.0036801270457020863,0.003591162206380695,-0.004289844740834603,0.00042678956552725047,-0.008487996716487497,0.0005378365209906476,0.9999999751814952,0.0002171560257529726,-4.428814421698494e-06,4.9604988282129155e-05
2178.1000000001227,0.00013713911,-0.78491694,-9.039589e-06,-2.355978,0.00010441848,1.5709506,0.78597194,0.039999984,0.03999998,0.0037206167442960236,0.004119249054691038,-0.0020270732888238996,0.0005308509956854443,-0.00860693774933985,0.0006694944871010359,0.9999999724033242,0.00022152680465316516,-5.524322660846059e-05,5.538421912432913e-05
2178.1166666667896,0.00012785401,-0.7848761,-2.4203597e-05,-2.3560297,0.000107863176,1.5709436,0.7859624,0.03999998,0.039999977,0.0020063467005781987,0.004667097313313042,-0.002199477350650625,0.000650987448555953,-0.008652402926310702,0.0008175692719389146,0.9999999668212193,0.00022676714085453976,-0.00010504453864548984,6.244893037908337e-05
2178.1333333334564,0.00011666488,-0.7848381,-4.245272e-05,-2.356086,0.00011200526,1.5709343,0.7859511,0.039999977,0.03999997,-0.005314342880158307,0.005228545809992764,-0.0053205394771937975,0.0007865253290605745,-0.00862655768079713,0.0009842737664010463,0.9999999580019646,0.00023315669103698725,-0.00015684274194338352,7.095336911538798e-05
2178.1500000001233,0.00010336092,-0.7848023,-6.412594e-05,-2.356144,0.00011692055,1.5709237,0.7859378,0.03999997,0.03999996,-0.0007433817811319798,0.0058041612633640905,-0.003023000495927519,0.000936678445351575,-0.008553429573620258,0.001168304431696365,0.9999999458748796,0.00024083126054092252,-0.00020899862656611305,8.105625131419625e-05
2178.16666666679,8.7727145e-05,-0.7847688,-8.9568595e-05,-2.3562028,0.0001226877,1.5709122,0.7859225,0.039999966,0.039999954,0.0006230617459968002,0.006389896684518215,-0.002346693835852953,0.0011011084494633565,-0.00841229295006023,0.001371728315426304,0.9999999303892729,0.0002500204376276445,-0.0002609160332353077,9.29196079489198e-05
2178.183333333457,6.954555e-05,-0.7847371,-0.000119131066,-2.356268,0.00012938489,1.5708978,0.7859052,0.03999997,0.039999958,-0.009493990306919109,0.006984107747472345,-0.006034007701694044,0.0012793881693738422,-0.00819698638663996,0.0015931249800460949,0.9999999101779778,0.00026089743556547996,-0.0003165287063542825,0.0001067058683230636
2178.200000000124,4.8595393e-05,-0.78470707,-0.00015316806,-2.3563344,0.00013709249,1.5708826,0.785885,0.039999973,0.03999996,-0.0008447972387637392,0.007585593894490282,-0.0022267653952745547,0.0014715479140130232,-0.007938666954046224,0.0018335788600752324,0.9999998857820678,0.00027331056045160816,-0.000372438926284266,0.0001225823603268837
2178.216666666791,2.465386e-05,-0.7846786,-0.00019203727,-2.3564079,0.00014589148,1.5708643,0.7858619,0.039999973,0.03999996,-0.01097066092390353,0.008189972892705713,-0.006226445329526875,0.0016797401047914586,-0.007601709455044796,0.0020932825993359994,0.9999998552350087,0.00028749746846853903,-0.00043252070783858976,0.00014071604246144935
2178.2333333334577,-2.5032143e-06,-0.7846511,-0.00023609889,-2.3564878,0.0001558635,1.5708443,0.7858358,0.039999973,0.039999958,-0.01037513318957739,0.008798691792637772,-0.004824772789890908,0.0019033005969333182,-0.00721878340420868,0.0023732293362896243,0.9999998177951096,0.000303608061141102,-0.0004962074338705018,0.0001612763950789594
2178.2500000001246,-3.310076e-05,-0.7846247,-0.0002857146,-2.3565707,0.00016708908,1.570822,0.78580636,0.039999977,0.03999996,-0.004788685520118463,0.009411423689320832,-0.0037164123518618197,0.002142319619985087,-0.006782377581091609,0.0026717892678268258,0.9999997732924638,0.00032173339233983964,-0.0005620383171895364,0.00018443311818623468
2178.2666666667915,-6.736414e-05,-0.784599,-0.0003412461,-2.3566608,0.00017965028,1.5707961,0.7857733,0.039999977,0.03999996,-0.012482170357919209,0.010019606574350652,-0.006321061060776678,0.002396826741409205,-0.006274090898626119,0.0029898971974306344,0.9999997191405502,0.00034196456859786556,-0.0006328737988565678,0.0002103563859229923
2178.2833333334584,-0.00010551891,-0.7845742,-0.00040305578,-2.3567588,0.00019362949,1.5707679,0.78573656,0.03999998,0.03999996,-0.013121118243719643,0.01062909538926818,-0.00586227045127341,0.0026676306700210363,-0.005718418960484857,0.0033284300103242344,0.9999996540370253,0.00036454213200821147,-0.000708385384739377,0.00023921749606022966
2178.3000000001252,-0.00014778979,-0.78454965,-0.00047150478,-2.3568645,0.000209107,1.5707371,0.7856959,0.03999998,0.03999996,-0.013476492984954014,0.01123701554135713,-0.005481649177974113,0.0029532839618440524,-0.005108480526683992,0.003685667147897494,0.9999995762170082,0.00038955668405086857,-0.0007888404672834182,0.0002711864875963305
2178.316666666792,-0.00019440104,-0.7845255,-0.00054695347,-2.3569782,0.00022616505,1.5707029,0.78565115,0.039999984,0.03999996,-0.014387767232615367,0.011839897580154576,-0.006517679544670862,0.0032544825903165235,-0.00444430767453549,0.004063298597094845,0.9999994833451264,0.00041715758887146887,-0.0008748639328058484,0.0003064345369529566
2178.333333333459,-0.0002455755,-0.7845017,-0.00062975986,-2.3571048,0.00024488327,1.5706654,0.78560203,0.039999984,0.03999996,-0.022577547493773942,0.012434873319818341,-0.00852378125961728,0.0035705358015078255,-0.0037274887844739395,0.004459571141677961,0.9999993710061063,0.00044746269785111764,-0.0009688388334851053,0.00034513162773699193
2178.350000000126,-0.00030153472,-0.78447783,-0.00072027993,-2.3572397,0.00026534282,1.570624,0.7855484,0.039999988,0.03999996,-0.015360458024926693,0.013031585358273673,-0.006681120973062171,0.003901787638505402,-0.002979105982242901,0.004876094092100079,0.9999992381858918,0.00048061849011484995,-0.001068886321424698,0.00038744746096232855
2178.3666666667928,-0.0003624985,-0.7844539,-0.00081886654,-2.3573835,0.00028762285,1.5705789,0.7854899,0.039999988,0.03999996,-0.016195461253887267,0.013619045255941487,-0.006787181840151035,0.004247974705938288,-0.0021767016400803594,0.00531106992511784,0.9999990819588159,0.0005167096441731241,-0.001175213491984299,0.00043355036301241044
2178.3833333334596,-0.00042868473,-0.7844297,-0.00092586986,-2.3575392,0.00031180293,1.5705303,0.7854265,0.03999999,0.03999996,-0.021680794751310906,0.014194996574439572,-0.007980376062377559,0.0046088545859990235,-0.0013206259366928146,0.005766118055705451,0.9999988972314636,0.0005559079986280013,-0.0012894279693349657,0.0004836090006134589
2178.4000000001265,-0.0005003089,-0.78440523,-0.0010416368,-2.3577058,0.0003379598,1.5704778,0.7853579,0.03999999,0.039999958,-0.020132180731291527,0.014769479786510631,-0.007745982162687959,0.00498444195225842,-0.0004225949338320838,0.006240162871418862,0.9999986806942631,0.0005983234505534739,-0.0014111701712708274,0.0005377894841780761
2178.4166666667934,-0.00057758397,-0.7843801,-0.0011665098,-2.3578842,0.00036617203,1.570421,0.7852839,0.03999999,0.039999958,-0.02192442613717649,0.015329609037700075,-0.008333698260476474,0.005374573600182406,0.0005221389450718967,0.006732384170844596,0.9999984270488933,0.0006440925506606066,-0.001541272370677326,0.0005962583373571985
2178.4333333334603,-0.00066072075,-0.78435445,-0.001300827,-2.3580742,0.00039651518,1.5703601,0.7852044,0.039999995,0.039999958,-0.0216091537951435,0.015884461279230953,-0.0081903252504123,0.005778427688772936,0.0015108447870042748,0.007243400316497508,0.999998132073611,0.000693349190337803,-0.0016794638902288678,0.0006591792097141558
2178.450000000127,-0.000749927,-0.78432816,-0.0014449223,-2.3582788,0.00042906502,1.570295,0.78511906,0.039999995,0.039999954,-0.02669494858584809,0.01642112775617934,-0.009501617911866767,0.006196447594826209,0.0025469808500665847,0.007773932952013031,0.9999977880067323,0.0007461640700997988,-0.0018273214641100937,0.0007267166502647676
2178.466666666794,-0.0008454076,-0.7843012,-0.0015991254,-2.3584957,0.00046389687,1.5702255,0.78502774,0.04,0.03999996,-0.023120748305904826,0.016958459570846577,-0.00873558490164239,0.006628162125852073,0.0036177562010374074,0.00832302584112412,0.9999973907045407,0.0008026947112576806,-0.0019838883821879046,0.0007990320378310617
2178.483333333461,-0.00094736397,-0.7842734,-0.0017637607,-2.358726,0.00050107914,1.5701513,0.78493017,0.04,0.039999966,-0.025070550330741348,0.017480927960839433,-0.009243505266609553,0.007073354873961151,0.004735689541999681,0.00888926804440636,0.9999969326855003,0.0008630050163083604,-0.0021498764691861324,0.0008762836869991202
2178.500000000128,-0.0010559947,-0.7842447,-0.0019391467,-2.3589709,0.00054068875,1.5700723,0.7848262,0.04,0.03999996,-0.02709463714209992,0.017982520226841863,-0.010031356610573638,0.007532213587335771,0.005895849210995052,0.009474913947545476,0.9999964055512491,0.0009272444004161158,-0.002325967460841074,0.0009586332847079871
2178.5166666667947,-0.0011714954,-0.78421503,-0.0021255983,-2.3592308,0.0005827952,1.5699881,0.7847157,0.04,0.03999996,-0.02816677172141624,0.018480593495042493,-0.010364783882166329,0.008004388748418155,0.007094306604009486,0.010078906620233459,0.999995800554171,0.0009955296756441992,-0.002512604287381431,0.0010462382053937562
2178.5333333334615,-0.0012940579,-0.78418434,-0.0023234233,-2.3595061,0.0006274674,1.569899,0.7845985,0.04,0.039999958,-0.02892854821630042,0.018963356041976527,-0.010535214140672267,0.008489092120962823,0.008329407039000637,0.010699910165838208,0.9999951087784599,0.0010680027209386501,-0.0027099613043301564,0.0011392537351868003
2178.5500000001284,-0.0014238702,-0.78415227,-0.0025329252,-2.359797,0.00067477365,1.5698045,0.7844744,0.04,0.039999958,-0.029386995417102213,0.019435239968215723,-0.010559164649648345,0.008985905216394311,0.009600747785586321,0.011338468842326154,0.9999943203538946,0.0011447125144161872,-0.0029183315657622076,0.0012378344331498833
2178.5666666667953,-0.0015611169,-0.7841191,-0.0027543998,-2.3601046,0.0007247809,1.5697048,0.7843431,0.04,0.03999995,-0.031105841944012447,0.0198857955306107,-0.011408887404007473,0.009495160941014052,0.010907425231400666,0.011994587352999792,0.9999934238331576,0.001225792040858632,-0.0031382164045647308,0.001342133417226906
2178.583333333462,-0.0017059795,-0.78408474,-0.0029881396,-2.3604279,0.0007775546,1.5695993,0.78420466,0.04,0.039999947,-0.029784485523531856,0.020335946952417493,-0.011193831937772458,0.010016638298118724,0.012248139409879517,0.012667947714498053,0.9999924091004888,0.0013113720459417123,-0.0033694014594671524,0.0014523011267262432
2178.600000000129,-0.0018586348,-0.7840489,-0.003234429,-2.3607678,0.0008331596,1.5694884,0.78405875,0.04,0.03999994,-0.0314740743323938,0.020761158316731643,-0.011320363816147427,0.010549262483209063,0.0136259161863557,0.01335847590304591,0.9999912635196334,0.001401518030858118,-0.0036122678572197506,0.0015684873426479995
2178.616666666796,-0.0020192564,-0.7840117,-0.003493547,-2.3611252,0.00089165784,1.5693716,0.7839052,0.04,0.03999994,-0.03279209049180665,0.02117095656936508,-0.012189057517120183,0.011093117933265265,0.015038697777940285,0.014065836549127887,0.9999899724654502,0.0014963205864839905,-0.0038674346786672425,0.0016908406953156717
2178.633333333463,-0.002188015,-0.7839733,-0.0037657672,-2.3615005,0.00095311104,1.5692487,0.7837439,0.04,0.03999993,-0.033489889659454875,0.02156954399906057,-0.012630375640565461,0.011648453436056475,0.016483748885178215,0.014789630948369822,0.9999885215224992,0.0015958968228804327,-0.004135133106885998,0.001819508385521892
2178.6500000001297,-0.0023650746,-0.78393304,-0.004051357,-2.361894,0.0010175793,1.5691199,0.78357476,0.04,0.03999993,-0.034393742373328706,0.02195321312352668,-0.012335677191321892,0.012213955494183599,0.017959236154594882,0.015530084224140457,0.9999868951392501,0.001700358698315896,-0.0044156236033566065,0.001954635068946014
2178.6666666667966,-0.0025505985,-0.7838912,-0.0043505747,-2.3623059,0.0010851213,1.568985,0.7833975,0.04,0.03999992,-0.035097123809424424,0.022316757302267114,-0.012999020620108048,0.012789921534611337,0.019464133505468627,0.016287339915530576,0.9999850765105055,0.0018097535438496906,-0.004709225557146031,0.0020963642434150705
2178.6833333334635,-0.0027447448,-0.7838478,-0.004663676,-2.3627362,0.0011557941,1.5688437,0.783212,0.04,0.039999917,-0.03464452260231177,0.02267424356045423,-0.013092517457780062,0.013376060048891225,0.020997699966233435,0.01706053986403652,0.9999830496360687,0.001924185013109449,-0.005015840658955914,0.0022448374255603096
2178.7000000001303,-0.0029476664,-0.7838026,-0.004990909,-2.3631864,0.0012296542,1.5686961,0.7830181,0.04,0.039999913,-0.037309204368551896,0.022999323154758444,-0.01370877718762653,0.013971870671641,0.022561582860095228,0.017849770045410336,0.9999807929282921,0.0020437206792876246,-0.005336293790267376,0.002400197673776
2178.716666666797,-0.003159514,-0.7837556,-0.0053325165,-2.3636558,0.0013067544,1.5685424,0.7828158,0.04,0.039999913,-0.036507376363958954,0.023329981594081423,-0.013458922039855103,0.014577303117503779,0.024151279636441154,0.018654493721951486,0.9999782889329426,0.0021685153368697597,-0.005670306765076383,0.0025625817388046064
2178.733333333464,-0.003380433,-0.78370696,-0.00568873,-2.3641448,0.0013871496,1.5683817,0.7826048,0.04,0.03999991,-0.036845248274608444,0.023622223757211423,-0.014333446574044117,0.015191054212061322,0.025767918953457,0.019475527530357358,0.9999755162119441,0.0022985657642191253,-0.006018226228110812,0.0027321283188439186
2178.750000000131,-0.0036105663,-0.7836565,-0.0060597793,-2.3646545,0.0014708895,1.5682142,0.782385,0.04,0.039999906,-0.03906292013216017,0.023903028628165582,-0.014770731096036549,0.0158141499208952,0.027412564043243916,0.020311484397181043,0.9999724498362039,0.002433956590928951,-0.0063806963795108385,0.002908975353380196
2178.766666666798,-0.0038500514,-0.7836042,-0.006445888,-2.3651848,0.0015580247,1.5680403,0.7821563,0.04,0.039999902,-0.03845606522483447,0.02418127737639688,-0.014534455999748452,0.016445562746582786,0.02907791573618567,0.02116308597933036,0.9999690695380061,0.002574798203067553,-0.006757377381445855,0.003093255959741305
2178.7833333334647,-0.0040990226,-0.7835501,-0.0068472694,-2.3657353,0.0016486037,1.5678594,0.7819186,0.04,0.0399999,-0.038235832050537155,0.024433373433453004,-0.014861642323782398,0.01708494762389342,0.03076852723448526,0.022029861906612914,0.99996535123281,0.002721164234966525,-0.007148405449366007,0.0032851025220553593
2178.8000000001316,-0.004357609,-0.78349406,-0.0072641345,-2.366307,0.0017426739,1.5676717,0.7816716,0.04,0.039999895,-0.03988425567893472,0.024661644246679743,-0.015395316104149792,0.01773175330053558,0.03248598212825871,0.022911798134099704,0.9999612671673499,0.0028730349153998215,-0.007554273372828599,0.003484650520705917
2178.8166666667985,-0.0046259365,-0.783436,-0.007696683,-2.3669,0.0018402803,1.5674769,0.7814154,0.04,0.03999989,-0.040018978774813974,0.024878864493296272,-0.01554645048376102,0.018386573216808432,0.0342251847864478,0.023808574419911115,0.9999567902791343,0.0030305936617810608,-0.007975086490617612,0.003692028192726057
2178.8333333334654,-0.0049041286,-0.78337586,-0.0081451135,-2.3675146,0.001941467,1.5672749,0.7811498,0.04,0.039999887,-0.04089256430312993,0.025078972384334937,-0.015960659974267877,0.0190482895892579,0.03598554319745388,0.024720229431794485,0.9999518909832452,0.0031938422834637834,-0.008411157367794018,0.003907367686111306
2178.8500000001322,-0.0051923036,-0.78331375,-0.008609615,-2.368151,0.002046277,1.5670657,0.7808746,0.04,0.03999988,-0.04076141412221457,0.025263633375923432,-0.016254028749540517,0.01971630622034645,0.03776583205969581,0.02564642398451217,0.9999465409081165,0.0033628062458834524,-0.008862470054687113,0.004130797087141229
2178.866666666799,-0.0054905717,-0.7832496,-0.009090373,-2.3688097,0.0021547512,1.5668492,0.7805899,0.04,0.03999988,-0.04199723195208449,0.02541925616856653,-0.01670497526207182,0.020391478342233378,0.03956676256183765,0.02658718062171835,0.9999407065744665,0.003537623908511055,-0.009329395699301092,0.004362445223101439
2178.883333333466,-0.005799046,-0.7831834,-0.009587559,-2.369491,0.0022669297,1.5666251,0.7802954,0.04,0.039999872,-0.042532699876884905,0.02555764451631186,-0.01720692656539402,0.02107211894061288,0.04138585030402706,0.027542261875208442,0.9999343537498827,0.003718280148413636,-0.00981224441338837,0.004602438822451724
2178.900000000133,-0.006117828,-0.7831151,-0.010101346,-2.3701947,0.0023828503,1.5663936,0.7799911,0.04,0.03999987,-0.041612523251188804,0.025702373783107954,-0.01695921522575361,0.02175886015734134,0.04322033006348902,0.028511585135738076,0.9999274530719059,0.003904876344591631,-0.010310640589989005,0.0048508993484864755
2178.9166666667998,-0.0064470246,-0.7830447,-0.010631902,-2.3709216,0.0025025501,1.5661546,0.77967685,0.04,0.03999988,-0.04361677234447914,0.025801304935212793,-0.017781232740210484,0.022450508229658075,0.045074877820643844,0.029495061230692118,0.9999199640579768,0.0040974201944211615,-0.010825220524426835,0.005107957188762874
2178.9333333334666,-0.0067867306,-0.78297204,-0.011179379,-2.3716717,0.0026260647,1.5659082,0.77935255,0.04,0.039999872,-0.04332715375356955,0.025895832952966755,-0.01765373123985281,0.023147650548288233,0.04694325155845456,0.030492354645047945,0.999911852119463,0.004295941301461531,-0.01135587480620516,0.005373731175395084
2178.9500000001335,-0.0071370406,-0.7828973,-0.011743925,-2.372445,0.0027534286,1.565654,0.77901816,0.04,0.039999872,-0.04359163266953736,0.02595945705958433,-0.01831058730978885,0.023849427823035403,0.04882801467970138,0.031503647995491914,0.9999030778361475,0.004500523145647936,-0.01190279142779575,0.0056483432474483996
2178.9666666668004,-0.007498045,-0.7828204,-0.012325692,-2.373242,0.002884674,1.5653919,0.7786736,0.04,0.039999865,-0.04367647710081801,0.026027320078994554,-0.018642025246684568,0.024555694483018142,0.05072643143290581,0.0325294394809064,0.9998936010658113,0.004711190294013895,-0.012466097542950017,0.005931917540517673
2178.9833333334673,-0.007869829,-0.7827411,-0.012924818,-2.374063,0.0030198318,1.5651219,0.7783187,0.04,0.039999865,-0.04545496951415817,0.026047624102572622,-0.019077014266088987,0.025266027129887764,0.052639201722998005,0.03356820010151523,0.9998833750662499,0.0049279586233524145,-0.0130463067595539,0.00622457788667072
2179.000000000134,-0.008252474,-0.78265953,-0.01354143,-2.3749075,0.0031589323,1.5648439,0.77795345,0.04,0.039999858,-0.043760602908338164,0.026081741643505657,-0.0189352320990821,0.02598026599219798,0.05455936428692694,0.03462045136837478,0.9998723639330965,0.005150867948212036,-0.013642948603022507,0.006526435140010967
2179.016666666801,-0.008646063,-0.78257567,-0.014175658,-2.3757758,0.0033020023,1.5645581,0.7775777,0.04,0.039999854,-0.044369911791886096,0.026094540082389345,-0.01922100178359809,0.026698107168702488,0.05649399540711279,0.03568622440588558,0.9998605239821554,0.005379930754749598,-0.014256087768939388,0.006837608407042157
2179.033333333468,-0.009050666,-0.78248966,-0.01482762,-2.3766687,0.0034490703,1.5642643,0.77719164,0.04,0.039999843,-0.04548854486006171,0.02604885738568888,-0.02011174548499639,0.027419269204205426,0.058441425266798866,0.03676526595815409,0.9998478034879656,0.005615293270153193,-0.014886176398683275,0.00715821863370529
2179.050000000135,-0.009466355,-0.78240126,-0.015497429,-2.3775856,0.0036001618,1.5639627,0.776795,0.04,0.039999854,-0.044776749635699886,0.026036526512862937,-0.01969988369132647,0.028142410593775202,0.060397726698299334,0.03785749272422631,0.9998341614132845,0.005856896242479125,-0.015532889553909725,0.007488376292959782
2179.0666666668017,-0.009893194,-0.78231037,-0.016185194,-2.3785276,0.0037553,1.563653,0.7763877,0.04,0.03999985,-0.04654986742469447,0.02595612098432766,-0.02059868146133681,0.02886780099034164,0.06236530197173676,0.038962959488169496,0.999819539607211,0.006104700996500741,-0.016196914460275755,0.007828205882221771
2179.0833333334685,-0.010331246,-0.78221726,-0.016891014,-2.379494,0.003914508,1.563335,0.7759697,0.04,0.03999985,-0.0450211767860198,0.025898801307119856,-0.02081268719327234,0.029595797798590475,0.06433908541846317,0.04008127352615061,0.9998038947079367,0.006358783767633276,-0.01687783578214009,0.008177814814998782
2179.1000000001354,-0.010780572,-0.782122,-0.017614983,-2.380485,0.0040778085,1.5630089,0.7755409,0.04,0.03999985,-0.04558183367913138,0.025806363418660536,-0.021042941841020735,0.030325596890918443,0.0663212145697811,0.041212771738888876,0.9997871762248443,0.0066191293972767745,-0.01757565361163218,0.00853731705505047
2179.1166666668023,-0.011241231,-0.7820241,-0.018357199,-2.3815012,0.004245222,1.5626744,0.7751014,0.04,0.03999989,-0.046630040130568595,0.025699570083245055,-0.02148506574271014,0.03105730545022477,0.06831146598444238,0.042358424465135686,0.9997693204784976,0.006885840999873821,-0.018290963850070834,0.00890683249663105
2179.133333333469,-0.011713271,-0.78192353,-0.019117735,-2.3825424,0.0044167647,1.5623319,0.7746511,0.04,0.0399999,-0.04634807618857373,0.025575407278813356,-0.0214050115372455,0.03178970366683852,0.07030498912702969,0.04351512469536656,0.9997502788338085,0.007158860374808941,-0.01902346640715227,0.009286464112465177
2179.150000000136,-0.012196736,-0.7818209,-0.019896671,-2.3836086,0.004592454,1.5619808,0.7741899,0.04,0.039999895,-0.04585534014920345,0.025414859581214533,-0.022385907445143793,0.032522852633549676,0.07230586528276184,0.04468475771891073,0.9997299957380995,0.007438181206752982,-0.019773158437095414,0.009676326123929806
2179.166666666803,-0.012691678,-0.78171605,-0.020694075,-2.3847005,0.0047723064,1.5616215,0.7737177,0.04,0.03999989,-0.046997920315283714,0.025242167636201768,-0.022672374227039604,0.03325671776474551,0.0743093601643029,0.04586780343670469,0.9997084098760964,0.007723801358515147,-0.020540244565021848,0.010076530592922989
2179.18333333347,-0.013198134,-0.78160816,-0.021510022,-2.385818,0.0049563367,1.5612541,0.7732344,0.04,0.039999887,-0.04738269148840679,0.02509010884016588,-0.022303597261674746,0.03399109363003369,0.07631697524138376,0.047061414143748766,0.99968545805237,0.008015689631487646,-0.021324928008089508,0.010487188555789761
2179.2000000001367,-0.013716137,-0.78149813,-0.022344563,-2.3869605,0.0051445593,1.5608783,0.7727403,0.04,0.039999887,-0.04562417949598441,0.024885037101356894,-0.023060517942607994,0.034726039851738444,0.07832423727833514,0.048268834277533916,0.9996610902108771,0.008313971739159712,-0.02212666800919225,0.010908398376115984
2179.2166666668036,-0.014245729,-0.7813861,-0.023197751,-2.3881285,0.005336986,1.5604938,0.7722351,0.04,0.039999884,-0.0462348039329985,0.024655415541765396,-0.023727176306520548,0.035459961065828535,0.08033708467267506,0.04948804132270143,0.9996352411843252,0.008618540668477854,-0.02294566495949449,0.01134027330660719
2179.2333333334705,-0.014786934,-0.7812708,-0.02406964,-2.3893218,0.0055336277,1.5601012,0.7717188,0.04,0.03999988,-0.046930247130227976,0.02445456285796177,-0.023013689944129112,0.03619369121905619,0.08235126209778001,0.05071935414011481,0.9996078413128738,0.008929412137727678,-0.023782179057687782,0.011782917463818234
2179.2500000001373,-0.015339777,-0.7811534,-0.024960272,-2.3905406,0.005734494,1.5596999,0.7711915,0.04,0.039999872,-0.04616756728914595,0.024176422211066168,-0.024234694320135475,0.036926267669665946,0.08436530944322626,0.05196271201558851,0.9995788316104247,0.009246609686778252,-0.024635933416780286,0.0122364369945925
2179.266666666804,-0.015904287,-0.7810338,-0.025869682,-2.3917856,0.0059395926,1.5592903,0.77065295,0.04,0.03999988,-0.04719377103312716,0.023889879237311284,-0.024713428236045054,0.03765796001683169,0.0863809530319731,0.05321812288503967,0.9995481413431383,0.009570044104786906,-0.025507125220614216,0.012700943125997833
2179.283333333471,-0.016480481,-0.7809114,-0.026797898,-2.3930562,0.0061489297,1.5588721,0.77010334,0.04,0.03999987,-0.04673081773642895,0.023630044971333086,-0.024466341892459553,0.038388233753623144,0.08839439593863499,0.054485290860949546,0.9995156994900214,0.009899771601074341,-0.02639583333024592,0.013176531334982247
2179.300000000138,-0.017068377,-0.7807866,-0.027744954,-2.394352,0.006362513,1.5584457,0.76954263,0.04,0.039999872,-0.04560916551512584,0.023360999144934197,-0.02460811131386187,0.039116842945098804,0.09040488614142468,0.055764083141785555,0.9994814516464967,0.010235786136215983,-0.027301479333658573,0.013663298393109684
2179.316666666805,-0.017667977,-0.7806598,-0.028710863,-2.395674,0.006580347,1.5580106,0.7689707,0.04,0.03999987,-0.04676933970204633,0.022954517026819304,-0.025977291670553626,0.03984333639220098,0.09241651399512398,0.05705534728002075,0.9994453151784651,0.010577997015761646,-0.02822452540928221,0.014161359834904944
2179.3333333334717,-0.018279301,-0.7805304,-0.02969564,-2.3970218,0.0068024346,1.557567,0.7683877,0.04,0.03999987,-0.046498224277535805,0.022669399778158655,-0.025534643906510723,0.04056765392055868,0.09442470825839504,0.05835739586035993,0.999407218949982,0.010926428232868936,-0.029164897667954805,0.014670808455990522
2179.3500000001386,-0.01890235,-0.7803982,-0.030699294,-2.3983955,0.0070287776,1.5571151,0.7677934,0.04,0.039999865,-0.0469347339751236,0.022305276130893392,-0.02579810138094718,0.041289537219754195,0.09642729106499895,0.05967038064667332,0.9993670858532959,0.011281026610269846,-0.030122698939407437,0.01519174645375705
2179.3666666668055,-0.01953714,-0.78026384,-0.03172182,-2.3997955,0.007259376,1.5566547,0.76718795,0.04,0.039999876,-0.04653333410098437,0.021911922069969836,-0.026654463927422434,0.042008882173497845,0.09842529458651937,0.06099523851102849,0.999324845937687,0.011641760895449537,-0.03109773339847344,0.015724270169031853
2179.3833333334724,-0.020183649,-0.78012687,-0.032763228,-2.4012206,0.007494232,1.5561857,0.7665714,0.04,0.03999986,-0.044967305396870216,0.02158838784417222,-0.026200078553695327,0.04272529166829738,0.10041671865749939,0.0623315603668638,0.9992804325959771,0.012008661940219214,-0.03208965635635545,0.016268467172212923
2179.4000000001392,-0.020841882,-0.7799872,-0.033823527,-2.4026718,0.007733343,1.555708,0.7659435,0.04,0.039999854,-0.046914609190285006,0.021134509042641803,-0.027225177369127884,0.043438159943250294,0.10240515605658809,0.0636784817378433,0.9992337481677581,0.012381578950398995,-0.03309910135610277,0.016824461796048795
2179.416666666806,-0.021511838,-0.7798454,-0.034902677,-2.4041483,0.007976704,1.5552222,0.76530457,0.04,0.039999872,-0.04449127117223117,0.020767367110242213,-0.026932491980202755,0.044148300141610385,0.10438296852364926,0.0650362869109673,0.9991847460551304,0.012760588881083303,-0.03412503779347082,0.017392309155106776
2179.433333333473,-0.022193491,-0.77970105,-0.03600067,-2.4056513,0.008224317,1.5547277,0.76465446,0.04,0.039999865,-0.04687513742083205,0.02023257055563249,-0.027979855141402332,0.04485442894316764,0.106358425264902,0.06640525392643506,0.9991333140084635,0.01314560950867492,-0.035168396161042906,0.0179721367836563
2179.45000000014,-0.022886844,-0.77955407,-0.03711749,-2.40718,0.008476172,1.5542244,0.76399326,0.04,0.03999986,-0.045669508291501515,0.019843149565559187,-0.028085292688495578,0.04555683062682881,0.10832053223213195,0.06778464194036178,0.9990793771946075,0.01353663495726175,-0.03622891585279272,0.018564030666868635
2179.4666666668068,-0.023591876,-0.7794049,-0.03825311,-2.4087338,0.008732261,1.5537131,0.763321,0.04,0.039999872,-0.04367410930385951,0.019459899204331277,-0.027586077681363008,0.04625472355453577,0.1102723183885985,0.06917406634221318,0.9990228901769252,0.013933619645419193,-0.0373055610060994,0.019168053217267642
2179.4833333334736,-0.024308564,-0.77925307,-0.039407477,-2.4103136,0.008992584,1.5531931,0.76263756,0.04,0.03999987,-0.04573673382644028,0.0188473753024318,-0.02879484880975447,0.04694777504302465,0.11222075546517088,0.07057465114715235,0.9989637324879393,0.014336462382696714,-0.03839931807810776,0.01978432185470393
2179.5000000001405,-0.025036884,-0.7790987,-0.040580574,-2.4119196,0.009257127,1.5526649,0.7619431,0.04,0.03999986,-0.04578876654117714,0.018378496476753603,-0.028934717190032266,0.04763675165742411,0.1141560243314585,0.07198545233817426,0.9989018237938536,0.014745173329365254,-0.03950998326290543,0.020412925007574884
2179.5166666668074,-0.025776807,-0.77894187,-0.041772366,-2.4135501,0.009525883,1.5521281,0.7612376,0.04,0.039999858,-0.042835694835807736,0.017970901477826207,-0.02868012936261266,0.048320761384299186,0.11607668585367362,0.0734060890366329,0.998837107553601,0.015159693549850592,-0.040636785137541404,0.021053929778449925
2179.5333333334743,-0.02652832,-0.7787827,-0.042982794,-2.4152062,0.009798841,1.551583,0.76052105,0.04,0.039999865,-0.044034223691769014,0.017397240097227762,-0.02932907084376435,0.0489993000588384,0.11799051793628941,0.07483693023484644,0.9987694894134987,0.015579929298738691,-0.04177990284430266,0.021707430480509975
2179.550000000141,-0.027291367,-0.77862114,-0.044211805,-2.416888,0.01007599,1.5510293,0.7597934,0.04,0.03999989,-0.0445085132270151,0.01677899879420075,-0.030116481059994094,0.04967285069575326,0.11989351924169969,0.07627898191849464,0.9986988648051416,0.0160057929082314,-0.04293969360446445,0.022373527738268655
2179.566666666808,-0.028065935,-0.77845716,-0.045459334,-2.4185953,0.010357317,1.5504675,0.7590543,0.04,0.039999906,-0.04373132623125553,0.016286638761905947,-0.02989865574900552,0.05034191682903793,0.12177968990580433,0.07772904097999447,0.998625167409244,0.01643704641485866,-0.04411564632438062,0.023052294276218945
2179.583333333475,-0.028851975,-0.7782907,-0.04672534,-2.4203277,0.010642804,1.5498973,0.758305,0.04,0.039999913,-0.042959272068454624,0.015755963546584817,-0.03010317823914921,0.051006987283986595,0.12365392399477677,0.07918789161694896,0.9985483007991527,0.016874240488975817,-0.0453076541624841,0.02374378767884232
2179.600000000142,-0.02964945,-0.7781218,-0.048009746,-2.4220853,0.010932442,1.5493191,0.7575445,0.04,0.039999902,-0.04296031100179398,0.015157046703777322,-0.030359770508980866,0.051663251022839154,0.12551387670558709,0.08065686195928078,0.9984681892980412,0.017316787190632073,-0.04651552381544868,0.024448105968761406
2179.6166666668087,-0.030458314,-0.7779505,-0.049312487,-2.4238675,0.011226214,1.5487324,0.7567733,0.04,0.03999991,-0.041812966090115644,0.014595284405773123,-0.030725585232493913,0.052314819841516334,0.12735975505778854,0.0821355501023637,0.998384740006932,0.017764840210216737,-0.047739167262072994,0.025165319046659453
2179.6333333334755,-0.031278525,-0.7777769,-0.050633483,-2.4256752,0.011524104,1.5481375,0.75599116,0.04,0.039999913,-0.04295214872094277,0.013913848530795747,-0.03130158792583604,0.05295958011626205,0.12919058684182946,0.0836219223019787,0.9982978543385106,0.018218218959711364,-0.04897869580749815,0.02589551849371913
2179.6500000001424,-0.032110024,-0.7776009,-0.051972665,-2.4275074,0.011826091,1.5475345,0.75519836,0.04,0.039999906,-0.04128953496866927,0.013379941460441025,-0.031159920200485303,0.053598680111505065,0.1310054386618304,0.08511741204458999,0.998207456955957,0.01867695716488193,-0.05023365997686114,0.026638760367396732
2179.6666666668093,-0.03295276,-0.77742255,-0.05332991,-2.4293644,0.012132156,1.5469232,0.7543947,0.04,0.039999902,-0.041424019845703874,0.012676173603537455,-0.03166108326413397,0.054230596865463415,0.1328029963220218,0.0866212203825946,0.9981134530263113,0.01914085424094813,-0.051504080191177,0.027395114719255834
2179.683333333476,-0.03380669,-0.7772417,-0.054705165,-2.4312465,0.012442285,1.546304,0.7535805,0.04,0.03999991,-0.04172101506112469,0.012067498398599108,-0.03179234818726506,0.05485692583717991,0.13458367534520232,0.08813323959057878,0.998015743591308,0.019609983954764758,-0.052789921349381985,0.02816466362498584
2179.700000000143,-0.03467175,-0.7770588,-0.05609833,-2.433153,0.012756454,1.5456766,0.7527557,0.04,0.039999906,-0.039995347535848325,0.011440855575280129,-0.03216363490403662,0.05547601886647108,0.1363450404358785,0.08965392886572021,0.9979142559187026,0.020084205471763386,-0.05409072726970373,0.02894746531606389
2179.71666666681,-0.035547886,-0.7768735,-0.05750932,-2.4350836,0.013074636,1.5450412,0.7519203,0.04,0.039999895,-0.039986895372678966,0.0108047882186324,-0.03221290719808145,0.05608804025032198,0.13808867922315274,0.09118179861817752,0.9978088956160779,0.020563426233977507,-0.055406427861596816,0.029743588932079755
2179.733333333477,-0.03643502,-0.7766858,-0.05893801,-2.4370384,0.013396812,1.5443976,0.75107443,0.04,0.03999991,-0.039630102140120194,0.010086509027994184,-0.03251022001244941,0.056692920744840204,0.13981522210872246,0.09271710805025087,0.9976995612003676,0.02104761230765278,-0.056737044460860454,0.030553091211644078
2179.7500000001437,-0.03733311,-0.77649564,-0.060384315,-2.4390178,0.013722961,1.5437462,0.7502182,0.04,0.039999902,-0.03996055594284176,0.009408293957439973,-0.03281205296268297,0.05729074825456633,0.14152023171432904,0.09426023126354943,0.9975861584594784,0.021536702807941885,-0.058082445719777394,0.031376047893766794
2179.7666666668106,-0.038242057,-0.77630335,-0.061848108,-2.441021,0.014053059,1.543087,0.7493516,0.04,0.03999991,-0.0383565149360221,0.008725170735537913,-0.03289757206508259,0.05788120287313114,0.1432022432215998,0.09581052071973334,0.9974686163535038,0.02203056507168251,-0.059442143404462605,0.032212500367593835
2179.7833333334775,-0.039161813,-0.7761087,-0.0633293,-2.4430475,0.01438708,1.5424199,0.7484747,0.04,0.03999991,-0.03761189274771315,0.008112306029103844,-0.03283620554881406,0.05846384157583317,0.14486690460910195,0.09736769551148683,0.9973468450642815,0.022529136435736494,-0.060815945282218356,0.033062508241425086
2179.8000000001443,-0.040092293,-0.77591175,-0.06482773,-2.4450974,0.014724995,1.5417451,0.74758756,0.04,0.039999913,-0.037237916840671126,0.007340212638531907,-0.033104544406348246,0.05903886001062128,0.14650982203266436,0.09893064996130486,0.9972207563057511,0.0230323068780035,-0.062203659885362785,0.033926106904997234
2179.816666666811,-0.04103343,-0.77571267,-0.06634333,-2.4471705,0.0150667755,1.5410626,0.74669033,0.04,0.03999991,-0.03647804537851851,0.006698457948629832,-0.033230464569045104,0.05960643668109218,0.14813315104389838,0.10050082358575627,0.9970902660740931,0.02354006414320754,-0.0636049762061796,0.03480335734148774
2179.833333333478,-0.041985147,-0.7755114,-0.06787593,-2.449267,0.015412395,1.5403725,0.74578303,0.04,0.03999991,-0.036695578872736334,0.005889377085747938,-0.03365970464392909,0.06016550726032029,0.149736376015255,0.10207723441438825,0.9969552689373212,0.02405227221876114,-0.06501996689411078,0.035694311091781096
2179.850000000145,-0.042947367,-0.7753079,-0.06942541,-2.4513867,0.01576182,1.5396748,0.7448657,0.04,0.039999917,-0.03646078202557135,0.005141908133576845,-0.0339684994454581,0.06071665484161999,0.15131608409240752,0.10365972134012173,0.9968156666337451,0.024568834654731954,-0.06644855565453364,0.03659902414897076
2179.866666666812,-0.04392,-0.7751022,-0.07099165,-2.4535298,0.016115028,1.5389695,0.7439385,0.04,0.03999995,-0.03619528457654564,0.0043784152945383625,-0.03418038872937679,0.061260072151725804,0.1528726550158874,0.10524886725478472,0.9966713635997099,0.02508968027135608,-0.06789060700787274,0.03751754795130593
2179.8833333334787,-0.044902958,-0.7748943,-0.07257451,-2.4556963,0.01647199,1.5382568,0.7430014,0.04,0.039999958,-0.03595023481466342,0.003599908868601176,-0.034482342230779395,0.06179502998298187,0.15440351962395876,0.10684163298423308,0.9965222612864999,0.02561467540995379,-0.06934604185849814,0.03844993683535642
2179.9000000001456,-0.045896154,-0.77468425,-0.07417384,-2.457885,0.016832663,1.5375366,0.7420545,0.04,0.03999996,-0.033695709366732274,0.0029847797809345877,-0.03395406973942805,0.06232219429217011,0.15590601813377186,0.10843694756409841,0.9963683095927474,0.02614374860585079,-0.0708141014302469,0.03939618111888533
2179.9166666668125,-0.04689951,-0.774472,-0.07578952,-2.4600961,0.017197026,1.5368092,0.7410979,0.04,0.039999966,-0.033870329501883845,0.002211517009870212,-0.03427596823828427,0.06284080050461564,0.15738678798684838,0.11003882720753456,0.9962094036146827,0.026676808121961156,-0.07229479447638303,0.040356347080969024
2179.9333333334794,-0.047912925,-0.77425766,-0.07742135,-2.462329,0.01756504,1.5360742,0.7401319,0.04,0.03999997,-0.032416690104031254,0.0014340399366985501,-0.03441583298207096,0.063351225515766,0.15884127848220475,0.11164463002705215,0.9960454615454694,0.0272138388192309,-0.07378781028291556,0.041330431464556505
2179.9500000001462,-0.04893631,-0.77404124,-0.07906923,-2.4645836,0.017936671,1.5353316,0.73915637,0.04,0.039999973,-0.03252180332116161,0.0006472734151163895,-0.03474852615688029,0.06385282208532393,0.1602713931384683,0.1132552300653766,0.9958763826570903,0.027754650313373805,-0.07529312342374925,0.042318499700570375
2179.966666666813,-0.049969565,-0.77382267,-0.08073297,-2.4668593,0.018311886,1.5345827,0.7381714,0.04,0.03999997,-0.030564206812866423,8.895573727629724e-05,-0.033443272088051756,0.06434550866761846,0.16167419156490326,0.11486768597422717,0.995702150699503,0.02829918239422147,-0.07680961829719594,0.04332050213515457
2179.98333333348,-0.051012572,-0.7736021,-0.08241242,-2.4691567,0.018690648,1.5338265,0.7371772,0.04,0.03999997,-0.03147863145367413,-0.0009658062605666373,-0.035058984702751594,0.06482951822437313,0.16305712764332778,0.11648526486789292,0.9955226058863785,0.028847333306126172,-0.07833801631264145,0.04433652817395288
2180.000000000147,-0.05206525,-0.7733797,-0.08410745,-2.4714751,0.019072918,1.5330632,0.73617375,0.04,0.039999973,-0.02994324522371805,-0.0015798189141130736,-0.034590574704163046,0.06530439709480931,0.1644119549555646,0.11810553569199497,0.9953376966625516,0.029398986020757772,-0.07987767059499808,0.045366584219608846
2180.0166666668138,-0.0531275,-0.7731553,-0.08581783,-2.473815,0.01945866,1.5322931,0.7351612,0.04,0.039999973,-0.030450551925964575,-0.0025153453675430537,-0.03493198934072517,0.06577041512172523,0.16574118002404659,0.11972728107834525,0.9951473156022222,0.029954028536933595,-0.08142864992195235,0.04641068191686018
2180.0333333334806,-0.054199226,-0.7729288,-0.08754346,-2.4761765,0.019847834,1.531516,0.73413956,0.04,0.039999984,-0.03072477347103586,-0.003338679739373074,-0.03548393418175699,0.06622810506743015,0.16704115195120806,0.12135203499970056,0.994951338839827,0.030512354676780862,-0.08299116573839233,0.04746889468163958
2180.0500000001475,-0.055280294,-0.7727003,-0.0892841,-2.4785576,0.020240407,1.530732,0.733109,0.04,0.039999977,-0.026869188867451044,-0.003866687369966093,-0.03413583893792094,0.06667669257544902,0.16830936215767425,0.12297743656720678,0.9947497786172426,0.031073860010685666,-0.08456389550240971,0.048541124239561875
2180.0666666668144,-0.056370612,-0.77246994,-0.0910396,-2.4809594,0.02063634,1.5299417,0.73206973,0.04,0.039999988,-0.028367638921089622,-0.004837893551218331,-0.034888314216208194,0.06711685258736738,0.16955250477333295,0.12460537301763183,0.9945425044092198,0.031638510026967326,-0.0861471443655552,0.0496274231083042
2180.0833333334813,-0.057470076,-0.7722376,-0.09280982,-2.4833815,0.021035591,1.5291444,0.73102164,0.04,0.039999977,-0.02747896478441092,-0.005594956920662586,-0.035141232957358604,0.06754748769595478,0.170766436804072,0.12623431851268466,0.9943294207582006,0.032206097332091836,-0.08774085259812683,0.05072783353003383
2180.100000000148,-0.05857855,-0.7720033,-0.09459452,-2.4858236,0.02143811,1.5283407,0.72996503,0.04,0.03999999,-0.026732921033234547,-0.006409795181103184,-0.03480402631994561,0.06796922500803104,0.17194974553879347,0.12786188310562324,0.9941104641307161,0.03277659055219423,-0.08934459013409418,0.05184230349199957
2180.116666666815,-0.05969594,-0.7717672,-0.09639357,-2.4882848,0.02184387,1.5275307,0.72889996,0.04,0.039999988,-0.02474706294126605,-0.007009474480546007,-0.034320188537306784,0.06838207910167193,0.1731027398957251,0.12949094158423424,0.9938855986931566,0.0333498876087149,-0.09095765039039477,0.0529708178367174
2180.133333333482,-0.060822126,-0.7715293,-0.09820672,-2.4907656,0.022252819,1.5267141,0.7278266,0.04,0.039999984,-0.025255244601218862,-0.008018546006058336,-0.03500663454274466,0.06878521117565152,0.1742301074059275,0.13112027075512195,0.9936546997386468,0.03392588011532399,-0.09258030898379926,0.054113387753536336
2180.150000000149,-0.06195698,-0.7712897,-0.100033835,-2.4932652,0.022664925,1.5258913,0.72674483,0.04,0.04,-0.023725064233204307,-0.008650770167431543,-0.034432228934866416,0.0691795042177162,0.17532478062034917,0.1327494736870371,0.9934177322862845,0.03450436793017374,-0.09421191440346614,0.055270000518810425
2180.1666666668157,-0.06310038,-0.7710483,-0.10187471,-2.4957836,0.02308014,1.5250623,0.72565496,0.04,0.04,-0.023497951351103552,-0.009497100723493412,-0.03457560851387598,0.06956506412455699,0.1763917692303046,0.13437877808022275,0.9931746006911687,0.03508532751672253,-0.09585241922713605,0.056440641946095195
2180.1833333334826,-0.06425221,-0.770805,-0.10372915,-2.4983203,0.023498414,1.5242273,0.72455704,0.04,0.04,-0.022559718575032583,-0.010221441465579906,-0.034270564462857145,0.06994003011566206,0.17742834154628903,0.13600204174698455,0.9929252401380703,0.03566862867084291,-0.09750150392879252,0.057625282273675534
2180.2000000001494,-0.06541236,-0.77055997,-0.1055969,-2.500876,0.023919707,1.5233861,0.7234514,0.04,0.04,-0.022832313001863724,-0.011222526332732574,-0.03479879847538836,0.0703064422504091,0.17843454321886948,0.13762554401718882,0.9926695446107928,0.036254220173380904,-0.09915924001544024,0.058823905356424844
2180.2166666668163,-0.06658068,-0.7703132,-0.1074778,-2.503449,0.024343971,1.522539,0.7223379,0.04,0.04,-0.02028566928036213,-0.01171113813517588,-0.03384339769449962,0.07066367722044191,0.17940624719670345,0.13924767560020793,0.9924075080558189,0.03684193029854359,-0.10082477269431854,0.0600364500737345
2180.233333333483,-0.067757055,-0.7700648,-0.10937165,-2.5060408,0.024771163,1.5216862,0.7212168,0.04,0.04,-0.022127781256919832,-0.012846491331858223,-0.034806809369536396,0.0710110336823687,0.18034899270393828,0.140866034811178,0.9921389831778424,0.03743165215658554,-0.1024985821533941,0.06126295889205051
2180.25000000015,-0.06894135,-0.7698146,-0.111278266,-2.5086493,0.025201235,1.5208277,0.720088,0.04,0.04,-0.018547677162739085,-0.013183636744371063,-0.033392337428761465,0.0713494167557189,0.18125634103203,0.1424801237336556,0.9918639978186905,0.038023220993887274,-0.10417954906789821,0.06250332833045061
2180.266666666817,-0.07013345,-0.76956284,-0.11319739,-2.5112748,0.025634142,1.5199635,0.71895176,0.04,0.04,-0.018489072389704653,-0.01408736683423395,-0.033597597115808675,0.07167885549235352,0.18213484666449825,0.14409169981237896,0.9915824685144793,0.038616565209514564,-0.10586759705068129,0.0637575165832667
2180.283333333484,-0.07133322,-0.7693095,-0.11512884,-2.513917,0.026069824,1.5190938,0.71780825,0.04,0.04,-0.017767393443102186,-0.014844949449224765,-0.03353791834588282,0.07199901388369565,0.18298196662563404,0.14569854359971854,0.9912943284354062,0.03921159897575569,-0.10756250025873086,0.06502548312509505
2180.3000000001507,-0.07254053,-0.76905453,-0.11707238,-2.516576,0.026508246,1.5182188,0.71665764,0.04,0.04,-0.01790362527271938,-0.01570245218429356,-0.03347624884937339,0.07230965450850893,0.18379850231174208,0.14730073999180213,0.9909994949078049,0.03980823450153794,-0.10926418065125851,0.06630719708263282
2180.3166666668176,-0.07375523,-0.7687982,-0.119027786,-2.519251,0.026949346,1.5173383,0.7155,0.04,0.04,-0.015873349871120546,-0.01635969748417787,-0.03312586230019843,0.07261098014303304,0.1845817382009171,0.14889818924739068,0.9906979484165889,0.04040630721264883,-0.11097205750903931,0.06760257238307901
2180.3333333334845,-0.0749772,-0.7685404,-0.12099485,-2.5219417,0.027393088,1.5164526,0.71433544,0.04,0.04,-0.014868902428899489,-0.01700550210138596,-0.032634486742755264,0.07290279725139408,0.18533338261227858,0.1504898055795301,0.9903896485944751,0.04100572306165631,-0.11268572699406909,0.06891154885010888
2180.3500000001513,-0.076206274,-0.7682809,-0.122973345,-2.5246484,0.027839419,1.5155616,0.713164,0.04,0.04,-0.01590038448466835,-0.01803234655605168,-0.03313981474140082,0.07318497380911987,0.18605489652613247,0.1520757595117173,0.9900744659790679,0.04160627604819243,-0.11440557883299829,0.07023413088771005
2180.366666666818,-0.077442296,-0.7680201,-0.12496305,-2.5273702,0.028288277,1.5146654,0.711986,0.04,0.04,-0.013480604465310186,-0.01856324698014944,-0.03238214021847874,0.07345887462834627,0.18674055257356886,0.15365419280825143,0.9897524079871153,0.04220798718309456,-0.11613081157199198,0.07157018447153214
2180.383333333485,-0.07868518,-0.7677579,-0.12696375,-2.5301073,0.028739627,1.5137644,0.7108015,0.04,0.04,-0.013488048657972485,-0.019316312373493516,-0.03221772073804807,0.07372311699062252,0.1873926959903322,0.15522467168238044,0.9894234177108204,0.04281068082319478,-0.11786122204844615,0.07291967107811795
2180.400000000152,-0.07993476,-0.76749426,-0.12897517,-2.5328588,0.029193414,1.5128586,0.7096105,0.04,0.04,-0.012151449992425789,-0.01998309264788778,-0.031681293655494436,0.07397829726099771,0.1880136419012408,0.15678943277247248,0.9890874664389925,0.04341421908061772,-0.11959641408771562,0.0742824814628224
2180.416666666819,-0.081190884,-0.76722926,-0.13099715,-2.5356247,0.029649582,1.5119482,0.7084133,0.04,0.04,-0.011425445940149714,-0.020644159755667246,-0.031437557493241286,0.07422450503729965,0.188601373630579,0.1583450881186587,0.9887445072616255,0.04401852466354215,-0.12133610735883094,0.07565856129623973
2180.4333333334857,-0.08245342,-0.76696295,-0.13302945,-2.5384045,0.030108077,1.511033,0.7072102,0.04,0.04,-0.010359069529375375,-0.021324639312120253,-0.031181730665719165,0.0744610428833969,0.189156930608005,0.15989027288180457,0.9883944942144409,0.044623590167065054,-0.12308003162306407,0.07704780868296747
2180.4500000001526,-0.083722234,-0.7666954,-0.13507172,-2.5411985,0.030568844,1.5101131,0.70600104,0.04,0.04,-0.010722448845212895,-0.02231525318347749,-0.031529191028201176,0.07468779926853922,0.18967934853697052,0.1614287445906532,0.9880373421713002,0.04522912822978373,-0.12482831377679066,0.07845016580154439
2180.4666666668195,-0.084997155,-0.7664264,-0.13712382,-2.5440063,0.031031854,1.5091889,0.7047861,0.04,0.04,-0.009818298558372796,-0.022858468022213252,-0.03073392933110597,0.07490694751284316,0.1901655532431044,0.1629585538579252,0.9876730296255795,0.045835111951672676,-0.1265805021056518,0.07986554669748451
2180.4833333334864,-0.08627804,-0.7661562,-0.13918552,-2.546827,0.03149704,1.5082603,0.7035656,0.04,0.04,-0.00786989313117381,-0.02334748455243285,-0.030126057197077394,0.07511732785049655,0.19061659793686891,0.16448029180524254,0.987301563493492,0.046441451819535046,-0.12833600057311675,0.08129382038689636
2180.5000000001532,-0.08756474,-0.7658848,-0.14125659,-2.5496602,0.031964317,1.5073276,0.7023394,0.04,0.04,-0.006828917270063073,-0.02388467065338462,-0.02943144958404975,0.0753158970582288,0.19103526409118152,0.1659827513283613,0.9869229451227891,0.04704794593448861,-0.1300943248307824,0.08273486459968682
2180.51666666682,-0.08885711,-0.7656125,-0.14333673,-2.5525062,0.03243366,1.5063909,0.7011079,0.04,0.04,-0.007017103580997386,-0.024801640114446855,-0.029688176473197103,0.07550644631219335,0.19142300346614044,0.1674772124434934,0.9865371037319789,0.04765456069978035,-0.13185547445968387,0.08418859578138428
2180.533333333487,-0.090154976,-0.7653389,-0.14542572,-2.555364,0.03290504,1.5054504,0.6998712,0.04,0.04,-0.005216082822268042,-0.02520729595051896,-0.028626521831398577,0.07568907961959316,0.19177547188514815,0.16896443275507073,0.9861440459170361,0.048261161893298495,-0.1336189409865877,0.08565488640299751
2180.550000000154,-0.09145821,-0.7650642,-0.14752328,-2.5582335,0.033378378,1.5045059,0.6986294,0.04,0.04,-0.0051759080233804156,-0.026006777817327853,-0.02875598309390881,0.07586129303678522,0.19209773990474116,0.1704348879646181,0.9857437096000257,0.04886763301523312,-0.1353847223278255,0.08713363522593387
2180.5666666668208,-0.09276668,-0.7647884,-0.14962925,-2.561115,0.033853583,1.5035574,0.6973825,0.04,0.04,-0.004840325896493525,-0.026614321222237503,-0.028702624181020653,0.07602518108686733,0.19238512172128122,0.17189452044781892,0.9853360454846822,0.049473816029046,-0.13715271733494416,0.08862477714371576
2180.5833333334876,-0.094080165,-0.76451147,-0.1517433,-2.5640073,0.034330633,1.5026054,0.6961309,0.04,0.04,-0.002795227012453161,-0.027035873507291752,-0.027346449062415346,0.0761804128206753,0.1926361862386575,0.17333862571436884,0.984921110534598,0.05007964899014278,-0.1389221464998934,0.09012808658892298
2180.6000000001545,-0.09539855,-0.7642336,-0.15386519,-2.5669098,0.034809463,1.5016497,0.69487464,0.04,0.04,-0.0016574395839796807,-0.027533155319744984,-0.026995516305960976,0.07632638822757751,0.1928552042714173,0.17476961371565003,0.9844988940075927,0.05068505581934207,-0.14069268640584262,0.09164344388074921
2180.6166666668214,-0.09672169,-0.76395476,-0.15599464,-2.5698225,0.035290025,1.500691,0.6936138,0.04,0.04,-0.0013272051585744293,-0.028126372652076403,-0.026298799706148124,0.07646274601082909,0.1930433760408085,0.1761847726481779,0.9840694093822735,0.05128985834731618,-0.14246392572458583,0.09317069182889767
2180.6333333334883,-0.098049365,-0.763675,-0.15813145,-2.5727456,0.035772268,1.4997287,0.6923486,0.04,0.04,-0.001109609473304296,-0.02892886034582265,-0.026727239708423944,0.0765908914035284,0.19319995240588314,0.17758677387632432,0.9836325567368179,0.05189392024810088,-0.14423615768715106,0.09470979455326567
2180.650000000155,-0.09938148,-0.7633943,-0.16027535,-2.5756795,0.036256082,1.4987632,0.6910793,0.04,0.04,-0.0017936010882513287,-0.029664927174985478,-0.026720501475552272,0.07670783077997297,0.1933227420226581,0.17896309689982765,0.9831882823654207,0.052497245737368,-0.14600936945715928,0.09626060793516221
2180.666666666822,-0.10071783,-0.76311266,-0.1624261,-2.5786219,0.03674145,1.4977944,0.68980587,0.04,0.04,0.0022714612155194658,-0.029526116566752636,-0.024632104187749526,0.07681855511123989,0.19340517537207091,0.18032983402203812,0.9827367332562756,0.0530996213542018,-0.14778235952777405,0.09782288859580844
2180.683333333489,-0.102058314,-0.7628303,-0.16458341,-2.5815725,0.037228324,1.4968228,0.68852854,0.04,0.04,0.0027806817588515997,-0.03000706054784308,-0.024040840489247817,0.07692217307538993,0.19345797793034267,0.1816860120364389,0.9822779345726791,0.05370104132018161,-0.14955467558003793,0.0993964608268799
2180.700000000156,-0.10340272,-0.76254714,-0.16674705,-2.5845318,0.037716646,1.4958484,0.68724746,0.04,0.04,0.0025702390411996845,-0.030776158176001878,-0.024120574295405373,0.07701562972296556,0.1934828816405444,0.18302261905411188,0.9818118172576057,0.0543013413434919,-0.15132650382217752,0.10098123123913678
2180.7166666668227,-0.10475091,-0.7622631,-0.16891666,-2.5874996,0.038206313,1.4948713,0.68596286,0.04,0.04,0.002834643366833589,-0.03136882338903302,-0.023848479620613983,0.07709902834303027,0.19347533225778205,0.18433743393421556,0.9813383607626269,0.05490043829636289,-0.1530977516314246,0.10257700529841132
2180.7333333334896,-0.106102705,-0.7619784,-0.17109208,-2.5904758,0.038697317,1.4938912,0.6846748,0.04,0.04,0.003539038011846074,-0.031890388202596154,-0.023582038125646854,0.07717585240215874,0.1934324511697454,0.18563975248994147,0.9808575492457743,0.0554981880491173,-0.15486824536991597,0.10418371171580453
2180.7500000001564,-0.10745795,-0.7616929,-0.17327306,-2.5934594,0.03918956,1.492909,0.6833834,0.04,0.04,0.005143038218902163,-0.031963389225572736,-0.022137280636402856,0.07724369366494561,0.1933549615523025,0.18691885620694043,0.9803694796543316,0.05609451398809601,-0.1566372201503732,0.10580108754780322
2180.7666666668233,-0.10881648,-0.76140684,-0.17545928,-2.5964503,0.039683003,1.4919246,0.682089,0.04,0.04,0.005611270241656641,-0.032541129075758235,-0.02176559265530953,0.077303719412154,0.19324670132592378,0.18818202892091584,0.9798741648378242,0.05668935835425074,-0.15840441321266893,0.10742895144005674
2180.78333333349,-0.11017812,-0.7611202,-0.17765048,-2.5994475,0.0401776,1.4909378,0.6807916,0.04,0.04,0.00749464379616871,-0.032757443314054835,-0.020920955313641354,0.07735481463623967,0.19310746585370184,0.1894257849723324,0.9793716409814215,0.057282593181329666,-0.16016946807935123,0.10906711170173007
2180.800000000157,-0.11154273,-0.76083285,-0.17984639,-2.6024506,0.040673275,1.489949,0.67949134,0.04,0.04,0.007975710956875659,-0.033063000754329774,-0.02011107417938529,0.0773974499049548,0.19293761487268873,0.19064988542925324,0.9788619445820251,0.05787407653915252,-0.1619320540011941,0.11071537653276065
2180.816666666824,-0.11291012,-0.760545,-0.18204679,-2.6054604,0.041169964,1.4889575,0.67818856,0.04,0.04,0.007364191059555658,-0.033980392950613836,-0.020974531727446788,0.07743082296463728,0.19273881603899673,0.19185083360523336,0.9783449556428252,0.05846376460797531,-0.16369267214719133,0.11237368500415905
2180.833333333491,-0.11428012,-0.7602566,-0.18425138,-2.6084769,0.041667603,1.4879647,0.6768833,0.04,0.04,0.007531388795811722,-0.03423715114254655,-0.019698215061092483,0.0774570121950818,0.19250346523100118,0.19303193967878912,0.977820765972744,0.05905152757821556,-0.16545071028026465,0.11404178703839885
2180.8500000001577,-0.11565257,-0.7599678,-0.1864599,-2.6115005,0.04216615,1.4869702,0.67557555,0.04,0.04,0.0072791398556759646,-0.03505867284236408,-0.02026191405687383,0.07747508318317045,0.19223514904574346,0.19418997612829147,0.9772892989792141,0.05963716084021046,-0.16720647892541857,0.11571961179073667
2180.8666666668246,-0.11702732,-0.75967854,-0.18867204,-2.6145258,0.04266555,1.4859737,0.6742657,0.04,0.04,0.01518174082668633,-0.03334050473494943,-0.015455155285859501,0.07748658156791556,0.19192781383269072,0.1953231961804902,0.9767510176384915,0.060220773728597694,-0.16895742388826387,0.11740654524659909
2180.8833333334915,-0.11840417,-0.7593887,-0.19088751,-2.6175573,0.04316568,1.4849757,0.6729538,0.04,0.04,0.008845635239485006,-0.03555615209675511,-0.018726465013862992,0.07748735417778656,0.191604291774805,0.19643669067492958,0.976205530079497,0.060802114355024216,-0.17070560875711324,0.11910273326431335
2180.9000000001583,-0.119782984,-0.7590986,-0.19310613,-2.620592,0.04366653,1.4839767,0.67164004,0.04,0.04,0.013412098069753853,-0.03465204762169438,-0.015615004554181411,0.07748179527614883,0.1912420889610711,0.19752549552814797,0.9756531746644402,0.0613812146141993,-0.17244916094920784,0.1208077652620028
2180.916666666825,-0.12116356,-0.75880814,-0.19532758,-2.623631,0.04416805,1.4829764,0.6703247,0.04,0.04,0.012484493058351198,-0.03550736429430712,-0.016196898781484226,0.0774664909124781,0.19085658435737318,0.1985915448411943,0.9750938407399838,0.06195795114407018,-0.17418864991650063,0.12252154211094031
2180.933333333492,-0.12254576,-0.75851727,-0.1975516,-2.6266732,0.044670176,1.4819747,0.66900784,0.04,0.04,0.013624445594317969,-0.035616646110353534,-0.015396672657719268,0.07744350491788311,0.19043911180524084,0.19963291013544773,0.9745275798745443,0.06253222658729567,-0.17592380110774053,0.1242438445384841
2180.950000000159,-0.12392939,-0.7582262,-0.19977784,-2.6297193,0.045172844,1.4809719,0.6676896,0.04,0.04,0.01334827601331412,-0.03618860287150638,-0.015254824765187358,0.0774126489115246,0.18999211437951713,0.20065064875995575,0.9739544092951499,0.06310388797570843,-0.17765454833798922,0.1259744791285516
2180.966666666826,-0.12531431,-0.7579348,-0.2020062,-2.6327665,0.04567596,1.4799684,0.6663701,0.04,0.04,0.01701098004378565,-0.035187300902217444,-0.012439547515363802,0.07737384208261991,0.18951258501594428,0.2016406710897364,0.9733746021800751,0.06367294151516532,-0.1793795226297053,0.1277130659358151
2180.9833333334927,-0.12670033,-0.7576432,-0.2042363,-2.635819,0.046179503,1.478964,0.66504955,0.04,0.04,0.011703726873046882,-0.03752714587774153,-0.015822482293470497,0.077326714558541,0.18901172146143605,0.2026083317499754,0.9727877642727752,0.06423916604661452,-0.18110071313881515,0.12945975022154033
2181.0000000001596,-0.12808727,-0.7573514,-0.20646784,-2.638872,0.046683375,1.4779584,0.6637282,0.04,0.04,0.018440124027541138,-0.03575808782344536,-0.011481493254439368,0.07727156166501757,0.18846974037264597,0.20354207883330716,0.972194359041947,0.06480260460056139,-0.18281591541439335,0.13121391601197904
2181.0166666668265,-0.12947497,-0.7570595,-0.20870058,-2.641926,0.047187533,1.4769529,0.66240597,0.04,0.04,0.017725428366688334,-0.03612894056965743,-0.010972453059243659,0.07720938861318155,0.1879027797589901,0.20445313353138944,0.9715944570583052,0.06536312128667134,-0.18452486162568513,0.13297536926537526
2181.0333333334934,-0.13086325,-0.7567677,-0.2109342,-2.644981,0.047691908,1.475947,0.66108334,0.04,0.04,0.01862089503010811,-0.03632681743962196,-0.010516902799828642,0.07713927266565367,0.18731268327503578,0.20533879084950257,0.9709880977177394,0.06592071261139516,-0.18622746509297353,0.13474384952322274
2181.0500000001603,-0.13225196,-0.75647575,-0.21316849,-2.64804,0.048196446,1.4749404,0.65976024,0.04,0.04,0.013714711292434068,-0.03833461250245529,-0.013623591690969938,0.07706065462009666,0.18669768322015037,0.20619768983614895,0.9703748796817829,0.06647507505892221,-0.18792568726153208,0.1365195712920192
2181.066666666827,-0.13364087,-0.7561836,-0.21540314,-2.6510992,0.048701078,1.4739338,0.6584369,0.04,0.04,0.01968071417755013,-0.0365049430526565,-0.008972115591077134,0.07697728029901604,0.1860397397912647,0.20702455154789576,0.9697553282833584,0.06702629323863618,-0.1896171786027266,0.1383018613738286
2181.083333333494,-0.1350299,-0.7558918,-0.21763791,-2.654158,0.049205747,1.4729273,0.65711355,0.04,0.04,0.020505475602505818,-0.03652723015556969,-0.008394009799839175,0.07688630710089873,0.18535621468895777,0.2078234646846853,0.9691295483507989,0.06757435205395322,-0.19130154977920252,0.140090479726283
2181.100000000161,-0.13641883,-0.7555998,-0.21987252,-2.6572165,0.049710397,1.4719208,0.6557903,0.04,0.04,0.02055079750094002,-0.036709656446917704,-0.007909309378040241,0.07678704141854073,0.184649403717943,0.20859505605658285,0.9684975339971538,0.06811914611612524,-0.19297899372596572,0.14188522317125107
2181.1166666668278,-0.13780749,-0.755308,-0.22210665,-2.6602747,0.050214957,1.4709144,0.6544673,0.04,0.04,0.020626376768784205,-0.037083614596239434,-0.007804220845664123,0.0766791725944426,0.18391656668679793,0.2093363849630264,0.967859333085088,0.06866048410939475,-0.19464947119907222,0.14368588185299805
2181.1333333334946,-0.1391957,-0.7550162,-0.22434005,-2.6633296,0.050719343,1.4699085,0.6531446,0.04,0.04,0.02477436095991159,-0.03556726488172235,-0.004249686464630198,0.07656471338853714,0.18315549279111112,0.21004701440127607,0.9672153625838587,0.0691984394436506,-0.19631130330758592,0.14549189171227145
2181.1500000001615,-0.14058334,-0.7547245,-0.22657244,-2.6663823,0.051223535,1.4689031,0.6518225,0.04,0.04,0.023243787557891693,-0.03634036399217666,-0.00506297381409615,0.07644135295531168,0.18238160813972126,0.2107328533963263,0.9665655142011575,0.06973294095709491,-0.19796514496325587,0.14730317403981202
2181.1666666668284,-0.14197017,-0.7544331,-0.22880356,-2.669433,0.051727455,1.4678978,0.6505013,0.04,0.04,0.02320027125852775,-0.036737959130489495,-0.0052163826440354555,0.07630981989076219,0.18158371188112366,0.2113881798756166,0.9659097841395157,0.07026389670618946,-0.19961121220580963,0.14911954159312407
2181.1833333334953,-0.14335607,-0.7541419,-0.23103313,-2.6724832,0.052231036,1.4668934,0.64918107,0.04,0.04,0.02159654044098236,-0.03726437122925086,-0.005321497893540084,0.07617062831285204,0.18076110118787486,0.2120131629180505,0.9652481654061595,0.0707911982658991,-0.2012497325825268,0.15094081808305834
2181.200000000162,-0.14474088,-0.7538511,-0.2332609,-2.6755328,0.052734226,1.4658903,0.6478618,0.04,0.04,0.021442310381858398,-0.03746245880064669,-0.005040139521039766,0.07602415623623839,0.17990951710153077,0.2126055106019163,0.9645807114505321,0.07131469809330855,-0.20288066996991372,0.15276681146768942
2181.216666666829,-0.14612438,-0.75356054,-0.2354866,-2.6785758,0.053236958,1.4648877,0.6465438,0.04,0.04,0.029654170153037285,-0.03454031781831013,0.00046354466435305497,0.07587203507708275,0.1790271804455114,0.21316388284484716,0.9639080828265565,0.07183457652985353,-0.2045014767762831,0.15459672529755727
2181.233333333496,-0.14750645,-0.7532704,-0.23770988,-2.6816177,0.053739153,1.4638863,0.6452272,0.04,0.04,0.022227961352139225,-0.03748287090298008,-0.004024814201919469,0.07570936233089348,0.17813658767779367,0.2136948355298369,0.963229759513069,0.07235052194860452,-0.20611460416349914,0.15643082277059053
2181.250000000163,-0.14888686,-0.7529806,-0.23993053,-2.6846561,0.054240786,1.4628861,0.64391196,0.04,0.04,0.025678261070272157,-0.03617153327769296,-0.0011158460747395793,0.07554184884972466,0.17721325570492355,0.2141921517664272,0.9625461106302835,0.07286248065965427,-0.20771875407768803,0.1582686419574281
2181.2666666668297,-0.15026547,-0.75269103,-0.24214824,-2.6876898,0.054741755,1.4618874,0.64259857,0.04,0.04,0.027159292291534243,-0.03552999097046483,0.0003909078782671216,0.0753670398287663,0.17626764371985032,0.21465493094303909,0.9618573190465642,0.07337058794653667,-0.20931344507058863,0.1601097633925461
2181.2833333334966,-0.15164211,-0.7524021,-0.24436279,-2.6907196,0.05524202,1.4608897,0.6412871,0.04,0.04,0.02627476715320043,-0.036164316683595654,-0.00042423405668401415,0.07518397942689246,0.17530365702712028,0.21508794384048613,0.9611633337577266,0.07387465176639246,-0.2108991386621183,0.1619541138029657
2181.3000000001634,-0.15301666,-0.7521137,-0.24657387,-2.6937451,0.055741522,1.4598936,0.6399776,0.04,0.04,0.02674215348243969,-0.0358138696867738,0.0007098539328342923,0.07499446281243352,0.17431391698419488,0.21548607090609131,0.9604643053921241,0.07437461440669939,-0.2124755216552634,0.1638013659796613
2181.3166666668303,-0.15438884,-0.75182575,-0.2487812,-2.6967638,0.05624021,1.4588994,0.6386702,0.04,0.04,0.030112744363841593,-0.03434449095046366,0.003749657204532575,0.07479819593666344,0.17330216250010116,0.21585034177058543,0.9597606502633126,0.07487049754337315,-0.21404125630884874,0.16565096861014955
2181.333333333497,-0.15575857,-0.7515383,-0.25098458,-2.6997797,0.05673798,1.4579071,0.63736534,0.04,0.04,0.024540237207526516,-0.03663037745362252,9.319112621586356e-05,0.07459282766814489,0.17227803881806603,0.2161829787001031,0.9590519034599888,0.07536220145559744,-0.21559844859453942,0.16750311646404048
2181.350000000164,-0.15712567,-0.75125146,-0.2531837,-2.7027884,0.057234798,1.4569163,0.6360629,0.04,0.04,0.03085444257628911,-0.034076776862165814,0.004562971261234949,0.07438222819249507,0.1712210405779833,0.21647815911977247,0.9583386908812686,0.0758496888092042,-0.21714498086996398,0.1693571242980533
2181.366666666831,-0.15848996,-0.7509652,-0.25537822,-2.7057898,0.057730597,1.4559278,0.6347632,0.04,0.04,0.03035230571879488,-0.03399019889661903,0.005228432419812634,0.07416347069477418,0.17015103153948916,0.21674145956158503,0.9576211253120045,0.07633296455453753,-0.21868077411004577,0.17121266867004042
2181.383333333498,-0.15985127,-0.75067943,-0.257568,-2.7087846,0.058225356,1.4549415,0.6334663,0.04,0.04,0.029705080278352725,-0.034204593808992434,0.00501757825548399,0.07393796780040417,0.16906461524069344,0.2169739882418109,0.9568991920082279,0.07681197556770349,-0.22020617419654895,0.17306963219787025
2181.4000000001647,-0.16120943,-0.7503946,-0.25975263,-2.7117734,0.05871901,1.4539574,0.63217247,0.04,0.04,0.029015715020275223,-0.034590284389865444,0.004790340220295342,0.0737049314620839,0.1679602669380684,0.21717209117098107,0.9561729400831255,0.07728658345543736,-0.22172138639488984,0.1749277550467774
2181.4166666668316,-0.1625643,-0.75011045,-0.26193193,-2.7147555,0.05921144,1.4529755,0.63088167,0.04,0.04,0.029742530129772682,-0.034047997426805976,0.0056496925662785635,0.07346424191103426,0.16683285511355797,0.21733052325461139,0.9554424953023382,0.07775670294411771,-0.22322628276060238,0.17678676421775807
2181.4333333334985,-0.16391571,-0.7498269,-0.26410574,-2.7177303,0.05970262,1.4519963,0.62959415,0.04,0.04,0.030438245429742494,-0.03331104660246609,0.007061428613941434,0.07321840588302309,0.16568497808218874,0.2174545250957357,0.9547080642817742,0.07822243888719686,-0.22472038227055766,0.1786463317341298
2181.4500000001653,-0.16526344,-0.74954426,-0.26627368,-2.7206964,0.060192473,1.4510199,0.6283102,0.04,0.04,0.03208753224865912,-0.032587439483766634,0.008529266266865676,0.07296463951292435,0.1645185037106287,0.217542833666167,0.9539699205856182,0.07868376043737772,-0.226203105978709,0.18050598690040004
2181.466666666832,-0.16660741,-0.7492625,-0.26843545,-2.7236543,0.060680978,1.4500461,0.6270298,0.04,0.04,0.03172018960035938,-0.03261603079570963,0.00852728197623387,0.07270371935580215,0.16333868814447552,0.21759785497122283,0.9532281041709562,0.0791405186436448,-0.2276746878776988,0.18236555658142345
2181.483333333499,-0.16794737,-0.7489815,-0.27059087,-2.7266026,0.06116806,1.449075,0.6257531,0.04,0.04,0.03296247649831052,-0.03171356800703573,0.010036660222323412,0.07243568319373013,0.16214200792606145,0.21761582828739562,0.9524828367075792,0.07959275489825197,-0.2291347048054372,0.18422466229827925
2181.500000000166,-0.16928324,-0.7487014,-0.27273962,-2.729542,0.061653655,1.448107,0.62448055,0.04,0.04,0.03209913861412783,-0.03184833716999014,0.009932991237326938,0.07216025264746247,0.1609307958434256,0.21759857042684558,0.9517341782773759,0.08004051547443235,-0.23058332992797848,0.18608303990584438
2181.516666666833,-0.1706149,-0.74842215,-0.2748814,-2.7324727,0.06213769,1.4471421,0.623212,0.04,0.04,0.03190614504680056,-0.03166774816311668,0.010215589420980997,0.07187678121641368,0.15970399553399559,0.2175457153631718,0.9509822106022342,0.08048362900782166,-0.2320207006280257,0.1879404561553984
2181.5333333334997,-0.1719421,-0.7481439,-0.27701604,-2.7353938,0.0626201,1.4461805,0.6219475,0.04,0.04,0.03278308034757593,-0.031007718700781783,0.011278114775881143,0.071588348648417,0.1584593041082192,0.2174579135631695,0.9502271476017373,0.080922047465756,-0.23344644179756072,0.1897965990387447
2181.5500000001666,-0.17326464,-0.74786663,-0.27914336,-2.7383041,0.06310084,1.4452221,0.6206876,0.04,0.04,0.03405810698384748,-0.03003436883692312,0.0127830293076725,0.07129286333155271,0.15719921734564124,0.2173321807356615,0.9494692315234915,0.08135590351473175,-0.23486010537767982,0.19165105336386062
2181.5666666668335,-0.17458251,-0.74759036,-0.281263,-2.741204,0.06357988,1.4442673,0.6194322,0.04,0.04,0.033663924826932146,-0.029898943063128014,0.012926807944069196,0.0709900791264752,0.15592619037342115,0.21717189290318167,0.9487085490182169,0.08178512566396377,-0.23626180655749862,0.19350359428720293
2181.5833333335004,-0.17589541,-0.7473152,-0.2833747,-2.744094,0.06405715,1.443316,0.61818135,0.04,0.04,0.03300130178489624,-0.030022491684111863,0.012865226642910788,0.07067994175794289,0.15464059947153763,0.21697633361633367,0.947945170657267,0.08220950524077011,-0.23765177256199874,0.1953540009157036
2181.6000000001673,-0.17720322,-0.7470412,-0.28547817,-2.7469716,0.06453258,1.4423684,0.6169353,0.04,0.04,0.03543895805313557,-0.028348502152544808,0.015261145763012518,0.07036427478103566,0.15333865112208253,0.21674230582472803,0.9471794937548271,0.0826291883540882,-0.23902908444108986,0.19720172573673928
2181.616666666834,-0.17850584,-0.7467683,-0.28757316,-2.7498388,0.065006144,1.4414245,0.6156944,0.04,0.04,0.03321636872795075,-0.02917447591365696,0.013933315189018636,0.07004162963094779,0.15202760423108988,0.21647409624269143,0.946411367772484,0.08304414902523492,-0.24039467569542158,0.1990467084907051
2181.633333333501,-0.17980306,-0.7464965,-0.28965953,-2.7526934,0.065477744,1.4404845,0.6144585,0.04,0.04,0.03562648703507865,-0.02737968638498456,0.016397178794458345,0.06971254291930372,0.15069934975454105,0.21616770483806286,0.9456412298394282,0.08345434515590434,-0.24174750729825437,0.20088847507374166
2181.650000000168,-0.18109472,-0.7462259,-0.29173702,-2.7555366,0.065947324,1.4395486,0.61322784,0.04,0.04,0.03403496434564168,-0.02786212037589053,0.015605877109081678,0.06937580365466153,0.14936397204976937,0.21582642273349578,0.9448690347783465,0.0838597226733196,-0.24308818773251376,0.20272687788034385
2181.6666666668348,-0.18238072,-0.74595654,-0.29380536,-2.7583666,0.06641488,1.4386169,0.6120028,0.04,0.04,0.0358773788336153,-0.02644568154658855,0.017552432272338603,0.06903359312772323,0.1480134550366524,0.2154474942632807,0.9440951268920351,0.08426044921850419,-0.24441600369883001,0.20456144605497303
2181.6833333335017,-0.18366088,-0.74568826,-0.29586422,-2.7611835,0.066880316,1.4376894,0.6107831,0.04,0.04,0.03552922659617597,-0.026133346297649296,0.01787183529187164,0.06868336625694174,0.14665471691570697,0.21503399549623908,0.9433196264551948,0.08465629762716392,-0.2457310953944306,0.20639191450428945
2181.7000000001685,-0.18493503,-0.74542135,-0.29791352,-2.7639878,0.067343585,1.4367663,0.6095692,0.04,0.04,0.034952573382596164,-0.026081465765454004,0.017651637005267062,0.0683267654181475,0.1452865884284358,0.21458425662706498,0.9425425848291187,0.08504735109046607,-0.2470336904552218,0.20821810592792409
2181.7166666668354,-0.18620306,-0.7451558,-0.2999529,-2.7667785,0.067804635,1.4358473,0.6083611,0.04,0.04,0.035895651469819434,-0.025183805945777626,0.01871888023955437,0.06796325669925546,0.14390633387235827,0.21409655582270504,0.9417642357729517,0.08543356009352553,-0.2483235409444959,0.2100396392148911
2181.7333333335023,-0.18746479,-0.7448916,-0.30198225,-2.769555,0.06826343,1.434933,0.607159,0.04,0.04,0.0361097450880532,-0.02435184837294435,0.01973477430032844,0.06759377934593659,0.14251557910241427,0.21357278577916827,0.9409847991710678,0.08581497594948835,-0.2496003603675356,0.21185621948899713
2181.750000000169,-0.18872008,-0.7446288,-0.30400112,-2.7723174,0.06871987,1.4340234,0.60596323,0.04,0.04,0.03621929178776462,-0.023867894201756723,0.020293770885748685,0.06721699284054501,0.1411170976873301,0.21301234391588225,0.9402044632723131,0.08619162917140548,-0.25086412464627067,0.21366740806463855
2181.766666666836,-0.18996881,-0.7443675,-0.30600944,-2.7750654,0.06917392,1.4331187,0.6047735,0.04,0.04,0.035988825354427156,-0.023388500074261742,0.020562765110543335,0.06683217224985606,0.13971214695261275,0.21241679141511022,0.9394233608106987,0.08656337793949181,-0.2521148349400226,0.21547306273871356
2181.783333333503,-0.19121084,-0.7441076,-0.30800688,-2.7777987,0.06962553,1.4322187,0.6035902,0.04,0.04,0.0363087938173523,-0.022819472758370263,0.02106005456595783,0.06644196268709822,0.13829808999521753,0.21178504352353134,0.9386416270656686,0.08693025750401975,-0.25335258154439727,0.21727286000462304
2181.80000000017,-0.19244596,-0.7438491,-0.30999324,-2.7805166,0.07007464,1.4313236,0.60241336,0.04,0.04,0.036502761872769796,-0.02202391786278457,0.021971837377510184,0.06604598136465331,0.13687692200550533,0.2111180568212942,0.9378594855447734,0.08729227724796701,-0.25457716308564016,0.21906645508115702
2181.8166666668367,-0.19367409,-0.743592,-0.31196836,-2.7832193,0.07052126,1.4304338,0.6012433,0.04,0.04,0.036266501075843394,-0.021585680821853415,0.022246241429491054,0.06564451295730998,0.13544761064202318,0.2104163513247127,0.9370770522363904,0.08764953936362042,-0.2557886470411922,0.2208536267896426
2181.8333333335036,-0.19489503,-0.7433364,-0.31393194,-2.7859058,0.07096527,1.4295489,0.60008,0.04,0.04,0.037106829009081466,-0.02056600924085772,0.023258412936999484,0.06523511354853438,0.13401153456960957,0.20967760692657367,0.9362945840661423,0.08800193199333946,-0.2569868042962521,0.22263399163525993
2181.8500000001704,-0.19610871,-0.74308246,-0.31588385,-2.7885766,0.071406655,1.4286693,0.5989237,0.04,0.04,0.0364140855219075,-0.020347216337113228,0.02324617305928811,0.06481941704230332,0.1325704803781768,0.2089040035576149,0.9355122007529885,0.08834951981033429,-0.25817169887754954,0.2244073494568825
2181.8666666668373,-0.19731502,-0.7428301,-0.3178238,-2.7912314,0.071845345,1.4277953,0.5977744,0.04,0.04,0.03626663118496687,-0.019733735192528634,0.023697902064889753,0.064398397095345,0.13112171393578748,0.20809518372503694,0.9347300497907243,0.08869228590591766,-0.25934340790762417,0.22617340518697768
2181.883333333504,-0.19851373,-0.7425793,-0.31975168,-2.79387,0.07228129,1.4269266,0.59663224,0.04,0.04,0.036274666334312755,-0.019212122044828805,0.02400121226424634,0.06396947698697092,0.12966805943673498,0.20725023795685082,0.9339482566710036,0.08903019648282676,-0.2605020316200982,0.22793194049370055
2181.900000000171,-0.19970472,-0.7423301,-0.32166722,-2.7964907,0.07271446,1.4260635,0.5954976,0.04,0.04,0.03786074910303583,-0.017521318232519012,0.025964142212431263,0.06353497672546932,0.12820646881533065,0.2063677247282289,0.9331672276005484,0.08936344439687227,-0.26164686384670244,0.2296824302749745
2181.916666666838,-0.20088795,-0.7420826,-0.3235702,-2.7990944,0.07314479,1.425206,0.5943702,0.04,0.04,0.036579669135727855,-0.017770747062809122,0.0250819941264524,0.06309215517874298,0.12674387518956923,0.20545251834941358,0.9323869496368915,0.08969178390678226,-0.2627784463093157,0.2314248219221397
2181.933333333505,-0.20206319,-0.74183685,-0.32546017,-2.8016813,0.07357225,1.4243543,0.59325045,0.04,0.04,0.03619300707755624,-0.01733336199274682,0.02560051449209677,0.06264453643929602,0.12527618476928604,0.2045020886899483,0.9316076151804351,0.09001531941673221,-0.26389680266370663,0.2331586823431602
2181.9500000001717,-0.20323032,-0.7415928,-0.327337,-2.8042505,0.07399677,1.4235084,0.5921384,0.04,0.04,0.03672744040594811,-0.01640781504226585,0.02623682197590016,0.062190985849596814,0.12380249648887788,0.2035163039786082,0.9308294146608541,0.09033402033094616,-0.2650018601119076,0.2348837578680337
2181.9666666668386,-0.2043893,-0.74135053,-0.3292007,-2.806801,0.074418314,1.4226685,0.5910342,0.04,0.04,0.03741054826882362,-0.015053817526508584,0.027418166117709752,0.061732498857993055,0.12232518721491444,0.2024972003217792,0.9300526231865665,0.09064804757497184,-0.2660932064180251,0.2365997782602647
2181.9833333335055,-0.20553987,-0.74110985,-0.33105108,-2.8093333,0.07483682,1.4218347,0.5899379,0.04,0.04,0.036692556224005024,-0.014793893111417211,0.027469104707755765,0.061265643196365877,0.12084758732604158,0.20144377840140526,0.9292773471276923,0.09095736660479556,-0.26717109839602093,0.238306470238437
2182.0000000001723,-0.20668203,-0.7408711,-0.33288786,-2.8118465,0.07525227,1.4210072,0.58884966,0.04,0.04,0.03734087373947759,-0.013743326610723972,0.028302142298164412,0.060793354344587006,0.1193667621548634,0.20035794131916107,0.9285038628059535,0.09126198971566475,-0.2682352130572652,0.24000353427331916
2182.0166666668392,-0.20781557,-0.74063396,-0.33471084,-2.8143415,0.07566461,1.4201854,0.5877696,0.04,0.04,0.03589297098218758,-0.014174784398746088,0.027179461382631498,0.06031406297250795,0.11788653299592494,0.19923867928374242,0.9277320433301292,0.09156186342113722,-0.2692864512139815,0.2416908937836354
2182.033333333506,-0.20894045,-0.7403988,-0.3365198,-2.8168168,0.0760738,1.4193702,0.58669776,0.04,0.04,0.03743666424900205,-0.012228102374317595,0.02936994788051983,0.0598307943125147,0.1163984991369713,0.19808513049891646,0.9269624156754062,0.09185705186613262,-0.27032379646667143,0.24336804846060628
2182.050000000173,-0.21005653,-0.74016553,-0.3383146,-2.8192728,0.0764798,1.4185613,0.5856345,0.04,0.04,0.03649546816753002,-0.012119863501003358,0.028956607747598895,0.059339566619483634,0.11491418759362262,0.19689943612609084,0.9261949856482072,0.0921477110170534,-0.27134773662526757,0.24503480108502773
2182.06666666684,-0.21116364,-0.73993427,-0.34009498,-2.8217094,0.07688255,1.4177588,0.5845796,0.04,0.04,0.0362849488215744,-0.011723357528797829,0.028978468293772153,0.0588419918918186,0.11342698488644637,0.19568100133923427,0.9254299065320757,0.09243356361039645,-0.27235836928162105,0.24669098705986928
2182.0833333335067,-0.21226172,-0.7397051,-0.34186086,-2.8241262,0.07728201,1.4169631,0.5835333,0.04,0.04,0.036376203578925015,-0.010685210736616213,0.029843940044638195,0.058340269245000166,0.11193884711650168,0.19443004202674335,0.9246674363850735,0.09271483506812334,-0.2733554281952467,0.24833626662962502
2182.1000000001736,-0.21335062,-0.73947763,-0.343612,-2.8265228,0.07767812,1.416174,0.58249575,0.04,0.04,0.03634602606363835,-0.009912920727073171,0.030232974312538463,0.05783217926496155,0.11045132836313148,0.19314736670137178,0.9239077028888963,0.09299155246453679,-0.27433910842511144,0.24997036084566726
2182.1166666668405,-0.21443027,-0.7392521,-0.3453481,-2.8288987,0.07807088,1.4153917,0.581467,0.04,0.04,0.03661588310295283,-0.009090210247530983,0.03079755661284933,0.0573174845657251,0.10896391128776105,0.19183344293413343,0.9231509381715854,0.09326368371833137,-0.27530927536499233,0.2515929918543269
2182.1333333335074,-0.21550047,-0.7390286,-0.34706917,-2.8312538,0.078460224,1.4146159,0.58044714,0.04,0.04,0.03634107230863215,-0.008625041701673664,0.030763414041179438,0.0567977687023463,0.10747702135526589,0.19048838477703145,0.9223972443758778,0.0935312485997547,-0.276266102758444,0.253204007807576
2182.1500000001743,-0.2165612,-0.73880714,-0.3487749,-2.8335886,0.078846134,1.4138473,0.57943636,0.04,0.04,0.03534436986165623,-0.008312024503112636,0.030849333114135735,0.056272468386540854,0.10599126421293589,0.18911283709985258,0.9216467929399961,0.09379429983539819,-0.27720964612857596,0.25480312100733193
2182.166666666841,-0.21761234,-0.7385876,-0.35046524,-2.8359022,0.07922857,1.4130851,0.5784347,0.04,0.04,0.036116359571813916,-0.007355555594162899,0.03110892728869219,0.055741939242544176,0.10450478588379428,0.18770616598700146,0.9208996653080491,0.09405283473509543,-0.278140136813048,0.25639020068527374
2182.183333333508,-0.21865377,-0.7383701,-0.35213998,-2.8381941,0.07960751,1.4123305,0.57744217,0.04,0.04,0.03599684392863178,-0.0060966464332457004,0.03255318215699132,0.05520676106264318,0.10301833762437992,0.18626932131564172,0.9201562956897723,0.09430694625257381,-0.27905689529720473,0.2579648049212826
2182.200000000175,-0.21968535,-0.73815477,-0.35379902,-2.8404644,0.07998284,1.4115833,0.5764592,0.04,0.04,0.03572886526777008,-0.005645718840630032,0.0323955001740206,0.05466365393794456,0.10153790801395167,0.18480268197832678,0.9194167671094482,0.0945567769406646,-0.27996020707275626,0.2595266975638219
2182.216666666842,-0.22070707,-0.73794144,-0.355442,-2.8427122,0.08035461,1.4108424,0.5754857,0.04,0.04,0.03632670725908227,-0.004987387670152277,0.032375837036702215,0.05411627207500175,0.10005954046877237,0.18331076294814136,0.9186811407233203,0.09480217067773039,-0.2808504204209026,0.26107575809234335
2182.2333333335087,-0.2217188,-0.73773026,-0.35706896,-2.8449385,0.080722734,1.4101092,0.57452166,0.04,0.04,0.034676510353559564,-0.004789668789359491,0.03234092437653935,0.05356234343849321,0.0985829435474522,0.1817879093924359,0.9179495915022423,0.09504320860640295,-0.2817274865019903,0.26261180344367074
2182.2500000001755,-0.22272041,-0.7375213,-0.35867965,-2.8471427,0.08108722,1.4093834,0.5735672,0.04,0.04,0.0351180898093606,-0.003834411726058584,0.033000973026375835,0.05300390322181046,0.09710963714393467,0.18023755095693517,0.9172223531945727,0.09527991050596447,-0.2825913030168086,0.26413452805994153
2182.2666666668424,-0.22371185,-0.7373143,-0.36027402,-2.849325,0.081448,1.4086648,0.57262254,0.04,0.04,0.03444830557668421,-0.003621127384945133,0.03244173908132364,0.052440413588518045,0.09563912520804922,0.17865995228252424,0.9164993857459308,0.0955123417921263,-0.283442415004207,0.2656438703778023
2182.2833333335093,-0.22469303,-0.7371095,-0.36185187,-2.8514848,0.081805065,1.4079537,0.5716875,0.04,0.04,0.03460630730198755,-0.002633058198500682,0.03319219855189015,0.051872336084590444,0.09416812587765463,0.17705290644186158,0.9157809937197617,0.09574046696525958,-0.284280492100387,0.2671395446916868
2182.300000000176,-0.22566377,-0.7369069,-0.363413,-2.8536212,0.08215836,1.4072503,0.5707624,0.04,0.04,0.03516779618717436,-0.0013947129039432182,0.03421902900315743,0.051299564302388356,0.09270072650188063,0.1754187117456805,0.9150674788236121,0.09596438138162189,-0.285105277197771,0.2686211600366272
2182.316666666843,-0.22662412,-0.7367066,-0.36495736,-2.855735,0.08250787,1.4065545,0.5698472,0.04,0.04,0.034122461835695006,-0.0014195568480451781,0.03348244066083694,0.05072193874484089,0.0912401941810934,0.1737607726978331,0.9143588336388089,0.09618412603105038,-0.28591716953926294,0.2700887065557841
2182.33333333351,-0.22757393,-0.7365086,-0.36648473,-2.8578253,0.08285354,1.405866,0.5689422,0.04,0.04,0.03473480918412264,-0.00026196042480219894,0.03422557499330736,0.05013909064487767,0.08978348665186443,0.17207610481381524,0.9136552925925644,0.0963997573895448,-0.2867160868970666,0.27154185424583493
2182.350000000177,-0.22851314,-0.7363127,-0.36799502,-2.8598921,0.08319537,1.4051852,0.568047,0.04,0.04,0.03395553331788648,7.50591059556216e-05,0.03409301195606007,0.049552671147132195,0.08833129562506736,0.1703686393730908,0.9129569438329359,0.09661116912170073,-0.28750221945907334,0.2729805387097594
2182.3666666668437,-0.22944164,-0.73611903,-0.36948824,-2.8619354,0.08353332,1.4045122,0.5671621,0.04,0.04,0.033870733298280165,0.0008347031655864257,0.03438512683554551,0.048961140861139986,0.08688376371578779,0.16863379482458007,0.9122639582120812,0.09681859812082623,-0.28827553959396607,0.2744045241554006
2182.3833333335106,-0.23035942,-0.73592776,-0.37096405,-2.863956,0.08386734,1.4038469,0.5662874,0.04,0.04,0.03260345326216996,0.00047509555512192936,0.033421846674308586,0.048363989420004444,0.08544080583253028,0.16687428726580986,0.9115763243561918,0.0970218839125549,-0.2890365790982995,0.27581373217892163
2182.4000000001774,-0.23126633,-0.73573864,-0.37242243,-2.8659525,0.08419742,1.4031894,0.5654232,0.04,0.04,0.03349659496676427,0.0021666409194515124,0.03482977749733607,0.04776360656050771,0.08400003907779797,0.16508971229632374,0.910894361339165,0.09722127281435991,-0.2897849558125443,0.2772078028800636
2182.4166666668443,-0.23216234,-0.7355518,-0.37386328,-2.8679242,0.08452355,1.40254,0.5645693,0.04,0.04,0.033863058300043214,0.003284225815602948,0.03559734534022141,0.04715913959842554,0.08256385499137876,0.1632827826465435,0.9102183473045634,0.09741674486769115,-0.29052036661748143,0.2785865298789167
2182.433333333511,-0.23304734,-0.7353673,-0.3752865,-2.8698723,0.08484571,1.4018986,0.56372577,0.04,0.04,0.03232276496656361,0.002764012838707419,0.0344565366219296,0.04655068424314664,0.0811364044830322,0.16145614644177148,0.9095482212708501,0.09760822995259413,-0.2912434031922607,0.27994990038495143
2182.450000000178,-0.2339213,-0.7351851,-0.3766919,-2.871796,0.085163854,1.4012653,0.5628929,0.04,0.04,0.03286109748492638,0.004009467784882315,0.03522943213781771,0.045937402836488235,0.07971440955017854,0.1596058125382201,0.9088842050522565,0.09779593621070123,-0.29195394518088613,0.2812976191874297
2182.466666666845,-0.23478422,-0.73500526,-0.37807944,-2.8736951,0.08547798,1.4006397,0.56207067,0.04,0.04,0.032382317595192056,0.00420293476496858,0.03478202416764553,0.045319486510536224,0.07829945504929846,0.1577348696693221,0.9082263393029738,0.09797980368282815,-0.2926522820801439,0.2826296454016769
2182.483333333512,-0.23563592,-0.73482776,-0.37944904,-2.87557,0.08578801,1.400022,0.5612589,0.04,0.04,0.03189864150581201,0.00471929147568273,0.03485321981132605,0.04469798086334497,0.07688813940392436,0.1558418495058761,0.9075747679928922,0.09815977606985139,-0.29333848505568005,0.2839458259066387
2182.5000000001787,-0.23647644,-0.7346527,-0.38080066,-2.8774202,0.086094,1.3994128,0.5604578,0.04,0.04,0.03196672356740038,0.005708989425326494,0.03553177249306927,0.0440736637203507,0.07548256170082697,0.15392826180981184,0.906929736191233,0.0983360489351508,-0.29401227860732815,0.28524595548412435
2182.5166666668456,-0.23730563,-0.73448,-0.38213414,-2.8792458,0.08639591,1.3988115,0.5596676,0.04,0.04,0.031436492863656795,0.005770970791341146,0.03497419514417732,0.043445721415707655,0.07408532278086813,0.15199572855131077,0.9062912336420978,0.09850860677018562,-0.29467414654296736,0.2865299313769072
2182.5333333335125,-0.2381235,-0.73430955,-0.38344938,-2.8810458,0.08669367,1.3982186,0.55888796,0.04,0.04,0.03174607322260492,0.007257939635546551,0.03609429875304215,0.042814469837414285,0.07269313169896426,0.1500441572570672,0.9056595983849957,0.09867750576268201,-0.2953236579790156,0.28779746132910505
2182.5500000001794,-0.23893,-0.7341415,-0.38474625,-2.8828208,0.08698727,1.3976341,0.5581194,0.04,0.04,0.031079045732163024,0.007215143246389055,0.03551823058637327,0.042179292496537804,0.07131055025341985,0.1480750867433487,0.9050348425295927,0.09884288726986648,-0.29596118240009056,0.28904843185170925
2182.5666666668462,-0.23972513,-0.73397595,-0.38602483,-2.8845708,0.08727671,1.3970577,0.5573613,0.04,0.04,0.03082228902406836,0.00758696921243085,0.03517091498279612,0.04154093117349462,0.06993544114152003,0.14609080270014374,0.9044170128153906,0.09900448642098342,-0.2965868901647442,0.2902829570970521
2182.583333333513,-0.24050882,-0.73381275,-0.387285,-2.8862958,0.08756197,1.3964896,0.55661446,0.04,0.04,0.03029121095015075,0.008143693389314755,0.03539734410954454,0.040899519709142046,0.06856742540235071,0.14408560585015967,0.9038062408740568,0.09916273557608299,-0.2972008713237516,0.2915007254100359
2182.60000000018,-0.24128091,-0.73365194,-0.3885266,-2.8879952,0.0878431,1.39593,0.55587894,0.04,0.04,0.030407513078078985,0.00886164502123532,0.03582888933469919,0.04025594812857359,0.06720626159110313,0.14206749877214578,0.9032027127893574,0.09931763569474765,-0.2978030848031764,0.2927015366062556
2182.616666666847,-0.24204145,-0.7334936,-0.38974965,-2.8896692,0.08812001,1.3953788,0.5551537,0.04,0.04,0.030132080438183273,0.00935104617044158,0.0356337104544413,0.039607491091915956,0.06585277849693429,0.1400336949120779,0.9026065607421432,0.09946878067382385,-0.29839349664846565,0.29388548677062104
2182.6333333335137,-0.24279042,-0.7333377,-0.39095408,-2.8913178,0.08839271,1.3948358,0.55443984,0.04,0.04,0.029534373472661635,0.009496741605732884,0.035197089051308694,0.03895977377077104,0.06450886962179843,0.13798542350849943,0.9020177387144888,0.09961662862195288,-0.29897259844727947,0.29505238810095724
2182.6500000001806,-0.24352778,-0.7331843,-0.39213985,-2.8929408,0.088661194,1.394301,0.55373704,0.04,0.04,0.02970440395595464,0.010337336018459431,0.03560114370004808,0.038308900041669515,0.06317088737502902,0.13592208809914297,0.9014364496843742,0.09976112725521308,-0.2995402143745634,0.2962021347688781
2182.6666666668475,-0.24425349,-0.73303324,-0.39330706,-2.894538,0.08892545,1.3937751,0.55304533,0.04,0.04,0.029115423063297285,0.01093192753745531,0.03587444687793706,0.03765445408885598,0.06184225867803327,0.1338448906712033,0.9008628510449148,0.09990238868024232,-0.3000962554946958,0.29733461584765336
2182.6833333335144,-0.24496754,-0.7328846,-0.39445522,-2.896109,0.08918548,1.3932573,0.5523647,0.04,0.04,0.029228462532882027,0.011234952596775316,0.035552280170625394,0.036997943374312364,0.060522960631083825,0.13175687861293006,0.9002969863944535,0.1000403033407766,-0.3006411063809512,0.29844965932396106
2182.7000000001813,-0.24566986,-0.7327385,-0.3955847,-2.8976557,0.08944124,1.3927482,0.55169517,0.04,0.04,0.02740707279524912,0.010654672477244942,0.03451439517827559,0.03634189730865915,0.05921127551422445,0.12965840098193954,0.8997387930280754,0.10017492145363743,-0.3011750771724547,0.29954742916991556
2182.716666666848,-0.2463605,-0.73259485,-0.3966953,-2.8991756,0.08969275,1.3922471,0.55103695,0.04,0.04,0.029338921568000664,0.012630657908849208,0.03589441148960093,0.035682608579328035,0.057906089005202714,0.1275438285172148,0.8991885576072128,0.10030642666616663,-0.301697862138072,0.30062760787898696
2182.733333333515,-0.2470394,-0.73245364,-0.39778706,-2.90067,0.08993995,1.3917551,0.5503898,0.04,0.04,0.02746805183226897,0.012399015348241171,0.03545637414000824,0.03502062877482205,0.056611179510690585,0.12542017225900517,0.8986463782611308,0.10043480992219415,-0.3022094981910987,0.301690163905172
2182.750000000182,-0.24770658,-0.73231477,-0.39885995,-2.9021387,0.09018289,1.3912716,0.5497539,0.04,0.04,0.027554315116584682,0.012720009169714386,0.0351023814849194,0.03435771932554247,0.0553260644556224,0.12328788572224839,0.8981122166134179,0.10056011947572968,-0.3027103648025124,0.3027351049711444
2182.766666666849,-0.24836199,-0.73217845,-0.39991394,-2.903582,0.09042158,1.3907964,0.5491292,0.039999995,0.04,0.026956131977762254,0.01260036331126868,0.0345046059178733,0.03369374545494692,0.05404985068288226,0.1211474519251074,0.8975860764442156,0.10068230204212546,-0.3032007247719862,0.30376245641408545
2182.7833333335157,-0.24900565,-0.73204464,-0.400949,-2.9049988,0.090655975,1.3903298,0.54851574,0.039999988,0.04,0.027855260532771986,0.014362721785574073,0.03595399151001821,0.03302880206846938,0.05278021977364667,0.1189959615697311,0.8970683315583482,0.10080155712094284,-0.3036800039019921,0.3047718980273622
2182.8000000001825,-0.24963754,-0.7319132,-0.40196514,-2.90639,0.09088611,1.3898718,0.54791343,0.03999997,0.04,0.026398497249369157,0.013611692809564757,0.03464332395812786,0.032363692014831164,0.05152168917053736,0.11683997380799101,0.8965588054731706,0.10091780903730099,-0.3041488506162072,0.305763602831456
2182.8166666668494,-0.2502577,-0.73178434,-0.4029624,-2.9077551,0.09111194,1.3894222,0.5473223,0.039999958,0.04,0.026692504803071948,0.01436183692593851,0.03487486401445583,0.031696194729712544,0.050272802146908976,0.1146755187321592,0.896057642977392,0.10103109625541003,-0.3046071785949095,0.3067374851557593
2182.8333333335163,-0.25086617,-0.73165786,-0.40394068,-2.9090943,0.091333486,1.3889811,0.54674226,0.03999995,0.04,0.026236663436618457,0.014782930758291957,0.034884874476015515,0.031028445773473363,0.049034333859837194,0.11250498069746478,0.8955649222660818,0.10114152270034986,-0.30505506336232074,0.30769346874675774
2182.850000000183,-0.25146276,-0.73153377,-0.4049002,-2.9104068,0.09155074,1.3885487,0.5461735,0.039999943,0.04,0.026558954128352852,0.015751301304142706,0.035586720771596525,0.030361148687397314,0.04780432058990874,0.11032987863017532,0.8950808495375345,0.10124919090604666,-0.30549226409128327,0.3086314156277969
2182.86666666685,-0.2520477,-0.73141223,-0.4058407,-2.9116943,0.09176373,1.3881247,0.54561585,0.039999932,0.04,0.02496251754522394,0.014484288547556012,0.0336167180449487,0.029691936623896676,0.04658822741459102,0.10815282845006075,0.8946051567037334,0.10135394436405844,-0.3059196360531901,0.30955155925632066
2182.883333333517,-0.25262082,-0.7312932,-0.4067624,-2.912956,0.091972426,1.3877093,0.5450695,0.039999925,0.04,0.0252232003933317,0.015521020636558025,0.03436393691862438,0.029025206425604383,0.0453796373005293,0.10597137142581231,0.8941380483878324,0.10145598692674981,-0.3063369207999162,0.3104537390606584
2182.900000000184,-0.25318223,-0.7311767,-0.40766522,-2.914192,0.09217686,1.3873023,0.5445342,0.039999913,0.04,0.02499815990388843,0.015802994375066493,0.03418609209965284,0.028357963018502075,0.04418013798063955,0.10378611985852083,0.8936795758174408,0.1015552412844539,-0.30674420338370084,0.31133798744276964
2182.9166666668507,-0.253732,-0.7310626,-0.4085493,-2.9154017,0.09237701,1.3869038,0.54401016,0.039999906,0.04,0.02512545341581962,0.016609347433016453,0.03451890000628621,0.027690475700194096,0.04299278735384014,0.101598595208624,0.8932298517218914,0.10165194090347865,-0.3071414079405329,0.31220421270660464
2182.9333333335176,-0.2542701,-0.7309509,-0.40941453,-2.916586,0.09257293,1.3865138,0.54349726,0.039999895,0.04,0.024167240897887687,0.016215717348189163,0.03380265721770748,0.027024113457118446,0.041816386412125255,0.0994130875903354,0.8927888189230655,0.10174602195909867,-0.3075288945195275,0.313052473009005
2182.9500000001844,-0.25479653,-0.7308416,-0.41026103,-2.9177449,0.09276461,1.3861324,0.54299545,0.039999887,0.04,0.023735059947260773,0.016262312564874204,0.03337505963941223,0.026358225539743495,0.04064954762810773,0.09722627566695521,0.8923564532701749,0.10183747978480863,-0.3079068754868292,0.3138828508314702
2182.9666666668513,-0.25531134,-0.73073465,-0.4110889,-2.9188774,0.09295204,1.3857589,0.5425048,0.039999884,0.04,0.024714821933402575,0.017539849361575266,0.03413606101168032,0.025694591111905467,0.039491095143270434,0.09503958254887582,0.8919329335755586,0.10192645062050712,-0.30827510826145194,0.3146952466968539
2182.983333333518,-0.2558145,-0.7306303,-0.41189823,-2.9199853,0.093135275,1.3853941,0.542025,0.03999987,0.04,0.022613690076900284,0.01625078684489578,0.03266929715610711,0.025031143507791787,0.03834622356244939,0.09285645375630011,0.8915181136479662,0.10201279301470215,-0.30863406430684137,0.3154898690106419
2183.000000000185,-0.25630623,-0.7305283,-0.41268912,-2.9210672,0.09331429,1.3850377,0.54155636,0.039999858,0.04,0.023691358499999815,0.017858411551402442,0.03368132848754479,0.024370556614998175,0.037210293873684755,0.09067351004210435,0.8911121834333668,0.10209683693331352,-0.308983406338607,0.31626660752001845
2183.016666666852,-0.25678638,-0.7304288,-0.4134612,-2.922125,0.093489125,1.3846895,0.5410986,0.03999985,0.04,0.02186475744718752,0.016130367646133292,0.0316874808394596,0.023709778343080544,0.03608630987031283,0.08849411575052074,0.8907148810746366,0.10217821627731982,-0.3093240840205343,0.31702558854994434
2183.033333333519,-0.25725505,-0.7303318,-0.41421494,-2.923157,0.09365979,1.3843496,0.5406518,0.039999835,0.04,0.023272408251506782,0.018322331827447247,0.03353034324303783,0.02305439710314761,0.03497010031539135,0.08631764603183249,0.8903265749965509,0.10225729278963833,-0.3096552464772435,0.31776668210396564
2183.0500000001857,-0.25771236,-0.7302369,-0.41495025,-2.9241633,0.09382629,1.3840178,0.5402159,0.039999824,0.04,0.022575011128256328,0.01805839149420785,0.032727610716337674,0.022400041467706504,0.03386684946030191,0.08414756988102923,0.8899471209661132,0.10233408515259482,-0.30997738410800796,0.3184899970825838
2183.0666666668526,-0.25815836,-0.7301442,-0.41566733,-2.925145,0.093988664,1.3836944,0.5397907,0.039999824,0.04,0.02168565729128158,0.017717355955049197,0.032103928651194824,0.02174829576069756,0.0327753734812527,0.08198490850236607,0.8895764667427614,0.10240854187894408,-0.3102906688491816,0.31919570985967327
2183.0833333335195,-0.25859302,-0.73005384,-0.41636625,-2.9261014,0.09414692,1.3833793,0.5393764,0.039999817,0.04,0.021743222784653682,0.018188443137012733,0.0322781136743,0.021099496535950057,0.031694519145081056,0.07982815400111118,0.8892147030076816,0.10248082056286033,-0.31059503814322303,0.31988375334257496
2183.1000000001864,-0.25901645,-0.7299663,-0.4170471,-2.9270332,0.0943011,1.3830725,0.53897256,0.039999805,0.04,0.021596060155171237,0.018204378586272885,0.0319952535903445,0.020453503370082303,0.030625885148297154,0.07768071002557936,0.8888618971149764,0.10255074025996042,-0.3108903978885266,0.3205542606642639
2183.1166666668532,-0.25942862,-0.7298812,-0.41770998,-2.9279404,0.09445118,1.3827736,0.5385796,0.039999798,0.04,0.021137533067672187,0.018093314361106172,0.03144345480547983,0.01980962220133306,0.029572872041591584,0.07554147918694776,0.8885179187594083,0.10261847472720854,-0.31117720102082524,0.3212072636989323
