rsonawane2002/My_IMU/logs_2/traj_448/imu_448.csv
time,j1,j2,j3,j4,j5,j6,j7,gripper1,gripper2,imu_ax,imu_ay,imu_az,imu_gx,imu_gy,imu_gz
2177.8833333334533,0.00016700293,-0.785875,4.0107683e-05,-2.3551247,9.29385e-05,1.570997,0.786,0.04,0.04,-9.52269,0.035139597952365875,0.112504154,-8.449063e-08,-0.0011641274904832244,5.7833836e-07
2177.90000000012,0.00016700172,-0.78576016,4.010736e-05,-2.3552213,9.297577e-05,1.5709941,0.786,0.04,0.04,-9.8344965,0.0006220709765329957,0.009050303,2.0597138e-07,-0.0022382400929927826,1.3879525e-06
2177.916666666787,0.00016697218,-0.78565425,4.0056482e-05,-2.35531,9.3022194e-05,1.5709913,0.786,0.04,0.04,-9.832395,0.0005332909640856087,0.007541906,2.178001e-06,-0.003220793092623353,4.5449356e-06
2177.933333333454,0.00016686528,-0.78555685,3.9872277e-05,-2.355391,9.310679e-05,1.5709884,0.786,0.04,0.039999995,-9.830098,0.0003783585561905056,0.0062796716,7.853842e-06,-0.004117061849683523,1.28908505e-05
2177.950000000121,0.00016660964,-0.78546715,3.9436563e-05,-2.3554654,9.3235285e-05,1.5709856,0.786,0.04,0.04,-9.828347,0.0001295803813263774,0.004930091,1.83681e-05,-0.0049240561202168465,2.603013e-05
2177.9666666667877,0.00016611283,-0.7853846,3.859812e-05,-2.3555338,9.345385e-05,1.5709827,0.786,0.04,0.04,-9.82636,-0.00016354606486856937,0.0037775515,3.4572317e-05,-0.005644702352583408,4.8076563e-05
2177.9833333334545,0.00016526443,-0.7853084,3.7176884e-05,-2.3555994,9.379915e-05,1.5709798,0.7859998,0.04,0.04,-9.824433,-0.0005137716070748866,0.0027075615,5.7607813e-05,-0.006280948407948017,7.921516e-05
2178.0000000001214,0.00016393705,-0.78523827,3.4966477e-05,-2.3556585,9.432777e-05,1.570977,0.78599787,0.04,0.04,-9.8227,-0.0008800862124189734,0.0017542681,8.892984e-05,-0.006846341770142317,0.00012256726
2178.0166666667883,0.00016198908,-0.7851736,3.1737545e-05,-2.3557167,9.508687e-05,1.570974,0.78599596,0.04,0.04,-9.820759,-0.0013447520323097706,0.00072795013,0.00013553971,-0.007320682052522898,0.0001776157
2178.033333333455,0.00015926543,-0.78511405,2.7239812e-05,-2.355773,9.6133765e-05,1.570971,0.78599393,0.04,0.04,-9.819354,-0.0018071138765662909,-0.00017287815,0.00019051445,-0.007728789933025837,0.00024608898
2178.050000000122,0.00015559964,-0.785059,2.1204887e-05,-2.3558247,9.75287e-05,1.5709678,0.7859901,0.04,0.04,-9.817601,-0.002252145204693079,-0.0009864441,0.00025389178,-0.00806212704628706,0.00032896455
2178.066666666789,0.00015081515,-0.78500795,1.33481e-05,-2.355876,9.932226e-05,1.5709641,0.7859853,0.03999999,0.03999999,-9.815728,-0.0027997505385428667,-0.0018915951,0.00033349716,-0.00830984115600586,0.0004274367
2178.083333333456,0.00014472613,-0.78496075,3.3702997e-06,-2.355927,0.000101595324,1.5709574,0.78597957,0.039999988,0.039999988,-9.814199,-0.003322017379105091,-0.0027092933,0.0004260015,-0.008487852290272713,0.0005414054
2178.1000000001227,0.00013713911,-0.78491694,-9.039589e-06,-2.355978,0.00010441848,1.5709506,0.78597194,0.039999984,0.03999998,-9.812689,-0.003839304205030203,-0.003454291,0.0005298946,-0.0086066834628582,0.0006732192
2178.1166666667896,0.00012785401,-0.7848761,-2.4203597e-05,-2.3560297,0.000107863176,1.5709436,0.7859624,0.03999998,0.039999977,-9.811083,-0.004291940480470657,-0.004242178,0.00064982387,-0.008652073331177235,0.00082144747
2178.1333333334564,0.00011666488,-0.7848381,-4.245272e-05,-2.356086,0.00011200526,1.5709343,0.7859511,0.039999977,0.03999997,-9.8095455,-0.004875075072050095,-0.0051269876,0.0007850981,-0.00862616952508688,0.0009883124
2178.1500000001233,0.00010336092,-0.7848023,-6.412594e-05,-2.356144,0.00011692055,1.5709237,0.7859378,0.03999997,0.03999996,-9.808497,-0.005383647978305817,-0.0059404317,0.00093493005,-0.00855303555727005,0.0011725406
2178.16666666679,8.7727145e-05,-0.7847688,-8.9568595e-05,-2.3562028,0.0001226877,1.5709122,0.7859225,0.039999966,0.039999954,-9.806948,-0.0058596376329660416,-0.006858746,0.0010989753,-0.008411831222474575,0.001376183
2178.183333333457,6.954555e-05,-0.7847371,-0.000119131066,-2.356268,0.00012938489,1.5708978,0.7859052,0.03999997,0.039999958,-9.805345,-0.006206275895237923,-0.0077442215,0.0012768053,-0.008196453563869,0.0015978159
2178.200000000124,4.8595393e-05,-0.78470707,-0.00015316806,-2.3563344,0.00013709249,1.5708826,0.785885,0.039999973,0.03999996,-9.804292,-0.00675247935578227,-0.008726915,0.0014684334,-0.007937951944768429,0.0018385606
2178.216666666791,2.465386e-05,-0.7846786,-0.00019203727,-2.3564079,0.00014589148,1.5708643,0.7858619,0.039999973,0.03999996,-9.802526,-0.007143390364944935,-0.009791633,0.0016760197,-0.007600994314998388,0.0020985673
2178.2333333334577,-2.5032143e-06,-0.7846511,-0.00023609889,-2.3564878,0.0001558635,1.5708443,0.7858358,0.039999973,0.039999958,-9.801474,-0.0074934326112270355,-0.01084261,0.0018988798,-0.007217923179268837,0.0023788812
2178.2500000001246,-3.310076e-05,-0.7846247,-0.0002857146,-2.3565707,0.00016708908,1.570822,0.78580636,0.039999977,0.03999996,-9.800474,-0.007643070071935654,-0.01201743,0.0021371047,-0.006781491916626692,0.0026778646
2178.2666666667915,-6.736414e-05,-0.784599,-0.0003412461,-2.3566608,0.00017965028,1.5707961,0.7857733,0.039999977,0.03999996,-9.798636,-0.00806089211255312,-0.013315029,0.0023907325,-0.0062729306519031525,0.0029964203
2178.2833333334584,-0.00010551891,-0.7845742,-0.00040305578,-2.3567588,0.00019362949,1.5707679,0.78573656,0.03999998,0.03999996,-9.797515,-0.00825563445687294,-0.01462394,0.0026605518,-0.005717191845178604,0.003335471
2178.3000000001252,-0.00014778979,-0.78454965,-0.00047150478,-2.3568645,0.000209107,1.5707371,0.7856959,0.03999998,0.03999996,-9.796522,-0.008211508393287659,-0.016037906,0.0029451044,-0.005107143893837929,0.0036932903
2178.316666666792,-0.00019440104,-0.7845255,-0.00054695347,-2.3569782,0.00022616505,1.5707029,0.78565115,0.039999984,0.03999996,-9.795135,-0.0084761381149292,-0.017643768,0.0032451022,-0.004442787263542414,0.0040715626
2178.333333333459,-0.0002455755,-0.7845017,-0.00062975986,-2.3571048,0.00024488327,1.5706654,0.78560203,0.039999984,0.03999996,-9.7939005,-0.008493524044752121,-0.01930865,0.003559837,-0.0037258919328451157,0.0044685323
2178.350000000126,-0.00030153472,-0.78447783,-0.00072027993,-2.3572397,0.00026534282,1.570624,0.7855484,0.039999988,0.03999996,-9.793284,-0.00842350348830223,-0.021091005,0.0038896156,-0.0029773046262562275,0.0048858654
2178.3666666667928,-0.0003624985,-0.7844539,-0.00081886654,-2.3573835,0.00028762285,1.5705789,0.7854899,0.039999988,0.03999996,-9.792263,-0.008056029677391052,-0.023023007,0.0042342097,-0.002174746710807085,0.0053217337
2178.3833333334596,-0.00042868473,-0.7844297,-0.00092586986,-2.3575392,0.00031180293,1.5705303,0.7854265,0.03999999,0.03999996,-9.79073,-0.008059297688305378,-0.025138775,0.00459337,-0.0013185014249756932,0.005777727
2178.4000000001265,-0.0005003089,-0.78440523,-0.0010416368,-2.3577058,0.0003379598,1.5704778,0.7853579,0.03999999,0.039999958,-9.789829,-0.007754512131214142,-0.027387563,0.004967095,-0.0004202221753075719,0.006252823
2178.4166666667934,-0.00057758397,-0.7843801,-0.0011665098,-2.3578842,0.00036617203,1.570421,0.7852839,0.03999999,0.039999958,-9.788775,-0.007365883328020573,-0.029781507,0.005355225,0.0005247242515906692,0.00674618
2178.4333333334603,-0.00066072075,-0.78435445,-0.001300827,-2.3580742,0.00039651518,1.5703601,0.7852044,0.039999995,0.039999958,-9.788049,-0.006607802584767342,-0.03232281,0.0057569295,0.0015136352740228176,0.0072584283
2178.450000000127,-0.000749927,-0.78432816,-0.0014449223,-2.3582788,0.00042906502,1.570295,0.78511906,0.039999995,0.039999954,-9.786655,-0.00628606416285038,-0.03508287,0.0061726547,0.0025497993919998407,0.007790272
2178.466666666794,-0.0008454076,-0.7843012,-0.0015991254,-2.3584957,0.00046389687,1.5702255,0.78502774,0.04,0.03999996,-9.785925,-0.005597871728241444,-0.037999716,0.0066018975,0.0036208643577992916,0.0083408095
2178.483333333461,-0.00094736397,-0.7842734,-0.0017637607,-2.358726,0.00050107914,1.5701513,0.78493017,0.04,0.039999966,-9.784834,-0.0048177242279052734,-0.04109952,0.0070444755,0.004738991614431143,0.008908574
2178.500000000128,-0.0010559947,-0.7842447,-0.0019391467,-2.3589709,0.00054068875,1.5700723,0.7848262,0.04,0.03999996,-9.784218,-0.00360923632979393,-0.044348147,0.0075005554,0.005899395328015089,0.009495841
2178.5166666667947,-0.0011714954,-0.78421503,-0.0021255983,-2.3592308,0.0005827952,1.5699881,0.7847157,0.04,0.03999996,-9.78297,-0.0029026512056589127,-0.047855865,0.007969771,0.0070980205200612545,0.010101564
2178.5333333334615,-0.0012940579,-0.78418434,-0.0023234233,-2.3595061,0.0006274674,1.569899,0.7845985,0.04,0.039999958,-9.782116,-0.001781649887561798,-0.051549032,0.008451354,0.008333473466336727,0.010724432
2178.5500000001284,-0.0014238702,-0.78415227,-0.0025329252,-2.359797,0.00067477365,1.5698045,0.7844744,0.04,0.039999958,-9.781702,-0.0002145916223526001,-0.055414017,0.008944842,0.009605024009943008,0.011364958
2178.5666666667953,-0.0015611169,-0.7841191,-0.0027543998,-2.3601046,0.0007247809,1.5697048,0.7843431,0.04,0.03999995,-9.780448,0.0008145850151777267,-0.059580937,0.009450593,0.010911962948739529,0.012023162
2178.583333333462,-0.0017059795,-0.78408474,-0.0029881396,-2.3604279,0.0007775546,1.5695993,0.78420466,0.04,0.039999947,-9.779675,0.002301810309290886,-0.06391991,0.009968366,0.012252888642251492,0.012698747
2178.600000000129,-0.0018586348,-0.7840489,-0.003234429,-2.3607678,0.0008331596,1.5694884,0.78405875,0.04,0.03999994,-9.77876,0.003912540152668953,-0.068490595,0.010497101,0.013630983419716358,0.0133916
2178.616666666796,-0.0020192564,-0.7840117,-0.003493547,-2.3611252,0.00089165784,1.5693716,0.7839052,0.04,0.03999994,-9.778401,0.006013261154294014,-0.07327291,0.011036866,0.015044070780277252,0.014101402
2178.633333333463,-0.002188015,-0.7839733,-0.0037657672,-2.3615005,0.00095311104,1.5692487,0.7837439,0.04,0.03999993,-9.777145,0.007525883615016937,-0.07835269,0.011587895,0.016489585861563683,0.014827781
2178.6500000001297,-0.0023650746,-0.78393304,-0.004051357,-2.361894,0.0010175793,1.5691199,0.78357476,0.04,0.03999993,-9.776406,0.009533608332276344,-0.083623245,0.012148876,0.01796528324484825,0.015570927
2178.6666666667966,-0.0025505985,-0.7838912,-0.0043505747,-2.3623059,0.0010851213,1.568985,0.7833975,0.04,0.03999992,-9.775691,0.011688238009810448,-0.08920232,0.012720084,0.01947057992219925,0.016331023
2178.6833333334635,-0.0027447448,-0.7838478,-0.004663676,-2.3627362,0.0011557941,1.5688437,0.783212,0.04,0.039999917,-9.775466,0.01436867006123066,-0.09496699,0.013301235,0.021004509180784225,0.017107213
2178.7000000001303,-0.0029476664,-0.7838026,-0.004990909,-2.3631864,0.0012296542,1.5686961,0.7830181,0.04,0.039999913,-9.774192,0.01641145534813404,-0.10106506,0.013891806,0.022568805143237114,0.017899524
2178.716666666797,-0.003159514,-0.7837556,-0.0053325165,-2.3636558,0.0013067544,1.5685424,0.7828158,0.04,0.039999913,-9.773548,0.01899062655866146,-0.10741733,0.014491746,0.024158872663974762,0.018707534
2178.733333333464,-0.003380433,-0.78370696,-0.00568873,-2.3641448,0.0013871496,1.5683817,0.7826048,0.04,0.03999991,-9.77285,0.021725939586758614,-0.1140349,0.015099747,0.02577587403357029,0.019531915
2178.750000000131,-0.0036105663,-0.7836565,-0.0060597793,-2.3646545,0.0014708895,1.5682142,0.782385,0.04,0.039999906,-9.772624,0.025018757209181786,-0.120859206,0.015716845,0.02742103487253189,0.020371368
2178.766666666798,-0.0038500514,-0.7836042,-0.006445888,-2.3651848,0.0015580247,1.5680403,0.7821563,0.04,0.039999902,-9.771497,0.02764325588941574,-0.1280613,0.016341927,0.029087115079164505,0.021226652
2178.7833333334647,-0.0040990226,-0.7835501,-0.0068472694,-2.3657353,0.0016486037,1.5678594,0.7819186,0.04,0.0399999,-9.770845,0.030842110514640808,-0.13552046,0.016974736,0.030778011307120323,0.022097256
2178.8000000001316,-0.004357609,-0.78349406,-0.0072641345,-2.366307,0.0017426739,1.5676717,0.7816716,0.04,0.039999895,-9.770633,0.034628726541996,-0.14321099,0.017614668,0.032496143132448196,0.022983091
2178.8166666667985,-0.0046259365,-0.783436,-0.007696683,-2.3669,0.0018402803,1.5674769,0.7814154,0.04,0.03999989,-9.7694435,0.037710025906562805,-0.15127587,0.018262304,0.034235961735248566,0.023883903
2178.8333333334654,-0.0049041286,-0.78337586,-0.0081451135,-2.3675146,0.001941467,1.5672749,0.7811498,0.04,0.039999887,-9.768782,0.04138915240764618,-0.15960363,0.018916477,0.03599702939391136,0.024799759
2178.8500000001322,-0.0051923036,-0.78331375,-0.008609615,-2.368151,0.002046277,1.5670657,0.7808746,0.04,0.03999988,-9.768154,0.04523751884698868,-0.1682302,0.019576643,0.037778038531541824,0.025730263
2178.866666666799,-0.0054905717,-0.7832496,-0.009090373,-2.3688097,0.0021547512,1.5668492,0.7805899,0.04,0.03999988,-9.768073,0.04970107972621918,-0.17711186,0.020243587,0.0395798534154892,0.026675483
2178.883333333466,-0.005799046,-0.7831834,-0.009587559,-2.369491,0.0022669297,1.5666251,0.7802954,0.04,0.039999872,-9.766877,0.05343382805585861,-0.18639004,0.020915648,0.0413997508585453,0.02763516
2178.900000000133,-0.006117828,-0.7831151,-0.010101346,-2.3701947,0.0023828503,1.5663936,0.7799911,0.04,0.03999987,-9.766262,0.0577964223921299,-0.19592646,0.02159335,0.04323519021272659,0.02860925
2178.9166666667998,-0.0064470246,-0.7830447,-0.010631902,-2.3709216,0.0025025501,1.5661546,0.77967685,0.04,0.03999988,-9.765553,0.062326110899448395,-0.2057815,0.02227562,0.045090820640325546,0.029597547
2178.9333333334666,-0.0067867306,-0.78297204,-0.011179379,-2.3716717,0.0026260647,1.5659082,0.77935255,0.04,0.039999872,-9.765599,0.06751008331775665,-0.21591154,0.0229629,0.04696022719144821,0.030599853
2178.9500000001335,-0.0071370406,-0.7828973,-0.011743925,-2.372445,0.0027534286,1.565654,0.77901816,0.04,0.039999872,-9.764322,0.07192978262901306,-0.2264695,0.023654418,0.048846207559108734,0.031616263
2178.9666666668004,-0.007498045,-0.7828204,-0.012325692,-2.373242,0.002884674,1.5653919,0.7786736,0.04,0.039999865,-9.763685,0.07700353860855103,-0.23727015,0.024349874,0.05074591189622879,0.032647297
2178.9833333334673,-0.007869829,-0.7827411,-0.012924818,-2.374063,0.0030198318,1.5651219,0.7783187,0.04,0.039999865,-9.762995,0.08225267380475998,-0.2484047,0.025048928,0.05266023054718971,0.033691403
2179.000000000134,-0.008252474,-0.78265953,-0.01354143,-2.3749075,0.0031589323,1.5648439,0.77795345,0.04,0.039999858,-9.763097,0.08817192912101746,-0.25983793,0.025751285,0.05458194017410278,0.034749232
2179.016666666801,-0.008646063,-0.78257567,-0.014175658,-2.3757758,0.0033020023,1.5645581,0.7775777,0.04,0.039999854,-9.761684,0.09331253170967102,-0.27169305,0.026456693,0.056518279016017914,0.035820667
2179.033333333468,-0.009050666,-0.78248966,-0.01482762,-2.3766687,0.0034490703,1.5642643,0.77719164,0.04,0.039999843,-9.760984,0.09912338852882385,-0.28383142,0.027164903,0.058467455208301544,0.03690547
2179.050000000135,-0.009466355,-0.78240126,-0.015497429,-2.3775856,0.0036001618,1.5639627,0.776795,0.04,0.039999854,-9.760953,0.10561572015285492,-0.29622573,0.027874473,0.06042588874697685,0.038003515
2179.0666666668017,-0.009893194,-0.78231037,-0.016185194,-2.3785276,0.0037553,1.563653,0.7763877,0.04,0.03999985,-9.759571,0.11132475733757019,-0.30909768,0.028585687,0.062395550310611725,0.03911489
2179.0833333334685,-0.010331246,-0.78221726,-0.016891014,-2.379494,0.003914508,1.563335,0.7759697,0.04,0.03999985,-9.758888,0.11771303415298462,-0.32224473,0.029298767,0.064371757209301,0.04023929
2179.1000000001354,-0.010780572,-0.782122,-0.017614983,-2.380485,0.0040778085,1.5630089,0.7755409,0.04,0.03999985,-9.758103,0.12429387867450714,-0.33570516,0.030012976,0.06635650247335434,0.041376937
2179.1166666668023,-0.011241231,-0.7820241,-0.018357199,-2.3815012,0.004245222,1.5626744,0.7751014,0.04,0.03999989,-9.757987,0.131574809551239,-0.34945834,0.03072828,0.06834960728883743,0.042528775
2179.133333333469,-0.011713271,-0.78192353,-0.019117735,-2.3825424,0.0044167647,1.5623319,0.7746511,0.04,0.0399999,-9.756567,0.13805046677589417,-0.36368287,0.031443484,0.07034613192081451,0.04369188
2179.150000000136,-0.012196736,-0.7818209,-0.019896671,-2.3836086,0.004592454,1.5619808,0.7741899,0.04,0.039999895,-9.755718,0.14522750675678253,-0.37822014,0.03215866,0.07235031574964523,0.04486787
2179.166666666803,-0.012691678,-0.78171605,-0.020694075,-2.3847005,0.0047723064,1.5616215,0.7737177,0.04,0.03999989,-9.754894,0.15261134505271912,-0.39303395,0.03287362,0.07435743510723114,0.046057407
2179.18333333347,-0.013198134,-0.78160816,-0.021510022,-2.385818,0.0049563367,1.5612541,0.7732344,0.04,0.039999887,-9.754687,0.1606791466474533,-0.4081542,0.033588234,0.07636897265911102,0.04725751
2179.2000000001367,-0.013716137,-0.78149813,-0.022344563,-2.3869605,0.0051445593,1.5608783,0.7727403,0.04,0.039999887,-9.753205,0.1679743230342865,-0.42381012,0.034302287,0.07838042080402374,0.0484717
2179.2166666668036,-0.014245729,-0.7813861,-0.023197751,-2.3881285,0.005336986,1.5604938,0.7722351,0.04,0.039999884,-9.752174,0.17596213519573212,-0.4396736,0.035014436,0.080397829413414,0.049697533
2179.2333333334705,-0.014786934,-0.7812708,-0.02406964,-2.3893218,0.0055336277,1.5601012,0.7717188,0.04,0.03999988,-9.751184,0.1841578185558319,-0.45587128,0.035725363,0.08241691440343857,0.050935563
2179.2500000001373,-0.015339777,-0.7811534,-0.024960272,-2.3905406,0.005734494,1.5596999,0.7711915,0.04,0.039999872,-9.750837,0.1930665373802185,-0.4724535,0.036434,0.08443613350391388,0.05218569
2179.266666666804,-0.015904287,-0.7810338,-0.025869682,-2.3917856,0.0059395926,1.5592903,0.77065295,0.04,0.03999988,-9.749078,0.20118100941181183,-0.48940724,0.037140645,0.08645728975534439,0.053447794
2179.283333333471,-0.016480481,-0.7809114,-0.026797898,-2.3930562,0.0061489297,1.5588721,0.77010334,0.04,0.03999987,-9.748019,0.2100076973438263,-0.5066654,0.037844542,0.08847679942846298,0.054721795
2179.300000000138,-0.017068377,-0.7807866,-0.027744954,-2.394352,0.006362513,1.5584457,0.76954263,0.04,0.039999872,-9.74754,0.2195385992527008,-0.5242543,0.038545568,0.09049385786056519,0.056007367
2179.316666666805,-0.017667977,-0.7806598,-0.028710863,-2.395674,0.006580347,1.5580106,0.7689707,0.04,0.03999987,-9.745613,0.22829966247081757,-0.5422816,0.039243255,0.09251254051923752,0.05730536
2179.3333333334717,-0.018279301,-0.7805304,-0.02969564,-2.3970218,0.0068024346,1.557567,0.7683877,0.04,0.03999987,-9.744362,0.23775985836982727,-0.5605546,0.03993728,0.0945281907916069,0.058614142
2179.3500000001386,-0.01890235,-0.7803982,-0.030699294,-2.3983955,0.0070287776,1.5571151,0.7677934,0.04,0.039999865,-9.743099,0.24743345379829407,-0.57922906,0.04062744,0.09653884172439575,0.05993385
2179.3666666668055,-0.01953714,-0.78026384,-0.03172182,-2.3997955,0.007259376,1.5566547,0.76718795,0.04,0.039999876,-9.742394,0.2578275203704834,-0.59820396,0.041313495,0.0985453724861145,0.061265413
2179.3833333334724,-0.020183649,-0.78012687,-0.032763228,-2.4012206,0.007494232,1.5561857,0.7665714,0.04,0.03999986,-9.740373,0.2674481272697449,-0.6175999,0.041994933,0.10054609179496765,0.062608436
2179.4000000001392,-0.020841882,-0.7799872,-0.033823527,-2.4026718,0.007733343,1.555708,0.7659435,0.04,0.039999854,-9.738765,0.27777260541915894,-0.6373078,0.042671293,0.10254424065351486,0.063961886
2179.416666666806,-0.021511838,-0.7798454,-0.034902677,-2.4041483,0.007976704,1.5552222,0.76530457,0.04,0.039999872,-9.737305,0.28832873702049255,-0.6573746,0.043343056,0.10453252494335175,0.065326355
2179.433333333473,-0.022193491,-0.77970105,-0.03600067,-2.4056513,0.008224317,1.5547277,0.76465446,0.04,0.039999865,-9.736239,0.29958218336105347,-0.677674,0.04400929,0.10651901364326477,0.066701666
2179.45000000014,-0.022886844,-0.77955407,-0.03711749,-2.40718,0.008476172,1.5542244,0.76399326,0.04,0.03999986,-9.734007,0.3100927472114563,-0.69847244,0.044669572,0.10849303752183914,0.068087526
2179.4666666668068,-0.023591876,-0.7794049,-0.03825311,-2.4087338,0.008732261,1.5537131,0.763321,0.04,0.039999872,-9.73223,0.32130342721939087,-0.7195488,0.04532335,0.11045735329389572,0.06948331
2179.4833333334736,-0.024308564,-0.77925307,-0.039407477,-2.4103136,0.008992584,1.5531931,0.76263756,0.04,0.03999987,-9.730282,0.3327373266220093,-0.7409619,0.045970533,0.1124192327260971,0.07088991
2179.5000000001405,-0.025036884,-0.7790987,-0.040580574,-2.4119196,0.009257127,1.5526649,0.7619431,0.04,0.03999986,-9.729035,0.3448660373687744,-0.7626415,0.04661139,0.11436878889799118,0.072306655
2179.5166666668074,-0.025776807,-0.77894187,-0.041772366,-2.4135501,0.009525883,1.5521281,0.7612376,0.04,0.039999858,-9.7265,0.3562822639942169,-0.7848063,0.04724484,0.11630468815565109,0.073733315
2179.5333333334743,-0.02652832,-0.7787827,-0.042982794,-2.4152062,0.009798841,1.551583,0.76052105,0.04,0.039999865,-9.724238,0.3683874011039734,-0.80722815,0.04787084,0.1182345449924469,0.07516979
2179.550000000141,-0.027291367,-0.77862114,-0.044211805,-2.416888,0.01007599,1.5510293,0.7597934,0.04,0.03999989,-9.72269,0.38118913769721985,-0.8299107,0.048489332,0.120154470205307,0.0766172
2179.566666666808,-0.028065935,-0.77845716,-0.045459334,-2.4185953,0.010357317,1.5504675,0.7590543,0.04,0.039999906,-9.719827,0.39327821135520935,-0.85304487,0.049100813,0.12205849587917328,0.0780727
2179.583333333475,-0.028851975,-0.7782907,-0.04672534,-2.4203277,0.010642804,1.5498973,0.758305,0.04,0.039999913,-9.71743,0.4060593247413635,-0.8764623,0.049705908,0.12395161390304565,0.0795369
2179.600000000142,-0.02964945,-0.7781218,-0.048009746,-2.4220853,0.010932442,1.5493191,0.7575445,0.04,0.039999902,-9.714929,0.4190729260444641,-0.9002041,0.0502994,0.12583161890506744,0.08101076
2179.6166666668087,-0.030458314,-0.7779505,-0.049312487,-2.4238675,0.011226214,1.5487324,0.7567733,0.04,0.03999991,-9.712993,0.43276357650756836,-0.92421037,0.050885428,0.12769858539104462,0.0824941
2179.6333333334755,-0.031278525,-0.7777769,-0.050633483,-2.4256752,0.011524104,1.5481375,0.75599116,0.04,0.039999913,-9.709607,0.44577324390411377,-0.948652,0.051462058,0.1295517235994339,0.08398485
2179.6500000001424,-0.032110024,-0.7776009,-0.051972665,-2.4275074,0.011826091,1.5475345,0.75519836,0.04,0.039999906,-9.706835,0.45947426557540894,-0.9733523,0.052029982,0.13138988614082336,0.08548453
2179.6666666668093,-0.03295276,-0.77742255,-0.05332991,-2.4293644,0.012132156,1.5469232,0.7543947,0.04,0.039999902,-9.7039175,0.4733949899673462,-0.99836856,0.052587695,0.13321228325366974,0.08699221
2179.683333333476,-0.03380669,-0.7772417,-0.054705165,-2.4312465,0.012442285,1.546304,0.7535805,0.04,0.03999991,-9.701485,0.4879691004753113,-1.0236253,0.053136658,0.13501869142055511,0.08850787
2179.700000000143,-0.03467175,-0.7770588,-0.05609833,-2.433153,0.012756454,1.5456766,0.7527557,0.04,0.039999906,-9.697764,0.5019301176071167,-1.0493588,0.053674974,0.13680745661258698,0.09003194
2179.71666666681,-0.035547886,-0.7768735,-0.05750932,-2.4350836,0.013074636,1.5450412,0.7519203,0.04,0.039999895,-9.694462,0.5165319442749023,-1.0752829,0.05420303,0.13857972621917725,0.091562875
2179.733333333477,-0.03643502,-0.7766858,-0.05893801,-2.4370384,0.013396812,1.5443976,0.75107443,0.04,0.03999991,-9.691013,0.5313712358474731,-1.1015412,0.05472066,0.14033618569374084,0.093100704
2179.7500000001437,-0.03733311,-0.77649564,-0.060384315,-2.4390178,0.013722961,1.5437462,0.7502182,0.04,0.039999902,-9.68807,0.5468471050262451,-1.1280308,0.055227492,0.14207269251346588,0.09464622
2179.7666666668106,-0.038242057,-0.77630335,-0.061848108,-2.441021,0.014053059,1.543087,0.7493516,0.04,0.03999991,-9.683898,0.5617402791976929,-1.154978,0.05572302,0.14378774166107178,0.09619861
2179.7833333334775,-0.039161813,-0.7761087,-0.0633293,-2.4430475,0.01438708,1.5424199,0.7484747,0.04,0.03999991,-9.680005,0.5772626399993896,-1.1821165,0.056207333,0.145486980676651,0.09775732
2179.8000000001443,-0.040092293,-0.77591175,-0.06482773,-2.4450974,0.014724995,1.5417451,0.74758756,0.04,0.039999913,-9.676626,0.5934115052223206,-1.2094958,0.05668012,0.14716584980487823,0.09932156
2179.816666666811,-0.04103343,-0.77571267,-0.06634333,-2.4471705,0.0150667755,1.5410626,0.74669033,0.04,0.03999991,-9.671887,0.6089997291564941,-1.2373,0.057141647,0.14882713556289673,0.10089252
2179.833333333478,-0.041985147,-0.7755114,-0.06787593,-2.449267,0.015412395,1.5403725,0.74578303,0.04,0.03999991,-9.667599,0.6252135038375854,-1.2652969,0.057590775,0.1504698395729065,0.10246892
2179.850000000145,-0.042947367,-0.7753079,-0.06942541,-2.4513867,0.01576182,1.5396748,0.7448657,0.04,0.039999917,-9.663222,0.6416534781455994,-1.2935894,0.058027755,0.15209078788757324,0.10405112
2179.866666666812,-0.04392,-0.7751022,-0.07099165,-2.4535298,0.016115028,1.5389695,0.7439385,0.04,0.03999995,-9.659223,0.6586997509002686,-1.3220738,0.05845247,0.1536904126405716,0.10563947
2179.8833333334787,-0.044902958,-0.7748943,-0.07257451,-2.4556963,0.01647199,1.5382568,0.7430014,0.04,0.039999958,-9.653998,0.6752239465713501,-1.3509911,0.058864437,0.15526610612869263,0.107231036
2179.9000000001456,-0.045896154,-0.77468425,-0.07417384,-2.457885,0.016832663,1.5375366,0.7420545,0.04,0.03999996,-9.649235,0.6923381686210632,-1.380096,0.059264097,0.15681526064872742,0.108825095
2179.9166666668125,-0.04689951,-0.774472,-0.07578952,-2.4600961,0.017197026,1.5368092,0.7410979,0.04,0.039999966,-9.644115,0.7097024917602539,-1.40948,0.059650496,0.158344566822052,0.110425025
2179.9333333334794,-0.047912925,-0.77425766,-0.07742135,-2.462329,0.01756504,1.5360742,0.7401319,0.04,0.03999997,-9.639477,0.7276265621185303,-1.4390422,0.060024075,0.15984958410263062,0.112028405
2179.9500000001462,-0.04893631,-0.77404124,-0.07906923,-2.4645836,0.017936671,1.5353316,0.73915637,0.04,0.039999973,-9.633481,0.7450862526893616,-1.4689931,0.060383882,0.16133221983909607,0.113635905
2179.966666666813,-0.049969565,-0.77382267,-0.08073297,-2.4668593,0.018311886,1.5345827,0.7381714,0.04,0.03999997,-9.627915,0.7631082534790039,-1.4991153,0.060730103,0.16278976202011108,0.115244865
2179.98333333348,-0.051012572,-0.7736021,-0.08241242,-2.4691567,0.018690648,1.5338265,0.7371772,0.04,0.03999997,-9.622077,0.7813705801963806,-1.5295185,0.06106312,0.16422946751117706,0.11685785
2180.000000000147,-0.05206525,-0.7733797,-0.08410745,-2.4714751,0.019072918,1.5330632,0.73617375,0.04,0.039999973,-9.616679,0.80016028881073,-1.560053,0.06138185,0.1656431406736374,0.11847303
2180.0166666668138,-0.0531275,-0.7731553,-0.08581783,-2.473815,0.01945866,1.5322931,0.7351612,0.04,0.039999973,-9.610026,0.8185410499572754,-1.5909538,0.06168691,0.1670335978269577,0.12008892
2180.0333333334806,-0.054199226,-0.7729288,-0.08754346,-2.4761765,0.019847834,1.531516,0.73413956,0.04,0.039999984,-9.603781,0.8374695777893066,-1.6220357,0.061977945,0.16839709877967834,0.12170739
2180.0500000001475,-0.055280294,-0.7727003,-0.0892841,-2.4785576,0.020240407,1.530732,0.733109,0.04,0.039999977,-9.597863,0.8569213151931763,-1.6532768,0.06225432,0.16973066329956055,0.123326235
2180.0666666668144,-0.056370612,-0.77246994,-0.0910396,-2.4809594,0.02063634,1.5299417,0.73206973,0.04,0.039999988,-9.590583,0.8759880661964417,-1.6848679,0.06251704,0.17104175686836243,0.12494682
2180.0833333334813,-0.057470076,-0.7722376,-0.09280982,-2.4833815,0.021035591,1.5291444,0.73102164,0.04,0.039999977,-9.583761,0.8955724239349365,-1.7166282,0.06276447,0.1723259687423706,0.1265677
2180.100000000148,-0.05857855,-0.7720033,-0.09459452,-2.4858236,0.02143811,1.5283407,0.72996503,0.04,0.03999999,-9.576677,0.9153770208358765,-1.7485797,0.06299767,0.17358173429965973,0.12818676
2180.116666666815,-0.05969594,-0.7717672,-0.09639357,-2.4882848,0.02184387,1.5275307,0.72889996,0.04,0.039999988,-9.569864,0.9356706738471985,-1.7806761,0.063215956,0.17480981349945068,0.12980664
2180.133333333482,-0.060822126,-0.7715293,-0.09820672,-2.4907656,0.022252819,1.5267141,0.7278266,0.04,0.039999984,-9.561827,0.9556413292884827,-1.8131125,0.06341907,0.1760147511959076,0.13142572
2180.150000000149,-0.06195698,-0.7712897,-0.100033835,-2.4932652,0.022664925,1.5258913,0.72674483,0.04,0.04,-9.554159,0.9761004447937012,-1.8456459,0.06360718,0.17718955874443054,0.13304424
2180.1666666668157,-0.06310038,-0.7710483,-0.10187471,-2.4957836,0.02308014,1.5250623,0.72565496,0.04,0.04,-9.546199,0.9967744946479797,-1.8783872,0.0637807,0.17833910882472992,0.13466199
2180.1833333334826,-0.06425221,-0.770805,-0.10372915,-2.4983203,0.023498414,1.5242273,0.72455704,0.04,0.04,-9.538476,1.017860770225525,-1.9112413,0.063938424,0.17946076393127441,0.13627289
2180.2000000001494,-0.06541236,-0.77055997,-0.1055969,-2.500876,0.023919707,1.5233861,0.7234514,0.04,0.04,-9.529674,1.0387271642684937,-1.9444193,0.064081274,0.18055471777915955,0.13788335
2180.2166666668163,-0.06658068,-0.7703132,-0.1074778,-2.503449,0.024343971,1.522539,0.7223379,0.04,0.04,-9.521169,1.0600333213806152,-1.9776857,0.064208016,0.1816169172525406,0.1394918
2180.233333333483,-0.067757055,-0.7700648,-0.10937165,-2.5060408,0.024771163,1.5216862,0.7212168,0.04,0.04,-9.512314,1.0815309286117554,-2.0111341,0.06431925,0.1826528012752533,0.14109564
2180.25000000015,-0.06894135,-0.7698146,-0.111278266,-2.5086493,0.025201235,1.5208277,0.720088,0.04,0.04,-9.503791,1.1034454107284546,-2.044668,0.06441501,0.18365591764450073,0.14269467
2180.266666666817,-0.07013345,-0.76956284,-0.11319739,-2.5112748,0.025634142,1.5199635,0.71895176,0.04,0.04,-9.494055,1.1251657009124756,-2.0784967,0.06449551,0.1846327781677246,0.14429046
2180.283333333484,-0.07133322,-0.7693095,-0.11512884,-2.513917,0.026069824,1.5190938,0.71780825,0.04,0.04,-9.484547,1.1472744941711426,-2.1123955,0.06456082,0.18558096885681152,0.14588055
2180.3000000001507,-0.07254053,-0.76905453,-0.11707238,-2.516576,0.026508246,1.5182188,0.71665764,0.04,0.04,-9.475152,1.169777512550354,-2.1463704,0.06461036,0.18650147318840027,0.14746514
2180.3166666668176,-0.07375523,-0.7687982,-0.119027786,-2.519251,0.026949346,1.5173383,0.7155,0.04,0.04,-9.464863,1.192114233970642,-2.1806252,0.06464387,0.18739131093025208,0.14904416
2180.3333333334845,-0.0749772,-0.7685404,-0.12099485,-2.5219417,0.027393088,1.5164526,0.71433544,0.04,0.04,-9.454628,1.2148230075836182,-2.2149048,0.06466165,0.1882524937391281,0.1506164
2180.3500000001513,-0.076206274,-0.7682809,-0.122973345,-2.5246484,0.027839419,1.5155616,0.713164,0.04,0.04,-9.444126,1.2377289533615112,-2.2493348,0.06466365,0.18908648192882538,0.15218197
2180.366666666818,-0.077442296,-0.7680201,-0.12496305,-2.5273702,0.028288277,1.5146654,0.711986,0.04,0.04,-9.433847,1.2609734535217285,-2.2838323,0.06465063,0.18988731503486633,0.15373977
2180.383333333485,-0.07868518,-0.7677579,-0.12696375,-2.5301073,0.028739627,1.5137644,0.7108015,0.04,0.04,-9.422584,1.2841049432754517,-2.3185394,0.064621285,0.19065716862678528,0.15528876
2180.400000000152,-0.07993476,-0.76749426,-0.12897517,-2.5328588,0.029193414,1.5128586,0.7096105,0.04,0.04,-9.4113865,1.307592511177063,-2.3533037,0.06457634,0.1913989931344986,0.15683097
2180.416666666819,-0.081190884,-0.76722926,-0.13099715,-2.5356247,0.029649582,1.5119482,0.7084133,0.04,0.04,-9.399977,1.3312474489212036,-2.38817,0.06451608,0.19211016595363617,0.15836343
2180.4333333334857,-0.08245342,-0.76696295,-0.13302945,-2.5384045,0.030108077,1.511033,0.7072102,0.04,0.04,-9.388585,1.3551952838897705,-2.4230654,0.06444028,0.19279207289218903,0.15988445
2180.4500000001526,-0.083722234,-0.7666954,-0.13507172,-2.5411985,0.030568844,1.5101131,0.70600104,0.04,0.04,-9.37634,1.3791179656982422,-2.4581513,0.06434764,0.19344405829906464,0.16139753
2180.4666666668195,-0.084997155,-0.7664264,-0.13712382,-2.5440063,0.031031854,1.5091889,0.7047861,0.04,0.04,-9.364233,1.4033316373825073,-2.4932625,0.064239934,0.19406235218048096,0.16290191
2180.4833333334864,-0.08627804,-0.7661562,-0.13918552,-2.546827,0.03149704,1.5082603,0.7035656,0.04,0.04,-9.351832,1.4277242422103882,-2.5284796,0.064116135,0.1946488320827484,0.1643974
2180.5000000001532,-0.08756474,-0.7658848,-0.14125659,-2.5496602,0.031964317,1.5073276,0.7023394,0.04,0.04,-9.339401,1.4522969722747803,-2.5636744,0.06397643,0.19520516693592072,0.16587241
2180.51666666682,-0.08885711,-0.7656125,-0.14333673,-2.5525062,0.03243366,1.5063909,0.7011079,0.04,0.04,-9.326156,1.476965069770813,-2.5990658,0.063821904,0.19573335349559784,0.16733861
2180.533333333487,-0.090154976,-0.7653389,-0.14542572,-2.555364,0.03290504,1.5054504,0.6998712,0.04,0.04,-9.313009,1.5018794536590576,-2.634417,0.0636515,0.1962297111749649,0.1687968
2180.550000000154,-0.09145821,-0.7650642,-0.14752328,-2.5582335,0.033378378,1.5045059,0.6986294,0.04,0.04,-9.299717,1.5269529819488525,-2.6697903,0.06346621,0.1966981589794159,0.1702371
2180.5666666668208,-0.09276668,-0.7647884,-0.14962925,-2.561115,0.033853583,1.5035574,0.6973825,0.04,0.04,-9.285777,1.5521197319030762,-2.7053044,0.06326534,0.1971348375082016,0.17166583
2180.5833333334876,-0.094080165,-0.76451147,-0.1517433,-2.5640073,0.034330633,1.5026054,0.6961309,0.04,0.04,-9.271896,1.5774954557418823,-2.7407973,0.06304941,0.1975376158952713,0.17307876
2180.6000000001545,-0.09539855,-0.7642336,-0.15386519,-2.5669098,0.034809463,1.5016497,0.69487464,0.04,0.04,-9.257606,1.603014349937439,-2.7763276,0.06281826,0.19791127741336823,0.17447752
2180.6166666668214,-0.09672169,-0.76395476,-0.15599464,-2.5698225,0.035290025,1.500691,0.6936138,0.04,0.04,-9.243241,1.6287001371383667,-2.8118122,0.06257221,0.1982566863298416,0.1758592
2180.6333333334883,-0.098049365,-0.763675,-0.15813145,-2.5727456,0.035772268,1.4997287,0.6923486,0.04,0.04,-9.228274,1.6545095443725586,-2.8474245,0.06231166,0.19857332110404968,0.17722689
2180.650000000155,-0.09938148,-0.7633943,-0.16027535,-2.5756795,0.036256082,1.4987632,0.6910793,0.04,0.04,-9.213283,1.6804143190383911,-2.8829794,0.062036842,0.19885796308517456,0.17856787
2180.666666666822,-0.10071783,-0.76311266,-0.1624261,-2.5786219,0.03674145,1.4977944,0.68980587,0.04,0.04,-9.198171,1.706600308418274,-2.9185534,0.061746273,0.199105367064476,0.17989972
2180.683333333489,-0.102058314,-0.7628303,-0.16458341,-2.5815725,0.037228324,1.4968228,0.68852854,0.04,0.04,-9.182656,1.7328637838363647,-2.9540737,0.061441883,0.19932614266872406,0.18122011
2180.700000000156,-0.10340272,-0.76254714,-0.16674705,-2.5845318,0.037716646,1.4958484,0.68724746,0.04,0.04,-9.166594,1.7592353820800781,-2.9896579,0.06112354,0.19952140748500824,0.18251924
2180.7166666668227,-0.10475091,-0.7622631,-0.16891666,-2.5874996,0.038206313,1.4948713,0.68596286,0.04,0.04,-9.150522,1.7857284545898438,-3.025182,0.06079093,0.19968640804290771,0.18379563
2180.7333333334896,-0.106102705,-0.7619784,-0.17109208,-2.5904758,0.038697317,1.4938912,0.6846748,0.04,0.04,-9.134257,1.8124148845672607,-3.060697,0.06044386,0.19981926679611206,0.18505913
2180.7500000001564,-0.10745795,-0.7616929,-0.17327306,-2.5934594,0.03918956,1.492909,0.6833834,0.04,0.04,-9.11784,1.8391185998916626,-3.0961335,0.06008311,0.1999192237854004,0.18629932
2180.7666666668233,-0.10881648,-0.76140684,-0.17545928,-2.5964503,0.039683003,1.4919246,0.682089,0.04,0.04,-9.100832,1.8660787343978882,-3.1316159,0.059708893,0.19999119639396667,0.18752252
2180.78333333349,-0.11017812,-0.7611202,-0.17765048,-2.5994475,0.0401776,1.4909378,0.6807916,0.04,0.04,-9.08373,1.893089771270752,-3.167014,0.059320826,0.2000347226858139,0.18872544
2180.800000000157,-0.11154273,-0.76083285,-0.17984639,-2.6024506,0.040673275,1.489949,0.67949134,0.04,0.04,-9.066415,1.9201476573944092,-3.2023206,0.058919523,0.20004963874816895,0.189908
2180.816666666824,-0.11291012,-0.760545,-0.18204679,-2.6054604,0.041169964,1.4889575,0.67818856,0.04,0.04,-9.048623,1.9474186897277832,-3.2376387,0.058505625,0.20003752410411835,0.19106592
2180.833333333491,-0.11428012,-0.7602566,-0.18425138,-2.6084769,0.041667603,1.4879647,0.6768833,0.04,0.04,-9.030819,1.9747823476791382,-3.272848,0.058078155,0.199991375207901,0.19220419
2180.8500000001577,-0.11565257,-0.7599678,-0.1864599,-2.6115005,0.04216615,1.4869702,0.67557555,0.04,0.04,-9.01277,2.0022270679473877,-3.308035,0.05763778,0.19991429150104523,0.193319
2180.8666666668246,-0.11702732,-0.75967854,-0.18867204,-2.6145258,0.04266555,1.4859737,0.6742657,0.04,0.04,-8.994691,2.029690980911255,-3.3431082,0.057185207,0.19979935884475708,0.19441
2180.8833333334915,-0.11840417,-0.7593887,-0.19088751,-2.6175573,0.04316568,1.4849757,0.6729538,0.04,0.04,-8.975528,2.0573787689208984,-3.3781176,0.05672096,0.19967107474803925,0.19547789
2180.9000000001583,-0.119782984,-0.7590986,-0.19310613,-2.620592,0.04366653,1.4839767,0.67164004,0.04,0.04,-8.956865,2.085127830505371,-3.4130623,0.0562444,0.19950532913208008,0.19652234
2180.916666666825,-0.12116356,-0.75880814,-0.19532758,-2.623631,0.04416805,1.4829764,0.6703247,0.04,0.04,-8.937562,2.1129183769226074,-3.4478765,0.055756345,0.19931840896606445,0.19754192
2180.933333333492,-0.12254576,-0.75851727,-0.1975516,-2.6266732,0.044670176,1.4819747,0.66900784,0.04,0.04,-8.918257,2.1406965255737305,-3.482591,0.055256557,0.19910122454166412,0.19853663
2180.950000000159,-0.12392939,-0.7582262,-0.19977784,-2.6297193,0.045172844,1.4809719,0.6676896,0.04,0.04,-8.898543,2.1687848567962646,-3.5172136,0.054745182,0.19885621964931488,0.19950686
2180.966666666826,-0.12531431,-0.7579348,-0.2020062,-2.6327665,0.04567596,1.4799684,0.6663701,0.04,0.04,-8.8787565,2.1968278884887695,-3.5517342,0.054222636,0.1985798478126526,0.20044976
2180.9833333334927,-0.12670033,-0.7576432,-0.2042363,-2.635819,0.046179503,1.478964,0.66504955,0.04,0.04,-8.858402,2.2249362468719482,-3.5861237,0.05369011,0.1982843279838562,0.20136827
2181.0000000001596,-0.12808727,-0.7573514,-0.20646784,-2.638872,0.046683375,1.4779584,0.6637282,0.04,0.04,-8.838406,2.252965211868286,-3.6204023,0.05314579,0.19794771075248718,0.20225433
2181.0166666668265,-0.12947497,-0.7570595,-0.20870058,-2.641926,0.047187533,1.4769529,0.66240597,0.04,0.04,-8.817643,2.281357526779175,-3.6545472,0.052591678,0.19758789241313934,0.20311667
2181.0333333334934,-0.13086325,-0.7567677,-0.2109342,-2.644981,0.047691908,1.475947,0.66108334,0.04,0.04,-8.796708,2.3096516132354736,-3.6885698,0.052028477,0.19720624387264252,0.20395283
2181.0500000001603,-0.13225196,-0.75647575,-0.21316849,-2.64804,0.048196446,1.4749404,0.65976024,0.04,0.04,-8.775545,2.3378102779388428,-3.722426,0.05145548,0.19680093228816986,0.20476072
2181.066666666827,-0.13364087,-0.7561836,-0.21540314,-2.6510992,0.048701078,1.4739338,0.6584369,0.04,0.04,-8.75468,2.3664207458496094,-3.7561803,0.050871857,0.19635282456874847,0.20553939
2181.083333333494,-0.1350299,-0.7558918,-0.21763791,-2.654158,0.049205747,1.4729273,0.65711355,0.04,0.04,-8.733105,2.3948543071746826,-3.7897947,0.050279565,0.1958799958229065,0.20628956
2181.100000000161,-0.13641883,-0.7555998,-0.21987252,-2.6572165,0.049710397,1.4719208,0.6557903,0.04,0.04,-8.711267,2.423325777053833,-3.8232212,0.04967839,0.1953851580619812,0.20701127
2181.1166666668278,-0.13780749,-0.755308,-0.22210665,-2.6602747,0.050214957,1.4709144,0.6544673,0.04,0.04,-8.689205,2.4516289234161377,-3.8565073,0.049068347,0.19486477971076965,0.20770216
2181.1333333334946,-0.1391957,-0.7550162,-0.22434005,-2.6633296,0.050719343,1.4699085,0.6531446,0.04,0.04,-8.667134,2.4803712368011475,-3.8896194,0.04845051,0.19431623816490173,0.2083629
2181.1500000001615,-0.14058334,-0.7547245,-0.22657244,-2.6663823,0.051223535,1.4689031,0.6518225,0.04,0.04,-8.644387,2.5089125633239746,-3.922547,0.047825973,0.19375599920749664,0.20899643
2181.1666666668284,-0.14197017,-0.7544331,-0.22880356,-2.669433,0.051727455,1.4678978,0.6505013,0.04,0.04,-8.621744,2.5374951362609863,-3.9553041,0.04719368,0.19317218661308289,0.2095988
2181.1833333334953,-0.14335607,-0.7541419,-0.23103313,-2.6724832,0.052231036,1.4668934,0.64918107,0.04,0.04,-8.598776,2.565858840942383,-3.9878483,0.046553902,0.19256405532360077,0.21017025
2181.200000000162,-0.14474088,-0.7538511,-0.2332609,-2.6755328,0.052734226,1.4658903,0.6478618,0.04,0.04,-8.576018,2.5947093963623047,-4.0202427,0.045906175,0.1919267624616623,0.21070948
2181.216666666829,-0.14612438,-0.75356054,-0.2354866,-2.6785758,0.053236958,1.4648877,0.6465438,0.04,0.04,-8.553052,2.623352289199829,-4.0524697,0.045251828,0.19125816226005554,0.2112164
2181.233333333496,-0.14750645,-0.7532704,-0.23770988,-2.6816177,0.053739153,1.4638863,0.6452272,0.04,0.04,-8.52915,2.6519274711608887,-4.0844407,0.04459228,0.19058199226856232,0.21169236
2181.250000000163,-0.14888686,-0.7529806,-0.23993053,-2.6846561,0.054240786,1.4628861,0.64391196,0.04,0.04,-8.505686,2.68033766746521,-4.1162724,0.043925744,0.1898723691701889,0.21213672
2181.2666666668297,-0.15026547,-0.75269103,-0.24214824,-2.6876898,0.054741755,1.4618874,0.64259857,0.04,0.04,-8.482035,2.709181070327759,-4.147869,0.04325458,0.18913957476615906,0.21254686
2181.2833333334966,-0.15164211,-0.7524021,-0.24436279,-2.6907196,0.05524202,1.4608897,0.6412871,0.04,0.04,-8.457954,2.7377781867980957,-4.179273,0.042577658,0.18838848173618317,0.21292585
2181.3000000001634,-0.15301666,-0.7521137,-0.24657387,-2.6937451,0.055741522,1.4598936,0.6399776,0.04,0.04,-8.433712,2.766106367111206,-4.210462,0.041895445,0.1876106709241867,0.21327084
2181.3166666668303,-0.15438884,-0.75182575,-0.2487812,-2.6967638,0.05624021,1.4588994,0.6386702,0.04,0.04,-8.40958,2.794940948486328,-4.241427,0.041208833,0.1868097484111786,0.21358265
2181.333333333497,-0.15575857,-0.7515383,-0.25098458,-2.6997797,0.05673798,1.4579071,0.63736534,0.04,0.04,-8.384856,2.823439121246338,-4.2721744,0.040518805,0.18599608540534973,0.21386051
2181.350000000164,-0.15712567,-0.75125146,-0.2531837,-2.7027884,0.057234798,1.4569163,0.6360629,0.04,0.04,-8.360541,2.8519985675811768,-4.302734,0.039822984,0.18514789640903473,0.21410371
2181.366666666831,-0.15848996,-0.7509652,-0.25537822,-2.7057898,0.057730597,1.4559278,0.6347632,0.04,0.04,-8.335298,2.8801660537719727,-4.333043,0.03912458,0.18428586423397064,0.21431373
2181.383333333498,-0.15985127,-0.75067943,-0.257568,-2.7087846,0.058225356,1.4549415,0.6334663,0.04,0.04,-8.310412,2.9088869094848633,-4.3630977,0.038422756,0.18340647220611572,0.21449266
2181.4000000001647,-0.16120943,-0.7503946,-0.25975263,-2.7117734,0.05871901,1.4539574,0.63217247,0.04,0.04,-8.285245,2.937277317047119,-4.392929,0.03771812,0.18250772356987,0.21463689
2181.4166666668316,-0.1625643,-0.75011045,-0.26193193,-2.7147555,0.05921144,1.4529755,0.63088167,0.04,0.04,-8.260123,2.9655990600585938,-4.422529,0.037010517,0.18158403038978577,0.21474217
2181.4333333334985,-0.16391571,-0.7498269,-0.26410574,-2.7177303,0.05970262,1.4519963,0.62959415,0.04,0.04,-8.23452,2.9936084747314453,-4.451929,0.03630084,0.18063759803771973,0.21481434
2181.4500000001653,-0.16526344,-0.74954426,-0.26627368,-2.7206964,0.060192473,1.4510199,0.6283102,0.04,0.04,-8.209223,3.0221574306488037,-4.481035,0.035588387,0.17967116832733154,0.21485089
2181.466666666832,-0.16660741,-0.7492625,-0.26843545,-2.7236543,0.060680978,1.4500461,0.6270298,0.04,0.04,-8.183437,3.050318479537964,-4.509908,0.034874782,0.17868971824645996,0.21485361
2181.483333333499,-0.16794737,-0.7489815,-0.27059087,-2.7266026,0.06116806,1.449075,0.6257531,0.04,0.04,-8.157632,3.0784099102020264,-4.5385237,0.034160327,0.17768897116184235,0.2148199
2181.500000000166,-0.16928324,-0.7487014,-0.27273962,-2.729542,0.061653655,1.448107,0.62448055,0.04,0.04,-8.131373,3.1061229705810547,-4.5669317,0.033445157,0.17667126655578613,0.21475075
2181.516666666833,-0.1706149,-0.74842215,-0.2748814,-2.7324727,0.06213769,1.4471421,0.623212,0.04,0.04,-8.105589,3.134392499923706,-4.5950046,0.032728344,0.17563621699810028,0.21464574
2181.5333333334997,-0.1719421,-0.7481439,-0.27701604,-2.7353938,0.0626201,1.4461805,0.6219475,0.04,0.04,-8.079499,3.16228985786438,-4.6228724,0.032011285,0.17458055913448334,0.21450736
2181.5500000001666,-0.17326464,-0.74786663,-0.27914336,-2.7383041,0.06310084,1.4452221,0.6206876,0.04,0.04,-8.05298,3.189758539199829,-4.650514,0.03129469,0.17350651323795319,0.21433166
2181.5666666668335,-0.17458251,-0.74759036,-0.281263,-2.741204,0.06357988,1.4442673,0.6194322,0.04,0.04,-8.026857,3.2177929878234863,-4.6778126,0.03057808,0.17241711914539337,0.21412136
2181.5833333335004,-0.17589541,-0.7473152,-0.2833747,-2.744094,0.06405715,1.443316,0.61818135,0.04,0.04,-8.000361,3.2454135417938232,-4.704878,0.02986185,0.17131279408931732,0.21387565
2181.6000000001673,-0.17720322,-0.7470412,-0.28547817,-2.7469716,0.06453258,1.4423684,0.6169353,0.04,0.04,-7.97393,3.2729313373565674,-4.731693,0.029147198,0.17018814384937286,0.21359332
2181.616666666834,-0.17850584,-0.7467683,-0.28757316,-2.7498388,0.065006144,1.4414245,0.6156944,0.04,0.04,-7.9468913,3.300004005432129,-4.7582664,0.028434686,0.16905170679092407,0.21327662
2181.633333333501,-0.17980306,-0.7464965,-0.28965953,-2.7526934,0.065477744,1.4404845,0.6144585,0.04,0.04,-7.9206305,3.3276522159576416,-4.784492,0.027722739,0.167894646525383,0.21292299
2181.650000000168,-0.18109472,-0.7462259,-0.29173702,-2.7555366,0.065947324,1.4395486,0.61322784,0.04,0.04,-7.893742,3.3548495769500732,-4.810481,0.027013412,0.16672706604003906,0.21253407
2181.6666666668348,-0.18238072,-0.74595654,-0.29380536,-2.7583666,0.06641488,1.4386169,0.6120028,0.04,0.04,-7.86702,3.381959915161133,-4.836202,0.026306203,0.16554062068462372,0.21210945
2181.6833333335017,-0.18366088,-0.74568826,-0.29586422,-2.7611835,0.066880316,1.4376894,0.6107831,0.04,0.04,-7.8397107,3.4085733890533447,-4.8616967,0.025601055,0.16434282064437866,0.21164952
2181.7000000001685,-0.18493503,-0.74542135,-0.29791352,-2.7639878,0.067343585,1.4367663,0.6095692,0.04,0.04,-7.813078,3.435758590698242,-4.886811,0.02489966,0.16313190758228302,0.21115425
2181.7166666668354,-0.18620306,-0.7451558,-0.2999529,-2.7667785,0.067804635,1.4358473,0.6083611,0.04,0.04,-7.786171,3.4624922275543213,-4.911699,0.02420087,0.1619047075510025,0.21062197
2181.7333333335023,-0.18746479,-0.7448916,-0.30198225,-2.769555,0.06826343,1.434933,0.607159,0.04,0.04,-7.759153,3.489084005355835,-4.936293,0.023505623,0.1606629341840744,0.21005456
2181.750000000169,-0.18872008,-0.7446288,-0.30400112,-2.7723174,0.06871987,1.4340234,0.60596323,0.04,0.04,-7.731706,3.5151875019073486,-4.9606776,0.022814332,0.159409299492836,0.20945111
2181.766666666836,-0.18996881,-0.7443675,-0.30600944,-2.7750654,0.06917392,1.4331187,0.6047735,0.04,0.04,-7.704925,3.5418455600738525,-4.9846544,0.022126855,0.15814563632011414,0.20881222
2181.783333333503,-0.19121084,-0.7441076,-0.30800688,-2.7777987,0.06962553,1.4322187,0.6035902,0.04,0.04,-7.6778855,3.5680432319641113,-5.0084143,0.021444086,0.15686820447444916,0.20813859
2181.80000000017,-0.19244596,-0.7438491,-0.30999324,-2.7805166,0.07007464,1.4313236,0.60241336,0.04,0.04,-7.6503425,3.593709945678711,-5.031943,0.02076648,0.15557889640331268,0.20743082
2181.8166666668367,-0.19367409,-0.743592,-0.31196836,-2.7832193,0.07052126,1.4304338,0.6012433,0.04,0.04,-7.6236296,3.6199634075164795,-5.055067,0.02009393,0.15427708625793457,0.20668949
2181.8333333335036,-0.19489503,-0.7433364,-0.31393194,-2.7859058,0.07096527,1.4295489,0.60008,0.04,0.04,-7.596493,3.6456961631774902,-5.0779657,0.019425822,0.15296398103237152,0.2059117
2181.8500000001704,-0.19610871,-0.74308246,-0.31588385,-2.7885766,0.071406655,1.4286693,0.5989237,0.04,0.04,-7.5693173,3.671262264251709,-5.100584,0.018763777,0.15164117515087128,0.20509964
2181.8666666668373,-0.19731502,-0.7428301,-0.3178238,-2.7912314,0.071845345,1.4277953,0.5977744,0.04,0.04,-7.541855,3.6963260173797607,-5.122974,0.018107245,0.15030556917190552,0.204254
2181.883333333504,-0.19851373,-0.7425793,-0.31975168,-2.79387,0.07228129,1.4269266,0.59663224,0.04,0.04,-7.515167,3.721946954727173,-5.1449594,0.017456274,0.14896053075790405,0.20337246
2181.900000000171,-0.19970472,-0.7423301,-0.32166722,-2.7964907,0.07271446,1.4260635,0.5954976,0.04,0.04,-7.488168,3.7470383644104004,-5.1667166,0.016811647,0.14760178327560425,0.20245542
2181.916666666838,-0.20088795,-0.7420826,-0.3235702,-2.7990944,0.07314479,1.425206,0.5943702,0.04,0.04,-7.460994,3.7719483375549316,-5.1881804,0.016173065,0.14623789489269257,0.2015049
2181.933333333505,-0.20206319,-0.74183685,-0.32546017,-2.8016813,0.07357225,1.4243543,0.59325045,0.04,0.04,-7.433606,3.796330213546753,-5.209428,0.015541973,0.14486302435398102,0.20052113
2181.9500000001717,-0.20323032,-0.7415928,-0.327337,-2.8042505,0.07399677,1.4235084,0.5921384,0.04,0.04,-7.407123,3.82126522064209,-5.2302585,0.014917283,0.143476665019989,0.19950348
2181.9666666668386,-0.2043893,-0.74135053,-0.3292007,-2.806801,0.074418314,1.4226685,0.5910342,0.04,0.04,-7.3802037,3.8456413745880127,-5.2508693,0.014300246,0.142081156373024,0.19845404
2181.9833333335055,-0.20553987,-0.74110985,-0.33105108,-2.8093333,0.07483682,1.4218347,0.5899379,0.04,0.04,-7.353257,3.8698415756225586,-5.2711873,0.01369053,0.1406804770231247,0.19737029
2182.0000000001723,-0.20668203,-0.7408711,-0.33288786,-2.8118465,0.07525227,1.4210072,0.58884966,0.04,0.04,-7.326016,3.8935036659240723,-5.2913127,0.013087754,0.13927116990089417,0.19625533
2182.0166666668392,-0.20781557,-0.74063396,-0.33471084,-2.8143415,0.07566461,1.4201854,0.5877696,0.04,0.04,-7.2996516,3.917696714401245,-5.310972,0.012493659,0.13785681128501892,0.19510725
2182.033333333506,-0.20894045,-0.7403988,-0.3365198,-2.8168168,0.0760738,1.4193702,0.58669776,0.04,0.04,-7.2731137,3.9413576126098633,-5.330451,0.011906437,0.13642868399620056,0.19392774
2182.050000000173,-0.21005653,-0.74016553,-0.3383146,-2.8192728,0.0764798,1.4185613,0.5856345,0.04,0.04,-7.245931,3.964402198791504,-5.349696,0.011328378,0.1349988877773285,0.19271572
2182.06666666684,-0.21116364,-0.73993427,-0.34009498,-2.8217094,0.07688255,1.4177588,0.5845796,0.04,0.04,-7.2199335,3.988034963607788,-5.3685193,0.01075742,0.1335606575012207,0.19147196
2182.0833333335067,-0.21226172,-0.7397051,-0.34186086,-2.8241262,0.07728201,1.4169631,0.5835333,0.04,0.04,-7.1935277,4.011079788208008,-5.3871245,0.010196256,0.1321149468421936,0.19019802
2182.1000000001736,-0.21335062,-0.73947763,-0.343612,-2.8265228,0.07767812,1.416174,0.58249575,0.04,0.04,-7.1672153,4.0339274406433105,-5.4054565,0.009643734,0.13066424429416656,0.1888931
2182.1166666668405,-0.21443027,-0.7392521,-0.3453481,-2.8288987,0.07807088,1.4153917,0.581467,0.04,0.04,-7.140495,4.056192874908447,-5.423605,0.009099475,0.12920786440372467,0.18755762
2182.1333333335074,-0.21550047,-0.7390286,-0.34706917,-2.8312538,0.078460224,1.4146159,0.58044714,0.04,0.04,-7.114848,4.078989028930664,-5.4412875,0.008564763,0.1277458816766739,0.18619251
2182.1500000001743,-0.2165612,-0.73880714,-0.3487749,-2.8335886,0.078846134,1.4138473,0.57943636,0.04,0.04,-7.088835,4.1012139320373535,-5.458771,0.008039149,0.12627896666526794,0.18479824
2182.166666666841,-0.21761234,-0.7385876,-0.35046524,-2.8359022,0.07922857,1.4130851,0.5784347,0.04,0.04,-7.063037,4.123220443725586,-5.476001,0.0075225118,0.12480519711971283,0.18337423
2182.183333333508,-0.21865377,-0.7383701,-0.35213998,-2.8381941,0.07960751,1.4123305,0.57744217,0.04,0.04,-7.036756,4.144654750823975,-5.4930134,0.0070151174,0.1233251616358757,0.18192217
2182.200000000175,-0.21968535,-0.73815477,-0.35379902,-2.8404644,0.07998284,1.4115833,0.5764592,0.04,0.04,-7.0115767,4.166576862335205,-5.5096087,0.0065181977,0.12184522300958633,0.18043987
2182.216666666842,-0.22070707,-0.73794144,-0.355442,-2.8427122,0.08035461,1.4108424,0.5754857,0.04,0.04,-6.9860964,4.187957286834717,-5.526002,0.006029664,0.12036225199699402,0.17893341
2182.2333333335087,-0.2217188,-0.73773026,-0.35706896,-2.8449385,0.080722734,1.4101092,0.57452166,0.04,0.04,-6.960686,4.209053993225098,-5.54209,0.0055507775,0.11887465417385101,0.17739709
2182.2500000001755,-0.22272041,-0.7375213,-0.35867965,-2.8471427,0.08108722,1.4093834,0.5735672,0.04,0.04,-6.9350142,4.229616165161133,-5.558033,0.0050821034,0.11738394945859909,0.17583482
2182.2666666668424,-0.22371185,-0.7373143,-0.36027402,-2.849325,0.081448,1.4086648,0.57262254,0.04,0.04,-6.9105034,4.250667572021484,-5.573535,0.0046231598,0.11589023470878601,0.17424634
2182.2833333335093,-0.22469303,-0.7371095,-0.36185187,-2.8514848,0.081805065,1.4079537,0.5716875,0.04,0.04,-6.885701,4.271139144897461,-5.5888524,0.0041733827,0.11438942700624466,0.17263046
2182.300000000176,-0.22566377,-0.7369069,-0.363413,-2.8536212,0.08215836,1.4072503,0.5707624,0.04,0.04,-6.860466,4.291000843048096,-5.603989,0.0037340177,0.11288578063249588,0.17098911
2182.316666666843,-0.22662412,-0.7367066,-0.36495736,-2.855735,0.08250787,1.4065545,0.5698472,0.04,0.04,-6.8363547,4.3113555908203125,-5.618694,0.0033051593,0.11138325929641724,0.16932467
2182.33333333351,-0.22757393,-0.7365086,-0.36648473,-2.8578253,0.08285354,1.405866,0.5689422,0.04,0.04,-6.8120136,4.331119060516357,-5.633214,0.002886686,0.10987839102745056,0.16763464
2182.350000000177,-0.22851314,-0.7363127,-0.36799502,-2.8598921,0.08319537,1.4051852,0.568047,0.04,0.04,-6.7877865,4.3506550788879395,-5.647459,0.002477973,0.10837206244468689,0.1659233
2182.3666666668437,-0.22944164,-0.73611903,-0.36948824,-2.8619354,0.08353332,1.4045122,0.5671621,0.04,0.04,-6.763233,4.369571208953857,-5.661551,0.0020804186,0.10686361789703369,0.16418609
2182.3833333335106,-0.23035942,-0.73592776,-0.37096405,-2.863956,0.08386734,1.4038469,0.5662874,0.04,0.04,-6.7399616,4.388997554779053,-5.6752176,0.0016924252,0.1053542047739029,0.16242486
2182.4000000001774,-0.23126633,-0.73573864,-0.37242243,-2.8659525,0.08419742,1.4031894,0.5654232,0.04,0.04,-6.7164326,4.407824516296387,-5.6887136,0.0013144957,0.10384033620357513,0.1606408
2182.4166666668443,-0.23216234,-0.7355518,-0.37386328,-2.8679242,0.08452355,1.40254,0.5645693,0.04,0.04,-6.6929975,4.42641019821167,-5.701966,0.00094604515,0.10232527554035187,0.1588357
2182.433333333511,-0.23304734,-0.7353673,-0.3752865,-2.8698723,0.08484571,1.4018986,0.56372577,0.04,0.04,-6.669124,4.444387435913086,-5.715042,0.00058866857,0.10081332176923752,0.1570116
2182.450000000178,-0.2339213,-0.7351851,-0.3766919,-2.871796,0.085163854,1.4012653,0.5628929,0.04,0.04,-6.6467013,4.462838172912598,-5.727714,0.00024168768,0.09930074214935303,0.15516502
2182.466666666845,-0.23478422,-0.73500526,-0.37807944,-2.8736951,0.08547798,1.4006397,0.56207067,0.04,0.04,-6.623859,4.480678558349609,-5.740211,-9.5348514e-05,0.09778959304094315,0.15329848
2182.483333333512,-0.23563592,-0.73482776,-0.37944904,-2.87557,0.08578801,1.400022,0.5612589,0.04,0.04,-6.6013303,4.498292446136475,-5.7524714,-0.00042278686,0.09627614915370941,0.15141149
2182.5000000001787,-0.23647644,-0.7346527,-0.38080066,-2.8774202,0.086094,1.3994128,0.5604578,0.04,0.04,-6.5784063,4.5153069496154785,-5.7645745,-0.0007396837,0.09476209431886673,0.14950582
2182.5166666668456,-0.23730563,-0.73448,-0.38213414,-2.8792458,0.08639591,1.3988115,0.5596676,0.04,0.04,-6.5568113,4.532783031463623,-5.7762656,-0.0010455216,0.09325054287910461,0.14758223
2182.5333333335125,-0.2381235,-0.73430955,-0.38344938,-2.8810458,0.08669367,1.3982186,0.55888796,0.04,0.04,-6.5349283,4.549657821655273,-5.7878203,-0.0013422994,0.0917387530207634,0.145641
2182.5500000001794,-0.23893,-0.7341415,-0.38474625,-2.8828208,0.08698727,1.3976341,0.5581194,0.04,0.04,-6.5126195,4.565927028656006,-5.799222,-0.0016280744,0.09023093432188034,0.14368294
2182.5666666668462,-0.23972513,-0.73397595,-0.38602483,-2.8845708,0.08727671,1.3970577,0.5573613,0.04,0.04,-6.4917345,4.582651615142822,-5.8102193,-0.0019047307,0.0887259989976883,0.14171037
2182.583333333513,-0.24050882,-0.73381275,-0.387285,-2.8862958,0.08756197,1.3964896,0.55661446,0.04,0.04,-6.4705725,4.598771572113037,-5.8210588,-0.002169801,0.08722103387117386,0.13971879
2182.60000000018,-0.24128091,-0.73365194,-0.3885266,-2.8879952,0.0878431,1.39593,0.55587894,0.04,0.04,-6.4496126,4.614676475524902,-5.8316827,-0.0024264662,0.08571870625019073,0.13771531
2182.616666666847,-0.24204145,-0.7334936,-0.38974965,-2.8896692,0.08812001,1.3953788,0.5551537,0.04,0.04,-6.428316,4.629935264587402,-5.8421745,-0.0026746765,0.08421976864337921,0.13569596
2182.6333333335137,-0.24279042,-0.7333377,-0.39095408,-2.8913178,0.08839271,1.3948358,0.55443984,0.04,0.04,-6.408435,4.645670413970947,-5.852266,-0.0029099975,0.08272337168455124,0.13366517
2182.6500000001806,-0.24352778,-0.7331843,-0.39213985,-2.8929408,0.088661194,1.394301,0.55373704,0.04,0.04,-6.388275,4.660801410675049,-5.8622255,-0.003137208,0.0812283456325531,0.13162021
2182.6666666668475,-0.24425349,-0.73303324,-0.39330706,-2.894538,0.08892545,1.3937751,0.55304533,0.04,0.04,-6.368284,4.675662040710449,-5.8719573,-0.0033547424,0.07973795384168625,0.12956189
2182.6833333335144,-0.24496754,-0.7328846,-0.39445522,-2.896109,0.08918548,1.3932573,0.5523647,0.04,0.04,-6.3480186,4.689977645874023,-5.8815794,-0.0035630977,0.07825221866369247,0.12749347
2182.7000000001813,-0.24566986,-0.7327385,-0.3955847,-2.8976557,0.08944124,1.3927482,0.55169517,0.04,0.04,-6.3291698,4.704676151275635,-5.890803,-0.003761928,0.07676903903484344,0.12541659
2182.716666666848,-0.2463605,-0.73259485,-0.3966953,-2.8991756,0.08969275,1.3922471,0.55103695,0.04,0.04,-6.310152,4.718798637390137,-5.8999276,-0.0039514103,0.07528705894947052,0.12332492
2182.733333333515,-0.2470394,-0.73245364,-0.39778706,-2.90067,0.08993995,1.3917551,0.5503898,0.04,0.04,-6.291155,4.73264741897583,-5.9088135,-0.0041323584,0.07381172478199005,0.12122427
2182.750000000182,-0.24770658,-0.73231477,-0.39885995,-2.9021387,0.09018289,1.3912716,0.5497539,0.04,0.04,-6.272,4.74595832824707,-5.917602,-0.004303963,0.07234147936105728,0.11911588
2182.766666666849,-0.24836199,-0.73217845,-0.39991394,-2.903582,0.09042158,1.3907964,0.5491292,0.039999995,0.04,-6.2542357,4.759670257568359,-5.9260287,-0.004467253,0.07087618112564087,0.11700046
2182.7833333335157,-0.24900565,-0.73204464,-0.400949,-2.9049988,0.090655975,1.3903298,0.54851574,0.039999988,0.04,-6.2362604,4.772787570953369,-5.9343276,-0.0046220156,0.06941277533769608,0.11487554
2182.8000000001825,-0.24963754,-0.7319132,-0.40196514,-2.90639,0.09088611,1.3898718,0.54791343,0.03999997,0.04,-6.21783,4.785339832305908,-5.9424944,-0.0047679804,0.06795673817396164,0.11274678
2182.8166666668494,-0.2502577,-0.73178434,-0.4029624,-2.9077551,0.09111194,1.3894222,0.5473223,0.039999958,0.04,-6.2009354,4.79826545715332,-5.950339,-0.004905711,0.06650657951831818,0.1106098
2182.8333333335163,-0.25086617,-0.73165786,-0.40394068,-2.9090943,0.091333486,1.3889811,0.54674226,0.03999995,0.04,-6.1836934,4.81063175201416,-5.9580436,-0.00503454,0.06506262719631195,0.10846788
2182.850000000183,-0.25146276,-0.73153377,-0.4049002,-2.9104068,0.09155074,1.3885487,0.5461735,0.039999943,0.04,-6.166784,4.822774887084961,-5.965569,-0.005155687,0.0636235922574997,0.10632266
2182.86666666685,-0.2520477,-0.73141223,-0.4058407,-2.9116943,0.09176373,1.3881247,0.54561585,0.039999932,0.04,-6.1494427,4.8343186378479,-5.9729805,-0.005268656,0.06219588220119476,0.104174726
2182.883333333517,-0.25262082,-0.7312932,-0.4067624,-2.912956,0.091972426,1.3877093,0.5450695,0.039999925,0.04,-6.133762,4.846275806427002,-5.9800644,-0.005373494,0.060771238058805466,0.10202486
2182.900000000184,-0.25318223,-0.7311767,-0.40766522,-2.914192,0.09217686,1.3873023,0.5445342,0.039999913,0.04,-6.1177173,4.857642650604248,-5.9870343,-0.0054712608,0.059352681040763855,0.099871695
2182.9166666668507,-0.253732,-0.7310626,-0.4085493,-2.9154017,0.09237701,1.3869038,0.54401016,0.039999906,0.04,-6.101911,4.868767738342285,-5.993833,-0.0055606985,0.0579429492354393,0.097716704
2182.9333333335176,-0.2542701,-0.7309509,-0.40941453,-2.916586,0.09257293,1.3865138,0.54349726,0.039999895,0.04,-6.0858073,4.879367351531982,-6.0005136,-0.005643589,0.056542202830314636,0.09556399
2182.9500000001844,-0.25479653,-0.7308416,-0.41026103,-2.9177449,0.09276461,1.3861324,0.54299545,0.039999887,0.04,-6.0712185,4.89030647277832,-6.0068913,-0.005719732,0.05514802038669586,0.09341073
2182.9666666668513,-0.25531134,-0.73073465,-0.4110889,-2.9188774,0.09295204,1.3857589,0.5425048,0.039999884,0.04,-6.056386,4.900720119476318,-6.013175,-0.0057893754,0.05375952646136284,0.091258995
2182.983333333518,-0.2558145,-0.7306303,-0.41189823,-2.9199853,0.093135275,1.3853941,0.542025,0.03999987,0.04,-6.041636,4.910854816436768,-6.0192575,-0.0058522173,0.05238283798098564,0.08911031
2183.000000000185,-0.25630623,-0.7305283,-0.41268912,-2.9210672,0.09331429,1.3850377,0.54155636,0.039999858,0.04,-6.0268645,4.920492172241211,-6.0252805,-0.005907826,0.051011793315410614,0.08696379
2183.016666666852,-0.25678638,-0.7304288,-0.4134612,-2.922125,0.093489125,1.3846895,0.5410986,0.03999985,0.04,-6.0133705,4.9304585456848145,-6.03098,-0.0059579196,0.049651362001895905,0.08481993
2183.033333333519,-0.25725505,-0.7303318,-0.41421494,-2.923157,0.09365979,1.3843496,0.5406518,0.039999835,0.04,-5.999758,4.939897537231445,-6.0366077,-0.0060012513,0.04829541966319084,0.082681954
2183.0500000001857,-0.25771236,-0.7302369,-0.41495025,-2.9241633,0.09382629,1.3840178,0.5402159,0.039999824,0.04,-5.9856873,4.948805332183838,-6.04212,-0.0060388865,0.046951424330472946,0.080549866
2183.0666666668526,-0.25815836,-0.7301442,-0.41566733,-2.925145,0.093988664,1.3836944,0.5397907,0.039999824,0.04,-5.9730577,4.9580512046813965,-6.0473504,-0.006071243,0.045618001371622086,0.078425385
2183.0833333335195,-0.25859302,-0.73005384,-0.41636625,-2.9261014,0.09414692,1.3833793,0.5393764,0.039999817,0.04,-5.960248,4.966785907745361,-6.0525126,-0.006097967,0.04429358243942261,0.07630753
2183.1000000001864,-0.25901645,-0.7299663,-0.4170471,-2.9270332,0.0943011,1.3830725,0.53897256,0.039999805,0.04,-5.9476557,4.975272178649902,-6.0575128,-0.006119794,0.042980652302503586,0.07419902
2183.1166666668532,-0.25942862,-0.7298812,-0.41770998,-2.9279404,0.09445118,1.3827736,0.5385796,0.039999798,0.04,-5.934815,4.983242511749268,-6.062403,-0.0061343787,0.04168171435594559,0.07209864
2183.13333333352,-0.25982976,-0.7297984,-0.41835505,-2.9288235,0.09459723,1.3824828,0.53819716,0.039999794,0.04,-5.923445,4.9915337562561035,-6.0670285,-0.006144664,0.04039148613810539,0.070007496
2183.150000000187,-0.26021987,-0.72971773,-0.41898233,-2.9296823,0.094739236,1.3821999,0.53782535,0.039999794,0.04,-5.911769,4.999349117279053,-6.0715866,-0.0061504864,0.039112117141485214,0.06792693
2183.166666666854,-0.26059902,-0.7296391,-0.41959205,-2.9305162,0.09487727,1.3819249,0.537464,0.039999783,0.04,-5.9003997,5.006927490234375,-6.076003,-0.0061527346,0.03784366697072983,0.06585788
2183.1833333335207,-0.26096725,-0.72956264,-0.42018422,-2.9313266,0.09501136,1.381658,0.53711295,0.03999978,0.04,-5.888696,5.014014720916748,-6.0803304,-0.006150904,0.03658803179860115,0.063802116
2183.2000000001876,-0.26132473,-0.7294882,-0.420759,-2.9321132,0.09514154,1.3813988,0.53677213,0.03999977,0.04,-5.8784533,5.021397590637207,-6.0844226,-0.0061445637,0.03534417226910591,0.061759055
2183.2166666668545,-0.26167142,-0.729416,-0.4213166,-2.9328766,0.09526776,1.3811475,0.53644156,0.03999976,0.04,-5.8679376,5.028287410736084,-6.088436,-0.006135111,0.03411149978637695,0.059728153
2183.2333333335214,-0.26200756,-0.7293468,-0.4218571,-2.9336166,0.09539018,1.380904,0.5361211,0.039999753,0.04,-5.857726,5.035000324249268,-6.0923076,-0.0061219414,0.0328906811773777,0.05771546
2183.2500000001883,-0.26233318,-0.72928005,-0.42238066,-2.934333,0.09550877,1.3806679,0.5358107,0.039999742,0.04,-5.847224,5.041184902191162,-6.096079,-0.0061034965,0.031686317175626755,0.055717815
2183.266666666855,-0.2626484,-0.7292153,-0.42288747,-2.9350266,0.095623516,1.3804394,0.53551024,0.039999742,0.04,-5.838008,5.047667980194092,-6.0996156,-0.006081148,0.030497724190354347,0.053737912
2183.283333333522,-0.26295316,-0.72915256,-0.42337766,-2.9356973,0.09573452,1.3802183,0.5352196,0.039999735,0.04,-5.828608,5.0537190437316895,-6.103098,-0.0060563,0.029322434216737747,0.051776547
2183.300000000189,-0.26324785,-0.7290919,-0.42385143,-2.936346,0.09584181,1.3800045,0.53493863,0.039999727,0.04,-5.8189764,5.059293270111084,-6.1065183,-0.0060285255,0.028160525485873222,0.049833633
2183.316666666856,-0.26353237,-0.72903323,-0.424309,-2.9369721,0.095945425,1.3797983,0.5346673,0.039999723,0.04,-5.8106737,5.065151691436768,-6.1097064,-0.005998294,0.027011187747120857,0.04790873
2183.3333333335227,-0.26380697,-0.72897667,-0.42475048,-2.9375763,0.096045434,1.3795993,0.5344054,0.039999723,0.04,-5.8020678,5.070570945739746,-6.112835,-0.0059653665,0.025878168642520905,0.046006322
2183.3500000001895,-0.26407167,-0.7289221,-0.42517632,-2.9381585,0.09614182,1.3794076,0.53415287,0.03999972,0.04,-5.793716,5.075765609741211,-6.1158385,-0.005929701,0.024762431159615517,0.044124283
2183.3666666668564,-0.26432663,-0.72886956,-0.4255863,-2.9387195,0.09623467,1.3792225,0.53390986,0.039999712,0.04,-5.785166,5.080563545227051,-6.118774,-0.005891801,0.023663416504859924,0.042265605
2183.3833333335233,-0.264572,-0.72881895,-0.42598084,-2.9392595,0.096324034,1.3790444,0.53367585,0.039999712,0.04,-5.777895,5.085580348968506,-6.121497,-0.0058533107,0.022576285526156425,0.040429603
2183.40000000019,-0.26480788,-0.72877043,-0.4263602,-2.9397788,0.09640997,1.3788732,0.53345096,0.039999705,0.04,-5.770392,5.090198993682861,-6.1241784,-0.0058126682,0.021505245938897133,0.038618516
2183.416666666857,-0.26503444,-0.7287237,-0.42672455,-2.9402776,0.09649249,1.3787092,0.53323495,0.039999705,0.04,-5.763104,5.094608306884766,-6.126743,-0.0057703317,0.020451318472623825,0.03683173
2183.433333333524,-0.26525176,-0.7286788,-0.42707407,-2.9407558,0.09657167,1.3785515,0.5330277,0.039999697,0.04,-5.7556043,5.098630428314209,-6.1292615,-0.0057270187,0.019417036324739456,0.035071835
2183.450000000191,-0.26546016,-0.72863585,-0.4274091,-2.9412146,0.09664757,1.3784003,0.53282905,0.039999694,0.04,-5.749277,5.102870941162109,-6.131567,-0.0056824405,0.018398460000753403,0.03333971
2183.4666666668577,-0.26565963,-0.7285947,-0.4277298,-2.9416537,0.09672022,1.3782556,0.53263897,0.039999694,0.04,-5.7427497,5.106725692749023,-6.133826,-0.0056368583,0.017397653311491013,0.031633597
2183.4833333335246,-0.26585037,-0.7285554,-0.42803645,-2.9420733,0.096789695,1.3781174,0.5324571,0.039999686,0.04,-5.73647,5.110403060913086,-6.1359944,-0.0055911383,0.01641463115811348,0.029957639
2183.5000000001914,-0.26603246,-0.72851783,-0.42832932,-2.9424741,0.09685606,1.3779854,0.5322834,0.03999968,0.04,-5.7299156,5.113696098327637,-6.138099,-0.0055437586,0.015453734435141087,0.028313162
2183.5166666668583,-0.26620626,-0.72848207,-0.4286087,-2.9428563,0.09691938,1.3778592,0.5321178,0.039999682,0.04,-5.724531,5.117207050323486,-6.1400304,-0.005495962,0.014510322362184525,0.026699416
2183.533333333525,-0.26637176,-0.7284481,-0.42887482,-2.9432204,0.09697971,1.3777392,0.5319599,0.039999682,0.04,-5.7189074,5.120355606079102,-6.141903,-0.005447941,0.01358737051486969,0.025117312
2183.550000000192,-0.26652926,-0.7284159,-0.42912796,-2.943567,0.09703709,1.3776248,0.53180975,0.039999675,0.04,-5.7131023,5.123141765594482,-6.1437345,-0.005398693,0.012686580419540405,0.02356894
2183.566666666859,-0.2666788,-0.72838527,-0.42936856,-2.943896,0.097091585,1.3775166,0.5316672,0.03999968,0.04,-5.7083707,5.126131534576416,-6.145391,-0.0053499043,0.011803600937128067,0.022052338
2183.583333333526,-0.2668207,-0.7283561,-0.42959672,-2.944208,0.09714329,1.3774135,0.53153193,0.03999967,0.04,-5.7033777,5.128793239593506,-6.147031,-0.005301053,0.010945253074169159,0.020572586
2183.6000000001927,-0.26695508,-0.72832865,-0.4298128,-2.9445035,0.09719225,1.3773162,0.5314039,0.039999668,0.04,-5.6986036,5.131278038024902,-6.1485577,-0.0052529084,0.010107137262821198,0.019127866
2183.6166666668596,-0.26708215,-0.7283028,-0.43001708,-2.9447834,0.09723855,1.3772241,0.53128284,0.039999668,0.04,-5.693696,5.133452892303467,-6.150064,-0.0052052494,0.009292634204030037,0.01772085
2183.6333333335265,-0.2672022,-0.7282783,-0.43020993,-2.9450474,0.097282276,1.3771372,0.53116834,0.039999664,0.04,-5.68975,5.135809898376465,-6.151405,-0.005157773,0.008498197421431541,0.016351653
2183.6500000001934,-0.26731515,-0.72825503,-0.43039176,-2.9452963,0.09732346,1.3770552,0.5310605,0.039999664,0.04,-5.68556,5.137858867645264,-6.152722,-0.005110426,0.0077279419638216496,0.015022035
2183.6666666668602,-0.2674215,-0.7282333,-0.4305627,-2.9455304,0.09736221,1.3769779,0.53095907,0.039999664,0.04,-5.681591,5.139743804931641,-6.1539664,-0.005064053,0.006979810539633036,0.013730154
2183.683333333527,-0.26752135,-0.728213,-0.4307233,-2.9457505,0.09739861,1.3769056,0.5308639,0.03999966,0.04,-5.6774497,5.14137077331543,-6.155159,-0.0050188326,0.006255850661545992,0.012480643
2183.700000000194,-0.26761502,-0.72819394,-0.43087375,-2.9459565,0.09743275,1.3768378,0.53077465,0.03999966,0.04,-5.674154,5.143136024475098,-6.1562333,-0.0049740076,0.0055568222887814045,0.01127282
2183.716666666861,-0.26770255,-0.72817624,-0.43101457,-2.946149,0.09746467,1.3767745,0.53069115,0.03999966,0.04,-5.6706104,5.144631862640381,-6.157278,-0.004930961,0.004885850008577108,0.010108825
2183.7333333335278,-0.26778427,-0.7281596,-0.431146,-2.9463286,0.09749448,1.3767155,0.5306132,0.03999966,0.04,-5.6673393,5.145996570587158,-6.15825,-0.0048884703,0.004239369183778763,0.008987626
2183.7500000001946,-0.26786035,-0.72814417,-0.43126848,-2.9464958,0.09752229,1.3766606,0.53054047,0.03999965,0.04,-5.6638227,5.147121906280518,-6.1591887,-0.0048470893,0.003621637122705579,0.007912775
2183.7666666668615,-0.2679312,-0.7281299,-0.4313824,-2.9466517,0.09754814,1.3766094,0.5304729,0.039999653,0.04,-5.6610956,5.148370265960693,-6.1600194,-0.004806709,0.00303081888705492,0.0068841544
2183.7833333335284,-0.26799694,-0.72811663,-0.43148807,-2.9467962,0.09757211,1.3765621,0.53041023,0.03999965,0.04,-5.658275,5.1494011878967285,-6.1608243,-0.0047683204,0.0024651377461850643,0.0059012626
2183.8000000001953,-0.26805788,-0.7281045,-0.431586,-2.9469292,0.097594306,1.3765182,0.5303521,0.039999653,0.04,-5.65526,5.15019416809082,-6.1616035,-0.004731883,0.0019288312178105116,0.0049659354
2183.816666666862,-0.26811406,-0.7280931,-0.43167654,-2.9470534,0.097614825,1.3764774,0.53029835,0.039999653,0.04,-5.6527705,5.151106834411621,-6.162263,-0.0046962644,0.0014250809326767921,0.0040817196
2183.833333333529,-0.26816615,-0.7280827,-0.43176004,-2.9471684,0.097633794,1.3764392,0.530249,0.039999653,0.04,-5.650445,5.151837348937988,-6.162935,-0.004662535,0.0009409463382326066,0.0032464147
2183.850000000196,-0.26821426,-0.7280731,-0.43183702,-2.947273,0.09765128,1.3764042,0.5302034,0.039999653,0.04,-5.6480503,5.152458667755127,-6.16355,-0.0046326593,0.0004854899598285556,0.0024605934
2183.866666666863,-0.26825845,-0.7280643,-0.43190798,-2.9473686,0.097667366,1.3763725,0.53016144,0.03999965,0.04,-5.6453996,5.152890205383301,-6.1641283,-0.0046039145,6.661704537691548e-05,0.0017284105
2183.8833333335297,-0.26829904,-0.72805613,-0.4319734,-2.9474564,0.097682185,1.376343,0.5301225,0.03999965,0.04,-5.6433015,5.1534104347229,-6.164659,-0.0045766532,-0.0003162538632750511,0.0010502429
2183.9000000001965,-0.26833636,-0.7280487,-0.4320332,-2.9475384,0.09769582,1.3763156,0.5300869,0.03999965,0.04,-5.6411877,5.153788089752197,-6.16514,-0.004549655,-0.0006692376919090748,0.0004254695
2183.9166666668634,-0.2683707,-0.728042,-0.43208817,-2.9476159,0.09770836,1.3762913,0.530054,0.03999965,0.04,-5.639408,5.154134273529053,-6.1656165,-0.0045258673,-0.0010012739803642035,-0.00014946569
2183.9333333335303,-0.26840225,-0.7280357,-0.43213904,-2.947686,0.09771993,1.3762678,0.5300238,0.03999965,0.04,-5.6376863,5.154421806335449,-6.166108,-0.004503931,-0.0013112465385347605,-0.0006787255
2183.950000000197,-0.26843128,-0.72802997,-0.432186,-2.9477491,0.09773056,1.3762473,0.5299961,0.03999965,0.04,-5.636028,5.154748916625977,-6.1664515,-0.0044839536,-0.0015962145989760756,-0.001168518
2183.966666666864,-0.268458,-0.72802484,-0.43222916,-2.9478056,0.09774036,1.3762276,0.5299705,0.03999965,0.04,-5.634309,5.155009746551514,-6.166819,-0.004464867,-0.001847096486017108,-0.0016161738
2183.983333333531,-0.2684826,-0.7280201,-0.43226865,-2.9478605,0.09774937,1.3762093,0.529947,0.039999645,0.04,-5.6327467,5.155230522155762,-6.1670923,-0.0044459947,-0.002073968295007944,-0.0020260469
2184.000000000198,-0.2685052,-0.72801554,-0.43230513,-2.9479086,0.097757645,1.3761932,0.52992535,0.039999645,0.04,-5.631741,5.155438423156738,-6.167443,-0.004429791,-0.0022967206314206123,-0.0024072435
2184.0166666668647,-0.268526,-0.7280114,-0.4323386,-2.9479556,0.09776527,1.3761775,0.5299054,0.03999965,0.04,-5.6303515,5.15566873550415,-6.1677074,-0.0044142487,-0.002488345606252551,-0.0027550186
2184.0333333335316,-0.26854503,-0.7280078,-0.4323694,-2.947996,0.097772285,1.3761635,0.52988696,0.039999645,0.04,-5.62962,5.1559038162231445,-6.1679754,-0.0044007977,-0.00268010632134974,-0.0030776106
2184.0500000001985,-0.26856267,-0.7280044,-0.43239772,-2.9480352,0.097778745,1.3761511,0.52987003,0.03999964,0.04,-5.628167,5.155988693237305,-6.1681886,-0.004386205,-0.0028416772838681936,-0.0033713235
2184.0666666668653,-0.2685789,-0.7280013,-0.4324238,-2.9480712,0.09778469,1.376139,0.5298547,0.039999645,0.04,-5.627602,5.156239032745361,-6.1684365,-0.0043743756,-0.002998160431161523,-0.0036426764
2184.083333333532,-0.2685938,-0.72799844,-0.43244788,-2.9481034,0.09779015,1.3761276,0.5298404,0.039999645,0.04,-5.626735,5.156368255615234,-6.168623,-0.004364345,-0.003143694717437029,-0.003894398
2184.100000000199,-0.26860756,-0.72799575,-0.43247005,-2.948135,0.09779517,1.3761185,0.52982736,0.039999645,0.04,-5.6258416,5.156500339508057,-6.1687846,-0.0043538027,-0.0032752477563917637,-0.004124725
2184.116666666866,-0.26862016,-0.72799325,-0.43249044,-2.948162,0.09779982,1.37611,0.5298154,0.03999965,0.04,-5.6252637,5.156649112701416,-6.169026,-0.0043456396,-0.0033978773280978203,-0.0043370184
2184.133333333533,-0.26863176,-0.727991,-0.4325091,-2.9481866,0.09780409,1.3761017,0.5298042,0.03999965,0.04,-5.6244464,5.156750679016113,-6.169145,-0.004337325,-0.0035042548552155495,-0.00453086
2184.1500000001997,-0.26864243,-0.727989,-0.43252632,-2.9482105,0.097808026,1.3760937,0.52979404,0.03999965,0.04,-5.623801,5.156843662261963,-6.1692677,-0.004328901,-0.0036015543155372143,-0.004708491
2184.1666666668666,-0.26865223,-0.72798723,-0.43254218,-2.948234,0.09781163,1.3760861,0.5297848,0.03999965,0.04,-5.6234136,5.156952857971191,-6.169399,-0.0043216785,-0.0036978772841393948,-0.004874875
2184.1833333335335,-0.26866126,-0.72798556,-0.43255675,-2.9482534,0.097814955,1.3760785,0.52977574,0.039999653,0.04,-5.623046,5.157057285308838,-6.169548,-0.004316302,-0.0037951935082674026,-0.005029662
2184.2000000002004,-0.26866964,-0.7279839,-0.43257013,-2.9482703,0.097818024,1.3760734,0.5297681,0.039999645,0.04,-5.6223083,5.157127380371094,-6.1696095,-0.0043078386,-0.0038768623489886522,-0.005169078
2184.2166666668672,-0.26867723,-0.72798246,-0.4325824,-2.9482868,0.09782085,1.3760686,0.5297608,0.039999645,0.04,-5.621744,5.157195568084717,-6.1697564,-0.0043033157,-0.003940068185329437,-0.005295724
2184.233333333534,-0.26868424,-0.72798115,-0.43259373,-2.9483027,0.09782344,1.376064,0.52975357,0.03999965,0.04,-5.6214795,5.157278060913086,-6.169851,-0.0042975973,-0.0040023610927164555,-0.005412159
2184.250000000201,-0.26869074,-0.72797996,-0.4326041,-2.9483187,0.09782585,1.3760594,0.52974755,0.039999645,0.04,-5.621194,5.157348155975342,-6.169934,-0.004290665,-0.004064592532813549,-0.0055201394
2184.266666666868,-0.26869667,-0.7279789,-0.43261364,-2.9483323,0.09782804,1.376055,0.52974206,0.039999653,0.04,-5.6210318,5.157431602478027,-6.170028,-0.0042876904,-0.004128288011997938,-0.0056226724
2184.2833333335348,-0.26870218,-0.7279779,-0.4326225,-2.9483438,0.09783006,1.3760508,0.5297367,0.03999965,0.04,-5.6205683,5.157466888427734,-6.170081,-0.0042845826,-0.00418313080444932,-0.005715017
2184.3000000002016,-0.26870716,-0.72797704,-0.4326307,-2.9483533,0.097831905,1.3760469,0.5297314,0.039999645,0.04,-5.526126,5.078009128570557,-6.1536064,0.0,-0.0,0.0
2184.3166666668685,-0.26870716,-0.72797704,-0.4326307,-2.9483533,0.097831905,1.3760469,0.5297314,0.039999645,0.04,-5.618756,5.156855583190918,-6.1702943,0.0,-0.0,0.0
2184.3333333335354,-0.26870716,-0.72797704,-0.4326307,-2.9483533,0.097831905,1.3760469,0.5297314,0.039999645,0.04,-5.618756,5.156855583190918,-6.1702943,0.0,-0.0,0.0
2184.3500000002023,-0.26870716,-0.72797704,-0.4326307,-2.9483533,0.097831905,1.3760469,0.5297314,0.039999645,0.04,-5.618756,5.156855583190918,-6.1702943,0.0,-0.0,0.0
2184.366666666869,-0.26870716,-0.72797704,-0.4326307,-2.9483533,0.097831905,1.3760469,0.5297314,0.039999645,0.04,-5.618756,5.156855583190918,-6.1702943,0.0,-0.0,0.0
2184.383333333536,-0.26870716,-0.72797704,-0.4326307,-2.9483533,0.097831905,1.3760469,0.5297314,0.039999645,0.04,-5.618756,5.156855583190918,-6.1702943,0.0,-0.0,0.0
2184.400000000203,-0.26870716,-0.72797704,-0.4326307,-2.9483533,0.097831905,1.3760469,0.5297314,0.039999645,0.04,-5.618756,5.156855583190918,-6.1702943,0.0,-0.0,0.0
2184.41666666687,-0.26870716,-0.72797704,-0.4326307,-2.9483533,0.097831905,1.3760469,0.5297314,0.039999645,0.04,-5.618756,5.156855583190918,-6.1702943,0.0,-0.0,0.0
2184.4333333335367,-0.26870716,-0.72797704,-0.4326307,-2.9483533,0.097831905,1.3760469,0.5297314,0.039999645,0.04,-5.618756,5.156855583190918,-6.1702943,0.0,-0.0,0.0
2184.4500000002035,-0.26870716,-0.72797704,-0.4326307,-2.9483533,0.097831905,1.3760469,0.5297314,0.039999645,0.04,-5.618756,5.156855583190918,-6.1702943,0.0,-0.0,0.0
2184.4666666668704,-0.26870716,-0.72797704,-0.4326307,-2.9483533,0.097831905,1.3760469,0.5297314,0.039999645,0.04,-5.618756,5.156855583190918,-6.1702943,0.0,-0.0,0.0
2184.4833333335373,-0.26870716,-0.72797704,-0.4326307,-2.9483533,0.097831905,1.3760469,0.5297314,0.039999645,0.04,-5.618756,5.156855583190918,-6.1702943,0.0,-0.0,0.0
2184.500000000204,-0.26870716,-0.72797704,-0.4326307,-2.9483533,0.097831905,1.3760469,0.5297314,0.039999645,0.04,-5.618756,5.156855583190918,-6.1702943,0.0,-0.0,0.0
2184.516666666871,-0.26870716,-0.72797704,-0.4326307,-2.9483533,0.097831905,1.3760469,0.5297314,0.039999645,0.04,-5.618756,5.156855583190918,-6.1702943,0.0,-0.0,0.0
2184.533333333538,-0.26870716,-0.72797704,-0.4326307,-2.9483533,0.097831905,1.3760469,0.5297314,0.039999645,0.04,-5.618756,5.156855583190918,-6.1702943,0.0,-0.0,0.0
2184.550000000205,-0.26870716,-0.72797704,-0.4326307,-2.9483533,0.097831905,1.3760469,0.5297314,0.039999645,0.04,-5.618756,5.156855583190918,-6.1702943,0.0,-0.0,0.0
2184.5666666668717,-0.26870716,-0.72797704,-0.4326307,-2.9483533,0.097831905,1.3760469,0.5297314,0.039999645,0.04,-5.618756,5.156855583190918,-6.1702943,0.0,-0.0,0.0
2184.5833333335386,-0.26870716,-0.72797704,-0.4326307,-2.9483533,0.097831905,1.3760469,0.5297314,0.039999645,0.04,-5.618756,5.156855583190918,-6.1702943,0.0,-0.0,0.0
2184.6000000002055,-0.26870716,-0.72797704,-0.4326307,-2.9483533,0.097831905,1.3760469,0.5297314,0.039999645,0.04,-5.618756,5.156855583190918,-6.1702943,0.0,-0.0,0.0
2184.6166666668723,-0.26870716,-0.72797704,-0.4326307,-2.9483533,0.097831905,1.3760469,0.5297314,0.039999645,0.04,-5.618756,5.156855583190918,-6.1702943,0.0,-0.0,0.0
2184.633333333539,-0.26870716,-0.72797704,-0.4326307,-2.9483533,0.097831905,1.3760469,0.5297314,0.039999645,0.04,-5.618756,5.156855583190918,-6.1702943,0.0,-0.0,0.0
2184.650000000206,-0.26870716,-0.72797704,-0.4326307,-2.9483533,0.097831905,1.3760469,0.5297314,0.039999645,0.04,-5.618756,5.156855583190918,-6.1702943,0.0,-0.0,0.0
2184.666666666873,-0.26870716,-0.72797704,-0.4326307,-2.9483533,0.097831905,1.3760469,0.5297314,0.039999645,0.04,-5.618756,5.156855583190918,-6.1702943,0.0,-0.0,0.0
2184.68333333354,-0.26870716,-0.72797704,-0.4326307,-2.9483533,0.097831905,1.3760469,0.5297314,0.039999645,0.04,-5.618756,5.156855583190918,-6.1702943,0.0,-0.0,0.0
2184.7000000002067,-0.26870716,-0.72797704,-0.4326307,-2.9483533,0.097831905,1.3760469,0.5297314,0.039999645,0.04,-5.618756,5.156855583190918,-6.1702943,0.0,-0.0,0.0
2184.7166666668736,-0.26870716,-0.72797704,-0.4326307,-2.9483533,0.097831905,1.3760469,0.5297314,0.039999645,0.04,-5.618756,5.156855583190918,-6.1702943,0.0,-0.0,0.0
2184.7333333335405,-0.26870716,-0.72797704,-0.4326307,-2.9483533,0.097831905,1.3760469,0.5297314,0.039999645,0.04,-5.618756,5.156855583190918,-6.1702943,0.0,-0.0,0.0
2184.7500000002074,-0.26870716,-0.72797704,-0.4326307,-2.9483533,0.097831905,1.3760469,0.5297314,0.039999645,0.04,-5.618756,5.156855583190918,-6.1702943,0.0,-0.0,0.0
2184.7666666668742,-0.26870716,-0.72797704,-0.4326307,-2.9483533,0.097831905,1.3760469,0.5297314,0.039999645,0.04,-5.618756,5.156855583190918,-6.1702943,0.0,-0.0,0.0
2184.783333333541,-0.26870716,-0.72797704,-0.4326307,-2.9483533,0.097831905,1.3760469,0.5297314,0.039999645,0.04,-5.618756,5.156855583190918,-6.1702943,0.0,-0.0,0.0
2184.800000000208,-0.26870716,-0.72797704,-0.4326307,-2.9483533,0.097831905,1.3760469,0.5297314,0.039999645,0.04,-5.618756,5.156855583190918,-6.1702943,0.0,-0.0,0.0
2184.816666666875,-0.26870716,-0.72797704,-0.4326307,-2.9483533,0.097831905,1.3760469,0.5297314,0.039999645,0.04,-5.618756,5.156855583190918,-6.1702943,0.0,-0.0,0.0
2184.8333333335418,-0.26870716,-0.72797704,-0.4326307,-2.9483533,0.097831905,1.3760469,0.5297314,0.039999645,0.04,-5.618756,5.156855583190918,-6.1702943,0.0,-0.0,0.0
2184.8500000002086,-0.26870716,-0.72797704,-0.4326307,-2.9483533,0.097831905,1.3760469,0.5297314,0.039999645,0.04,-5.618756,5.156855583190918,-6.1702943,0.0,-0.0,0.0
2184.8666666668755,-0.26870716,-0.72797704,-0.4326307,-2.9483533,0.097831905,1.3760469,0.5297314,0.039999645,0.04,-5.618756,5.156855583190918,-6.1702943,0.0,-0.0,0.0
2184.8833333335424,-0.26870716,-0.72797704,-0.4326307,-2.9483533,0.097831905,1.3760469,0.5297314,0.039999645,0.04,-5.618756,5.156855583190918,-6.1702943,0.0,-0.0,0.0
2184.9000000002093,-0.26870716,-0.72797704,-0.4326307,-2.9483533,0.097831905,1.3760469,0.5297314,0.039999645,0.04,-5.618756,5.156855583190918,-6.1702943,0.0,-0.0,0.0
2184.916666666876,-0.26870716,-0.72797704,-0.4326307,-2.9483533,0.097831905,1.3760469,0.5297314,0.039999645,0.04,-5.618756,5.156855583190918,-6.1702943,0.0,-0.0,0.0
2184.933333333543,-0.26870716,-0.72797704,-0.4326307,-2.9483533,0.097831905,1.3760469,0.5297314,0.039999645,0.04,-5.618756,5.156855583190918,-6.1702943,0.0,-0.0,0.0
2184.95000000021,-0.26870716,-0.72797704,-0.4326307,-2.9483533,0.097831905,1.3760469,0.5297314,0.039999645,0.04,-5.618756,5.156855583190918,-6.1702943,0.0,-0.0,0.0
2184.966666666877,-0.26870716,-0.72797704,-0.4326307,-2.9483533,0.097831905,1.3760469,0.5297314,0.039999645,0.04,-5.618756,5.156855583190918,-6.1702943,0.0,-0.0,0.0
2184.9833333335437,-0.26870716,-0.72797704,-0.4326307,-2.9483533,0.097831905,1.3760469,0.5297314,0.039999645,0.04,-5.618756,5.156855583190918,-6.1702943,0.0,-0.0,0.0
2185.0000000002105,-0.26870716,-0.72797704,-0.4326307,-2.9483533,0.097831905,1.3760469,0.5297314,0.039999645,0.04,-5.618756,5.156855583190918,-6.1702943,0.0,-0.0,0.0
2185.0166666668774,-0.26870716,-0.72797704,-0.4326307,-2.9483533,0.097831905,1.3760469,0.5297314,0.039999645,0.04,-5.618756,5.156855583190918,-6.1702943,0.0,-0.0,0.0
2185.0333333335443,-0.26870716,-0.72797704,-0.4326307,-2.9483533,0.097831905,1.3760469,0.5297314,0.039999645,0.04,-5.618756,5.156855583190918,-6.1702943,0.0,-0.0,0.0
2185.050000000211,-0.26870716,-0.72797704,-0.4326307,-2.9483533,0.097831905,1.3760469,0.5297314,0.039999645,0.04,-5.618756,5.156855583190918,-6.1702943,0.0,-0.0,0.0
2185.066666666878,-0.26870716,-0.72797704,-0.4326307,-2.9483533,0.097831905,1.3760469,0.5297314,0.039999645,0.04,-5.618756,5.156855583190918,-6.1702943,0.0,-0.0,0.0
2185.083333333545,-0.26870716,-0.72797704,-0.4326307,-2.9483533,0.097831905,1.3760469,0.5297314,0.039999645,0.04,-5.618756,5.156855583190918,-6.1702943,0.0,-0.0,0.0
2185.100000000212,-0.26870716,-0.72797704,-0.4326307,-2.9483533,0.097831905,1.3760469,0.5297314,0.039999645,0.04,-5.618756,5.156855583190918,-6.1702943,0.0,-0.0,0.0
2185.1166666668787,-0.26870716,-0.72797704,-0.4326307,-2.9483533,0.097831905,1.3760469,0.5297314,0.039999645,0.04,-5.618756,5.156855583190918,-6.1702943,0.0,-0.0,0.0
2185.1333333335456,-0.26870716,-0.72797704,-0.4326307,-2.9483533,0.097831905,1.3760469,0.5297314,0.039999645,0.04,-5.618756,5.156855583190918,-6.1702943,0.0,-0.0,0.0
2185.1500000002125,-0.26870716,-0.72797704,-0.4326307,-2.9483533,0.097831905,1.3760469,0.5297314,0.039999645,0.04,-5.618756,5.156855583190918,-6.1702943,0.0,-0.0,0.0
2185.1666666668793,-0.26870716,-0.72797704,-0.4326307,-2.9483533,0.097831905,1.3760469,0.5297314,0.039999645,0.04,-5.618756,5.156855583190918,-6.1702943,0.0,-0.0,0.0
2185.183333333546,-0.26870716,-0.72797704,-0.4326307,-2.9483533,0.097831905,1.3760469,0.5297314,0.039999645,0.04,-5.618756,5.156855583190918,-6.1702943,0.0,-0.0,0.0
2185.200000000213,-0.26870716,-0.72797704,-0.4326307,-2.9483533,0.097831905,1.3760469,0.5297314,0.039999645,0.04,-5.618756,5.156855583190918,-6.1702943,0.0,-0.0,0.0
2185.21666666688,-0.26870716,-0.72797704,-0.4326307,-2.9483533,0.097831905,1.3760469,0.5297314,0.039999645,0.04,-5.618756,5.156855583190918,-6.1702943,0.0,-0.0,0.0
2185.233333333547,-0.26870716,-0.72797704,-0.4326307,-2.9483533,0.097831905,1.3760469,0.5297314,0.039999645,0.04,-5.618756,5.156855583190918,-6.1702943,0.0,-0.0,0.0
2185.2500000002137,-0.26870716,-0.72797704,-0.4326307,-2.9483533,0.097831905,1.3760469,0.5297314,0.039999645,0.04,-5.618756,5.156855583190918,-6.1702943,0.0,-0.0,0.0
2185.2666666668806,-0.26870716,-0.72797704,-0.4326307,-2.9483533,0.097831905,1.3760469,0.5297314,0.039999645,0.04,-5.618756,5.156855583190918,-6.1702943,0.0,-0.0,0.0
2185.2833333335475,-0.26870716,-0.72797704,-0.4326307,-2.9483533,0.097831905,1.3760469,0.5297314,0.039999645,0.04,-5.618756,5.156855583190918,-6.1702943,0.0,-0.0,0.0
2185.3000000002144,-0.26870716,-0.72797704,-0.4326307,-2.9483533,0.097831905,1.3760469,0.5297314,0.039999645,0.04,-5.618756,5.156855583190918,-6.1702943,0.0,-0.0,0.0
2185.3166666668812,-0.26870716,-0.72797704,-0.4326307,-2.9483533,0.097831905,1.3760469,0.5297314,0.039999645,0.04,-5.618756,5.156855583190918,-6.1702943,0.0,-0.0,0.0
2185.333333333548,-0.26870716,-0.72797704,-0.4326307,-2.9483533,0.097831905,1.3760469,0.5297314,0.039999645,0.04,-5.618756,5.156855583190918,-6.1702943,0.0,-0.0,0.0
2185.350000000215,-0.26870716,-0.72797704,-0.4326307,-2.9483533,0.097831905,1.3760469,0.5297314,0.039999645,0.04,-5.618756,5.156855583190918,-6.1702943,0.0,-0.0,0.0
2185.366666666882,-0.26870716,-0.72797704,-0.4326307,-2.9483533,0.097831905,1.3760469,0.5297314,0.039999645,0.04,-5.618756,5.156855583190918,-6.1702943,0.0,-0.0,0.0
2185.3833333335488,-0.26870716,-0.72797704,-0.4326307,-2.9483533,0.097831905,1.3760469,0.5297314,0.039999645,0.04,-5.618756,5.156855583190918,-6.1702943,0.0,-0.0,0.0
2185.4000000002156,-0.26870716,-0.72797704,-0.4326307,-2.9483533,0.097831905,1.3760469,0.5297314,0.039999645,0.04,-5.618756,5.156855583190918,-6.1702943,0.0,-0.0,0.0
2185.4166666668825,-0.26870716,-0.72797704,-0.4326307,-2.9483533,0.097831905,1.3760469,0.5297314,0.039999645,0.04,-5.618756,5.156855583190918,-6.1702943,0.0,-0.0,0.0
2185.4333333335494,-0.26870716,-0.72797704,-0.4326307,-2.9483533,0.097831905,1.3760469,0.5297314,0.039999645,0.04,-5.618756,5.156855583190918,-6.1702943,0.0,-0.0,0.0
2185.4500000002163,-0.26870716,-0.72797704,-0.4326307,-2.9483533,0.097831905,1.3760469,0.5297314,0.039999645,0.04,-5.618756,5.156855583190918,-6.1702943,0.0,-0.0,0.0
2185.466666666883,-0.26870716,-0.72797704,-0.4326307,-2.9483533,0.097831905,1.3760469,0.5297314,0.039999645,0.04,-5.618756,5.156855583190918,-6.1702943,0.0,-0.0,0.0
2185.48333333355,-0.26870716,-0.72797704,-0.4326307,-2.9483533,0.097831905,1.3760469,0.5297314,0.039999645,0.04,-5.618756,5.156855583190918,-6.1702943,0.0,-0.0,0.0
2185.500000000217,-0.26870716,-0.72797704,-0.4326307,-2.9483533,0.097831905,1.3760469,0.5297314,0.039999645,0.04,-5.618756,5.156855583190918,-6.1702943,0.0,-0.0,0.0
2185.516666666884,-0.26870716,-0.72797704,-0.4326307,-2.9483533,0.097831905,1.3760469,0.5297314,0.039999645,0.04,-5.618756,5.156855583190918,-6.1702943,0.0,-0.0,0.0
2185.5333333335507,-0.26870716,-0.72797704,-0.4326307,-2.9483533,0.097831905,1.3760469,0.5297314,0.039999645,0.04,-5.618756,5.156855583190918,-6.1702943,0.0,-0.0,0.0
2185.5500000002176,-0.26870716,-0.72797704,-0.4326307,-2.9483533,0.097831905,1.3760469,0.5297314,0.039999645,0.04,-5.618756,5.156855583190918,-6.1702943,0.0,-0.0,0.0
2185.5666666668844,-0.26870716,-0.72797704,-0.4326307,-2.9483533,0.097831905,1.3760469,0.5297314,0.039999645,0.04,-5.618756,5.156855583190918,-6.1702943,0.0,-0.0,0.0
2185.5833333335513,-0.26870716,-0.72797704,-0.4326307,-2.9483533,0.097831905,1.3760469,0.5297314,0.039999645,0.04,-5.618756,5.156855583190918,-6.1702943,0.0,-0.0,0.0
2185.600000000218,-0.26870716,-0.72797704,-0.4326307,-2.9483533,0.097831905,1.3760469,0.5297314,0.039999645,0.04,-5.618756,5.156855583190918,-6.1702943,0.0,-0.0,0.0
2185.616666666885,-0.26870716,-0.72797704,-0.4326307,-2.9483533,0.097831905,1.3760469,0.5297314,0.039999645,0.04,-5.618756,5.156855583190918,-6.1702943,0.0,-0.0,0.0
2185.633333333552,-0.26870716,-0.72797704,-0.4326307,-2.9483533,0.097831905,1.3760469,0.5297314,0.039999645,0.04,-5.618756,5.156855583190918,-6.1702943,0.0,-0.0,0.0
2185.650000000219,-0.26870716,-0.72797704,-0.4326307,-2.9483533,0.097831905,1.3760469,0.5297314,0.039999645,0.04,-5.618756,5.156855583190918,-6.1702943,0.0,-0.0,0.0
2185.6666666668857,-0.26870716,-0.72797704,-0.4326307,-2.9483533,0.097831905,1.3760469,0.5297314,0.039999645,0.04,-5.618756,5.156855583190918,-6.1702943,0.0,-0.0,0.0
2185.6833333335526,-0.26870716,-0.72797704,-0.4326307,-2.9483533,0.097831905,1.3760469,0.5297314,0.039999645,0.04,-5.618756,5.156855583190918,-6.1702943,0.0,-0.0,0.0
2185.7000000002195,-0.26870716,-0.72797704,-0.4326307,-2.9483533,0.097831905,1.3760469,0.5297314,0.039999645,0.04,-5.618756,5.156855583190918,-6.1702943,0.0,-0.0,0.0
2185.7166666668863,-0.26870716,-0.72797704,-0.4326307,-2.9483533,0.097831905,1.3760469,0.5297314,0.039999645,0.04,-5.618756,5.156855583190918,-6.1702943,0.0,-0.0,0.0
2185.733333333553,-0.26870716,-0.72797704,-0.4326307,-2.9483533,0.097831905,1.3760469,0.5297314,0.039999645,0.04,-5.618756,5.156855583190918,-6.1702943,0.0,-0.0,0.0
2185.75000000022,-0.26870716,-0.72797704,-0.4326307,-2.9483533,0.097831905,1.3760469,0.5297314,0.039999645,0.04,-5.618756,5.156855583190918,-6.1702943,0.0,-0.0,0.0
2185.766666666887,-0.26870716,-0.72797704,-0.4326307,-2.9483533,0.097831905,1.3760469,0.5297314,0.039999645,0.04,-5.618756,5.156855583190918,-6.1702943,0.0,-0.0,0.0
2185.783333333554,-0.26870716,-0.72797704,-0.4326307,-2.9483533,0.097831905,1.3760469,0.5297314,0.039999645,0.04,-5.618756,5.156855583190918,-6.1702943,0.0,-0.0,0.0
2185.8000000002207,-0.26870716,-0.72797704,-0.4326307,-2.9483533,0.097831905,1.3760469,0.5297314,0.039999645,0.04,-5.618756,5.156855583190918,-6.1702943,0.0,-0.0,0.0
2185.8166666668876,-0.26870716,-0.72797704,-0.4326307,-2.9483533,0.097831905,1.3760469,0.5297314,0.039999645,0.04,-5.618756,5.156855583190918,-6.1702943,0.0,-0.0,0.0
2185.8333333335545,-0.26870716,-0.72797704,-0.4326307,-2.9483533,0.097831905,1.3760469,0.5297314,0.039999645,0.04,-5.618756,5.156855583190918,-6.1702943,0.0,-0.0,0.0
2185.8500000002214,-0.26870716,-0.72797704,-0.4326307,-2.9483533,0.097831905,1.3760469,0.5297314,0.039999645,0.04,-5.618756,5.156855583190918,-6.1702943,0.0,-0.0,0.0
2185.8666666668882,-0.26870716,-0.72797704,-0.4326307,-2.9483533,0.097831905,1.3760469,0.5297314,0.039999645,0.04,-5.618756,5.156855583190918,-6.1702943,0.0,-0.0,0.0
2185.883333333555,-0.26870716,-0.72797704,-0.4326307,-2.9483533,0.097831905,1.3760469,0.5297314,0.039999645,0.04,-5.618756,5.156855583190918,-6.1702943,0.0,-0.0,0.0
2185.900000000222,-0.26870716,-0.72797704,-0.4326307,-2.9483533,0.097831905,1.3760469,0.5297314,0.039999645,0.04,-5.618756,5.156855583190918,-6.1702943,0.0,-0.0,0.0
