rsonawane2002/My_IMU/logs_2/traj_253/clean_253.csv
time,j1,j2,j3,j4,j5,j6,j7,gripper1,gripper2,imu_ax,imu_ay,imu_az,imu_gx,imu_gy,imu_gz,quat_x,quat_y,quat_z,quat_w
23.1333333333333,0.00016700293,-0.785875,4.0107683e-05,-2.3551247,9.29385e-05,1.570997,0.786,0.04,0.04,0.0,-0.0,0.0,2.875329272945135e-08,-0.0011641195053377316,4.421952117202833e-08,0.9999995971961153,0.00020320632366974898,0.0008736418299892524,3.263050917662294e-05
23.149999999999967,0.00016701316,-0.78576016,4.0124178e-05,-2.3552213,9.297884e-05,1.5709941,0.786,0.04,0.04,-0.29199846058272083,-5.836222941164827e-05,0.02012840275276151,-2.803637911354711e-07,-0.002238666710319049,-3.047355257549183e-08,0.9999996850602475,0.00020320011855136407,0.0007665025188507945,3.2603778009183146e-05
23.166666666666632,0.00016707515,-0.78565425,4.0206247e-05,-2.35531,9.304925e-05,1.5709913,0.786,0.04,0.04,0.02326284620934871,-0.00015740056517399357,-0.0016366141895707287,-2.4981232303874274e-06,-0.0032280123187709542,-7.837466550765277e-07,0.9999997558789788,0.00020314444923390208,0.0006677674523398461,3.257215055462464e-05
23.183333333333298,0.00016727782,-0.7855569,4.046313e-05,-2.355391,9.320646e-05,1.5709884,0.786,0.04,0.04,0.02246073421972028,-0.0004271298632480859,-0.0015250270664290966,-7.830995834066358e-06,-0.004138466369778108,-2.8438759723115443e-06,0.9999998123309325,0.00020295622782129808,0.0005771386103508493,3.252528166046864e-05
23.199999999999964,0.00016775126,-0.78546727,4.1051844e-05,-2.3554654,9.352963e-05,1.5709856,0.786,0.04,0.04,0.019850184505720847,-0.0008155671611641171,-0.001430435943694519,-1.7287587375832603e-05,-0.0049751530097155595,-6.773129958905505e-06,0.9999998571014889,0.00020251490111982296,0.0004936921240231438,3.2446928380277636e-05
23.21666666666663,0.00016866234,-0.78538483,4.2171996e-05,-2.3555334,9.4138486e-05,1.570986,0.7860019,0.04,0.03999999,0.019976294471391043,-0.0013256225822881997,0.0012307179639403643,-3.1720647322191985e-05,-0.005744134065731737,-1.155585780144019e-05,0.9999998912787099,0.0002026201870133911,0.0004187392631878149,3.232735349727284e-05
23.233333333333295,0.00017021144,-0.78530884,4.4062614e-05,-2.3555987,9.5113704e-05,1.5709866,0.7860038,0.04,0.04,0.011613109921504439,-0.0018889071223618544,-0.002424100691578168,-6.035369979734412e-05,-0.006433866499505907,-2.2307683163764107e-05,0.9999999183722013,0.00020213377188602334,0.00034837596565524766,3.212033284714108e-05
23.24999999999996,0.00017262813,-0.78523874,4.6996407e-05,-2.3556578,9.6609496e-05,1.5709875,0.78600764,0.04,0.04,0.01713566005490108,-0.0025804768432190098,-0.0004252615617650335,-9.395452444776312e-05,-0.00708035638302454,-3.5318592150730525e-05,0.999999938753298,0.0002017979959540045,0.00028418172251560165,3.180751055774553e-05
23.266666666666627,0.0001761685,-0.7851744,5.12772e-05,-2.3557155,9.878704e-05,1.5709884,0.78601146,0.04,0.04,0.008861529326531503,-0.003341956138529548,-0.002574301539737256,-0.0001413245298929949,-0.007668688987170328,-5.0623721051574805e-05,0.9999999544130179,0.0002004238730120847,0.0002236531699949929,3.1360685851067906e-05
23.283333333333292,0.00018111241,-0.7851154,5.723622e-05,-2.3557694,0.00010180139,1.5709931,0.7860172,0.04,0.04,0.013519937246941893,-0.004159147901808708,0.0014319720343491937,-0.0001928586769400864,-0.008222024352746953,-7.1302982059605e-05,0.9999999654144729,0.00019870801346373793,0.00016953209561627387,3.074161490498565e-05
23.299999999999958,0.00018776022,-0.7850612,6.522895e-05,-2.3558207,0.000105845524,1.5709978,0.7860248,0.039999995,0.039999995,0.009766294064061931,-0.005054310421628822,-0.0014583936276624243,-0.00025704333508192454,-0.008716378076139225,-9.455952717533165e-05,0.999999973170638,0.00019637455506465909,0.00011916609232073019,2.9919890388195075e-05
23.316666666666624,0.00019643089,-0.78501135,7.563248e-05,-2.3558712,0.00011109019,1.5710063,0.78603554,0.03999999,0.04,0.007262840381305757,-0.005979828701996635,0.0005570683646372032,-0.0003325049930337588,-0.009173176186410906,-0.00012471107443920941,0.9999999781389368,0.00019372689341850237,7.321079986316518e-05,2.884779788325053e-05
23.33333333333329,0.00020745929,-0.7849656,8.884235e-05,-2.3559215,0.00011774417,1.5710151,0.7860489,0.039999988,0.039999995,0.0049988512091703186,-0.006972146403275018,-0.0019397168527390818,-0.0004233936818401169,-0.009588697594968002,-0.00015783954606779168,0.9999999810929934,0.0001902193457364807,2.9580063886403015e-05,2.7488783041538936e-05
23.349999999999955,0.00022119441,-0.78492343,0.000105270876,-2.3559716,0.00012601323,1.5710275,0.78606576,0.039999984,0.03999999,0.005557120841093166,-0.007998724749355474,0.0006959165405939771,-0.0005267807852227926,-0.009981164790898008,-0.00019666391769152913,0.9999999823198052,0.00018597879569801843,-1.0325415674469312e-05,2.580043604374333e-05
23.36666666666662,0.00023799726,-0.78488463,0.00012534403,-2.3560221,0.00013611192,1.5710437,0.78608614,0.03999998,0.03999999,0.004087030027810634,-0.009060643281661005,0.0007219327467833381,-0.0006447498346442559,-0.010337157009398884,-0.00023962694954048915,0.9999999822971545,0.000180674251582559,-4.6893065467611936e-05,2.3739124645863463e-05
23.383333333333287,0.00025823904,-0.78484887,0.00014950032,-2.3560727,0.00014825967,1.5710638,0.7861106,0.039999977,0.039999988,0.004567040529557254,-0.010152470402778857,0.001104363425707966,-0.0007761846289613002,-0.010660567874573807,-0.0002877237564924051,0.9999999813927042,0.00017423337540534972,-8.003348133232984e-05,2.125945116731625e-05
23.399999999999952,0.0002823002,-0.784816,0.0001781884,-2.356124,0.00016268094,1.5710876,0.7861398,0.039999966,0.03999998,0.0032190174164226093,-0.011269799797840862,0.000850027530563402,-0.0009214366555840064,-0.010950174908450287,-0.0003419222111534049,0.9999999798756103,0.00016666513256084233,-0.00011016389867602743,1.831468886602615e-05
23.416666666666618,0.00031056794,-0.78478587,0.00021186525,-2.3561795,0.00017960566,1.5711153,0.7861738,0.039999954,0.03999997,-0.0031221678386650353,-0.012407066172063814,-0.0006228172078071026,-0.0010820791341847858,-0.011210183733687675,-0.00040060245310640603,0.9999999777765635,0.0001576446125008532,-0.00013919166108430537,1.4856993446602752e-05
23.433333333333284,0.00034343553,-0.78475815,0.0002509948,-2.3562376,0.00019926563,1.571147,0.7862134,0.03999995,0.03999997,-0.0004753724613948407,-0.01356250009412008,0.00043573821590925377,-0.0012565291206628327,-0.011458266841444357,-0.000465546001578207,0.9999999752870146,0.00014716892897039373,-0.00016628230320954882,1.08384519941805e-05
23.44999999999995,0.00038130107,-0.78473276,0.0002960469,-2.3562968,0.00022189721,1.5711845,0.78625906,0.03999995,0.03999997,0.0027933805866409145,-0.0147345746372343,0.0025819732088372405,-0.0014460832216543385,-0.011686289130607489,-0.0005350836995185741,0.9999999728433828,0.00013514129627718809,-0.00018976689101719033,6.2121317911026985e-06
23.466666666666615,0.0004245659,-0.7847094,0.00034749496,-2.3563626,0.00024773736,1.5712274,0.7863111,0.039999947,0.039999966,-0.0074111384635200395,-0.01590957619525263,-0.000181194875903401,-0.0016508203975264648,-0.011878154641728103,-0.000610143317496775,0.9999999699755308,0.00012134364263553636,-0.00021289386866078024,9.267390466308718e-07
23.48333333333328,0.0004736344,-0.784688,0.00040581584,-2.3564315,0.00027702458,1.5712761,0.78637016,0.03999995,0.039999973,-0.0012889792651238352,-0.01709862620249644,0.0017195581097029233,-0.0018707161581086175,-0.01206489156695044,-0.0006915759063304671,0.9999999670834835,0.0001057331089719778,-0.00023372607568633862,-5.065880905839866e-06
23.499999999999947,0.0005289119,-0.78466827,0.0004714879,-2.3565054,0.00030999922,1.5713308,0.7864367,0.03999995,0.039999977,-0.004748183020963914,-0.018288231495501756,0.0012892690870902612,-0.0021059042975393005,-0.012227520838192658,-0.0007785527517086817,0.9999999639932978,8.814733093094905e-05,-0.0002531873700175171,-1.1815533574329053e-05
23.516666666666612,0.0005908049,-0.78465015,0.0005449909,-2.3565865,0.0003469015,1.571392,0.78651106,0.039999954,0.039999984,-0.008311576737862758,-0.01947943243739395,0.0007032719336885762,-0.002356167404199247,-0.012375212834109268,-0.0008710791794983158,0.9999999604408507,6.842311573218064e-05,-0.00027214200120435987,-1.937280423274307e-05
23.533333333333278,0.00065971963,-0.78463364,0.0006268038,-2.3566747,0.00038797184,1.5714604,0.78659385,0.03999996,0.039999995,-0.008163589524778914,-0.02067077708101322,0.0010465315426255728,-0.0026214631469929795,-0.012514634468749876,-0.0009691313525834371,0.9999999563828,4.6457167060179e-05,-0.0002903515284474355,-2.7787038829193255e-05
23.549999999999944,0.0007360617,-0.7846185,0.0007174052,-2.356766,0.00043345502,1.5715361,0.7866855,0.03999997,0.04,-0.0014305701531380777,-0.02186975872288402,0.00325871268469502,-0.0029019763985033776,-0.012645867291840276,-0.001071841613113328,0.9999999523317887,2.2115987465851723e-05,-0.000305729766993468,-3.710273496395621e-05
23.56666666666661,0.00082023465,-0.7846047,0.0008172714,-2.3568642,0.00048359338,1.5716197,0.78678656,0.03999997,0.04,-0.0077275488346240095,-0.02305226096625342,0.0019706893021442795,-0.00319748754128583,-0.012747003572770883,-0.001180076127980672,0.9999999477033704,-4.730342596163642e-06,-0.00031988601200867397,-4.736897183950073e-05
23.583333333333275,0.0009126412,-0.78459203,0.0009268771,-2.35697,0.00053861557,1.5717114,0.7868975,0.03999996,0.04,-0.009276806870883725,-0.02422378674680108,0.0017984917475288853,-0.0035075011426409734,-0.012834306327651623,-0.0012946298692254523,0.999999942143096,-3.418127641496493e-05,-0.0003333268565588462,-5.864001968409963e-05
23.59999999999994,0.0010136798,-0.78458047,0.0010466932,-2.3570848,0.00059877377,1.5718118,0.7870186,0.039999958,0.03999999,-0.011015345667808596,-0.025402760449425472,0.0017396009580838978,-0.003832780041094122,-0.012912564120025272,-0.0014130404765534087,0.9999999353263396,-6.645168784762179e-05,-0.00034626088907208145,-7.095693329253709e-05
23.616666666666607,0.0011237474,-0.78456986,0.0011771874,-2.3572116,0.0006642855,1.5719213,0.78715056,0.039999954,0.03999999,-0.016739795166031968,-0.026543942530745327,0.0006662569705939703,-0.00417213324708096,-0.012983014432779851,-0.001538438156334952,0.9999999264064676,-0.00010157458374918469,-0.0003602079535118895,-8.437946115717503e-05
23.633333333333272,0.0012432361,-0.78456014,0.0013188237,-2.3573463,0.00073535705,1.57204,0.7872938,0.039999947,0.04,-0.009557911578395029,-0.027681327038673806,0.002517815206726226,-0.004525994629429701,-0.013059826335479141,-0.0016714755641477229,0.9999999157386387,-0.00013970072186990113,-0.0003731116046080247,-9.896541949362134e-05
23.649999999999938,0.0013725347,-0.7845514,0.0014720601,-2.3574896,0.00081224716,1.5721684,0.7874487,0.039999947,0.04,-0.010488555025700563,-0.028838676627768716,0.0026643646846791214,-0.004894158634991838,-0.013122278206536586,-0.0018072384146644886,0.9999999029502673,-0.00018097548731511022,-0.000384941994940872,-0.00011474750276982937
23.666666666666604,0.0015120273,-0.7845432,0.0016373497,-2.3576415,0.00089519133,1.5723071,0.7876159,0.039999947,0.04,-0.010703762878239154,-0.029969023304932986,0.003276171564237096,-0.005276396049901273,-0.013172481784422502,-0.0019473451986459925,0.9999998876628944,-0.0002254508143607763,-0.00039557983598303417,-0.00013176768274511451
23.68333333333327,0.0016620932,-0.7845361,0.0018151413,-2.3578057,0.0009844142,1.5724561,0.7877957,0.03999994,0.039999995,-0.016705753263934753,-0.031064797898221457,0.0011572443265661647,-0.00567270091839079,-0.013207806687472484,-0.0020926850781011405,0.9999998686701357,-0.00027329128768468054,-0.00040675356865298726,-0.0001500770405892121
23.699999999999935,0.0018231078,-0.7845295,0.0020058765,-2.35798,0.0010801031,1.5726159,0.78798854,0.039999932,0.04,-0.01317300405456745,-0.03214065224542602,0.0028819054121109744,-0.0060825205227253,-0.013245797905111583,-0.0022462738694141744,0.9999998458104065,-0.0003246601564355464,-0.0004173305628326858,-0.00016973552224829296
23.7166666666666,0.0019954399,-0.7845235,0.0022099921,-2.3581655,0.0011824917,1.5727868,0.7881949,0.03999992,0.039999995,-0.014927619313453988,-0.033224993391858075,0.002583774267139738,-0.006505193703038956,-0.013273897794671554,-0.002402217107529056,0.9999998183193664,-0.00037962383536647727,-0.00042760872719587356,-0.00019078195542152494
23.733333333333267,0.0021794534,-0.78451824,0.002427917,-2.358363,0.0012918452,1.5729697,0.78841525,0.03999992,0.039999988,-0.01573188966417227,-0.03431874803495886,0.0026399122340148296,-0.00694126751051556,-0.013295836622644039,-0.0025606597249238213,0.9999997855210894,-0.0004382731250407796,-0.00043749859658277025,-0.00021323560007074024
23.749999999999932,0.0023755056,-0.78451335,0.0026600733,-2.358573,0.0014083029,1.5731643,0.7886499,0.03999992,0.04,-0.017460452583173414,-0.03530002865909425,0.0024038151205552083,-0.007390250233550003,-0.01331031296934689,-0.002729708698399283,0.9999997462972947,-0.0005007822275498498,-0.00044762575917929083,-0.0002371785960277187
23.766666666666598,0.0025839484,-0.78450894,0.0029068775,-2.358795,0.0015321402,1.5733713,0.7888995,0.03999992,0.039999995,-0.015977559088375948,-0.036376614170275,0.0029522758136169003,-0.007851513628816689,-0.01332404806486328,-0.002896823703639746,0.9999997000961538,-0.0005671720253496263,-0.00045733450019136326,-0.0002626188321158572
23.783333333333264,0.0028051278,-0.7845051,0.0031687366,-2.35903,0.0016635451,1.573591,0.7891641,0.03999992,0.03999999,-0.017737512296545077,-0.03735988386542516,0.0026314222373091667,-0.008325112069952933,-0.013328920898936523,-0.0030704293500475183,0.9999996457475366,-0.0006376639341251148,-0.0004669226638157606,-0.00028960789783609046
23.79999999999993,0.0030393833,-0.7845018,0.0034460516,-2.3592782,0.0018027001,1.5738236,0.78944445,0.039999917,0.03999999,-0.017849720191720486,-0.03832871579391821,0.002711802230570548,-0.00881038051811222,-0.013329855874259599,-0.0032501569205923234,0.9999995822400378,-0.0007122660674045313,-0.00047638998391645127,-0.00031819708082376217
23.816666666666595,0.0032870488,-0.78449875,0.0037392161,-2.3595407,0.0019497944,1.5740694,0.78974086,0.03999991,0.03999999,-0.019980197581426218,-0.0392785449268733,0.0024555558404637523,-0.00930762912312991,-0.013325479618227738,-0.003435129725976222,0.9999995081860544,-0.00079106848548125,-0.0004862428386458405,-0.00034843392836128286
23.83333333333326,0.0035484487,-0.78449625,0.004048618,-2.359817,0.0021050053,1.5743287,0.7900536,0.039999902,0.04,-0.01885182476883962,-0.04021091294150996,0.002627384963194146,-0.009816386155512741,-0.013320624624840785,-0.003625911926970749,0.9999994224982878,-0.0008742453068508264,-0.0004960041182090145,-0.0003803658094353725
23.849999999999927,0.0038239043,-0.784494,0.0043746317,-2.3601077,0.0022685474,1.574602,0.79038304,0.0399999,0.04,-0.019826420050317317,-0.04114619766350507,0.0029264710221132972,-0.010335810490375321,-0.013311335799463362,-0.003818491889698565,0.9999993237669943,-0.0009619031994316244,-0.0005057630246012702,-0.00041401878203255996
23.866666666666593,0.0041137272,-0.78449184,0.0047176275,-2.3604126,0.0024405993,1.5748897,0.7907297,0.039999895,0.04,-0.019907476432523552,-0.042039529284393015,0.0030682654037494927,-0.010865451862194762,-0.013298774157169527,-0.004016021433796365,0.9999992106404872,-0.0010540531769808285,-0.0005154596001494396,-0.0004494348708362943
23.88333333333326,0.004418225,-0.78449017,0.005077968,-2.360733,0.002621344,1.5751916,0.791094,0.039999887,0.04,-0.02156454072110847,-0.04290693252883039,0.0022149058297449287,-0.011405544258978474,-0.013281214018572093,-0.004217637549363303,0.9999990813797708,-0.0011507585103218778,-0.0005255107178301666,-0.0004866548581388566
23.899999999999924,0.0047376947,-0.78448874,0.0054560043,-2.3610687,0.0028109648,1.5755087,0.791476,0.03999988,0.04,-0.02118751210258285,-0.0437667824737897,0.002960722905442914,-0.011956365826493679,-0.01326150918221481,-0.004422370748670381,0.9999989343646748,-0.0012522539521352483,-0.0005354988870570052,-0.0005257095169624918
23.91666666666659,0.0050724293,-0.7844878,0.005852083,-2.3614204,0.00300961,1.5758407,0.7918763,0.03999987,0.04,-0.022245036493240278,-0.044571078818418236,0.0021974390892909312,-0.012516077132488788,-0.013238330250318973,-0.004633405521667567,0.9999987677530421,-0.0013584997392597927,-0.0005457811720574604,-0.000566651363712731
23.933333333333255,0.005422713,-0.78448707,0.006266541,-2.361788,0.0032174934,1.5761882,0.7922952,0.039999865,0.039999995,-0.02235258729690326,-0.04541350804043345,0.002640110829954523,-0.013085408947830248,-0.013213670181629474,-0.004844171883631895,0.9999985797326607,-0.001469597723666605,-0.0005561785153496691,-0.0006094921253877898
23.94999999999992,0.0057888245,-0.78448653,0.006699705,-2.3621714,0.0034347433,1.5765513,0.792733,0.03999986,0.04,-0.022009444604043082,-0.04617560806488806,0.002728893971393198,-0.013664091760305704,-0.013186380136221457,-0.0050618081750420565,0.9999983683366247,-0.0015856444724845402,-0.0005665413150174896,-0.0006542832977346007
23.966666666666587,0.0061710337,-0.78448623,0.0071518933,-2.3625717,0.0036615373,1.5769303,0.7931899,0.039999854,0.04,-0.023931106857366657,-0.04693085859999342,0.0021761425259780864,-0.014250953029242789,-0.013152687449139501,-0.00528150430277299,0.9999981310576891,-0.0017067837215102239,-0.0005773162050407813,-0.0007010538182762629
23.983333333333253,0.0065696035,-0.7844861,0.0076234196,-2.3629894,0.0038980239,1.5773257,0.7936663,0.039999846,0.04,-0.02465791779600046,-0.047661535474152056,0.002273764052840299,-0.014845489766570633,-0.013120041163850961,-0.005505464675629148,0.9999978657595849,-0.0018330065352458534,-0.0005884727428199583,-0.000749842081892504
23.99999999999992,0.0069847894,-0.7844861,0.008114584,-2.363424,0.0041443612,1.5777373,0.7941626,0.039999846,0.04,-0.02402876908906837,-0.04837878230023393,0.002177665848246413,-0.015447927644912398,-0.01308706919559491,-0.00573204943073365,0.9999975700976541,-0.0019643858607700107,-0.0005999209759168517,-0.0008006758395312968
24.016666666666584,0.0074168416,-0.7844863,0.0086256815,-2.3638759,0.00440069,1.578166,0.794679,0.03999984,0.04,-0.02414713338843022,-0.04906959162585822,0.0024781732142376,-0.016058175194571398,-0.013051561782502878,-0.005962717550510414,0.9999972417500426,-0.0021009885804497024,-0.0006113324189752213,-0.000853587702120017
24.03333333333325,0.007865999,-0.7844866,0.009156998,-2.3643458,0.0046671694,1.5786111,0.7952158,0.03999984,0.04,-0.026068184770400293,-0.049720084087176084,0.0014389058298869273,-0.016675436603055788,-0.013012117229588704,-0.006195115844986998,0.9999968775285188,-0.002242898794377069,-0.0006235111049891324,-0.0009086099892488569
24.049999999999915,0.008332496,-0.7844871,0.009708811,-2.3648334,0.004943923,1.5790738,0.7957733,0.039999828,0.04,-0.02483338133110191,-0.05036651951091306,0.0021936750765894075,-0.01729931927270363,-0.012974177028254198,-0.006432173989788969,0.9999964752461851,-0.0023901392598333613,-0.0006356217678075463,-0.000965771449678979
24.06666666666658,0.008816561,-0.7844878,0.010281384,-2.3653393,0.005231072,1.5795538,0.79635185,0.039999824,0.04,-0.02626898885436102,-0.05095665515531776,0.0016324811194845523,-0.017929851604636088,-0.01293217432976843,-0.006673040844270603,0.9999960316523471,-0.0025427813741566805,-0.0006481403372472172,-0.0010251129424019888
24.083333333333247,0.009318414,-0.7844887,0.010874983,-2.3658636,0.005528771,1.5800513,0.79695165,0.039999813,0.04,-0.026188818742811648,-0.05156899122811184,0.001347364459802769,-0.01856642048101443,-0.012889712179404777,-0.006915295420905087,0.9999955437881378,-0.0027008626868022037,-0.0006610064703275151,-0.001086653146078126
24.099999999999913,0.009838268,-0.78448975,0.011489853,-2.3664064,0.0058371304,1.5805668,0.7975728,0.039999805,0.04,-0.026526216342670494,-0.05212029374706065,0.0014858207236567722,-0.019208902586267472,-0.01284624730956814,-0.007161184258722791,0.999995008302716,-0.0028645287084735284,-0.0006740702706304155,-0.0011504234869321513
24.11666666666658,0.010376327,-0.78449094,0.0121262465,-2.3669684,0.006156268,1.5811002,0.79821575,0.039999798,0.04,-0.0274601667466845,-0.052656517420140644,0.0010580237600033016,-0.01985594773731847,-0.012799749875819503,-0.00741063527077267,0.999994421995772,-0.003033712027909947,-0.0006875987457438214,-0.001216460701533672
24.133333333333244,0.010932789,-0.7844924,0.012784387,-2.36755,0.006486321,1.5816519,0.79888064,0.03999979,0.04,-0.02812311558291203,-0.053167466655303086,0.0006981474974132595,-0.02050804536537005,-0.012752932520595096,-0.007661179649309208,0.9999937812221998,-0.0032085109753400174,-0.0007016506577771649,-0.0012847803714538485
24.14999999999991,0.0115078455,-0.784494,0.013464504,-2.36815,0.0068273777,1.582222,0.7995677,0.039999783,0.04,-0.026590166299200746,-0.05366901162319124,0.0010032883128285874,-0.021164859576588743,-0.012707387881667007,-0.007915815947535945,0.9999930827309641,-0.003388966269608671,-0.0007157181061254663,-0.0013554133830776798
24.166666666666575,0.012101679,-0.7844957,0.014166813,-2.3687701,0.007179571,1.5828106,0.80027705,0.039999776,0.04,-0.029079086371242013,-0.05411904870836412,0.00027622320071252204,-0.021825829310846992,-0.012656989367427773,-0.008171492902796871,0.9999923221851866,-0.0035751599864603197,-0.0007304258880968101,-0.0014283836218172395
24.18333333333324,0.012714467,-0.7844976,0.014891524,-2.3694098,0.0075430046,1.583418,0.80100876,0.039999776,0.04,-0.028230346254254357,-0.054573655936145105,0.00027232733428306233,-0.022489780086320528,-0.012608434437524699,-0.008429532414690456,0.999991495630985,-0.0037672047294536335,-0.0007454450680062035,-0.0015037107045008254
24.199999999999907,0.013346372,-0.7844997,0.015638834,-2.3700688,0.007917783,1.5840442,0.80176365,0.03999977,0.039999995,-0.027855584326363925,-0.05499322930108408,0.00018093900837623522,-0.02315583731450535,-0.012557639694441892,-0.008689306366226654,0.9999906003969886,-0.003964813594037333,-0.0007605950885075085,-0.0015814126425658258
24.216666666666573,0.013997568,-0.7845019,0.016408939,-2.3707488,0.008303962,1.5846897,0.80254173,0.03999976,0.04,-0.030683198284942037,-0.05532935330069266,-0.0005164412401725826,-0.02382677674094858,-0.012504658699714295,-0.008955268343043069,0.9999896315232176,-0.004168111676124337,-0.0007764998340446134,-0.0016615472073816242
24.23333333333324,0.014668201,-0.7845041,0.017202018,-2.3714485,0.008701657,1.5853547,0.80334294,0.039999753,0.04,-0.028822446322629425,-0.055738758992621845,-0.00011898531580012417,-0.024501096953365692,-0.01245318592995788,-0.009220893098577525,0.9999885847524896,-0.004377246828645197,-0.0007925622990641317,-0.0017441100642098938
24.249999999999904,0.015358418,-0.78450644,0.018018248,-2.3721688,0.009110968,1.5860388,0.8041675,0.03999975,0.04,-0.030059437558871416,-0.056058891604685024,-0.0010233804867532115,-0.02517745366857254,-0.012400069532290121,-0.009487899832783458,0.9999874554862349,-0.004592206261746212,-0.0008091979795558032,-0.0018291283292569017
24.26666666666657,0.016068364,-0.7845089,0.018857792,-2.3729093,0.009531987,1.5867424,0.8050156,0.039999742,0.04,-0.02965695069103713,-0.05639442599474492,-0.001070057121510537,-0.025855837419438026,-0.012347150569998553,-0.009756219044252518,0.9999862394149834,-0.004813005875919557,-0.0008261668647755363,-0.0019166124880275672
24.283333333333236,0.016798172,-0.78451145,0.01972081,-2.3736706,0.009964762,1.5874661,0.8058874,0.039999735,0.04,-0.030324253174507376,-0.05666150577042159,-0.0011085244546293893,-0.026535613124853787,-0.012293357870478389,-0.010028840288154522,0.9999849318639289,-0.005039680751034444,-0.0008433475364329833,-0.002006596111310476
24.2999999999999,0.01754797,-0.784514,0.020607458,-2.3744528,0.010409384,1.5882092,0.806783,0.039999727,0.04,-0.03120966575496098,-0.05691789217279891,-0.0021383704359223543,-0.027216257599820076,-0.012236976569508881,-0.010302732926997956,0.9999835275798042,-0.005272230392170849,-0.00086133394388126,-0.002099109234916004
24.316666666666567,0.018317878,-0.78451663,0.021517877,-2.3752556,0.010865921,1.5889721,0.8077027,0.039999723,0.04,-0.030229337158260705,-0.057182042565964014,-0.0018692070201664635,-0.027897727330056764,-0.012183867402129504,-0.010578182307378694,0.9999820224067776,-0.005510618466422012,-0.0008795577808082153,-0.002194157122620837
24.333333333333233,0.019108003,-0.78451943,0.022452192,-2.3760798,0.011334452,1.5897553,0.8086465,0.039999716,0.04,-0.03169687584203551,-0.05736126111856241,-0.0024994827969360145,-0.028579958752647287,-0.012128432393292983,-0.01085472750087976,0.9999804108117547,-0.005754908560419999,-0.0008982553797409419,-0.0022917586017013112
24.3499999999999,0.01991846,-0.7845224,0.023410536,-2.3769255,0.01181501,1.5905583,0.8096144,0.039999712,0.04,-0.031938169017875495,-0.05752815303834008,-0.0032464001804788367,-0.02926232754455451,-0.012073740950119483,-0.011135326427472867,0.9999786871212892,-0.0060051432760631785,-0.0009176622448368052,-0.0023919559822415154
24.366666666666564,0.02074935,-0.78452545,0.024393024,-2.3777914,0.0123077,1.5913819,0.8106069,0.03999971,0.04,-0.029869573053553644,-0.05780149835994883,-0.0023930825179485637,-0.029943504716665376,-0.012020046016774096,-0.011413397188491645,0.9999768479183441,-0.006261181598130011,-0.0009368230140242024,-0.0024947133960547905
24.38333333333323,0.021600759,-0.7845286,0.025399763,-2.3786788,0.012812557,1.5922256,0.8116238,0.039999705,0.04,-0.03211733670116512,-0.057847398098265224,-0.003848651912563561,-0.030625216217800677,-0.011961631528854197,-0.01169494719158673,0.9999748863488659,-0.006523124477240314,-0.0009565987854090631,-0.002600084112252549
24.399999999999896,0.022472776,-0.78453183,0.026430866,-2.3795881,0.013329638,1.5930898,0.81266534,0.0399997,0.04,-0.0329061364830574,-0.05797142015416534,-0.004025107827843044,-0.031305260636502914,-0.011904418178159619,-0.011977973167613752,0.9999727971888476,-0.006790929007836756,-0.0009769568260019426,-0.002708084356603837
24.41666666666656,0.023365485,-0.7845352,0.027486421,-2.3805192,0.013858973,1.5939747,0.8137315,0.039999694,0.04,-0.03246727418835249,-0.05805168477110573,-0.004406874570661579,-0.031984473411331135,-0.011847629655253385,-0.012263230098978735,0.9999705746882758,-0.0070646348267884495,-0.0009977152141159003,-0.002818733175600665
24.433333333333227,0.02427895,-0.7845387,0.028566511,-2.3814714,0.014400619,1.5948799,0.8148227,0.039999686,0.04,-0.0320015325051326,-0.05812801407653195,-0.004822107150981303,-0.0326613277475272,-0.011790612855914775,-0.012549016161944947,0.9999682143908999,-0.007344063795868175,-0.0010188706247167667,-0.002932036406242098
24.449999999999893,0.025213249,-0.7845422,0.029671222,-2.3824458,0.014954607,1.5958056,0.81593865,0.039999675,0.04,-0.03361853864332076,-0.05813663962124793,-0.005469441427363719,-0.033337680344622284,-0.011734330818762947,-0.012836905219261646,0.9999657090661769,-0.007629359610403509,-0.001040717632682842,-0.003048027316492147
24.46666666666656,0.026168438,-0.78454596,0.030800616,-2.383442,0.015520957,1.596752,0.81707937,0.039999675,0.04,-0.032712907178900075,-0.05814698871877688,-0.005794465649899827,-0.03401115339553322,-0.01168005241972011,-0.013126752362792544,0.9999630526633764,-0.00792056895720345,-0.0010629250087381863,-0.003166715326883022
24.483333333333224,0.027144564,-0.7845498,0.03195476,-2.38446,0.016099723,1.5977193,0.81824505,0.03999967,0.04,-0.033351180432950045,-0.05814453476110232,-0.0061101647397698855,-0.0346810907102203,-0.01162495784981838,-0.01341623198240792,0.9999602398312268,-0.008217580426481049,-0.001085578477121027,-0.00328810705110632
24.49999999999989,0.028141677,-0.7845537,0.033133715,-2.3854992,0.016690938,1.5987072,0.8194357,0.03999966,0.04,-0.032250445663817295,-0.05814940120473788,-0.00645134376460188,-0.03534780651846217,-0.01157121987170412,-0.013707568673098393,0.9999572645798388,-0.008520405977255799,-0.0011084063432033446,-0.0034122033010307285
24.516666666666556,0.029159825,-0.7845579,0.03433752,-2.3865607,0.017294612,1.5997161,0.82065165,0.039999656,0.04,-0.03374284606108002,-0.05802991971196325,-0.0072008700966019745,-0.03601083350706301,-0.011514523872242104,-0.014000078919545376,0.9999541216361876,-0.008828887290253622,-0.0011316418271467294,-0.0035390335957153902
24.53333333333322,0.030199043,-0.784562,0.035566222,-2.387644,0.017910762,1.6007458,0.82189274,0.03999965,0.04,-0.033818837188670514,-0.057958379692005235,-0.007516513562166871,-0.03667108665996911,-0.011458285391906596,-0.014293615299243473,0.9999508040353422,-0.009143079214304366,-0.001155370101835998,-0.0036686143816675567
24.549999999999887,0.031259354,-0.78456604,0.036819864,-2.388749,0.018539412,1.6017964,0.82315886,0.03999964,0.04,-0.03312120410536856,-0.057891067810648955,-0.007789924750856159,-0.03732709439892731,-0.011403150334991612,-0.014588099440100505,0.9999473050955949,-0.009463031783075806,-0.0011793487891593867,-0.0038009469824416904
24.566666666666553,0.03234078,-0.7845703,0.038098454,-2.3898766,0.01918058,1.6028678,0.8244502,0.039999627,0.04,-0.03541237948379017,-0.05762572821394196,-0.009131943667251008,-0.03797830377747291,-0.011345696884963063,-0.014884545503402749,0.9999436186433561,-0.00978861036554611,-0.001204168068750504,-0.003936066666613904
24.58333333333322,0.033443335,-0.78457457,0.039402027,-2.3910258,0.01983426,1.6039602,0.8257668,0.039999627,0.04,-0.03322355152730605,-0.057573749402412,-0.008888892099179202,-0.03862496083920133,-0.011294922539553484,-0.015180665748590734,0.9999397392196483,-0.01011977741219253,-0.0012291676041655522,-0.004073963852338729
24.599999999999884,0.03456704,-0.78457904,0.0407306,-2.3921967,0.020500477,1.6050735,0.8271087,0.039999615,0.04,-0.033580138688704686,-0.05740443387467625,-0.009510394530898303,-0.039266702728919425,-0.011241136680449154,-0.015477819056044437,0.9999356604168549,-0.010456501894758875,-0.0012543423557766836,-0.004214643530322203
24.61666666666655,0.035711896,-0.78458357,0.042084157,-2.39339,0.02117923,1.6062077,0.8284757,0.039999615,0.04,-0.035053474439106225,-0.05711008488643032,-0.010339801339132038,-0.03990292049567963,-0.011185802544739193,-0.015774928778580936,0.9999313747628358,-0.010798786474634958,-0.0012801036573030422,-0.004358131504086852
24.633333333333216,0.03687789,-0.7845882,0.043462712,-2.3946052,0.021870514,1.607363,0.8298681,0.03999961,0.04,-0.03429646345500803,-0.056906627220203176,-0.010678238067574064,-0.04053357895331626,-0.011133760957052402,-0.016073517693709106,0.9999268771139478,-0.011146498056616853,-0.001306177159075663,-0.004504431978737167
24.64999999999988,0.03806503,-0.784593,0.044866253,-2.3958428,0.022574326,1.6085392,0.8312856,0.039999597,0.04,-0.03523381627856814,-0.056622849633823635,-0.011469865053936878,-0.04115870198404861,-0.011079756227279601,-0.0163738946311879,0.9999221597023042,-0.011499674535221483,-0.0013327950213272786,-0.0046535662984963705
24.666666666666547,0.039273296,-0.7845979,0.046294756,-2.3971026,0.02329066,1.6097362,0.83272815,0.039999586,0.04,-0.03502626150939658,-0.05632149299207023,-0.012084895322250766,-0.041777133579828055,-0.011029479130221807,-0.016673110059982336,0.9999172154761837,-0.01185830928019212,-0.0013599511557140643,-0.0048055414080548356
24.683333333333213,0.04050267,-0.7846029,0.047748204,-2.3983843,0.024019515,1.610954,0.83419603,0.03999958,0.04,-0.034707585584747846,-0.05605751666991898,-0.012441827073605971,-0.04238851521377171,-0.010981030537978255,-0.016973702148818305,0.9999120400171028,-0.012222196106508218,-0.001387459741241641,-0.004960353478963139
24.69999999999988,0.04175313,-0.7846079,0.04922658,-2.3996875,0.02476085,1.612193,0.83568895,0.03999958,0.04,-0.03407795113996581,-0.05577302427794972,-0.012531181189112672,-0.042993476333838876,-0.010933399517742665,-0.017274763558616527,0.9999066255510455,-0.012591422105889098,-0.0014150161812267923,-0.0051180071980911354
24.716666666666544,0.043024648,-0.784613,0.05072982,-2.401013,0.025514657,1.6134529,0.837207,0.03999957,0.04,-0.035329850347864955,-0.055330522355545586,-0.013613930369626992,-0.043590876718065455,-0.010882358246767289,-0.01757757723758674,0.999900966162492,-0.012965836531509928,-0.0014429699328410643,-0.005278521395803759
24.73333333333321,0.04431718,-0.7846182,0.052257895,-2.4023604,0.026280936,1.6147333,0.8387502,0.03999956,0.04,-0.03567472725909404,-0.0549282569768883,-0.014518868120361184,-0.04418074018075753,-0.01083440084304528,-0.01787915339090606,0.9998950549085054,-0.013345380250597666,-0.001471581481139463,-0.005441915419061643
24.749999999999876,0.045630675,-0.78462356,0.053810764,-2.4037297,0.027059639,1.6160345,0.84031856,0.039999556,0.04,-0.03478104247012226,-0.05456404621239086,-0.01474031154096167,-0.04476346012116364,-0.010790060094926474,-0.018181729442931498,0.9998888870647477,-0.013729912572973445,-0.0015004250680527682,-0.005608185961079278
24.76666666666654,0.04696511,-0.78462887,0.055388357,-2.4051201,0.02785075,1.6173565,0.84191185,0.03999954,0.04,-0.03432273919639073,-0.05421919130633446,-0.014877287940784356,-0.04533899902141336,-0.010745114171279407,-0.018485121408600633,0.9998824548393555,-0.01411950290514238,-0.0015293154477356715,-0.00577731221220347
24.783333333333207,0.048320416,-0.78463435,0.056990627,-2.406532,0.02865423,1.6186993,0.84353,0.039999533,0.04,-0.03463122595372958,-0.05371664015419164,-0.015792015440130314,-0.04590620411660358,-0.01069852927276517,-0.01878880120181426,0.9998757517870074,-0.01451407216072159,-0.0015583026094849576,-0.005949318503620095
24.799999999999873,0.049696535,-0.78463984,0.05861748,-2.407966,0.029470047,1.6200626,0.845173,0.03999953,0.04,-0.03584749026579459,-0.053147243690362944,-0.01671506147193913,-0.046464335897058145,-0.01065128448285757,-0.01909316853021925,0.9998687714803469,-0.014913498270285984,-0.0015878234781054905,-0.006124230917137643
24.81666666666654,0.05109342,-0.78464556,0.060268868,-2.4094217,0.030298166,1.6214465,0.84684074,0.03999953,0.04,-0.03567524261964827,-0.05269223268716261,-0.017344752854775436,-0.047014304853910435,-0.010607382991889597,-0.019397806717514836,0.9998615073365589,-0.015317745118873977,-0.0016176896588103883,-0.006302056117275455
24.833333333333204,0.052510988,-0.78465134,0.061944705,-2.410899,0.03113857,1.6228508,0.8485331,0.03999951,0.04,-0.03526359912016108,-0.052208060473990514,-0.01778490015138523,-0.04755500566876697,-0.010566587607026112,-0.019702608375088783,0.999853952941953,-0.015726756471679405,-0.0016478628730483163,-0.006482782210041362
24.84999999999987,0.05394917,-0.7846573,0.06364489,-2.412398,0.03199117,1.6242754,0.85025007,0.039999515,0.04,-0.036073366409183905,-0.0515496175371416,-0.018683713285705394,-0.04808600820565387,-0.010525914626131158,-0.020006983316342618,0.9998461024504628,-0.016140397961504405,-0.0016785087746390684,-0.006666451571597694
24.866666666666536,0.055407878,-0.7846633,0.06536935,-2.413918,0.032855958,1.6257203,0.85199165,0.039999507,0.04,-0.034373290075673246,-0.051146379498656636,-0.018785568140655684,-0.04860817547022285,-0.010488250071067684,-0.020312395301150463,0.999837951234969,-0.01655856399961655,-0.0017092023907897189,-0.006853018000702728
24.8833333333332,0.056887034,-0.78466934,0.067117974,-2.4154594,0.033732865,1.6271846,0.8537575,0.039999504,0.04,-0.035976017766237156,-0.05039288969550526,-0.02016787301422074,-0.04912115037900193,-0.010450378719126949,-0.02061820355581804,0.9998294897994285,-0.01698128569208179,-0.0017406154981491563,-0.007042550769851938
24.899999999999867,0.058386553,-0.78467536,0.06889065,-2.417022,0.034621835,1.6286714,0.85554767,0.039999496,0.04,-0.03479974228361993,-0.05003946380028046,-0.01851995121020522,-0.04962365919588013,-0.01041867785062063,-0.02092369712267854,0.9998207168903148,-0.017408412321174654,-0.0017711918125049126,-0.0072349248065309265
24.916666666666533,0.05990636,-0.7846816,0.07068726,-2.4186053,0.03552282,1.6301774,0.857362,0.039999478,0.04,-0.03485206152595843,-0.04920137127587543,-0.02137103399546536,-0.050116029802817805,-0.010378589399794552,-0.021230456132714667,0.9998116232498565,-0.01783989024949106,-0.0018021672508969945,-0.007430243843431042
24.9333333333332,0.0614463,-0.78468794,0.07250771,-2.420209,0.036435734,1.6317028,0.85920036,0.039999478,0.04,-0.03428988706637437,-0.04860260539544803,-0.02144665848853311,-0.05059782566551527,-0.010342351370235453,-0.021538606875630313,0.999802204092612,-0.018275602829860186,-0.0018332608370378812,-0.007628511484133489
24.949999999999864,0.06300632,-0.78469425,0.074351855,-2.421835,0.03736057,1.6332482,0.8610627,0.039999474,0.04,-0.03796127399624538,-0.047697069460786445,-0.0227112948661512,-0.05106937319030376,-0.010306588167737787,-0.02184325080652983,0.9997924527005972,-0.01871542126599256,-0.0018652622403978112,-0.007829771806059515
24.96666666666653,0.0645863,-0.78470063,0.07621959,-2.4234812,0.038297243,1.6348134,0.86294883,0.039999463,0.04,-0.034426070041271295,-0.04728593291752625,-0.02237806957858801,-0.05153057235676116,-0.010279880335288413,-0.022149662755714936,0.9997823644869074,-0.019159329300316687,-0.001897178626970582,-0.008033957616770206
24.983333333333196,0.0661861,-0.7847071,0.07811076,-2.4251482,0.039245684,1.6363982,0.8648586,0.039999455,0.04,-0.03537064711442994,-0.046421342073432736,-0.02341832099059804,-0.05198065979277515,-0.010251333862108233,-0.022456589892232995,0.999771933883161,-0.01960719751003328,-0.0019293223554642364,-0.008241100689567989
24.99999999999986,0.06780565,-0.7847137,0.080025226,-2.4268358,0.040205806,1.6380022,0.86679196,0.03999945,0.04,-0.035261220537829985,-0.045692080148210246,-0.024119087040785914,-0.052419674401590705,-0.010226507599564671,-0.02276363393453608,0.9997611551599566,-0.020058938767565926,-0.0019617673133020745,-0.008451217531038216
25.016666666666527,0.0694448,-0.78472024,0.08196286,-2.428544,0.04117756,1.6396259,0.8687488,0.03999944,0.04,-0.035671028728012644,-0.044958941866701796,-0.024363227350354677,-0.05284774983972215,-0.010205778349429595,-0.023070369576233457,0.9997500245649472,-0.02051440789179441,-0.0019943503814089836,-0.008664295573949363
25.033333333333193,0.07110343,-0.784727,0.0839235,-2.4302726,0.042160846,1.6412688,0.8707288,0.039999433,0.04,-0.034958099212589744,-0.04414973134311273,-0.02520694932763856,-0.05326479471912718,-0.010185742395736053,-0.023378100977383284,0.9997385355341273,-0.02097358437382119,-0.0020270263139275306,-0.008880342950316826
25.04999999999986,0.07278141,-0.7847338,0.085907005,-2.432021,0.043155577,1.6429309,0.87273186,0.039999418,0.04,-0.03443113858105917,-0.04342291876126836,-0.025558067628872472,-0.053670148542626694,-0.010168895405493858,-0.023685677005900144,0.9997266834484067,-0.021436366513285322,-0.0020596598942519313,-0.009099362234646797
25.066666666666524,0.07447857,-0.78474087,0.08791319,-2.4337897,0.044161677,1.6446117,0.87475795,0.03999941,0.04,-0.03557409433130321,-0.04237391213475494,-0.02678598668051091,-0.054063483780136104,-0.010153225930048068,-0.023993996885919633,0.9997144645969492,-0.021902558087407334,-0.0020925895300739246,-0.009321389055374713
25.08333333333319,0.0761948,-0.78474796,0.08994188,-2.4355779,0.045179088,1.6463118,0.87680656,0.039999403,0.04,-0.03386707239010356,-0.04181487123910421,-0.02630863883565926,-0.0544457680875379,-0.010142222565639208,-0.024300031656936685,0.9997018722950117,-0.02237225317486087,-0.002125180795418854,-0.009546330410936065
25.099999999999856,0.077929914,-0.7847551,0.09199293,-2.437386,0.046207685,1.6480302,0.8788779,0.03999939,0.04,-0.035396410079191476,-0.04067097248006413,-0.02788562779367787,-0.0548146620867762,-0.010128960488152317,-0.024609404177671698,0.9996889041819849,-0.022845135213828856,-0.002158151530602752,-0.00977430480675107
25.11666666666652,0.079683825,-0.7847623,0.09406615,-2.439214,0.047247443,1.6497672,0.8809716,0.039999377,0.04,-0.03502155781376359,-0.03994918512880141,-0.028147378002985057,-0.05517267687403728,-0.010122107785438386,-0.024914006360776494,0.9996755550111478,-0.023321192354091316,-0.002191250769971585,-0.010005254639459376
25.133333333333187,0.08145636,-0.78476954,0.096161395,-2.4410603,0.04829822,1.6515228,0.8830875,0.039999373,0.04,-0.032748434644869207,-0.0392990809523347,-0.027875448890157806,-0.05551838082253727,-0.01011869680778299,-0.02522142777821837,0.9996618210259504,-0.023800390092425194,-0.0022237776849004694,-0.010239132157435106
25.149999999999853,0.08324736,-0.7847769,0.09827841,-2.4429264,0.049359944,1.6532965,0.8852256,0.039999362,0.04,-0.03524068659608304,-0.037959127613723664,-0.02960725665914765,-0.0558512383304805,-0.010113913404038513,-0.02552941315625941,0.9996476996295787,-0.024282453857320224,-0.002256570953811413,-0.010476017730481207
25.16666666666652,0.085056655,-0.78478444,0.100417055,-2.4448116,0.050432485,1.6550885,0.88738513,0.03999935,0.04,-0.03411352767848097,-0.03719984341026272,-0.029539044154502925,-0.05617254174796829,-0.010114187601399385,-0.02583691463062704,0.9996331811771558,-0.02476757027835826,-0.0022891676444250194,-0.01071588837390211
25.183333333333184,0.086884096,-0.78479207,0.10257713,-2.446715,0.051515803,1.6568986,0.8895666,0.03999934,0.04,-0.03309851671740027,-0.036402380353822705,-0.029931213511691368,-0.056479492139087734,-0.010115457828363525,-0.02614074695775126,0.9996182707482438,-0.025255318550747433,-0.002321371044894068,-0.010958690964849058
25.19999999999985,0.0887295,-0.7847998,0.1047584,-2.448638,0.05260978,1.6587265,0.89176923,0.039999336,0.04,-0.03489470629027824,-0.03511898698174698,-0.031124447368013897,-0.05677481544155538,-0.01011839554478064,-0.026446152772218706,0.9996029569465232,-0.025745823386674676,-0.002353753079442629,-0.011204503038982166
25.216666666666516,0.090592675,-0.7848076,0.106960684,-2.4505792,0.0537143,1.6605716,0.893993,0.039999332,0.04,-0.0335714216644023,-0.03426088984914699,-0.03141401015995804,-0.057056385529301895,-0.010125192389879356,-0.026750803304893503,0.9995872391706782,-0.026238894353142212,-0.0023860844024578597,-0.011453310066984745
25.23333333333318,0.09247346,-0.78481555,0.10918376,-2.452539,0.05482928,1.6624345,0.8962379,0.039999325,0.04,-0.03385001024940326,-0.033254666141641076,-0.031704072251304005,-0.057324934725743265,-0.010137168346603859,-0.02705420257720466,0.9995711173299926,-0.026734337659194692,-0.0024181953913935896,-0.011705080975514745
25.249999999999847,0.094371684,-0.7848235,0.111427404,-2.454517,0.055954594,1.6643145,0.8985039,0.039999325,0.04,-0.03343634613723889,-0.032242596245302124,-0.03229543977045779,-0.05758096322387271,-0.010150567429809063,-0.02735877551556945,0.9995545909127606,-0.027231943669905365,-0.0024501802991133154,-0.01195983468467356
25.266666666666513,0.09628715,-0.7848316,0.11369144,-2.4565125,0.05709017,1.6662115,0.90079015,0.039999314,0.04,-0.0325810741034438,-0.031331655953203974,-0.03274848382173179,-0.05782561277896986,-0.010169238554573024,-0.02766199915116488,0.9995376493338315,-0.02773192797350903,-0.0024818146838464696,-0.012217541935497706
25.28333333333318,0.09821966,-0.78483987,0.115975596,-2.4585257,0.05823585,1.6681256,0.9030968,0.039999314,0.04,-0.03257753632457394,-0.030185619085998372,-0.032992887107141655,-0.05805540661124953,-0.010188141047610816,-0.02796518443410198,0.9995202961328028,-0.028233976919747557,-0.0025129532574921305,-0.012478190245988051
25.299999999999844,0.10016905,-0.7848482,0.11827965,-2.4605565,0.059391536,1.6700561,0.9054235,0.039999306,0.04,-0.033044639236123885,-0.02904780994444356,-0.03400015229340081,-0.05827240730013469,-0.010209143457857672,-0.02826796781748575,0.9995025260510603,-0.028738019856872188,-0.0025440451394689893,-0.012741839215121894
25.31666666666651,0.10213506,-0.7848565,0.12060338,-2.4626048,0.060557105,1.6720031,0.90777016,0.039999302,0.04,-0.032766370339998296,-0.027992725800241036,-0.03404673756304266,-0.05847623257694037,-0.010236365007950152,-0.028570277116056725,0.9994843391262279,-0.029243899334615363,-0.0025748885433442784,-0.013008464248462446
25.333333333333176,0.10411757,-0.7848649,0.12294655,-2.4646702,0.06173244,1.6739664,0.91013634,0.039999302,0.04,-0.032335493444834995,-0.02695182720252598,-0.034669560125166754,-0.05866712365088128,-0.010266593926565176,-0.028871896229676286,0.9994657310215633,-0.02975159259939009,-0.0026054287509061328,-0.01327806433016078
25.34999999999984,0.10611634,-0.7848734,0.12530895,-2.4667523,0.06291745,1.6759462,0.91252196,0.0399993,0.04,-0.0314745775822356,-0.026005284390795413,-0.03452322335726343,-0.05884434729576038,-0.010301138553396316,-0.029172709586788623,0.9994467038815477,-0.030260927780734897,-0.002635228970420293,-0.013550568933901292
25.366666666666507,0.10813117,-0.78488183,0.1276903,-2.4688518,0.06411198,1.6779417,0.9149268,0.03999929,0.04,-0.03331444835277253,-0.024520857453974587,-0.035906259041640354,-0.05900808172338415,-0.01033628466911947,-0.02947373858957382,0.9994272540572942,-0.030771720779570317,-0.0026652021295950155,-0.013826125464834261
25.383333333333173,0.11016185,-0.7848904,0.13009043,-2.4709675,0.0653159,1.6799526,0.9173506,0.03999929,0.04,-0.0310417372788363,-0.02370962122093534,-0.03580434314531811,-0.05915935440935716,-0.010380339578534584,-0.02977285144118083,0.9994073799369716,-0.03128396522746737,-0.0026946433215666267,-0.014104656838573504
25.39999999999984,0.11220814,-0.78489906,0.13250893,-2.473099,0.06652911,1.6819792,0.91979307,0.039999284,0.04,-0.030352502693031802,-0.022538301287289286,-0.035696117520656045,-0.059297215783671836,-0.010427284251088936,-0.030071377294521265,0.9993870854784842,-0.03179746039463064,-0.002723297110261692,-0.014386053806441932
25.416666666666504,0.11426984,-0.78490764,0.1349456,-2.4752464,0.06775147,1.6840209,0.9222538,0.039999284,0.04,-0.03109136461847406,-0.021277199912661526,-0.03647042443783999,-0.05942192148205988,-0.010474721138384657,-0.03037083133820305,0.9993663643632281,-0.03231219976147805,-0.002751546803548737,-0.014670395911008315
25.43333333333317,0.11634673,-0.7849164,0.13740022,-2.4774096,0.06898284,1.6860777,0.92473274,0.039999276,0.04,-0.03046516865039539,-0.02021844925986227,-0.03675186730205393,-0.05953283544141458,-0.01052723431367443,-0.030668579456749098,0.999345220252519,-0.03282796589569937,-0.0027791237524269078,-0.014957669763822292
25.449999999999836,0.11843862,-0.7849252,0.13987254,-2.4795885,0.07022306,1.6881492,0.92722946,0.039999265,0.04,-0.030780029536758846,-0.01893579392002187,-0.03734459064086426,-0.05963108923228791,-0.010583305242931995,-0.030968238095609973,0.9993236478707147,-0.03334474665915772,-0.002806291670501436,-0.01524793112735812
25.4666666666665,0.12054524,-0.78493434,0.14236222,-2.4817832,0.07147204,1.6902355,0.92974365,0.039999258,0.04,-0.030502984756242135,-0.017678942776211404,-0.03760568011530463,-0.05971513819245183,-0.010643767129892928,-0.03126466343775865,0.9993016493196089,-0.033862400298344954,-0.0028328480563231473,-0.015541122386555223
25.483333333333167,0.12266639,-0.7849434,0.14486903,-2.4839933,0.072729595,1.6923358,0.93227535,0.03999925,0.04,-0.03074236255502516,-0.016433875914650953,-0.03811615353883635,-0.059785851913616433,-0.010708815871311603,-0.031561896536351025,0.999279227374599,-0.03438066352452734,-0.00285916825275304,-0.015837325220518457
25.499999999999833,0.12480184,-0.7849527,0.14739272,-2.4862182,0.07399564,1.6944504,0.93482393,0.03999924,0.04,-0.02917923170007164,-0.015506580536517323,-0.03798022701180237,-0.059844583214608865,-0.010782656755726969,-0.03185542153464076,0.9992563781575114,-0.034899641790868574,-0.002884670423646497,-0.016136430551661866
25.5166666666665,0.12695129,-0.78496206,0.14993297,-2.4884574,0.07527001,1.6965791,0.9373894,0.03999923,0.04,-0.028572886267008712,-0.01430104302984625,-0.037815006305286225,-0.05988918801554349,-0.010858377586481421,-0.0321474544932657,0.9992331093023926,-0.03541905181678199,-0.0029091765807190088,-0.016438392071459796
25.533333333333164,0.12911458,-0.7849714,0.15248951,-2.4907105,0.07655256,1.6987214,0.9399713,0.039999224,0.04,-0.02802458980857292,-0.013218832572248207,-0.03817697246213392,-0.05992106513278947,-0.010935124644414818,-0.032440777449454325,0.9992094180796237,-0.035938869100998756,-0.002932743783283205,-0.01674322318499456
25.54999999999983,0.1312914,-0.78498083,0.15506206,-2.4929776,0.07784317,1.700877,0.9425693,0.039999217,0.04,-0.028481010185466005,-0.011755591715517655,-0.03875185946373705,-0.05993977844668413,-0.011016101807036036,-0.032732790126126426,0.9991853028875922,-0.03645901412352456,-0.0029556061946921547,-0.01705095817229026
25.566666666666496,0.13348155,-0.7849904,0.15765037,-2.4952588,0.07914168,1.7030458,0.9451833,0.03999921,0.04,-0.028385209921144572,-0.010584511971389876,-0.03886706725264588,-0.05994485429960636,-0.011101535686202646,-0.03302189796152473,0.9991607687085212,-0.03697927923228925,-0.002977638565886595,-0.01736159122397786
25.58333333333316,0.13568476,-0.7850001,0.16025405,-2.4975538,0.08044794,1.7052277,0.94781286,0.03999921,0.04,-0.028005778651740698,-0.009239550735556934,-0.039119946401267036,-0.059937576279273985,-0.011191013050375051,-0.03331126570791404,0.9991358174701485,-0.03749954938659411,-0.0029988404510969922,-0.017675095473836642
25.599999999999827,0.13790081,-0.78500974,0.1628729,-2.4998624,0.08176183,1.7074224,0.95045745,0.039999206,0.04,-0.02794250152700073,-0.008139575448701253,-0.03922531745375046,-0.0599176028411674,-0.011286394637432404,-0.033596371592509514,0.9991104426968974,-0.038019904709867214,-0.0030192974689776486,-0.01799149751010061
25.616666666666493,0.14012948,-0.7850195,0.16550662,-2.5021834,0.08308323,1.709629,0.9531174,0.039999202,0.04,-0.02591623954140143,-0.007185368524825764,-0.03921169032432559,-0.05988334645444893,-0.011386143050536673,-0.033880969416161866,0.9990846583516143,-0.038539978967909665,-0.0030386553025417854,-0.018310708384540304
25.63333333333316,0.14237046,-0.78502923,0.16815488,-2.5045176,0.084411904,1.7118485,0.95579183,0.039999194,0.04,-0.027091678644253214,-0.005687318962976917,-0.039099236500472756,-0.059837478586352744,-0.011490841665626958,-0.034163874576680894,0.9990584587967924,-0.039059840968349316,-0.0030569636586808336,-0.018632758875018564
25.649999999999824,0.14462352,-0.78503895,0.17081732,-2.5068645,0.08574771,1.7140796,0.9584808,0.039999194,0.04,-0.026911805203511108,-0.004216083926278369,-0.03979326959366869,-0.05977823862922313,-0.011598831364857384,-0.03444525585884288,0.9990318502045058,-0.03957922508444361,-0.0030745674730566063,-0.018957696419410867
25.66666666666649,0.14688836,-0.78504866,0.17349365,-2.5092242,0.08709057,1.7163223,0.96118367,0.03999919,0.04,-0.02651975282634833,-0.003050552530081685,-0.03978790680085886,-0.05970696695365579,-0.011714305837752334,-0.03472463155517376,0.9990048316339144,-0.04009813057814953,-0.0030913814266535656,-0.019285477881220127
25.683333333333156,0.14916472,-0.78505856,0.17618364,-2.5115948,0.088440254,1.7185767,0.9639003,0.039999187,0.04,-0.023412905957775898,-0.002427321676756744,-0.0387840143744711,-0.05962331793385878,-0.011836882736709409,-0.03500132541918176,0.9989774107721293,-0.040616478262248006,-0.003106404661790148,-0.01961593002286843
25.69999999999982,0.15145235,-0.78506863,0.17888688,-2.5139785,0.08979663,1.720842,0.9666304,0.039999183,0.04,-0.02723473749002281,-9.75483217202644e-05,-0.04054661494137246,-0.059526516374440924,-0.01195872380605549,-0.03527769291577622,0.9989495863459362,-0.041134022586313386,-0.003120994537260122,-0.019949323754202716
25.716666666666487,0.15375105,-0.7850788,0.18160315,-2.5163722,0.091159575,1.7231182,0.96937364,0.039999176,0.04,-0.022029189233574442,-0.00020516368269274388,-0.03880082818781272,-0.05941887249435876,-0.012091668228862054,-0.035550248101245366,0.998921364713448,-0.04165084077679417,-0.0031337007805520606,-0.020285327234892913
25.733333333333153,0.15606044,-0.78508925,0.18433209,-2.5187783,0.0925289,1.7254049,0.97212976,0.039999172,0.04,-0.026008259320997595,0.0022903180118438726,-0.04040313171447263,-0.05929748485119049,-0.0122228260214724,-0.035821676274766706,0.9988927486101753,-0.04216660001832789,-0.003145754711220386,-0.02062422954198231
25.74999999999982,0.15838033,-0.7850996,0.1870734,-2.521194,0.09390445,1.727702,0.97489834,0.039999172,0.04,-0.02141390391428022,0.0023162496318451797,-0.038552414794357226,-0.05916543026229468,-0.012364641196303053,-0.03609090229615708,0.9988637421409962,-0.04268142900262736,-0.0031558861066470034,-0.020965701449297807
25.766666666666485,0.16071042,-0.78511,0.18982674,-2.523621,0.095286064,1.7300096,0.97767913,0.039999165,0.04,-0.02457073353419048,0.00442308790688517,-0.039699680578730856,-0.059020394791507336,-0.0125048626867411,-0.03635875382686117,0.9988343484642738,-0.043195052520201505,-0.0031650061224750966,-0.021309962505167448
25.78333333333315,0.16305044,-0.7851205,0.19259177,-2.5260582,0.09667356,1.7323266,0.98047173,0.039999157,0.04,-0.022184707986250274,0.00535015800337546,-0.039339975400687344,-0.05886423146616063,-0.012652843117023804,-0.03662444131825225,0.9988045706741198,-0.04370745539470406,-0.0031727357855653123,-0.021656908621549315
25.799999999999816,0.16540012,-0.78513086,0.1953682,-2.5285056,0.09806678,1.7346531,0.9832758,0.039999157,0.04,-0.02282692666268904,0.006701620115245888,-0.03937239806084403,-0.058696274646792695,-0.01280634774329166,-0.0368875286249605,0.9987744098481333,-0.04421854403020146,-0.0031793254845614506,-0.022006600960288777
25.81666666666648,0.16775914,-0.7851415,0.19815564,-2.5309627,0.09946558,1.7369891,0.98609096,0.039999153,0.04,-0.021431030499430292,0.007834777361631629,-0.03893300705886116,-0.05851675371271814,-0.012966087193577988,-0.03714563890489296,0.9987438768841681,-0.044728170417749916,-0.0031842509336121555,-0.0223588842175619
25.833333333333147,0.17012727,-0.785152,0.20095381,-2.533429,0.10086978,1.739334,0.988917,0.03999915,0.04,-0.020886510187190233,0.008834447140387836,-0.0387245454123164,-0.05832588064940575,-0.013129389345006265,-0.03740332037920312,0.9987129719421153,-0.04523629014591171,-0.003187709443809511,-0.022713789575593665
25.849999999999813,0.17250423,-0.7851627,0.20376232,-2.5359046,0.10227923,1.7416877,0.9917536,0.039999146,0.04,-0.02120423214753142,0.010394257621215708,-0.03888545594041837,-0.05812394105530891,-0.013297779144643349,-0.037657440917975946,0.9986817033092357,-0.04574271130619677,-0.003189718049480707,-0.023071314147369328
25.86666666666648,0.17488973,-0.7851732,0.20658092,-2.538389,0.10369376,1.7440498,0.9946005,0.03999913,0.04,-0.02001100912374376,0.011208866419132324,-0.038262929625521025,-0.05791102197088471,-0.01347097078679775,-0.03790880851932987,0.9986500758833332,-0.046247359011058614,-0.0031901281196315377,-0.02343140638748336
25.883333333333145,0.17728347,-0.7851838,0.2094092,-2.5408819,0.105113156,1.7464198,0.9974571,0.039999135,0.04,-0.019751022602432222,0.012722731280601085,-0.03848215305832792,-0.05768750872198766,-0.013649346909979723,-0.038156943064878504,0.9986180892000817,-0.046750216032406644,-0.0031890432572793666,-0.023794100663909374
25.89999999999981,0.17968519,-0.7851945,0.21224692,-2.5433834,0.10653728,1.7487979,1.0003229,0.03999913,0.04,-0.01959413939160992,0.013781380977306856,-0.03809252196254054,-0.0574533132291031,-0.013834308074522544,-0.038400614118330983,0.9985857443202419,-0.04725128615567564,-0.0031863109859445334,-0.024159358835110674
25.916666666666476,0.18209456,-0.7852054,0.21509363,-2.5458927,0.107966006,1.7511836,1.0031979,0.03999913,0.04,-0.01833130280031181,0.014933104809711217,-0.03766051181288699,-0.057207552964454234,-0.014024192713236572,-0.03864164362389691,0.9985530564331795,-0.04775032001420917,-0.003181761862312563,-0.024527062970266668
25.93333333333314,0.18451126,-0.78521645,0.21794906,-2.54841,0.10939909,1.7535766,1.006082,0.03999912,0.04,-0.018408681815507144,0.016235926834973213,-0.03758771923532134,-0.056951065622430436,-0.014217537234400099,-0.03888101426298633,0.9985200369692149,-0.04824703062002425,-0.0031755421363612755,-0.02489730385982576
25.949999999999807,0.18693508,-0.78522754,0.22081281,-2.5509346,0.11083641,1.7559767,1.0089744,0.039999124,0.04,-0.017607024853694142,0.017233125223237167,-0.037135326448090034,-0.05668597424834759,-0.014416254224872235,-0.03911340159914625,0.9984866780230421,-0.04874165408137841,-0.0031675491234729133,-0.025269974287114236
25.966666666666473,0.18936573,-0.78523874,0.22368455,-2.5534658,0.11227775,1.7583835,1.0118747,0.03999912,0.04,-0.016281591318967337,0.01816760946712348,-0.03651917707956365,-0.056410783713292056,-0.014620017782579486,-0.039345314750403426,0.9984529851499004,-0.04923414171546808,-0.003157485434757624,-0.025644999912714708
25.98333333333314,0.19180286,-0.7852498,0.22656396,-2.5560036,0.113722935,1.7607968,1.0147825,0.03999912,0.04,-0.016128476195786945,0.01934975344832779,-0.03617054585747237,-0.05612363214409008,-0.014826639176782161,-0.039572949098013,0.9984189655210576,-0.049724338628289864,-0.0031454872674486437,-0.026022400844091423
25.999999999999805,0.19424629,-0.78526086,0.22945069,-2.558548,0.115171835,1.7632163,1.0176978,0.03999912,0.04,-0.016406527570311802,0.02058283741646072,-0.03616606019603008,-0.05582678786120446,-0.015036295521895518,-0.039795292368255006,0.9983846254731141,-0.05021211619726465,-0.003131720528558131,-0.026402184236026062
26.01666666666647,0.19669558,-0.785272,0.2323443,-2.5610986,0.11662426,1.7656415,1.0206203,0.039999116,0.04,-0.015391491590044382,0.02189307218154468,-0.03572112871936817,-0.05551967604400229,-0.015253154946971936,-0.040015537361124606,0.998349982850405,-0.05069717872259944,-0.003116064740649153,-0.02678428555509957
26.033333333333136,0.19915044,-0.7852829,0.23524453,-2.5636554,0.11808003,1.7680722,1.0235498,0.039999116,0.04,-0.015695988570074704,0.02299519051464083,-0.03531325513685957,-0.055205360407012044,-0.015475216497283326,-0.04023040483101528,0.9983150400018064,-0.051179467544029696,-0.0030987114447279954,-0.027168750348213977
26.0499999999998,0.20161058,-0.7852941,0.238151,-2.566218,0.119538985,1.7705083,1.0264862,0.03999912,0.04,-0.014258588795668103,0.02403044821310818,-0.0349359012800976,-0.05488318277040971,-0.015703370175298673,-0.04043967573212802,0.9982798157273416,-0.05165871947461255,-0.003079304480249314,-0.027555473096030198
26.066666666666467,0.20407581,-0.7853053,0.24106336,-2.568785,0.12100092,1.7729492,1.0294275,0.039999116,0.04,-0.012527769553538626,0.024508422927116413,-0.03395797007148538,-0.054555251834006474,-0.015937334563783934,-0.040646873226786964,0.9982442730915315,-0.05213575812447894,-0.0030575820104818212,-0.0279443224465148
26.083333333333133,0.20654571,-0.7853167,0.24398129,-2.5713573,0.12246566,1.7753946,1.0323759,0.039999112,0.04,-0.013538250481670566,0.026264584512969424,-0.03421316547049802,-0.05421403297176852,-0.016173824874471818,-0.04084973844464923,0.9982084805692697,-0.05260918783042755,-0.0030339503822241587,-0.028335451654964924
26.0999999999998,0.20902005,-0.7853282,0.24690434,-2.573934,0.12393301,1.7778444,1.0353286,0.039999105,0.04,-0.012181185592607946,0.026963352402120666,-0.03315450338030601,-0.05387093194968304,-0.016415221165304625,-0.04104724273583804,0.9981723853243376,-0.05308016668413462,-0.003008047442489999,-0.02872867437404961
26.116666666666465,0.21149848,-0.7853398,0.24983226,-2.5765152,0.1254028,1.7802985,1.0382856,0.039999105,0.04,-0.011809364690740232,0.027984999744345984,-0.03271947573140199,-0.053515033075035356,-0.0166601713608254,-0.04124051463420628,0.9981360009523124,-0.05354844650834326,-0.002979918879218233,-0.029124003209413746
26.13333333333313,0.21398075,-0.78535134,0.2527646,-2.5791008,0.12687488,1.7827562,1.0412474,0.039999105,0.04,-0.012239873305897042,0.029334054934804232,-0.032628596950501354,-0.05314848178597706,-0.016909069734163992,-0.041428105397140425,0.9980993556352593,-0.054013486187600365,-0.0029498964202711504,-0.02952147864609106
26.149999999999796,0.21646652,-0.78536284,0.2557011,-2.5816896,0.12834905,1.7852176,1.0442134,0.039999105,0.04,-0.009733790042587565,0.029583019843792968,-0.031161597316531342,-0.05277571789820579,-0.017164841353966745,-0.041610614015954256,0.9980624554715916,-0.05447537015158644,-0.002917302554094708,-0.029920868481259976
26.166666666666462,0.21895552,-0.78537446,0.2586413,-2.5842814,0.12982515,1.7876819,1.0471832,0.039999105,0.04,-0.009605400764778338,0.0308668523865685,-0.031188906753443213,-0.05239571115663416,-0.017423322825930163,-0.0417868632116547,0.9980252989343568,-0.054934115472350546,-0.002882422609232794,-0.030322224261422993
26.183333333333128,0.22144736,-0.78538597,0.2615849,-2.5868766,0.13130298,1.7901492,1.0501561,0.039999098,0.04,-0.010060717598214808,0.03205707070537134,-0.030555077557714583,-0.05200767731621905,-0.017684563566929046,-0.041959391277035935,0.9979878909209321,-0.05538964958172054,-0.002845397492899447,-0.03072555951502623
26.199999999999793,0.22394179,-0.7853976,0.26453155,-2.589474,0.13278234,1.7926189,1.0531325,0.039999098,0.04,-0.007792175752441288,0.03253034695116508,-0.029669792663322703,-0.051611984979578446,-0.017951440841921892,-0.042126926570676154,0.9979502545601404,-0.055841692935386274,-0.0028057918362054696,-0.031130728960834974
26.21666666666646,0.2264385,-0.78540933,0.2674808,-2.5920742,0.13426304,1.7950909,1.056112,0.039999094,0.04,-0.008789301651690451,0.0340156222075505,-0.02943150211662804,-0.05121055860006185,-0.018221054925007904,-0.04228920637232733,0.9979123986511481,-0.05629008484059887,-0.0027639124576188156,-0.031537782973395476
26.233333333333125,0.22893724,-0.785421,0.2704324,-2.5946763,0.13574496,1.797565,1.0590936,0.03999909,0.04,-0.007339569210196295,0.034326182073873834,-0.028493889489289437,-0.05080508018296187,-0.018494824863966183,-0.04244464919191346,0.9978743066489731,-0.05673522812498499,-0.002719555243345214,-0.031946612319856474
26.24999999999979,0.23143765,-0.7854328,0.27338588,-2.5972798,0.13722788,1.8000406,1.0620774,0.03999909,0.04,-0.006252752566315856,0.035331403988780874,-0.027787123088085508,-0.05039104304690464,-0.018771307141725632,-0.04259472703749498,0.9978360080473041,-0.05717670469797003,-0.0026726062213410636,-0.03235711142990495
26.266666666666456,0.2339394,-0.7854447,0.276341,-2.5998843,0.13871162,1.8025175,1.0650623,0.039999098,0.04,-0.0054337058544629,0.03595937301436036,-0.02699242277912628,-0.04997206384644784,-0.019050569712136062,-0.04273834114512923,0.9977974835662335,-0.057614914316249585,-0.0026229643022387264,-0.03276924618437672
26.283333333333122,0.23644218,-0.78545654,0.27929732,-2.60249,0.14019598,1.8049954,1.0680492,0.039999098,0.04,-0.005794129997993558,0.037170557417132155,-0.026648686609997974,-0.04954480228565239,-0.019331475324274455,-0.0428778823289056,0.9977587771417005,-0.05804909364296795,-0.0025708908683385306,-0.03318306622467891
26.299999999999788,0.23894572,-0.78546846,0.28225458,-2.6050968,0.14168084,1.8074741,1.0710367,0.039999094,0.04,-0.005582505575807417,0.0380186585029918,-0.02607120479962699,-0.049114525590464614,-0.01961541727760935,-0.043011106872409555,0.9977198642185828,-0.058479725113683996,-0.0025164059613121403,-0.03359854156534562
26.316666666666453,0.24144968,-0.78548014,0.28521228,-2.6077049,0.14316596,1.8099535,1.0740246,0.0399991,0.04,-0.005741565447281438,0.039130971425160865,-0.025362503877679465,-0.04867832657629095,-0.019904638859543466,-0.04313737125196407,0.9976807573809267,-0.05890661998294261,-0.002459742642782522,-0.034015674918148796
26.33333333333312,0.24395382,-0.78549194,0.28817016,-2.610313,0.14465117,1.8124328,1.0770125,0.039999105,0.04,-0.0033555569239229754,0.0392721925969175,-0.024441311548462075,-0.04823687519483444,-0.020200042325560247,-0.043254927637993074,0.9976414647134526,-0.05932979562697964,-0.002400425531544789,-0.034434302556103615
26.349999999999785,0.24645777,-0.78550386,0.2911277,-2.6129205,0.14613631,1.8149121,1.0800003,0.039999105,0.04,-0.0023176588014761634,0.03995891332609913,-0.023285747310763938,-0.047789387518950094,-0.020497733196125273,-0.04336698266943301,0.9976020029672478,-0.059749135158318534,-0.0023382299315726596,-0.034854227926544704
26.36666666666645,0.24896124,-0.78551584,0.29408467,-2.615527,0.14762121,1.8173906,1.0829877,0.03999911,0.04,-0.0012520266789328716,0.040442482704339255,-0.02269834893182665,-0.04733716992688472,-0.020796152890178388,-0.04347371537807351,0.997562380892885,-0.06016454119962499,-0.002273221339977627,-0.03527544010068111
26.383333333333116,0.25146392,-0.7855278,0.29704076,-2.618132,0.14910567,1.8198686,1.0859746,0.03999911,0.04,-0.0010256979010137002,0.04106263325664994,-0.021691148789937387,-0.04688099586060507,-0.021094420549529536,-0.04357272730914727,0.9975226128038407,-0.06057586700238332,-0.0022052262742348295,-0.035697874712476506
26.399999999999782,0.2539655,-0.78553975,0.29999542,-2.6207368,0.15058948,1.8223454,1.0889591,0.039999112,0.04,-0.002225895856233784,0.04274306823871532,-0.02169951341732812,-0.04642169625645942,-0.02139310603535223,-0.04366798424482171,0.9974826604275057,-0.0609836715490963,-0.002134955413145202,-0.03612168207934459
26.416666666666448,0.25646567,-0.7855516,0.30294847,-2.6233401,0.15207249,1.8248209,1.0919427,0.03999911,0.04,-0.0005051688983126468,0.04271930273335167,-0.020490860211408446,-0.045954488851000064,-0.02169634200593233,-0.043754648676416985,0.9974425822529224,-0.061387144906408744,-0.0020619697371000657,-0.03654670750786032
26.433333333333113,0.25896412,-0.7855635,0.30589935,-2.6259418,0.15355444,1.8272945,1.0949234,0.03999911,0.04,0.00011787085507641848,0.043708832600297676,-0.019818016976480557,-0.04548704952404309,-0.022003483852979247,-0.04383527605594548,0.9974023427295752,-0.061786932731012774,-0.0019863970009989405,-0.03697290748917307
26.44999999999978,0.26146054,-0.78557545,0.30884776,-2.6285417,0.15503523,1.8297662,1.0979027,0.039999116,0.04,0.0002528676604107716,0.044323578149363385,-0.01903332221551146,-0.045012301332565535,-0.02231334268808348,-0.043906656408457395,0.9973620047619594,-0.06218209789863904,-0.0019082250795969201,-0.03740022506850755
26.466666666666445,0.2639547,-0.78558743,0.31179348,-2.6311383,0.15651466,1.8322355,1.1008787,0.039999124,0.04,0.003126470902570233,0.043791924421621164,-0.017636023036149417,-0.04453921018534315,-0.022624633535301447,-0.04397076624709659,0.9973215267084907,-0.06257352557561423,-0.0018268929009928637,-0.037828411587212854
26.48333333333311,0.2664462,-0.7855996,0.314736,-2.633733,0.15799254,1.8347021,1.1038513,0.039999124,0.04,0.0010696137303867204,0.04578420747874956,-0.017694246932453694,-0.04405915825491044,-0.022934122471256313,-0.044029314338532716,0.9972809232862213,-0.06296087066600155,-0.0017430918966424393,-0.038257684783591844
26.499999999999776,0.26893476,-0.78561157,0.31767505,-2.636324,0.1594687,1.8371661,1.1068203,0.039999127,0.04,0.004017701962522047,0.044993616244370926,-0.015769327789572074,-0.04357617378259718,-0.023248793345071905,-0.04407927101993678,0.9972402103569995,-0.06334416449312204,-0.0016561775089050824,-0.03868768212047151
26.516666666666442,0.27142006,-0.78562355,0.32061028,-2.6389117,0.16094296,1.8396266,1.1097857,0.039999124,0.04,0.003026925597171548,0.046357715706257796,-0.015861572181297134,-0.04308951652158702,-0.023560916232973586,-0.044122848098145234,0.9971993973662867,-0.06372316398184877,-0.0015666995595059918,-0.039118610877015514
26.533333333333108,0.27390185,-0.78563565,0.32354134,-2.6414957,0.16241512,1.8420836,1.1127467,0.03999913,0.04,0.0045611803318301725,0.04640517080420903,-0.01459540207833232,-0.042600802458198195,-0.023875835063176948,-0.044157659463591736,0.9971584860122191,-0.06409802353121512,-0.0014742708285212702,-0.03955026774542664
26.549999999999773,0.27637982,-0.7856475,0.32646775,-2.6440756,0.16388501,1.8445365,1.115703,0.03999913,0.04,0.004653939756571468,0.04706782493167916,-0.013888915454529638,-0.042109320673638706,-0.024190306977539225,-0.04418624833824017,0.9971174797291337,-0.06446873075202537,-0.0013792442617133254,-0.039982646974780156
26.56666666666644,0.2788536,-0.78565955,0.32938918,-2.6466513,0.16535242,1.8469856,1.1186551,0.03999913,0.04,0.005745023142211814,0.04748616411467399,-0.012777258940488423,-0.041615393761483904,-0.024507079156833006,-0.044205795283638966,0.9970764223880724,-0.064834754304126,-0.0012812220729926374,-0.04041560369616741
26.583333333333105,0.2813229,-0.78567153,0.33230528,-2.6492221,0.16681722,1.8494307,1.1216017,0.039999135,0.04,0.006497871447308512,0.04756703687066599,-0.011624237292129358,-0.041123451101786807,-0.024822619021176537,-0.04421765386592516,0.997035292348371,-0.06519658337489626,-0.0011801360501317807,-0.0408489731442743
26.59999999999977,0.28378743,-0.7856837,0.33521578,-2.6517878,0.16827925,1.8518708,1.1245424,0.03999914,0.04,0.007422964687919809,0.04800886175084784,-0.01124005198536171,-0.040628512344768136,-0.025135734646829583,-0.044223494407380326,0.9969940862418982,-0.06555428618063976,-0.0010761492413934952,-0.04128279865560646
26.616666666666436,0.28624696,-0.7856958,0.33812022,-2.6543486,0.1697383,1.854306,1.1274769,0.03999914,0.04,0.0066694233070263564,0.048846515376410604,-0.010512291123387918,-0.04013074329897143,-0.02544770044090916,-0.044221578922093024,0.9969528186762773,-0.0659076656757972,-0.000969529425501046,-0.041717106218986215
26.633333333333102,0.28870112,-0.78570795,0.3410184,-2.656904,0.17119417,1.856736,1.1304061,0.039999146,0.04,0.008053195170121263,0.04883034353304616,-0.009470919828591384,-0.03963214519271574,-0.02576200563586664,-0.04421067353575123,0.9969115296810674,-0.06625623326903352,-0.000860031008316194,-0.042151795793515134
26.649999999999768,0.29114953,-0.78572,0.34390977,-2.6594532,0.1726467,1.85916,1.1333278,0.03999915,0.04,0.009113793178139318,0.04916415979148159,-0.008446109747795028,-0.03913677653467734,-0.02607355857134426,-0.04419214497554788,0.9968701754038068,-0.06660078463905865,-0.0007478197264881984,-0.04258673081491433
26.666666666666433,0.29359198,-0.7857319,0.3467941,-2.6619956,0.1740957,1.8615781,1.1362422,0.03999915,0.04,0.010112002462769887,0.04896246567817064,-0.007317944709905877,-0.03863785049063739,-0.02638689538663644,-0.0441649956209581,0.9968287731145081,-0.06694119586895067,-0.0006326100285066177,-0.043021775779379004
26.6833333333331,0.2960282,-0.7857439,0.349671,-2.664532,0.17554103,1.8639901,1.1391491,0.03999915,0.04,0.009645972178407014,0.04986122675403326,-0.006952419751304895,-0.038135895233859435,-0.026696841203971672,-0.04413182876858729,0.9967873410484964,-0.0672771948471307,-0.0005146936121424673,-0.043457000235353344
26.699999999999765,0.2984579,-0.78575593,0.35254008,-2.6670616,0.17698248,1.8663957,1.1420484,0.039999157,0.04,0.010634591919278513,0.04993523230881758,-0.005807326930340473,-0.03763415728017763,-0.027006281639212537,-0.04408931682638634,0.9967458940450578,-0.06760871621473755,-0.00039392556990328206,-0.0438922432641474
26.71666666666643,0.3008808,-0.785768,0.35540113,-2.669584,0.17841992,1.8687944,1.1449397,0.039999157,0.04,0.011348860823701123,0.049940383947033595,-0.005130567989053425,-0.03713409701523612,-0.027314453659555538,-0.044038461285208275,0.9967044303766269,-0.06793583630613376,-0.00027040013022694594,-0.04432750271286952
26.733333333333096,0.30329654,-0.78577995,0.3582537,-2.672099,0.17985308,1.8711863,1.1478226,0.03999916,0.04,0.011936402659085132,0.05025031825075521,-0.003947010781713001,-0.03663365504521027,-0.02761947907489294,-0.0439799974804857,0.9966629627906067,-0.06825849314638971,-0.0001440507212175974,-0.04476266261320573
26.749999999999762,0.30570486,-0.78579193,0.36109748,-2.6746068,0.18128185,1.8735706,1.150696,0.039999176,0.04,0.012020695834524808,0.05067478015198246,-0.003508912570504563,-0.036133785096069015,-0.02792307794941186,-0.043912590434515925,0.9966214639942151,-0.06857709595048479,-1.5153253982744362e-05,-0.04519777856713937
26.766666666666428,0.30810544,-0.7858038,0.3639321,-2.677106,0.1827061,1.8759475,1.1535606,0.03999918,0.04,0.014108121832578924,0.049922002239577434,-0.0017923857823953782,-0.03563178575587461,-0.028226083789391024,-0.043833894286862296,0.9965799881119278,-0.06889116846084083,0.00011679191880059915,-0.0456324507623404
26.783333333333093,0.31049803,-0.7858157,0.3667573,-2.679597,0.1841256,1.8783163,1.1564152,0.039999183,0.04,0.01349970438715431,0.05078244693047518,-0.001712270960718687,-0.03513196024092474,-0.028524470759561618,-0.04375042993940331,0.9965385001421265,-0.06920111072745129,0.0002513299976858899,-0.04606691699907912
26.79999999999976,0.31288233,-0.7858277,0.3695727,-2.6820793,0.18554023,1.880677,1.1592605,0.03999919,0.04,0.014499692427327737,0.050605655460711496,-0.0005265711330970646,-0.034630326675796824,-0.028820983896425623,-0.04365706091119234,0.9964970500460383,-0.06950639357459092,0.00038865634155410366,-0.04650096179699801
26.816666666666425,0.315258,-0.78583974,0.3723779,-2.6845524,0.18694977,1.8830289,1.1620953,0.0399992,0.04,0.01568358581025553,0.05056842290767083,0.00039858508703582984,-0.03413188660277547,-0.029114609142676676,-0.04355722647227506,0.9964556161231286,-0.06980743519973123,0.0005287141845967297,-0.04693450275461063
26.83333333333309,0.31762484,-0.78585166,0.37517264,-2.687017,0.18835406,1.8853724,1.1649195,0.039999202,0.04,0.014660320546133754,0.05106519202001669,0.001088869330800879,-0.03363415962416921,-0.029403689281038564,-0.04344804951144762,0.9964142075792203,-0.07010412045557972,0.0006713208234905127,-0.04736758973999067
26.849999999999756,0.31998256,-0.7858635,0.37795648,-2.6894717,0.18975295,1.8877064,1.1677327,0.039999202,0.04,0.016555364495496327,0.050699295332368166,0.0019350165441966993,-0.03313683087441863,-0.02969110320360041,-0.04333027539177209,0.9963728321419865,-0.07039649172206745,0.0008164329985119771,-0.04780007070853051
26.866666666666422,0.32233092,-0.7858753,0.3807292,-2.6919158,0.19114634,1.8900313,1.1705347,0.03999921,0.04,0.01839719350860136,0.04962292944694635,0.003538638147604356,-0.03264119018202952,-0.02997513488962969,-0.043203234539538754,0.996331503914966,-0.07068465501121722,0.0009646452935622207,-0.0482315592941458
26.883333333333088,0.32466945,-0.7858871,0.38349044,-2.6943507,0.19253391,1.8923467,1.1733252,0.039999213,0.04,0.015840676435563417,0.05171940710712031,0.0033783729626812864,-0.03214587028897467,-0.0302516787081151,-0.043070463359679984,0.9962902234614045,-0.07096832844650387,0.001115062240774501,-0.048662548524848304
26.899999999999753,0.32699814,-0.7858989,0.38623998,-2.6967752,0.19391555,1.8946526,1.1761037,0.03999922,0.04,0.018324136084091336,0.0501835774760484,0.0047775274243710975,-0.03165373490570114,-0.03052735550433873,-0.042927997161333914,0.9962489909508826,-0.07124783009991914,0.0012682627054972327,-0.04909262923404201
26.91666666666642,0.3293166,-0.78591084,0.3889773,-2.6991885,0.19529115,1.896948,1.17887,0.03999922,0.04,0.019577715720786593,0.050175533443108655,0.005605451599088873,-0.03116166800579298,-0.03079624309535932,-0.04277706604581111,0.996207822721809,-0.07152307547405926,0.0014241106164484046,-0.04952166729379293
26.933333333333085,0.3316244,-0.78592265,0.39170218,-2.7015915,0.1966605,1.8992327,1.1816239,0.039999228,0.04,0.017919692390955255,0.05121434262788105,0.00590072910533479,-0.030671617493322006,-0.031060676404688917,-0.042620492875912214,0.9961667298073921,-0.07179377631499942,0.0015820312930183995,-0.04994994779042328
26.94999999999975,0.33392134,-0.7859344,0.39441422,-2.7039826,0.1980235,1.9015071,1.1843648,0.03999923,0.04,0.020955921093412933,0.04956011046493014,0.007811418595959907,-0.03018597391931041,-0.031322440086145945,-0.04245049183135108,0.9961257134058169,-0.07206036283667555,0.001742793232527679,-0.0503768783406399
26.966666666666416,0.33620736,-0.78594595,0.39711332,-2.706363,0.19937994,1.9037702,1.1870928,0.03999924,0.04,0.01876363216581911,0.05082329661001417,0.007144717795892763,-0.029700717357043632,-0.03157629875213282,-0.04227618076013842,0.996084770283819,-0.07232256637411637,0.0019054301826753495,-0.05080301307513079
26.983333333333082,0.3384821,-0.78595763,0.399799,-2.708731,0.2007297,1.9060223,1.1898069,0.03999925,0.04,0.02209727739128642,0.04922013940042991,0.00925019885729128,-0.029219864020323477,-0.0318292284477448,-0.042091508949006734,0.996043908249712,-0.0725807870778401,0.0020708551557322738,-0.05122766581374394
26.999999999999748,0.3407451,-0.7859693,0.40247086,-2.7110865,0.20207258,1.9082633,1.1925071,0.039999254,0.04,0.02213511706967708,0.049478055826346345,0.010217370234977263,-0.028738623133665098,-0.032072918815927894,-0.04189857150048615,0.9960031490880932,-0.07283479567174947,0.0022389191579328103,-0.0516508159379911
27.016666666666413,0.34299648,-0.785981,0.40512872,-2.7134304,0.20340848,1.9104924,1.1951933,0.039999265,0.04,0.02089635272497503,0.050014055551350634,0.009708286725129689,-0.028260753711879832,-0.0323097384770652,-0.04170268793809709,0.9959624790296413,-0.0730846308316521,0.002408927810223474,-0.05207277761112416
27.03333333333308,0.34523562,-0.7859925,0.4077723,-2.7157617,0.20473719,1.9127091,1.1978649,0.039999265,0.04,0.022272875795903424,0.049566043194837484,0.011029854584376775,-0.027785010916248604,-0.03254156940973588,-0.041494570318422214,0.99592190749737,-0.07333030555510608,0.0025809401298327243,-0.052493420559541946
27.049999999999745,0.34746233,-0.78600395,0.4104012,-2.7180798,0.20605858,1.9149139,1.2005221,0.039999273,0.04,0.023496991193550087,0.04878562182401014,0.012370850606802097,-0.02731266733651455,-0.03277060562097636,-0.04127685332186698,0.9958814680331941,-0.073571665621829,0.0027553680464586605,-0.052912376554154636
27.06666666666641,0.3496764,-0.78601533,0.41301516,-2.7203848,0.20737246,1.9171058,1.203164,0.03999928,0.04,0.02337826454044123,0.049030910142466855,0.012500779634538883,-0.0268447152556201,-0.03299043315804033,-0.04105408463029567,0.9958411337534703,-0.07380900387008636,0.0029317466016012283,-0.053329842810311896
27.083333333333076,0.3518776,-0.78602684,0.41561386,-2.7226768,0.20867871,1.919285,1.2057905,0.039999284,0.04,0.02380165307567239,0.0487947374046005,0.01342519022281552,-0.026378837423620793,-0.03320544675773011,-0.040823239151021096,0.9958009242050625,-0.07404222289764802,0.0031102138484074516,-0.05374565238729124
27.099999999999742,0.3540657,-0.7860382,0.41819718,-2.7249546,0.20997721,1.9214514,1.2084016,0.03999929,0.04,0.025111806102540157,0.0476797395171813,0.014425868613565651,-0.025916951754985845,-0.03341474899765527,-0.040582212306620485,0.9957608458184897,-0.074271412419479,0.003290908350312601,-0.05415962660775647
27.116666666666408,0.35624045,-0.7860496,0.42076465,-2.7272186,0.21126778,1.9236045,1.2109965,0.039999295,0.04,0.024936546839038343,0.04805030232062357,0.014836184889321924,-0.02545776673583003,-0.03361457490049892,-0.040335506410820565,0.9957208957838407,-0.07449664285795787,0.0034735066311316447,-0.05457181189958205
27.133333333333074,0.35840157,-0.78606105,0.42331588,-2.729468,0.2125503,1.9257442,1.2135752,0.039999306,0.04,0.026316768101319887,0.04725880581448738,0.01606801300623184,-0.02500118102662427,-0.03380737641659647,-0.040081895649315274,0.9956810990886189,-0.07471784102392416,0.003658261868648614,-0.0549819085745836
27.14999999999974,0.36054882,-0.7860724,0.42585084,-2.7317035,0.21382463,1.9278703,1.2161375,0.03999931,0.04,0.02537636534885035,0.04748044918914118,0.01622096689368746,-0.024548531251433386,-0.033991591341188857,-0.03982011526620258,0.9956414474356122,-0.07493502830316065,0.003844762492366166,-0.05539013885973622
27.166666666666405,0.36268193,-0.7860836,0.42836908,-2.733924,0.21509054,1.9299822,1.2186831,0.039999317,0.04,0.02692463516980048,0.04673866676345728,0.017230462960426962,-0.024100333462210244,-0.03416931645288955,-0.03955207105326884,0.9956019538425357,-0.0751482214580171,0.004033077899844985,-0.055796313491808115
27.18333333333307,0.36480072,-0.7860947,0.4308704,-2.7361298,0.216348,1.9320799,1.2212117,0.039999325,0.04,0.026333432834713122,0.046830423887556094,0.0175323633981761,-0.023655568662902998,-0.034338121060560306,-0.03927543942296334,0.995562617474741,-0.07535746291435985,0.004222975151319866,-0.05620047998749636
27.199999999999736,0.366905,-0.7861059,0.43335444,-2.7383206,0.21759681,1.9341636,1.2237225,0.039999332,0.04,0.027369329368864825,0.046134394013019886,0.018626967440482645,-0.02321556729366056,-0.03450189497868803,-0.038991800443436544,0.9955234354886171,-0.07556301551421248,0.004414653765889289,-0.05660239316024815
27.216666666666402,0.3689944,-0.78611696,0.4358211,-2.7404954,0.21883684,1.9362326,1.2262155,0.039999343,0.04,0.028710438501011737,0.045126288087682376,0.01940199980766666,-0.022778024301788352,-0.034656240986901725,-0.038701014110087625,0.9954844185794779,-0.07576486487007579,0.00460817178839448,-0.05700195057598121
27.233333333333068,0.3710689,-0.78612804,0.43827006,-2.7426548,0.22006801,1.9382864,1.2286907,0.03999935,0.04,0.028020040241050204,0.045432749779106274,0.01940290367324904,-0.022342227170378093,-0.034798874559758976,-0.038404295622550294,0.9954455744498342,-0.07596287723433891,0.0048030965865284506,-0.05739930185726205
27.249999999999734,0.37312806,-0.78613895,0.44070092,-2.7447984,0.22129017,1.9403253,1.2311481,0.039999355,0.04,0.02843178934566204,0.045073737855916285,0.020468964587394556,-0.02191092146181517,-0.03493625872445802,-0.03809920973397926,0.9954069311281947,-0.07615688418428623,0.0049994040481093965,-0.057794259338229514
27.2666666666664,0.37517178,-0.78614974,0.4431136,-2.746926,0.22250311,1.9423487,1.2335871,0.039999362,0.04,0.02882982202228046,0.044550311415525456,0.02085282390882348,-0.021485949252827152,-0.03506501991507984,-0.037788196204512015,0.9953684685345836,-0.07634716094022774,0.0051970404017065465,-0.058186885417142974
27.283333333333065,0.3771998,-0.7861605,0.44550768,-2.7490377,0.22370674,1.9443566,1.2360073,0.039999373,0.04,0.029051239345956326,0.0444534586240386,0.021456444225453897,-0.021065784080122746,-0.0351862691592675,-0.037468093041261974,0.9953301947106994,-0.07653373069172625,0.00539585813112147,-0.05857709687750491
27.29999999999973,0.37921187,-0.7861713,0.44788292,-2.7511322,0.22490099,1.9463489,1.2384083,0.03999938,0.04,0.031056666632389707,0.042770403747871555,0.02272304870395425,-0.020649568151612313,-0.03530009721920626,-0.03714139156364438,0.9952921220080894,-0.07671679534769459,0.0055962943448863035,-0.05896445259493134
27.316666666666396,0.3812079,-0.78618205,0.4502392,-2.7532103,0.22608568,1.9483252,1.2407902,0.039999392,0.04,0.02977868517413107,0.04335857335329152,0.022452142617390702,-0.02023627235779954,-0.03540244879992206,-0.03681082033525622,0.995254248142347,-0.07689619716854823,0.005797759465582369,-0.05934932519251321
27.333333333333062,0.3831876,-0.7861927,0.45257616,-2.755271,0.2272607,1.9502853,1.2431526,0.039999403,0.04,0.03141925193417272,0.04212906938885208,0.023672896331805582,-0.019827137303782355,-0.03549700391386664,-0.03647090027119129,0.9952165874291496,-0.07707207737351797,0.00600052598658626,-0.059731337529747186
27.349999999999728,0.38515073,-0.78620327,0.45489365,-2.7573147,0.22842598,1.9522293,1.2454954,0.039999403,0.04,0.030635791751643104,0.04224297558812484,0.023822159770114926,-0.019422047053842012,-0.03558077224189582,-0.03612793721919674,0.995179147854461,-0.07724431074569793,0.0062042665802251595,-0.06011062476211904
27.366666666666394,0.38709718,-0.78621364,0.45719135,-2.7593415,0.22958133,1.9541565,1.247818,0.03999941,0.04,0.030576317689368082,0.042153594705029995,0.024123587634183874,-0.01902255608734127,-0.03565676681888401,-0.035779246231218434,0.9951419108575088,-0.07741315098449206,0.006408674245787281,-0.06048727307401023
27.38333333333306,0.3890267,-0.7862241,0.45946908,-2.7613502,0.23072661,1.9560672,1.2501208,0.039999418,0.04,0.03283958576192347,0.0404000051308806,0.02534188613056987,-0.018626308059428942,-0.03572510263541865,-0.03542210092965098,0.995104918752255,-0.07757841234784382,0.006614361153581822,-0.06086083173261622
27.399999999999725,0.39093915,-0.78623444,0.46172652,-2.7633407,0.2318618,1.957961,1.2524029,0.039999425,0.04,0.032553234528398534,0.04016483998882103,0.025618367746171877,-0.01823591379205361,-0.03578082128520854,-0.03505945407580206,0.9950681544426302,-0.07774038757200204,0.006820912434477278,-0.06123132619708655
27.41666666666639,0.39283416,-0.7862447,0.46396354,-2.7653136,0.2329867,1.9598373,1.2546644,0.039999437,0.04,0.031851503492519306,0.04062967550949592,0.02572506572732225,-0.01784777247862615,-0.0358264953608727,-0.03469284873361085,0.9950316256251969,-0.0778988689706956,0.007027953543362153,-0.06159901044462289
27.433333333333056,0.39471185,-0.78625494,0.46617997,-2.7672684,0.23410124,1.9616966,1.2569053,0.039999444,0.04,0.03281386758233751,0.039266862087783405,0.026391410927539827,-0.017466061289420076,-0.03586496081236333,-0.034319832781468024,0.9949953409889698,-0.07805400025304207,0.007235792436519094,-0.061963600303384776
27.449999999999722,0.3965719,-0.786265,0.4683755,-2.7692049,0.2352053,1.9635383,1.259125,0.039999448,0.04,0.03294101616160283,0.039020838172043604,0.026774414344421515,-0.017088342526022565,-0.03589296525179076,-0.03394276613327381,0.9949592951879465,-0.07820590902047357,0.007444079327028758,-0.062325134547462066
27.466666666666388,0.3984141,-0.78627497,0.47054994,-2.7711225,0.23629878,1.9653623,1.2613235,0.039999455,0.04,0.03380569748494544,0.03807000154890661,0.027486612644356256,-0.01671535046238179,-0.03591305992561822,-0.03355785517804753,0.9949235074726727,-0.0783545561243392,0.007652951546256703,-0.06268341204388213
27.483333333333054,0.40023828,-0.78628504,0.47270316,-2.7730217,0.23738153,1.9671686,1.2635003,0.039999463,0.04,0.03331365419803056,0.03823017720324673,0.027647984060585884,-0.016346339021467343,-0.035921546028589144,-0.03316978882161373,0.994887969452336,-0.07850000614934757,0.007862236906144108,-0.06303857949217918
27.49999999999972,0.4020442,-0.7862951,0.47483495,-2.7749012,0.2384535,1.9689566,1.2656554,0.039999474,0.04,0.035330004702793794,0.03638714695103351,0.028465976628666567,-0.015982211597649315,-0.035920849789390454,-0.03277498873519723,0.9948526915532129,-0.07864244746380168,0.008072125356540102,-0.06339028599446092
27.516666666666385,0.40383178,-0.78630495,0.47694495,-2.7767625,0.23951463,1.9707267,1.2677884,0.039999485,0.04,0.03272400534028996,0.037728064356445934,0.02834042538126802,-0.015620343450938434,-0.0359075733618527,-0.03237713799726301,0.9948176792212715,-0.07878167718938188,0.0082819163046868,-0.06373886028439579
27.53333333333305,0.40560085,-0.7863147,0.4790331,-2.778604,0.24056481,1.9724785,1.2698997,0.039999492,0.04,0.03535260716969191,0.035513067648296204,0.029171870159394597,-0.015265040235809102,-0.0358880460570899,-0.03197317002300659,0.9947829574443368,-0.0789177071406158,0.008492086352835455,-0.06408391020640608
27.549999999999716,0.40735132,-0.7863242,0.4810992,-2.780426,0.24160388,1.9742117,1.2719886,0.0399995,0.04,0.034750415348883124,0.035454613571617166,0.029272399389135284,-0.014914735109820054,-0.035856543839030704,-0.03156591299315621,0.9947485031062945,-0.07905081968499776,0.008702244512000058,-0.06442557268173615
27.566666666666382,0.40908292,-0.7863337,0.48314312,-2.7822287,0.2426318,1.9759263,1.2740549,0.039999507,0.04,0.03468053983510799,0.035275477193086324,0.029588861787621656,-0.014568161818202974,-0.035817050778779724,-0.031153835421541112,0.9947143211418511,-0.07918100399279779,0.008912367651998966,-0.06476386048433481
27.583333333333048,0.41079548,-0.7863433,0.48516452,-2.7840114,0.24364832,1.977622,1.2760988,0.03999951,0.04,0.03594925743608535,0.034252914749965946,0.030332112312747572,-0.014225322903576754,-0.03576702578238331,-0.030737292261499655,0.9946804465128596,-0.07930804773044088,0.009122621415785407,-0.06509854582606657
27.599999999999714,0.41248897,-0.78635275,0.4871633,-2.7857747,0.24465355,1.979299,1.2781199,0.039999522,0.04,0.03461328339608993,0.03443988512065177,0.030128705725473992,-0.013888587001037345,-0.03570589210668008,-0.030317191608261046,0.994646861580707,-0.07943214509247533,0.009332506977677318,-0.06542980503691928
27.61666666666638,0.41416317,-0.78636223,0.48913935,-2.787517,0.24564746,1.9809568,1.2801178,0.03999953,0.04,0.03723210383219655,0.03210970957223669,0.03108977129580026,-0.013556975461604032,-0.035635806530827506,-0.029891524878047776,0.9946135742833755,-0.0795536100667546,0.009542510963458936,-0.06575714000097142
27.633333333333045,0.41581798,-0.78637147,0.4910925,-2.7892396,0.2466298,1.9825956,1.2820923,0.03999954,0.04,0.035205380606950776,0.0331030343648564,0.030874524309165707,-0.01322843215982944,-0.03555397900281245,-0.02946552200275393,0.9945805801944712,-0.07967227593714757,0.009752041250091683,-0.0660809778868372
27.64999999999971,0.41745326,-0.7863805,0.4930226,-2.7909422,0.24760059,1.9842148,1.284044,0.03999955,0.04,0.0355260240287647,0.03254026910926022,0.03098681782944812,-0.012903269633665823,-0.035463852821952725,-0.029034899764115954,0.9945479058549228,-0.07978791258556014,0.009960933628981353,-0.06640129340657115
27.666666666666377,0.41906884,-0.7863896,0.4949294,-2.7926238,0.24855973,1.9858145,1.2859722,0.039999556,0.04,0.037194975356902304,0.03096421026173024,0.03178691155352187,-0.012585565190606773,-0.035365629193777795,-0.028598912755232242,0.9945155508382192,-0.07990085176312167,0.010169522898211412,-0.06671771753068217
27.683333333333042,0.4206647,-0.7863987,0.496813,-2.7942846,0.24950716,1.9873949,1.2878767,0.039999567,0.04,0.03693170604155416,0.030426768884328492,0.03197675163447711,-0.012271682984617102,-0.03525509740348169,-0.028159660638257367,0.9944835060849626,-0.08001126114311191,0.010377847762635388,-0.06703025056692322
27.699999999999708,0.4222407,-0.7864076,0.4986731,-2.7959259,0.25044274,1.9889559,1.2897574,0.039999574,0.04,0.03478851633444968,0.03165107748323015,0.03156405855027078,-0.011960869573121827,-0.035133010852092264,-0.027722574833015823,0.9944517682692872,-0.08011895637317187,0.010585099848633416,-0.06733935756269371
27.716666666666374,0.4237966,-0.78641635,0.5005095,-2.7975454,0.2513665,1.9904966,1.291614,0.039999574,0.04,0.03804355237535528,0.028973178108981923,0.03256072184816272,-0.011655119118561708,-0.03500572336472314,-0.02727671302062347,0.9944203643153707,-0.08022411052221186,0.010791760851965242,-0.06764443083890392
27.73333333333304,0.4253323,-0.78642493,0.5023223,-2.7991443,0.2522783,1.9920175,1.2934469,0.039999586,0.04,0.036514344539995136,0.029392825372820397,0.032331212389324904,-0.011353584066675929,-0.034867751007774964,-0.0268313986039133,0.9943892876376446,-0.08032663531456143,0.010997536396433142,-0.06794579077285301
27.749999999999705,0.42684793,-0.78643334,0.50411135,-2.8007228,0.2531781,1.9935178,1.2952557,0.0399996,0.04,0.03562882229506403,0.029740704648306693,0.03181698179202108,-0.011057055893317957,-0.03471914759495082,-0.026379994137686963,0.9943585243374318,-0.08042659181716362,0.011201870230968556,-0.06824372871912235
27.76666666666637,0.4283432,-0.78644174,0.50587624,-2.8022788,0.25406584,1.9949977,1.2970401,0.039999604,0.04,0.03958605312028851,0.02633650372675378,0.03351577165769948,-0.010765321067480224,-0.03456711285182351,-0.02592278141242177,0.9943281141593784,-0.08052424543082294,0.011405737193311016,-0.0685372632159173
27.783333333333037,0.42981806,-0.78645015,0.50761706,-2.803814,0.25494146,1.9964583,1.2988001,0.039999615,0.04,0.036860855512510504,0.027667086757510173,0.03326012587745453,-0.010476706051524065,-0.034401689073380676,-0.025468062694527838,0.9942980491792973,-0.0806194669378774,0.011608743583315555,-0.06882679726177174
27.799999999999702,0.43127236,-0.7864585,0.5093335,-2.8053272,0.25580484,1.9978987,1.3005356,0.039999623,0.04,0.038468884211306786,0.02620591848403464,0.03368617783616745,-0.010192487315187876,-0.03422567413242153,-0.025011568603488146,0.9942683407642928,-0.08071236323807339,0.0118109081625941,-0.06911210764200487
27.816666666666368,0.43270618,-0.7864667,0.5110256,-2.8068194,0.25665605,1.9993185,1.3022468,0.039999627,0.04,0.03676434110144733,0.026885461531367394,0.03288315057548008,-0.009910497577279506,-0.03403671927920401,-0.02455598804272839,0.9942389916532515,-0.08080269732635936,0.012011597065423242,-0.06939361005919982
27.833333333333034,0.43411916,-0.7864748,0.51269335,-2.808291,0.25749502,2.0007174,1.3039331,0.039999634,0.04,0.036317766089277725,0.027003819452331435,0.033025914460793615,-0.009635988629124195,-0.033842315187541175,-0.024096565388104646,0.9942099844954987,-0.08089064862663087,0.0122105381019501,-0.06967146082496047
27.8499999999997,0.43551147,-0.78648275,0.5143366,-2.8097405,0.25832155,2.0020962,1.3055948,0.03999964,0.04,0.03824906255363025,0.024581546390800568,0.033917608765088314,-0.009366512585676154,-0.0336428564493952,-0.023633325520014195,0.9941813379604896,-0.08097641559835157,0.012408402541826088,-0.06994511358410957
27.866666666666365,0.436883,-0.7864906,0.51595527,-2.8111682,0.25913572,2.0034547,1.3072317,0.03999965,0.04,0.038292633960312905,0.024090963328327053,0.03395003384880635,-0.009100274669468611,-0.03343277802791211,-0.023169735088915497,0.9941530589408524,-0.08106001708430156,0.012605100610842596,-0.0702145317397281
27.88333333333303,0.43823367,-0.7864985,0.51754946,-2.8125741,0.25993758,2.0047922,1.3088435,0.039999653,0.04,0.03771859436345615,0.02417515662116454,0.033472253864930135,-0.008837535212214767,-0.03321240941262024,-0.022706506602611948,0.9941251340769405,-0.08114151800664271,0.01280019881719871,-0.07047997419354535
27.899999999999697,0.43956336,-0.78650624,0.5191186,-2.8139584,0.26072708,2.006109,1.3104306,0.03999966,0.04,0.037797205056211425,0.02378339569816257,0.03399014373491882,-0.00857808443873398,-0.03298210191834386,-0.02223880037503982,0.994097612653098,-0.08122056501373003,0.012993618969108845,-0.0707412341025183
27.916666666666362,0.44087207,-0.7865139,0.52066284,-2.8153207,0.26150402,2.0074048,1.3119924,0.039999664,0.04,0.038063680700561875,0.02305980936980756,0.033941519277957966,-0.008325918685544317,-0.03274603707947971,-0.02177353736227436,0.9940704523456795,-0.08129766198432173,0.013185348441909314,-0.07099839797914126
27.933333333333028,0.44215968,-0.78652143,0.5221824,-2.816661,0.2622686,2.00868,1.3135293,0.039999675,0.04,0.03828173621740483,0.021879354310105903,0.03417451589236009,-0.008076368569731776,-0.03250190396791307,-0.02130500988238844,0.9940436817950696,-0.08137265326230737,0.013375552935327356,-0.07125127765892228
27.949999999999694,0.4434263,-0.78652877,0.52367705,-2.8179789,0.2630206,2.0099342,1.3150414,0.03999968,0.04,0.03812569121008913,0.021783453356227778,0.033845608244342795,-0.007830769555283168,-0.03224845602860038,-0.020839752746572654,0.9940173023829046,-0.08144546099752265,0.01356390494220845,-0.0715000694337628
27.96666666666636,0.44467175,-0.7865359,0.525147,-2.8192754,0.26376006,2.0111675,1.3165272,0.039999686,0.04,0.037044087401172376,0.021943927521683726,0.03384295212301991,-0.00759074812751144,-0.031987957306576935,-0.020373080068367397,0.9939912471946463,-0.08151683717657052,0.013750245860913161,-0.07174494055976678
27.983333333333025,0.44589606,-0.7865431,0.5265922,-2.8205497,0.264487,2.01238,1.3179892,0.039999697,0.04,0.03820061850705603,0.020601614279025515,0.033993793977527,-0.00734979063758924,-0.03172110325315834,-0.019901590200218658,0.9939656290654038,-0.08158565128497483,0.013934820887851584,-0.07198562709212228
27.99999999999969,0.4470991,-0.78655016,0.528012,-2.8218021,0.2652014,2.0135708,1.3194247,0.039999705,0.04,0.0378044003617628,0.020948381378460557,0.03404954953559747,-0.0071184099140550045,-0.031445511086380426,-0.019432688793024497,0.993940372459426,-0.0816529231522195,0.014117080985447615,-0.07222218606747714
28.016666666666357,0.4482812,-0.7865572,0.52940714,-2.8230324,0.26590317,2.0147417,1.3208354,0.039999712,0.04,0.038224940003472874,0.018902795584707643,0.03420227446320201,-0.00688737773982076,-0.031165117312935694,-0.01896088166177906,0.9939155027362958,-0.08171846428922128,0.014297832973750759,-0.0724543855603116
28.033333333333022,0.44944194,-0.7865641,0.53077704,-2.8242407,0.26659244,2.0158913,1.3222212,0.03999972,0.04,0.03764915183412931,0.01980976710189708,0.03409683503181604,-0.006658910054857511,-0.030874000208726635,-0.018492047292139505,0.9938910686624448,-0.08178171015188257,0.014476287828617065,-0.07268240920855673
28.049999999999688,0.45058146,-0.78657097,0.53212196,-2.825427,0.2672691,2.0170195,1.3235812,0.03999973,0.04,0.037488610231117825,0.019269330175486488,0.03367680081420854,-0.006438083405702677,-0.030576252668293252,-0.018024285427460082,0.9938670046634318,-0.08184335763600241,0.01465235680102108,-0.07290644890802908
28.066666666666354,0.45169982,-0.7865775,0.53344166,-2.8265915,0.2679332,2.018127,1.3249159,0.039999735,0.04,0.03747104568689874,0.0184586961207045,0.03405606477054901,-0.0062196141323909715,-0.03027438634106661,-0.01755456386141764,0.993843346372848,-0.08190323939940036,0.014826133626090752,-0.07312624705264827
28.08333333333302,0.45279694,-0.78658396,0.53473645,-2.8277335,0.26858467,2.0192137,1.3262253,0.039999735,0.04,0.0381913962041347,0.01731951324257519,0.03414549424657354,-0.006004922252772202,-0.02996773132609844,-0.017084794244884655,0.993820091688573,-0.08196146226849735,0.014997864873207383,-0.07334172146991831
28.099999999999685,0.4538729,-0.78659046,0.5360064,-2.8288538,0.26922357,2.0202794,1.3275094,0.039999742,0.04,0.03715644010831021,0.017795376988483103,0.03360929990614547,-0.005793164589356692,-0.029653123859986984,-0.016618395769494657,0.9937972317418942,-0.08201799597031302,0.015167237162846315,-0.0735531470163413
28.11666666666635,0.45492765,-0.78659683,0.5372512,-2.8299515,0.26984987,2.021324,1.3287681,0.039999742,0.04,0.03837763410983186,0.01637250475124974,0.03394620584779018,-0.005584984141424859,-0.02933225756519846,-0.016151702915986235,0.9937747813833612,-0.08207296553919646,0.01533430359343105,-0.07376022876428182
28.133333333333017,0.4559613,-0.7866031,0.53847116,-2.8310275,0.27046368,2.022348,1.3300017,0.03999975,0.04,0.03696741081509192,0.016581217499633816,0.033649515056755064,-0.0053792965418406335,-0.029005190704401922,-0.015686264104625758,0.9937527395704014,-0.08212629182421521,0.01549900477800249,-0.07396313702390678
28.149999999999682,0.45697376,-0.7866093,0.5396661,-2.832081,0.2710649,2.0233514,1.3312099,0.03999976,0.04,0.03811101071047318,0.01533928239157989,0.034054940652350485,-0.00517697507937033,-0.02867164931169917,-0.01522251404958079,0.9937311137946172,-0.08217815579577838,0.015661537903751226,-0.07416158316138964
28.166666666666348,0.45796522,-0.7866153,0.5408361,-2.8331127,0.27165368,2.0243328,1.332393,0.03999976,0.04,0.036758619371357604,0.016262591217475197,0.03267920699955296,-0.004977034655114759,-0.028330017146553803,-0.014763035294467708,0.993709892529774,-0.08222835060961765,0.015820955884608825,-0.07435620484790703
28.183333333333014,0.45893565,-0.7866213,0.5419814,-2.834123,0.2722299,2.0252936,1.3335513,0.03999977,0.04,0.03646314227216951,0.015537088719197456,0.03329038253443439,-0.004782012364190097,-0.02799012648821972,-0.014301157320840592,0.9936890822370594,-0.08227693808908129,0.015977844259111945,-0.07454677588190953
28.19999999999968,0.45988503,-0.786627,0.5431017,-2.8351111,0.27279368,2.026234,1.3346844,0.039999772,0.039999995,0.037034221423337677,0.01458386083796892,0.03350221914818485,-0.004590832533766825,-0.027642803391943277,-0.013839121344865563,0.9936686976845666,-0.08232402299449175,0.016132156969334222,-0.07473304484213507
28.216666666666345,0.4608135,-0.7866326,0.5441973,-2.8360775,0.2733451,2.027153,1.3357923,0.03999978,0.04,0.036810585079294356,0.014355924673226106,0.032802123553488105,-0.004403240073368203,-0.027291384830370493,-0.013381434888549391,0.9936487211348805,-0.08236971812580303,0.016283624428124244,-0.07491523275259977
