rsonawane2002/My_IMU/logs_2/traj_253/imu_400hz_253.csv
time,j1,j2,j3,j4,j5,j6,j7,gripper1,gripper2,imu_ax,imu_ay,imu_az,imu_gx,imu_gy,imu_gz
0.0,0.00016700293,-0.785875,4.0107683e-05,-2.3551247,9.29385e-05,1.570997,0.786,0.04,0.04,-9.479158,0.0279372297227382,0.08447151,-1.6065465e-08,-0.0011641274904832,3.7593594e-07
0.0025,0.0001670044645,-0.785857774,4.011015725e-05,-2.35513919,9.2944551e-05,1.570996565,0.786,0.04,0.04,-9.532445350000003,0.023845786336459854,0.07316504969999936,-7.749667725000348e-08,-0.0013253154873382092,4.513754385000043e-07
0.005,0.00016700599899999998,-0.785840548,4.01126315e-05,-2.3551536800000004,9.2950602e-05,1.57099613,0.786,0.04,0.04,-9.585732700000007,0.019754342950181504,0.06185858939999871,-1.3892788950000697e-07,-0.0014865034841932184,5.268149370000086e-07
0.0075,0.0001670075335,-0.785823322,4.011510575e-05,-2.3551681700000002,9.2956653e-05,1.570995695,0.786,0.04,0.04,-9.63902005000001,0.015662899563903158,0.050552129099998074,-2.0035910175001046e-07,-0.0016476914810482275,6.022544355000129e-07
0.01,0.000167009068,-0.7858060960000001,4.011758e-05,-2.35518266,9.2962704e-05,1.5709952600000001,0.786,0.04,0.04,-9.692307400000013,0.011571456177624808,0.03924566879999743,-2.6179031400001397e-07,-0.0018088794779032367,6.776939340000173e-07
0.0125,0.0001670106025,-0.78578887,4.012005425e-05,-2.3551971500000004,9.2968755e-05,1.570994825,0.786,0.04,0.04,-9.745594750000016,0.007480012791346458,0.027939208499996787,-3.232215262500175e-07,-0.0019700674747582456,7.531334325000215e-07
0.015,0.000167012137,-0.785771644,4.01225285e-05,-2.3552116400000003,9.2974806e-05,1.57099439,0.786,0.04,0.04,-9.798882100000018,0.0033885694050681155,0.016632748199996147,-3.8465273850002094e-07,-0.002131255471613255,8.285729310000258e-07
0.0175,0.0001670162595,-0.7857548645,4.0128281450000004e-05,-2.3552257350000003,9.29823605e-05,1.57099396,0.786,0.04,0.04,-9.834305475,0.0006679341226117133,0.00902013229999991,-5.397478860001365e-07,-0.002288176270667459,8.614691409999793e-07
0.02,0.000167025558,-0.785738978,4.01405918e-05,-2.3552390400000003,9.2992922e-05,1.5709935400000001,0.786,0.04,0.04,-9.834000900000001,0.0006889150477945295,0.008795205199999897,-8.821709040001558e-07,-0.0024365626741200672,8.092787739999763e-07
0.0225,0.0001670348565,-0.7857230915,4.0152902150000006e-05,-2.3552523450000002,9.30034835e-05,1.57099312,0.786,0.04,0.04,-9.833696325,0.0007098959729773457,0.008570278099999884,-1.224593922000175e-06,-0.0025849490775726757,7.570884069999733e-07
0.025,0.000167044155,-0.785707205,4.016521250000001e-05,-2.35526565,9.3014045e-05,1.5709927,0.786,0.04,0.04,-9.83339175,0.0007308768981601619,0.00834535099999987,-1.5670169400001946e-06,-0.002733335481025284,7.048980399999704e-07
0.0275,0.00016705345350000002,-0.7856913185,4.017752285000001e-05,-2.3552789549999997,9.30246065e-05,1.57099228,0.786,0.04,0.04,-9.833087175000001,0.0007518578233429781,0.00812042389999986,-1.909439958000214e-06,-0.0028817218844778927,6.527076729999674e-07
0.03,0.000167062752,-0.785675432,4.018983320000001e-05,-2.3552922599999997,9.303516800000001e-05,1.57099186,0.786,0.04,0.04,-9.8327826,0.0007728387485257943,0.007895496799999846,-2.2518629760002333e-06,-0.0030301082879305007,6.005173059999644e-07
0.0325,0.0001670720505,-0.7856595455,4.020214355000001e-05,-2.3553055649999997,9.304572950000001e-05,1.57099144,0.786,0.04,0.04,-9.832478025,0.0007938196737086105,0.007670569699999834,-2.594285994000253e-06,-0.0031784946913831096,5.483269389999614e-07
0.035,0.00016709541700000004,-0.785644515,4.023193530000004e-05,-2.3553181,9.306497100000003e-05,1.57099101,0.786,0.04,0.04,-9.83218165,0.0008280922076664784,0.007462819159999813,-3.2477806000007598e-06,-0.003319012490101198,3.625931249997628e-07
0.0375,0.00016712581750000005,-0.7856299125,4.027046775000005e-05,-2.3553302499999997,9.308855250000003e-05,1.570990575,0.786,0.04,0.04,-9.831889375,0.0008690105460118494,0.007263656899999759,-4.0568110000009766e-06,-0.00345559598645204,1.100875874996951e-07
0.04,0.00016715621800000003,-0.78561531,4.030900020000006e-05,-2.3553424,9.311213400000003e-05,1.57099014,0.786,0.04,0.04,-9.8315971,0.0009099288843572204,0.007064494639999705,-4.865841400001196e-06,-0.003592179482802882,-1.4241795000037333e-07
0.0425,0.00016718661850000004,-0.7856007075,4.034753265000007e-05,-2.35535455,9.313571550000004e-05,1.5709897050000001,0.786,0.04,0.04,-9.831304825,0.0009508472227025915,0.006865332379999652,-5.674871800001415e-06,-0.003728762979153724,-3.9492348750044167e-07
0.045,0.00016721701900000005,-0.7855861049999999,4.038606510000008e-05,-2.3553667,9.315929700000004e-05,1.57098927,0.786,0.04,0.04,-9.831012549999999,0.0009917655610479626,0.006666170119999599,-6.4839022000016325e-06,-0.003865346475504566,-6.474290250005094e-07
0.0475,0.00016724741950000007,-0.7855715025,4.0424597550000086e-05,-2.35537885,9.318287850000004e-05,1.570988835,0.786,0.04,0.04,-9.830720275,0.0010326838993933336,0.006467007859999544,-7.292932600001851e-06,-0.004001929971855407,-8.999345625005777e-07
0.05,0.00016727782000000018,-0.7855569,4.046313000000022e-05,-2.355391,9.320646000000012e-05,1.5709884,0.786,0.04,0.04,-9.830428,0.0010736022377387498,0.006267845599999549,-8.101963000003653e-06,-0.004138513468206221,-1.1524401000013745e-06
0.0525,0.00016734883600000015,-0.7855434554999999,4.055143710000021e-05,-2.35540216,9.325493550000011e-05,1.57098798,0.786,0.04,0.04,-9.8301433,0.0011321512458381006,0.006091455304999577,-9.529037650003427e-06,-0.004264004039578416,-1.6895735400012896e-06
0.055,0.00016741985200000015,-0.785530011,4.06397442000002e-05,-2.35541332,9.33034110000001e-05,1.57098756,0.786,0.04,0.04,-9.8298586,0.0011907002539374514,0.005915065009999604,-1.0956112300003204e-05,-0.004389494610950612,-2.226706980001206e-06
0.0575,0.00016749086800000015,-0.7855165665,4.0728051300000184e-05,-2.35542448,9.33518865000001e-05,1.57098714,0.786,0.04,0.04,-9.8295739,0.0012492492620368024,0.005738674714999632,-1.2383186950002982e-05,-0.004514985182322808,-2.7638404200011225e-06
0.06,0.00016756188400000012,-0.785503122,4.081635840000017e-05,-2.35543564,9.340036200000009e-05,1.57098672,0.786,0.04,0.04,-9.8292892,0.001307798270136153,0.00556228441999966,-1.3810261600002756e-05,-0.004640475753695003,-3.3009738600010375e-06
0.0625,0.00016763290000000011,-0.7854896775,4.090466550000015e-05,-2.3554468,9.344883750000009e-05,1.5709863,0.786,0.04,0.04,-9.8290045,0.001366347278235504,0.005385894124999687,-1.5237336250002534e-05,-0.004765966325067198,-3.838107300000954e-06
0.065,0.0001677039160000001,-0.785476233,4.099297260000014e-05,-2.35545796,9.349731300000007e-05,1.57098588,0.786,0.04,0.04,-9.8287198,0.0014248962863348548,0.005209503829999715,-1.6664410900002312e-05,-0.004891456896439394,-4.375240740000871e-06
0.0675,0.0001677968140000002,-0.785463148,4.110785160000026e-05,-2.3554688,9.356007280000014e-05,1.57098562,0.786000095,0.04,0.0399999995,-9.82843955,0.0014892047503963465,0.005037910699999751,-1.8340100000003338e-05,-0.005013570841401987,-4.9564069650010286e-06
0.07,0.0001679334760000002,-0.7854507820000001,4.127587440000027e-05,-2.355479,9.365140120000014e-05,1.57098568,0.78600038,0.04,0.039999998,-9.8281682,0.001565032126382041,0.004875911899999742,-2.0513018000003464e-05,-0.005128931533545424,-5.625638760001067e-06
0.0725,0.00016807013800000022,-0.785438416,4.144389720000028e-05,-2.3554892,9.374272960000015e-05,1.57098574,0.786000665,0.04,0.0399999965,-9.82789685,0.0016408595023677348,0.0047139130999997335,-2.2685936000003575e-05,-0.00524429222568886,-6.2948705550011025e-06
0.075,0.00016820680000000023,-0.78542605,4.1611920000000286e-05,-2.3554994000000002,9.383405800000014e-05,1.5709858,0.78600095,0.04,0.039999994999999997,-9.8276255,0.0017166868783534293,0.0045519142999997245,-2.48588540000037e-05,-0.005359652917832297,-6.964102350001141e-06
0.0775,0.00016834346200000024,-0.785413684,4.1779942800000295e-05,-2.3555096,9.392538640000015e-05,1.57098586,0.7860012350000001,0.04,0.0399999935,-9.82735415,0.0017925142543391236,0.004389915499999715,-2.7031772000003826e-05,-0.005475013609975733,-7.63333414500118e-06
0.08,0.00016848012400000025,-0.785401318,4.1947965600000304e-05,-2.3555198,9.401671480000016e-05,1.57098592,0.78600152,0.04,0.039999992,-9.8270828,0.0018683416303248179,0.004227916699999706,-2.920469000000395e-05,-0.00559037430211917,-8.302565940001218e-06
0.0825,0.00016861678600000026,-0.785388952,4.211598840000031e-05,-2.35553,9.410804320000016e-05,1.57098598,0.786001805,0.04,0.0399999905,-9.82681145,0.0019441690063105124,0.004065917899999696,-3.137760800000408e-05,-0.005705734994262607,-8.971797735001257e-06
0.085,0.0001688172500000005,-0.785377231,4.236105780000059e-05,-2.35553993,9.42360078000003e-05,1.57098606,0.78600209,0.04,0.039999991,-9.8265336,0.002026892569847549,0.003908871319999679,-3.497032390000893e-05,-0.005813156254589705,-1.0239706900003256e-05
0.08750000000000001,0.00016904961500000055,-0.7853658325,4.264465050000067e-05,-2.355549725,9.438229050000034e-05,1.57098615,0.786002375,0.04,0.0399999925,-9.826252499999999,0.0021130642271602273,0.0037543008499996374,-3.92729387500101e-05,-0.005916607799008668,-1.180695475000368e-05
0.09,0.0001692819800000006,-0.785354434,4.292824320000074e-05,-2.35555952,9.452857320000038e-05,1.5709862399999999,0.7860026600000001,0.04,0.039999994,-9.825971399999998,0.0021992358844729054,0.0035997303799995962,-4.357555360001124e-05,-0.00602005934342763,-1.3374202600004096e-05
0.0925,0.00016951434500000069,-0.7853430355,4.321183590000082e-05,-2.355569315,9.467485590000042e-05,1.57098633,0.786002945,0.04,0.0399999955,-9.825690299999998,0.0022854075417855836,0.003445159909999554,-4.787816845001241e-05,-0.0061235108878465935,-1.494145045000452e-05
0.095,0.00016974671000000074,-0.785331637,4.349542860000089e-05,-2.35557911,9.482113860000046e-05,1.5709864199999999,0.78600323,0.04,0.039999997,-9.8254092,0.002371579199098262,0.0032905894399995125,-5.2180783300013575e-05,-0.006226962432265557,-1.6508698300004943e-05
0.0975,0.0001699790750000008,-0.7853202385,4.377902130000097e-05,-2.355588905,9.49674213000005e-05,1.57098651,0.786003515,0.04,0.0399999985,-9.825128099999999,0.0024577508564109403,0.0031360189699994705,-5.648339815001474e-05,-0.00633041397668452,-1.8075946150005368e-05
0.1,0.00017021144000000133,-0.78530884,4.4062614000001625e-05,-2.3555987,9.511370400000083e-05,1.5709866,0.7860038,0.04,0.04,-9.824847,0.002543922513723677,0.002981448499999519,-6.0786013000018654e-05,-0.0064338655211034585,-1.9643194000007063e-05
0.10250000000000001,0.00017057394350000128,-0.785298325,4.450268295000156e-05,-2.3556075649999997,9.53380728000008e-05,1.570986735,0.7860043760000001,0.04,0.04,-9.824652449999999,0.002645837131422301,0.002851318129999539,-6.583284955001787e-05,-0.006530848680995699,-2.1553728700006767e-05
0.105,0.00017093644700000123,-0.78528781,4.494275190000149e-05,-2.35561643,9.556244160000077e-05,1.57098687,0.786004952,0.04,0.04,-9.824457899999999,0.0027477517491209247,0.00272118775999956,-7.087968610001706e-05,-0.006627831840887938,-2.3464263400006458e-05
0.1075,0.00017129895050000117,-0.785277295,4.538282085000142e-05,-2.355625295,9.578681040000072e-05,1.5709870049999999,0.786005528,0.04,0.04,-9.824263349999999,0.0028496663668195485,0.0025910573899995803,-7.592652265001627e-05,-0.006724815000780178,-2.5374798100006162e-05
0.11,0.00017166145400000112,-0.78526678,4.582288980000135e-05,-2.3556341599999997,9.601117920000069e-05,1.57098714,0.786006104,0.04,0.04,-9.8240688,0.002951580984518173,0.002460927019999601,-8.097335920001549e-05,-0.006821798160672418,-2.7285332800005866e-05
0.1125,0.00017202395750000104,-0.785256265,4.6262958750001284e-05,-2.355643025,9.623554800000066e-05,1.570987275,0.7860066800000001,0.04,0.04,-9.82387425,0.003053495602216797,0.002330796649999621,-8.602019575001471e-05,-0.006918781320564658,-2.919586750000557e-05
0.115,0.000172386461000001,-0.78524575,4.670302770000122e-05,-2.35565189,9.645991680000063e-05,1.57098741,0.786007256,0.04,0.04,-9.823679699999998,0.003155410219915421,0.002200666279999641,-9.106703230001393e-05,-0.007015764480456897,-3.110640220000527e-05
0.11750000000000001,0.0001728051485000014,-0.785235523,4.721044665000172e-05,-2.355660685,9.671837320000088e-05,1.570987545,0.786007831,0.04,0.04,-9.823460899999999,0.003261145309079673,0.002074276494999682,-9.680203650001903e-05,-0.007109832996502671,-3.313275725000604e-05
0.12,0.00017333620400000144,-0.785225872,4.785256560000175e-05,-2.35566934,9.70450048000009e-05,1.57098768,0.786008404,0.04,0.04,-9.823193599999998,0.003374521341175089,0.001955367879999676,-0.00010391337600001939,-0.00719807222485558,-3.539075300000616e-05
0.1225,0.00017386725950000148,-0.785216221,4.849468455000179e-05,-2.355677995,9.737163640000092e-05,1.570987815,0.786008977,0.04,0.04,-9.822926299999999,0.0034878973732705054,0.001836459264999669,-0.0001110247155000198,-0.007286311453208491,-3.764874875000629e-05
0.125,0.0001743983150000015,-0.78520657,4.913680350000182e-05,-2.35568665,9.769826800000093e-05,1.5709879500000001,0.7860095500000001,0.04,0.04,-9.822659,0.003601273405365922,0.0017175506499996621,-0.00011813605500002021,-0.007374550681561401,-3.990674450000642e-05
0.1275,0.00017492937050000155,-0.785196919,4.977892245000186e-05,-2.3556953050000002,9.802489960000095e-05,1.570988085,0.786010123,0.04,0.04,-9.822391699999999,0.003714649437461339,0.0015986420349996552,-0.0001252473945000206,-0.0074627899099143115,-4.216474025000655e-05
0.13,0.00017546042600000155,-0.785187268,5.04210414000019e-05,-2.35570396,9.835153120000097e-05,1.57098822,0.786010696,0.04,0.04,-9.8221244,0.003828025469556755,0.0014797334199996483,-0.00013235873400002104,-0.007551029138267221,-4.442273600000668e-05
0.1325,0.0001759914815000016,-0.785177617,5.1063160350001935e-05,-2.3557126150000003,9.867816280000098e-05,1.5709883550000001,0.786011269,0.04,0.04,-9.821857099999999,0.003941401501652172,0.0013608248049996417,-0.00013947007350002144,-0.007639268366620131,-4.668073175000681e-05
0.135,0.00017666289100000239,-0.7851685,5.1873102000002875e-05,-2.35572089,9.908847500000146e-05,1.57098887,0.786012034,0.04,0.04,-9.8216488,0.0040595678146932174,0.001251751124999665,-0.00014699716100002486,-0.0077240123413505075,-4.9479999300009866e-05
0.1375,0.00017740447750000258,-0.78515965,5.276695500000311e-05,-2.355728975,9.954062750000158e-05,1.570989575,0.786012895,0.04,0.04,-9.82147,0.004180129268207045,0.0011475949124996369,-0.00015473212250002695,-0.0078070086892696395,-5.25499027500107e-05
0.14,0.0001781460640000028,-0.7851508,5.3660808000003356e-05,-2.35573706,9.99927800000017e-05,1.57099028,0.786013756,0.04,0.04,-9.8212912,0.0043006907217208725,0.0010434386999996087,-0.00016246708400002906,-0.007890005037188771,-5.561980620001153e-05
0.14250000000000002,0.00017888765050000298,-0.78514195,5.45546610000036e-05,-2.3557451449999998,0.00010044493250000182,1.570990985,0.786014617,0.04,0.04,-9.8211124,0.0044212521752347005,0.0009392824874995805,-0.00017020204550003115,-0.007973001385107904,-5.8689709650012365e-05
0.145,0.00017962923700000317,-0.7851331,5.544851400000383e-05,-2.35575323,0.00010089708500000194,1.57099169,0.7860154779999999,0.04,0.04,-9.8209336,0.004541813628748527,0.0008351262749995533,-0.00017793700700003318,-0.008055997733027035,-6.175961310001316e-05
0.1475,0.0001803708235000034,-0.78512425,5.6342367000004073e-05,-2.355761315,0.00010134923750000205,1.570992395,0.786016339,0.04,0.04,-9.8207548,0.004662375082262355,0.0007309700624995251,-0.00018567196850003526,-0.008138994080946168,-6.4829516550014e-05
0.15,0.00018111241000000482,-0.7851154,5.723622000000579e-05,-2.3557694,0.00010180139000000292,1.5709931,0.7860172,0.04,0.04,-9.820575999999999,0.0047829365357762365,0.0006268138499994937,-0.0001934069300000465,-0.008221990428865258,-6.789942000001672e-05
0.1525,0.00018210958150000444,-0.78510727,5.843512950000535e-05,-2.355777095,0.0001024080101000027,1.5709938049999999,0.7860183399999999,0.03999999925,0.03999999925,-9.8203363,0.004914727644064058,0.0005219784539995324,-0.00020303775050004296,-0.00829613618552712,-7.136120910001544e-05
0.155,0.00018310675300000408,-0.78509914,5.963403900000491e-05,-2.35578479,0.00010301463020000248,1.57099451,0.78601948,0.0399999985,0.0399999985,-9.8200966,0.005046518752351879,0.000417143057999571,-0.0002126685710000394,-0.008370281942188983,-7.482299820001417e-05
0.1575,0.0001841039245000037,-0.78509101,6.0832948500004467e-05,-2.355792485,0.00010362125030000226,1.570995215,0.78602062,0.03999999775,0.03999999775,-9.8198569,0.005178309860639701,0.00031230766199960965,-0.00022229939150003586,-0.008444427698850846,-7.828478730001289e-05
0.16,0.00018510109600000335,-0.78508288,6.203185800000403e-05,-2.35580018,0.00010422787040000204,1.5709959199999999,0.78602176,0.039999997,0.039999997,-9.8196172,0.0053101009689275214,0.0002074722659996483,-0.00023193021200003229,-0.008518573455512709,-8.174657640001161e-05
0.1625,0.00018609826750000296,-0.78507475,6.323076750000359e-05,-2.355807875,0.0001048344905000018,1.570996625,0.7860229,0.03999999625,0.03999999625,-9.8193775,0.005441892077215344,0.00010263686999968701,-0.00024156103250002874,-0.008592719212174572,-8.520836550001033e-05
0.165,0.0001870954390000026,-0.78506662,6.442967700000314e-05,-2.3558155700000003,0.00010544111060000158,1.57099733,0.7860240399999999,0.0399999955,0.0399999955,-9.819137799999998,0.005573683185503164,-2.1985260002743917e-06,-0.0002511918530000252,-0.008666864968836435,-8.867015460000905e-05
0.1675,0.0001881937535000032,-0.7850587075,6.574912650000384e-05,-2.3558232250000004,0.00010610775730000193,1.570998225,0.786025337,0.039999994750000004,0.03999999525,-9.8189072,0.005706724547781318,-9.928019550020088e-05,-0.00026138612400002786,-0.008739142632112009,-9.247839530001107e-05
0.17,0.00018949435400000356,-0.78505123,6.730965600000427e-05,-2.3558308,0.00010689445720000214,1.5709995,0.786026948,0.039999994000000004,0.039999996,-9.8186948,0.00584226641804011,-0.000180854412000223,-0.0002727072960000309,-0.008807684108615047,-9.69795392000123e-05
0.17250000000000001,0.0001907949545000039,-0.7850437525,6.887018550000469e-05,-2.3558383750000003,0.00010768115710000236,1.5710007750000001,0.786028559,0.039999993250000004,0.03999999675,-9.818482399999999,0.005977808288298902,-0.0002624286285002451,-0.000284028468000034,-0.008876225585118086,-0.00010148068310001352
0.17500000000000002,0.00019209555500000427,-0.785036275,7.043071500000511e-05,-2.3558459500000004,0.00010846785700000257,1.5710020500000001,0.78603017,0.0399999925,0.0399999975,-9.81827,0.006113350158557694,-0.0003440028450002672,-0.0002953496400000371,-0.008944767061621124,-0.00010598182700001473
0.1775,0.0001933961555000046,-0.7850287975,7.199124450000552e-05,-2.355853525,0.00010925455690000278,1.571003325,0.7860317809999999,0.03999999175,0.03999999825,-9.8180576,0.006248892028816484,-0.0004255770615002884,-0.00030667081200004,-0.009013308538124163,-0.0001104829709000159
0.18,0.00019469675600000496,-0.78502132,7.355177400000595e-05,-2.3558611000000003,0.00011004125680000299,1.5710046,0.786033392,0.039999991,0.039999999,-9.817845199999999,0.006384433899075276,-0.0005071512780003104,-0.0003179919840000431,-0.009081850014627201,-0.00011498411480001713
0.1825,0.0001959973565000053,-0.7850138425,7.511230350000637e-05,-2.3558686750000004,0.0001108279567000032,1.571005875,0.786035003,0.03999999025,0.03999999975,-9.8176328,0.006519975769334068,-0.0005887254945003325,-0.0003293131560000462,-0.00915039149113024,-0.00011948525870001834
0.185,0.00019753373000000696,-0.7850067749999999,7.695346700000833e-05,-2.3558762300000002,0.0001117555880000042,1.57100718,0.7860368759999999,0.039999989799999996,0.0399999995,-9.8174367,0.006662334082648743,-0.0006718197300003526,-0.00034217610500005734,-0.009214785695076212,-0.00012428738600002082
0.1875,0.00019918799000000705,-0.7849999125,7.893494750000845e-05,-2.355883775,0.00011275368500000425,1.5710085,0.78603888,0.0399999895,0.03999999875,-9.81724875,0.006808100617491296,-0.0007556739750003575,-0.00035580994250005815,-0.00927710626274369,-0.00012924000500002112
0.19,0.00020084225000000715,-0.78499305,8.091642800000856e-05,-2.35589132,0.0001137517820000043,1.57100982,0.786040884,0.0399999892,0.039999998,-9.8170608,0.00695386715233385,-0.0008395282200003623,-0.00036944378000005896,-0.00933942683041117,-0.0001341926240000214
0.1925,0.00020249651000000724,-0.7849861875,8.289790850000868e-05,-2.355898865,0.00011474987900000437,1.5710111400000002,0.786042888,0.0399999889,0.03999999725,-9.81687285,0.007099633687176404,-0.0009233824650003671,-0.0003830776175000597,-0.009401747398078648,-0.00013914524300002169
0.195,0.00020415077000000733,-0.784979325,8.48793890000088e-05,-2.3559064100000002,0.00011574797600000442,1.5710124600000002,0.786044892,0.0399999886,0.0399999965,-9.8166849,0.007245400222018957,-0.001007236710000372,-0.00039671145500006053,-0.009464067965746127,-0.00014409786200002197
0.1975,0.00020580503000000743,-0.7849724625,8.68608695000089e-05,-2.355913955,0.00011674607300000449,1.5710137800000001,0.786046896,0.0399999883,0.03999999575,-9.81649695,0.00739116675686151,-0.0010910909550003768,-0.0004103452925000613,-0.009526388533413605,-0.00014905048100002227
0.2,0.00020745929000000937,-0.7849656,8.884235000001122e-05,-2.3559215,0.00011774417000000565,1.5710151,0.7860489,0.039999988,0.039999995,-9.816309,0.007536933291704074,-0.0011749452000002977,-0.0004239791300000706,-0.009588709101081068,-0.00015400310000002646
0.2025,0.00020951955800000948,-0.7849592745,9.130662890001136e-05,-2.355929015,0.00011898452900000572,1.5710169600000001,0.786051429,0.0399999874,0.039999994250000004,-9.8161407,0.007684945897199832,-0.0012403570800003016,-0.0004394850005000715,-0.009647586802020852,-0.0001598164850000268
0.20500000000000002,0.00021157982600000962,-0.784952949,9.37709078000115e-05,-2.35593653,0.00012022488800000578,1.5710188200000001,0.786053958,0.0399999868,0.039999993500000004,-9.8159724,0.007832958502695591,-0.0013057689600003053,-0.00045499087100007237,-0.009706464502960636,-0.00016562987000002713
0.20750000000000002,0.00021364009400000973,-0.7849466235,9.623518670001164e-05,-2.355944045,0.00012146524700000586,1.5710206800000002,0.786056487,0.039999986200000004,0.039999992750000005,-9.8158041,0.00798097110819135,-0.0013711808400003092,-0.0004704967415000733,-0.009765342203900419,-0.00017144325500002746
0.21,0.00021570036200000984,-0.784940298,9.869946560001175e-05,-2.3559515600000003,0.00012270560600000593,1.57102254,0.786059016,0.0399999856,0.039999992,-9.815635799999999,0.008128983713687105,-0.0014365927200003122,-0.000486002612000074,-0.009824219904840201,-0.00017725664000002773
0.2125,0.00021776063000000995,-0.7849339725,0.0001011637445000119,-2.3559590750000003,0.000123945965000006,1.5710244,0.786061545,0.039999985,0.03999999125,-9.815467499999999,0.008276996319182864,-0.0015020046000003159,-0.000501508482500075,-0.009883097605779986,-0.00018307002500002808
0.215,0.0002198208980000101,-0.784927647,0.00010362802340001204,-2.35596659,0.00012518632400000605,1.57102626,0.786064074,0.0399999844,0.0399999905,-9.815299199999998,0.008425008924678623,-0.0015674164800003197,-0.0005170143530000758,-0.009941975306719768,-0.0001888834100000284
0.2175,0.00022203455250001248,-0.78492149,0.00010627453370001488,-2.3559741250000004,0.00012651816450000747,1.57102831,0.786066779,0.0399999838,0.03999999,-9.815124449999999,0.008575017796830035,-0.0016343807800003466,-0.0005332487550000875,-0.009999025054276195,-0.00019490594700003185
0.22,0.0002245549800000126,-0.78491567,0.00010928550680001506,-2.3559817,0.00012803296800000758,1.57103074,0.786069836,0.0399999832,0.03999999,-9.814936799999998,0.00872901920229267,-0.0017044499200003507,-0.0005509402200000885,-0.010052418895065987,-0.00020134678800003223
0.2225,0.00022707540750001277,-0.7849098499999999,0.00011229647990001523,-2.355989275,0.00012954777150000766,1.57103317,0.7860728929999999,0.0399999826,0.03999999,-9.814749149999999,0.008883020607755303,-0.0017745190600003547,-0.0005686316850000895,-0.010105812735855781,-0.00020778762900003258
0.225,0.0002295958350000129,-0.78490403,0.0001153074530000154,-2.3559968500000004,0.00013106257500000774,1.5710356,0.78607595,0.039999981999999996,0.03999999,-9.814561499999998,0.009037022013217938,-0.0018445882000003588,-0.0005863231500000905,-0.010159206576645574,-0.00021422847000003296
0.2275,0.00023211626250001306,-0.7848982099999999,0.00011831842610001557,-2.356004425,0.00013257737850000783,1.57103803,0.786079007,0.0399999814,0.03999999,-9.814373849999999,0.00919102341868057,-0.0019146573400003629,-0.0006040146150000916,-0.010212600417435366,-0.00022066931100003334
0.23,0.00023463669000001322,-0.78489239,0.00012132939920001575,-2.356012,0.00013409218200000794,1.5710404599999999,0.786082064,0.0399999808,0.03999999,-9.814186199999998,0.009345024824143205,-0.0019847264800003667,-0.0006217060800000926,-0.01026599425822516,-0.00022711015200003372
0.2325,0.00023715711750001335,-0.78488657,0.00012434037230001592,-2.3560195750000004,0.00013560698550000802,1.57104289,0.786085121,0.0399999802,0.03999999,-9.813998549999999,0.009499026229605839,-0.002054795620000371,-0.0006393975450000935,-0.010319388099014953,-0.0002335509930000341
0.23500000000000001,0.00024002143800001626,-0.784881054,0.00012775965900001937,-2.35602716,0.00013732669500000975,1.57104571,0.786088586,0.0399999797,0.039999989799999996,-9.8138174,0.00965510355308731,-0.0021203907900003392,-0.0006584336200001053,-0.01036951867863553,-0.0002405109840000386
0.23750000000000002,0.00024305770500001643,-0.7848756899999999,0.0001313831025000196,-2.35603475,0.00013914885750000984,1.571048725,0.786092255,0.03999997925,0.0399999895,-9.813639499999999,0.009812218835578174,-0.0021837489750003427,-0.0006781420000001065,-0.010418017627671538,-0.00024773055000003904
0.24,0.00024609397200001657,-0.784870326,0.00013500654600001976,-2.35604234,0.00014097102000000994,1.57105174,0.7860959240000001,0.039999978799999995,0.0399999892,-9.813461599999998,0.009969334118069037,-0.0022471071600003454,-0.0006978503800001074,-0.010466516576707545,-0.00025495011600003937
0.2425,0.00024913023900001674,-0.784864962,0.00013862998950001996,-2.35604993,0.00014279318250001006,1.571054755,0.786099593,0.03999997835,0.0399999889,-9.8132837,0.0101264494005599,-0.0023104653450003493,-0.0007175587600001086,-0.010515015525743554,-0.0002621696820000398
0.245,0.0002521665060000169,-0.7848595979999999,0.00014225343300002018,-2.35605752,0.00014461534500001015,1.57105777,0.786103262,0.0399999779,0.0399999886,-9.813105799999999,0.010283564683050766,-0.002373823530000353,-0.0007372671400001097,-0.01056351447477956,-0.00026938924800004024
0.2475,0.0002552027730000171,-0.784854234,0.00014587687650002037,-2.35606511,0.00014643750750001027,1.571060785,0.7861069310000001,0.03999997745,0.0399999883,-9.812927899999998,0.010440679965541629,-0.0024371817150003563,-0.0007569755200001109,-0.010612013423815568,-0.0002766088140000406
0.25,0.0002582390400000205,-0.78484887,0.00014950032000002445,-2.3560727,0.00014825967000001232,1.5710638,0.7861106,0.039999977,0.039999988,-9.812749999999998,0.010597795248032497,-0.002500539900000312,-0.0007766839000001238,-0.010660512372851547,-0.0002838283800000463
0.2525,0.00026184821400002074,-0.7848439395,0.0001538035320000247,-2.3560803949999998,0.00015042286050001244,1.57106737,0.78611498,0.03999997535,0.0399999868,-9.812559649999999,0.010755717847497152,-0.0025554614850003153,-0.000798462325000125,-0.01070397952571529,-0.00029197078350004675
0.255,0.0002654573880000209,-0.784839009,0.00015810674400002495,-2.35608809,0.00015258605100001255,1.57107094,0.78611936,0.0399999737,0.039999985599999996,-9.812369299999999,0.010913640446961807,-0.0026103830700003184,-0.0008202407500001263,-0.010747446678579032,-0.00030011318700004725
0.2575,0.00026906656200002116,-0.7848340785,0.0001624099560000252,-2.356095785,0.00015474924150001267,1.5710745099999999,0.7861237400000001,0.03999997205,0.0399999844,-9.812178949999998,0.011071563046426461,-0.0026653046550003216,-0.0008420191750001275,-0.010790913831442775,-0.0003082555905000477
0.26,0.00027267573600002135,-0.7848291479999999,0.00016671316800002546,-2.35610348,0.0001569124320000128,1.57107808,0.7861281200000001,0.0399999704,0.0399999832,-9.8119886,0.011229485645891116,-0.002720226240000325,-0.0008637976000001288,-0.010834380984306518,-0.0003163979940000482
0.2625,0.00027628491000002153,-0.7848242175,0.0001710163800000257,-2.356111175,0.0001590756225000129,1.57108165,0.7861325,0.039999968749999996,0.039999981999999996,-9.811798249999999,0.011387408245355769,-0.002775147825000328,-0.00088557602500013,-0.01087784813717026,-0.0003245403975000486
0.265,0.00027989408400002177,-0.7848192869999999,0.00017531959200002594,-2.35611887,0.00016123881300001303,1.57108522,0.78613688,0.0399999671,0.039999980799999994,-9.811607899999998,0.011545330844820423,-0.002830069410000331,-0.0009073544500001313,-0.010921315290034003,-0.0003326828010000491
0.2675,0.0002837135870000261,-0.7848144934999999,0.0001798722425000311,-2.356126775,0.00016352717600001562,1.571088985,0.7861415,0.0399999654,0.0399999795,-9.811420199999999,0.01170470635406765,-0.0028819228100002816,-0.0009299018550001483,-0.01096329228021221,-0.0003410518650000543
0.27,0.0002879537480000273,-0.784809974,0.0001849237700000325,-2.3561351,0.00016606588400001633,1.57109314,0.7861466,0.0399999636,0.039999978,-9.811237799999999,0.011866987682879944,-0.002927639840000294,-0.0009539872200001548,-0.011002288945019431,-0.0003498742500000567
0.2725,0.0002921939090000284,-0.7848054544999999,0.00018997529750003385,-2.356143425,0.000168604592000017,1.571097295,0.7861517000000001,0.0399999618,0.0399999765,-9.811055399999999,0.012029269011692238,-0.0029733568700003065,-0.0009780725850001613,-0.01104128560982665,-0.0003586966350000591
0.275,0.0002964340700000296,-0.7848009349999999,0.00019502682500003522,-2.35615175,0.0001711433000000177,1.57110145,0.7861568000000001,0.039999959999999994,0.039999975,-9.810872999999999,0.012191550340504531,-0.003019073900000319,-0.001002157950000168,-0.011080282274633872,-0.0003675190200000615
0.2775,0.00030067423100003075,-0.7847964154999999,0.00020007835250003658,-2.356160075,0.00017368200800001838,1.571105605,0.7861619000000001,0.0399999582,0.0399999735,-9.8106906,0.012353831669316825,-0.003064790930000331,-0.0010262433150001744,-0.011119278939441092,-0.0003763414050000639
0.28,0.00030491439200003187,-0.784791896,0.00020512988000003795,-2.3561684,0.00017622071600001906,1.5711097600000001,0.7861670000000001,0.039999956399999995,0.039999972,-9.810508199999997,0.01251611299812912,-0.0031105079600003437,-0.001050328680000181,-0.011158275604248313,-0.0003851637900000663
0.28250000000000003,0.00030915455300003304,-0.7847873765,0.0002101814075000393,-2.356176725,0.00017875942400001976,1.571113915,0.7861721,0.0399999546,0.0399999705,-9.810325799999998,0.012678394326941414,-0.003156224990000356,-0.0010744140450001875,-0.011197272269055534,-0.00039398617500006867
0.28500000000000003,0.0003138546990000383,-0.784783098,0.0002157782050000456,-2.3561853100000003,0.0001815716570000229,1.57111847,0.7861777600000001,0.0399999536,0.03999997,-9.8101864,0.01283978214487556,-0.0031969837500002976,-0.0010998770500002032,-0.01123507460579303,-0.00040344126600007596
0.28750000000000003,0.00031878483750003754,-0.7847789399999999,0.0002216476375000447,-2.356194025,0.00018452065250002244,1.571123225,0.7861837,0.039999953,0.03999997,-9.810068499999998,0.01300072320737065,-0.0032352633750002916,-0.0011260288750001993,-0.011272279778495684,-0.0004132127100000744
0.29,0.00032371497600003666,-0.784774782,0.00022751707000004365,-2.35620274,0.00018746964800002192,1.57112798,0.78618964,0.0399999524,0.03999997,-9.809950599999999,0.013161664269865737,-0.0032735430000002848,-0.0011521807000001946,-0.011309484951198337,-0.0004229841540000727
0.2925,0.00032864511450003594,-0.784770624,0.00023338650250004275,-2.356211455,0.00019041864350002148,1.5711327350000002,0.78619558,0.039999951799999996,0.03999997,-9.8098327,0.013322605332360828,-0.003311822625000279,-0.0011783325250001905,-0.011346690123900991,-0.0004327555980000712
0.295,0.00033357525300003516,-0.784766466,0.0002392559350000418,-2.3562201700000003,0.000193367639000021,1.5711374900000001,0.78620152,0.0399999512,0.03999997,-9.809714799999998,0.013483546394855918,-0.003350102250000273,-0.0012044843500001864,-0.011383895296603646,-0.0004425270420000696
0.2975,0.0003385053915000344,-0.784762308,0.00024512536750004093,-2.356228885,0.00019631663450002054,1.571142245,0.78620746,0.0399999506,0.03999997,-9.809596899999999,0.013644487457351008,-0.003388381875000267,-0.0012306361750001823,-0.011421100469306299,-0.0004522984860000681
0.3,0.0003434355300000387,-0.78475815,0.00025099480000004607,-2.3562376,0.00019926563000002313,1.571147,0.7862134,0.03999995,0.03999997,-9.809478999999998,0.013805428519846112,-0.0034266615000002605,-0.0012567880000001936,-0.011458305642008932,-0.0004620699300000714
0.3025,0.00034911536100003905,-0.7847543415,0.0002577526150000464,-2.3562464800000003,0.00020266036700002332,1.571152625,0.786220249,0.03999995,0.03999997,-9.809327349999998,0.013968629762531427,-0.0034648722600002626,-0.0012852023800001954,-0.01149251568131164,-0.00047254249800007196
0.305,0.0003547951920000394,-0.784750533,0.0002645104300000468,-2.35625536,0.00020605510400002354,1.57115825,0.786227098,0.03999995,0.03999997,-9.809175699999999,0.014131831005216741,-0.0035030830200002646,-0.001313616760000197,-0.011526725720614348,-0.0004830150660000726
0.3075,0.0003604750230000397,-0.7847467245,0.00027126824500004723,-2.3562642400000002,0.00020944984100002372,1.571163875,0.786233947,0.03999995,0.03999997,-9.809024049999998,0.014295032247902056,-0.003541293780000267,-0.0013420311400001985,-0.011560935759917054,-0.0004934876340000732
0.31,0.00036615485400004006,-0.784742916,0.00027802606000004764,-2.35627312,0.00021284457800002394,1.5711695,0.7862407960000001,0.03999995,0.03999997,-9.808872399999998,0.01445823349058737,-0.003579504540000269,-0.0013704455200002,-0.011595145799219761,-0.0005039602020000738
0.3125,0.00037183468500004034,-0.7847391075,0.000284783875000048,-2.356282,0.00021623931500002413,1.5711751250000001,0.786247645,0.03999995,0.03999997,-9.808720749999999,0.014621434733272685,-0.0036177153000002717,-0.0013988599000002019,-0.011629355838522468,-0.0005144327700000744
0.315,0.0003775145160000407,-0.784735299,0.0002915416900000484,-2.35629088,0.00021963405200002431,1.5711807500000001,0.786254494,0.03999995,0.03999997,-9.808569099999998,0.014784635975958,-0.0036559260600002737,-0.0014272742800002034,-0.011663565877825174,-0.000524905338000075
0.3175,0.00038346431150004735,-0.784731592,0.0002986193030000563,-2.35630009,0.00022318921750002826,1.571186645,0.786261662,0.03999994985,0.0399999698,-9.808399399999997,0.014947172161192785,-0.003693143270000257,-0.0014564468100002237,-0.011695971479639529,-0.0005356560750000824
0.32,0.0003899540360000491,-0.784728088,0.00030633651200005833,-2.35630996,0.00022706524000002933,1.57119308,0.7862694680000001,0.0399999494,0.0399999692,-9.808193599999997,0.015108378231526559,-0.0037283733800002666,-0.001487135640000232,-0.011724768206477297,-0.0005469631500000855
0.3225,0.00039644376050005086,-0.784724584,0.00031405372100006045,-2.3563198300000003,0.00023094126250003036,1.571199515,0.7862772740000001,0.03999994895,0.0399999686,-9.807987799999998,0.015269584301860333,-0.003763603490000276,-0.0015178244700002404,-0.011753564933315065,-0.0005582702250000886
0.325,0.0004029334850000526,-0.78472108,0.00032177093000006256,-2.3563297000000003,0.00023481728500003143,1.57120595,0.7862850800000001,0.0399999485,0.039999968,-9.807781999999998,0.015430790372194107,-0.0037988336000002853,-0.0015485133000002487,-0.011782361660152833,-0.0005695773000000916
0.3275,0.00040942320950005436,-0.784717576,0.0003294881390000646,-2.3563395700000003,0.0002386933075000325,1.571212385,0.7862928860000001,0.03999994805,0.0399999674,-9.807576199999998,0.01559199644252788,-0.003834063710000295,-0.001579202130000257,-0.011811158386990601,-0.0005808843750000947
0.33,0.0004159129340000561,-0.784714072,0.00033720534800006673,-2.3563494400000002,0.00024256933000003353,1.57121882,0.7863006920000001,0.0399999476,0.0399999668,-9.807370399999998,0.015753202512861653,-0.0038692938200003044,-0.0016098909600002654,-0.01183995511382837,-0.0005921914500000977
0.3325,0.00042240265850005787,-0.7847105679999999,0.00034492255700006885,-2.35635931,0.00024644535250003456,1.571225255,0.7863084980000001,0.03999994715,0.0399999662,-9.807164599999998,0.015914408583195427,-0.003904523930000314,-0.0016405797900002736,-0.011868751840666138,-0.0006034985250001007
0.335,0.00042947275000006555,-0.78470726,0.0003533270480000779,-2.35636949,0.0002506660820000391,1.57123227,0.7863170060000001,0.0399999473,0.0399999667,-9.807038099999998,0.016075204871596308,-0.003936782190000274,-0.0016727813200002933,-0.01189701855182667,-0.0006154522390001093
0.3375,0.0004368330250000644,-0.78470405,0.00036207518000007654,-2.3563798250000003,0.00025505916500003845,1.571239575,0.7863258650000001,0.03999994775,0.03999996775,-9.80695125,0.016235796269030753,-0.003967554525000269,-0.0017057392000002882,-0.011925020255148595,-0.0006277292725001074
0.34,0.00044419330000006326,-0.78470084,0.0003708233120000752,-2.35639016,0.0002594522480000378,1.57124688,0.7863347240000002,0.0399999482,0.0399999688,-9.806864399999998,0.0163963876664652,-0.0039983268600002645,-0.0017386970800002833,-0.011953021958470521,-0.0006400063060001055
0.3425,0.0004515535750000621,-0.78469763,0.00037957144400007384,-2.356400495,0.0002638453310000371,1.571254185,0.7863435830000001,0.03999994865,0.03999996985,-9.80677755,0.016556979063899645,-0.004029099195000259,-0.0017716549600002782,-0.011981023661792446,-0.0006522833395001035
0.34500000000000003,0.0004589138500000609,-0.78469442,0.0003883195760000725,-2.35641083,0.0002682384140000364,1.57126149,0.7863524420000001,0.0399999491,0.0399999709,-9.806690699999999,0.01671757046133409,-0.004059871530000255,-0.001804612840000273,-0.012009025365114372,-0.0006645603730001016
0.34750000000000003,0.0004662741250000598,-0.78469121,0.00039706770800007114,-2.356421165,0.0002726314970000357,1.571268795,0.7863613010000001,0.03999994955,0.03999997195,-9.806603849999998,0.016878161858768535,-0.00409064386500025,-0.001837570720000268,-0.012037027068436297,-0.0006768374065000998
0.35000000000000003,0.00047363440000006607,-0.784688,0.00040581584000007857,-2.3564315,0.00027702458000003943,1.5712761,0.7863701600000002,0.03999995,0.039999973,-9.806516999999998,0.01703875325620297,-0.004121416200000212,-0.001870528600000281,-0.012065028771758194,-0.0006891144400001046
0.3525,0.0004819260250000664,-0.7846850405,0.0004156666490000789,-2.356442585,0.0002819707760000396,1.571284305,0.7863801410000001,0.03999995,0.0399999736,-9.806347199999998,0.01719796163961414,-0.004148018220000213,-0.0019057770100002823,-0.012089422903955104,-0.000702233263000105
0.355,0.0004902176500000668,-0.784682081,0.00042551745800007947,-2.35645367,0.00028691697200003993,1.57129251,0.7863901220000001,0.03999995,0.0399999742,-9.806177399999997,0.017357170023025312,-0.0041746202400002146,-0.0019410254200002842,-0.012113817036152016,-0.0007153520860001057
0.3575,0.0004985092750000673,-0.7846791215,0.00043536826700008003,-2.356464755,0.0002918631680000402,1.571300715,0.7864001030000001,0.03999995,0.0399999748,-9.806007599999997,0.017516378406436488,-0.004201222260000216,-0.001976273830000286,-0.012138211168348928,-0.0007284709090001066
0.36,0.0005068009000000678,-0.784676162,0.0004452190760000806,-2.35647584,0.0002968093640000405,1.57130892,0.7864100840000001,0.03999995,0.0399999754,-9.805837799999997,0.017675586789847663,-0.004227824280000217,-0.0020115222400002883,-0.01216260530054584,-0.0007415897320001073
0.3625,0.0005150925250000682,-0.7846732024999999,0.00045506988500008114,-2.356486925,0.00030175556000004076,1.571317125,0.7864200650000001,0.03999995,0.039999976,-9.805667999999997,0.01783479517325884,-0.004254426300000219,-0.0020467706500002904,-0.01218699943274275,-0.000754708555000108
0.365,0.0005233841500000687,-0.7846702429999999,0.00046492069400008175,-2.35649801,0.00030670175600004104,1.57132533,0.7864300460000001,0.03999995,0.0399999766,-9.805498199999999,0.017994003556670014,-0.004281028320000221,-0.002082019060000292,-0.012211393564939662,-0.0007678273780001088
0.3675,0.0005320065500000782,-0.7846673639999999,0.0004751630500000929,-2.3565094550000003,0.0003118443340000467,1.57133386,0.7864404180000001,0.0399999502,0.03999997735,-9.805340849999999,0.018152714986355376,-0.004307502085000221,-0.002118019970000316,-0.012235042545944602,-0.0007812273470001176
0.37,0.0005412905000000807,-0.784664646,0.0004861885000000959,-2.35652162,0.00031737967600004816,1.57134304,0.786451572,0.039999950799999996,0.0399999784,-9.805208399999998,0.01831043250858915,-0.004333719340000227,-0.002155525880000326,-0.012257201224565653,-0.0007951896080001214
0.3725,0.0005505744500000832,-0.784661928,0.0004972139500000988,-2.3565337850000003,0.00032291501800004965,1.57135222,0.7864627260000001,0.0399999514,0.03999997945,-9.805075949999997,0.01846815003082293,-0.004359936595000235,-0.002193031790000336,-0.012279359903186704,-0.0008091518690001251
0.375,0.0005598584000000857,-0.7846592099999999,0.0005082394000001018,-2.35654595,0.00032845036000005113,1.5713614,0.7864738800000001,0.039999952,0.039999980500000004,-9.804943499999998,0.01862586755305671,-0.004386153850000242,-0.002230537700000346,-0.012301518581807754,-0.0008231141300001289
0.3775,0.0005691423500000883,-0.784656492,0.0005192648500001048,-2.3565581150000003,0.0003339857020000526,1.57137058,0.7864850340000001,0.0399999526,0.03999998155,-9.804811049999998,0.018783585075290488,-0.004412371105000249,-0.0022680436100003566,-0.012323677260428805,-0.0008370763910001327
0.38,0.0005784263000000908,-0.784653774,0.0005302903000001078,-2.35657028,0.00033952104400005416,1.57137976,0.7864961880000001,0.0399999532,0.039999982600000004,-9.804678599999997,0.018941302597524263,-0.004438588360000256,-0.0023055495200003666,-0.012345835939049856,-0.0008510386520001365
0.3825,0.0005877102500000933,-0.7846510560000001,0.0005413157500001107,-2.3565824450000004,0.00034505638600005565,1.57138894,0.7865073420000002,0.039999953799999995,0.03999998365,-9.804546149999998,0.01909902011975804,-0.004464805615000264,-0.002343055430000377,-0.012367994617670908,-0.0008650009130001403
0.385,0.0005976963730001023,-0.784648499,0.0005531721900001214,-2.3565953200000003,0.00035100853400006095,1.57139884,0.7865193390000002,0.0399999546,0.0399999851,-9.804431199999998,0.019254655204714873,-0.004487630760000209,-0.0023820616100003935,-0.012389322929084417,-0.0008795242100001464
0.3875,0.0006080335825000984,-0.7846460225,0.0005654441250001168,-2.3566085500000002,0.0003571690850000587,1.5714091000000001,0.7865317575000002,0.039999955499999996,0.03999998675,-9.804324999999999,0.019409249071033273,-0.0045087598500002015,-0.002421817925000379,-0.012410236056894175,-0.000894328025000141
0.39,0.0006183707920000947,-0.784643546,0.0005777160600001123,-2.35662178,0.0003633296360000564,1.5714193600000002,0.7865441760000002,0.0399999564,0.039999988400000006,-9.8042188,0.019563842937351677,-0.004529888940000193,-0.002461574240000364,-0.012431149184703932,-0.0009091318400001355
0.3925,0.0006287080015000908,-0.7846410695,0.0005899879950001078,-2.35663501,0.00036949018700005416,1.5714296200000002,0.7865565945000002,0.0399999573,0.03999999005,-9.804112599999998,0.019718436803670077,-0.004551018030000186,-0.0025013305550003495,-0.01245206231251369,-0.0009239356550001301
0.395,0.0006390452110000871,-0.784638593,0.0006022599300001034,-2.35664824,0.00037565073800005185,1.57143988,0.7865690130000002,0.0399999582,0.0399999917,-9.804006399999999,0.01987303066998848,-0.004572147120000178,-0.002541086870000335,-0.012472975440323447,-0.0009387394700001246
0.3975,0.0006493824205000832,-0.7846361165,0.0006145318650000989,-2.35666147,0.0003818112890000496,1.57145014,0.7865814315000001,0.0399999591,0.039999993350000006,-9.8039002,0.020027624536306885,-0.00459327621000017,-0.0025808431850003204,-0.012493888568133204,-0.0009535432850001192
0.4,0.0006597196300000879,-0.78463364,0.0006268038000001045,-2.3566747,0.0003879718400000524,1.5714604,0.7865938500000001,0.03999996,0.039999995,-9.803794,0.020182218402625275,-0.004614405300000167,-0.002620599500000323,-0.012514801695942952,-0.0009683471000001192
0.4025,0.0006711709405000911,-0.784631369,0.0006403940100001081,-2.3566883950000004,0.00039479431700005426,1.5714717550000001,0.7866075975000002,0.0399999615,0.03999999575,-9.803690649999998,0.020335145667196495,-0.004636246515000174,-0.002662631030000334,-0.012534503638744436,-0.0009838661600001235
0.405,0.0006826222510000942,-0.784629098,0.0006539842200001118,-2.35670209,0.0004016167940000561,1.5714831100000002,0.7866213450000001,0.039999963,0.0399999965,-9.803587299999998,0.020488072931767718,-0.004658087730000179,-0.0027046625600003456,-0.012554205581545923,-0.0009993852200001277
0.40750000000000003,0.0006940735615000973,-0.784626827,0.0006675744300001155,-2.356715785,0.0004084392710000579,1.5714944650000002,0.7866350925000002,0.0399999645,0.03999999725,-9.803483949999999,0.020641000196338938,-0.004679928945000186,-0.002746694090000357,-0.012573907524347408,-0.0010149042800001319
0.41000000000000003,0.0007055248720001004,-0.784624556,0.0006811646400001191,-2.3567294800000003,0.0004152617480000598,1.5715058200000003,0.7866488400000001,0.039999966000000005,0.039999998,-9.803380599999999,0.02079392746091016,-0.004701770160000191,-0.0027887256200003685,-0.012593609467148893,-0.001030423340000136
0.41250000000000003,0.0007169761825001035,-0.784622285,0.0006947548500001228,-2.356743175,0.00042208422500006164,1.571517175,0.7866625875000002,0.039999967500000004,0.03999999875,-9.803277249999999,0.02094685472548138,-0.0047236113750001975,-0.00283075715000038,-0.012613311409950378,-0.0010459424000001402
0.41500000000000004,0.0007284274930001066,-0.784620014,0.0007083450600001265,-2.35675687,0.0004289067020000635,1.5715285300000001,0.7866763350000001,0.039999969,0.0399999995,-9.803173899999999,0.021099781990052604,-0.004745452590000203,-0.0028727886800003913,-0.012633013352751864,-0.0010614614600001446
0.4175,0.0007402703475001197,-0.78461781,0.0007223985100001421,-2.3567709100000003,0.00043596193800007134,1.5715402800000002,0.7866905530000001,0.03999997,0.04,-9.803039249999998,0.021251409500838644,-0.004766553310000186,-0.00291556966500042,-0.012651205947622755,-0.0010772597750001553
0.42,0.0007528962900001205,-0.78461574,0.000737378440000143,-2.35678564,0.00044348269200007175,1.5715528200000002,0.7867057120000002,0.03999997,0.04,-9.802841999999998,0.021400437504054442,-0.004786173040000187,-0.002959849560000423,-0.012666379846632585,-0.001093616600000156
0.4225,0.0007655222325001212,-0.78461367,0.0007523583700001439,-2.35680037,0.0004510034460000722,1.5715653600000001,0.7867208710000002,0.03999997,0.04,-9.802644749999999,0.02154946550727024,-0.004805792770000188,-0.0030041294550004253,-0.012681553745642416,-0.001109973425000157
0.425,0.0007781481750001219,-0.7846116,0.0007673383000001447,-2.3568151,0.00045852420000007263,1.5715779000000003,0.7867360300000001,0.03999997,0.04,-9.802447499999998,0.021698493510486038,-0.004825412500000189,-0.0030484093500004277,-0.012696727644652246,-0.001126330250000158
0.4275,0.0007907741175001226,-0.78460953,0.0007823182300001455,-2.35682983,0.00046604495400007304,1.5715904400000003,0.7867511890000002,0.03999997,0.04,-9.802250249999998,0.02184752151370184,-0.004845032230000191,-0.0030926892450004306,-0.012711901543662078,-0.001142687075000159
0.43,0.0008034000600001234,-0.78460746,0.0007972981600001464,-2.3568445600000003,0.0004735657080000735,1.5716029800000002,0.7867663480000002,0.03999997,0.04,-9.802052999999999,0.021996549516917638,-0.0048646519600001915,-0.003136969140000433,-0.012727075442671909,-0.00115904390000016
0.4325,0.0008160260025001241,-0.7846053900000001,0.0008122780900001472,-2.35685929,0.0004810864620000739,1.5716155200000002,0.7867815070000002,0.03999997,0.04,-9.801855749999998,0.022145577520133436,-0.004884271690000193,-0.0031812490350004354,-0.012742249341681739,-0.0011754007250001607
0.435,0.0008294753050001371,-0.784603433,0.0008282319700001626,-2.35687478,0.0004890955990000816,1.5716288700000003,0.7867976540000002,0.039999969,0.04,-9.8017066,0.022291087917984863,-0.004901509040000159,-0.0032269751000004593,-0.01275604376569402,-0.0011923994300001713
0.4375,0.0008433362875001379,-0.7846015325,0.0008446728250001635,-2.35689065,0.000497348927500082,1.5716426250000002,0.7868142950000002,0.039999967500000004,0.04,-9.8015815,0.02243483951315418,-0.00491755520000016,-0.003273424250000462,-0.012769148452207555,-0.0012097190750001722
0.44,0.0008571972700001386,-0.784599632,0.0008611136800001645,-2.3569065200000003,0.0005056022560000825,1.5716563800000003,0.7868309360000002,0.039999966000000005,0.04,-9.8014564,0.022578591108323498,-0.004933601360000161,-0.0033198734000004647,-0.01278225313872109,-0.0012270387200001734
0.4425,0.0008710582525001395,-0.7845977315,0.0008775545350001655,-2.3569223900000003,0.000513855584500083,1.5716701350000002,0.7868475770000002,0.0399999645,0.04,-9.8013313,0.02272234270349282,-0.004949647520000162,-0.003366322550000467,-0.012795357825234627,-0.0012443583650001743
0.445,0.0008849192350001403,-0.784595831,0.0008939953900001664,-2.35693826,0.0005221089130000835,1.5716838900000003,0.7868642180000002,0.039999963,0.04,-9.801206199999998,0.022866094298662137,-0.004965693680000162,-0.00341277170000047,-0.012808462511748163,-0.0012616780100001754
0.4475,0.0008987802175001411,-0.7845939305,0.0009104362450001673,-2.35695413,0.000530362241500084,1.5716976450000002,0.7868808590000002,0.0399999615,0.04,-9.801081099999998,0.023009845893831454,-0.004981739840000163,-0.0034592208500004726,-0.012821567198261698,-0.0012789976550001763
0.45,0.0009126412000001552,-0.78459203,0.000926877100000184,-2.35697,0.0005386155700000924,1.5717114000000003,0.7868975000000002,0.03999996,0.04,-9.800955999999998,0.02315359748900075,-0.004997786000000138,-0.0035056700000004985,-0.012834671884775219,-0.0012963173000001833
0.4525,0.000927796990000156,-0.784590296,0.0009448495150001851,-2.35698722,0.0005476393000000928,1.5717264600000003,0.7869156650000002,0.039999959700000004,0.0399999985,-9.800840199999998,0.023295343294741123,-0.005011241150000139,-0.0035544047300005016,-0.01284640850499279,-0.0013142276000001844
0.455,0.000942952780000157,-0.7845885619999999,0.0009628219300001861,-2.3570044400000003,0.0005566630300000934,1.5717415200000002,0.7869338300000002,0.0399999594,0.039999997,-9.800724399999998,0.0234370891004815,-0.005024696300000139,-0.0036031394600005043,-0.01285814512521036,-0.0013321379000001854
0.4575,0.0009581085700001578,-0.784586828,0.0009807943450001872,-2.35702166,0.0005656867600000939,1.5717565800000002,0.7869519950000002,0.0399999591,0.0399999955,-9.800608599999999,0.023578834906221872,-0.00503815145000014,-0.0036518741900005073,-0.012869881745427931,-0.0013500482000001865
0.46,0.0009732643600001586,-0.784585094,0.000998766760000188,-2.35703888,0.0005747104900000944,1.5717716400000004,0.7869701600000002,0.0399999588,0.039999994,-9.800492799999999,0.023720580711962244,-0.005051606600000141,-0.00370060892000051,-0.012881618365645503,-0.0013679585000001876
0.4625,0.0009884201500001595,-0.78458336,0.0010167391750001893,-2.3570561000000003,0.000583734220000095,1.5717867000000003,0.7869883250000002,0.0399999585,0.0399999925,-9.800377,0.023862326517702617,-0.005065061750000142,-0.003749343650000513,-0.012893354985863073,-0.0013858688000001887
0.465,0.0010035759400001604,-0.7845816259999999,0.0010347115900001902,-2.35707332,0.0005927579500000955,1.5718017600000003,0.7870064900000002,0.039999958200000005,0.039999991,-9.800261199999998,0.02400407232344299,-0.005078516900000142,-0.0037980783800005157,-0.012905091606080644,-0.0014037791000001895
0.4675,0.0010191831800001757,-0.7845799394999999,0.0010532179100002084,-2.35709114,0.0006020493565001045,1.5718172750000003,0.7870251980000003,0.0399999578,0.03999999,-9.8001507,0.02414355240762376,-0.005091937880000142,-0.003847515740000541,-0.012916437210515247,-0.001422042985000202
0.47000000000000003,0.0010356933200001766,-0.7845783479999999,0.0010727920400002095,-2.35711016,0.0006118761160001052,1.5718337000000002,0.7870449920000002,0.0399999572,0.03999999,-9.8000508,0.024278501048685543,-0.005105290520000143,-0.003898358360000544,-0.012927000783383952,-0.001441014040000203
0.47250000000000003,0.0010522034600001775,-0.7845767564999999,0.0010923661700002105,-2.3571291800000003,0.0006217028755001057,1.5718501250000003,0.7870647860000003,0.0399999566,0.03999999,-9.799950899999999,0.024413449689747325,-0.005118643160000143,-0.003949200980000547,-0.012937564356252658,-0.0014599850950002041
0.47500000000000003,0.0010687136000001784,-0.7845751649999999,0.0011119403000002118,-2.3571482,0.0006315296350001062,1.5718665500000002,0.7870845800000003,0.039999955999999996,0.03999999,-9.799850999999999,0.02454839833080911,-0.0051319958000001446,-0.00400004360000055,-0.012948127929121363,-0.0014789561500002052
0.47750000000000004,0.0010852237400001794,-0.7845735734999999,0.0011315144300002129,-2.35716722,0.0006413563945001068,1.5718829750000003,0.7871043740000002,0.0399999554,0.03999999,-9.7997511,0.02468334697187089,-0.005145348440000146,-0.004050886220000553,-0.012958691501990069,-0.0014979272050002063
0.48,0.00110173388000018,-0.7845719819999999,0.0011510885600002135,-2.35718624,0.0006511831540001072,1.5718994000000002,0.7871241680000003,0.0399999548,0.03999999,-9.7996512,0.02481829561293267,-0.005158701080000146,-0.004101728840000554,-0.012969255074858774,-0.001516898260000207
0.4825,0.001118244020000181,-0.7845703904999999,0.0011706626900002146,-2.35720526,0.0006610099135001078,1.5719158250000003,0.7871439620000003,0.0399999542,0.03999999,-9.7995513,0.024953244253994453,-0.0051720537200001465,-0.0041525714600005575,-0.012979818647727482,-0.001535869315000208
0.485,0.0011356962700001976,-0.7845688879999999,0.0011913510300002343,-2.35722507,0.0006713926550001174,1.5719331700000003,0.7871648840000003,0.039999953299999995,0.039999991,-9.7994898,0.02508412096649544,-0.005187311540000179,-0.004204857760000584,-0.012991023994982358,-0.0015556192000002222
0.4875,0.0011536195750001985,-0.78456743,0.0012125964750002354,-2.3572452750000004,0.0006820533875001181,1.5719509750000003,0.7871863700000002,0.03999995225,0.0399999925,-9.7994475,0.025212961714716126,-0.00520352195000018,-0.0042578659000005875,-0.013002550229430303,-0.0015757585000002233
0.49,0.0011715428800001997,-0.7845659719999999,0.0012338419200002366,-2.35726548,0.0006927141200001188,1.5719687800000002,0.7872078560000003,0.0399999512,0.039999994,-9.7994052,0.025341802462936814,-0.005219732360000181,-0.004310874040000591,-0.013014076463878248,-0.0015958978000002245
0.4925,0.0011894661850002006,-0.7845645139999999,0.001255087365000238,-2.3572856850000004,0.0007033748525001193,1.5719865850000003,0.7872293420000003,0.03999995015,0.0399999955,-9.7993629,0.025470643211157502,-0.005235942770000182,-0.004363882180000594,-0.013025602698326194,-0.0016160371000002256
0.495,0.0012073894900002018,-0.784563056,0.001276332810000239,-2.35730589,0.00071403558500012,1.5720043900000003,0.7872508280000002,0.0399999491,0.039999997,-9.7993206,0.02559948395937819,-0.005252153180000183,-0.004416890320000597,-0.01303712893277414,-0.0016361764000002268
0.4975,0.0012253127950002027,-0.7845615979999999,0.0012975782550002403,-2.3573260950000003,0.0007246963175001205,1.5720221950000004,0.7872723140000003,0.03999994805,0.0399999985,-9.7992783,0.025728324707598876,-0.005268363590000184,-0.0044698984600006,-0.013048655167222084,-0.001656315700000228
0.5,0.0012432361000002206,-0.78456014,0.0013188237000002613,-2.3573463000000006,0.0007353570500001311,1.5720400000000003,0.7872938000000003,0.039999947,0.04,-9.799235999999999,0.02585716545581956,-0.00528457400000019,-0.0045229066000006275,-0.013060181401670007,-0.0016764550000002338
0.5025000000000001,0.0012626308900002261,-0.784558829,0.001341809160000268,-2.3573677950000005,0.0007468905665001345,1.5720592600000003,0.7873170350000003,0.039999947,0.04,-9.799102049999998,0.025985599402339698,-0.005301281000000195,-0.0045780565600006436,-0.013069567177444725,-0.0016970193100002398
0.505,0.001282025680000231,-0.784557518,0.0013647946200002737,-2.3573892900000004,0.0007584240830001373,1.5720785200000003,0.7873402700000003,0.039999947,0.04,-9.798968099999998,0.026114033348859828,-0.005317988000000199,-0.004633206520000657,-0.01307895295321944,-0.0017175836200002451
0.5075000000000001,0.0013014204700002366,-0.784556207,0.0013877800800002804,-2.3574107850000003,0.0007699575995001408,1.5720977800000002,0.7873635050000003,0.039999947,0.04,-9.798834149999998,0.02624246729537997,-0.005334695000000204,-0.004688356480000673,-0.013088338728994158,-0.001738147930000251
0.51,0.0013208152600002415,-0.784554896,0.0014107655400002863,-2.3574322800000003,0.0007814911160001436,1.5721170400000002,0.7873867400000003,0.039999947,0.04,-9.798700199999997,0.0263709012419001,-0.005351402000000208,-0.004743506440000687,-0.013097724504768876,-0.0017587122400002562
0.5125,0.0013402100500002462,-0.7845535849999999,0.001433751000000292,-2.357453775,0.0007930246325001465,1.5721363000000004,0.7874099750000003,0.039999947,0.04,-9.798566249999999,0.02649933518842023,-0.005368109000000212,-0.0047986564000007,-0.013107110280543594,-0.0017792765500002613
0.515,0.001359604840000252,-0.7845522739999999,0.0014567364600002986,-2.3574752700000006,0.0008045581490001498,1.5721555600000003,0.7874332100000003,0.039999947,0.04,-9.798432299999998,0.02662776913494037,-0.005384816000000217,-0.004853806360000716,-0.013116496056318311,-0.0017998408600002672
0.5175,0.001379509330000274,-0.78455099,0.0014803245800003248,-2.3574971950000005,0.000816394368500163,1.5721753350000003,0.7874570600000004,0.039999947,0.04,-9.798301449999997,0.026753596309574024,-0.005400549400000181,-0.004909658000000749,-0.013125262735411527,-0.0018206270950002783
0.52,0.0014004332200002712,-0.78454976,0.0015051180200003214,-2.35751998,0.0008288359940001614,1.5721961400000002,0.7874821400000004,0.039999947,0.04,-9.798176799999997,0.026874209940435045,-0.005414335600000178,-0.004966913000000742,-0.013132791221141816,-0.0018418571800002752
0.5225,0.0014213571100002676,-0.78454853,0.001529911460000317,-2.3575427650000003,0.0008412776195001592,1.5722169450000003,0.7875072200000003,0.039999947,0.04,-9.798052149999998,0.026994823571296057,-0.005428121800000176,-0.005024168000000732,-0.013140319706872105,-0.0018630872650002715
0.525,0.0014422810000002649,-0.7845473,0.0015547049000003137,-2.3575655500000003,0.0008537192450001575,1.5722377500000002,0.7875323000000003,0.039999947,0.04,-9.797927499999998,0.027115437202157075,-0.005441908000000174,-0.005081423000000724,-0.013147848192602394,-0.0018843173500002687
0.5275,0.001463204890000261,-0.78454607,0.0015794983400003093,-2.3575883350000004,0.0008661608705001553,1.5722585550000003,0.7875573800000003,0.039999947,0.04,-9.797802849999998,0.02723605083301809,-0.0054556942000001715,-0.0051386780000007145,-0.013155376678332683,-0.0019055474350002648
0.53,0.0014841287800002583,-0.78454484,0.001604291780000306,-2.3576111200000005,0.0008786024960001536,1.5722793600000002,0.7875824600000003,0.039999947,0.04,-9.797678199999998,0.027356664463879108,-0.00546948040000017,-0.005195933000000707,-0.013162905164062972,-0.001926777520000262
0.5325,0.0015050526700002547,-0.78454361,0.0016290852200003016,-2.3576339050000006,0.0008910441215001514,1.5723001650000001,0.7876075400000003,0.039999947,0.04,-9.797553549999998,0.027477278094740123,-0.005483266600000167,-0.005253188000000696,-0.013170433649793261,-0.001948007605000258
0.535,0.0015270338900002741,-0.78454249,0.0016551288600003247,-2.3576579200000003,0.000904113617000163,1.5723220000000002,0.7876338800000003,0.0399999463,0.0399999995,-9.797426599999998,0.02759371269494427,-0.005499956440000221,-0.005311846570000723,-0.013176482357084724,-0.001969768470000268
0.5375,0.001549543775000275,-0.784541425,0.0016817976000003257,-2.3576825500000003,0.0009174970475001635,1.5723443500000003,0.7876608500000003,0.03999994525,0.03999999875,-9.797298499999998,0.0277080577798201,-0.005518098100000222,-0.005371206925000725,-0.013181791175156814,-0.001991794725000269
0.54,0.0015720536600002768,-0.7845403599999999,0.0017084663400003279,-2.3577071800000002,0.0009308804780001645,1.5723667000000001,0.7876878200000004,0.0399999442,0.039999998,-9.797170399999999,0.027822402864695926,-0.005536239760000223,-0.00543056728000073,-0.013187099993228906,-0.0020138209800002705
0.5425,0.0015945635450002776,-0.784539295,0.0017351350800003287,-2.3577318100000006,0.0009442639085001649,1.5723890500000002,0.7877147900000003,0.03999994315,0.03999999725,-9.7970423,0.02793674794957175,-0.0055543814200002236,-0.005489927635000732,-0.013192408811300996,-0.0020358472350002713
0.545,0.0016170734300002792,-0.78453823,0.0017618038200003308,-2.3577564400000006,0.000957647339000166,1.5724114000000002,0.7877417600000003,0.0399999421,0.0399999965,-9.796914199999998,0.02805109303444758,-0.005572523080000225,-0.005549287990000737,-0.013197717629373086,-0.0020578734900002734
0.5475,0.00163958331500028,-0.7845371649999999,0.0017884725600003318,-2.3577810700000006,0.0009710307695001665,1.5724337500000003,0.7877687300000004,0.03999994105,0.03999999575,-9.796786099999998,0.028165438119323403,-0.0055906647400002256,-0.005608648345000739,-0.013203026447445176,-0.002079899745000274
0.55,0.0016620932000003025,-0.7845361,0.0018151413000003583,-2.3578057000000006,0.0009844142000001797,1.5724561000000001,0.7877957000000003,0.03999994,0.039999995,-9.796658,0.028279783204199115,-0.005608806400000105,-0.005668008700000769,-0.013208335265517271,-0.0021019260000002915
0.5525,0.0016862453900003084,-0.78453511,0.0018437515800003655,-2.3578318450000006,0.0009987675350001833,1.5724800700000001,0.7878246260000004,0.039999938799999996,0.03999999575,-9.79659665,0.028384895902128296,-0.005617173985000107,-0.005729388190000784,-0.013214040547609367,-0.0021252129450002977
0.555,0.0017103975800003156,-0.78453412,0.0018723618600003738,-2.3578579900000003,0.0010131208700001875,1.5725040400000003,0.7878535520000004,0.0399999376,0.0399999965,-9.7965353,0.028490008600057484,-0.005625541570000109,-0.005790767680000802,-0.013219745829701465,-0.0021484998900003043
0.5575,0.0017345497700003215,-0.7845331299999999,0.001900972140000381,-2.3578841350000004,0.001027474205000191,1.5725280100000003,0.7878824780000003,0.0399999364,0.03999999725,-9.79647395,0.028595121297986664,-0.005633909155000112,-0.0058521471700008175,-0.013225451111793561,-0.00217178683500031
0.56,0.0017587019600003287,-0.7845321399999999,0.0019295824200003893,-2.3579102800000005,0.0010418275400001953,1.5725519800000003,0.7879114040000004,0.0399999352,0.039999998,-9.7964126,0.02870023399591585,-0.005642276740000114,-0.005913526660000836,-0.013231156393885658,-0.002195073780000317
0.5625,0.0017828541500003346,-0.78453115,0.0019581927000003963,-2.3579364250000006,0.001056180875000199,1.5725759500000003,0.7879403300000004,0.039999934,0.03999999875,-9.796351249999999,0.028805346693845033,-0.005650644325000116,-0.005974906150000851,-0.013236861675977754,-0.0022183607250003227
0.5650000000000001,0.0018070063400003418,-0.78453016,0.001986802980000405,-2.35796257,0.0010705342100002031,1.5725999200000003,0.7879692560000003,0.0399999328,0.0399999995,-9.7962899,0.028910459391774217,-0.005659011910000119,-0.006036285640000869,-0.01324256695806985,-0.0022416476700003298
0.5675,0.0018317244050003686,-0.7845291999999999,0.0020160822800004362,-2.3579892750000004,0.001085222530000219,1.5726244450000004,0.7879988580000004,0.0399999314,0.03999999975,-9.796210699999998,0.029015124961735285,-0.005670166195000239,-0.006098306065000903,-0.01324778068810704,-0.002265057060000337
0.5700000000000001,0.0018575742200003652,-0.7845283,0.0020466996200004324,-2.3580171000000005,0.001100580820000217,1.5726500800000003,0.7880298120000004,0.039999929600000005,0.039999999,-9.796095799999998,0.029118896275760184,-0.005686893880000237,-0.006161608360000894,-0.01325201131403448,-0.002288711340000334
0.5725,0.0018834240350003605,-0.7845274,0.002077316960000427,-2.3580449250000006,0.0011159391100002143,1.5726757150000004,0.7880607660000004,0.0399999278,0.03999999825,-9.795980899999998,0.029222667589785083,-0.005703621565000234,-0.006224910655000883,-0.01325624193996192,-0.00231236562000033
0.5750000000000001,0.0019092738500003572,-0.7845265,0.002107934300000423,-2.3580727500000003,0.001131297400000212,1.5727013500000004,0.7880917200000004,0.039999926,0.0399999975,-9.795865999999998,0.029326438903809985,-0.005720349250000231,-0.0062882129500008745,-0.013260472565889359,-0.002336019900000327
0.5775,0.0019351236650003525,-0.7845256,0.0021385516400004175,-2.3581005750000004,0.0011466556900002094,1.5727269850000003,0.7881226740000005,0.0399999242,0.03999999675,-9.795751099999999,0.02943021021783488,-0.005737076935000228,-0.006351515245000864,-0.013264703191816798,-0.0023596741800003223
0.58,0.001960973480000348,-0.7845247,0.002169168980000412,-2.3581284000000005,0.0011620139800002066,1.5727526200000004,0.7881536280000004,0.0399999224,0.039999996,-9.795636199999999,0.029533981531859776,-0.005753804620000225,-0.006414817540000852,-0.013268933817744237,-0.0023833284600003183
0.5825,0.0019868232950003444,-0.7845238,0.002199786320000408,-2.3581562250000005,0.0011773722700002046,1.5727782550000005,0.7881845820000004,0.0399999206,0.03999999525,-9.795521299999999,0.029637752845884678,-0.005770532305000223,-0.006478119835000844,-0.013273164443671676,-0.002406982740000315
0.585,0.002013841250000367,-0.784522974,0.0022317845900004345,-2.3581852500000005,0.0011934270500002179,1.5728050900000003,0.7882169350000005,0.03999992,0.0399999943,-9.79542,0.02973757665604475,-0.00578661241000021,-0.006542758210000868,-0.013276767358183823,-0.0024308997500003195
0.5875,0.0020414432750003693,-0.784522185,0.002264473325000437,-2.3582148750000007,0.0012098300750002192,1.5728325250000004,0.7882499875000004,0.03999992,0.039999993250000004,-9.795325499999999,0.029835426714272535,-0.0058023687250002105,-0.006608064625000873,-0.013280056416988343,-0.0024549481250003215
0.59,0.0020690453000003703,-0.784521396,0.002297162060000438,-2.3582445000000005,0.0012262331000002199,1.5728599600000004,0.7882830400000005,0.03999992,0.0399999922,-9.795231,0.029933276772500312,-0.005818125040000211,-0.006673371040000876,-0.013283345475792864,-0.002478996500000322
0.5925,0.002096647325000372,-0.784520607,0.0023298507950004405,-2.3582741250000008,0.0012426361250002212,1.5728873950000004,0.7883160925000005,0.03999992,0.039999991150000004,-9.795136499999998,0.030031126830728096,-0.005833881355000212,-0.006738677455000881,-0.013286634534597384,-0.002503044875000324
0.595,0.0021242493500003732,-0.784519818,0.002362539530000442,-2.3583037500000006,0.0012590391500002219,1.5729148300000004,0.7883491450000004,0.03999992,0.0399999901,-9.795041999999999,0.030128976888955872,-0.005849637670000213,-0.006803983870000883,-0.013289923593401904,-0.0025270932500003254
0.5975,0.0021518513750003756,-0.784519029,0.0023952282650004444,-2.3583333750000004,0.0012754421750002232,1.5729422650000005,0.7883821975000005,0.03999992,0.039999989050000004,-9.7949475,0.030226826947183656,-0.005865393985000214,-0.0068692902850008885,-0.013293212652206425,-0.0025511416250003274
0.6,0.002179453400000401,-0.78451824,0.002427917000000475,-2.3583630000000007,0.0012918452000002382,1.5729697000000005,0.7884152500000005,0.03999992,0.039999988,-9.794852999999998,0.03032467700541124,-0.00588115030000019,-0.006934596700000917,-0.01329650171101093,-0.0025751900000003498
0.6025,0.0022088612300004097,-0.7845175065000001,0.002462740445000485,-2.3583945000000006,0.0013093138550002434,1.5729988900000005,0.7884504475000005,0.03999992,0.0399999898,-9.794758649999999,0.030408023856581326,-0.005895174610000195,-0.007001834245000936,-0.013298681564629076,-0.0026008432400003575
0.605,0.002238269060000417,-0.784516773,0.0024975638900004934,-2.3584260000000006,0.0013267825100002476,1.5730280800000005,0.7884856450000005,0.03999992,0.0399999916,-9.794664299999999,0.030491370707751413,-0.0059091989200001985,-0.007069071790000953,-0.01330086141824722,-0.002626496480000364
0.6075,0.0022676768900004255,-0.7845160395,0.0025323873350005036,-2.3584575000000005,0.001344251165000253,1.5730572700000005,0.7885208425000005,0.03999992,0.0399999934,-9.794569949999998,0.0305747175589215,-0.005923223230000202,-0.007136309335000973,-0.013303041271865367,-0.0026521497200003713
0.61,0.002297084720000433,-0.784515306,0.0025672107800005124,-2.3584890000000005,0.001361719820000257,1.5730864600000005,0.7885560400000006,0.03999992,0.0399999952,-9.794475599999998,0.030658064410091588,-0.005937247540000206,-0.0072035468800009895,-0.013305221125483511,-0.0026778029600003778
0.6125,0.0023264925500004418,-0.7845145725,0.0026020342250005226,-2.3585205000000005,0.0013791884750002622,1.5731156500000003,0.7885912375000006,0.03999992,0.039999997,-9.794381249999999,0.03074141126126168,-0.00595127185000021,-0.007270784425001009,-0.013307400979101658,-0.002703456200000385
0.615,0.002355900380000449,-0.7845138389999999,0.0026368576700005314,-2.3585520000000004,0.0013966571300002666,1.5731448400000003,0.7886264350000005,0.03999992,0.0399999988,-9.794286899999998,0.030824758112431763,-0.005965296160000214,-0.007338021970001026,-0.013309580832719803,-0.0027291094400003916
0.6175,0.0023859277400004797,-0.7845131295,0.0026724135100005676,-2.3585841000000003,0.001414494765000285,1.5731746500000003,0.7886623800000006,0.03999992,0.03999999975,-9.794199849999998,0.03090929808095223,-0.005980812565000284,-0.007405870250001059,-0.013311725342646241,-0.0027546742850003895
0.62,0.0024171941600004674,-0.784512468,0.0027094341400005534,-2.3586174000000004,0.0014330703600002777,1.5732057000000004,0.7886998200000006,0.03999992,0.039999999,-9.794127399999999,0.03099622428417328,-0.005999313160000276,-0.007474940000001032,-0.013313799165189271,-0.0027800623400003792
0.6225,0.002448460580000457,-0.7845118065,0.0027464547700005405,-2.3586507000000005,0.0014516459550002712,1.5732367500000004,0.7887372600000006,0.03999992,0.03999999825,-9.79405495,0.031083150487394337,-0.00601781375500027,-0.007544009750001008,-0.0133158729877323,-0.0028054503950003707
0.625,0.0024797270000004447,-0.784511145,0.0027834754000005263,-2.3586840000000007,0.001470221550000264,1.5732678000000004,0.7887747000000005,0.03999992,0.0399999975,-9.793982499999998,0.03117007669061539,-0.006036314350000263,-0.007613079500000982,-0.013317946810275328,-0.0028308384500003608
0.6275000000000001,0.0025109934200004337,-0.7845104835,0.0028204960300005134,-2.3587173000000003,0.0014887971450002575,1.5732988500000005,0.7888121400000006,0.03999992,0.03999999675,-9.79391005,0.03125700289383644,-0.006054814945000256,-0.0076821492500009575,-0.013320020632818359,-0.0028562265050003518
0.63,0.0025422598400004215,-0.7845098220000001,0.0028575166600004987,-2.3587506000000005,0.0015073727400002504,1.5733299000000005,0.7888495800000005,0.03999992,0.039999996,-9.7938376,0.031343929097057494,-0.0060733155400002495,-0.007751219000000931,-0.013322094455361387,-0.002881614560000342
0.6325000000000001,0.0025735262600004105,-0.7845091605000001,0.0028945372900004863,-2.3587839000000006,0.001525948335000244,1.5733609500000005,0.7888870200000004,0.03999992,0.03999999525,-9.79376515,0.03143085530027855,-0.0060918161350002435,-0.007820288750000907,-0.013324168277904417,-0.0029070026150003333
0.635,0.002606066340000437,-0.784508556,0.002933063410000517,-2.358818500000001,0.0015452806900002594,1.5733932700000004,0.7889259600000005,0.03999992,0.039999994500000004,-9.7936714,0.031507894769311845,-0.006110289270000243,-0.007890589650000933,-0.01332534775137902,-0.002933050090000347
0.6375000000000001,0.0026392432500004464,-0.78450798,0.0029723422750005286,-2.3588537500000006,0.0015649914250002652,1.5734262250000004,0.7889656500000005,0.03999992,0.039999993750000004,-9.793567,0.031579990871251545,-0.006128748675000249,-0.007961506125000954,-0.013326080050319435,-0.002959427275000355
0.64,0.0026724201600004547,-0.784507404,0.0030116211400005384,-2.3588890000000005,0.00158470216000027,1.5734591800000004,0.7890053400000006,0.03999992,0.039999993000000005,-9.793462599999998,0.03165208697319125,-0.006147208080000253,-0.008032422600000972,-0.013326812349259849,-0.0029858044600003615
0.6425,0.002705597070000463,-0.7845068279999999,0.003050900005000548,-2.3589242500000007,0.001604412895000275,1.5734921350000004,0.7890450300000006,0.03999992,0.03999999225,-9.793358199999998,0.03172418307513095,-0.006165667485000258,-0.008103339075000989,-0.013327544648200264,-0.0030121816450003683
0.645,0.0027387739800004726,-0.784506252,0.0030901788700005597,-2.3589595000000005,0.0016241236300002808,1.5735250900000004,0.7890847200000006,0.03999992,0.0399999915,-9.793253799999999,0.03179627917707066,-0.0061841268900002635,-0.00817425555000101,-0.01332827694714068,-0.003038558830000376
0.6475,0.002771950890000481,-0.784505676,0.003129457735000569,-2.358994750000001,0.0016438343650002857,1.5735580450000004,0.7891244100000006,0.03999992,0.03999999075,-9.793149399999997,0.03186837527901036,-0.006202586295000268,-0.00824517202500103,-0.013329009246081096,-0.0030649360150003823
0.65,0.0028051278000005195,-0.7845051,0.003168736600000615,-2.3590300000000006,0.0016635451000003088,1.5735910000000004,0.7891641000000007,0.03999992,0.03999999,-9.793044999999998,0.03194047138094994,-0.006221045700000253,-0.008316088500001075,-0.013329741545021501,-0.003091313200000404
0.6525,0.002840266125000521,-0.784504605,0.0032103338500006164,-2.359067230000001,0.0016844183500003094,1.5736258900000004,0.7892061525000007,0.03999991955,0.03999999,-9.792963549999998,0.03200438451022003,-0.006238111395000253,-0.008388746475001077,-0.013329898705705962,-0.003118628530000405
0.655,0.0028754044500005236,-0.78450411,0.0032519311000006198,-2.3591044600000006,0.0017052916000003112,1.5736607800000004,0.7892482050000006,0.0399999191,0.03999999,-9.792882099999998,0.03206829763949011,-0.006255177090000254,-0.008461404450001084,-0.013330055866390422,-0.0031459438600004073
0.6575,0.002910542775000525,-0.784503615,0.0032935283500006214,-2.3591416900000004,0.0017261648500003118,1.5736956700000004,0.7892902575000006,0.03999991865,0.03999999,-9.792800649999998,0.032132210768760196,-0.006272242785000256,-0.008534062425001087,-0.013330213027074883,-0.003173259190000408
0.66,0.0029456811000005277,-0.78450312,0.0033351256000006247,-2.3591789200000006,0.0017470381000003136,1.5737305600000007,0.7893323100000006,0.039999918200000005,0.03999999,-9.792719199999999,0.03219612389803028,-0.006289308480000257,-0.008606720400001091,-0.013330370187759342,-0.0032005745200004102
0.6625,0.002980819425000529,-0.784502625,0.0033767228500006263,-2.3592161500000004,0.0017679113500003142,1.5737654500000007,0.7893743625000006,0.03999991775,0.03999999,-9.792637749999999,0.03226003702730036,-0.006306374175000257,-0.008679378375001094,-0.013330527348443802,-0.0032278898500004115
0.665,0.003015957750000532,-0.78450213,0.0034183201000006296,-2.3592533800000006,0.0017887846000003158,1.5738003400000007,0.7894164150000006,0.0399999173,0.03999999,-9.7925563,0.03232395015657045,-0.006323439870000259,-0.0087520363500011,-0.013330684509128263,-0.0032552051800004136
0.6675,0.0030517665750005637,-0.7845016475000001,0.0034607098250006674,-2.3592913250000005,0.0018100548150003348,1.5738358900000007,0.7894592705000006,0.03999991665,0.03999999,-9.79247345,0.03238601014018147,-0.006341156935000289,-0.00882529135000113,-0.0133305747061967,-0.0032827877050004266
0.67,0.0030889164000005667,-0.7845011900000001,0.0035046845000006707,-2.3593307000000006,0.0018321189600003366,1.5738727600000006,0.7895037320000007,0.039999915600000005,0.03999999,-9.792387799999998,0.03244436383247463,-0.006360176740000291,-0.008899740400001136,-0.01332993097603313,-0.003310904620000429
0.6725,0.003126066225000568,-0.7845007325,0.0035486591750006724,-2.3593700750000006,0.0018541831050003373,1.5739096300000006,0.7895481935000006,0.03999991455,0.03999999,-9.79230215,0.032502717524767785,-0.006379196545000291,-0.008974189450001138,-0.01332928724586956,-0.00333902153500043
0.675,0.003163216050000571,-0.784500275,0.0035926338500006758,-2.3594094500000007,0.0018762472500003392,1.5739465000000006,0.7895926550000006,0.0399999135,0.03999999,-9.792216499999999,0.03256107121706095,-0.006398216350000293,-0.009048638500001144,-0.01332864351570599,-0.0033671384500004323
0.6775,0.003200365875000572,-0.7844998175,0.0036366085250006774,-2.3594488250000007,0.00189831139500034,1.5739833700000005,0.7896371165000007,0.03999991245,0.03999999,-9.79213085,0.03261942490935411,-0.006417236155000294,-0.009123087550001147,-0.01332799978554242,-0.0033952553650004333
0.68,0.003237515700000575,-0.78449936,0.003680583200000681,-2.359488200000001,0.0019203755400003415,1.5740202400000005,0.7896815780000007,0.0399999114,0.03999999,-9.792045199999999,0.032677778601647264,-0.006436255960000295,-0.009197536600001152,-0.01332735605537885,-0.003423372280000435
0.6825,0.0032746655250005764,-0.7844989025,0.0037245578750006825,-2.359527575000001,0.0019424396850003425,1.5740571100000005,0.7897260395000006,0.03999991035,0.03999999,-9.791959549999998,0.03273613229394042,-0.006455275765000296,-0.009271985650001155,-0.01332671232521528,-0.0034514891950004362
0.685,0.0033131887900006117,-0.7844985,0.003770156290000724,-2.359568330000001,0.0019653154900003632,1.5740953300000005,0.7897721340000007,0.039999909199999996,0.039999991,-9.791884499999998,0.03278839215636323,-0.006476097860000339,-0.009347578400001187,-0.013326009735464989,-0.0034802039100004525
0.6875,0.003352398775000613,-0.784498125,0.003816566575000726,-2.359609775000001,0.001988597125000364,1.5741342250000006,0.7898190450000008,0.039999908,0.0399999925,-9.791814749999999,0.03283760510385107,-0.00649782110000034,-0.00942374300000119,-0.013325277715921338,-0.0035092175250004535
0.6900000000000001,0.003391608760000616,-0.78449775,0.0038629768600007292,-2.359651220000001,0.002011878760000366,1.5741731200000006,0.7898659560000008,0.0399999068,0.039999994,-9.791744999999999,0.03288681805133892,-0.006519544340000342,-0.009499907600001196,-0.013324545696377688,-0.003538231140000456
0.6925,0.0034308187450006176,-0.784497375,0.003909387145000731,-2.3596926650000007,0.002035160395000367,1.5742120150000005,0.7899128670000007,0.039999905599999996,0.0399999955,-9.791675249999999,0.032936030998826756,-0.006541267580000342,-0.0095760722000012,-0.013323813676834039,-0.003567244755000457
0.6950000000000001,0.0034700287300006207,-0.784497,0.003955797430000735,-2.3597341100000007,0.0020584420300003687,1.5742509100000006,0.7899597780000007,0.039999904399999994,0.039999997,-9.7916055,0.0329852439463146,-0.006562990820000344,-0.009652236800001206,-0.01332308165729039,-0.0035962583700004593
0.6975,0.0035092387150006217,-0.784496625,0.004002207715000736,-2.3597755550000006,0.0020817236650003696,1.5742898050000005,0.7900066890000008,0.0399999032,0.0399999985,-9.79153575,0.03303445689380244,-0.006584714060000345,-0.009728401400001209,-0.01332234963774674,-0.0036252719850004603
0.7000000000000001,0.0035484487000006586,-0.78449625,0.00404861800000078,-2.359817000000001,0.0021050053000003914,1.5743287000000006,0.7900536000000008,0.039999902,0.04,-9.791465999999998,0.03308366984129019,-0.006606437300000342,-0.009804566000001241,-0.013321617618203078,-0.003654285600000467
0.7025,0.00358976704000066,-0.7844959125000001,0.004097520055000782,-2.3598606050000006,0.002129536615000392,1.5743696950000006,0.7901030160000008,0.0399999017,0.04,-9.791384849999998,0.033127284236252975,-0.006627889655000343,-0.009882325550001243,-0.01332024312578134,-0.0036835907850004683
0.705,0.0036310853800006616,-0.784495575,0.004146422110000783,-2.3599042100000007,0.002154067930000393,1.5744106900000006,0.7901524320000008,0.039999901399999996,0.04,-9.791303699999998,0.03317089863121576,-0.006649342010000343,-0.009960085100001246,-0.013318868633359598,-0.003712895970000469
0.7075,0.003672403720000665,-0.7844952375,0.004195324165000788,-2.359947815000001,0.002178599245000395,1.5744516850000005,0.7902018480000008,0.0399999011,0.04,-9.791222549999999,0.03321451302617854,-0.006670794365000345,-0.010037844650001251,-0.013317494140937858,-0.0037422011550004713
0.71,0.0037137220600006664,-0.7844949,0.004244226220000789,-2.3599914200000005,0.0022031305600003956,1.5744926800000008,0.7902512640000008,0.039999900799999995,0.04,-9.791141399999999,0.03325812742114132,-0.0066922467200003465,-0.010115604200001254,-0.013316119648516119,-0.0037715063400004726
0.7125,0.0037550404000006696,-0.7844945625,0.004293128275000793,-2.3600350250000006,0.0022276618750003974,1.5745336750000007,0.7903006800000009,0.0399999005,0.04,-9.79106025,0.03330174181610411,-0.006713699075000348,-0.01019336375000126,-0.013314745156094378,-0.003800811525000475
0.715,0.003796358740000671,-0.784494225,0.004342030330000794,-2.3600786300000007,0.0022521931900003982,1.5745746700000007,0.7903500960000008,0.0399999002,0.04,-9.790979099999998,0.03334535621106689,-0.006735151430000349,-0.010271123300001263,-0.013313370663672639,-0.003830116710000476
0.7175,0.0038383954450007065,-0.784493892,0.004391781490000837,-2.3601229450000005,0.0022771499950004193,1.5746163850000008,0.7904003730000009,0.03999989975,0.04,-9.790899799999998,0.03338579181581784,-0.006758032440000418,-0.010349391000001288,-0.01331183207221324,-0.0038596756500004887
0.72,0.003881868880000699,-0.784493568,0.004443230860000827,-2.3601686800000006,0.0023029577800004145,1.5746595400000007,0.7904523720000008,0.039999899,0.04,-9.7908242,0.03341986984014559,-0.006783770760000414,-0.010428675000001273,-0.01330996528267855,-0.0038897421000004834
0.7225,0.003925342315000693,-0.784493244,0.0044946802300008205,-2.3602144150000006,0.0023287655650004115,1.5747026950000007,0.7905043710000008,0.03999989825,0.04,-9.790748599999999,0.03345394786447334,-0.00680950908000041,-0.010507959000001264,-0.01330809849314386,-0.0039198085500004795
0.725,0.003968815750000685,-0.78449292,0.0045461296000008115,-2.3602601500000007,0.0023545733500004067,1.5747458500000007,0.7905563700000008,0.0399998975,0.04,-9.790672999999998,0.033488025888801086,-0.006835247400000405,-0.01058724300000125,-0.013306231703609171,-0.003949875000000474
0.7275,0.00401228918500068,-0.784492596,0.004597578970000804,-2.3603058850000007,0.002380381135000403,1.5747890050000006,0.7906083690000009,0.03999989675,0.04,-9.7905974,0.03352210391312884,-0.006860985720000402,-0.010666527000001239,-0.013304364914074482,-0.00397994145000047
0.73,0.004055762620000672,-0.784492272,0.004649028340000795,-2.3603516200000008,0.002406188920000399,1.5748321600000006,0.7906603680000008,0.039999896,0.04,-9.790521799999999,0.03355618193745659,-0.006886724040000397,-0.010745811000001226,-0.013302498124539791,-0.004010007900000465
0.7325,0.004099236055000666,-0.784491948,0.004700477710000788,-2.360397355000001,0.0024319967050003954,1.5748753150000006,0.7907123670000008,0.03999989525,0.04,-9.7904462,0.03359025996178434,-0.0069124623600003935,-0.010825095000001214,-0.013300631335005102,-0.004040074350000461
0.735,0.004144176980000705,-0.784491673,0.004753661550000834,-2.3604446400000008,0.0024586737700004182,1.5749198900000005,0.7907661300000008,0.0399998942,0.04,-9.790365499999998,0.03361890949308905,-0.006940014280000439,-0.010905421600001247,-0.013298258371651099,-0.004070560350000474
0.7375,0.004189851650000718,-0.7844914225,0.00480771262500085,-2.360492700000001,0.002485785475000426,1.5749651750000007,0.7908207750000008,0.039999893,0.04,-9.790282249999999,0.03364484477788243,-0.006968473000000447,-0.010986269500001271,-0.013295632321387458,-0.004101256125000482
0.74,0.00423552632000073,-0.7844911720000001,0.0048617637000008635,-2.360540760000001,0.002512897180000433,1.5750104600000006,0.7908754200000009,0.0399998918,0.04,-9.790199,0.03367078006267581,-0.006996931720000455,-0.01106711740000129,-0.013293006271123817,-0.00413195190000049
0.7425,0.004281200990000743,-0.7844909215,0.0049158147750008796,-2.360588820000001,0.002540008885000441,1.5750557450000007,0.7909300650000008,0.0399998906,0.04,-9.790115749999998,0.033696715347469194,-0.0070253904400004626,-0.011147965300001315,-0.013290380220860177,-0.004162647675000499
0.745,0.004326875660000754,-0.784490671,0.004969865850000893,-2.360636880000001,0.0025671205900004474,1.5751010300000006,0.7909847100000009,0.039999889399999995,0.04,-9.790032499999999,0.03372265063226258,-0.00705384916000047,-0.011228813200001336,-0.013287754170596536,-0.004193343450000507
0.7475,0.004372550330000767,-0.7844904205,0.005023916925000909,-2.360684940000001,0.0025942322950004556,1.5751463150000007,0.7910393550000009,0.0399998882,0.04,-9.78994925,0.033748585917055964,-0.007082307880000478,-0.011309661100001358,-0.013285128120332895,-0.004224039225000515
0.75,0.004418225000000817,-0.78449017,0.0050779680000009675,-2.360733000000001,0.0026213440000004847,1.5751916000000008,0.791094000000001,0.039999887,0.04,-9.789865999999998,0.03377452120184919,-0.00711076660000042,-0.011390509000001405,-0.013282502070069249,-0.004254735000000532
0.7525000000000001,0.00446614545500082,-0.7844899555,0.005134673445000972,-2.360783355000001,0.002649787120000487,1.5752391650000008,0.7911513000000009,0.03999988595,0.04,-9.789797299999998,0.03379174992442153,-0.007135400110000422,-0.011472955450001413,-0.013279563793912465,-0.0042859223250005345
0.755,0.004514065910000822,-0.784489741,0.005191378890000974,-2.360833710000001,0.002678230240000488,1.5752867300000009,0.7912086000000009,0.0399998849,0.04,-9.789728599999998,0.03380897864699386,-0.007160033620000423,-0.011555401900001415,-0.013276625517755679,-0.0043171096500005356
0.7575000000000001,0.004561986365000827,-0.7844895265,0.005248084335000978,-2.360884065000001,0.0027066733600004905,1.5753342950000009,0.791265900000001,0.03999988385,0.04,-9.789659899999998,0.03382620736956619,-0.007184667130000425,-0.011637848350001423,-0.013273687241598893,-0.0043482969750005375
0.76,0.004609906820000828,-0.784489312,0.00530478978000098,-2.360934420000001,0.0027351164800004913,1.575381860000001,0.791323200000001,0.0399998828,0.04,-9.789591199999998,0.03384343609213852,-0.007209300640000426,-0.011720294800001425,-0.013270748965442109,-0.004379484300000539
0.7625000000000001,0.004657827275000833,-0.7844890975,0.005361495225000985,-2.360984775000001,0.002763559600000494,1.575429425000001,0.7913805000000009,0.03999988175,0.04,-9.789522499999999,0.033860664814710846,-0.007233934150000428,-0.011802741250001431,-0.013267810689285323,-0.0044106716250005415
0.765,0.004705747730000834,-0.784488883,0.005418200670000987,-2.361035130000001,0.0027920027200004946,1.575476990000001,0.791437800000001,0.039999880700000004,0.04,-9.789453799999999,0.03387789353728318,-0.007258567660000429,-0.011885187700001435,-0.013264872413128539,-0.0044418589500005426
0.7675000000000001,0.004754431430000878,-0.784488693,0.005475808235001038,-2.361086285000001,0.0028208970600005208,1.575525300000001,0.791496015000001,0.0399998795,0.04,-9.789383699999998,0.03389149885624652,-0.007285333265000543,-0.011968075650001466,-0.01326175518333903,-0.004473368555000562
0.77,0.00480464162000088,-0.784488552,0.005535220040001041,-2.361139040000001,0.002850693840000522,1.575575100000001,0.791556060000001,0.039999878,0.04,-9.789310799999999,0.03389785736799245,-0.007316363060000544,-0.012051846600001468,-0.013258280046284099,-0.004505522720000563
0.7725,0.004854851810000882,-0.784488411,0.005594631845001043,-2.361191795000001,0.0028804906200005226,1.5756249000000009,0.791616105000001,0.0399998765,0.04,-9.789237899999998,0.03390421587973838,-0.007347392855000545,-0.012135617550001471,-0.01325480490922917,-0.004537676885000564
0.775,0.0049050620000008855,-0.78448827,0.005654043650001048,-2.361244550000001,0.002910287400000525,1.5756747000000009,0.791676150000001,0.039999875,0.04,-9.789164999999999,0.03391057439148431,-0.007378422650000547,-0.012219388500001477,-0.013251329772174239,-0.004569831050000567
0.7775,0.004955272190000888,-0.784488129,0.00571345545500105,-2.3612973050000012,0.002940084180000526,1.575724500000001,0.791736195000001,0.0399998735,0.04,-9.789092099999998,0.03391693290323024,-0.007409452445000548,-0.01230315945000148,-0.01324785463511931,-0.004601985215000568
0.78,0.005005482380000891,-0.784487988,0.005772867260001055,-2.3613500600000012,0.0029698809600005286,1.575774300000001,0.791796240000001,0.039999872,0.04,-9.789019199999998,0.03392329141497617,-0.007440482240000551,-0.012386930400001486,-0.013244379498064379,-0.004634139380000571
0.7825,0.005055692570000893,-0.784487847,0.005832279065001057,-2.361402815000001,0.0029996777400005297,1.575824100000001,0.791856285000001,0.0399998705,0.04,-9.788946299999997,0.0339296499267221,-0.0074715120350005515,-0.012470701350001489,-0.01324090436100945,-0.004666293545000572
0.785,0.005107457670000946,-0.7844877269999999,0.0058935288000011195,-2.361457160000001,0.0030303983400005612,1.575875450000001,0.7919181900000011,0.0399998695,0.0399999995,-9.788879399999999,0.03393369838595389,-0.007500068430000491,-0.012555428750001534,-0.013237295392900554,-0.004698433370000579
0.7875,0.005160000225000959,-0.7844876175,0.0059556975000011345,-2.361512300000001,0.003061580850000569,1.575927575000001,0.7919810250000011,0.03999986875,0.03999999875,-9.788815499999998,0.0339365918189287,-0.007527388125000498,-0.012640634375001555,-0.013233619509264683,-0.004730566025000587
0.79,0.005212542780000975,-0.784487508,0.006017866200001153,-2.3615674400000013,0.003092763360000578,1.575979700000001,0.7920438600000012,0.039999868,0.039999998,-9.7887516,0.03393948525190351,-0.007554707820000507,-0.012725840000001579,-0.013229943625628812,-0.004762698680000596
0.7925,0.005265085335000988,-0.7844873984999999,0.006080034900001168,-2.361622580000001,0.003123945870000586,1.576031825000001,0.7921066950000012,0.03999986725,0.03999999725,-9.788687699999999,0.03394237868487832,-0.0075820275150005135,-0.012811045625001601,-0.013226267741992941,-0.004794831335000604
0.795,0.005317627890001003,-0.784487289,0.0061422036000011865,-2.361677720000001,0.003155128380000595,1.576083950000001,0.7921695300000012,0.0399998665,0.0399999965,-9.788623799999998,0.033945272117853136,-0.007609347210000521,-0.012896251250001626,-0.01322259185835707,-0.004826963990000614
0.7975,0.005370170445001016,-0.7844871794999999,0.0062043723000012015,-2.3617328600000014,0.0031863108900006027,1.576136075000001,0.7922323650000012,0.03999986575,0.03999999575,-9.7885599,0.03394816555082794,-0.007636666905000528,-0.012981456875001646,-0.013218915974721199,-0.004859096645000622
0.8,0.005422713000001078,-0.78448707,0.006266541000001275,-2.3617880000000016,0.0032174934000006395,1.5761882000000011,0.7922952000000013,0.039999865,0.039999995,-9.788495999999999,0.033951058983802455,-0.007663986600000681,-0.0130666625000017,-0.01321524009108532,-0.0048912293000006515
0.8025,0.005477629725001068,-0.7844869889999999,0.006331515600001263,-2.361845510000001,0.003250080885000634,1.576242665000001,0.7923608700000012,0.03999986425,0.03999999575,-9.788427749999999,0.03393860794603791,-0.007698717960000675,-0.013153264025001684,-0.013211151817813405,-0.004924420355000646
0.805,0.005532546450001061,-0.784486908,0.006396490200001255,-2.361903020000001,0.0032826683700006294,1.576297130000001,0.7924265400000012,0.0399998635,0.0399999965,-9.788359499999999,0.033926156908273365,-0.007733449320000671,-0.013239865550001673,-0.01320706354454149,-0.004957611410000641
0.8075,0.005587463175001051,-0.7844868269999999,0.006461464800001243,-2.361960530000001,0.0033152558550006237,1.576351595000001,0.7924922100000013,0.039999862750000004,0.03999999725,-9.788291249999999,0.03391370587050883,-0.007768180680000665,-0.013326467075001657,-0.013202975271269577,-0.004990802465000635
0.81,0.005642379900001044,-0.784486746,0.006526439400001235,-2.362018040000001,0.0033478433400006193,1.576406060000001,0.7925578800000013,0.039999862,0.039999998,-9.788222999999999,0.03390125483274428,-0.00780291204000066,-0.013413068600001646,-0.013198886997997662,-0.005023993520000631
0.8125,0.0056972966250010346,-0.784486665,0.006591414000001223,-2.362075550000001,0.0033804308250006136,1.576460525000001,0.7926235500000013,0.03999986125,0.03999999875,-9.788154749999999,0.03388880379497974,-0.007837643400000654,-0.01349967012500163,-0.013194798724725747,-0.005057184575000625
0.8150000000000001,0.005752213350001027,-0.784486584,0.006656388600001215,-2.362133060000001,0.0034130183100006093,1.576514990000001,0.7926892200000012,0.0399998605,0.0399999995,-9.788086499999999,0.03387635275721519,-0.007872374760000649,-0.013586271650001619,-0.013190710451453834,-0.0050903756300006205
0.8175,0.005807934960001066,-0.784486515,0.006722314415001261,-2.3621914150000007,0.0034460830000006327,1.576570250000001,0.7927558450000013,0.0399998597,0.04,-9.788014049999997,0.03386183418333489,-0.007907665125000678,-0.013673280100001633,-0.013186307810246836,-0.005123675150000623
0.8200000000000001,0.005865266340001071,-0.78448647,0.006790142660001266,-2.362251460000001,0.003480102100000635,1.576627100000001,0.7928243800000013,0.039999858799999996,0.04,-9.787933199999998,0.03384318053722341,-0.00794407350000068,-0.01376110240000164,-0.013181276433169726,-0.005157191600000626
0.8225,0.005922597720001073,-0.784486425,0.006857970905001269,-2.362311505000001,0.0035141212000006365,1.576683950000001,0.7928929150000013,0.0399998579,0.04,-9.787852349999998,0.03382452689111193,-0.00798048187500068,-0.013848924700001644,-0.013176245056092616,-0.005190708050000627
0.8250000000000001,0.005979929100001077,-0.7844863799999999,0.006925799150001274,-2.362371550000001,0.0035481403000006393,1.576740800000001,0.7929614500000013,0.039999857,0.04,-9.787771499999998,0.03380587324500045,-0.008016890250000684,-0.01393674700000165,-0.013171213679015506,-0.00522422450000063
0.8275,0.006037260480001079,-0.784486335,0.006993627395001277,-2.362431595000001,0.0035821594000006404,1.576797650000001,0.7930299850000013,0.0399998561,0.04,-9.787690649999998,0.033787219598888966,-0.008053298625000685,-0.014024569300001653,-0.013166182301938395,-0.005257740950000631
0.8300000000000001,0.006094591860001084,-0.7844862899999999,0.007061455640001282,-2.3624916400000013,0.003616178500000643,1.576854500000001,0.7930985200000013,0.039999855200000003,0.04,-9.787609799999998,0.03376856595277748,-0.008089707000000688,-0.01411239160000166,-0.013161150924861285,-0.005291257400000634
0.8325,0.006151923240001086,-0.784486245,0.007129283885001284,-2.3625516850000015,0.003650197600000644,1.576911350000001,0.7931670550000013,0.0399998543,0.04,-9.787528949999999,0.033749912306666005,-0.00812611537500069,-0.014200213900001663,-0.013156119547784175,-0.005324773850000635
0.835,0.0062108906800011346,-0.784486217,0.007199045930001342,-2.362613470000001,0.003685185960000673,1.576969840000001,0.7932375400000014,0.0399998532,0.04,-9.7874653,0.03372492194175666,-0.008162388250000688,-0.014288796900001687,-0.013151190988719308,-0.005358730000000649
0.8375,0.006270676150001139,-0.7844861974999999,0.007269774875001348,-2.3626761250000015,0.0037206589500006757,1.577029150000001,0.7933090000000014,0.039999852,0.04,-9.787410249999999,0.03369676321744863,-0.00819859337500069,-0.014377760250001695,-0.013146313838660557,-0.005392906000000652
0.84,0.0063304616200011415,-0.784486178,0.00734050382000135,-2.3627387800000013,0.003756131940000677,1.577088460000001,0.7933804600000014,0.0399998508,0.04,-9.787355199999999,0.03366860449314062,-0.008234798500000692,-0.014466723600001698,-0.013141436688601807,-0.005427082000000653
0.8425,0.006390247090001146,-0.7844861584999999,0.007411232765001356,-2.3628014350000015,0.00379160493000068,1.5771477700000012,0.7934519200000014,0.0399998496,0.04,-9.787300149999998,0.0336404457688326,-0.008271003625000694,-0.014555686950001706,-0.013136559538543056,-0.005461258000000655
0.845,0.006450032560001148,-0.784486139,0.007481961710001359,-2.3628640900000013,0.003827077920000681,1.577207080000001,0.7935233800000014,0.039999848399999996,0.04,-9.787245099999998,0.03361228704452459,-0.008307208750000695,-0.014644650300001708,-0.013131682388484306,-0.005495434000000656
0.8475,0.006509818030001153,-0.7844861194999999,0.007552690655001364,-2.362926745000001,0.003862550910000684,1.5772663900000012,0.7935948400000015,0.0399998472,0.04,-9.787190049999998,0.033584128320216566,-0.008343413875000698,-0.014733613650001715,-0.013126805238425555,-0.005529610000000659
0.85,0.006569603500001203,-0.7844861,0.007623419600001424,-2.3629894000000013,0.0038980239000007137,1.5773257000000012,0.7936663000000015,0.039999846,0.04,-9.787134999999997,0.03355596959590839,-0.008379619000000779,-0.014822577000001742,-0.013121928088366805,-0.005563786000000669
0.8525,0.006631881385001208,-0.7844861,0.007697094260001429,-2.3630545900000013,0.003934974495000717,1.5773874400000012,0.7937407450000015,0.039999846,0.04,-9.787084599999998,0.03351928200572656,-0.008419937350000782,-0.014912715900001748,-0.013116991706192314,-0.005598382000000671
0.855,0.0066941592700012105,-0.7844861,0.007770768920001432,-2.3631197800000012,0.003971925090000718,1.5774491800000012,0.7938151900000014,0.039999846,0.04,-9.787034199999999,0.033482594415544735,-0.008460255700000783,-0.015002854800001752,-0.013112055324017824,-0.0056329780000006725
0.8575,0.0067564371550012155,-0.7844861,0.007844443580001437,-2.363184970000001,0.004008875685000721,1.5775109200000013,0.7938896350000015,0.039999846,0.04,-9.786983799999998,0.03344590682536291,-0.008500574050000787,-0.015092993700001759,-0.013107118941843333,-0.0056675740000006756
0.86,0.006818715040001217,-0.7844861,0.00791811824000144,-2.3632501600000015,0.004045826280000722,1.577572660000001,0.7939640800000015,0.039999846,0.04,-9.786933399999999,0.03340921923518108,-0.008540892400000787,-0.015183132600001762,-0.013102182559668843,-0.005702170000000677
0.8625,0.006880992925001222,-0.7844861,0.007991792900001446,-2.3633153500000015,0.004082776875000725,1.577634400000001,0.7940385250000015,0.039999846,0.04,-9.786883,0.03337253164499925,-0.008581210750000791,-0.015273271500001769,-0.013097246177494352,-0.005736766000000679
0.865,0.006943270810001225,-0.7844861,0.008065467560001448,-2.3633805400000014,0.004119727470000727,1.5776961400000011,0.7941129700000015,0.039999846,0.04,-9.786832599999999,0.03333584405481743,-0.008621529100000793,-0.015363410400001772,-0.013092309795319864,-0.00577136200000068
0.8675,0.0070063920100012795,-0.78448611,0.008140138875001514,-2.3634465950000014,0.00415717764000076,1.577758735000001,0.7941884200000016,0.0399998457,0.04,-9.786776399999999,0.03329531922936344,-0.008662707450000846,-0.015453937750001803,-0.013087246473878445,-0.005806171200000695
0.87,0.007071199840001282,-0.7844861399999999,0.008216803500001516,-2.3635143800000016,0.00419562696000076,1.5778230400000013,0.7942658800000015,0.039999844799999996,0.04,-9.786708599999999,0.03324711993336581,-0.008705605800000848,-0.015545242000001807,-0.013081929273903194,-0.005841406800000697
0.8725,0.007136007670001287,-0.78448617,0.008293468125001521,-2.3635821650000013,0.004234076280000764,1.5778873450000013,0.7943433400000016,0.0399998439,0.04,-9.786640799999999,0.03319892063736817,-0.008748504150000853,-0.015636546250001812,-0.013076612073927945,-0.0058766424000007
0.875,0.00720081550000129,-0.7844862,0.008370132750001525,-2.3636499500000014,0.0042725256000007645,1.5779516500000013,0.7944208000000016,0.039999843,0.04,-9.786572999999999,0.033150721341370544,-0.008791402500000853,-0.015727850500001816,-0.013071294873952694,-0.0059118780000007014
