rsonawane2002/My_IMU/logs_2/traj_267/clean_267.csv
time,j1,j2,j3,j4,j5,j6,j7,gripper1,gripper2,imu_ax,imu_ay,imu_az,imu_gx,imu_gy,imu_gz,quat_x,quat_y,quat_z,quat_w
177.833333333367,0.00016700293,-0.785875,4.0107683e-05,-2.3551247,9.29385e-05,1.570997,0.786,0.04,0.04,0.0,-0.0,0.0,2.875329272945135e-08,-0.0011641195053377316,4.421952117202833e-08,0.9999995971961153,0.00020320632366974898,0.0008736418299892524,3.263050917662294e-05
177.85000000003367,0.00016699734,-0.78576016,4.0116287e-05,-2.3552213,9.298124e-05,1.5709941,0.786,0.04,0.04,-0.2919984598159342,-3.333314620573846e-05,0.02012840938006022,-6.778524992642775e-08,-0.0022370336718025496,4.305182986806043e-07,0.9999996850579445,0.00020321081777088175,0.0007665025176877873,3.2607761161373623e-05
177.86666666670035,0.00016693366,-0.7856542,4.013607e-05,-2.35531,9.307098e-05,1.5709913,0.786,0.04,0.04,0.023196976373363043,1.5744324139392455e-05,-0.0016027090748549355,-1.4944511271903369e-06,-0.0032151198520964635,2.8519782790282325e-06,0.9999997558783087,0.00020324001057529505,0.0006677376396219455,3.2607756245237176e-05
177.88333333336703,0.00016671607,-0.7855566,4.0186045e-05,-2.355391,9.328931e-05,1.5709884,0.786,0.04,0.04,0.022263117725151993,3.835959421072529e-05,-0.0014233993823609126,-5.236418312216265e-06,-0.004095321927080982,9.18455429079854e-06,0.9999998123354449,0.00020333509507899385,0.000576989558338609,3.266441271187676e-05
177.9000000000337,0.00016620696,-0.78546655,4.0293377e-05,-2.3554654,9.375314e-05,1.5709856,0.786,0.04,0.04,0.019652572792128176,7.125581635566503e-05,-0.0013288134117050987,-1.2778280612913418e-05,-0.004873400790047147,2.1118704564535092e-05,0.9999998570544202,0.00020355530505595628,0.0004933343863747071,3.2826214903038934e-05
177.9166666667004,0.00016523102,-0.7853831,4.049252e-05,-2.3555338,9.4611154e-05,1.5709826,0.7859981,0.04,0.04,0.017409748479257914,0.00011351954044529623,-0.0012193362523671425,-2.5812251907879684e-05,-0.0055490831973645256,4.01772921196662e-05,0.9999998923516408,0.00020302247534927567,0.0004159078672224968,3.3154599382826224e-05
177.93333333336707,0.00016357929,-0.7853056,4.0824605e-05,-2.3555996,9.603687e-05,1.5709795,0.7859962,0.04,0.04,0.011011269419469727,0.00016697707635101862,-0.002331633990482196,-3.7170753247957645e-05,-0.00611861937881597,6.713525618707944e-05,0.9999999201453245,0.00020278035154935425,0.0003427131904644699,3.372154774269341e-05
177.95000000003375,0.00016101236,-0.78523344,4.1336458e-05,-2.3556588,9.823552e-05,1.5709757,0.7859924,0.04,0.04,0.01698554025750809,0.00022280124681796527,-0.0005846312252311137,-5.769019128869452e-05,-0.006592372390745074,0.00010425864536400603,0.9999999411492777,0.0002019783140543243,0.00027515106972842194,3.46134455524648e-05
177.96666666670043,0.00015726365,-0.7851661,4.2080104e-05,-2.355717,0.00010143402,1.570969,0.78598815,0.04,0.04,0.006052949498425164,0.0002878679437671051,-0.004467645309302881,-8.026661610125783e-05,-0.006950510018004079,0.00015315305439709008,0.9999999572075666,0.00020147651245291682,0.00020904912736610288,3.592411783678014e-05
177.9833333333671,0.00015204307,-0.7851025,4.3112515e-05,-2.3557742,0.00010587531,1.570962,0.785982,0.04,0.04,0.005661514433863424,0.00035979317493751235,-0.0019915478898013816,-0.00011384835830566812,-0.007220437624125801,0.00021305627529187652,0.9999999686257839,0.00020065493164229592,0.0001451226200962006,3.7755196713979016e-05
178.0000000000338,0.00014503878,-0.7850418,4.449448e-05,-2.3558261,0.00011183224,1.5709515,0.78597295,0.04,0.039999995,0.01104960900357721,0.00042900264523197196,-0.0019026772971164618,-0.00015381350515607662,-0.007388264122320536,0.00028638892619603816,0.9999999758721493,0.00019914124127405538,8.355036081943592e-05,4.022193693828647e-05
178.01666666670047,0.00013592048,-0.7849835,4.629079e-05,-2.3558774,0.00011955855,1.5709403,0.7859615,0.04,0.04,0.003627892248814213,0.00052872527446313,-0.001582444295999963,-0.0001975787215189616,-0.007444144473049315,0.00037099676268325906,0.9999999793157998,0.00019734622806957003,2.3170045579061094e-05,4.342827689343742e-05
178.03333333336715,0.00012434101,-0.784927,4.8569054e-05,-2.3559284,0.00012936175,1.5709256,0.785947,0.04,0.04,0.0012905057046985746,0.0006036596681816323,-0.0035005915140606803,-0.000250085551711271,-0.007390187657295151,0.00047094954984301386,0.9999999791221055,0.0001950918303774316,-3.792565698248766e-05,4.7503796485873874e-05
178.05000000003383,0.00010993912,-0.7848719,5.139984e-05,-2.3559797,0.00014156029,1.5709074,0.7859292,0.04,0.039999995,-1.7677678521010876e-05,0.0006822451559205145,-0.003566574067082051,-0.0003103437042751146,-0.007235823145565882,0.0005872994096765953,0.9999999750871684,0.00019238488069411023,-0.00010024335389684188,5.258317244003355e-05
178.0666666667005,9.234173e-05,-0.7848171,5.4856362e-05,-2.3560333,0.00015643841,1.5708853,0.7859073,0.04,0.04,-0.0048578523461850764,0.0007963738106487488,-0.0041338861362039125,-0.0003791046425487769,-0.00697788510094669,0.000715975232998127,0.9999999667142696,0.00018902868794027286,-0.00016548169671625718,5.878284411201876e-05
178.0833333333672,7.116421e-05,-0.78476226,5.9013466e-05,-2.3560905,0.00017434027,1.5708592,0.7858811,0.04,0.04,-0.007418178125173647,0.0008765594860151034,-0.004612445291307665,-0.00045583692947510825,-0.006625860491253155,0.0008622510465291142,0.9999999531753144,0.00018504037441539816,-0.00023456445682908925,6.62491075593546e-05
178.10000000003387,4.6013603e-05,-0.78470683,6.394793e-05,-2.3561487,0.00019559242,1.5708287,0.7858498,0.04,0.04,-0.003666472043972746,0.0009762113848916316,-0.003399864889219728,-0.0005414670332536027,-0.006177079146464191,0.0010240263580017514,0.9999999339266579,0.0001802317576003453,-0.00030662719964766897,7.511959828880715e-05
178.11666666670055,1.6489328e-05,-0.7846501,6.9738024e-05,-2.3562093,0.00022053196,1.570793,0.7858131,0.04,0.04,-0.007111611990096023,0.0010751019716319756,-0.004172962375648126,-0.0006347966342778015,-0.005620602639269324,0.0012021989748013944,0.9999999077168312,0.00017459698097548165,-0.0003831002196637509,8.553621912953043e-05
178.13333333336723,-1.7815144e-05,-0.78459144,7.646326e-05,-2.356275,0.00024949753,1.5707512,0.7857705,0.039999995,0.039999995,-0.012967153225784678,0.0011778947442604563,-0.005925279206886458,-0.0007368818000705729,-0.004959311087296784,0.0013972482973695294,0.9999998724150599,0.00016807326848321973,-0.0004662481984564502,9.764147492781857e-05
178.1500000000339,-5.7311336e-05,-0.7845304,8.420393e-05,-2.3563447,0.00028284022,1.5707037,0.7857214,0.03999999,0.03999999,-0.010871789585786829,0.001275400330546779,-0.004573130412355297,-0.0008480357563119888,-0.0042077301161822615,0.0016088942031125069,0.9999998267062388,0.00016057010942585704,-0.0005552958907370802,0.00011158497260370864
178.1666666667006,-0.00010241424,-0.78446627,9.304107e-05,-2.3564186,0.00032090934,1.5706497,0.7856655,0.039999988,0.039999988,-0.012769585867111743,0.0013772168444845748,-0.005099670541652834,-0.0009677911150933992,-0.003352267209105949,0.0018378339623442638,0.9999997682029965,0.00015205819541702143,-0.0006513156967700861,0.0001275151809669482
178.18333333336727,-0.00015354152,-0.7843986,0.00010305631,-2.3564997,0.00036405714,1.5705885,0.7856021,0.039999984,0.03999998,-0.01831099353943877,0.0014790287368750851,-0.006692307302125222,-0.0010971035704506952,-0.0023962965587557214,0.002084945225891617,0.9999996932676267,0.0001423904449155705,-0.0007563037529979672,0.00014558244061629692
178.20000000003395,-0.00021111232,-0.784327,0.00011433162,-2.3565881,0.00041263533,1.5705194,0.78553075,0.03999998,0.039999977,-0.019386603480153752,0.0015819172587436942,-0.006895539769580239,-0.0012347836128228256,-0.0013494935564367584,0.0023486507935353428,0.999999598386427,0.0001315395055117191,-0.000870855361431296,0.00016593758626184466
178.21666666670063,-0.0002755466,-0.7842507,0.00012694889,-2.3566835,0.00046699826,1.5704424,0.78545094,0.039999977,0.039999973,-0.01936872657339883,0.0016836040153196034,-0.006499081388655625,-0.0013818866091924301,-0.00021374522669793082,0.0026299261450617338,0.9999994798693984,0.00011941889992912605,-0.0009951782272259522,0.00018873355527298686
178.2333333333673,-0.00034726414,-0.78416926,0.00014099017,-2.3567865,0.0005274993,1.5703567,0.785362,0.039999973,0.03999997,-0.021326953316358477,0.00178523646731027,-0.007098198083510532,-0.0015381273884254119,0.0010178131290320218,0.0029288642758260727,0.9999993327655697,0.0001058825770561545,-0.0011302249190176486,0.0002141236269980206
178.250000000034,-0.00042668407,-0.7840823,0.00015653748,-2.3568978,0.0005944915,1.5702622,0.78526354,0.03999997,0.039999966,-0.023029657663076186,0.0018862450111945081,-0.0072888986844210635,-0.001702701710718569,0.0023415782554045456,0.003245546081159841,0.9999991516432177,9.09035866094465e-05,-0.0012766199980392184,0.00024226176586552816
178.26666666670067,-0.00051422376,-0.7839892,0.00017367235,-2.357017,0.0006683259,1.5701576,0.785155,0.039999966,0.03999996,-0.023242011531965368,0.001986473109608924,-0.007643008780067184,-0.0018762253636356715,0.003757313708820872,0.003580028938326656,0.9999989302473562,7.439448643471516e-05,-0.001435017589964348,0.0002733022504347474
178.28333333336735,-0.0006102985,-0.78388923,0.00019247593,-2.3571446,0.00074935245,1.5700433,0.78503597,0.039999966,0.03999996,-0.0247531151150282,0.0020859755987999496,-0.007295874936796842,-0.002058243379647293,0.005266363146798242,0.003932370518981589,0.9999986617196079,5.632698982439214e-05,-0.0016058927718002555,0.0003073998514118234
178.30000000003403,-0.00071532105,-0.7837827,0.00021302872,-2.3572812,0.00083791855,1.5699183,0.7849058,0.03999996,0.039999958,-0.025922594882654693,0.0021839323416205226,-0.008519213651525526,-0.0022494085220849842,0.006869653896406405,0.004302608693330255,0.9999983379953697,3.6552533981832864e-05,-0.001789928924669468,0.0003447098130716683
178.3166666667007,-0.00082970044,-0.7836688,0.00023541099,-2.357431,0.0009343697,1.5697823,0.78476405,0.039999958,0.03999995,-0.03378029027940599,0.0022794557137570913,-0.010088846301381516,-0.0024490178434073417,0.008564751344920001,0.004691661538612306,0.99999794619587,1.5041295269457034e-05,-0.0019896867015449997,0.0003853889349177229
178.3333333333674,-0.00095384294,-0.78354716,0.00025970183,-2.3575902,0.001039046,1.5696347,0.7846102,0.039999954,0.039999947,-0.028271536729684854,0.002376417576472953,-0.008740319244959771,-0.0026569694846848386,0.0103357501369346,0.0050978097876739495,0.9999974792059871,-8.298907897401985e-06,-0.0022038521092384964,0.0004295912942628838
178.35000000003407,-0.0010881496,-0.78341645,0.00028598,-2.357763,0.0011522863,1.5694747,0.7844438,0.03999995,0.039999943,-0.03683544895505264,0.0024683450956626183,-0.010498865837704763,-0.002873438708335896,0.012197871347738686,0.005521996846659598,0.999996919559251,-3.353049006391473e-05,-0.002435521535058668,0.0004774752010771899
178.36666666670075,-0.0012330179,-0.7832774,0.00031432285,-2.3579469,0.0012744255,1.5693024,0.7842643,0.039999947,0.03999994,-0.0315312855309724,0.002560145398752191,-0.009656400971636003,-0.0030980612657930473,0.014130970300317004,0.005964190133615569,0.9999962589804893,-6.0719173161147346e-05,-0.0026829630121761733,0.0005291953169912583
178.38333333336743,-0.0013888397,-0.7831289,0.00034480725,-2.3581438,0.0014057932,1.5691172,0.78407127,0.039999947,0.03999994,-0.03655061314911112,0.002649625169777786,-0.010604501068067762,-0.0033310642789408235,0.01615410753767797,0.006424459859510622,0.9999954791203521,-8.996106104583504e-05,-0.0029481396100493845,0.0005849091422319991
178.4000000000341,-0.0015560024,-0.7829708,0.0003775088,-2.3583543,0.0015467152,1.5689187,0.78386414,0.039999947,0.03999994,-0.037663560994394274,0.0027376936175183973,-0.01091196946900741,-0.003571822889592558,0.01825326310273951,0.006902827087987247,0.9999945633858598,-0.00012132453689057416,-0.0032315238421609573,0.0006447734004914331
178.4166666667008,-0.0017348874,-0.78280276,0.0004125022,-2.3585782,0.0016975128,1.5687062,0.7836425,0.039999943,0.039999936,-0.03774596160772692,0.0028215068304822486,-0.011342840222283712,-0.0038203157574311624,0.020429946344467487,0.007399332273363634,0.9999934937726942,-0.00015488097887000153,-0.0035335281275032213,0.0007089450860897078
178.43333333336747,-0.0019258707,-0.78262436,0.000449861,-2.3588164,0.0018585027,1.5684791,0.7834059,0.039999936,0.03999993,-0.039996909674266945,0.002904121659268622,-0.011922943074438308,-0.004076218978130042,0.022685314322757097,0.007914026869632662,0.9999922485793209,-0.00019064330805752198,-0.0038551008428307798,0.0007775820821822102
178.45000000003415,-0.002129322,-0.7824352,0.0004896574,-2.359069,0.0020299968,1.5682374,0.7831538,0.039999932,0.039999925,-0.040816484342998116,0.0029843925052872944,-0.011859334782005071,-0.004340072488561679,0.025013631822825767,0.008446957646085955,0.9999908062479534,-0.00022877605486807352,-0.00419656384848639,0.0008508424945000903
178.46666666670083,-0.0023456053,-0.78223485,0.00053196243,-2.3593373,0.0022123007,1.5679805,0.78288585,0.03999993,0.03999992,-0.043000212142785266,0.0030622167605540997,-0.012698281754697227,-0.004610474297819632,0.027418637302093814,0.008998177710071002,0.9999891403891226,-0.0002692369349932275,-0.004558924018807389,0.0009288848622590443
178.4833333333675,-0.002575078,-0.78202313,0.0005768464,-2.3596218,0.0024057168,1.567708,0.78260154,0.03999992,0.03999991,-0.04453139253326466,0.0031347227177095315,-0.013234875866041662,-0.004888517596580667,0.029893543220599596,0.009568640724052759,0.999987223471581,-0.00031216525058248097,-0.00494282981869901,0.0010118694768640557
178.5000000000342,-0.0028180904,-0.7817996,0.00062437775,-2.3599222,0.0026105375,1.5674193,0.7823005,0.039999917,0.03999991,-0.04471275680546505,0.0032080354075944106,-0.013418295419787007,-0.00517341845296602,0.03243712436642991,0.010155808134726274,0.9999850269184034,-0.0003575842561497771,-0.005348660934556058,0.001099953956761684
178.51666666670087,-0.0030749869,-0.7815638,0.0006746238,-2.360239,0.0028270548,1.5671144,0.78198224,0.039999913,0.039999902,-0.04598195858454002,0.0032763595466481785,-0.013458633790830454,-0.005464832683957303,0.03504844013738892,0.010763230241089841,0.9999825194262719,-0.00040554821520577317,-0.005776885718882982,0.001193299594367594
178.53333333336755,-0.0033461035,-0.7813156,0.0007276504,-2.3605735,0.003055551,1.5667922,0.7816464,0.03999991,0.0399999,-0.04835558692282138,0.003339773449595176,-0.014750956583609032,-0.005762792774739926,0.037728519827197673,0.011388426537153754,0.9999796631390669,-0.0004561445531591985,-0.00622862737810766,0.001292068655066391
178.55000000003423,-0.0036317732,-0.7810547,0.00078352285,-2.3609257,0.0032963066,1.5664527,0.78129244,0.039999906,0.039999895,-0.04874645640080555,0.0034027522615272775,-0.01483289576325042,-0.0060670385629228996,0.04047061552875012,0.012032366762382486,0.9999764219881351,-0.0005094321879256968,-0.006704173899790234,0.001396423637216624
178.5666666667009,-0.003932318,-0.78078043,0.0008423038,-2.3612955,0.003549593,1.566096,0.7809203,0.0399999,0.039999887,-0.049219473018480286,0.0034636302793637818,-0.014554912245245966,-0.0063770560255638434,0.04327405670644967,0.01269514792773365,0.9999727582089114,-0.0005653246409089638,-0.007203723262804036,0.0015065255607903587
178.5833333333676,-0.0042480533,-0.78049284,0.00090405514,-2.3616838,0.003815676,1.5657209,0.78052926,0.03999989,0.03999988,-0.05110253843227941,0.0035151502661370402,-0.015796750047636365,-0.006694187886324549,0.04614275259157461,0.013376929595237256,0.9999686255578308,-0.0006240662955020666,-0.007728246939456568,0.001622541366024737
178.60000000003427,-0.00457929,-0.7801915,0.00096883764,-2.3620903,0.0040948153,1.5653275,0.78011894,0.039999884,0.03999987,-0.050697670390587035,0.003571070443942736,-0.015557387227671526,-0.0070162599503060565,0.049068672731216664,0.01407869541508181,0.9999639817362563,-0.0006856646381802925,-0.008277762166251696,0.001744633971623525
178.61666666670095,-0.004926329,-0.7798762,0.0010367103,-2.3625166,0.0043872674,1.5649154,0.779689,0.039999876,0.03999986,-0.05372316912293229,0.003615690264968229,-0.016641271136697,-0.007343303584242854,0.05205628842650114,0.014798891688753476,0.9999587727911696,-0.0007501586648042231,-0.008853358009846105,0.0018729740802414497
178.63333333336763,-0.0052894643,-0.77954626,0.0011077301,-2.362962,0.0046932767,1.5644842,0.77923924,0.039999876,0.03999986,-0.05323618084542847,0.003664024543193942,-0.01635688154681958,-0.007675310569614114,0.05509792478933982,0.01553853017619248,0.9999529491194534,-0.0008175327740725357,-0.00945516902909659,0.0020077266004387044
178.6500000000343,-0.005668982,-0.77920175,0.0011819544,-2.363427,0.0050130873,1.5640336,0.778769,0.039999876,0.03999986,-0.054034670681679664,0.003699688081946779,-0.01699943261537218,-0.00801259380534421,0.05819442806783515,0.016297794708595825,0.9999464556415495,-0.0008879525036319658,-0.010083596581144477,0.0021490626428092006
178.666666666701,-0.006065163,-0.7788425,0.0012594375,-2.3639126,0.0053469352,1.5635631,0.7782782,0.039999876,0.039999858,-0.05619861273742366,0.0037355385469176744,-0.01801578748064081,-0.008353713280980134,0.06134690075466742,0.017077727997312664,0.9999392289456008,-0.0009613747260725629,-0.010739518126292117,0.00229715579109248
178.68333333336767,-0.006478279,-0.778468,0.0013402319,-2.364419,0.0056950464,1.5630723,0.77776647,0.039999872,0.039999854,-0.05676352204895263,0.003771962728025863,-0.01816388259681112,-0.008699604880088481,0.06454800324977174,0.017876864714485935,0.9999312059309672,-0.001037790341259429,-0.011423362947868373,0.0024521777281396994
178.70000000003435,-0.006908595,-0.7780782,0.00142439,-2.3649461,0.0060576466,1.5625612,0.7772335,0.039999876,0.039999858,-0.05672487849859298,0.003797975036672779,-0.018400740213531108,-0.009049900594740728,0.06779707565354065,0.01869621925683116,0.9999223239773279,-0.0011172829129358157,-0.012135201320129215,0.00261430288830342
178.71666666670103,-0.007356368,-0.7776728,0.0015119623,-2.3654943,0.0064349514,1.5620295,0.7766788,0.03999988,0.039999858,-0.05727741379850659,0.0038232975408600484,-0.01866287701139946,-0.009404102513056567,0.07109476059309842,0.019536859746243786,0.9999125149195878,-0.0011999381486854366,-0.01287531085640676,0.002783707235944929
178.7333333333677,-0.007821847,-0.7772514,0.0016029977,-2.366064,0.0068271714,1.561477,0.7761022,0.03999988,0.039999858,-0.05895705224463477,0.003842231466691338,-0.01921626713832225,-0.009761683728288562,0.07444272934948998,0.020397383975978508,0.999901700655592,-0.0012857539535958648,-0.01364444487625732,0.0029605720468178927
178.7500000000344,-0.008305272,-0.776814,0.0016975433,-2.3666556,0.0072345105,1.560903,0.7755034,0.039999884,0.03999986,-0.05896833346539232,0.003853453628256979,-0.01987533604677072,-0.010122619430221098,0.07783319163077587,0.021278817135835872,0.9998898048563576,-0.0013747333897542804,-0.014442878583824715,0.003145077206580204
178.76666666670107,-0.0088068815,-0.7763602,0.0017956457,-2.3672693,0.0076571684,1.5603073,0.7748821,0.039999887,0.039999865,-0.05999354011456681,0.003865015269019327,-0.020345165289881173,-0.010486874813109257,0.08126746158879927,0.022181476417453088,0.9998767441443351,-0.00146693797213389,-0.01527109417387904,0.0033374084320249614
178.78333333336775,-0.009326898,-0.77589,0.0018973487,-2.3679056,0.0080953315,1.5596898,0.774238,0.039999887,0.03999986,-0.06077702069458013,0.0038705087822472374,-0.02083393252816368,-0.010853563681003271,0.08474255358230773,0.023106412312693968,0.9998624330439106,-0.0015623754004919022,-0.016129423611713066,0.0035377485175233613
178.80000000003443,-0.009865544,-0.7754031,0.0020026953,-2.3685648,0.008549187,1.5590504,0.7735709,0.039999887,0.03999986,-0.06124560130669199,0.0038760288516702813,-0.021065209345261238,-0.011223057103090166,0.0882572461258948,0.024052240762768295,0.9998467838974298,-0.0016610518819118953,-0.01701807813453333,0.0037462852559326768
178.8166666667011,-0.01042303,-0.77489924,0.002111728,-2.3692467,0.0090189185,1.5583886,0.7728804,0.039999895,0.03999987,-0.06111177625724995,0.003862684098708633,-0.02161425501918668,-0.011595264884860096,0.09181100725862854,0.025020122719724994,0.9998297028515866,-0.0017630714567902612,-0.017937386269341368,0.003963211900822235
178.8333333333678,-0.010999564,-0.7743783,0.0022244854,-2.3699517,0.009504691,1.5577041,0.7721661,0.039999887,0.039999858,-0.061929493914836264,0.0038653500827772955,-0.02210612898054798,-0.011968795707179316,0.09540206275154983,0.026011117171295818,0.9998110911186174,-0.0018685041044893408,-0.018887704794308256,0.004188720116482654
178.85000000003447,-0.01159534,-0.77384,0.0023410066,-2.37068,0.010006672,1.5569968,0.77142864,0.039999884,0.039999854,-0.062401301487446936,0.003846972564726988,-0.022462108193255226,-0.012343113807520484,0.0990269802662201,0.027023809628572558,0.9997908479970368,-0.001976920569692208,-0.019869301591177117,0.004422996801498802
178.86666666670115,-0.012210552,-0.7732842,0.00246133,-2.3714325,0.010525022,1.5562665,0.77066636,0.03999988,0.039999846,-0.06363008276277782,0.003828554165508308,-0.023189766936515532,-0.012722232374376172,0.10268684986639764,0.028060455165422323,0.9997688604763861,-0.0020890815349547337,-0.020882705802790575,0.004666257434261482
178.88333333336783,-0.012845377,-0.77271074,0.0025854902,-2.3722086,0.011059899,1.555513,0.76988006,0.039999872,0.03999984,-0.06278402359525259,0.003799910079312378,-0.02336807537812735,-0.013098494515043607,0.10637650953586383,0.029119270029029108,0.9997450261347632,-0.002204474578381697,-0.021927824645374107,0.00491869057336582
178.9000000000345,-0.013499993,-0.7721195,0.002713522,-2.373009,0.011611443,1.5547358,0.7690693,0.039999865,0.039999828,-0.06399117271171928,0.003770770017051152,-0.02433288294056979,-0.013476945356860247,0.11009767239574939,0.03020256744502587,0.999719221765005,-0.002323211502034273,-0.023005275876906855,0.005180502264915156
178.9166666667012,-0.014174564,-0.7715103,0.002845457,-2.373834,0.012179796,1.5539349,0.7682338,0.03999986,0.039999824,-0.0643479548225745,0.003737972666648841,-0.0245596344723209,-0.013855995462712892,0.1138467112542011,0.031308881894704675,0.9996913294181001,-0.002445376802886003,-0.024115198647161138,0.005451899923119
178.93333333336787,-0.014869253,-0.77088296,0.0029813282,-2.3746834,0.012765099,1.55311,0.7673734,0.03999986,0.039999824,-0.06433210375571541,0.003689534357359872,-0.02519203486637256,-0.014235007923857151,0.1176213816009356,0.032439377654620336,0.9996612241456088,-0.0025709093073446555,-0.025257850011459984,0.005733094961265948
178.95000000003455,-0.015584212,-0.7702373,0.0031211646,-2.375557,0.013367476,1.5522611,0.76648784,0.03999986,0.03999982,-0.0634073557881143,0.0036523774647892818,-0.025107210314589956,-0.014613872340123839,0.12141850478578936,0.033595169099389345,0.9996287892480034,-0.0026998714284374634,-0.026432978051079806,0.006024290181593587
178.96666666670123,-0.016319588,-0.7695733,0.003264995,-2.376456,0.013987051,1.5513879,0.76557696,0.03999986,0.03999982,-0.06572204498482836,0.0035934998678335828,-0.026401580155899218,-0.014992286686669576,0.1252447350059797,0.03477507263029088,0.9995938733546804,-0.0028322602441238002,-0.02764149069898184,0.006325713053485877
178.9833333333679,-0.01707552,-0.76889086,0.0034128474,-2.3773801,0.014623944,1.5504905,0.76464075,0.039999858,0.039999817,-0.0645134890650878,0.003537445765510513,-0.026462730415954816,-0.015369611856602183,0.1290885668670842,0.03598001437369748,0.9995563541950087,-0.002967993442125737,-0.028883013469914037,0.006637570052881898
179.0000000000346,-0.01785214,-0.76818967,0.0035647461,-2.378329,0.015278262,1.5495684,0.76367897,0.039999854,0.03999981,-0.06437550313920237,0.003475895998024652,-0.026864335175602605,-0.015746306832297753,0.13295512775683158,0.03721140991442341,0.9995160872846481,-0.003107108717563819,-0.030157824253580618,0.006960084115526187
179.01666666670127,-0.018649563,-0.7674698,0.0037207159,-2.3793037,0.01595011,1.5486217,0.7626913,0.039999858,0.039999813,-0.06549430912485832,0.0033912349450705877,-0.02780577652867766,-0.016121756982058748,0.13684160334736234,0.038467836215490825,0.9994729198104622,-0.0032496769746177007,-0.0314662877509891,0.007293483412074411
179.03333333336795,-0.019467909,-0.766731,0.0038807811,-2.3803039,0.016639587,1.5476501,0.76167774,0.03999985,0.0399998,-0.06510153991210466,0.0033195246386541997,-0.02802115582347664,-0.01649491037465866,0.14074405393493583,0.0397512143455144,0.9994267041433393,-0.0033956493991811384,-0.032808439428514795,0.007637991398618099
179.05000000003463,-0.02030729,-0.7659734,0.0040449616,-2.3813295,0.01734679,1.5466537,0.7606382,0.039999846,0.039999798,-0.06460880978980121,0.003237019379527962,-0.028487322675196936,-0.016865817646142006,0.14466212485417174,0.04106028512413118,0.999377293474879,-0.003544979313148557,-0.03418416345229749,0.007993833721172128
179.0666666667013,-0.021167815,-0.7651967,0.004213279,-2.3823814,0.018071806,1.545632,0.75957227,0.039999846,0.039999798,-0.06583517313807352,0.0031439801301403995,-0.02962186642554432,-0.017234851469103786,0.1485968815171703,0.04239637737843504,0.9993245071799671,-0.0036977668416771792,-0.0355941741261453,0.00836125816957343
179.083333333368,-0.022049569,-0.76440084,0.0043857517,-2.3834586,0.018814709,1.544585,0.75848013,0.03999984,0.039999787,-0.06389609930217421,0.003048419587840887,-0.029422289179215078,-0.01759993825414133,0.15254019579423844,0.04376010645859248,0.9992682048225469,-0.003853891584891922,-0.03703790483226499,0.0087404780196701
179.10000000003467,-0.022952652,-0.76358575,0.004562397,-2.384562,0.019575575,1.5435128,0.75736177,0.039999843,0.03999979,-0.06517191859998217,0.0029571817883730298,-0.03021912536285143,-0.017962635686510693,0.15649759714022868,0.04515075242545495,0.9992082068406521,-0.004013272786500853,-0.03851576839486163,0.009131736350929186
179.11666666670135,-0.023877144,-0.7627512,0.004743231,-2.385691,0.02035448,1.5424153,0.7562168,0.039999843,0.039999787,-0.06382863695846286,0.00284443642022212,-0.030376506046736473,-0.01832224379999895,0.16046468816584525,0.04657006697589575,0.999144351300891,-0.0041760272822700065,-0.040027548113585255,0.009535274074398551
179.13333333336803,-0.024823116,-0.7618975,0.0049282694,-2.3868473,0.021151481,1.5412924,0.75504524,0.03999984,0.039999783,-0.0662621078678427,0.0027151363382807783,-0.0318951305512849,-0.018677780391108616,0.16444151986591338,0.04801672379858012,0.9990764352907062,-0.0043421114834012635,-0.041573948744910806,0.009951346664480233
179.1500000000347,-0.025790641,-0.7610244,0.0051175235,-2.388029,0.021966645,1.540144,0.75384694,0.039999835,0.03999978,-0.06295384963508344,0.002599756509081338,-0.03151202594304792,-0.01902933032892625,0.16842235028185232,0.04949180387111542,0.99900431029944,-0.004511501462986186,-0.043154213458190295,0.010380183933554143
179.1666666667014,-0.026779784,-0.76013166,0.005311008,-2.3892379,0.022800017,1.5389696,0.7526218,0.03999983,0.039999772,-0.06523686513952853,0.002465793696212852,-0.03281463348727698,-0.01937571411562241,0.17241144286682025,0.0509965232753842,0.9989277530780104,-0.00468418566955139,-0.04476924925778514,0.010822054149965092
179.18333333336807,-0.027790586,-0.7592193,0.0055087344,-2.3904727,0.023651654,1.5377694,0.75136983,0.03999983,0.039999772,-0.06312914745674192,0.0023101082754014776,-0.03280358655890492,-0.01971720817978089,0.17639945638189353,0.05252937198217654,0.9988465994435509,-0.0048601483370184365,-0.046418472184941835,0.011277197267595695
179.20000000003475,-0.028823113,-0.7582875,0.0057107094,-2.3917346,0.02452159,1.5365435,0.7500911,0.03999983,0.039999772,-0.06438244225828171,0.0021864986678393414,-0.03395513877049172,-0.020053328310080658,0.18039078255613578,0.054091654924055176,0.9987606390539528,-0.005039254641980534,-0.048102248651873514,0.01174587007531894
179.21666666670143,-0.029877402,-0.75733584,0.005916945,-2.393023,0.025409853,1.5352918,0.74878526,0.03999983,0.03999977,-0.06315648760948367,0.0020385849262156627,-0.03386472233695148,-0.02038406965281936,0.18438147053013115,0.05568423704968415,0.998669683216757,-0.005221605329817284,-0.049820344678488525,0.012228324400280337
179.2333333333681,-0.030953482,-0.75636464,0.006127445,-2.394338,0.026316486,1.534014,0.74745256,0.039999824,0.03999976,-0.062410281819924585,0.0018560901531317411,-0.03478941143744141,-0.020708493560869574,0.1883697110129523,0.05730596283513597,0.9985735320293221,-0.005407062479862335,-0.0515727041467982,0.012724817987310283
179.2500000000348,-0.032051392,-0.75537366,0.006342217,-2.3956797,0.027241504,1.5327103,0.74609274,0.039999824,0.039999757,-0.06286278815872404,0.0017107964248877505,-0.035285137718865656,-0.021026684850202974,0.19235596182882575,0.058958650950606574,0.9984719692281216,-0.005595682946974312,-0.05335947366239298,0.013235617422177893
179.26666666670147,-0.033171155,-0.754363,0.006561264,-2.3970473,0.02818494,1.5313805,0.7447059,0.039999828,0.03999976,-0.060302361458264286,0.0015287921988177758,-0.035363517627429175,-0.021337898065822036,0.19633651668322205,0.06064085236258426,0.9983648165388608,-0.005787368557569667,-0.055180025221438764,0.013760969408699983
179.28333333336815,-0.034312796,-0.7533326,0.006784592,-2.3984423,0.029146794,1.5300252,0.74329174,0.03999983,0.039999764,-0.06240106537931389,0.0013674616362382985,-0.03636684093146769,-0.021642350951687095,0.20031576787268465,0.062353881866873205,0.9982518312219323,-0.0059822282898841445,-0.05703482499524519,0.01430115885193585
179.30000000003483,-0.035476305,-0.7522824,0.0070122024,-2.3998637,0.030127091,1.528644,0.7418509,0.039999824,0.039999753,-0.06051428381912416,0.0011418314836064355,-0.03666981326548857,-0.021937997302856053,0.20428634893288372,0.06409821517953879,0.9981328092758776,-0.00617987891983465,-0.058923599630697175,0.014856431272082764
179.3166666667015,-0.036661703,-0.75121266,0.0072440933,-2.4013116,0.031125825,1.5272369,0.74038225,0.039999824,0.039999753,-0.05949919548313698,0.0009765217119943673,-0.03718488791122354,-0.022227646198955488,0.208249992583745,0.0658731206496222,0.9980075458700963,-0.006380861452889548,-0.060845939748535076,0.015427073915179257
179.3333333333682,-0.03786896,-0.7501231,0.007480267,-2.4027867,0.032143,1.525804,0.73888665,0.03999982,0.03999975,-0.060474699621204664,0.0007280949702304779,-0.03808921984995717,-0.022505515295562543,0.21220672857416062,0.0676788948567276,0.997875784058803,-0.006584693048619492,-0.06280233956039048,0.016013355433072893
179.35000000003487,-0.039098103,-0.74901384,0.0077207237,-2.404288,0.03317861,1.5243454,0.73736453,0.03999982,0.039999746,-0.0581010348616573,0.0005588256833746058,-0.038063177463110165,-0.02277561666366932,0.2161509115041931,0.06951692454941258,0.997737336937625,-0.006791118939346626,-0.0647920680446722,0.01661550789660768
179.36666666670155,-0.040349085,-0.7478847,0.007965457,-2.4058168,0.03423263,1.5228604,0.73581517,0.039999824,0.03999975,-0.059790037547968744,0.000288696808899494,-0.03969795224445516,-0.023039053977816318,0.22008595834777905,0.07138629804204907,0.9975919042594041,-0.00700045889777019,-0.06681601583754498,0.017233866626891196
179.38333333336823,-0.04162191,-0.74673605,0.008214466,-2.4073718,0.035305053,1.5213487,0.73423874,0.039999828,0.03999975,-0.05685021314465466,6.681779890320427e-05,-0.0400047576625262,-0.023292114761346017,0.2240000636748042,0.07328784759998676,0.9974392902767446,-0.00721259463855788,-0.06887344250535012,0.017868676735175656
179.4000000000349,-0.04291654,-0.74556756,0.008467744,-2.4089532,0.03639586,1.519812,0.7326353,0.03999983,0.039999753,-0.05661134732413142,-0.00011636810206220455,-0.0392546374685665,-0.023535108287438322,0.22789955097633827,0.07522041692227957,0.9972792937687208,-0.007427445903479494,-0.07096369234392609,0.018520195366922284
179.4166666667016,-0.044232965,-0.7443796,0.008725287,-2.4105606,0.03750503,1.518249,0.73100495,0.039999843,0.039999764,-0.05505227976947413,-0.0003967185011843205,-0.04060890765136271,-0.023768028207130656,0.23178631906432967,0.07718511216597905,0.9971116612410746,-0.007644957428611293,-0.07308681878004213,0.0191887092737468
179.43333333336827,-0.04557112,-0.7431719,0.008987087,-2.4121952,0.03863252,1.5166605,0.7293475,0.039999854,0.039999772,-0.05642006557189383,-0.0006521262327313301,-0.04134935653457017,-0.023990216312939044,0.23565589316573593,0.07918259350771413,0.9969361152338458,-0.007865148320790116,-0.07524310762319569,0.019874514825382536
179.45000000003495,-0.046930976,-0.7419448,0.009253134,-2.4138565,0.039778315,1.515046,0.7276634,0.03999986,0.03999978,-0.05462778498634968,-0.0009250144121768916,-0.041966310686736286,-0.024200612299616772,0.23950373123976376,0.08121134318183566,0.9967524282195814,-0.008087809451135916,-0.07743213170717071,0.020577880258510914
179.46666666670163,-0.048312478,-0.74069816,0.009523418,-2.4155445,0.040942352,1.5134059,0.7259524,0.039999872,0.039999787,-0.05406040885727048,-0.0011752184279702899,-0.042283176934376776,-0.024400374874640376,0.2433308462177973,0.08327312572816627,0.9965603480960118,-0.008313001246955627,-0.07965372315469144,0.02129908450191151
179.4833333333683,-0.049715582,-0.739432,0.009797931,-2.417259,0.042124584,1.51174,0.72421455,0.03999987,0.039999783,-0.05300214146035653,-0.001447373391523163,-0.0428985986491659,-0.024588041674709238,0.24713522102876384,0.08536629436908376,0.9963596175352135,-0.008540664363669341,-0.08190774147265514,0.02203840929284523
179.500000000035,-0.051140223,-0.73814625,0.010076661,-2.4189992,0.04332497,1.5100486,0.7224501,0.039999865,0.03999978,-0.05103611894876625,-0.0017152164559851302,-0.04264159931295364,-0.0247628621998352,0.25091478571205333,0.0874914720746548,0.9961500265451916,-0.008770690893422929,-0.08419345033552124,0.022796107471809334
179.51666666670167,-0.05258634,-0.7368413,0.010359595,-2.420766,0.044543456,1.5083317,0.720659,0.039999865,0.039999776,-0.0514799368793728,-0.002039225578454734,-0.04415748014441334,-0.024925013216966413,0.2546718568484554,0.08964979359893062,0.9959312779359211,-0.009003015685256913,-0.08651111638325477,0.023572485647826748
179.53333333336835,-0.05405387,-0.7355171,0.0106467195,-2.4225588,0.045779977,1.5065897,0.7188417,0.039999858,0.03999977,-0.04922006657088751,-0.00228223450282547,-0.04359816658014992,-0.025074322234730384,0.2584006456606653,0.09183932159516209,0.995703169913947,-0.009237468891038936,-0.08885987893550344,0.024367776003822818
179.55000000003503,-0.0555427,-0.73417366,0.010938015,-2.4243777,0.047034487,1.5048221,0.71699774,0.039999854,0.03999976,-0.04916695826773232,-0.0026718338893776117,-0.04490057229322719,-0.025211126364778,0.26210557766167675,0.09406207115441535,0.995465396060357,-0.009474190920892044,-0.09123999183057027,0.02518231211681168
179.5666666667017,-0.057052772,-0.732811,0.011233472,-2.4262223,0.048306916,1.5030292,0.7151276,0.039999854,0.03999976,-0.04766570083736266,-0.0029579459319480084,-0.045041220725128284,-0.025332924144548005,0.2657812586021923,0.09631572577376095,0.9952177108260177,-0.00971297926720434,-0.0936510313668578,0.0260163490117184
179.5833333333684,-0.058584005,-0.7314293,0.01153307,-2.4280932,0.049597163,1.5012114,0.7132311,0.039999858,0.039999764,-0.047291749549027706,-0.003244946202600116,-0.04564149764110237,-0.025440792141674523,0.2694264926782828,0.09860129805567411,0.9949598512924741,-0.009953860964510846,-0.09609271257274313,0.026870161115428354
179.60000000003507,-0.0601363,-0.73002845,0.011836796,-2.4299896,0.050905153,1.4993687,0.7113085,0.039999858,0.03999976,-0.04547863778650019,-0.003573413749605528,-0.04568441943841872,-0.025533267448325375,0.27304011486189295,0.10091925611336136,0.9946915713159191,-0.010196712204856278,-0.0985645729031243,0.027744008032438292
179.61666666670175,-0.06170955,-0.7286087,0.012144625,-2.431911,0.052230835,1.4975009,0.70935994,0.039999865,0.03999977,-0.04368234513028035,-0.003943855170496918,-0.046099434843660525,-0.02561058817458392,0.27662246544065894,0.10326802893437648,0.9944126237391022,-0.01044144190737577,-0.10106614419627614,0.028638165732238045
179.63333333336843,-0.06330366,-0.7271703,0.012456538,-2.4338582,0.053574115,1.4956083,0.70738554,0.039999872,0.039999776,-0.043750234081740835,-0.0042902971745282376,-0.04701379771487879,-0.02567247185735709,0.28017335766453444,0.10564829618208196,0.9941227141647282,-0.01068799146990493,-0.10359739721362582,0.02955292389351076
179.6500000000351,-0.06491852,-0.7257131,0.012772515,-2.4358306,0.05493489,1.4936912,0.7053855,0.03999988,0.03999978,-0.04218354649507816,-0.004609416424075641,-0.04702885798151257,-0.02571784877360636,0.28368943473265756,0.1080603654120593,0.9938215956164163,-0.010936232010252287,-0.10615782824201059,0.030488529298711785
179.6666666667018,-0.066554025,-0.72423726,0.0130925365,-2.4378285,0.05631307,1.4917494,0.7033599,0.03999989,0.03999979,-0.04153236519919279,-0.004994880872623286,-0.04789750232656598,-0.02574769393823409,0.28716957531393794,0.11050271401211754,0.9935089740392091,-0.01118611915651062,-0.10874733982502538,0.031445275046578264
179.68333333336847,-0.06821005,-0.7227428,0.013416579,-2.439851,0.057708558,1.4897833,0.7013088,0.039999902,0.0399998,-0.03918933553810344,-0.005325972740364421,-0.04746656099774427,-0.025760665434687496,0.29061103212963135,0.1129755763389733,0.9931846321516616,-0.011437628702898186,-0.11136512190514623,0.032423397886016954
179.70000000003515,-0.069886506,-0.7212301,0.013744616,-2.4418983,0.059121262,1.487793,0.6992324,0.03999992,0.039999817,-0.038242950694011846,-0.005689330814225013,-0.048208076117250975,-0.02575571550150718,0.2940159023547766,0.11547951930926713,0.9928483021113664,-0.011690615216111238,-0.11401083446622141,0.03342316763506573
179.71666666670183,-0.07158321,-0.719699,0.014076623,-2.4439707,0.06055105,1.4857788,0.69713104,0.039999936,0.03999983,-0.037800090395778696,-0.006089770768461303,-0.04857500760024891,-0.02573374094450641,0.29738310094876347,0.11801278202963325,0.9924996974777422,-0.011944939151419913,-0.11668428506992996,0.03444483347293682
179.7333333333685,-0.07330006,-0.71815,0.014412576,-2.446068,0.061997842,1.4837406,0.69500446,0.039999943,0.03999984,-0.03650643798338571,-0.006503897562459143,-0.04942342115006326,-0.02569412848719453,0.30070981286084575,0.1205759638560486,0.9921385360939331,-0.012200706401680951,-0.11938517592644268,0.03548869861941557
179.7500000000352,-0.07503693,-0.7165828,0.01475245,-2.4481895,0.06346149,1.4816785,0.6928532,0.039999966,0.039999858,-0.034401571835207534,-0.006828917886763514,-0.04895765385373174,-0.025635185545325775,0.30399308898386207,0.12316862078092074,0.991764583476934,-0.012457656352577487,-0.12211286728352716,0.03655496413375811
179.76666666670187,-0.07679365,-0.7149979,0.015096215,-2.4503355,0.06494191,1.4795929,0.69067734,0.039999984,0.039999876,-0.03357079910220051,-0.007281328953778754,-0.04970499642935611,-0.025557800578367915,0.3072342466754394,0.1257897288437321,0.9913775772672405,-0.012715756309385408,-0.12486691142107378,0.03764390077261583
179.78333333336855,-0.0785701,-0.7133951,0.015443839,-2.4525056,0.06643896,1.4774837,0.688477,0.04,0.039999902,-0.032170945698006825,-0.007637221786105028,-0.04986459128109022,-0.025461605912261057,0.31043261182140947,0.12843913789683922,0.9909772328622682,-0.012974942916862346,-0.12764703617151665,0.03875576036634319
179.80000000003523,-0.08036611,-0.71177447,0.015795298,-2.4546993,0.067952484,1.4753515,0.68625253,0.04,0.039999902,-0.03045658808593643,-0.008011872428898698,-0.04960885865241682,-0.025345421865698867,0.3135839383214962,0.13111699210599803,0.990563320911166,-0.013235020118366785,-0.13045255940339368,0.039890741444761735
179.8166666667019,-0.08218154,-0.7101366,0.016150566,-2.4569166,0.069482416,1.4731963,0.6840039,0.04,0.039999902,-0.0288353536624264,-0.008475908303864563,-0.050078665065189654,-0.02521019322757488,0.316691610812457,0.13382195398960872,0.9901356066609077,-0.01349605188353924,-0.1332828113910185,0.04104910709746631
179.83333333336859,-0.08401622,-0.7084814,0.016509602,-2.4591577,0.071028575,1.4710183,0.6817315,0.04,0.039999895,-0.028361071710714114,-0.008870503502234062,-0.05057913175168238,-0.02505421865433176,0.31975471585859044,0.13655408906464547,0.989693784497052,-0.013757799318987261,-0.13613769299402823,0.04223108371880974
179.85000000003527,-0.08586998,-0.70680887,0.016872378,-2.4614222,0.072590865,1.4688178,0.6794355,0.04,0.039999906,-0.026599260701631877,-0.009299855978721697,-0.05048755339258637,-0.024878288263992285,0.3227690378848882,0.13931289694901766,0.9892376129834924,-0.01402024080344426,-0.13901658939125544,0.043436917254318835
179.86666666670195,-0.08774267,-0.7051191,0.017238863,-2.4637098,0.07416911,1.4665948,0.677116,0.04,0.039999902,-0.025280256338500173,-0.009698497301982578,-0.050738345413536834,-0.024681446491830378,0.3257352043134981,0.142096994725929,0.9887668158552143,-0.01428329691928264,-0.14191915230684773,0.044666827749037706
179.88333333336863,-0.089634106,-0.7034126,0.017609017,-2.4660199,0.07576317,1.464349,0.6747732,0.04,0.03999991,-0.02266656496896502,-0.0101633251069419,-0.05096306797469641,-0.024463261170752343,0.32864976578882005,0.14490680081588314,0.9882811771088843,-0.014546886652288765,-0.144844617863238,0.04592101628945081
179.9000000000353,-0.09154413,-0.70168936,0.017982813,-2.4683528,0.07737291,1.4620816,0.6724076,0.04,0.03999992,-0.022380806806832076,-0.010527374954746871,-0.05084932543450993,-0.024223028027488894,0.33151602247943335,0.14774108155360835,0.987780447247194,-0.014810777012297589,-0.14779248827713187,0.04719967509717715
179.91666666670199,-0.09347255,-0.69994956,0.018360212,-2.4707084,0.07899818,1.4597921,0.67001915,0.04,0.039999947,-0.02088995299622809,-0.011018707909912079,-0.05129146341593671,-0.0239623360538216,0.3343308538052566,0.15059950102911107,0.9872643455023518,-0.015075023945866054,-0.1507624261257561,0.04850305785742063
179.93333333336867,-0.095419176,-0.69819325,0.018741189,-2.4730854,0.08063882,1.4574813,0.66760814,0.04,0.03999997,-0.018044566690456065,-0.011386927877597708,-0.05035612139550061,-0.023679125724924213,0.33709258311018153,0.1534802103312,0.9867327158981284,-0.015339487742868592,-0.15375334067572247,0.04983129260961537
179.95000000003535,-0.097383834,-0.69642067,0.0191257,-2.475485,0.082294665,1.4551488,0.6651747,0.04,0.03999997,-0.01860689759949352,-0.011899792407692178,-0.0518114102910916,-0.02337345011012376,0.3398056816923019,0.1563846015272518,0.9861851847387574,-0.015604092788979522,-0.15676550680258902,0.05118466144211113
179.96666666670203,-0.09936629,-0.6946322,0.0195137,-2.4779065,0.08396555,1.4527951,0.66271925,0.04,0.039999973,-0.015830903252700423,-0.012321271544078055,-0.0512022921169919,-0.023044785624520628,0.3424596295514814,0.15930928019141075,0.9856215955843765,-0.01586871666016763,-0.15979785735500315,0.052563285038295625
179.9833333333687,-0.10136641,-0.69282776,0.01990516,-2.4803498,0.08565132,1.4504207,0.6602421,0.04,0.039999966,-0.0151632368515342,-0.012731392817832282,-0.05133253522389136,-0.022693423217315975,0.34506089589557976,0.16225526905202659,0.9850416819397888,-0.01613315950554705,-0.16285002114658936,0.05396736623327071
180.00000000003539,-0.10338398,-0.6910076,0.020300033,-2.482814,0.08735182,1.4480253,0.6577433,0.04,0.03999997,-0.01260838775545281,-0.013171603730029874,-0.05110472603517824,-0.02231904434096449,0.34760438342895206,0.1652216931584086,0.984445229862857,-0.016397439196292128,-0.16592129693978594,0.05539708123981056
180.01666666670206,-0.105418734,-0.68917197,0.020698285,-2.4852986,0.08906688,1.4456096,0.655223,0.04,0.039999977,-0.010315883088751754,-0.013635452230639084,-0.050377921007016546,-0.02192166510889476,0.35009244504126746,0.1682066283657948,0.9838320872311435,-0.016661536637047208,-0.1690106655067665,0.056852548546779395
180.03333333336874,-0.10747055,-0.68732107,0.021099875,-2.4878042,0.0907963,1.4431736,0.6526818,0.04,0.039999977,-0.010133541347445707,-0.014028396471803262,-0.05109708471420227,-0.02149938246971453,0.3525268899181716,0.1712107720258971,0.9832019572610166,-0.016925145992777637,-0.17211798687108762,0.05833394609207642
180.05000000003542,-0.109539166,-0.68545485,0.021504758,-2.4903302,0.09253991,1.4407176,0.6501197,0.04,0.039999988,-0.008501295905838369,-0.014518806822494401,-0.05094229403912465,-0.021054627041238505,0.35490413113799385,0.17423165217937328,0.9825545928077123,-0.017188323480784896,-0.1752427844485617,0.05984145876485236
180.0666666667021,-0.1116244,-0.6835737,0.021912899,-2.4928775,0.09429757,1.4382418,0.64753705,0.04,0.03999999,-0.008116801217949998,-0.015023291251188564,-0.051489643456115175,-0.020584373494462085,0.35722210207687444,0.17726947766485043,0.9818897295859277,-0.017450881572923606,-0.1783847004135223,0.061375274536083095
180.08333333336878,-0.113725975,-0.68167806,0.022324253,-2.4954438,0.09606902,1.4357469,0.6449342,0.04,0.039999995,-0.003686697907356873,-0.015309129520236359,-0.04960695226876588,-0.020090163776255138,0.35947551074583367,0.1803224770004479,0.9812073665071401,-0.017712755176741066,-0.18154202068678058,0.06293533936614644
180.10000000003546,-0.11584374,-0.67976767,0.022738783,-2.4980302,0.09785412,1.4332328,0.6423111,0.04,0.039999995,-0.00424046675153722,-0.015819164300109184,-0.05055932251403217,-0.019571745358464704,0.36167543092950727,0.18339043503543245,0.9805071253354111,-0.017973907227488782,-0.1847150108689884,0.06452193878934046
180.11666666670214,-0.11797744,-0.67784303,0.023156434,-2.5006363,0.0996527,1.4306997,0.63966846,0.04,0.04,-0.002449568119744505,-0.016308351396308873,-0.050448067307584665,-0.01902794323717172,0.36381415413715773,0.1864715432468857,0.9797888267123593,-0.018234069221291806,-0.1879029425208536,0.06613514921171733
180.13333333336882,-0.12012684,-0.67590415,0.023577161,-2.503261,0.10146455,1.4281478,0.6370062,0.04,0.04,0.0002335564210032004,-0.016674309031972784,-0.049485932500359375,-0.01846008144536744,0.3658900719239328,0.1895651367037588,0.9790523261931683,-0.018493330683372368,-0.1911048905213549,0.06777507000957395
180.1500000000355,-0.12229173,-0.6739514,0.024000926,-2.5059052,0.10328944,1.4255776,0.6343249,0.04,0.04,0.0005346174343223709,-0.0171194289271967,-0.049837135035613045,-0.017865609287515127,0.3679062935516785,0.19267143377265195,0.9782973865616328,-0.018751432872994845,-0.19432047101382124,0.0694417868207281
180.16666666670218,-0.12447184,-0.6719851,0.02442768,-2.5085678,0.10512723,1.4229895,0.6316247,0.04,0.04,0.0028585077968656947,-0.01757874880175675,-0.04920848595082461,-0.01724704778375001,0.36985865502110926,0.19578716543964175,0.9775238750725301,-0.01900835243242999,-0.19754876109749323,0.07113538634065568
180.18333333336886,-0.12666701,-0.6700049,0.02485738,-2.5112488,0.10697771,1.4203833,0.6289059,0.04,0.04,0.0038355740128004356,-0.017962964535866294,-0.04903113447471963,-0.016602792064899036,0.3717506637022574,0.19891326695745548,0.9767315214556993,-0.01926394817790739,-0.2007895350176169,0.0728560081451267
180.20000000003554,-0.12887691,-0.6680117,0.025289983,-2.5139472,0.10884064,1.4177598,0.6261687,0.04,0.04,0.006948323863276151,-0.018360429610019685,-0.04795378959221441,-0.015933831250081937,0.3735755739867237,0.20204510962971597,0.9759203241601014,-0.019518217028543415,-0.20404133095176938,0.07460358810874701
180.21666666670222,-0.13110137,-0.66600525,0.02572543,-2.5166645,0.110715844,1.4151189,0.6234135,0.04,0.04,0.0056444284024737,-0.01886822717930073,-0.0491339030771476,-0.015238497751388053,0.37534308872287264,0.20518547067328494,0.975089863144209,-0.019770955584812296,-0.20730463688488848,0.07637837151115277
180.2333333333689,-0.13334006,-0.66398615,0.026163675,-2.5193982,0.11260313,1.412461,0.6206406,0.04,0.04,0.01050324850013773,-0.01921603234807251,-0.04696029679598368,-0.014517756646492588,0.3770390716591913,0.2083304682958546,0.9742402390600029,-0.020022158775630256,-0.2105775892693036,0.07818023184795654
180.25000000003558,-0.13559277,-0.66195434,0.026604673,-2.5221493,0.11450225,1.4097866,0.6178504,0.04,0.04,0.01005245907574892,-0.019633874750069752,-0.04743957132324894,-0.01377062561349933,0.3786762520526476,0.211481623873422,0.9733711564949529,-0.0202715722521162,-0.21386016995029677,0.08000926678163779
180.26666666670226,-0.13785924,-0.6599102,0.027048375,-2.5249174,0.11641301,1.4070958,0.6150431,0.04,0.04,0.011964220372218115,-0.020052701916911664,-0.04687318076359581,-0.012998995421501972,0.3802467166033513,0.2146351969366459,0.9724824910894808,-0.020519235896391742,-0.21715156625625592,0.08186551627566381
180.28333333336894,-0.1401392,-0.65785384,0.027494736,-2.5277016,0.1183352,1.4043888,0.6122189,0.04,0.04,0.013972978399534597,-0.02043424296646612,-0.04611593904546574,-0.012200991702977435,0.3817530984570223,0.21779090768091566,0.9715741145586381,-0.020765073489330165,-0.22045103224606538,0.08374899416844045
180.30000000003562,-0.14243247,-0.6557857,0.027943697,-2.5305014,0.120268606,1.4016664,0.6093785,0.04,0.04,0.01618705359351935,-0.020672066412615042,-0.04480118599823335,-0.01137758185712004,0.3831935658161365,0.22094645112779604,0.9706460284936383,-0.02100880381826286,-0.2237573495624164,0.0856595940245773
180.3166666667023,-0.14473872,-0.6537057,0.028395213,-2.5333173,0.122212976,1.3989285,0.6065221,0.04,0.04,0.016122953170349952,-0.0212015313677566,-0.045492402755265005,-0.010528263119226666,0.3845730726042951,0.22410461023855444,0.9696979116870726,-0.021250383788713974,-0.2270706325231466,0.08759742635546285
180.33333333336898,-0.14705771,-0.65161437,0.028849233,-2.536149,0.12416813,1.3961754,0.6036497,0.04,0.04,0.01802869363618509,-0.021588370603201068,-0.04483231877239202,-0.009654270894894387,0.38588559975754055,0.2272601917470061,0.9687296706610813,-0.02148984920876237,-0.2303900377963604,0.08956250357180379
180.35000000003566,-0.14938915,-0.64951175,0.029305698,-2.538996,0.12613381,1.3934075,0.6007618,0.04,0.04,0.01962782027049581,-0.021919241194738592,-0.0439190679502266,-0.008753858929531927,0.387129667063305,0.23041189154660355,0.9677412184432879,-0.021727043255918288,-0.23371477627208187,0.09155475448793896
180.36666666670234,-0.15173276,-0.6473981,0.029764563,-2.5418575,0.12810983,1.3906251,0.5978587,0.04,0.04,0.021635294324284793,-0.022243830372761786,-0.042859893621882694,-0.00782788102875219,0.38830670729887395,0.2335593413634268,0.9667325035542687,-0.021961871390284427,-0.23704393841284585,0.09357410987265437
180.38333333336902,-0.1540883,-0.64527386,0.030225767,-2.544734,0.13009597,1.3878284,0.5949413,0.04,0.04,0.02223181871896518,-0.022700195558902903,-0.04321564882278084,-0.006875276999817687,0.38942003404646836,0.23670349857563272,0.9657033166975616,-0.022193985982686813,-0.24037728653152482,0.09562055859108178
180.4000000000357,-0.15645555,-0.6431391,0.030689258,-2.5476246,0.1320919,1.385018,0.5920091,0.04,0.04,0.024359465273504632,-0.022773949712374952,-0.041508049697480676,-0.0059000778353323485,0.39046261487735023,0.23983876434288515,0.9646536906141516,-0.022423653305402847,-0.2437136046351584,0.09769399097525558
180.41666666670238,-0.15883419,-0.6409942,0.031154988,-2.5505292,0.13409747,1.3821942,0.58906317,0.04,0.04,0.025442581731027758,-0.023266799269752725,-0.041247316088277586,-0.004898716064393974,0.39144015227097684,0.2429655223682868,0.963583488365058,-0.02265045488761615,-0.2470524398091161,0.0997943376548657
180.43333333336906,-0.16122392,-0.63883924,0.031622898,-2.5534472,0.1361124,1.3793567,0.5861033,0.04,0.04,0.02735605185397727,-0.0235711624428675,-0.04047220451874889,-0.003874792407201011,0.392350513425527,0.24608202733390094,0.9624926142738502,-0.022874562553607224,-0.2503931308812103,0.10192154759311495
180.45000000003574,-0.16362442,-0.6366747,0.03209294,-2.5563786,0.13813657,1.3765069,0.58312994,0.04,0.04,0.028392650484510007,-0.023906431188908117,-0.03933266099830357,-0.002823871691387661,0.3931924173117401,0.24918970093823278,0.9613810934773599,-0.02309586113721625,-0.25373463334738094,0.10407550212550669
180.46666666670242,-0.16603546,-0.63450074,0.03256506,-2.559324,0.14016965,1.3736445,0.58014363,0.04,0.04,0.028434510935415602,-0.024304244608876202,-0.040016458120328835,-0.0017486273157192311,0.3939687979515018,0.25228321947332083,0.9602486478294813,-0.023314086770676062,-0.2570770571401428,0.10625617342943436
180.4833333333691,-0.16845685,-0.63231736,0.033039197,-2.5622807,0.14221145,1.3707696,0.5771443,0.04,0.04,0.032855010698251697,-0.024231729013297898,-0.03674330097470646,-0.0006497531127039741,0.39467288311835186,0.2553628561047587,0.9590955133891691,-0.023529396278167237,-0.26041863430045725,0.1084633514908865
180.50000000003578,-0.17088816,-0.6301249,0.03351531,-2.5652492,0.14426167,1.3678833,0.5741328,0.04,0.04,0.03284727463246373,-0.024632327722502734,-0.03645012346553678,0.00047404768030154254,0.3953147068472087,0.25842708769223954,0.9579216154885736,-0.023741524463393136,-0.26375885677937744,0.11069681145521382
180.51666666670246,-0.17332913,-0.627924,0.033993315,-2.568232,0.14632006,1.3649852,0.5711094,0.04,0.04,0.031117654508339143,-0.025238184367668004,-0.03888333313368797,0.0016213911635190176,0.3958909386846714,0.2614756631179039,0.9567264937836151,-0.023950252869554232,-0.2670984664129816,0.11295667629595077
180.53333333336914,-0.17577954,-0.62571454,0.034473173,-2.571223,0.14838636,1.3620759,0.5680743,0.04,0.04,0.039466029335577524,-0.024688191913538327,-0.031869705726539355,0.0027913147034049623,0.3963880645726104,0.26450418740719356,0.9555109237548945,-0.024155840982497193,-0.2704340481090045,0.11524233403950575
180.55000000003582,-0.17823905,-0.62349707,0.034954835,-2.574228,0.15046039,1.3591558,0.5650278,0.04,0.04,0.03311624864612561,-0.0257753051708276,-0.03729761658691766,0.003985514144598343,0.3968340066568662,0.2675161513200431,0.9542740512691239,-0.024357938622790874,-0.2737676942994885,0.1175541384146204
180.5666666667025,-0.18070737,-0.6212716,0.03543823,-2.577241,0.15254192,1.356225,0.56197053,0.04,0.04,0.041490632361007584,-0.02525587040863725,-0.030477773318104973,0.0052017980115841855,0.39719985395757196,0.2705043200672329,0.9530166574607997,-0.024556588635933498,-0.2770961472824022,0.11989140802434374
180.58333333336918,-0.18318418,-0.6190386,0.035923287,-2.5802653,0.15463063,1.3532848,0.5589027,0.04,0.04,0.03782627697008767,-0.025783617264228675,-0.0328527183463434,0.006440233925478725,0.39751112415792494,0.273472850023988,0.9517383309606123,-0.02475162946615498,-0.28042007571151273,0.12225419157242626
180.60000000003586,-0.18566918,-0.61679816,0.036409978,-2.5833004,0.15672633,1.3503344,0.55582464,0.04,0.04,0.03963938253996879,-0.026153653262096788,-0.03240729798594799,0.007701422316589893,0.3977544056086699,0.2764181271092327,0.9504389443099877,-0.024943006594508536,-0.2837392050857512,0.12464238066664389
180.61666666670254,-0.18816212,-0.6145507,0.036898237,-2.586343,0.15882877,1.347375,0.5527367,0.04,0.04,0.04409240236764589,-0.025767619861276347,-0.027810652271986758,0.008984111362189032,0.3979264171617926,0.2793365316475167,0.9491190909082792,-0.02513077014002229,-0.2870510672859954,0.12705542269254738
180.63333333336922,-0.19066265,-0.6122964,0.037387997,-2.589395,0.16093765,1.3444057,0.5496396,0.04,0.04,0.04295685352868617,-0.026390254676857128,-0.029959785181321585,0.010287221461836332,0.39804417435018546,0.2822298580415371,0.9477782756530222,-0.025314629239917313,-0.2903566490036067,0.1294933439448751
180.6500000000359,-0.19317056,-0.61003554,0.0378792,-2.5924592,0.16305274,1.3414283,0.5465333,0.04,0.04,0.039964539154802026,-0.02667278790154798,-0.03098609649015982,0.011612070783007036,0.39809033226636276,0.2850951741787122,0.9464163001772031,-0.025494433295246612,-0.2936559381134653,0.13195609360900715
180.66666666670258,-0.19568549,-0.6077682,0.03837179,-2.595531,0.1651738,1.338443,0.5434181,0.04,0.04,0.04599091685086876,-0.02630302932539047,-0.025740122550110822,0.012956113241195055,0.3980613303657255,0.287929081540677,0.9450337826648516,-0.02567037969334969,-0.2969465199573734,0.1344430939608522
180.68333333336926,-0.19820714,-0.60549504,0.03886571,-2.5986102,0.1673005,1.3354498,0.54029477,0.04,0.04,0.04734178683574175,-0.026426037885815545,-0.02516191472679008,0.01431987686208118,0.3979726554737936,0.29073275659366304,0.9436307715944688,-0.025842260725229473,-0.30022782421070004,0.13695399968728775
180.70000000003594,-0.2007352,-0.60321605,0.039360896,-2.601697,0.16943268,1.332449,0.5371633,0.04,0.04,0.04742766204828275,-0.026651274513127265,-0.02465477089845791,0.01570332687315945,0.3978233145238143,0.2935057156152213,0.9422071849679438,-0.026010109724600664,-0.3034995818327618,0.13948870425319757
180.71666666670262,-0.20326929,-0.6009317,0.039857276,-2.604791,0.17157002,1.3294405,0.53402436,0.04,0.04,0.04881719366645054,-0.026758459653727917,-0.02369760736422588,0.017105782343410203,0.3976096958132944,0.2962449952426205,0.9407630980615833,-0.026173811402227253,-0.3067611727745702,0.1420468507226492
180.7333333333693,-0.20580922,-0.5986421,0.040354807,-2.6078925,0.1737123,1.3264248,0.5308782,0.04,0.04,0.04870283480447046,-0.026879007483858464,-0.02335316202677351,0.01852639746926163,0.39733299373890496,0.29894864872283855,0.9392984533453221,-0.02633323012360482,-0.31001232393819717,0.14462826674195234
180.75000000003598,-0.20835464,-0.5963476,0.04085342,-2.6110015,0.17585923,1.323402,0.5277253,0.04,0.04,0.04964503428810385,-0.026996165942792805,-0.022626913475276567,0.01996490004554692,0.39698823561191265,0.301615298364517,0.9378132664024157,-0.026488281172584133,-0.3132526067189828,0.1472326482269339
180.76666666670266,-0.2109052,-0.5940485,0.04135307,-2.614117,0.17801058,1.3203738,0.524566,0.04,0.04,0.05108015794261789,-0.026773498609258817,-0.019837113676601792,0.021420265475798547,0.3965752491338248,0.3042432508545155,0.9363079827564507,-0.026638928702285927,-0.31648044209312687,0.1498594630868523
180.78333333336934,-0.21346062,-0.59174496,0.04185368,-2.6172369,0.18016605,1.3173392,0.5214006,0.04,0.04,0.0538508082052358,-0.026617237927976933,-0.01789971761602116,0.022891744185311327,0.3961013548719809,0.306832875666346,0.9347827396218311,-0.026785273794510685,-0.319695125053275,0.1525083795403645
180.80000000003602,-0.21602066,-0.5894375,0.042355206,-2.620362,0.18232541,1.3143,0.51822954,0.04,0.04,0.05335024072357086,-0.026559793519759234,-0.016883731449424122,0.024379222762453134,0.3955692100047242,0.30938194053127116,0.9332377569607302,-0.026927076283288547,-0.32289581471797313,0.15517897532641337
180.8166666667027,-0.2185849,-0.5871262,0.042857565,-2.623493,0.18448836,1.3112558,0.5150533,0.04,0.04,0.05326206433178271,-0.026792146345901158,-0.017072138977602958,0.025881637522144577,0.394981578121792,0.31189145593337886,0.9316728939548776,-0.027064294078429516,-0.32608262706187213,0.157871032758412
180.83333333336938,-0.22115307,-0.58481145,0.04336071,-2.62663,0.18665467,1.3082068,0.5118723,0.04,0.04,0.053302674127109206,-0.026955139036208275,-0.01706847320831484,0.027397973248484087,0.394330840047736,0.3143575712614422,0.9300880936442593,-0.02719674631685433,-0.3292554631568472,0.16058429260775878
180.85000000003606,-0.22372484,-0.5824933,0.043864585,-2.6297696,0.18882404,1.3051533,0.5086867,0.04,0.04,0.057746929553781357,-0.026241909089630422,-0.012074464238454041,0.028927214617554,0.3936122630701917,0.31677792324081006,0.928484071668763,-0.02732471201632091,-0.332412245401341,0.16331805741515257
180.86666666670274,-0.22629991,-0.5801726,0.04436911,-2.6329143,0.19099623,1.3020958,0.505497,0.04,0.04,0.05525499419432034,-0.02669394494926175,-0.014228530999915723,0.03047053843100274,0.3928412330554616,0.3191542149321604,0.9268605616194479,-0.027447941570112856,-0.335553480386257,0.16607218797473353
180.88333333336942,-0.22887795,-0.57784885,0.044874232,-2.6360621,0.19317101,1.2990348,0.5023035,0.04,0.04,0.05735016575876273,-0.026289755784224267,-0.010952620147830494,0.032026180748600974,0.3920073091042438,0.32148239392705485,0.9252179344474657,-0.027566451669614703,-0.33867806775901166,0.1688461753731308
180.9000000000361,-0.23145865,-0.575523,0.045379896,-2.639214,0.1953481,1.2959712,0.49910665,0.04,0.04,0.05696010236158067,-0.02632003872816424,-0.010928496015139011,0.03359314211313655,0.3911162567014406,0.3237627382596564,0.9235563221503895,-0.027680111961951533,-0.34178557005047805,0.17163960884099402
180.91666666670278,-0.2340417,-0.57319516,0.045886032,-2.6423678,0.19752716,1.2929041,0.495907,0.04,0.04,0.0596252032903255,-0.025933560480646822,-0.008431820713139526,0.0351703622729983,0.39016667348486544,0.32599349434389285,0.9218760253079361,-0.02778894662092952,-0.3448751741599151,0.1744519494196294
180.93333333336946,-0.23662679,-0.5708654,0.04639259,-2.6455245,0.19970796,1.2898346,0.49270487,0.04,0.04,0.0585647125580957,-0.025988297792042814,-0.00831843202460103,0.036758743148047404,0.38916161240843505,0.32817544062948445,0.9201770545393211,-0.027892856850402686,-0.3479467664748263,0.17728289408675343
180.95000000003614,-0.23921362,-0.56853426,0.04689949,-2.6486833,0.20189023,1.2867634,0.4895007,0.04,0.04,0.05954015762381637,-0.02561969366118716,-0.006337293381664111,0.03835553730892978,0.38809782676740184,0.3303049277178292,0.9184598223969742,-0.027991761074369,-0.3509993259706233,0.18013186592783123
180.96666666670282,-0.24180184,-0.56620175,0.047406685,-2.6518433,0.20407368,1.2836905,0.4862947,0.04,0.04,0.060632702459417764,-0.025387040368381186,-0.004799520769616095,0.03995955297003757,0.38697926549376566,0.3323820482049833,0.9167245096567296,-0.02808578014315509,-0.3540323868424098,0.18299844648260166
180.9833333333695,-0.2443911,-0.5638684,0.047914106,-2.6550047,0.20625812,1.2806158,0.48308727,0.04,0.04,0.06075550686246434,-0.025421785211134085,-0.004390704524859235,0.04157161917355742,0.38580877924326007,0.3344060078640976,0.9149712252091465,-0.02817485522507458,-0.35704568844950835,0.1858822501798809
181.00000000003618,-0.24698111,-0.56153435,0.0484217,-2.6581674,0.20844322,1.2775409,0.47987896,0.04,0.04,0.06062843422425246,-0.02496076986307494,-0.0025424541722940397,0.043191194237597486,0.3845802648568587,0.33637352902343376,0.9132003619738953,-0.028258829405415433,-0.3600383894071652,0.18878266764848037
181.01666666670286,-0.2495716,-0.5592,0.04892939,-2.661331,0.21062873,1.2744656,0.47667003,0.04,0.04,0.06121203849456247,-0.024809769814734817,-0.00188065177620933,0.04481504444902987,0.3833011689510002,0.3382860020084814,0.9114120444842958,-0.028337729133761955,-0.3630102344650366,0.1916993165093098
181.03333333336954,-0.2521622,-0.5568657,0.049437113,-2.6644943,0.21281439,1.2713901,0.473461,0.04,0.04,0.062496460756511496,-0.024419922053961485,0.00030661826887490307,0.04644436914327989,0.38196754527860094,0.3401414207094049,0.9096067022496678,-0.02841155240762071,-0.3659603580764689,0.1946315679143953
181.05000000003622,-0.25475258,-0.5545315,0.049944818,-2.6676576,0.21499988,1.2683148,0.4702522,0.04,0.04,0.062086818736206695,-0.024212913547774773,0.0008238539886296081,0.04807792851156886,0.3805845002350481,0.34193958711724876,0.9077844328535725,-0.028480256101616978,-0.36888864470355315,0.1975790127768632
181.0666666667029,-0.25734246,-0.5521977,0.05045244,-2.6708205,0.217185,1.26524,0.46704403,0.04,0.04,0.06259071367598068,-0.02397052835058644,0.0020224801273727167,0.04971465679725218,0.37914847878059665,0.3436788895844102,0.9059454655377265,-0.028543801657322246,-0.37179469994330394,0.200541182684874
181.08333333336958,-0.25993153,-0.5498648,0.050959915,-2.6739829,0.2193694,1.2621654,0.4638369,0.04,0.04,0.06284677701571262,-0.023711759796427034,0.0025681494957630058,0.05135298195452563,0.37766027539975366,0.3453571603977355,0.9040899933275229,-0.028602170666638706,-0.3746782593752434,0.2035175711080832
181.10000000003626,-0.2625195,-0.54753244,0.051467184,-2.6771429,0.22155292,1.2590925,0.4606312,0.04,0.04,0.06385589618373988,-0.022975282447246226,0.006156304631677045,0.05299335268417098,0.376118138843149,0.34697394383615365,0.9022186267988839,-0.02865538786025697,-0.37753815254908,0.20650753393893936
181.11666666670294,-0.26510584,-0.54520196,0.051974177,-2.6803007,0.2237352,1.2560216,0.45742726,0.04,0.04,0.06408287602406304,-0.022739711567568155,0.006871830979648941,0.054633143132537074,0.3745296253856944,0.34852859549265147,0.9003318322970655,-0.028703552696675107,-0.38037365825422453,0.2095103289136275
181.13333333336962,-0.2676905,-0.54287326,0.05248084,-2.6834562,0.22591604,1.2529523,0.4542255,0.04,0.04,0.06424332907171149,-0.02245692162208268,0.007280327050018798,0.056273073547413954,0.37289958522575445,0.350022713191971,0.898429602475201,-0.028746530385666148,-0.3831849605171785,0.2125256982590262
181.1500000000363,-0.27027306,-0.54054654,0.05298712,-2.68661,0.22809511,1.2498858,0.45102635,0.04,0.04,0.06297439416675932,-0.022215974293593455,0.007762297377067462,0.05791130889225363,0.37122202450622294,0.35145271704710845,0.8965121791968416,-0.02878425182122102,-0.3859718389925977,0.21555305357033325
181.16666666670298,-0.2728531,-0.538222,0.053492937,-2.6897604,0.23027217,1.2468224,0.44783017,0.04,0.04,0.0643107133726506,-0.02155822021681353,0.010481508861348576,0.059546655436210016,0.369495066782747,0.3528179548399692,0.8945801444661241,-0.02881682973707678,-0.3887333600019314,0.2185916976293515
181.18333333336966,-0.27543056,-0.53589994,0.05399824,-2.6929073,0.23244692,1.2437624,0.4446374,0.04,0.04,0.0642276802536701,-0.021008961822896466,0.011512684647807525,0.06117941932332352,0.3677266577846176,0.3541192901158468,0.8926337970037934,-0.02884414253970233,-0.3914692074793052,0.22164110513003832
181.20000000003634,-0.2780048,-0.5335804,0.054502953,-2.6960514,0.23461913,1.2407056,0.44144842,0.04,0.04,0.06341886471292746,-0.021172604357444502,0.010986395212775335,0.06280747048231798,0.36591529655428495,0.35535607682765197,0.8906730650064049,-0.028866243659400527,-0.3941798328791338,0.22470089141004934
181.21666666670302,-0.28057578,-0.53126407,0.05500702,-2.69919,0.23678856,1.2376533,0.43826357,0.04,0.04,0.06537567550792822,-0.01985056219634962,0.015435668780550138,0.06442987669544037,0.36405361335529507,0.35652413248405057,0.8886990362335859,-0.028883203582395076,-0.3968633840460763,0.22777014280148747
181.2333333333697,-0.283143,-0.52895087,0.055510394,-2.7023253,0.2389549,1.2346052,0.43508333,0.04,0.04,0.06285041781557421,-0.020278209181748275,0.012961750542783701,0.06604560114345254,0.36215867303575067,0.35762762852573027,0.8867112946724354,-0.02889486139959956,-0.3995210628329473,0.23084862407617568
181.25000000003638,-0.28570622,-0.5266416,0.056013007,-2.705455,0.24111785,1.2315618,0.43190795,0.04,0.04,0.06514018696786028,-0.019143417284223085,0.016813355231271032,0.06765401555403244,0.3602150582087342,0.3586619076529677,0.8847108036848539,-0.028901472952103324,-0.4021513589689146,0.2339354252437071
181.26666666670306,-0.28826514,-0.5243362,0.05651478,-2.7085807,0.24327722,1.2285233,0.4287379,0.04,0.04,0.06309513764457542,-0.01924796336384149,0.01544213147852691,0.06925505287844017,0.35823479918867773,0.35962925936230405,0.8826973716662843,-0.0289028062757117,-0.40475500338805254,0.2370303041283119
181.28333333336974,-0.29081944,-0.522035,0.057015676,-2.7117,0.24543272,1.2254896,0.42557356,0.04,0.04,0.06494765999469632,-0.018277518676082516,0.018722458056896762,0.07084659674080676,0.35620988339199455,0.36052599122478574,0.8806717420201304,-0.02889907741183994,-0.4073309918648166,0.2401324409537332
181.30000000003642,-0.2933688,-0.51973826,0.057515625,-2.7148123,0.24758412,1.2224627,0.42241526,0.04,0.04,0.06427628323191215,-0.01749565316279955,0.02092250106626725,0.072427844064204,0.3541457127879375,0.36135238833206107,0.8786346588836047,-0.028890271336863567,-0.4098783805407874,0.2432410360030463
181.3166666667031,-0.29591295,-0.5174463,0.058014564,-2.7179189,0.24973108,1.2194419,0.41926357,0.04,0.04,0.0630872785659875,-0.017442379026522126,0.01957703468336014,0.07399756530836196,0.35205187267419213,0.3621119086140032,0.8765859756869503,-0.02887620976143384,-0.41239791974142714,0.24635573370984154
181.33333333336978,-0.29845145,-0.5151594,0.058512434,-2.7210202,0.25187337,1.216427,0.41611868,0.04,0.04,0.06254524894040436,-0.0174058209646194,0.019181873337115185,0.07555518636073721,0.34991818760980287,0.362801014455237,0.8745257296009314,-0.028857038202256543,-0.41488995042367044,0.24947614845831725
181.35000000003646,-0.30098417,-0.5128779,0.059009172,-2.7241142,0.25401083,1.2134196,0.41298106,0.04,0.04,0.06322204200939208,-0.016076401306586163,0.02325761258721304,0.07710043154551285,0.34773901027685966,0.36341666706943254,0.8724550171032872,-0.028832735113552922,-0.41735295244087656,0.2526013254241907
181.36666666670314,-0.30351073,-0.5106016,0.059504714,-2.7272,0.25614303,1.2104198,0.40985104,0.04,0.04,0.06314159023634858,-0.015412319216717707,0.0244846977628832,0.07863027537022452,0.3455280521851266,0.36396184509610147,0.8703741987237187,-0.0288034148347961,-0.41978681579768795,0.2557306136784121
181.38333333336982,-0.30603075,-0.5083313,0.059999004,-2.730278,0.25826976,1.2074279,0.40672907,0.04,0.04,0.06264777591531434,-0.015064904852091221,0.024760746024532487,0.08014573347264342,0.343286693962125,0.3644377288667334,0.8682836391977788,-0.028769083778639303,-0.4221914294256784,0.25886339764343136
181.4000000000365,-0.30854398,-0.50606734,0.060491987,-2.7333472,0.2603908,1.2044437,0.40361547,0.04,0.04,0.0630408102553881,-0.014419027268799955,0.026203540184077667,0.08164493942005448,0.34101256992754436,0.36484243026231733,0.8661837869214579,-0.02872984964227029,-0.4245665121330199,0.26199908356545293
181.41666666670318,-0.31105018,-0.50380987,0.060983617,-2.736408,0.2625058,1.2014676,0.40051064,0.04,0.04,0.06192755217526713,-0.013994955324964087,0.026154425143842808,0.08312668116603159,0.33870849468238257,0.3651752644628939,0.8640748503114832,-0.02868564674171506,-0.42691226553558737,0.2651371423725271
181.43333333336986,-0.31354892,-0.5015591,0.0614738,-2.7394607,0.26461473,1.1984997,0.39741495,0.04,0.04,0.061225317916924205,-0.013843050552503344,0.026226774888138404,0.08459099645904952,0.3363702297883271,0.3654354903250927,0.8619569906514059,-0.028636490073639994,-0.42922891125352286,0.26827716907621835
181.45000000003654,-0.3160399,-0.4993153,0.0619625,-2.7425032,0.26671717,1.1955417,0.39432874,0.04,0.04,0.06151018740792047,-0.012321595799144602,0.030266380730070708,0.08603653681770256,0.3339971749333148,0.3656211316904805,0.8598314808929064,-0.028582559295115433,-0.43151493524616547,0.27141798471941825
181.46666666670322,-0.31852296,-0.4970787,0.062449656,-2.745534,0.26881284,1.192593,0.3912525,0.04,0.04,0.062414124549659,-0.011492332647097814,0.03176448780036756,0.08746164460609326,0.33160040062755697,0.3657368547423757,0.857698715750988,-0.02852391836905271,-0.4337702680982119,0.27455901659567983
181.4833333333699,-0.32099771,-0.4948496,0.06293525,-2.7485557,0.2709015,1.1896545,0.38818648,0.04,0.04,0.05924906378957928,-0.011728435256661007,0.029490889655514607,0.08886667668357562,0.3291840909679209,0.3657827915514868,0.8555586111382801,-0.028460412789756313,-0.43599568630606156,0.2776998907696587
181.50000000003658,-0.3234639,-0.49262822,0.06341913,-2.7515683,0.27298298,1.1867255,0.38513112,0.04,0.04,0.05902820922274454,-0.011427833674759746,0.029314902846988566,0.09025001335696278,0.326735748457185,0.3657558584393963,0.8534112346120066,-0.028392050825195934,-0.4381916276823765,0.2808402633473693
181.51666666670326,-0.32592118,-0.49041486,0.06390128,-2.754568,0.275057,1.1838071,0.38208672,0.04,0.04,0.06083136336254569,-0.009567926531336979,0.03483777177207825,0.09161023722722404,0.3242522354293544,0.36565309167194116,0.8512580915244462,-0.028319193246073626,-0.44035629521027253,0.28397890445723645
181.53333333336994,-0.3283693,-0.4882099,0.06438166,-2.7575576,0.27712318,1.1808997,0.3790536,0.04,0.04,0.05802999843411705,-0.009805731578041432,0.03203750588400833,0.09294690232522085,0.3217532839753465,0.3654804321563927,0.8490989415241306,-0.02824167291518449,-0.44249075488738004,0.28711552945243035
181.55000000003662,-0.33080798,-0.48601344,0.06486023,-2.7605371,0.27918145,1.1780038,0.37603217,0.04,0.04,0.056908560874702196,-0.009422559274205322,0.03223497528633823,0.09426075792718894,0.3192265391287623,0.36523517192312105,0.8469340816790334,-0.028159409064321825,-0.44459516219926554,0.2902496351774612
181.5666666667033,-0.33323684,-0.48382577,0.065336876,-2.7635028,0.2812315,1.1751194,0.37302288,0.04,0.04,0.059047658203770226,-0.007714090106616944,0.03712828416473357,0.09554748799694192,0.31666914901937515,0.36491508971294306,0.8447648041852547,-0.028072806859685853,-0.446668164747061,0.2933801181511098
181.58333333336998,-0.33565566,-0.48164728,0.065811574,-2.7664564,0.28327316,1.172247,0.37002602,0.04,0.04,0.05691135748624454,-0.007721235920757352,0.03556555822308294,0.09680897277545056,0.31409729351314786,0.36452557621401405,0.8425911381774732,-0.027981737460763,-0.4487103850958087,0.2965066382741515
181.60000000003666,-0.33806413,-0.47947803,0.06628427,-2.769398,0.28530607,1.169387,0.36704186,0.04,0.04,0.05579745246862,-0.007194366461446555,0.035462297352728545,0.09804227472279044,0.3115037821272384,0.36406348261983623,0.8404133339205903,-0.027886250995078278,-0.4507221519146827,0.29962864840885206
181.61666666670334,-0.34046203,-0.47731835,0.06675492,-2.7723262,0.2873301,1.1665394,0.3640709,0.04,0.04,0.05603718649904721,-0.006273759791300404,0.03752309255881103,0.0992487628984798,0.30888622627502377,0.3635292309418411,0.8382321355580938,-0.027786433790721758,-0.4527030159257401,0.30274540522797455
181.63333333337002,-0.342849,-0.47516862,0.06722344,-2.7752414,0.28934497,1.1637049,0.36111355,0.04,0.04,0.05492517391323393,-0.005781013109668054,0.037600723819231074,0.10042733226983439,0.30624973773224545,0.36292405165479324,0.8360479466712509,-0.027682295640366915,-0.4546531086009536,0.30585629340321546
181.6500000000367,-0.34522465,-0.47302896,0.067689784,-2.7781434,0.29135033,1.1608835,0.3581698,0.04,0.04,0.05396738314673577,-0.005229395985664742,0.03773660958247271,0.1015744684765321,0.30359360946217634,0.36224661095754557,0.8338610987041215,-0.027574073545357625,-0.4565726386027603,0.30896078103115865
181.66666666670338,-0.34758896,-0.47089964,0.06815392,-2.7810311,0.29334608,1.1580757,0.35524035,0.04,0.04,0.05393168677387816,-0.004281165281283528,0.03945767086086516,0.10269512813389908,0.3009171750973558,0.3614987600142955,0.831672280608863,-0.027461672941837236,-0.4584613163404384,0.3120581606134998
181.68333333337006,-0.34994155,-0.46878085,0.068615764,-2.7839043,0.29533198,1.1552819,0.35232532,0.04,0.04,0.05295503664071166,-0.0036621587944402068,0.04011754758013186,0.10376003882919946,0.2982164390999308,0.36066385131341416,0.8294820027208619,-0.027345260706712365,-0.46031910220096084,0.3151478510603733
181.70000000003674,-0.35228217,-0.46667293,0.06907528,-2.7867627,0.29730782,1.1525021,0.3494253,0.04,0.04,0.05242938937239927,-0.0031099960590308395,0.04037177364473177,0.10484055281744421,0.2955150637381364,0.35979109570398243,0.8272906399067789,-0.027224837688828267,-0.46214624075631716,0.3182292530397756
181.71666666670342,-0.35461047,-0.46457615,0.0695324,-2.789606,0.29927325,1.149737,0.34654036,0.04,0.04,0.051308729069243775,-0.00235015176774378,0.04108787603311903,0.10583927479779494,0.292781439978145,0.3588150241875397,0.8250988059187514,-0.027100570179743384,-0.4639426129107701,0.3213016829910961
181.7333333333701,-0.35692623,-0.46249065,0.069987096,-2.7924342,0.30122808,1.1469867,0.34367096,0.04,0.04,0.050596713767325774,-0.0017976851363010748,0.04134906995520993,0.10683232756644409,0.2900426209352026,0.3577879818646858,0.8229068463267101,-0.02697248951545831,-0.4657084975863196,0.32436461328859495
181.75000000003678,-0.3592292,-0.46041673,0.0704393,-2.7952468,0.30317217,1.1442513,0.3408174,0.04,0.04,0.04991224719470555,-0.0012681933987457317,0.04172456111137812,0.10778994575784667,0.28728696796086983,0.3566901030737597,0.8207151914342712,-0.02684067414130803,-0.467444013882206,0.32741754175110965
181.76666666670346,-0.36151898,-0.45835456,0.070888974,-2.7980437,0.3051052,1.1415317,0.33797997,0.04,0.04,0.048700986427618886,-0.0005646404710041297,0.04234293634099995,0.10870935498987014,0.2845169036045875,0.3555202420540311,0.8185244345557886,-0.02670524033557639,-0.469149172143443,0.33045973196573875
181.78333333337014,-0.36379564,-0.45630446,0.07133604,-2.8008242,0.30702707,1.1388282,0.33515912,0.04,0.04,0.04815888553904024,0.00033298001123893695,0.04342998371951179,0.1095983765656044,0.28173381286857385,0.3542849986135465,0.8163352161454648,-0.02656612074811073,-0.47082380381137745,0.333490632362769
181.80000000003682,-0.36605856,-0.45426658,0.071780466,-2.8035882,0.30893746,1.1361406,0.33235505,0.04,0.04,0.04731814099885323,0.0006579569222953108,0.04318247640127115,0.1104510204767694,0.27894123768114515,0.3529834999229313,0.8141477963952114,-0.026423591609659423,-0.47246840140811575,0.33650968649078555
181.8166666667035,-0.36830765,-0.45224127,0.07222219,-2.8063362,0.31083608,1.1334693,0.32956812,0.04,0.04,0.04598831811664095,0.0011583261334852102,0.04267161009251508,0.11126203179471857,0.27613319372316103,0.3516102534119555,0.8119625058669262,-0.026277583732188508,-0.4740833162927174,0.33951640147774764
181.83333333337018,-0.37054262,-0.45022854,0.072661154,-2.8090663,0.31272298,1.1308149,0.32679865,0.04,0.04,0.045984362253403965,0.0021843945620325655,0.045223612046724204,0.11204624908744382,0.27331451678127405,0.3501754527309906,0.8097802490213903,-0.02612831458363244,-0.4756680507499108,0.3425100946945275
181.85000000003686,-0.37276325,-0.4482288,0.07309735,-2.8117785,0.31459767,1.1281773,0.32404694,0.04,0.04,0.04511363671992896,0.0028709821929567836,0.044981718760173095,0.11278620158758962,0.27048607757365933,0.34867136649463243,0.8076014184708954,-0.025975895168533318,-0.47722297522348667,0.34549013542044105
181.86666666670354,-0.3749692,-0.4462423,0.07353068,-2.8144739,0.31646007,1.1255571,0.32131332,0.04,0.04,0.043321418993902405,0.002953627365137601,0.04399885834536765,0.11349261745381324,0.267649436231613,0.3471038953061689,0.8054262372719839,-0.02582027299658864,-0.47874858065292314,0.34845614693830135
181.88333333337022,-0.37716046,-0.44426903,0.07396113,-2.8171506,0.31831,1.1229545,0.318598,0.04,0.04,0.04321272238219098,0.004132216590677085,0.045990091808734146,0.1141607848079411,0.2648029647898318,0.3454719674618922,0.8032555014996551,-0.025661642219543708,-0.480244583483076,0.3514074835063999
181.9000000000369,-0.3793366,-0.4423095,0.07438865,-2.8198087,0.32014716,1.1203697,0.31590137,0.04,0.04,0.0423269450303243,0.0045990101091158975,0.04584446609644521,0.11478774583655145,0.26194917933701256,0.34377482864523634,0.801089654281191,-0.025500126864279184,-0.48171128823681114,0.354343539688223
181.91666666670358,-0.38149738,-0.44036373,0.074813165,-2.8224485,0.3219715,1.1178032,0.31322363,0.04,0.04,0.040877930588489875,0.004959262283707466,0.04566882967134145,0.11537423777021656,0.2590879534980967,0.34201399426073487,0.7989290627950237,-0.02533575074854594,-0.4831489833883244,0.3572639251398061
181.93333333337026,-0.38364264,-0.43843195,0.07523466,-2.8250694,0.32378268,1.1152551,0.31056523,0.04,0.04,0.040222573950532414,0.005696804223404017,0.04595960888579831,0.11592501948233767,0.2562219149479341,0.34019285473868716,0.7967741928430289,-0.02516858380178279,-0.48455796633168413,0.3601680236684745
181.95000000003694,-0.38577202,-0.4365145,0.07565308,-2.8276703,0.32558048,1.1127256,0.30792624,0.04,0.04,0.039896123598781585,0.006596235577324694,0.04730563911977126,0.11643470173585681,0.2533472624460128,0.3383091709838705,0.7946258156953001,-0.024998977613965086,-0.485938057321262,0.36305518670812736
181.96666666670362,-0.3878855,-0.43461144,0.07606839,-2.8302524,0.32736483,1.1102154,0.30530718,0.04,0.04,0.03782705798234254,0.006682166141663837,0.045980450418298124,0.11690667892953856,0.25047167749705845,0.33636609021590125,0.7924840803398483,-0.02482663280437709,-0.48728988630212394,0.3659251117635474
181.9833333333703,-0.38998264,-0.43272305,0.07648053,-2.8328145,0.32913554,1.1077244,0.3027081,0.04,0.04,0.03767861328360933,0.007453766441542498,0.04708470394391706,0.1173362142745002,0.24758986831989754,0.3343629528250523,0.790349626258429,-0.024651976418396365,-0.4886134684375141,0.36877720481788273
182.00000000003698,-0.39206344,-0.4308494,0.07688945,-2.835357,0.33089232,1.105253,0.3001293,0.04,0.04,0.03622859914325094,0.007898486433799423,0.0463597819324979,0.11772825457869422,0.2447049057893407,0.3323014599096945,0.7882227152852461,-0.02447489530992216,-0.4899092994079841,0.3716110990827644
182.01666666670366,-0.39412752,-0.42899087,0.07729512,-2.8378787,0.33263505,1.1028011,0.29757133,0.04,0.04,0.03602368372941367,0.00868453276097747,0.047540567025000646,0.1180772871836393,0.24181518126518048,0.33018025949012864,0.786104056748023,-0.024295583806699238,-0.4911774010175885,0.3744260905724918
182.03333333337034,-0.3961747,-0.42714754,0.07769748,-2.8403797,0.3343636,1.1003695,0.29503417,0.04,0.04,0.03462854880542654,0.00915659583101136,0.04759174565918123,0.11838508157002266,0.23892238677305444,0.3280022771230781,0.7839941453074396,-0.02411417486583019,-0.49241791321004696,0.37722179873923006
182.05000000003702,-0.3982048,-0.42531958,0.078096546,-2.84286,0.3360776,1.0979578,0.2925182,0.04,0.04,0.033815969451422845,0.00966506247295218,0.04703425154995444,0.11865349334861709,0.23603038354227576,0.3257694651415655,0.7818932336582575,-0.02393074094944256,-0.49363145858175417,0.3799977288030734
182.0666666667037,-0.4002176,-0.42350724,0.07849221,-2.8453193,0.33777702,1.0955667,0.2900237,0.04,0.04,0.03277486865085333,0.01011835544056372,0.04729592318561404,0.11888198552571091,0.23313482930775803,0.3234810071900049,0.779801854441733,-0.02374534045156768,-0.4948181693656983,0.3827534531283196
182.08333333337038,-0.40221286,-0.42171067,0.07888446,-2.847757,0.33946168,1.0931965,0.2875509,0.04,0.04,0.03186345908283705,0.0107363988696485,0.0476783908489542,0.11907036741134241,0.23023933277202593,0.3211395151998258,0.7777205585778214,-0.023558134730603468,-0.4959782116150765,0.38548847019920934
182.10000000003706,-0.40419048,-0.4199301,0.07927325,-2.850173,0.34113148,1.0908473,0.28509995,0.04,0.04,0.031140964472697874,0.011324155172176553,0.04799373339308133,0.11921731333361256,0.22734258148488742,0.3187439889766458,0.7756498490121059,-0.023369244853851643,-0.4971117733575584,0.3882023633515922
182.11666666670374,-0.4061501,-0.4181657,0.07965855,-2.8525674,0.3427862,1.0885193,0.28267112,0.04,0.04,0.02974740550387711,0.01151385595950516,0.04714132826799666,0.11932202169714101,0.22444924309366365,0.3162970609470216,0.7735900027075311,-0.023178757305089004,-0.4982194008358279,0.39089471926791547
182.13333333337042,-0.4080917,-0.41641757,0.0800403,-2.8549402,0.34442562,1.086213,0.2802647,0.04,0.04,0.028772767425233603,0.012092785897618863,0.04714097256108274,0.1193864380205885,0.221554767620006,0.3137977658608882,0.7715414382030085,-0.02298668186759161,-0.49930141391940763,0.3935651402886588
182.1500000000371,-0.4100149,-0.41468585,0.080418505,-2.85729,0.3460497,1.0839283,0.2778809,0.04,0.04,0.028395327430974504,0.012804952232148281,0.0482757067189199,0.1194063518897826,0.21866062072719136,0.31124725846488027,0.7695048486483228,-0.022793320065672203,-0.5003578267778664,0.3962130710226965
182.16666666670378,-0.41191974,-0.41297078,0.08079311,-2.8596172,0.34765813,1.0816653,0.27552003,0.04,0.04,0.027453585442982487,0.013213659936203714,0.047498485601005225,0.11938601194483853,0.21577009173770048,0.3086480634946136,0.7674804571205884,-0.02259864821401592,-0.5013892070009248,0.3988382029593647
182.18333333337046,-0.4138059,-0.41127244,0.08116406,-2.8619215,0.34925085,1.0794243,0.27318224,0.04,0.04,0.026346497485874032,0.013600906112429256,0.04759210880499465,0.11932298771996111,0.21287909426934842,0.30599936680990825,0.7654687431822167,-0.022402813271184104,-0.5023958021107106,0.4014401265321017
182.20000000003714,-0.4156733,-0.40959117,0.08153131,-2.8642035,0.35082772,1.0772058,0.2708678,0.04,0.04,0.024969474530012192,0.01383987275158094,0.04682347149064792,0.11922086737721874,0.20999334099219424,0.3033048083991178,0.7634700699797112,-0.02220580001852696,-0.5033780009170223,0.40401849324442357
182.21666666670382,-0.4175216,-0.40792698,0.08189484,-2.866462,0.3523886,1.0750098,0.26857686,0.04,0.04,0.02449435720772719,0.014492763504317385,0.04751493311045962,0.11907319535688007,0.20710717750410218,0.30056175471212926,0.7614849689236617,-0.022007866949043234,-0.504336016704336,0.4065728448267136
182.2333333333705,-0.4193507,-0.40628007,0.08225464,-2.8686974,0.35393342,1.0728364,0.26630965,0.04,0.04,0.02353450238730126,0.014638341343575778,0.0468385264979887,0.11888477793567111,0.20422567643252182,0.29777385348127366,0.7595136685637884,-0.021809059111736098,-0.5052703505614783,0.40910295165021393
182.25000000003718,-0.42116055,-0.40465048,0.082610674,-2.8709092,0.3554619,1.0706862,0.26406643,0.04,0.04,0.022345484254349124,0.01538536635954657,0.04718867774258784,0.11865478290179203,0.20134699591876962,0.29494086475623593,0.7575568028053716,-0.02160944232579353,-0.5061811499909099,0.4116082675549061
182.26666666670386,-0.4229509,-0.40303853,0.0829629,-2.8730974,0.35697386,1.0685588,0.26184732,0.04,0.04,0.021849969164589034,0.015605293791637331,0.04653937656106666,0.11837797802748536,0.19847003102561045,0.29206242376436636,0.7556145573646121,-0.02140919888401172,-0.5070689776094706,0.4140885640148885
182.28333333337054,-0.42472157,-0.40144423,0.083311275,-2.875261,0.3584693,1.0664551,0.25965244,0.04,0.04,0.020757503573398672,0.016332772733074208,0.047687651430505795,0.1180718546860607,0.19560147250033044,0.28914775850411667,0.753687760790842,-0.02120849546061059,-0.50793365677849,0.41654334620302735
182.30000000003722,-0.42647243,-0.3998678,0.08365578,-2.8774006,0.35994807,1.0643749,0.25748208,0.04,0.04,0.01986651005563278,0.016398513119358915,0.04651590294671437,0.11771529340099876,0.19273816667045066,0.2861883864271273,0.7517765022403182,-0.02100735477814942,-0.5087759059161446,0.4189723848701057
182.3166666667039,-0.42820346,-0.39830938,0.08399639,-2.8795164,0.36141,1.0623182,0.2553364,0.04,0.04,0.018916075885866412,0.01662037450244902,0.04576005147145512,0.11732682186370771,0.18988379706759195,0.2831934415419991,0.7498809772484578,-0.020805799035136366,-0.509596246438956,0.4213754908662038
182.33333333337058,-0.4299144,-0.39676902,0.08433309,-2.881607,0.36285502,1.0602856,0.2532156,0.04,0.04,0.018182283318157744,0.017381597659832382,0.046984934337140905,0.1168931441797041,0.18703031861454414,0.2801569138135814,0.7480019933437936,-0.020604061375433684,-0.510394584587378,0.42375211932499723
182.35000000003726,-0.43160516,-0.39524686,0.08466583,-2.8836732,0.36428285,1.0582767,0.25111988,0.04,0.04,0.017375487295767655,0.01749655291664598,0.04569551229040569,0.1164208607419402,0.18418770563255915,0.2770855341769587,0.7461395671752813,-0.02040220056774041,-0.5111716959405668,0.4261020931381611
182.36666666670394,-0.43327555,-0.39374298,0.08499457,-2.8857145,0.36569357,1.056292,0.24904922,0.04,0.04,0.016266437938017297,0.01777970495408787,0.04582717518814006,0.11590726750569318,0.1813490950878528,0.273976007078526,0.7442941974509566,-0.020200347121221374,-0.5119277011142542,0.4284251655177291
182.38333333337062,-0.4349254,-0.39225757,0.0853193,-2.8877306,0.3670871,1.0543317,0.24700394,0.04,0.04,0.015762767826599244,0.0181720125699808,0.045886992479909905,0.11535551612650359,0.17851923274350331,0.2708319154705685,0.7424662820980028,-0.019998622469619493,-0.5126629509365442,0.43072099296867494
182.4000000000373,-0.43655464,-0.39079067,0.08564002,-2.8897214,0.3684632,1.0523957,0.2449842,0.04,0.04,0.014755153887913153,0.018507752632557217,0.04541788536580604,0.11476447652199541,0.175696997273019,0.26765385443297895,0.7406561341077803,-0.01979711050770782,-0.5133778813827646,0.4329892796952454
182.41666666670397,-0.4381632,-0.38934237,0.08595667,-2.8916872,0.36982182,1.0504841,0.24299006,0.04,0.04,0.013963994405186142,0.018575039498511248,0.044635949337129555,0.11413817935064242,0.1728835537541752,0.264444730374812,0.7388638768043769,-0.019595863016884804,-0.5140730189129935,0.43522994489339856
182.43333333337065,-0.43975094,-0.38791284,0.08626923,-2.8936276,0.37116292,1.0485975,0.24102171,0.04,0.04,0.012807836454609145,0.01895276666900314,0.044739623658707206,0.11347054937475495,0.17007530447049227,0.2612010396372991,0.737090089969323,-0.0193949579918894,-0.5147484741474174,0.4374426170784162
182.45000000003733,-0.44131768,-0.38650224,0.08657773,-2.8955424,0.37248632,1.0467356,0.23907931,0.04,0.04,0.01238837579820018,0.01933481253716951,0.044674025225921454,0.11276591228865968,0.1672777647345707,0.25792876493475414,0.7353351077954567,-0.019194603368547298,-0.5154046631220585,0.43962697787670596
182.46666666670401,-0.4428634,-0.38511044,0.086882085,-2.8974316,0.373792,1.0448985,0.23716293,0.04,0.04,0.011590680154460742,0.019394866451485915,0.04387627920912629,0.11202530181297013,0.1644884293212841,0.2546274504182707,0.7335989762308768,-0.01899481343603627,-0.5160421462711059,0.44178302639129347
182.4833333333707,-0.44438806,-0.38373777,0.087182306,-2.8992953,0.3750798,1.0430868,0.23527269,0.04,0.04,0.0103861514910486,0.019701146430739502,0.04367083437518127,0.11124884149180261,0.16170678721491727,0.2512973964842969,0.7318822464168272,-0.018795655284622233,-0.5166610627282492,0.4439104042290478
182.50000000003737,-0.44589147,-0.38238427,0.08747838,-2.9011328,0.37634966,1.0413002,0.23340878,0.04,0.04,0.010075293373601468,0.02014965323328677,0.04391986110102164,0.11043652217691821,0.1589355256083301,0.24794148398050989,0.7301852782075,-0.018597323459335537,-0.5172617516089119,0.446008833288832
182.51666666670405,-0.44737348,-0.38104987,0.08777028,-2.9029446,0.3776016,1.0395386,0.23157118,0.04,0.04,0.009244582129408485,0.019964470392724865,0.04284105469321564,0.10958912943669158,0.15617590891932903,0.24456135539502924,0.7285080459139837,-0.0183998915855715,-0.5178448329284076,0.4480783414064756
182.53333333337073,-0.44883403,-0.3797348,0.088058,-2.9047298,0.3788355,1.0378027,0.22976017,0.04,0.04,0.008404147765506131,0.02056153845371722,0.04344916001801091,0.10870706930109882,0.15342355550137987,0.24115485246689422,0.7268512557959078,-0.01820345444603832,-0.5184102976275999,0.4501184838548691
182.55000000003741,-0.45027325,-0.378439,0.08834152,-2.9064887,0.38005126,1.0360923,0.22797568,0.04,0.04,0.007742667232157885,0.02077255133988154,0.04290995442923218,0.10779111175111204,0.1506839775006233,0.23772709604424533,0.7252150313513215,-0.018008080453117473,-0.5189585903805642,0.45212923905749935
182.5666666667041,-0.45169094,-0.3771626,0.08862079,-2.9082217,0.3812489,1.0344074,0.22621788,0.04,0.04,0.006825749865924102,0.020500459263611548,0.04160000965348076,0.10684304524198263,0.14795774302620948,0.23427881705904677,0.7235993709656717,-0.01781376408752392,-0.5194903386880665,0.4541105682065504
182.58333333337077,-0.45308694,-0.3759056,0.08889585,-2.9099283,0.38242826,1.0327485,0.22448684,0.04,0.04,0.006037906977396368,0.02101411608853576,0.04207851497554649,0.10585978075305509,0.14523868148544306,0.23080818696941155,0.7220048555059195,-0.017620713236609683,-0.5200056489867442,0.4560620836166765
182.60000000003745,-0.45446134,-0.37466815,0.089166656,-2.9116085,0.38358936,1.0311146,0.22278266,0.04,0.04,0.0060861367593645355,0.021046814350483833,0.04134148532683457,0.10484619698076347,0.14253393427850544,0.22732028656415562,0.7204313862369479,-0.01742899862835462,-0.520505134155093,0.457983900426326
182.61666666670413,-0.455814,-0.37345013,0.08943321,-2.913262,0.38473207,1.0295067,0.22110535,0.04,0.04,0.0047874894466781726,0.021390534951415408,0.04142895881853459,0.10380099205268861,0.1398365165604217,0.22381176849426665,0.7188795052629551,-0.017238711671270335,-0.5209888979585641,0.4598756918306562
182.6333333333708,-0.45714492,-0.37225172,0.08969548,-2.9148886,0.38585648,1.0279244,0.21945497,0.04,0.04,0.004448286644831434,0.02138868375022307,0.0409301350761726,0.10272819663264049,0.13715560233323185,0.22028964373543594,0.7173493153873043,-0.017049945773852566,-0.5214573478917635,0.46173747237165275
182.6500000000375,-0.4584541,-0.37107316,0.08995349,-2.9164886,0.3869624,1.0263684,0.21783166,0.04,0.04,0.0034008463195567273,0.021668732201851615,0.04064399828246357,0.10162246162065823,0.1344849753473275,0.21674987527190245,0.7158412798297967,-0.016862728714107728,-0.5219106638663773,0.46356894785404934
182.66666666670417,-0.45974144,-0.36991414,0.09020724,-2.9180624,0.38805,1.0248375,0.21623537,0.04,0.04,0.0033587255450884257,0.021269790748429385,0.03925983274837286,0.1004884594265231,0.13182886290341211,0.21319799595673178,0.7143549291986692,-0.016677147924606898,-0.5223497723308584,0.4653704150594077
182.68333333337085,-0.46100688,-0.36877495,0.09045669,-2.919609,0.38911912,1.0233333,0.21466616,0.04,0.04,0.0019936144477261664,0.022024742620246895,0.04050402895383609,0.09932637337700645,0.1291820674391007,0.20963054227538352,0.7128913646321109,-0.016493346561544702,-0.5227741950148227,0.4671413199223245
182.70000000003753,-0.4622505,-0.36765534,0.09070181,-2.9211287,0.39016983,1.021856,0.21312408,0.04,0.04,0.001190683267182635,0.02198780191485228,0.039829551512138295,0.09813732015190724,0.12655380598152996,0.20605470829785733,0.7114506275314066,-0.01631127787557499,-0.5231843786892278,0.468881704372009
182.7166666667042,-0.46347213,-0.3665555,0.09094264,-2.9226215,0.3912019,1.020404,0.21160918,0.04,0.04,0.0016534351581887208,0.021968448983294975,0.038802148268857195,0.09692115948465627,0.12394267531909395,0.2024713230265378,0.7100324576213195,-0.016131189517204315,-0.5235811546652096,0.47059161523388293
182.7333333333709,-0.46467176,-0.36547542,0.09117917,-2.924088,0.39221552,1.0189778,0.2101214,0.04,0.04,0.0006078954469801445,0.02163955493824643,0.03771465718622191,0.09568003238442388,0.12134328166444107,0.1988775741037178,0.7086368638945569,-0.015953038098248308,-0.5239649338213583,0.47227115498482736
182.75000000003757,-0.46584958,-0.36441505,0.0914114,-2.9255283,0.3932106,1.0175775,0.20866078,0.04,0.04,-0.00012269168940814978,0.02180199032333907,0.03738956408033678,0.09441381042387684,0.11875482265991819,0.19527362910462792,0.7072640805012946,-0.015776797528371616,-0.5243359678654405,0.4739202526744546
182.76666666670425,-0.46700543,-0.36337438,0.09163931,-2.9269412,0.39418718,1.0162035,0.20722738,0.04,0.04,-0.00045020481762581,0.022358798136795643,0.03850096020531768,0.09312427843961871,0.11617885482673224,0.1916630183119726,0.7059147143042125,-0.015602712235088117,-0.5246941623334026,0.4755386498624061
182.78333333337093,-0.46813935,-0.3623535,0.091862924,-2.9283278,0.39514515,1.0148556,0.20582116,0.04,0.04,-0.0012780274266877,0.02192526062880229,0.03655723668493094,0.09181230490010053,0.11362125191851286,0.1880491660231117,0.7045885082718962,-0.015430723925240971,-0.5250402558517987,0.4771264575617292
182.8000000000376,-0.46925133,-0.36135235,0.092082225,-2.9296875,0.3960847,1.0135337,0.2044421,0.04,0.04,-0.0014565689004930604,0.02216580858055983,0.037090567938391494,0.09047902511978156,0.1110763900063962,0.18443107739525186,0.7032857634778485,-0.015260974409122247,-0.5253743229347926,0.4786836725336183
182.8166666667043,-0.4703413,-0.36037093,0.09229723,-2.9310205,0.39700574,1.0122378,0.20309019,0.04,0.04,-0.002048099889084831,0.02211112856734254,0.03634350640930317,0.08912322254165844,0.1085475237029951,0.1808099391714477,0.702006539122146,-0.015093547291903485,-0.5256967964049011,0.48021024781809696
182.83333333337097,-0.47140935,-0.3594092,0.09250795,-2.9323268,0.39790827,1.010968,0.20176537,0.04,0.04,-0.0026291447796866763,0.02218751342712988,0.036019681082299915,0.08774846787370219,0.10603432430229545,0.177188080137117,0.7007509980585109,-0.014928475183301147,-0.5260079091160612,0.4817061956172579
182.85000000003765,-0.47245562,-0.35846716,0.092714384,-2.9336057,0.39879248,1.0097239,0.20046763,0.04,0.04,-0.0026062260573667118,0.02244673671501496,0.03650405590744921,0.08635522318797445,0.10353738035006277,0.1735666695382545,0.6995193623656443,-0.014765879482006682,-0.5263077663555235,0.48317156947873596
182.86666666670433,-0.47348008,-0.35754478,0.092916526,-2.9348588,0.39965826,1.0085058,0.1991969,0.04,0.04,-0.003759490865617998,0.0217449974171946,0.034149921018872265,0.08494377583003018,0.10106029611336292,0.16994760847120105,0.6983112861955215,-0.01460562020007808,-0.5265971259442964,0.48460653150544136
182.883333333371,-0.47448283,-0.35664195,0.09311441,-2.936085,0.40050563,1.0073134,0.19795315,0.04,0.04,-0.003608629160090082,0.022319390681496687,0.03511325633583917,0.08351548763923188,0.09859731320383865,0.16633075274842557,0.6971271227121715,-0.014447909275865008,-0.5268760100560644,0.4860110109081967
182.9000000000377,-0.47546387,-0.3557587,0.093308024,-2.937284,0.40133458,1.0061468,0.19673626,0.04,0.04,-0.004149269468611827,0.022476018884004523,0.03511934206515965,0.08207044512307371,0.09615100735058744,0.16271710444830087,0.6959671628676506,-0.014292869343314729,-0.5271445174921381,0.4873849400359729
182.91666666670437,-0.47642317,-0.354895,0.09349737,-2.9384573,0.40214536,1.0050058,0.19554627,0.04,0.04,-0.004787754922719323,0.021637971468940753,0.03309684993648698,0.08061098807877466,0.09372546788525965,0.15911050613404729,0.6948309344543804,-0.01414033726227538,-0.5274033858523858,0.4887286486167976
182.93333333337105,-0.47736087,-0.35405076,0.09368248,-2.9396038,0.40293774,1.0038909,0.19438301,0.04,0.04,-0.005233275673410809,0.02228899383425742,0.033910533678821464,0.07913670962777335,0.0913152359740385,0.15550919206277744,0.6937189757157709,-0.013990513931693576,-0.5276525019575281,0.49004192211457753
182.95000000003773,-0.47827706,-0.353226,0.09386335,-2.9407241,0.40371233,1.0028015,0.19324645,0.04,0.04,-0.005417149771957952,0.021715601362753967,0.03323184403198898,0.07765128153012837,0.08892508291251175,0.1519180389003656,0.6926310874965586,-0.013843322251299413,-0.5278921647525874,0.4913251484050133
182.9666666667044,-0.4791718,-0.35242054,0.09404002,-2.9418178,0.40446854,1.0017376,0.19213648,0.04,0.04,-0.005611024106744189,0.02228456718406102,0.03307750107802154,0.07615326639583182,0.086556343145251,0.1483372368325677,0.6915674093422932,-0.01369895969843593,-0.5281227422265286,0.49257814200581557
182.9833333333711,-0.48004523,-0.3516342,0.0942125,-2.942886,0.40520665,1.000699,0.191053,0.04,0.04,-0.006367991644196103,0.021438360559439262,0.031201966941823978,0.07464423573646845,0.08420599315700324,0.1447670694967642,0.690527492791385,-0.013557234359206511,-0.528344838824565,0.4938012903822929
183.00000000003777,-0.48089728,-0.35086694,0.094380796,-2.943928,0.40592688,0.9996854,0.18999588,0.03999999,0.04,-0.006018742495395024,0.02184446258944317,0.0322752170284768,0.07312574712623396,0.08187181226652596,0.1412079268090638,0.6895116352328786,-0.01341841461813016,-0.5285583924658546,0.49499462298244135
183.01666666670445,-0.4817282,-0.3501188,0.094544925,-2.9449444,0.4066292,0.9986972,0.18896498,0.039999966,0.04,-0.007037564706391386,0.021513804497036437,0.031026934154360086,0.0715983705941078,0.07955740397948559,0.13766128727655105,0.6885198138858016,-0.013282366056105896,-0.5287636818941234,0.4961582543386565
183.03333333337113,-0.48253798,-0.3493896,0.09470488,-2.9459345,0.4073137,0.9977342,0.18796016,0.039999943,0.04,-0.006961371503244607,0.021778299841712645,0.03153460933860153,0.07006317972187727,0.07726321332198842,0.1341300255180022,0.6875522093218364,-0.013149269467986897,-0.5289607751666261,0.4972922224449544
