rsonawane2002/My_IMU/logs_2/traj_288/clean_288.csv
time,j1,j2,j3,j4,j5,j6,j7,gripper1,gripper2,imu_ax,imu_ay,imu_az,imu_gx,imu_gy,imu_gz,quat_x,quat_y,quat_z,quat_w
409.8833333332892,0.00016700293,-0.785875,4.0107683e-05,-2.3551247,9.29385e-05,1.570997,0.786,0.04,0.04,0.0,-0.0,0.0,2.875329272945135e-08,-0.0011641195053377316,4.421952117202833e-08,0.9999995971961153,0.00020320632366974898,0.0008736418299892524,3.263050917662294e-05
409.89999999995587,0.0001670031,-0.78576016,4.010667e-05,-2.3552213,9.297193e-05,1.5709941,0.786,0.04,0.04,-0.2919984594700109,-2.139078048904431e-05,0.02012841169221069,2.643534547163617e-08,-0.0022381830960815042,2.8649621342979326e-07,0.9999996850578786,0.00020321133999227038,0.0007665025183005565,3.2606508499282265e-05
409.9166666666225,0.00016698429,-0.78565425,4.0050327e-05,-2.35531,9.2988106e-05,1.5709913,0.786,0.04,0.04,0.02326285391798244,9.910656791157287e-05,-0.0016365520922434484,1.1675609495317696e-06,-0.0032246892905246544,1.7180020230247022e-06,0.9999997558577436,0.00020324504353939218,0.0006677674473902073,3.2596650038111945e-05
409.93333333328917,0.00016691294,-0.7855569,3.9848157e-05,-2.355391,9.2961884e-05,1.5709884,0.786,0.04,0.04,0.02246075450169638,0.00026193252622905,-0.0015248600446327032,4.069643051668595e-06,-0.004128907321543608,5.440669878908528e-06,0.9999998122465881,0.00020335622834077082,0.0005771385916153906,3.262022352323137e-05
409.9499999999558,0.00016673932,-0.78546727,3.9370432e-05,-2.3554652,9.2869916e-05,1.5709856,0.786,0.04,0.039999995,0.020255463290053122,0.00048771727476861924,-0.0013235971808578384,8.7998404330798e-06,-0.004952300123709608,1.3196697314870326e-05,0.9999998568105181,0.00020361568560920088,0.0004938112805283745,3.271108695972368e-05
409.9666666666225,0.00016639949,-0.78538483,3.8451995e-05,-2.355532,9.264537e-05,1.5709827,0.786,0.04,0.04,0.020537702177514383,0.0008033369559991505,-0.0008288001065448469,1.599530379581258e-05,-0.005698600363850883,2.3553749194515518e-05,0.9999998913553924,0.0002041137992181472,0.00041778551031937936,3.289419460416486e-05
409.9833333332891,0.0001658158,-0.78530896,3.6895508e-05,-2.3555968,9.224759e-05,1.5709797,0.7859981,0.04,0.04,0.010454236394163985,0.001153408184471021,-0.002988231617551129,2.5780100405671394e-05,-0.006366279336533283,3.96827856115355e-05,0.9999999188046457,0.00020400568571105908,0.000345932056244176,3.3217388353945536e-05
409.9999999999558,0.00016489926,-0.78523916,3.4475426e-05,-2.355655,9.161585e-05,1.5709767,0.7859962,0.04,0.04,0.018068796951853372,0.0015628758607557909,-0.0004899175311434689,4.629195686815667e-05,-0.006983047617546045,6.149653308242683e-05,0.9999999392198686,0.00020436914659984525,0.00028045624647984516,3.373136431712204e-05
410.0166666666224,0.00016355047,-0.78517485,3.0940602e-05,-2.355707,9.068286e-05,1.5709735,0.78599393,0.04,0.04,0.016523053665484788,0.0020197527222438243,-0.0005354662863110704,6.901884785428302e-05,-0.007524480438690613,8.961890068021775e-05,0.9999999540042916,0.00020516391382888167,0.00022070242249885462,3.4490923134317635e-05
410.0333333332891,0.0001616605,-0.7851159,2.6017127e-05,-2.355757,8.937516e-05,1.5709692,0.7859901,0.04,0.04,0.008832929986835047,0.0025191525563439433,-0.0030053569568977423,9.48624783924126e-05,-0.00799632244106103,0.000124617801391931,0.9999999647052965,0.00020594538572092506,0.00016404798687835503,3.555505484666697e-05
410.04999999995573,0.00015911252,-0.78506184,1.9411393e-05,-2.3558016,8.759972e-05,1.5709625,0.7859844,0.03999999,0.03999999,0.013967685124116613,0.0030641666817742444,-0.002106464328366364,0.00012867785992336245,-0.008421450910130591,0.00016729515615729356,0.9999999717508533,0.00020669687409177794,0.00011138700579677506,3.6981480258421895e-05
410.0666666666224,0.0001557822,-0.78501225,1.0811618e-05,-2.3558445,8.528491e-05,1.5709555,0.7859777,0.039999988,0.039999988,0.007666208575951572,0.003623432292320446,-0.0020651851285080625,0.00017158383129866776,-0.008788018084871278,0.0002173557688475365,0.9999999757011462,0.00020806777600985147,6.161676182276007e-05,3.8844336230348566e-05
410.08333333328903,0.00015153884,-0.7849667,-1.0932939e-07,-2.3558843,8.2343e-05,1.570945,0.78596944,0.039999984,0.03999998,0.008653729140672972,0.004219747741525409,-0.0034946952805592346,0.00021854912418157275,-0.009103359855444576,0.00027671848995128453,0.9999999770255383,0.0002099111932971591,1.3694175402000722e-05,4.121508548623968e-05
410.0999999999557,0.00014624646,-0.784925,-1.3691858e-05,-2.3559198,7.868102e-05,1.5709344,0.7859589,0.039999977,0.039999973,0.011473340955103772,0.004840993034465858,-0.0003351490561076531,0.0002712565512173195,-0.009377203021805504,0.0003437808204634547,0.9999999760768962,0.00021208771435159932,-3.0234979140258248e-05,4.4168478991932145e-05
410.11666666662234,0.00013976415,-0.7848867,-3.0288387e-05,-2.3559546,7.420516e-05,1.5709201,0.78594565,0.03999997,0.03999996,0.0038681164277631908,0.005483205089569331,-0.004399467050064665,0.00033209142614302545,-0.00958839539475335,0.0004205519956061092,0.9999999731028777,0.00021458376695654134,-7.392578519458186e-05,4.7781053005594883e-05
410.133333333289,0.00013194699,-0.7848517,-5.0261286e-05,-2.3559878,6.881629e-05,1.5709053,0.7859304,0.03999996,0.039999954,0.00624453188837748,0.006144715469007431,-0.0014369980565476226,0.0004016915888869747,-0.009767441689436874,0.0005055681149334686,0.9999999682349698,0.00021792779717575534,-0.00011541129920614426,5.213220275421948e-05
410.14999999995564,0.00012264657,-0.7848196,-7.398147e-05,-2.356017,6.241563e-05,1.5708871,0.78591204,0.039999966,0.039999958,0.008682998896691885,0.006820375219719988,-0.0025589909007806,0.0004762002035181166,-0.009896744921973066,0.0005998944044929549,0.9999999617151925,0.00022178861002602616,-0.00015522792298441505,5.730373547456966e-05
410.1666666666223,0.000111711546,-0.78479034,-0.000101826576,-2.3560448,5.4901164e-05,1.570865,0.7858906,0.03999997,0.039999958,0.00472616382010127,0.007509244155102268,-0.003686498373767222,0.0005590796496038179,-0.009977504672724562,0.0007045735092257163,0.9999999534114052,0.0002263753680915742,-0.00019471673509136535,6.337801841801125e-05
410.18333333328894,9.898841e-05,-0.78476363,-0.00013418018,-2.356072,4.6168727e-05,1.5708406,0.78586555,0.039999973,0.03999996,0.0028899180244845724,0.008208836030162467,-0.0030205554369722165,0.0006493165777811214,-0.010022490885433817,0.0008180340415737678,0.9999999433361444,0.0002316620123194467,-0.00023387768219637202,7.043897838378327e-05
410.1999999999556,8.4321655e-05,-0.7847394,-0.00017143048,-2.3560987,3.611403e-05,1.5708128,0.7858367,0.039999973,0.03999996,0.002456141147066937,0.008916010979207845,-0.0036644293565535335,0.0007477398434961905,-0.010027280705356223,0.0009412545390100061,0.9999999313200619,0.00023774420289863934,-0.00027324714258919475,7.857203384785759e-05
410.21666666662225,6.755438e-05,-0.78471744,-0.00021396884,-2.3561246,2.4632272e-05,1.5707811,0.78580374,0.039999973,0.039999958,0.00254061865865296,0.009628701043955402,-0.003935081560202391,0.000854287802432039,-0.009997668417932886,0.0010751827363627818,0.9999999171991181,0.0002446896192475631,-0.0003130634494297198,8.786366566145724e-05
410.2333333332889,4.8528767e-05,-0.7846976,-0.00026218948,-2.3561482,1.1616259e-05,1.570745,0.78576654,0.03999998,0.039999966,0.004961229273403589,0.010347844017050052,-0.0034070782411355083,0.000968557764364956,-0.00993334108646471,0.001218169198973759,0.9999999009895001,0.00025265684599130536,-0.0003528496653452966,9.840031462121083e-05
410.24999999995555,2.708628e-05,-0.78467965,-0.00031648797,-2.356171,-3.040271e-06,1.5707042,0.7857247,0.039999977,0.039999958,0.0022573304869322186,0.01106762903912816,-0.0041279730150112215,0.0010901004610101724,-0.009828327009272976,0.0013719836918495508,0.9999998822556082,0.00026165619499990346,-0.000393529522889866,0.00011026930628375057
410.2666666666222,3.0682756e-06,-0.78466344,-0.0003772605,-2.3561928,-1.9444331e-05,1.5706586,0.78567785,0.03999998,0.03999996,0.0015786564281805582,0.011788696155497366,-0.004314083012824099,0.0012191967189163527,-0.009689380704057464,0.0015349361079653179,0.9999998606486948,0.00027172802223158983,-0.0004354306785765223,0.0001235580712725828
410.28333333328885,-2.368408e-05,-0.784649,-0.00044490315,-2.3562143,-3.7702703e-05,1.5706085,0.7856258,0.039999977,0.039999954,0.001389434844778492,0.012509550633974525,-0.004102441430364756,0.0013564333433327995,-0.009518295200704716,0.0017087435227535741,0.999999835948767,0.00028300214538376744,-0.000478403927825377,0.00013835427938504896
410.2999999999555,-5.332919e-05,-0.78463626,-0.0005198116,-2.3562357,-5.7920828e-05,1.5705531,0.7855681,0.039999984,0.03999996,0.00014521230478070635,0.013227325463358013,-0.004964030909926365,0.0015007858904195,-0.009313369403433516,0.0018917120553445218,0.9999998074971923,0.00029545882669368173,-0.0005232238795948923,0.0001547463469766892
410.31666666662215,-8.6024746e-05,-0.7846251,-0.0006023794,-2.3562572,-8.020875e-05,1.5704918,0.7855045,0.03999998,0.039999958,-7.242952317909612e-05,0.013945168059314155,-0.005290306700311831,0.0016534840734705111,-0.009077645628756565,0.0020837139698086883,0.9999997747250531,0.0003091964517086972,-0.0005701584747834738,0.0001728198801696422
410.3333333332888,-0.0001219282,-0.78461546,-0.00069299905,-2.3562787,-0.0001046654,1.5704246,0.78543466,0.039999988,0.03999996,-0.00024310806387983774,0.014652797941379688,-0.005317063731902216,0.0018135238328438365,-0.008815377955979215,0.002288435999246382,0.9999997370870972,0.0003242532616725313,-0.000619326583935842,0.00019266587931542076
410.34999999995546,-0.00016119506,-0.7846072,-0.00079205976,-2.3563004,-0.00013140404,1.5703512,0.7853583,0.039999984,0.03999996,-0.0008189899638466613,0.015364277771470472,-0.005451938986067439,0.0019816133860732776,-0.008523591432468024,0.0024993788245839094,0.9999996938787339,0.00034072485889878964,-0.0006709662453773593,0.0002143672240856186
410.3666666666221,-0.00020398067,-0.7846001,-0.0008999484,-2.3563223,-0.00016052053,1.5702714,0.7852752,0.03999999,0.03999996,-0.0011689076858445446,0.01605931256335124,-0.005713532633011553,0.002157253030691657,-0.00820478813210795,0.002724744956058963,0.9999996442333134,0.00035870589214728163,-0.00072540484567299,0.0002380149982774503
410.38333333328876,-0.00025043794,-0.78459436,-0.0010170478,-2.356345,-0.00019212562,1.5701847,0.78518504,0.039999995,0.039999973,-0.00185846570213144,0.01675651499393754,-0.006215023942091058,0.002340079874145899,-0.007858801640219598,0.0029537423568053436,0.99999958723071,0.0003782285108875606,-0.0007829100930192405,0.0002636918452409705
410.3999999999554,-0.0003007189,-0.7845897,-0.0011437371,-2.3563685,-0.00022631665,1.5700909,0.78508747,0.03999999,0.039999973,-0.0027076835609651795,0.017437900982046478,-0.0064299492106734135,0.00253033277214365,-0.007489569511735008,0.003195156201595298,0.9999995216687938,0.000399352951382149,-0.0008439284425895797,0.0002914861705577066
410.41666666662206,-0.0003549739,-0.7845862,-0.0012803911,-2.3563933,-0.0002631945,1.5699896,0.7849822,0.039999995,0.03999996,-0.0031619595405985024,0.018113577692939555,-0.006848186507668608,0.0027280578516853714,-0.007097954957683846,0.0034514083024013947,0.9999994463314823,0.00042213681483186315,-0.0009087274607006004,0.00032148349963318266
410.4333333332887,-0.00041335073,-0.7845838,-0.0014273798,-2.3564196,-0.0003028619,1.5698807,0.784869,0.04,0.03999997,-0.0035694911970196586,0.018781620090791307,-0.0069673789359958604,0.0029328463044497877,-0.006686562041063853,0.003712107591697385,0.9999993599892327,0.0004466645084302312,-0.0009774256323837485,0.0003537669784313413
410.44999999995537,-0.000475996,-0.7845823,-0.0015850693,-2.356446,-0.00034541683,1.569764,0.7847476,0.04,0.039999973,-0.0019244631995984918,0.019442484989200433,-0.006575881322268273,0.0031444113889297232,-0.006253853294417402,0.0039814698419571954,0.999999261744741,0.00047298904228412384,-0.0010497241138693373,0.00038842067895413244
410.466666666622,-0.00054305414,-0.7845819,-0.0017538195,-2.356473,-0.00039095423,1.5696394,0.78461766,0.04,0.03999997,-0.0021354793559469343,0.020087679556232887,-0.006798598504964559,0.003362992068566515,-0.005798275758546445,0.004263706975073974,0.9999991503359055,0.0005011595408982408,-0.001125651791453615,0.00042552864287772723
410.48333333328867,-0.00061466714,-0.78458244,-0.0019339856,-2.3565001,-0.0004395724,1.5695063,0.78447884,0.04,0.039999977,-0.002091818835148196,0.0207267124970616,-0.00717333843165413,0.0035884022699886175,-0.005316147555048267,0.004552727125142368,0.9999990241021981,0.0005311925073057578,-0.0012055056600542321,0.000465172307012879
410.4999999999553,-0.0006909746,-0.7845839,-0.0021259168,-2.3565278,-0.0004913619,1.5693645,0.784331,0.04,0.03999996,-0.0025010563108551764,0.02134860602105099,-0.007298262294308522,0.003821234419773542,-0.004810784601223982,0.004857641989073725,0.9999988813646614,0.0005632200681753461,-0.0012894038442993723,0.0005074350274173149
410.516666666622,-0.00077211397,-0.7845863,-0.002329957,-2.3565562,-0.00054641836,1.569214,0.78417385,0.04,0.03999994,-0.003051585805846635,0.021964297003053326,-0.007569168451815322,0.004059858623823286,-0.004281915669353103,0.005168637246305528,0.9999987201639278,0.000597252077995523,-0.0013776133194372928,0.0005523966003197962
410.5333333332886,-0.0008582205,-0.7845896,-0.002546443,-2.356586,-0.0006048321,1.5690539,0.7840072,0.03999999,0.03999993,-0.004496001697740226,0.022560102231400196,-0.008446305868714532,0.004305195203523274,-0.003731280684781008,0.0054869818864147135,0.9999985376127664,0.0006334132426601375,-0.0014708480356996365,0.0006001383577401232
410.5499999999553,-0.00094942667,-0.7845938,-0.0027757068,-2.3566186,-0.0006666929,1.5688846,0.7838307,0.039999988,0.03999992,-0.006751001319571515,0.023144033440479234,-0.00888125301681253,0.0045563734946652175,-0.003163772920439614,0.00581448703323491,0.9999983308297163,0.000671705628437967,-0.0015696131378241762,0.0006507410603607906
410.5666666666219,-0.0010458624,-0.78459877,-0.003018073,-2.3566527,-0.0007320874,1.5687056,0.78364414,0.03999998,0.039999913,-0.004779242937003048,0.02372210167957845,-0.008571933923073871,0.004813767064050522,-0.002584915739146581,0.0061507265437825125,0.9999980979013781,0.0007121882217694918,-0.0016736090100104484,0.0007042829291163403
410.5833333332886,-0.0011476558,-0.78460467,-0.0032738612,-2.3566873,-0.0008011026,1.5685165,0.78344727,0.03999998,0.03999991,-0.002979110557044251,0.02429148830803713,-0.008481328199749782,0.0050767285919450355,-0.0019887060607285,0.006495597522783902,0.9999978372102014,0.000754917067317804,-0.0017823570882347251,0.0007608405555681466
410.59999999995523,-0.0012549307,-0.78461117,-0.0035433827,-2.3567226,-0.00087382254,1.5683174,0.78323984,0.039999984,0.039999906,-0.0037855900858030367,0.02483880884162652,-0.00841627939580647,0.00534557238979211,-0.0013704766706935084,0.006849283172674839,0.9999975457412089,0.0007999426977191178,-0.0018961535217458993,0.0008204907439978851
410.6166666666219,-0.0013678102,-0.7846186,-0.0038269432,-2.356759,-0.00095032965,1.5681082,0.7830215,0.039999988,0.039999906,-0.0042453612549397945,0.025372815853172553,-0.008953327030170044,0.005620100528592218,-0.000734090673218283,0.007211580723488344,0.9999972206138911,0.0008472526729732978,-0.002015115439828708,0.0008833103447875386
410.63333333328853,-0.0014864131,-0.78462684,-0.0041248407,-2.3567984,-0.0010307038,1.5678883,0.7827922,0.03999999,0.03999991,-0.007469077203725583,0.02587948072509342,-0.010084556904343955,0.0059003564963909395,-7.676402022892617e-05,0.007582528708714779,0.9999968562610388,0.0008969774276598472,-0.002140462613816865,0.0009493783925891708
410.6499999999552,-0.0016108567,-0.78463596,-0.0044373674,-2.3568401,-0.001115025,1.5676575,0.7825516,0.03999999,0.039999902,-0.0065739562923328165,0.026389796528017116,-0.010062140012201404,0.006185771548861218,0.0005889064855875425,0.007961762882481828,0.9999964497679789,0.000949097150179278,-0.0022719542176212037,0.001018768899606762
410.66666666662184,-0.0017412546,-0.7846458,-0.0047648093,-2.356882,-0.0012033688,1.5674158,0.78229946,0.04,0.039999906,-0.003140525913725156,0.02689818183674829,-0.009031206583776097,0.006476556326615817,0.0012657118149182675,0.008349386713241012,0.9999959998749917,0.0010036792744354088,-0.002408604280741461,0.0010915527236732823
410.6833333332885,-0.0018777186,-0.7846563,-0.0051074447,-2.3569252,-0.0012958111,1.5671629,0.78203565,0.04,0.039999902,-0.004983339559205824,0.027371068839096742,-0.009825347022784925,0.006772281254506442,0.0019649140501935922,0.008744843522929969,0.999995501277718,0.0010607842906482001,-0.0025511551779235165,0.0011678048948349361
410.69999999995514,-0.0020203562,-0.7846677,-0.005465544,-2.35697,-0.0013924241,1.5668986,0.78176004,0.04,0.039999902,-0.005539619449757005,0.027828106952345645,-0.010218784899862499,0.007072957109692444,0.0026794409678858253,0.009148897395321149,0.9999949497258743,0.0011204974333965023,-0.0026997232915525163,0.001247598652161587
410.7166666666218,-0.002169273,-0.7846798,-0.0058393725,-2.3570194,-0.0014932796,1.5666227,0.78147227,0.04,0.0399999,-0.010672772548536713,0.02825096227116672,-0.011636180483365344,0.007377594027422475,0.003408779797299576,0.009561182212821467,0.9999943364925554,0.0011827786760011535,-0.002855944556185211,0.0013310139402674293
410.73333333328844,-0.0023245725,-0.78469265,-0.0062291874,-2.357069,-0.0015984465,1.5663347,0.7811723,0.04,0.039999902,-0.0035281239212148208,0.02872126740120079,-0.010224763504673717,0.007687131458344397,0.004139583617047731,0.009981264137828669,0.9999936620526453,0.0012477416192244826,-0.0030179382804046443,0.0014181128048479273
410.7499999999551,-0.002486355,-0.78470635,-0.0066352356,-2.3571196,-0.0017079927,1.566035,0.78085977,0.04,0.039999895,-0.004538961832389887,0.02913581143468378,-0.01027714708055072,0.00800075887384544,0.004888697962605087,0.010409402063206598,0.9999929217590917,0.0013153699453894486,-0.0031857903337216627,0.0015089644036761704
410.76666666662175,-0.0026547157,-0.7847205,-0.007057763,-2.357171,-0.0018219837,1.5657231,0.78053457,0.04,0.039999895,-0.005197913933874254,0.02954059948291274,-0.010542533947033306,0.00831825604282721,0.005656303695131837,0.010845527843353929,0.9999921092364407,0.0013857043398023778,-0.0033600036690955284,0.0016036407580018734
410.7833333332884,-0.0028297512,-0.78473544,-0.007497005,-2.357228,-0.0019404833,1.5653989,0.7801965,0.04,0.03999989,-0.012390829621544697,0.029876507889317096,-0.0127964641195355,0.008639921595846731,0.006437099848313853,0.011288826364823121,0.9999912122625164,0.0014587736212519605,-0.0035425710678919243,0.0017022242782785593
410.79999999995505,-0.0030115515,-0.7847512,-0.007953189,-2.3572853,-0.0020635528,1.5650622,0.7798453,0.04,0.03999989,-0.0037303080174799774,0.030306269548345706,-0.010806655766049111,0.008965428604370232,0.007214839872769307,0.011740418973591377,0.9999902331979877,0.0015345873232785487,-0.003731134033946424,0.0018047684621447333
410.8166666666217,-0.0032002055,-0.78476787,-0.00842654,-2.3573437,-0.002191252,1.5647129,0.779481,0.04,0.03999988,-0.0051279820387994945,0.03065930601756344,-0.01131331435892946,0.009294988531165706,0.00801128451872879,0.012200747464862795,0.9999891652154802,0.001613262228160892,-0.003926016172234821,0.0019113434137998163
410.83333333328835,-0.003395799,-0.7847853,-0.008917269,-2.3574035,-0.0023236386,1.5643506,0.7791033,0.04,0.039999872,-0.005958510411274709,0.030995930831379317,-0.011710660752717317,0.009627229614579041,0.008823215310858943,0.012667567719604617,0.999988000630112,0.0016947612737356166,-0.0041276895912185085,0.002022018460560354
410.849999999955,-0.0035984148,-0.7848033,-0.009425585,-2.3574681,-0.002460769,1.5639753,0.7787121,0.04,0.03999987,-0.011757782014409912,0.03127161813759119,-0.013227234503498941,0.009963092961759165,0.009646721745166793,0.013141955512719275,0.9999867255078829,0.0017791556833707048,-0.00433787799344285,0.002136873321055175
410.86666666662165,-0.003808133,-0.7848221,-0.009951688,-2.3575335,-0.0026026962,1.5635871,0.77830726,0.039999995,0.039999858,-0.004648301991116988,0.03164554612259188,-0.011597684706599054,0.010301660996652667,0.010468143655091945,0.013623677854187602,0.9999853419457424,0.001866469435784016,-0.0045544305936213786,0.0022559582154163685
410.8833333332883,-0.004025031,-0.7848416,-0.01049577,-2.3575995,-0.0027494733,1.5631856,0.7778886,0.04,0.03999986,-0.004937565567808555,0.03194223564724624,-0.011751632586443073,0.010643105239968562,0.01130528221632891,0.014112791951302321,0.9999838423881061,0.001956712929579421,-0.004777550634173434,0.002379337548296674
410.89999999995496,-0.0042491835,-0.7848619,-0.011058021,-2.3576696,-0.0029011506,1.5627706,0.777456,0.039999995,0.03999985,-0.010482915741860666,0.03217029480458329,-0.013624922359745106,0.010987189020366508,0.012158042409042912,0.014609378220396145,0.9999822113065788,0.002049916105383151,-0.005008931127783543,0.0025070945978582196
410.9166666666216,-0.0044806628,-0.78488296,-0.011638622,-2.357742,-0.003057776,1.5623423,0.7770092,0.04,0.039999854,-0.007770257575767658,0.03246516917839552,-0.012795325581671513,0.011333609520400308,0.013010379413709411,0.015113994537210905,0.9999804447712995,0.0021460558369350673,-0.005247731635093962,0.0026392862718368926
410.93333333328826,-0.004719534,-0.78490466,-0.012237738,-2.3578157,-0.0032193959,1.5618999,0.77654815,0.04,0.03999985,-0.006059311831285719,0.03272179190432732,-0.01284220645545453,0.011682561933989418,0.01386988516790917,0.015624767461973308,0.9999785357476509,0.002245188835212729,-0.005493737489761533,0.0027759718067246943
410.9499999999549,-0.0049658665,-0.78492725,-0.01285554,-2.35789,-0.0033860556,1.561444,0.77607286,0.039999995,0.039999835,-0.0044252473161865424,0.03299245445582376,-0.01229396288231488,0.012033896264457174,0.014741022465202957,0.016143032518383144,0.9999764802976773,0.002347405228830422,-0.0057461676214840395,0.0029172071963892354
410.96666666662156,-0.0052197226,-0.7849505,-0.013492184,-2.35797,-0.0035577968,1.5609744,0.77558297,0.04,0.03999983,-0.01409175226927406,0.03308477993558823,-0.015014223006470928,0.012386720971033376,0.015628224429255787,0.016669314193018932,0.9999742524586276,0.002452586827566514,-0.00600805447711742,0.0030630897900528367
410.9833333332882,-0.0054811626,-0.7849746,-0.014147826,-2.3580508,-0.0037346608,1.5604905,0.7750785,0.04,0.039999828,-0.005156580120302401,0.033403663357562535,-0.013094507558264468,0.012741919851556809,0.016505094202427836,0.01720151159964122,0.9999718574258077,0.0025608258709029245,-0.006276858214929577,0.0032136549579303364
410.99999999995487,-0.0057502445,-0.7849994,-0.0148226,-2.3581324,-0.003916687,1.5599921,0.7745592,0.04,0.039999828,-0.0054208736371741395,0.03358304521371286,-0.0133945618222997,0.013098505001127685,0.017395448906169626,0.017740753176948246,0.9999692848527162,0.0026721012151485826,-0.006552809805573961,0.003368962732889139
411.0166666666215,-0.006027026,-0.78502494,-0.015516652,-2.3582196,-0.00410391,1.55948,0.77402514,0.04,0.039999817,-0.013583320716814562,0.033650888938875634,-0.015185781121185293,0.01345684740513026,0.018297923457407786,0.01828776244640045,0.9999665111149802,0.0027864663242687365,-0.006837957778615275,0.003529105747304536
411.03333333328817,-0.0063115554,-0.78505135,-0.016230112,-2.3583078,-0.004296369,1.5589535,0.7734762,0.04,0.039999813,-0.00566616672241782,0.03391931249634751,-0.01360141321631314,0.013816395681074616,0.019191711125602723,0.018840898660950234,0.9999635399353743,0.0029039387752487996,-0.007130178473159643,0.0036941161927752423
411.0499999999548,-0.0066038826,-0.7850785,-0.016963108,-2.3583968,-0.0044940957,1.5584128,0.7729122,0.039999995,0.0399998,-0.005354995556783315,0.03407821708766405,-0.013568430771737638,0.014177095591972215,0.020097834907400115,0.019401863135528292,0.9999603620975777,0.0030245207819612416,-0.007429374165302453,0.0038640532129631633
411.0666666666215,-0.006904059,-0.7851062,-0.017715748,-2.3584907,-0.0046971203,1.5578574,0.772333,0.04,0.0399998,-0.013062264106755705,0.034074142395664614,-0.015740259565344417,0.014538569836544779,0.021016733918824748,0.01996888115246777,0.9999569484159931,0.0031481594677018783,-0.007738009200079566,0.004039012275338411
411.0833333332881,-0.007212124,-0.7851349,-0.018488146,-2.3585865,-0.0049054744,1.5572873,0.77173877,0.04,0.0399998,-0.0072006455000606095,0.03426885943520058,-0.01477651980255068,0.014901511831282375,0.02192731783948582,0.020542354178614143,0.9999533007927651,0.003274974212625087,-0.0080542275579274,0.004219027850767762
411.0999999999548,-0.007528119,-0.78516424,-0.019280408,-2.358683,-0.0051191864,1.5567027,0.7711292,0.04,0.039999794,-0.005701429473936592,0.03441497647791586,-0.013996258662052341,0.015264251627695812,0.022843966530657824,0.021123142410148718,0.999949411667187,0.0034049004385113555,-0.008377602513095592,0.004404149813859787
411.1166666666214,-0.007852085,-0.7851946,-0.020092633,-2.3587809,-0.0053382814,1.5561035,0.7705043,0.04,0.03999979,-0.006115261424843865,0.034490315682509515,-0.014658011023360729,0.01562784939023639,0.023771696537278883,0.02171039996635039,0.9999452689078093,0.0035379804589293013,-0.008708213925580499,0.004594441575151689
411.1333333332881,-0.008184056,-0.7852255,-0.020924913,-2.3588839,-0.005562783,1.5554893,0.76986396,0.04,0.03999979,-0.013507335705131851,0.034414299078978916,-0.016583104764378298,0.01599153241939944,0.02471037407062943,0.022304947885016184,0.999940839590892,0.0036741725598545645,-0.00904840548059815,0.004790003394709356
411.14999999995473,-0.00852407,-0.78525704,-0.021777324,-2.358988,-0.005792717,1.5548602,0.76920813,0.04,0.039999783,-0.006697982661307833,0.0346026898104812,-0.0148606013706587,0.01635547660108723,0.025636991253228054,0.022905566793332593,0.9999361285279715,0.0038135009631599347,-0.009396140790289343,0.004990852947648247
411.1666666666214,-0.008872153,-0.7852896,-0.022649955,-2.3590934,-0.0060281013,1.5542164,0.7685367,0.04,0.03999978,-0.006237097197114849,0.034652460393679724,-0.01513487067212882,0.016719440573523675,0.026572126929226864,0.023512406204413187,0.9999311258676978,0.003955938288053148,-0.009751140750181964,0.005197049864034969
411.18333333328803,-0.009228338,-0.7853228,-0.023542874,-2.359204,-0.0062689586,1.5535576,0.76784974,0.04,0.039999776,-0.013522569800317186,0.03452162965366934,-0.01701684847292828,0.017083277313195956,0.02751631919076538,0.024126465264685135,0.9999257956340564,0.004101549425278937,-0.01011565900761801,0.0054086930725575095
411.1999999999547,-0.009592646,-0.7853569,-0.024456147,-2.3593156,-0.0065153027,1.5528839,0.76714706,0.04,0.03999977,-0.006096345282591287,0.034689064581860246,-0.01541266417213194,0.01744652525874337,0.028450563234318483,0.024746332420526863,0.9999201460375718,0.0042502604309702565,-0.010487478847569957,0.005625799666866054
411.21666666662134,-0.009965109,-0.78539157,-0.025389828,-2.3594286,-0.0067671523,1.5521951,0.76642877,0.04,0.039999764,-0.0072563577846462834,0.034674440117745536,-0.015606483268304494,0.01780964183655756,0.029392385823372467,0.025372667653276212,0.9999141592167738,0.004402150364029351,-0.010866976259552434,0.005848426879008888
411.233333333288,-0.01034574,-0.7854271,-0.026343973,-2.359547,-0.007024519,1.5514913,0.7656951,0.04,0.039999753,-0.013448719105557672,0.03448512858051783,-0.017633037313480315,0.018171801125506336,0.03034069412819415,0.02600636233319311,0.9999078001796555,0.004557327736301951,-0.011255927179730106,0.006076677308416097
411.24999999995464,-0.010734559,-0.78546345,-0.027318636,-2.3596659,-0.007287419,1.5507722,0.7649453,0.039999995,0.039999742,-0.005925931261496764,0.034651012030825074,-0.015882023497337805,0.01853136955168041,0.031277169006698816,0.026645447269956705,0.9999010790982298,0.004715476334793839,-0.01165217207001304,0.006310561558404683
411.2666666666213,-0.0111315865,-0.78550065,-0.028313842,-2.3597867,-0.007555859,1.5500383,0.7641795,0.04,0.039999746,-0.007822434158022418,0.03455418322779319,-0.016219420797836115,0.01889153657559861,0.032222364217075194,0.02729113566674795,0.9998939772373657,0.004876626149370577,-0.012056055572196227,0.006550139378812521
411.28333333328794,-0.011536835,-0.78553855,-0.029329631,-2.3599126,-0.0078298515,1.5492891,0.763398,0.04,0.039999746,-0.013373645625125441,0.03433437131547118,-0.018179497007975165,0.019251548632381738,0.03317216792261675,0.02794342901646674,0.9998864547985526,0.005040908893611262,-0.012469471661245441,0.006795515020785058
411.2999999999546,-0.011950313,-0.78557736,-0.030366033,-2.360039,-0.008109405,1.5485245,0.7626006,0.04,0.03999973,-0.005594470897340997,0.034475610478773566,-0.016351810052195326,0.019610137167534278,0.034108782178871616,0.028601253877445523,0.9998785248382892,0.005208295699818204,-0.01289005298886175,0.007046684117668924
411.31666666662124,-0.012372025,-0.7856167,-0.031423073,-2.3601675,-0.008394519,1.5477445,0.7617874,0.04,0.03999973,-0.00882231240122433,0.03430407556476306,-0.01707867927100981,0.019967267010025713,0.035054406861637716,0.02926568339993684,0.9998701583947605,0.005378802080601862,-0.013318798320491378,0.007303728576042448
411.3333333332879,-0.012801983,-0.78565717,-0.03250076,-2.360301,-0.008685201,1.5469494,0.7609584,0.04,0.039999727,-0.012941746863570636,0.03404614196293593,-0.018706669979051682,0.02032237157893009,0.035999746854104016,0.02993646684290608,0.999861324774323,0.005552367668071438,-0.013756705331583168,0.007566735903558674
411.34999999995455,-0.013240192,-0.7856982,-0.033599116,-2.360435,-0.008981456,1.546139,0.7601134,0.04,0.039999723,-0.006049621347470335,0.03419331727567282,-0.01654473937031664,0.020675770053957036,0.03693419198423109,0.030612685364795368,0.9998520329216692,0.005728995270388808,-0.0142018526862591,0.007835703917011563
411.3666666666212,-0.01368665,-0.78574,-0.034718134,-2.360571,-0.009283282,1.5453132,0.75925255,0.04,0.039999727,-0.008198471801446061,0.03396107114771868,-0.017621263869260773,0.02102744020998744,0.03787489079226394,0.031294970778582086,0.999842257401444,0.005908652324677854,-0.014654850348517285,0.00811070301227294
411.38333333328785,-0.014141358,-0.7857827,-0.035857797,-2.3607123,-0.009590677,1.5444723,0.7583758,0.04,0.039999716,-0.014159836283500482,0.033594517807912505,-0.01925854146096473,0.021377101653866318,0.03881685100152356,0.03198430214875317,0.9998319552068271,0.006091316946530103,-0.015117350254610864,0.008391836892457927
411.3999999999545,-0.014604315,-0.78582597,-0.03701814,-2.3608541,-0.009903646,1.5436162,0.7574832,0.04,0.039999712,-0.006089622638949521,0.03378577925234466,-0.01707848911911558,0.02172506387080285,0.039742686497905855,0.032678352907859545,0.9998211428424238,0.006276997190630339,-0.01558701293146294,0.008679093236772661
411.41666666662115,-0.015075516,-0.7858702,-0.038199116,-2.360998,-0.010222183,1.542745,0.7565746,0.04,0.03999971,-0.008067188416682747,0.03350164115982768,-0.017924294305604604,0.0220706380607487,0.04067490346525812,0.03337836958219114,0.9998097967738534,0.006465616113912363,-0.01606423824707839,0.008972532130601516
411.4333333332878,-0.015554949,-0.7859152,-0.03940072,-2.3611467,-0.010546278,1.5418586,0.7556502,0.04,0.039999705,-0.013557001852526618,0.033112541840513154,-0.019612108364519543,0.022413963694497607,0.041608281052764484,0.034084701192592944,0.9997978687341728,0.006657237161784376,-0.016550766621657005,0.009272270067948025
411.44999999995446,-0.016042601,-0.785961,-0.040622924,-2.3612962,-0.010875927,1.540957,0.75471,0.04,0.039999697,-0.006367293550413322,0.03319617907857342,-0.0177121982566808,0.02275479181530448,0.04252773087210672,0.034796707120901146,0.9997853762061681,0.006851808884812172,-0.01704437651856527,0.009578281077004681
411.4666666666211,-0.016538471,-0.7860075,-0.041865706,-2.3614476,-0.011211121,1.5400403,0.75375396,0.04,0.039999705,-0.008400731469260236,0.03293109700890362,-0.018440036979372465,0.02309271201397719,0.04345223540611838,0.03551423509591593,0.9997722905933777,0.0070492934418903965,-0.01754564517046939,0.009890639978935611
411.48333333328776,-0.017042544,-0.78605473,-0.043129012,-2.3616037,-0.011551853,1.5391082,0.75278217,0.04,0.039999697,-0.013417520822200935,0.03247249694591642,-0.020057257304828546,0.023427815504950947,0.044375726337571614,0.03623751621789175,0.9997585630261788,0.007249675408865334,-0.01805616223598271,0.01020944991681217
411.4999999999544,-0.017554797,-0.78610283,-0.04441281,-2.3617606,-0.011898112,1.5381612,0.7517946,0.04,0.039999686,-0.0062773869122789705,0.03255110046096327,-0.018128786967608335,0.023760362504500553,0.04528349867534398,0.036966454061577746,0.9997442165626954,0.007452927908411242,-0.018573526618967304,0.010534677212366924
411.51666666662106,-0.018075213,-0.7861517,-0.04571706,-2.3619194,-0.012249882,1.5371989,0.7507914,0.04,0.039999686,-0.00853966107168258,0.03221355156199368,-0.019065822590302872,0.024090027529312406,0.04619617878500057,0.03770080547916357,0.9997292158191452,0.007659084958170605,-0.019098553269276744,0.010866403188784532
411.5333333332877,-0.018603778,-0.78620136,-0.047041714,-2.3620832,-0.0126071535,1.5362216,0.7497724,0.04,0.039999682,-0.013682040616469493,0.03173344084115154,-0.020507267407610108,0.024415495169746303,0.047106855819781274,0.03844064290740298,0.9997135125898929,0.007868010331053867,-0.019632650002781624,0.011204740625144335
411.54999999995437,-0.019140461,-0.7862517,-0.04838672,-2.3622477,-0.012969909,1.5352291,0.7487378,0.04,0.03999968,-0.0066801269386074225,0.03178341180568034,-0.018844492488656606,0.024738667764416154,0.04799986755526815,0.03918511764713941,0.9996971247004572,0.00807972881516951,-0.020173802548543632,0.011549655347415588
411.566666666621,-0.01968524,-0.78630286,-0.049752,-2.362414,-0.013338132,1.534222,0.74768764,0.04,0.039999675,-0.008040393857511319,0.031449260548903346,-0.01896036474904328,0.02505837213122595,0.0488952713652107,0.03993613722425096,0.9996800301299856,0.008294235875315978,-0.0207220799904692,0.011901193697454732
411.58333333328767,-0.020238087,-0.7863548,-0.051137485,-2.3625853,-0.013711804,1.5331997,0.7466218,0.04,0.03999967,-0.014241983989937701,0.03080651381057037,-0.02134854543165421,0.025374310354730936,0.049791343996551704,0.04069185240471832,0.9996621628411647,0.00851136404215359,-0.021279602662317605,0.01225950147439407
411.5999999999543,-0.020798977,-0.7864076,-0.052543115,-2.3627574,-0.014090906,1.5321628,0.7455406,0.04,0.039999668,-0.006390254652832716,0.030942802619408905,-0.018950576500431637,0.025687776018308836,0.05066514414617146,0.04145186706531471,0.9996435565682684,0.008731300082252426,-0.02184367252850304,0.012624507154120262
411.616666666621,-0.021367883,-0.78646094,-0.053968813,-2.362931,-0.0144754145,1.531111,0.74444383,0.04,0.03999966,-0.008103924515845407,0.030555492387435157,-0.019543319428572126,0.025996371350739983,0.05154517359218048,0.042217474213198755,0.9996241764812601,0.008953824889576297,-0.022414979748658415,0.012996287811388781
411.6333333332876,-0.02194476,-0.7865152,-0.055414487,-2.363109,-0.014865312,1.5300447,0.7433317,0.04,0.039999668,-0.012813810637557488,0.029934833564998486,-0.021094776392871495,0.026302263125660447,0.052420722059184015,0.04298888599962304,0.9996039725436183,0.0091789410719612,-0.022994692781094107,0.0133749474659754
411.6499999999543,-0.022529578,-0.7865701,-0.056880053,-2.3632889,-0.01526057,1.5289636,0.7422044,0.04,0.039999664,-0.008404187410993025,0.029855034066576802,-0.01999834140646861,0.026604468127848516,0.05328163960807677,0.043763553314878655,0.9995829481485974,0.009406771956871007,-0.0235816003781635,0.01376047003247673
411.6666666666209,-0.023122305,-0.7866256,-0.058365427,-2.3634698,-0.015661167,1.5278679,0.7410619,0.04,0.03999966,-0.007579126763590516,0.029582358442871437,-0.01978044673716095,0.026901625336790497,0.054138411694751185,0.04454332636117127,0.9995610910363073,0.00963716969312462,-0.02417532076948529,0.01415288353323287
411.6833333332876,-0.023722896,-0.7866822,-0.059870508,-2.3636546,-0.01606708,1.5267574,0.73990417,0.04,0.039999653,-0.011689575537743302,0.02892983131716348,-0.021653652238673438,0.027194905236885114,0.05499294440268598,0.04532929464408722,0.99953834674463,0.009870013557637012,-0.024777138067069306,0.014552307328707005
411.69999999995423,-0.024331318,-0.78673923,-0.06139518,-2.3638415,-0.01647827,1.5256326,0.73873144,0.04,0.03999964,-0.009317142968545689,0.028750033899871408,-0.020225726128320076,0.027484560330506044,0.055832275863894824,0.04611858918311677,0.9995147136975531,0.010105406037873091,-0.025386107848161765,0.014958723181798738
411.7166666666209,-0.02494752,-0.7867972,-0.06293935,-2.36403,-0.016894713,1.5244938,0.73754364,0.04,0.03999964,-0.007622792327355299,0.02846142606289237,-0.020242173932638607,0.027769539237137902,0.05666647475133468,0.046912240106201236,0.9994901871460226,0.010343218573351352,-0.026001549614338062,0.015372151638783998
411.73333333328753,-0.025571464,-0.7868558,-0.06450292,-2.3642216,-0.017316384,1.5233407,0.73634106,0.04,0.03999965,-0.011265915706726304,0.02786730126584508,-0.021306640301288482,0.028050272538436005,0.057498186690342235,0.04771135145776867,0.9994647099830724,0.010583491677425406,-0.0266246891531346,0.015792692293145012
411.7499999999542,-0.0262031,-0.786915,-0.06608575,-2.3644156,-0.017743254,1.5221733,0.7351236,0.04,0.039999656,-0.00971111629171073,0.027553428684631842,-0.02104257268191745,0.028326348380896857,0.05831762306287459,0.04851386033844607,0.999438271920611,0.010826091296776712,-0.027255023863184624,0.016220358867613385
411.76666666662084,-0.026842387,-0.7869752,-0.06768775,-2.3646107,-0.018175278,1.5209916,0.7338914,0.04,0.039999675,-0.006929035488578705,0.02732207097599082,-0.0207798464097797,0.028598557370767066,0.05912693872354967,0.04932124678638719,0.9994108740638153,0.011071080523545907,-0.02789160668207495,0.016655157031208557
411.7833333332875,-0.027489265,-0.7870359,-0.06930876,-2.3648093,-0.018612431,1.5197957,0.73264456,0.04,0.039999675,-0.011835754746480909,0.026567731584040133,-0.02180664240900576,0.028865416403098393,0.05993294780384966,0.050133018018580125,0.9993824510407511,0.011318281718557685,-0.02853592710296858,0.017097190268990908
411.79999999995414,-0.02814369,-0.78709745,-0.07094869,-2.3650107,-0.019054681,1.5185859,0.7313832,0.04,0.039999675,-0.010139657220253895,0.02629191388091312,-0.02160876725474381,0.029128341334344762,0.06072338006271444,0.05094664170215592,0.9993529980583081,0.011567751859878083,-0.029187215503397385,0.017546476567606762
411.8166666666208,-0.028805606,-0.7871597,-0.07260738,-2.3652132,-0.019501986,1.5173627,0.73010737,0.04,0.03999968,-0.0071663645272002086,0.026066557797244094,-0.02048742433502504,0.029386494333554225,0.061503455457066494,0.051765287081752445,0.9993225224901767,0.01181942102378508,-0.029844434438305128,0.018002973742985408
411.83333333328744,-0.02947496,-0.78722245,-0.074284725,-2.3654177,-0.019954313,1.5161254,0.7288172,0.04,0.039999668,-0.009454475037862231,0.025475558687618194,-0.0216158018018886,0.029639798465810274,0.06228139516558032,0.05258718168896437,0.9992909711693077,0.012073267939753171,-0.03050850795289671,0.018466783240312746
411.8499999999541,-0.030151697,-0.78728616,-0.07598054,-2.3656259,-0.020411624,1.5148746,0.7275131,0.04,0.03999967,-0.011269209238173872,0.024818397531251035,-0.022319339565535223,0.02988775982355671,0.06304785740348236,0.05341211302794025,0.9992583099337983,0.012329301568156151,-0.031179677102550974,0.01893795360832783
411.86666666662074,-0.030835753,-0.78735054,-0.077694654,-2.3658354,-0.020873873,1.5136104,0.7261947,0.04,0.039999668,-0.007999502668876168,0.024615867645014222,-0.021139637401179634,0.030130647495012264,0.06379767906882497,0.05424131594212088,0.9992245495695523,0.012587336472807853,-0.03185687151887116,0.01941644238978136
411.8833333332874,-0.031527087,-0.7874154,-0.079426974,-2.366047,-0.021341018,1.5123324,0.7248622,0.04,0.039999664,-0.00909797672679069,0.024128559181932352,-0.021718304062967597,0.03036918283017681,0.06454442198040505,0.05507272091768024,0.9991896485594508,0.01284737146211514,-0.032540567719858984,0.01990232927636441
411.89999999995405,-0.03222561,-0.78748125,-0.08117733,-2.3662615,-0.021813024,1.5110415,0.7235159,0.04,0.03999966,-0.010329651105878135,0.023491982989848337,-0.022184091261179262,0.030602723862683617,0.06527697779651384,0.055907673094812205,0.9991535826148878,0.01310937902412142,-0.033230707877568134,0.0203956510901712
411.9166666666207,-0.032931257,-0.7875475,-0.08294557,-2.3664782,-0.022289854,1.5097373,0.7221559,0.04,0.039999656,-0.009500133209905393,0.023118693900459064,-0.021857704795125166,0.030831414513654093,0.06599934021495496,0.05674632636372911,0.9991163267404881,0.013373331591233977,-0.03392726407273188,0.020896420633307426
411.93333333328735,-0.033643983,-0.7876144,-0.08473153,-2.366696,-0.022771452,1.5084201,0.7207823,0.04,0.039999664,-0.007245801584732092,0.022831342631030038,-0.021192205774633877,0.031054644987470917,0.06670850302648586,0.05758676232838332,0.9990778888666789,0.013639182458650399,-0.0346292853745757,0.02140460870947839
411.949999999954,-0.034363724,-0.7876822,-0.08653502,-2.366917,-0.023257777,1.5070899,0.7193952,0.04,0.039999653,-0.010936574071762628,0.021953844456082394,-0.02281547332181333,0.03127261198754064,0.06741211898295468,0.05842954471486885,0.9990382027233211,0.013906879472232455,-0.03533790025058749,0.021920333222394724
411.96666666662065,-0.03509039,-0.78775054,-0.088355884,-2.36714,-0.023748789,1.5057471,0.71799475,0.04,0.039999656,-0.009149715077394482,0.02164143323279133,-0.021796385768468873,0.03148523947256915,0.06809906921515693,0.059274932411204274,0.9989972710684164,0.014176328741143069,-0.03605233630306488,0.0224435547177969
411.9833333332873,-0.035823938,-0.78781945,-0.09019396,-2.3673646,-0.024244435,1.504391,0.71658105,0.04,0.039999645,-0.008272592306179938,0.021200661426287737,-0.022223931258880114,0.03169300753518184,0.06877573292728824,0.060123716630263516,0.9989550650022851,0.014447527964350683,-0.03677265236767262,0.022974313479315226
411.99999999995396,-0.036564283,-0.7878892,-0.0920491,-2.367591,-0.024744669,1.5030227,0.7151542,0.04,0.039999638,-0.008064729190859765,0.020766502770136475,-0.021739034563084125,0.031895297048836244,0.06944028744591722,0.06097291924059082,0.9989115840896949,0.014720397781432215,-0.03749819298173823,0.02351260478290396
412.0166666666206,-0.037311357,-0.7879594,-0.09392105,-2.3678203,-0.025249436,1.5016421,0.7137143,0.04,0.03999964,-0.010821715687359124,0.019916242559397945,-0.022456081506705416,0.032092331711188096,0.07009679151778342,0.061824157073748186,0.9988667677918295,0.014994849451060744,-0.038229878168680745,0.024058493432701097
412.03333333328726,-0.038065065,-0.78803015,-0.09580968,-2.3680515,-0.025758693,1.5002487,0.71226203,0.04,0.03999964,-0.00897421351611083,0.019551718138274832,-0.02252922121219747,0.03228456814743608,0.07073556419963996,0.06267833743101564,0.9988205990927749,0.015271086665375622,-0.03896735576331031,0.02461198742126165
412.0499999999539,-0.038825348,-0.78810155,-0.09771477,-2.3682842,-0.026272388,1.4988433,0.71079695,0.04,0.03999964,-0.007834956227603662,0.019137642528049836,-0.021777082971508044,0.03246971280741921,0.07135935552771354,0.06353303318865122,0.9987730891920281,0.015548789156639873,-0.039709817235223696,0.025173038686663877
412.06666666662056,-0.039592136,-0.78817374,-0.09963615,-2.3685188,-0.02679047,1.4974264,0.70931864,0.04,0.039999638,-0.00841784956000513,0.01859531072438414,-0.02193594608397298,0.03264965420411177,0.07197560945125979,0.06438954659166181,0.9987242183545942,0.015827630126700184,-0.04045722267254979,0.025741696334954583
412.0833333332872,-0.040365342,-0.78824645,-0.10157362,-2.3687563,-0.02731288,1.4959977,0.7078287,0.04,0.03999963,-0.010290843111260273,0.01782299687616007,-0.022574274693942797,0.03282732945661604,0.07258141910627504,0.0652472011390467,0.9986739211243972,0.016108249348196133,-0.04121027064612295,0.02631800072632536
412.09999999995387,-0.041144907,-0.78831977,-0.10352695,-2.3689957,-0.027839566,1.4945573,0.7063266,0.04,0.039999634,-0.008644472906493839,0.01741244971871503,-0.0221922568465871,0.03299605316381435,0.07316961230948708,0.06610439181014617,0.9986222021171728,0.016390270615391323,-0.04196835795403318,0.026901921835531157
412.1166666666205,-0.041930716,-0.78839374,-0.10549599,-2.369236,-0.02837048,1.4931053,0.7048125,0.04,0.039999627,-0.0070114577627844454,0.017060614318950562,-0.02180936114404286,0.03315964763174055,0.07374505263468424,0.066963910039179,0.9985690613239756,0.016673679124864137,-0.04273089016373296,0.02749343952310146
412.13333333328717,-0.042722713,-0.78846824,-0.10748048,-2.3694785,-0.028905557,1.4916421,0.70328635,0.04,0.039999627,-0.008990434275246706,0.01627865227201153,-0.022156441641385527,0.03331650229504668,0.07431167460201177,0.06782324820857198,0.9985144571569183,0.01695825062335923,-0.04349830544428691,0.028092597030102775
412.1499999999538,-0.043520804,-0.78854316,-0.10948026,-2.369723,-0.029444749,1.4901677,0.7017484,0.04,0.03999963,-0.009120200274592705,0.01574253814611848,-0.02221740772256897,0.0334690744685789,0.07486511757615465,0.06868373113037404,0.9984583609632884,0.017244009334566393,-0.04427063222701402,0.028699419624681026
412.1666666666205,-0.044324923,-0.7886188,-0.11149507,-2.36997,-0.029987993,1.4886822,0.7001988,0.04,0.039999627,-0.009196125572041858,0.015067361083659359,-0.022593875892207294,0.03361629907446359,0.07540220273095219,0.06954412592745672,0.9984007494878362,0.017530917884160186,-0.04504780911834411,0.02931390854019468
412.1833333332871,-0.045134954,-0.78869516,-0.113524765,-2.3702183,-0.030535236,1.4871854,0.6986379,0.04,0.039999638,-0.00726575969069998,0.014753871947559283,-0.022142589149831693,0.03375793903977459,0.07592439271705456,0.07040364773248643,0.998341625603918,0.0178189686887582,-0.04582921150385817,0.029936037051188625
412.1999999999538,-0.04595083,-0.788772,-0.11556906,-2.3704684,-0.031086419,1.4856772,0.69706553,0.04,0.03999963,-0.008693113237256966,0.013968364857086524,-0.022547459433730488,0.03389394088872602,0.07643302683981237,0.07126317910846143,0.9982809431531222,0.01810796130448263,-0.046615337278621,0.030565840494065723
412.2166666666204,-0.046772443,-0.78884935,-0.117627755,-2.3707201,-0.031641483,1.4841578,0.69548225,0.04,0.039999615,-0.008240501773149056,0.013408806588716127,-0.022562451927377047,0.03402511996862595,0.07692546453512601,0.07212165303021179,0.998218681706625,0.01839802121460481,-0.04740601131409603,0.03120330749395819
412.2333333332871,-0.04759971,-0.78892714,-0.11970061,-2.3709738,-0.03220036,1.4826292,0.693888,0.04,0.03999962,-0.008228392605680312,0.01299775289091143,-0.021065321654623048,0.03415034737193191,0.07740053138766953,0.07297935684860149,0.9981548648001124,0.018688999891439986,-0.04820030968227031,0.03184834855153601
412.24999999995373,-0.048432555,-0.7890056,-0.12178745,-2.3712287,-0.03276298,1.48109,0.6922831,0.04,0.03999961,-0.007169319899347215,0.012435557820039689,-0.022041419534346574,0.034270173541149154,0.07786496120765637,0.07383662314402345,0.9980894557262814,0.01898092217236383,-0.04899843675391113,0.03250101778675543
412.2666666666204,-0.049270865,-0.7890845,-0.123888016,-2.3714855,-0.033329304,1.4795408,0.69066757,0.04,0.039999623,-0.008330035239390021,0.011737351199569979,-0.021818629129022327,0.0343836020095562,0.07831751748607729,0.0746927256486129,0.9980224298148357,0.019273642955584015,-0.04980044923038249,0.033161295664738695
412.28333333328703,-0.050114565,-0.78916395,-0.12600201,-2.371744,-0.033899255,1.4779816,0.6890417,0.04,0.039999615,-0.007922429411300058,0.011089651106535592,-0.02198897582637027,0.034492017462225646,0.07875336860654186,0.07554602560159776,0.9979537659015535,0.019567126113327872,-0.05060628577466843,0.03382916698154326
412.2999999999537,-0.050963555,-0.7892438,-0.12812929,-2.372004,-0.034472764,1.4764127,0.6874056,0.04,0.03999962,-0.007928860359873724,0.010613199635309267,-0.021647306716365833,0.03459489944308457,0.07917536881995825,0.07639941877345141,0.9978834498412744,0.019861343715698972,-0.05141573498774935,0.03450463380986869
412.31666666662034,-0.05181775,-0.7893243,-0.13026956,-2.372266,-0.035049792,1.4748338,0.68575954,0.04,0.039999615,-0.008169237473687474,0.009894575789179405,-0.022099043404821828,0.03469200456913395,0.07958153694270716,0.07724952449854482,0.99781145175028,0.020156240885752713,-0.052228914764937726,0.035187684945605674
412.333333333287,-0.052677035,-0.7894052,-0.13242263,-2.372529,-0.03563024,1.4732459,0.68410367,0.04,0.039999615,-0.00657688876080087,0.009586351128509918,-0.021100387787420516,0.03478383264598564,0.07997064385073628,0.0780977939133922,0.9977377919331927,0.02045177649088863,-0.05304502192677826,0.035878252959582455
412.34999999995364,-0.05354134,-0.78948665,-0.13458826,-2.372794,-0.036214076,1.4716486,0.6824381,0.04,0.03999961,-0.008126893722382178,0.008796920354184334,-0.0217103898836557,0.03486930846932641,0.08034838757084822,0.07894283222432844,0.997662420502381,0.020747838763985636,-0.05386455532363379,0.03657638013446848
412.3666666666203,-0.05441053,-0.7895685,-0.13676614,-2.3730605,-0.036801204,1.4700422,0.6807631,0.04,0.039999615,-0.00771963420866939,0.008132470686672555,-0.021411846624541653,0.034950195891629024,0.08070851385475529,0.0797863331487135,0.9975853272997943,0.021044424337032526,-0.05468728022784565,0.037282010967306954
412.38333333328694,-0.05528453,-0.7896508,-0.13895606,-2.373328,-0.037391566,1.4684273,0.6790789,0.04,0.039999604,-0.006387968182020032,0.007814235967096295,-0.020795996642331005,0.03502505517336983,0.08105187369165766,0.08062536674972129,0.9975065282484851,0.021341467228995523,-0.05551254223988309,0.037995072473060686
412.3999999999536,-0.056163225,-0.7897336,-0.14115773,-2.3735971,-0.03798511,1.4668037,0.6773856,0.04,0.03999961,-0.007539490492924905,0.006971879198258701,-0.021256972051575396,0.035093964315358356,0.08138488918573247,0.08146201740697975,0.9974259791882297,0.021638914980787183,-0.05634072649093106,0.03871557745054716
412.41666666662024,-0.05704652,-0.7898169,-0.14337097,-2.3738678,-0.03858175,1.4651713,0.6756836,0.04,0.039999615,-0.007079540523413641,0.0064619285491507306,-0.021217774572113157,0.03515791568436877,0.0817014412696904,0.08229574762781913,0.9973436666112059,0.02193676067146028,-0.05717165240707755,0.03944352117652816
412.4333333332869,-0.05793433,-0.7899006,-0.14559546,-2.3741398,-0.03918143,1.4635307,0.67397285,0.04,0.03999961,-0.0071460185634864,0.005846835781081472,-0.02087348868591299,0.035215415851813064,0.08200065395637036,0.08312448383084703,0.9972595795117863,0.022234843683364924,-0.05800519886989227,0.04017884645451739
412.44999999995355,-0.05882652,-0.7899847,-0.14783096,-2.3744133,-0.039784063,1.4618819,0.6722536,0.04,0.03999962,-0.007007437925721227,0.005240572727371884,-0.020737644442858638,0.03526795707572283,0.08228474423182564,0.08394954044310411,0.9971737062104393,0.022533151920134577,-0.058841188512677146,0.04092152540529361
412.4666666666202,-0.05972303,-0.7900691,-0.15007722,-2.3746877,-0.040389586,1.4602251,0.6705261,0.04,0.039999615,-0.006310309613644094,0.00480397082653905,-0.02038636686383377,0.035315113261149375,0.08255256768142814,0.08477010809719557,0.9970860425144653,0.022831658565503527,-0.05967935526944498,0.04167149798859287
412.48333333328685,-0.06062372,-0.790154,-0.15233396,-2.3749638,-0.040997937,1.4585607,0.66879046,0.04,0.03999961,-0.007162643262903501,0.003996866462596671,-0.020537536558995484,0.03535690776191226,0.08280473147633252,0.08558705904512096,0.9969965657350296,0.023130246408521106,-0.06051975719720221,0.04242874735871646
412.4999999999535,-0.0615285,-0.79023933,-0.15460093,-2.3752406,-0.04160904,1.4568889,0.66704714,0.04,0.039999615,-0.005561367622619606,0.0036912604279681904,-0.019913082640821145,0.035393487314242175,0.08304104038992413,0.08639786586932291,0.9969052929276835,0.023429020117233138,-0.06136178014971995,0.043193169436535714
412.51666666662015,-0.06243725,-0.79032505,-0.15687793,-2.375519,-0.042222828,1.4552096,0.66529614,0.04,0.039999615,-0.007199233212973333,0.0028566028164922486,-0.020401873616715527,0.035423534287969044,0.0832651285695065,0.0872043937863015,0.9968121694512658,0.02372779522794046,-0.06220597728327005,0.04396483774239525
412.5333333332868,-0.063349865,-0.7904111,-0.15916462,-2.3757982,-0.04283922,1.4535232,0.6635375,0.04,0.039999615,-0.00555730398239529,0.002455246921323484,-0.019649608431571153,0.03544850330922247,0.08347015941815601,0.08800407954668904,0.996717224490063,0.024026458640473328,-0.0630516721337344,0.044743606595390166
412.54999999995346,-0.064266235,-0.7904974,-0.1614607,-2.376079,-0.043458138,1.4518297,0.6617718,0.04,0.039999615,-0.007122674965032161,0.0015628103479825572,-0.019926497338373927,0.03546868296004679,0.08366210812874006,0.08879957285277386,0.9966204062545625,0.02432507330429723,-0.06389931338349736,0.045529489288250465
412.5666666666201,-0.06518627,-0.79058427,-0.16376597,-2.376361,-0.044079524,1.4501295,0.659999,0.04,0.03999961,-0.005588126376432356,0.0012932550051358849,-0.01946151861265122,0.035483541524245626,0.08383388832322847,0.0895880124090854,0.9965217446108302,0.024623570999403866,-0.0647481917107915,0.046322391337314736
412.58333333328676,-0.06610984,-0.7906714,-0.1660801,-2.376644,-0.044703286,1.4484228,0.65821934,0.04,0.03999961,-0.006126554910190762,0.0005477735408765394,-0.019316949249770232,0.035492501865135154,0.08399238150939428,0.09037015926058665,0.996421214339747,0.02492181900175605,-0.06559845531125671,0.04712227936045674
412.5999999999534,-0.06703691,-0.79075885,-0.16840285,-2.3769276,-0.045329377,1.4467098,0.65643305,0.04,0.039999615,-0.005282845541820791,0.0002063250953088236,-0.018899012470985355,0.0354972736306481,0.08413410696389123,0.0911463280988318,0.9963188233479343,0.02521986737242967,-0.06644972715550054,0.04792905479210291
412.61666666662006,-0.06796725,-0.7908466,-0.17073391,-2.3772118,-0.04595768,1.4449906,0.6546405,0.04,0.03999961,-0.0048077776286126195,-0.000461324363459914,-0.018519734918220898,0.035496208601510384,0.08426145246826586,0.09191494642329172,0.9962145738820651,0.0255176819315647,-0.06730175026112896,0.04874264155340534
412.6333333332867,-0.068900816,-0.79093474,-0.17307301,-2.3774977,-0.04658817,1.4432656,0.6528417,0.04,0.039999608,-0.006505684294877412,-0.0013016530194198683,-0.01902536023823398,0.035489130307786956,0.08437599441341445,0.09267774493280403,0.9961084207525236,0.02581508077308292,-0.06815496357968785,0.049563057311309285
412.64999999995337,-0.069837466,-0.7910232,-0.1754199,-2.3777845,-0.04722074,1.4415349,0.65103686,0.04,0.039999604,-0.005374618832787448,-0.0016591068475568793,-0.01829531130952411,0.03547799228156616,0.08447040791286262,0.09343215977327438,0.9960003832048553,0.02611205620170704,-0.06900887124880913,0.050390206049047426
412.66666666662,-0.07077714,-0.79111195,-0.17777427,-2.3780723,-0.047855318,1.4397986,0.6492264,0.04,0.039999608,-0.0053188811830917615,-0.0022450843386367936,-0.018242494003195553,0.03546152762708629,0.08455101519356764,0.09417951011800925,0.9958904457344142,0.026408667751878008,-0.06986345390379088,0.05122401947439995
412.68333333328667,-0.07171968,-0.79120076,-0.18013585,-2.378361,-0.048491832,1.4380571,0.6474104,0.04,0.039999604,-0.005429306964410685,-0.0028060034854171523,-0.017776161652061084,0.03543969181152555,0.08461429360562216,0.09491800241615744,0.9957786035636705,0.026704746807246847,-0.07071862602099072,0.05206443235501911
412.6999999999533,-0.072664976,-0.7912899,-0.18250439,-2.3786507,-0.049130205,1.4363105,0.64558893,0.04,0.039999608,-0.005042036554270268,-0.0033543101859101476,-0.01766854869191814,0.03541287804215752,0.08466192789636462,0.09564784258403917,0.9956648645823296,0.027000222707464952,-0.07157409676802674,0.05291137951178147
412.71666666662,-0.07361293,-0.79137933,-0.18487948,-2.3789415,-0.04977036,1.4345587,0.64376235,0.04,0.039999608,-0.0055015999562035844,-0.004161697774096584,-0.017804505987539798,0.035381751490068836,0.08469348411370857,0.09636953312143243,0.9955491958308873,0.027295039753779206,-0.07243014195278336,0.05376480281757454
412.7333333332866,-0.07456339,-0.7914689,-0.18726093,-2.379233,-0.05041221,1.4328023,0.641931,0.04,0.03999961,-0.004274285536909339,-0.004391196433922717,-0.01690134423195655,0.035346547928225364,0.08470538362574599,0.09708152040007866,0.9954316314009866,0.02758926579749419,-0.07328612810816375,0.0546245644929051
412.7499999999533,-0.0755163,-0.79155886,-0.18964842,-2.379525,-0.05105568,1.4310412,0.640095,0.04,0.03999961,-0.004413807567238415,-0.0050304407076373625,-0.01701725806428911,0.035305745482318907,0.08470287549793415,0.09778495760773785,0.9953121597354094,0.027882800316150126,-0.07414205813895963,0.055490623931288854
412.7666666666199,-0.076471515,-0.7916489,-0.19204175,-2.3798177,-0.051700708,1.4292763,0.6382544,0.04,0.039999615,-0.004439721950277864,-0.0053845048091749614,-0.016179698477003512,0.035260137886455795,0.08468520141689598,0.09847907695375033,0.9951907966536115,0.028175549326352283,-0.07499761592691785,0.05636288035033964
412.7833333332866,-0.07742891,-0.79173946,-0.19444054,-2.3801107,-0.05234721,1.4275074,0.6364095,0.04,0.03999962,-0.0033171783991647885,-0.005986814776975935,-0.016173537357189183,0.035210186358299006,0.08465334490232578,0.09916249209812661,0.9950675592123939,0.028467464610671126,-0.07585249423325223,0.0572412017721817
412.79999999995323,-0.07838837,-0.7918302,-0.19684453,-2.3804042,-0.0529951,1.4257346,0.6345608,0.04,0.039999608,-0.003875216662962977,-0.006542498586342704,-0.01585935950145778,0.03515567681333688,0.08460878618021699,0.09983742923168652,0.9949424231110604,0.028758638149139967,-0.07670682767537688,0.05812553667432725
412.8166666666199,-0.07934977,-0.7919209,-0.19925343,-2.3806984,-0.053644303,1.4239582,0.6327084,0.04,0.039999623,-0.004328451592949811,-0.007189141190405701,-0.015669159155184964,0.03509587083225432,0.08454953044293219,0.10050202234538887,0.9948153712425509,0.029048919882160257,-0.07756074181184344,0.059015834509239216
412.83333333328653,-0.080313034,-0.792012,-0.2016669,-2.3809931,-0.054294743,1.4221783,0.6308523,0.04,0.039999615,-0.0034991140477114158,-0.007627988729164148,-0.015428866461841828,0.03503109696711411,0.08447317213891328,0.10115465882197909,0.9946864326435019,0.029338227187630125,-0.07841380600135167,0.05991197016301183
412.8499999999532,-0.08127802,-0.79210323,-0.20408471,-2.3812883,-0.05494633,1.420395,0.628993,0.04,0.03999962,-0.0035828191635500772,-0.00817015146227229,-0.015118291214322177,0.0349624979686638,0.08438216738932466,0.10179739839211659,0.9945555953366253,0.029626606328087272,-0.07926603962436292,0.060813871315351084
412.86666666661984,-0.08224459,-0.79219466,-0.20650654,-2.3815842,-0.05559899,1.4186089,0.62713075,0.04,0.039999623,-0.0037957044711323107,-0.00873754527380699,-0.01472141595626475,0.034889214976276325,0.08427593977439136,0.10242901277627595,0.9944228634008156,0.029914030988766566,-0.08011731440457896,0.061721434107801086
412.8833333332865,-0.08321266,-0.79228616,-0.20893206,-2.381881,-0.056252617,1.4168202,0.6252655,0.04,0.039999627,-0.004154406538381394,-0.009352497984910224,-0.01444672591075502,0.0348105827926278,0.08415308869672689,0.1030486864518354,0.9942882317338919,0.030200277023193063,-0.08096766270790344,0.06263459985369091
412.89999999995314,-0.08418209,-0.7923778,-0.21136098,-2.3821783,-0.05690718,1.4150289,0.62339765,0.04,0.03999962,-0.003208251154940278,-0.009704242141062025,-0.01404148437822439,0.03472879444437914,0.08401379694086289,0.1036563657676019,0.9941517243952077,0.030485434698600707,-0.08181673492809367,0.06355319849526413
412.9166666666198,-0.085152775,-0.79246956,-0.21379305,-2.3824759,-0.057562567,1.4132353,0.62152743,0.04,0.039999638,-0.002864027383053802,-0.01009891967666543,-0.013640015779059489,0.03464251555223424,0.08385898440991049,0.10425171855987869,0.9940133465640677,0.03076946919489705,-0.0826643973197903,0.06447715900784357
412.93333333328644,-0.086124584,-0.79256135,-0.21622795,-2.3827734,-0.058218718,1.4114397,0.6196549,0.04,0.039999638,-0.0023508247430692464,-0.010517104150764567,-0.013083554226023253,0.03455193155840271,0.08369003069768159,0.10483596771831878,0.9938731270681584,0.031052251412633982,-0.08351034784061162,0.06540632062352267
412.9499999999531,-0.0870974,-0.79265326,-0.21866536,-2.3830712,-0.058875546,1.4096421,0.6177805,0.04,0.03999963,-0.002564343585276241,-0.011116839329533557,-0.012963362249651667,0.03445717304196787,0.08350801921589251,0.10540544616361443,0.9937310573566851,0.03133384404943537,-0.08435461296570342,0.066340599433955
412.96666666661974,-0.08807111,-0.79274523,-0.22110502,-2.383369,-0.05953296,1.407843,0.6159045,0.04,0.039999634,-0.0021184337358315375,-0.011455735655235832,-0.012387279959580333,0.03435805619549753,0.08331172630649475,0.10596473196247069,0.9935871595050507,0.031614240216335514,-0.08519692172534436,0.0672798692831242
412.9833333332864,-0.089045584,-0.7928375,-0.22354658,-2.3836672,-0.06019089,1.4060423,0.6140268,0.04,0.039999627,-0.0025375387525228277,-0.012215162065493113,-0.012524469814456651,0.03425407189917529,0.08310220539390314,0.10651040057936377,0.9934414293152825,0.031893163475866446,-0.08603737255451775,0.06822406589632037
412.99999999995305,-0.09002074,-0.7929297,-0.22598973,-2.3839657,-0.060849242,1.4042407,0.6121479,0.04,0.03999963,-0.0023233374386366634,-0.012490282922689167,-0.011615869270653612,0.03414741589876172,0.08287783738090736,0.10704118941480986,0.9932938832398651,0.03217080261861186,-0.08687574068242279,0.0691730197260745
413.0166666666197,-0.0909964,-0.793022,-0.22843425,-2.3842642,-0.061507944,1.4024383,0.6102682,0.04,0.039999634,-0.0017590199461015033,-0.012855437659536895,-0.011285395526283715,0.03403672503071739,0.08263866494541636,0.10756074483367513,0.9931445429865358,0.032447127075822035,-0.0877117887651683,0.07012661971181182
413.03333333328635,-0.09197248,-0.7931144,-0.23087977,-2.3845632,-0.062166918,1.4006348,0.60838735,0.04,0.039999634,-0.002317310166755071,-0.013635917687743193,-0.011538886220219258,0.033920700400959375,0.08238820659271501,0.1080650950764881,0.9929933893360566,0.032721842252716064,-0.08854578900649472,0.07108482977187346
413.049999999953,-0.092948854,-0.7932068,-0.23332608,-2.3848622,-0.06282609,1.3988308,0.6065061,0.04,0.039999638,-0.0016447483683013076,-0.013723813318616829,-0.010581016341104643,0.033803210859121274,0.08211982865878058,0.10855642402689597,0.9928404552835456,0.03299519384935319,-0.08937734802592968,0.07204746487599191
413.06666666661965,-0.09392541,-0.7932992,-0.23577279,-2.3851612,-0.063485354,1.3970262,0.6046245,0.04,0.03999964,-0.0015005659123268345,-0.014342903962516473,-0.010465509124413241,0.03368022780187961,0.08183961391320936,0.10903154521952234,0.9926857453318201,0.03326701922379113,-0.09020648842628508,0.07301442249837375
413.0833333332863,-0.09490201,-0.7933916,-0.23821959,-2.3854601,-0.06414464,1.3952215,0.6027429,0.04,0.039999638,-0.0013346946995618225,-0.014739777326289172,-0.009883946706290558,0.03355397294724041,0.0815446802324152,0.10949249354107851,0.992529285614307,0.03353733980166736,-0.09103298572710429,0.0739855360634085
413.09999999995296,-0.095878534,-0.793484,-0.24066629,-2.385759,-0.064803876,1.3934171,0.6008613,0.04,0.039999645,-0.0011941871191911702,-0.015003919808276311,-0.009337552630406254,0.03342387101842666,0.08123499149496527,0.10993843294919403,0.9923711050880428,0.03380604508925237,-0.091856597291597,0.07496070060884867
413.1166666666196,-0.09685486,-0.7935765,-0.2431125,-2.3860579,-0.06546299,1.391613,0.59898037,0.04,0.03999965,-0.0006360539277272537,-0.015473641088048495,-0.009132755186702646,0.033290307336601474,0.08091381700958204,0.1103687756013116,0.9922112163403577,0.034073284950124016,-0.09267723087927009,0.07593974122714583
413.13333333328626,-0.0978309,-0.79366887,-0.24555787,-2.3863566,-0.066121876,1.3898098,0.5970998,0.04,0.039999653,-0.0010014161865745663,-0.015916615358763098,-0.008349793609330192,0.033152145040574524,0.08057935902625514,0.11078433515433271,0.9920496488843907,0.03433876418237282,-0.0934947560673935,0.07692251952896066
413.1499999999529,-0.09880652,-0.7937612,-0.2480022,-2.3866549,-0.06678045,1.3880075,0.59522,0.04,0.039999645,-0.00017099201594650282,-0.016119431787914307,-0.00804724533849388,0.033010936935825866,0.08023440389625952,0.11118345428223778,0.991886422839485,0.034602614158080615,-0.09430898136763592,0.07790891677796649
413.16666666661956,-0.09978158,-0.7938535,-0.25044516,-2.386953,-0.06743867,1.3862059,0.59334135,0.04,0.039999653,-0.0007607088191363687,-0.016809543160412055,-0.008138829806703107,0.032866214648631376,0.0798773377804875,0.11156790930220552,0.9917215195870461,0.03486474151678106,-0.09512017919918525,0.078898852311317
413.1833333332862,-0.10075598,-0.7939457,-0.2528864,-2.3872514,-0.06809641,1.3844055,0.5914641,0.04,0.039999656,-0.000692642191402193,-0.01717756394166159,-0.007474800136753057,0.032718459611540796,0.07950510381413538,0.11193708944297188,0.9915549628385841,0.035125191415504374,-0.0959281849080846,0.0798921769539332
413.19999999995287,-0.101729564,-0.7940379,-0.25532576,-2.3875492,-0.068753615,1.3826069,0.5895882,0.04,0.03999966,0.00024000752045783003,-0.017202683290612475,-0.006606228539607351,0.032566349258536506,0.07912072956377861,0.11228787650443575,0.9913868254344752,0.03538383474937105,-0.0967324510887314,0.08088868585747362
413.2166666666195,-0.102702245,-0.79412997,-0.25776273,-2.3878462,-0.06941019,1.3808098,0.5877142,0.04,0.03999966,0.0007009483153908036,-0.017729836786517517,-0.0063884457999652255,0.032411759777937046,0.0787254992794624,0.11262336683741098,0.9912171179416471,0.03564072685761024,-0.09753300440621483,0.08188819658542695
413.23333333328617,-0.103673905,-0.7942221,-0.26019716,-2.388143,-0.07006606,1.3790146,0.5858421,0.04,0.039999656,0.0002028051906410866,-0.018123517484208707,-0.006182698902346129,0.032253552376217756,0.07832033696874002,0.11294437200973113,0.9910458486093823,0.035895768497506995,-0.0983298407298147,0.08289066401068206
413.2499999999528,-0.10464442,-0.7943141,-0.2626288,-2.3884397,-0.07072117,1.3772215,0.58397216,0.04,0.039999656,9.231578201873702e-05,-0.018447188466375053,-0.0057459015297745,0.03209192873891209,0.07790354914124556,0.11324547939322167,0.9908730206931973,0.036148975668607176,-0.09912303982630591,0.08389595577881966
413.26666666661947,-0.105613664,-0.79440594,-0.26505718,-2.388736,-0.0713754,1.3754307,0.5821048,0.04,0.039999664,0.00033273825135182733,-0.018945458766644885,-0.005182446035711941,0.03192747849115046,0.07747375414565434,0.11353089817751771,0.9906986707206257,0.036400336272087865,-0.099912421593635,0.08490387130726224
413.2833333332861,-0.10658154,-0.79449767,-0.26748216,-2.3890321,-0.07202869,1.3736423,0.58024013,0.04,0.039999653,0.0003979810623055968,-0.019171674387730153,-0.004979414123729153,0.03175979600052965,0.07703157189462276,0.11380006100212611,0.9905228071396278,0.03664981432538767,-0.10069799260174182,0.08591434066630393
413.2999999999528,-0.10754792,-0.7945892,-0.2699034,-2.3893278,-0.07268096,1.3718568,0.5783783,0.04,0.039999664,0.0008795017448326448,-0.01939991408037578,-0.004194627296005837,0.03158887115422805,0.07657657802858646,0.11404844915598902,0.9903454835500871,0.03689736092008534,-0.10147945767837761,0.08692713982629084
413.3166666666194,-0.10851266,-0.7946807,-0.2723205,-2.3896232,-0.07333212,1.3700742,0.57651955,0.04,0.03999966,0.0007451870308816666,-0.01996091573475689,-0.004057861202255708,0.03141473753675236,0.07611185916598122,0.11428017847155275,0.9901667100413194,0.037142870192336766,-0.10225689278704174,0.08794214801427348
413.3333333332861,-0.109475665,-0.79477185,-0.27473328,-2.3899176,-0.07398212,1.368295,0.5746643,0.04,0.03999966,0.0017110321125946015,-0.019782895522785227,-0.002905862784197133,0.031238726351864587,0.07563441604710747,0.11449379016904983,0.9899865536791314,0.03738653350543568,-0.10302984698862232,0.08895909889642772
413.34999999995273,-0.11043683,-0.7948629,-0.27714142,-2.3902113,-0.07463084,1.366519,0.5728125,0.04,0.03999967,0.0016867837460798896,-0.02029930028024096,-0.003061441434359935,0.031058885577438022,0.07514821985483698,0.11469084619274905,0.9898050217780494,0.037628159106543504,-0.10379840570889347,0.08997794995163878
413.3666666666194,-0.11139599,-0.79495394,-0.2795446,-2.3905046,-0.075278215,1.3647467,0.5709644,0.04,0.03999968,0.0015070420479545987,-0.020727515224244764,-0.002490832019541589,0.030876012705462696,0.07465247290323028,0.11486888011189084,0.9896221481310361,0.03786768172198257,-0.10456248383207507,0.09099851418777817
413.38333333328603,-0.112353064,-0.79504484,-0.28194255,-2.3907976,-0.07592419,1.3629781,0.5691204,0.04,0.03999967,0.0011881028509019842,-0.02109513041283484,-0.0023219718813694,0.030691626550842954,0.07414719960851775,0.1150288197118949,0.9894379259961299,0.03810517820358398,-0.10532225741752549,0.09202069379779072
413.3999999999527,-0.11330796,-0.79513556,-0.284335,-2.39109,-0.07656866,1.3612138,0.56728077,0.04,0.03999968,0.002022485270858354,-0.021049964699665358,-0.0013565062008669138,0.030504464549511917,0.073628733247628,0.11516935339210996,0.9892524321217873,0.03834069561123546,-0.10607726654826592,0.09304423745092225
413.41666666661934,-0.11426056,-0.79522604,-0.28672156,-2.3913813,-0.07721157,1.3594537,0.5654456,0.04,0.03999968,0.0024262289527454683,-0.02134864714249396,-0.0010088491931847798,0.030313945045990484,0.073101480843889,0.11529153138686873,0.9890656931451853,0.03857414732379946,-0.1068275132201083,0.0940689758670907
413.433333333286,-0.11521067,-0.7953161,-0.28910202,-2.3916717,-0.07785282,1.3576982,0.5636151,0.04,0.03999968,0.002417026646828191,-0.021572559000099245,-0.0002587291554001503,0.030120921638912432,0.07256649148869156,0.11539595280175764,0.9888777467502938,0.03880547977600326,-0.10757288355621432,0.09509474982782831
413.44999999995264,-0.11615824,-0.7954059,-0.29147616,-2.3919618,-0.078492366,1.3559474,0.5617894,0.04,0.039999675,0.001598242540312711,-0.02206920917773303,-0.00043036054919731725,0.02992512557134587,0.07202241458530105,0.11548129688741494,0.9886885758701293,0.03903464876366875,-0.10831365372451003,0.09612153014095987
413.4666666666193,-0.11710315,-0.7954956,-0.2938435,-2.3922505,-0.07913009,1.3542016,0.5599688,0.04,0.03999969,0.0036561579925598053,-0.021924510805898523,0.0006861705842520216,0.029728064002482013,0.07146657684456062,0.11554696828650161,0.9884983086500629,0.03926169552334234,-0.10904907120223228,0.0971489224362662
413.48333333328594,-0.1180453,-0.79558516,-0.29620394,-2.3925385,-0.07976592,1.3524609,0.55815375,0.04,0.03999968,0.002623138079549392,-0.02236459600812868,0.0007189461460166413,0.029527606527590497,0.07090600877158983,0.11559417374996143,0.9883069161235357,0.039486671717556904,-0.10977947830098758,0.09817692418801693
413.4999999999526,-0.118984535,-0.79567444,-0.29855704,-2.3928254,-0.08039979,1.3507257,0.5563442,0.04,0.039999686,0.0034475945282608222,-0.022466702044654507,0.0015813721671142922,0.02932445182075219,0.07033518678587888,0.11562210071423122,0.9881144783163905,0.03970946661554374,-0.11050454541761727,0.09920524907827402
413.51666666661924,-0.11992076,-0.7957633,-0.3009027,-2.3931115,-0.08103161,1.3489958,0.5545404,0.04,0.03999969,0.0026415848828342803,-0.022838890219734065,0.0015911666673251723,0.029119081516993287,0.06976001093872988,0.11563192377287375,0.987920961856159,0.039930061797716826,-0.11122466712999224,0.10023390998985626
413.5333333332859,-0.12085386,-0.7958519,-0.30324057,-2.3933966,-0.081661336,1.3472719,0.5527425,0.04,0.03999968,0.00327239373978383,-0.022865540415284435,0.002405653716730516,0.02891152438646616,0.06917249320330765,0.11562035432649666,0.9877264533147853,0.04014843623312298,-0.1119394285427522,0.10126263292919215
413.54999999995255,-0.12178373,-0.7959403,-0.30557027,-2.3936813,-0.08228886,1.3455538,0.55095094,0.04,0.039999682,0.0027858247858558727,-0.023543570366169053,0.0023125629669218384,0.028702100232516473,0.0685795591709787,0.11559012043606856,0.9875309356350618,0.040364612053723416,-0.11264916585430775,0.10229132265163303
413.5666666666192,-0.12271026,-0.7960283,-0.30789155,-2.393965,-0.082914114,1.343842,0.54916584,0.04,0.039999694,0.0035056876189987207,-0.023348101765963136,0.003434438132887685,0.028490783135413866,0.06797564026105339,0.1155390854027716,0.9873345016375739,0.04057856379984579,-0.11335343356872073,0.10331970351393346
413.58333333328585,-0.12363334,-0.79611605,-0.3102043,-2.3942475,-0.08353702,1.3421365,0.5473873,0.04,0.039999694,0.003936574000373838,-0.023369483028423677,0.0035622879473229396,0.028277362478357257,0.0673645975716169,0.11546830583295911,0.9871371717287211,0.04079029419899545,-0.1140522273004517,0.10434771458152253
413.5999999999525,-0.12455288,-0.7962033,-0.31250802,-2.3945289,-0.08415753,1.3404375,0.5456158,0.04,0.039999697,0.00397848803381784,-0.023668624606731914,0.004280847027859913,0.028061900426819497,0.06674729649334979,0.11537753102856074,0.9869389891531508,0.040999872909340825,-0.11474553983256247,0.10537505966455563
413.61666666661915,-0.12546873,-0.79629046,-0.3148025,-2.394809,-0.08477551,1.3387454,0.5438514,0.04,0.039999697,0.0043988752588486335,-0.023867903264007673,0.004628316111565667,0.02784384237411658,0.06612188439886123,0.11526775766721262,0.9867400176303861,0.04120719245435878,-0.11543310948308681,0.10640160775045009
413.6333333332858,-0.1263808,-0.7963773,-0.31708747,-2.395088,-0.08539097,1.3370601,0.5420942,0.04,0.039999697,0.004349504561917961,-0.02395913470301103,0.005063027850071844,0.02762339721287678,0.06549123417540184,0.11513757428590535,0.9865402838177783,0.04141221998214626,-0.11611501909796386,0.10742717896681174
413.64999999995246,-0.12728898,-0.79646355,-0.31936297,-2.3953655,-0.08600381,1.335382,0.5403446,0.04,0.039999694,0.004491715103860372,-0.023735440450289857,0.005673479963330674,0.027401737613837643,0.06485454415830809,0.11498761046191264,0.9863398078027472,0.04161516884738875,-0.11679122398188604,0.10845170015382917
413.6666666666191,-0.12819317,-0.7965496,-0.32162842,-2.3956418,-0.08661392,1.3337114,0.5386026,0.04,0.0399997,0.004714586238407925,-0.02425546595294925,0.006088827382189077,0.02717610219039808,0.06421207734257925,0.11481829679317611,0.9861386711284956,0.04181577657294391,-0.11746151093567186,0.10947490846415613
413.68333333328576,-0.12909327,-0.7966353,-0.32388338,-2.3959172,-0.08722128,1.3320485,0.53686845,0.04,0.03999971,0.0043835971142991426,-0.024604031324915177,0.006594446646046581,0.02694965464878725,0.06356422321979871,0.11462799258238397,0.9859368983789417,0.04201402686421634,-0.11812603957864583,0.11049657340854299
413.6999999999524,-0.12998916,-0.79672056,-0.32612792,-2.3961916,-0.08782576,1.3303934,0.53514236,0.04,0.039999712,0.0043057279499825185,-0.024570818273106365,0.006857572914620302,0.026722226112905978,0.06290948010835615,0.11441794546572312,0.9857344933905593,0.04220997702641382,-0.11878488985891114,0.11151670870633412
413.71666666661906,-0.13088073,-0.7968052,-0.32836166,-2.396464,-0.08842732,1.3287464,0.5334247,0.04,0.03999971,0.0057357302967187,-0.024200215016922932,0.007913120443303612,0.026492947288106958,0.06224941309137055,0.114187895248307,0.9855315695460255,0.04240376031567399,-0.11943757558436592,0.11253493714294811
413.7333333332857,-0.13176787,-0.79688954,-0.33058435,-2.3967354,-0.089025915,1.3271073,0.5317154,0.04,0.039999716,0.00503271399674432,-0.024819663643016465,0.007610327661056182,0.026261005679220614,0.061585081255276015,0.11393761621336551,0.9853281150557881,0.0425951796685987,-0.1200844447045265,0.11355123288460107
413.74999999995237,-0.1326505,-0.7969737,-0.33279562,-2.397005,-0.08962146,1.3254766,0.5300148,0.04,0.039999712,0.005994921441465628,-0.02464220443129106,0.008550293277997945,0.026028177408611755,0.06091404428715717,0.11366666773884043,0.9851242456915315,0.042784304652936096,-0.12072499883650481,0.11456525861700816
413.766666666619,-0.13352852,-0.7970574,-0.33499536,-2.3972733,-0.090213895,1.3238544,0.52832323,0.04,0.03999971,0.005462906033537607,-0.024780893091647105,0.008817392477955543,0.02579366313038585,0.060241347233730855,0.11337719785910019,0.9849199460184792,0.042971213626093636,-0.12135954744905039,0.11557696560049634
413.78333333328567,-0.13440183,-0.7971404,-0.33718324,-2.3975403,-0.0908031,1.322241,0.5266408,0.04,0.03999972,0.005115434229607807,-0.025072247434099193,0.009314128072213101,0.025556616656905395,0.059564356398146175,0.11306716220219193,0.9847152385754377,0.04315582945849896,-0.12198822834388542,0.11658621465073625
413.7999999999523,-0.13527027,-0.79722315,-0.33935905,-2.3978062,-0.09138906,1.3206365,0.52496755,0.04,0.039999716,0.005522263030455221,-0.02510569961182707,0.009743157260988511,0.025318102635064454,0.05888060313120566,0.11273639546548997,0.9845102069267643,0.043338084202455184,-0.12261075856700157,0.11759279228892082
413.81666666661897,-0.1361338,-0.79730546,-0.34152257,-2.3980703,-0.0919717,1.3190414,0.52330387,0.04,0.03999972,0.006208015889952456,-0.024813670976753244,0.010421848664365907,0.0250789588945831,0.058192659092369675,0.11238541920971118,0.9843049201186997,0.04351812216899347,-0.12322692031527499,0.11859647289281973
413.8333333332856,-0.13699232,-0.7973872,-0.34367347,-2.3983326,-0.09255092,1.3174549,0.5216499,0.04,0.03999972,0.006487912128938511,-0.025118829469927828,0.0105147326403765,0.024837548544926327,0.05750286093410026,0.1120153676333286,0.9840993748509974,0.04369588807743085,-0.12383703187318024,0.11959715431331064
413.8499999999523,-0.13784571,-0.79746854,-0.34581152,-2.3985932,-0.0931267,1.3158783,0.5200057,0.04,0.03999972,0.006499299788553792,-0.024982244359006422,0.011393239798695998,0.024594588585379842,0.05680779945736264,0.11162480515440072,0.983893686443704,0.04387133152023448,-0.1244406440425657,0.12059455276724304
413.8666666666189,-0.13869391,-0.7975495,-0.34793654,-2.3988523,-0.09369896,1.3143113,0.5183716,0.04,0.039999723,0.006179192215505225,-0.025188501653850004,0.011490377584810751,0.024350160289552503,0.05611176923223646,0.11121532723810508,0.9836878501047875,0.044044511942285786,-0.1250380120189833,0.12158860996955057
413.8833333332856,-0.1395368,-0.7976298,-0.35004824,-2.3991106,-0.09426763,1.3127539,0.5167478,0.04,0.039999727,0.005419775644277536,-0.025635247516153647,0.011734449934441837,0.024104102616487114,0.05541219473720634,0.11078505375570599,0.9834818485237312,0.04421538052817428,-0.12562954378121727,0.12257924570830366
413.89999999995223,-0.14037427,-0.7977096,-0.3521464,-2.3993669,-0.09483264,1.3112066,0.5151342,0.04,0.03999973,0.007039557061072621,-0.02509496718188231,0.01261679157609219,0.02385751472091452,0.05470559065719621,0.11033432856430506,0.9832758296726829,0.04438390334035709,-0.12621459028867812,0.12356613251223875
413.9166666666189,-0.14120628,-0.79778904,-0.35423082,-2.3996205,-0.09539393,1.3096695,0.5135314,0.04,0.03999974,0.00822856304953934,-0.02460744334588094,0.013279788543918425,0.023609713638976182,0.05399808908614517,0.10986393208146582,0.9830698960194504,0.04455033028743321,-0.12679272639284098,0.12454899495964528
413.93333333328553,-0.14203265,-0.7978677,-0.35630128,-2.399873,-0.095951475,1.3081423,0.5119392,0.04,0.039999723,0.005937147633128248,-0.025650234110219383,0.012929309792197863,0.023358874684473035,0.05329290671905908,0.10937658109091919,0.9828639271432151,0.04471437214213948,-0.12736504776991514,0.12552796601203411
413.9499999999522,-0.14285338,-0.79794604,-0.35835752,-2.400124,-0.09650516,1.3066266,0.51035804,0.04,0.03999974,0.006808764632104669,-0.02510850823935762,0.01428338394939832,0.023107988206539823,0.05258081780069132,0.10886718118805365,0.9826581199834157,0.044876181858329485,-0.12793057785724474,0.12650262756792208
413.96666666661883,-0.14366834,-0.7980239,-0.3603992,-2.4003737,-0.09705497,1.3051218,0.50878793,0.04,0.03999974,0.006800658971761742,-0.025407358645079814,0.01431637660000984,0.02285529305048782,0.051870233242427385,0.10834005056541152,0.9824524743031409,0.04503566365428611,-0.12848968251627318,0.127472845036587
413.9833333332855,-0.14447744,-0.7981011,-0.3624263,-2.4006205,-0.097600795,1.3036261,0.50722903,0.04,0.039999735,0.008633658065471117,-0.02509887627343277,0.013735089446897941,0.022602308677573776,0.05115657864793785,0.10779322057071389,0.9822469577191043,0.04519291137563002,-0.12904268142820677,0.12843870593702283
413.99999999995214,-0.1452806,-0.7981776,-0.36443853,-2.4008656,-0.09814259,1.3021414,0.50568163,0.04,0.039999764,0.007051159930937523,-0.025271783586400254,0.015157082797867538,0.022347675594202712,0.05043994743356808,0.10722499632363945,0.9820416671214559,0.04534793461747443,-0.12958935861335297,0.1293998724783787
414.0166666666188,-0.14607774,-0.7982538,-0.36643562,-2.4011092,-0.09868034,1.3006682,0.50414604,0.04,0.03999975,0.007204402131266718,-0.025339713934546815,0.01540870840821551,0.02209219882538814,0.049720126003017444,0.10663968696224196,0.9818366825138338,0.045500764927282056,-0.13012951122810065,0.1303561259350589
414.03333333328544,-0.14686875,-0.7983292,-0.36841726,-2.401351,-0.09921394,1.2992069,0.5026223,0.04,0.03999975,0.007624942626494047,-0.02508008680245366,0.016391254720626858,0.021834870942588153,0.04899968409267878,0.10603396606983943,0.9816320750227785,0.045651398396905137,-0.13066304809824303,0.13130722361148828
414.0499999999521,-0.14765358,-0.7984041,-0.37038347,-2.4015906,-0.09974337,1.2977571,0.5011104,0.04,0.039999764,0.008205606889166717,-0.024818072555454762,0.01644962620127588,0.02157633340630935,0.048279159708506346,0.10541076465520138,0.9814279054370963,0.0457998006113218,-0.13118981232497343,0.13225308251778137
414.06666666661874,-0.14843214,-0.7984784,-0.37233403,-2.4018288,-0.10026857,1.296319,0.4996106,0.04,0.03999977,0.007183791208098533,-0.02530393023084665,0.016399368997577213,0.021316628819278954,0.04756056052211421,0.10477025538029579,0.9812241306748851,0.045945997974960975,-0.1317103301303127,0.13319369199915154
414.0833333332854,-0.14920431,-0.7985522,-0.37426856,-2.4020648,-0.10078945,1.2948924,0.49812278,0.04,0.039999772,0.008371080928837316,-0.025094918831758406,0.017030916669535934,0.021055558842632438,0.04684004829338526,0.10410936189020885,0.9810208640601733,0.046089808618969365,-0.1322243001608396,0.13412877494062891
414.09999999995205,-0.14997001,-0.7986254,-0.37618697,-2.4022985,-0.101305984,1.2934775,0.49664745,0.04,0.039999776,0.008702645926494945,-0.024830952177723464,0.017461265062757025,0.0207954171605519,0.04611887003562326,0.10343053290992626,0.9808181520809962,0.0462314739506027,-0.13273168150054485,0.1350581507751845
414.1166666666187,-0.1507292,-0.7986979,-0.378089,-2.4025307,-0.10181812,1.292075,0.49518475,0.04,0.039999787,0.007400269357904499,-0.025155804366572276,0.01791105849305863,0.020533437255282033,0.045399225706737385,0.10273367782037614,0.9806160067309704,0.046370954217662456,-0.13323271061957373,0.13598171483295093
414.13333333328535,-0.15148182,-0.79876965,-0.37997463,-2.4027607,-0.10232579,1.2906849,0.4937348,0.04,0.03999978,0.00843529761060946,-0.024621461083951246,0.018389661192030893,0.020271382683918676,0.044677338541281725,0.10201963249227292,0.9804145117548624,0.04650835811675761,-0.1337271119856105,0.13689929614773896
414.149999999952,-0.15222777,-0.798841,-0.3818435,-2.402989,-0.10282898,1.2893069,0.49229768,0.04,0.03999979,0.00843237520429252,-0.02500154969703461,0.01824134007134548,0.020006944129141682,0.04395653972982762,0.10128642749447647,0.9802136894267279,0.046643530079961304,-0.1342151034861309,0.13781077664075952
414.16666666661865,-0.15296699,-0.7989117,-0.38369548,-2.4032142,-0.10332761,1.2879412,0.49087352,0.04,0.039999787,0.0096481975772722,-0.024267542981426526,0.01921123359723831,0.01974265450154436,0.04323575385092951,0.10053704484607091,0.9800136599687768,0.0467766147234261,-0.13469626248420483,0.13871586593611068
414.1833333332853,-0.1536994,-0.7989818,-0.3855304,-2.4034379,-0.10382164,1.2865882,0.4894625,0.04,0.039999835,0.008108795655936696,-0.02485667471822106,0.01912848811247425,0.01947535062468156,0.042518511038452694,0.09976644127479978,0.9798143860805109,0.04690753544555979,-0.13517107013332996,0.13961459002233778
414.19999999995196,-0.15442489,-0.79905117,-0.3873481,-2.4036596,-0.10431101,1.2852482,0.4880648,0.04,0.039999835,0.008441428791372552,-0.024623957305380806,0.01981347779974607,0.019205763417270108,0.041802731364129944,0.09897297793064376,0.979615944541475,0.04703633721079988,-0.13563938727939623,0.1405067286658381
414.2166666666186,-0.15514344,-0.7991198,-0.38914835,-2.4038792,-0.10479567,1.2839205,0.4866805,0.04,0.039999817,0.0087633414966648,-0.024599622257404086,0.019700630933594532,0.01894264333247085,0.04108367919202926,0.09818547435420152,0.979418333388,0.04716302802290472,-0.13610147400388903,0.1413922408944415
414.23333333328526,-0.155855,-0.79918796,-0.39093092,-2.4040961,-0.105275586,1.2826062,0.48530975,0.04,0.039999854,0.009837516410282632,-0.024044720497062855,0.02072737320339968,0.018669569246053133,0.04036696145092273,0.09734955772159629,0.9792217445787159,0.04728765382995587,-0.13655658151807734,0.1422707024779562
414.2499999999519,-0.15655947,-0.7992554,-0.3926957,-2.4043112,-0.10575071,1.2813047,0.48395264,0.04,0.03999982,0.008591549438885515,-0.024589786397377633,0.020369146578635977,0.018405651146598215,0.039651902715703166,0.09653345095032215,0.979026072745214,0.04741014125710789,-0.1370055535061903,0.1431422568619292
414.26666666661856,-0.15725674,-0.79932225,-0.39444262,-2.4045246,-0.106221035,1.2800165,0.4826094,0.04,0.03999987,0.008496123065082628,-0.02442705341958451,0.02082220437671367,0.018130682823452676,0.03894024827094116,0.09566514034810007,0.9788313978135995,0.047530539114549214,-0.13744818651410332,0.1440067308487338
414.2833333332852,-0.15794678,-0.7993883,-0.39617148,-2.4047348,-0.10668648,1.2787417,0.48127988,0.04,0.03999987,0.01031443332324411,-0.023518669989608387,0.021726648646391844,0.017862425351314687,0.03822555233857133,0.09480107272662007,0.978637856327158,0.04764889710473644,-0.1378840245231369,0.14486381380244712
414.29999999995186,-0.1586296,-0.7994536,-0.397882,-2.404943,-0.107147,1.2774805,0.47996444,0.04,0.039999884,0.009195783574011962,-0.02401838995351735,0.021725385136694975,0.01759082915149078,0.03751729723034674,0.09391682498916346,0.9784454355126663,0.047765231231686606,-0.13831342682523376,0.14571344608399364
414.3166666666185,-0.15930502,-0.7995182,-0.3995742,-2.4051495,-0.10760253,1.2762326,0.47866324,0.04,0.03999988,0.008560354360565015,-0.024337539909780048,0.021601226445766564,0.01732040547383329,0.03680968375988745,0.09302163210474627,0.9782541021389887,0.04787950149510268,-0.13873678825780936,0.14655568419112774
414.33333333328517,-0.15997308,-0.79958236,-0.40124783,-2.4053543,-0.10805308,1.2749983,0.47737625,0.04,0.03999989,0.008811745944914406,-0.024131385747239165,0.021849602412460367,0.01704906543348232,0.03610115159211556,0.09210726561906726,0.9780639359299245,0.047991679228623206,-0.13915395058924862,0.14739034565902326
414.3499999999518,-0.16063367,-0.7996456,-0.4029028,-2.4055555,-0.10849857,1.273778,0.4761036,0.04,0.039999943,0.011163492681864895,-0.022774561371885493,0.023239733836333265,0.016776233035956503,0.03539401592165895,0.09117178397221509,0.9778751284351908,0.04810198896204004,-0.13956415400923958,0.14821699889499884
414.36666666661847,-0.16128674,-0.7997082,-0.40453896,-2.4057548,-0.10893905,1.2725711,0.4748455,0.04,0.039999925,0.00910393055222336,-0.02387669921577462,0.022347121218813104,0.016504922769140784,0.034692829755542165,0.09023403718379763,0.9776875533876039,0.048210286741242454,-0.13996835468406732,0.14903582082950195
414.3833333332851,-0.16193222,-0.79977006,-0.40615615,-2.4059527,-0.10937439,1.2713785,0.47360197,0.04,0.039999936,0.008488601711942323,-0.023883114142364548,0.023043646908138538,0.016232174094050575,0.03399121282087869,0.08927563396541202,0.9775012718312832,0.04831652242760938,-0.1403664647928013,0.14984669762893402
414.3999999999518,-0.16257013,-0.79983115,-0.40775427,-2.4061472,-0.10980461,1.2702001,0.472373,0.04,0.039999947,0.011079061341545682,-0.022517572168767597,0.02381656843182256,0.01595991560181652,0.03329033824150504,0.08830227411863448,0.977316466421538,0.048420905099881825,-0.14075776978980015,0.15064923051389367
414.4166666666184,-0.16320036,-0.79989153,-0.40933326,-2.4063394,-0.11022964,1.2690358,0.4711589,0.04,0.039999958,0.009850962926982731,-0.02310701657655123,0.02356647471448703,0.01568612271932776,0.032596776104151175,0.08731729203132384,0.9771330767237658,0.048523396449872136,-0.14114280438865892,0.1514435179815256
414.4333333332851,-0.16382283,-0.79995126,-0.41089287,-2.40653,-0.11064948,1.2678856,0.4699596,0.04,0.03999997,0.009003485405423284,-0.023559506423542764,0.02351957418892381,0.015411834210189351,0.03190584477752892,0.08631955355970158,0.9769510914100477,0.04862382379791841,-0.1415219405454656,0.15222952767525602
414.44999999995173,-0.1644376,-0.8000102,-0.41243303,-2.406718,-0.11106406,1.2667497,0.46877527,0.04,0.03999996,0.009933710809728602,-0.022797941447860737,0.02420640526124007,0.015140162509174895,0.031213755517610735,0.0853105438458729,0.976770619252711,0.04872240598082515,-0.1418948064570964,0.1530070208213278
414.4666666666184,-0.16504455,-0.8000684,-0.4139537,-2.406903,-0.11147338,1.2656286,0.46760595,0.04,0.04,0.01091773592412082,-0.02214037623418097,0.0248338161324968,0.014865249277093193,0.03052616749480123,0.08428168586561641,0.97659177777375,0.04881917363891326,-0.14226103848175875,0.1537757614190604
414.48333333328503,-0.16564365,-0.80012596,-0.4154547,-2.407086,-0.11187739,1.2645218,0.46645176,0.04,0.04,0.009819750679995742,-0.022779277066720116,0.024424973453984755,0.014591578718178039,0.029843735712888685,0.08324722844079356,0.976414511175085,0.04891404675108954,-0.1426211609739472,0.1545358302776268
414.4999999999517,-0.16623476,-0.80018264,-0.4169358,-2.4072669,-0.11227609,1.2634296,0.46531278,0.04,0.04,0.009342571130321886,-0.022887399216053872,0.02479335306410091,0.014317952331207043,0.029164137202841736,0.0822004180270464,0.976238828071222,0.0490069471591202,-0.14297546199199035,0.15528711139192203
414.51666666661833,-0.16681808,-0.8002387,-0.41839713,-2.407445,-0.112669446,1.2623521,0.46418908,0.04,0.04,0.010837263827134791,-0.021855468718900983,0.02507895844384711,0.014045167635364078,0.028486096492000124,0.08114058399299093,0.9760648605430633,0.04909814708191939,-0.14332334080212542,0.1560294201344424
414.533333333285,-0.16739345,-0.80029404,-0.41983855,-2.4076204,-0.1130574,1.2612891,0.46308059,0.04,0.04,0.010424047122281621,-0.022044767227069606,0.02521583223744628,0.01377220582405407,0.027813028983675613,0.0800732358850039,0.9758926010247234,0.04918749026754484,-0.1436651058209839,0.15676274887812425
414.54999999995164,-0.16796073,-0.8003486,-0.42125988,-2.4077938,-0.113439955,1.260241,0.46198756,0.04,0.04,0.009840987589027073,-0.022201579513425607,0.025526034829759237,0.013498574311895356,0.0271441089300418,0.07899182080631428,0.9757220759984278,0.049274990694385734,-0.14400091010266294,0.15748696324137765
414.5666666666183,-0.16852008,-0.8004022,-0.42266104,-2.4079645,-0.113817096,1.2592077,0.4609101,0.04,0.04,0.010426198919621932,-0.021694662522842023,0.025710083370866776,0.013226993129038536,0.02647771281915205,0.07790287463370026,0.9755533318024777,0.04936082148561458,-0.14433070675029555,0.1582019380422074
414.58333333328494,-0.16907127,-0.80045515,-0.42404208,-2.408132,-0.11418879,1.2581893,0.4598482,0.04,0.04,0.011185905838995147,-0.02124384010864233,0.026088140653046654,0.01295374508406888,0.02581487360831749,0.07680215219207838,0.9753864652939723,0.04944493564025843,-0.1446541931419384,0.15890753936587204
414.5999999999516,-0.16961446,-0.8005073,-0.42540285,-2.4082983,-0.11455504,1.257186,0.45880187,0.04,0.04,0.008945202438970234,-0.022034277576621353,0.025730527900735822,0.012679776467661746,0.025159473018788833,0.07569285275612535,0.9752213766075917,0.049527252231369036,-0.14497209801458258,0.15960391189207934
414.61666666661824,-0.1701495,-0.8005586,-0.42674327,-2.4084623,-0.11491578,1.2561978,0.4577711,0.04,0.04,0.009901143726898098,-0.02159548588753779,0.026150013984405085,0.012406608304211711,0.02450415409607491,0.0745717637212802,0.9750581464741064,0.049607752391339105,-0.14528424050557642,0.16029089605425972
414.6333333332849,-0.17067634,-0.8006094,-0.42806333,-2.4086225,-0.11527103,1.2552242,0.45675606,0.04,0.04,0.012355934393837309,-0.020459841991715688,0.02649420210111275,0.012134345157549298,0.023851252207946406,0.073438265670294,0.974896939265239,0.04968666016789999,-0.14558996309200786,0.1609681839976342
414.64999999995155,-0.17119509,-0.80065924,-0.42936295,-2.4087808,-0.11562077,1.254266,0.4557568,0.04,0.04,0.00952055931251472,-0.021206985052735217,0.026509835920351943,0.011862034604173108,0.023207547428473238,0.0723024936260131,0.974737642335021,0.04976392384627424,-0.14589004735715222,0.1616359322078932
414.6666666666182,-0.17170565,-0.8007084,-0.43064204,-2.408938,-0.115964994,1.2533228,0.45477337,0.04,0.04,0.008812315222739286,-0.021764751480579658,0.02606798432144286,0.011589334518172262,0.02256535994224743,0.07115594642579869,0.9745802163698755,0.049839364247989806,-0.1461848987710537,0.16229422356664394
414.68333333328485,-0.17220798,-0.80075675,-0.43190053,-2.4090905,-0.11630367,1.2523948,0.45380569,0.04,0.04,0.013170797932882117,-0.01938126522631478,0.02754772478180678,0.011318971079682015,0.021922845756297507,0.06999859764186546,0.9744249870249031,0.049913339058869785,-0.14647310421099072,0.16294242231017667
414.6999999999515,-0.17270209,-0.8008044,-0.4331385,-2.4092412,-0.11663682,1.2514819,0.4528538,0.04,0.04,0.009721947157315114,-0.020858131502787813,0.026589256205700185,0.011046333440425167,0.021292550840861006,0.06883727264298517,0.9742717494716668,0.04998560677237324,-0.14675583072581858,0.1635809385135994
414.71666666661815,-0.17318793,-0.80085117,-0.4343558,-2.40939,-0.11696439,1.2505841,0.45191786,0.04,0.04,0.009682585405257349,-0.020808001533612064,0.026799406678723603,0.010775221878328502,0.02066499464637454,0.06766890673667644,0.9741205199339846,0.05005620968921218,-0.14703319951018895,0.16420970360149306
414.7333333332848,-0.17366552,-0.8008972,-0.43555257,-2.4095356,-0.117286414,1.249702,0.45099774,0.04,0.04,0.01126995738731651,-0.019519745038332204,0.027531185194606955,0.010505269165767078,0.020038412306156828,0.06649194978286282,0.9739714773445151,0.050125312737447254,-0.14730446313161452,0.16482842438069542
414.74999999995146,-0.17413493,-0.8009425,-0.43672857,-2.4096785,-0.11760287,1.248835,0.4500935,0.04,0.04,0.011072669879585995,-0.019811768425503917,0.027228774414489454,0.010235258257049573,0.01941950816862468,0.06531012571169638,0.9738245958196283,0.050192864345322774,-0.14756998416038922,0.16543709596233808
414.7666666666181,-0.17459603,-0.80098695,-0.43788388,-2.4098194,-0.117913745,1.247983,0.44920516,0.04,0.04,0.00968601556001758,-0.02031137125211302,0.026932107954191764,0.009965100553901991,0.018807328091312712,0.06412369525557213,0.9736797854081525,0.050258752946759744,-0.14783034244555568,0.16603590904440035
414.78333333328476,-0.17504886,-0.8010306,-0.4390184,-2.4099581,-0.118219025,1.2471461,0.44833282,0.04,0.04,0.010044164336853179,-0.019996049079540335,0.0272048136190417,0.009696947584004773,0.018197132072105084,0.0629310191083387,0.9735371054317719,0.050323069209856984,-0.1480854395105566,0.1666247150268906
414.7999999999514,-0.17549342,-0.8010734,-0.44013223,-2.410093,-0.11851872,1.2463247,0.4474764,0.04,0.04,0.0122169661814997,-0.018511124978559668,0.027968210602369314,0.009430602167472178,0.01758735274621436,0.061731094331819426,0.9733967496150984,0.05038602186888666,-0.14833445147925325,0.1672031911876649
414.81666666661806,-0.17592968,-0.8011156,-0.44122535,-2.4102263,-0.11881283,1.2455187,0.4466359,0.04,0.04,0.009542694532371776,-0.019778003435699798,0.027293953581153385,0.009162727573752763,0.016989250256224876,0.060530758664830264,0.9732585777241433,0.05044737181535644,-0.14857821912109923,0.1677716196682376
414.8333333332847,-0.1763577,-0.80115676,-0.44229776,-2.4103582,-0.119101405,1.244728,0.44581136,0.04,0.04,0.008917254465234947,-0.019758815432813215,0.027189559766060967,0.008896170910782084,0.016394778933389226,0.05932405434418619,0.9731225293891697,0.050507157806580764,-0.14881720485305877,0.16833006072965243
414.84999999995136,-0.17677748,-0.80119735,-0.44334948,-2.4104853,-0.11938437,1.2439525,0.44500276,0.04,0.04,0.013643406951602266,-0.017384162288891503,0.028285136690142654,0.00863282243863353,0.015798368227664453,0.0581115600742084,0.9729889663214284,0.050565748552471215,-0.14904974709772686,0.16887791264754062
414.866666666618,-0.17718898,-0.801237,-0.44438055,-2.4106107,-0.119661815,1.2431926,0.44421005,0.04,0.04,0.009244383501294529,-0.019142457006415814,0.027520055884633354,0.008366790791248323,0.01521677664918735,0.05690149712504085,0.9728576190974189,0.05062281380023553,-0.14927734615002242,0.16941563568175924
414.88333333328467,-0.1775922,-0.8012761,-0.44539094,-2.4107354,-0.11993368,1.2424479,0.44343323,0.039999995,0.04,0.008305134899400102,-0.01979528339496328,0.026948579624719304,0.008102319002724623,0.014638010839187823,0.0556869157538612,0.9727284312463921,0.05067821503184011,-0.14950036168256534,0.16994340064533697
414.8999999999513,-0.1779872,-0.8013141,-0.44638067,-2.4108543,-0.12019998,1.2417182,0.4426723,0.039999984,0.04,0.014526267298431428,-0.016224000880948886,0.028718197482768826,0.007841808292770293,0.014058526925372994,0.05446646271648754,0.972601815068091,0.050732607360627444,-0.14971697598880623,0.17046037362805025
414.91666666661797,-0.17837399,-0.80135137,-0.44734976,-2.4109724,-0.12046071,1.2410035,0.4419273,0.039999977,0.04,0.008431941746422922,-0.01931661042610111,0.026984992674894404,0.007578439672726145,0.01349374970679624,0.053252105198368795,0.9724773715686038,0.05078545253624442,-0.14992920098482931,0.17096734860715135
414.9333333332846,-0.17875259,-0.80138797,-0.44829828,-2.4110892,-0.12071592,1.2403042,0.44119802,0.039999966,0.04,0.008791647903283462,-0.01877283143246755,0.02726502390170138,0.007317731451360145,0.012927774990727843,0.052030872406471224,0.9723551882875902,0.05083673736740336,-0.15013673146391018,0.17146421145351778
414.9499999999513,-0.17912295,-0.8014238,-0.44922635,-2.4112005,-0.1209656,1.2396199,0.44048452,0.03999996,0.04,0.01433206888927785,-0.015806659169359527,0.028468750267784948,0.007060760514594762,0.012363530914228262,0.050808364809510995,0.9722356182533471,0.05088701087090288,-0.15033796931775883,0.17195031173443392
414.9666666666179,-0.17948522,-0.80145895,-0.45013392,-2.4113107,-0.121209785,1.2389508,0.4397867,0.039999958,0.04,0.008757261683811635,-0.018352702276203114,0.0272592285721851,0.006800409850936356,0.011815786820525975,0.04959101489139439,0.9721183415475965,0.050935802819831975,-0.15053457805185377,0.17242625910400078
414.9833333332846,-0.17983927,-0.8014931,-0.4510211,-2.4114196,-0.12144847,1.2382967,0.43910462,0.03999995,0.04,0.00846811108494716,-0.018359061777828423,0.027095162093082603,0.0065433487376682364,0.011269637013043919,0.04837191614915054,0.9720032883219147,0.050983136965069335,-0.150726980178918,0.17289217646478322
414.9999999999512,-0.18018521,-0.80152655,-0.45188794,-2.4115236,-0.12168168,1.2376575,0.43843815,0.039999947,0.04,0.013686983735583524,-0.015515477428140745,0.02826604486172446,0.006289818699368073,0.010722137640215436,0.0471495568924415,0.9718908618507239,0.051029447562949755,-0.15091336053044763,0.17334735575105914
