rsonawane2002/My_IMU/logs_2/traj_288/imu_400hz_288.csv
time,j1,j2,j3,j4,j5,j6,j7,gripper1,gripper2,imu_ax,imu_ay,imu_az,imu_gx,imu_gy,imu_gz
0.0,0.00016700293,-0.785875,4.0107683e-05,-2.3551247,9.29385e-05,1.570997,0.786,0.04,0.04,-9.524113,-0.0399020500481128,0.10435958,-2.918005e-07,-0.0011641272576525,8.0475627e-07
0.0025,0.0001670029555,-0.785857774,4.010753105e-05,-2.35513919,9.294351449999998e-05,1.570996565,0.786,0.04,0.04,-9.570657849999883,-0.03382400517295233,0.09006956360003573,-2.6576553010006515e-07,-0.001325244217877732,8.632917344998536e-07
0.005,0.00016700298099999998,-0.7858405480000001,4.01073791e-05,-2.35515368,9.294852899999998e-05,1.57099613,0.786,0.04,0.04,-9.617202699999767,-0.02774596029779186,0.07577954720007148,-2.3973056020013023e-07,-0.001486361178102964,9.218271989997071e-07
0.0075,0.0001670030065,-0.7858233220000002,4.010722715e-05,-2.3551681700000002,9.295354349999996e-05,1.570995695,0.786,0.04,0.04,-9.66374754999965,-0.021667915422631395,0.06148953080010722,-2.1369559030019536e-07,-0.001647478138328196,9.803626634995607e-07
0.01,0.000167003032,-0.7858060960000002,4.01070752e-05,-2.35518266,9.295855799999995e-05,1.5709952600000001,0.786,0.04,0.04,-9.710292399999535,-0.015589870547470925,0.04719951440014296,-1.8766062040026044e-07,-0.001808595098553428,1.0388981279994144e-06
0.0125,0.0001670030575,-0.7857888700000002,4.010692325e-05,-2.35519715,9.296357249999993e-05,1.570994825,0.786,0.04,0.04,-9.756837249999418,-0.009511825672310455,0.0329094980001787,-1.6162565050032558e-07,-0.00196971205877866,1.097433592499268e-06
0.015,0.00016700308299999998,-0.7857716440000003,4.01067713e-05,-2.35521164,9.296858699999993e-05,1.57099439,0.786,0.04,0.04,-9.803382099999302,-0.0034337807971499892,0.01861948160021444,-1.3559068060039068e-07,-0.002130829019003892,1.1559690569991215e-06
0.0175,0.00016700215950000004,-0.7857548645000003,4.010385285000013e-05,-2.355225735,9.297273879999997e-05,1.57099396,0.786,0.04,0.04,-9.834313500000006,0.000613696916843898,0.009016153685003503,-6.426369230246646e-08,-0.0022875637630909206,1.2865078499958178e-06
0.02,0.00016699933800000004,-0.7857389780000003,4.009540140000009e-05,-2.35523904,9.297516519999997e-05,1.5709935400000001,0.786,0.04,0.04,-9.834018000000004,0.000600040308199909,0.008786202740002509,9.764733279823292e-08,-0.002435534074900885,1.5610532999970036e-06
0.0225,0.0001669965165,-0.7857230915000001,4.008694995000005e-05,-2.355252345,9.297759159999999e-05,1.57099312,0.786,0.04,0.04,-9.833722500000002,0.00058638369955592,0.008556251795001517,2.595583578989323e-07,-0.002583504386710849,1.8355987499981896e-06
0.025,0.000166993695,-0.785707205,4.007849850000002e-05,-2.3552656499999998,9.298001799999999e-05,1.5709927000000001,0.786,0.04,0.04,-9.833427,0.0005727270909119311,0.008326300850000523,4.2146938299963187e-07,-0.0027314746985208135,2.110144199999376e-06
0.0275,0.00016699087349999998,-0.7856913185,4.007004704999998e-05,-2.355278955,9.29824444e-05,1.57099228,0.786,0.04,0.04,-9.8331315,0.0005590704822679421,0.00809634990499953,5.833804081003313e-07,-0.0028794450103307775,2.384689650000562e-06
0.03,0.00016698805199999998,-0.7856754319999999,4.0061595599999945e-05,-2.35529226,9.298487080000001e-05,1.57099186,0.786,0.04,0.04,-9.832835999999999,0.0005454138736239531,0.007866398959998536,7.452914332010307e-07,-0.003027415322140742,2.659235100001748e-06
0.0325,0.00016698523049999997,-0.7856595454999998,4.005314414999991e-05,-2.355305565,9.298729720000003e-05,1.57099144,0.786,0.04,0.04,-9.832540499999997,0.0005317572649799641,0.007636448014997542,9.072024583017303e-07,-0.0031753856339507064,2.933780550002934e-06
0.035,0.00016697715499999988,-0.7856445149999999,4.0030109999999684e-05,-2.3553181,9.298548379999996e-05,1.57099101,0.786,0.04,0.04,-9.832258499999998,0.000509867095388198,0.0074214599799978295,1.2459507000044684e-06,-0.0033151304814978085,3.4339599700064124e-06
0.0375,0.0001669664524999999,-0.7856299124999999,3.999978449999976e-05,-2.3553302499999997,9.298155049999996e-05,1.570990575,0.786,0.04,0.04,-9.831983249999999,0.0004838601453227681,0.007213953399998349,1.6731175500033992e-06,-0.0034507625969137042,4.046956375004878e-06
0.04,0.00016695574999999995,-0.78561531,3.9969458999999836e-05,-2.3553424,9.297761719999997e-05,1.57099014,0.786,0.04,0.04,-9.831707999999999,0.0004578531952573381,0.007006446819998868,2.1002844000023312e-06,-0.0035863947123296,4.6599527800033454e-06
0.0425,0.00016694504749999997,-0.7856007075,3.993913349999991e-05,-2.35535455,9.297368389999998e-05,1.5709897050000001,0.786,0.04,0.04,-9.83143275,0.0004318462451919081,0.0067989402399993865,2.5274512500012633e-06,-0.003722026827745496,5.2729491850018135e-06
0.045,0.000166934345,-0.785586105,3.990880799999998e-05,-2.3553667,9.29697506e-05,1.57098927,0.786,0.04,0.04,-9.8311575,0.00040583929512647823,0.006591433659999906,2.9546181000001936e-06,-0.0038576589431613914,5.885945590000279e-06
0.0475,0.00016692364250000004,-0.7855715025000001,3.987848250000006e-05,-2.35537885,9.29658173e-05,1.570988835,0.786,0.04,0.04,-9.830882250000002,0.00037983234506104823,0.006383927080000424,3.381784949999126e-06,-0.0039932910585772875,6.498941994998746e-06
0.05,0.00016691294000000006,-0.7855569000000001,3.9848157000000134e-05,-2.355391,9.296188400000001e-05,1.5709884,0.786,0.04,0.04,-9.830607000000002,0.00035382539499561824,0.006176420500000944,3.8089517999980577e-06,-0.004128923173993183,7.111938399997214e-06
0.0525,0.000166886897,-0.7855434555,3.9776498250000015e-05,-2.35540213,9.29480888e-05,1.57098798,0.786,0.04,0.03999999925,-9.830340750000001,0.0003170582989696384,0.005986685080000043,4.51156067999984e-06,-0.004252434568479601,8.324713539999724e-06
0.055,0.0001668608539999999,-0.785530011,3.9704839499999706e-05,-2.35541326,9.293429359999995e-05,1.57098756,0.786,0.04,0.0399999985,-9.830074499999998,0.0002802912029436095,0.005796949659999223,5.214169560002875e-06,-0.004375945962965966,9.537488680004964e-06
0.0575,0.00016683481099999978,-0.7855165664999999,3.96331807499994e-05,-2.35542439,9.292049839999988e-05,1.57098714,0.786,0.04,0.03999999775,-9.829808249999997,0.00024352410691758065,0.005607214239998403,5.916778440005912e-06,-0.004499457357452329,1.0750263820010204e-05
0.06,0.00016680876799999968,-0.7855031219999998,3.956152199999909e-05,-2.35543552,9.290670319999982e-05,1.57098672,0.786,0.04,0.039999997,-9.829541999999996,0.0002067570108915519,0.005417478819997584,6.619387320008945e-06,-0.004622968751938693,1.1963038960015441e-05
0.0625,0.00016678272499999955,-0.7854896774999998,3.9489863249998774e-05,-2.35544665,9.289290799999976e-05,1.5709863,0.786,0.04,0.03999999625,-9.829275749999995,0.00016998991486552302,0.005227743399996764,7.321996200011981e-06,-0.004746480146425056,1.3175814100020681e-05
0.065,0.00016675668199999944,-0.7854762329999998,3.9418204499998466e-05,-2.35545778,9.28791127999997e-05,1.57098588,0.786,0.04,0.0399999955,-9.829009499999994,0.00013322281883949415,0.005038007979995944,8.024605080015016e-06,-0.0048699915409114196,1.4388589240025921e-05
0.0675,0.00016672232849999875,-0.7854631479999997,3.932451014999661e-05,-2.35546854,9.285868869999917e-05,1.570985455,0.786,0.04,0.03999999525,-9.828748799999994,9.228006820071944e-05,0.004852394874995644,8.850701900026353e-06,-0.004989647795448929,1.5729929000039254e-05
0.07,0.0001666713539999987,-0.7854507819999997,3.918674459999649e-05,-2.3554785600000003,9.282500679999914e-05,1.57098502,0.786,0.04,0.039999996,-9.828499199999994,4.2986008337364556e-05,0.004675026399995483,9.923774600027329e-06,-0.005101593770089571,1.732839800004071e-05
0.0725,0.00016662037949999865,-0.7854384159999998,3.9048979049996365e-05,-2.3554885800000003,9.27913248999991e-05,1.570984585,0.786,0.04,0.03999999675,-9.828249599999994,-6.308051525990053e-06,0.004497657924995322,1.09968473000283e-05,-0.005213539744730212,1.8926867000042158e-05
0.075,0.0001665694049999986,-0.7854260499999997,3.891121349999624e-05,-2.3554986,9.275764299999908e-05,1.57098415,0.786,0.04,0.0399999975,-9.827999999999994,-5.560211138934492e-05,0.004320289449995161,1.2069920000029278e-05,-0.005325485719370854,2.0525336000043612e-05
0.0775,0.00016651843049999857,-0.7854136839999997,3.8773447949996116e-05,-2.35550862,9.272396109999905e-05,1.5709837150000001,0.786,0.04,0.03999999825,-9.827750399999994,-0.0001048961712526998,0.004142920974994999,1.3142992700030255e-05,-0.005437431694011496,2.212380500004507e-05
0.08,0.00016646745599999853,-0.7854013179999997,3.8635682399995986e-05,-2.3555186400000006,9.269027919999903e-05,1.57098328,0.786,0.04,0.039999999,-9.827500799999994,-0.00015419023111605464,0.003965552499994838,1.421606540003123e-05,-0.005549377668652138,2.3722274000046523e-05
0.0825,0.00016641648149999847,-0.7853889519999997,3.849791684999586e-05,-2.3555286600000005,9.265659729999899e-05,1.570982845,0.786,0.04,0.03999999975,-9.827251199999992,-0.00020348429097940955,0.0037881840249946765,1.528913810003221e-05,-0.0056613236432927795,2.5320743000047977e-05
0.085,0.0001663411209999973,-0.7853772429999997,3.829634629999278e-05,-2.3555384800000003,9.260559199999816e-05,1.5709824000000001,0.7859998100000001,0.04,0.04,-9.827002599999993,-0.0002567547198867589,0.0036186711699948792,1.662141210004521e-05,-0.005765398545193707,2.749347370007607e-05
0.08750000000000001,0.0001662535674999972,-0.7853658624999996,3.806287324999256e-05,-2.3555482000000003,9.254592499999811e-05,1.57098195,0.785999525,0.04,0.04,-9.826754499999993,-0.00031201333331583417,0.0034530861249947287,1.8083286750046538e-05,-0.005865537910725313,2.995333525007831e-05
0.09,0.00016616601399999713,-0.7853544819999996,3.7829400199992354e-05,-2.3555579200000003,9.248625799999804e-05,1.5709815,0.78599924,0.04,0.04,-9.826506399999992,-0.0003672719467449092,0.0032875010799945786,1.9545161400047864e-05,-0.005965677276256918,3.2413196800080534e-05
0.0925,0.00016607846049999705,-0.7853431014999996,3.7595927149992145e-05,-2.3555676400000003,9.242659099999799e-05,1.57098105,0.785998955,0.04,0.04,-9.826258299999992,-0.0004225305601739845,0.003121916034994428,2.1007036050049194e-05,-0.006065816641788525,3.487305835008278e-05
0.095,0.00016599090699999697,-0.7853317209999996,3.736245409999193e-05,-2.3555773600000003,9.236692399999794e-05,1.5709806000000002,0.78599867,0.04,0.04,-9.826010199999992,-0.0004777891736030598,0.002956330989994277,2.2468910700050523e-05,-0.006165956007320131,3.7332919900085014e-05
0.0975,0.0001659033534999969,-0.7853203404999995,3.712898104999172e-05,-2.3555870800000003,9.230725699999788e-05,1.57098015,0.7859983850000001,0.04,0.04,-9.825762099999992,-0.0005330477870321351,0.002790745944994126,2.3930785350051853e-05,-0.0062660953728517375,3.979278145008726e-05
0.1,0.000165815799999995,-0.7853089599999996,3.6895507999986794e-05,-2.3555968000000003,9.224758999999656e-05,1.5709797,0.7859981,0.04,0.04,-9.825513999999995,-0.0005883064004615205,0.0026251608999943044,2.5392660000111736e-05,-0.006366234738383067,4.225264300012033e-05
0.10250000000000001,0.00016567831899999487,-0.7852984899999995,3.6532495699986465e-05,-2.35560553,9.215282899999647e-05,1.57097925,0.785997815,0.04,0.04,-9.825381999999996,-0.0006520873139402786,0.002468617329994162,2.8463877600114533e-05,-0.006458763964477626,4.556020195012335e-05
0.105,0.00016554083799999474,-0.7852880199999995,3.6169483399986136e-05,-2.3556142600000003,9.205806799999639e-05,1.5709788,0.78599753,0.04,0.04,-9.825249999999995,-0.0007158682274190362,0.0023120737599940204,3.153509520011731e-05,-0.0065512931905721845,4.886776090012634e-05
0.1075,0.00016540335699999462,-0.7852775499999995,3.5806471099985806e-05,-2.35562299,9.19633069999963e-05,1.57097835,0.785997245,0.04,0.04,-9.825117999999994,-0.0007796491408977944,0.002155530189993878,3.460631280012011e-05,-0.006643822416666744,5.2175319850129354e-05
0.11,0.0001652658759999945,-0.7852670799999996,3.544345879998548e-05,-2.3556317200000003,9.186854599999621e-05,1.5709779,0.78599696,0.04,0.04,-9.824985999999994,-0.0008434300543765524,0.0019989866199937355,3.76775304001229e-05,-0.006736351642761303,5.5482878800132364e-05
0.1125,0.00016512839499999436,-0.7852566099999996,3.508044649998515e-05,-2.3556404500000006,9.177378499999612e-05,1.57097745,0.785996675,0.04,0.04,-9.824853999999995,-0.0009072109678553105,0.001842443049993593,4.07487480001257e-05,-0.006828880868855862,5.879043775013537e-05
0.115,0.00016499091399999424,-0.7852461399999996,3.471743419998482e-05,-2.3556491800000003,9.167902399999604e-05,1.5709769999999998,0.78599639,0.04,0.04,-9.824721999999994,-0.0009709918813340686,0.0016858994799934506,4.3819965600128496e-05,-0.006921410094950422,6.209799670013838e-05
0.11750000000000001,0.00016483182049999135,-0.7852359444999997,3.429868479997733e-05,-2.3556576000000002,9.156920049999403e-05,1.57097654,0.7859960865,0.04,0.04,-9.82455644999999,-0.0010372814722389384,0.0015316622149936037,4.700189550014549e-05,-0.007010163972157652,6.571999090018172e-05
0.12,0.00016462950199999118,-0.7852262979999997,3.3768461199976856e-05,-2.3556654000000004,9.142925199999389e-05,1.57097606,0.785995746,0.04,0.04,-9.82432379999999,-0.001108588417995073,0.0013820375599934683,5.040525000014857e-05,-0.007091367151591665,6.997085560018557e-05
0.1225,0.00016442718349999098,-0.7852166514999996,3.323823759997637e-05,-2.3556732000000005,9.128930349999376e-05,1.5709755799999998,0.7859954055,0.04,0.04,-9.82409114999999,-0.0011798953637512078,0.001232412904993332,5.3808604500151674e-05,-0.007172570331025679,7.422172030018944e-05
0.125,0.0001642248649999908,-0.7852070049999996,3.270801399997589e-05,-2.3556810000000006,9.114935499999364e-05,1.5709750999999998,0.7859950649999999,0.04,0.04,-9.82385849999999,-0.0012512023095073428,0.0010827882499931957,5.7211959000154765e-05,-0.0072537735104596926,7.847258500019331e-05
0.1275,0.00016402254649999063,-0.7851973584999996,3.2177790399975403e-05,-2.3556888000000007,9.10094064999935e-05,1.5709746199999999,0.7859947245,0.04,0.04,-9.82362584999999,-0.0013225092552634776,0.0009331635949930596,6.061531350015787e-05,-0.007334976689893706,8.272344970019718e-05
0.13,0.00016382022799999043,-0.7851877119999995,3.164756679997492e-05,-2.3556966000000004,9.086945799999339e-05,1.57097414,0.785994384,0.04,0.04,-9.82339319999999,-0.0013938162010196126,0.0007835389399929233,6.401866800016096e-05,-0.007416179869327721,8.697431440020105e-05
0.1325,0.00016361790949999026,-0.7851780654999995,3.111734319997444e-05,-2.3557044000000005,9.072950949999325e-05,1.57097366,0.7859940434999999,0.04,0.04,-9.823160549999988,-0.0014651231467757474,0.000633914284992787,6.742202250016406e-05,-0.007497383048761735,9.122517910020492e-05
0.135,0.00016336147299998607,-0.7851689549999995,3.0448254499963727e-05,-2.3557120000000005,9.055208999999037e-05,1.57097307,0.7859935469999999,0.04,0.04,-9.82294329999999,-0.001539302361201414,0.00049119892299316,7.113625210019007e-05,-0.0075716385152224865,9.616191160025933e-05
0.1375,0.00016307797749998582,-0.7851601124999995,2.9709733249963053e-05,-2.3557195000000006,9.035593499999019e-05,1.570972425,0.7859929724999999,0.04,0.04,-9.82273374999999,-0.0016149177099615327,0.00035193820749303327,7.500591925019359e-05,-0.007642420125197366,0.00010144157800026413
0.14,0.00016279448199998557,-0.7851512699999995,2.8971211999962382e-05,-2.3557270000000003,9.015977999999001e-05,1.57097178,0.785992398,0.04,0.04,-9.82252419999999,-0.0016905330587216516,0.00021267749199290647,7.887558640019711e-05,-0.007713201735172245,0.00010672124440026894
0.14250000000000002,0.0001625109864999853,-0.7851424274999995,2.823269074996171e-05,-2.3557345000000005,8.996362499998984e-05,1.570971135,0.7859918235,0.04,0.04,-9.822314649999988,-0.0017661484074817705,7.341677649277966e-05,8.274525355020063e-05,-0.007783983345147125,0.00011200091080027374
0.145,0.00016222749099998506,-0.7851335849999995,2.7494169499961045e-05,-2.3557420000000007,8.976746999998966e-05,1.5709704899999999,0.785991249,0.04,0.04,-9.82210509999999,-0.0018417637562418885,-6.584393900734551e-05,8.661492070020411e-05,-0.007854764955122004,0.00011728057720027849
0.1475,0.00016194399549998478,-0.7851247424999995,2.675564824996037e-05,-2.3557495000000004,8.957131499998947e-05,1.570969845,0.7859906744999999,0.04,0.04,-9.821895549999988,-0.0019173791050020074,-0.00020510465450747232,9.048458785020764e-05,-0.007925546565096883,0.0001225602436002833
0.15,0.00016166049999997916,-0.7851158999999995,2.601712699994593e-05,-2.3557570000000005,8.937515999998547e-05,1.5709692,0.7859901,0.04,0.04,-9.821685999999993,-0.0019929944537624674,-0.0003443653700068589,9.435425500027639e-05,-0.00799632817507138,0.0001278399100003508
0.1525,0.00016127830299997748,-0.7851077909999995,2.502626689994165e-05,-2.3557636900000003,8.910884399998432e-05,1.5709681949999998,0.785989245,0.0399999985,0.0399999985,-9.821564199999992,-0.002074861724400111,-0.000470060814507402,9.941947825029828e-05,-0.008060091128576564,0.0001342687690003786
0.155,0.00016089610599997583,-0.7850996819999995,2.4035406799937367e-05,-2.3557703800000005,8.884252799998316e-05,1.57096719,0.78598839,0.039999997,0.039999997,-9.821442399999992,-0.0021567289950377546,-0.0005957562590079451,0.00010448470150032016,-0.008123854082081751,0.00014069762800040635
0.1575,0.00016051390899997418,-0.7850915729999994,2.3044546699933084e-05,-2.3557770700000007,8.857621199998201e-05,1.5709661849999998,0.785987535,0.0399999955,0.0399999955,-9.821320599999991,-0.0022385962656753986,-0.0007214517035084884,0.00010954992475034206,-0.008187617035586936,0.00014712648700043415
0.16,0.00016013171199997253,-0.7850834639999994,2.2053686599928805e-05,-2.3557837600000004,8.830989599998086e-05,1.57096518,0.7859866799999999,0.039999994,0.039999994,-9.82119879999999,-0.002320463536313042,-0.0008471471480090314,0.00011461514800036394,-0.008251379989092122,0.0001535553460004619
0.1625,0.00015974951499997088,-0.7850753549999994,2.1062826499924523e-05,-2.3557904500000006,8.804357999997971e-05,1.5709641749999999,0.7859858249999999,0.0399999925,0.0399999925,-9.82107699999999,-0.0024023308069506862,-0.0009728425925095746,0.00011968037125038584,-0.008315142942597307,0.0001599842050004897
0.165,0.00015936731799996923,-0.7850672459999993,2.007196639992024e-05,-2.3557971400000004,8.777726399997856e-05,1.57096317,0.78598497,0.039999991,0.039999991,-9.82095519999999,-0.00248419807758833,-0.0010985380370101177,0.00012474559450040772,-0.008378905896102493,0.00016641306400051747
0.1675,0.00015894600399995876,-0.7850593604999994,1.8981404249893525e-05,-2.3558037450000007,8.748397949997134e-05,1.57096215,0.785984065,0.0399999899,0.0399999899,-9.820811299999985,-0.0025673474301653896,-0.001222109300009849,0.00013026459650053045,-0.008439736953009662,0.0001732100590006218
0.17,0.00015844645599996,-0.7850519219999994,1.769143799989675e-05,-2.3558101800000006,8.713675799997221e-05,1.5709610999999999,0.78598306,0.0399999896,0.0399999896,-9.820623199999986,-0.0026530609466203204,-0.0013414322000095506,0.00013669115600051438,-0.008494704216723,0.00018074332600060295
0.17250000000000001,0.00015794690799996125,-0.7850444834999994,1.6401471749899975e-05,-2.3558166150000006,8.678953649997307e-05,1.5709600499999998,0.785982055,0.0399999893,0.0399999893,-9.820435099999985,-0.002738774463075251,-0.0014607551000092524,0.00014311771550049832,-0.008549671480436338,0.00018827659300058413
0.17500000000000002,0.00015744735999996252,-0.7850370449999994,1.51115054999032e-05,-2.3558230500000006,8.644231499997394e-05,1.570959,0.78598105,0.039999989,0.039999989,-9.820246999999986,-0.002824487979530182,-0.001580078000008954,0.00014954427500048226,-0.008604638744149675,0.0001958098600005653
0.1775,0.00015694781199996377,-0.7850296064999994,1.3821539249906439e-05,-2.3558294850000006,8.609509349997482e-05,1.57095795,0.785980045,0.0399999887,0.0399999887,-9.820058899999987,-0.0029102014959851118,-0.0016994009000086542,0.0001559708345004661,-0.008659606007863013,0.00020334312700054637
0.18,0.000156448263999965,-0.7850221679999995,1.2531572999909666e-05,-2.3558359200000005,8.574787199997569e-05,1.5709568999999999,0.78597904,0.0399999884,0.0399999884,-9.819870799999988,-0.0029959150124400425,-0.001818723800008356,0.00016239739400045005,-0.00871457327157635,0.00021087639400052755
0.1825,0.00015594871599996626,-0.7850147294999995,1.124160674991289e-05,-2.3558423550000005,8.540065049997656e-05,1.5709558499999998,0.785978035,0.0399999881,0.0399999881,-9.819682699999987,-0.0030816285288949733,-0.0019380467000080575,0.00016882395350043398,-0.008769540535289687,0.0002184096610005087
0.185,0.0001553578639999557,-0.7850076949999995,9.719523260886024e-06,-2.35584848,8.49907189999693e-05,1.57095445,0.7859768739999999,0.0399999876,0.039999987199999996,-9.819537299999991,-0.0031676492653846255,-0.0020583115200084002,0.00017565517500048937,-0.00881939716637454,0.00022687278000062117
0.1875,0.00015472135999995297,-0.7850008624999995,8.081381152378947e-06,-2.3558544500000003,8.454943249996739e-05,1.570952875,0.7859756349999999,0.039999987,0.039999986,-9.819413249999991,-0.003253823611891593,-0.0021790473000089217,0.00018268872750051976,-0.008866698481145921,0.00023580082500065976
0.19,0.0001540848559999502,-0.7849940299999995,6.443239043871868e-06,-2.3558604200000004,8.410814599996548e-05,1.5709513,0.785974396,0.0399999864,0.0399999848,-9.819289199999991,-0.0033399979583985605,-0.0022997830800094436,0.00018972228000055014,-0.0089139997959173,0.0002447288700006983
0.1925,0.00015344835199994746,-0.7849871974999995,4.8050969353647895e-06,-2.3558663900000005,8.366685949996357e-05,1.570949725,0.7859731569999999,0.0399999858,0.0399999836,-9.81916514999999,-0.003426172304905528,-0.0024205188600099656,0.00019675583250058053,-0.00896130111068868,0.0002536569150007369
0.195,0.00015281184799994472,-0.7849803649999995,3.1669548268577112e-06,-2.3558723600000007,8.322557299996166e-05,1.5709481499999998,0.7859719179999999,0.039999985200000004,0.039999982399999995,-9.819041099999989,-0.003512346651412495,-0.002541254640010487,0.00020378938500061094,-0.009008602425460059,0.0002625849600007755
0.1975,0.00015217534399994197,-0.7849735324999993,1.5288127183506338e-06,-2.3558783300000004,8.278428649995976e-05,1.5709465749999998,0.785970679,0.0399999846,0.0399999812,-9.818917049999989,-0.0035985209979194624,-0.002661990420011009,0.00021082293750064132,-0.00905590374023144,0.0002715130050008141
0.2,0.0001515388399999242,-0.7849666999999995,-1.0932939019457254e-07,-2.3558843000000005,8.234299999994753e-05,1.5709449999999998,0.7859694399999999,0.039999984,0.03999998,-9.818792999999987,-0.00368469534442714,-0.0027827262000107034,0.00021785649000075367,-0.009103205055002223,0.00028044105000096293
0.2025,0.00015074498299992616,-0.7849604449999994,-2.1467086816894786e-06,-2.3558896250000005,8.179370299994891e-05,1.57094341,0.7859678589999999,0.03999998295,0.03999997895,-9.818667599999987,-0.0037783049279910158,-0.002894799090010423,0.00022574848350073395,-0.009144281828779731,0.00029052392100093773
0.20500000000000002,0.00014995112599992816,-0.7849541899999994,-4.1840879731843844e-06,-2.3558949500000006,8.124440599995029e-05,1.5709418199999998,0.7859662779999999,0.0399999819,0.0399999779,-9.818542199999989,-0.003871914511554892,-0.003006871980010143,0.00023364047700071423,-0.009185358602557238,0.0003006067920009125
0.20750000000000002,0.00014915726899993015,-0.7849479349999995,-6.221467264679291e-06,-2.3559002750000007,8.069510899995166e-05,1.57094023,0.7859646969999998,0.03999998085,0.03999997685,-9.818416799999989,-0.003965524095118768,-0.0031189448700098626,0.00024153247050069448,-0.009226435376334744,0.0003106896630008873
0.21,0.00014836341199993212,-0.7849416799999994,-8.258846556174175e-06,-2.3559056000000007,8.014581199995303e-05,1.5709386399999998,0.7859631159999999,0.0399999798,0.0399999758,-9.818291399999989,-0.0040591336786826426,-0.003231017760009581,0.0002494244640006747,-0.009267512150112251,0.00032077253400086196
0.2125,0.00014756955499993412,-0.7849354249999995,-1.029622584766908e-05,-2.3559109250000003,7.959651499995441e-05,1.57093705,0.7859615349999999,0.03999997875,0.03999997475,-9.818165999999989,-0.004152743262246518,-0.0033430906500093007,0.00025731645750065493,-0.00930858892388976,0.0003308554050008368
0.215,0.0001467756979999361,-0.7849291699999995,-1.2333605139163986e-05,-2.3559162500000004,7.904721799995579e-05,1.5709354599999998,0.7859599539999998,0.0399999777,0.039999973700000004,-9.81804059999999,-0.004246352845810395,-0.003455163540009021,0.00026520845100063523,-0.009349665697667266,0.00034093827600081155
0.2175,0.00014592234449992416,-0.7849230849999995,-1.4521684450194152e-05,-2.3559215400000006,7.845722699994765e-05,1.570933685,0.7859582374999998,0.03999997665,0.03999997235,-9.817902949999986,-0.004339092550806307,-0.003569170645009193,0.00027350563850071026,-0.009387608850377229,0.00035150591300089977
0.22,0.0001449499979999266,-0.7849173399999996,-1.701116380018793e-05,-2.3559267600000005,7.778584799994931e-05,1.57093154,0.7859562499999999,0.0399999756,0.0399999704,-9.817740799999989,-0.00443009249866691,-0.0036870461800088982,0.00028261321400068753,-0.00941928476095433,0.00036304308200087095
0.2225,0.00014397765149992903,-0.7849115949999996,-1.9500643150181705e-05,-2.3559319800000003,7.7114468999951e-05,1.5709293949999998,0.7859542624999999,0.03999997455,0.03999996845,-9.817578649999989,-0.004521092446527512,-0.0038049217150086037,0.00029172078950066475,-0.009450960671531432,0.0003745802510008421
0.225,0.00014300530499993146,-0.7849058499999996,-2.199012250017548e-05,-2.3559372000000005,7.644308999995268e-05,1.5709272499999998,0.7859522749999999,0.0399999735,0.0399999665,-9.81741649999999,-0.004612092394388114,-0.003922797250008309,0.00030082836500064196,-0.009482636582108532,0.00038611742000081327
0.2275,0.0001420329584999339,-0.7849001049999996,-2.4479601850169254e-05,-2.3559424200000003,7.577171099995435e-05,1.570925105,0.7859502875,0.039999972450000004,0.03999996455,-9.81725434999999,-0.004703092342248717,-0.004040672785008014,0.00030993594050061923,-0.009514312492685634,0.0003976545890007844
0.23,0.00014106061199993633,-0.7848943599999997,-2.696908120016303e-05,-2.3559476400000006,7.510033199995603e-05,1.5709229599999999,0.7859482999999999,0.0399999714,0.0399999626,-9.81709219999999,-0.004794092290109319,-0.00415854832000772,0.00031904351600059645,-0.009545988403262734,0.0004091917580007555
0.2325,0.00014008826549993876,-0.7848886149999997,-2.9458560550156803e-05,-2.3559528600000004,7.44289529999577e-05,1.5709208149999998,0.7859463124999999,0.039999970350000004,0.03999996065,-9.816930049999991,-0.004885092237969922,-0.004276423855007425,0.00032815109150057366,-0.009577664313839836,0.0004207289270007267
0.23500000000000001,0.00013898243399992376,-0.7848831999999997,-3.228567690019484e-05,-2.3559579200000003,7.366627299994743e-05,1.5709186199999998,0.7859441249999999,0.039999969,0.0399999594,-9.816819499999996,-0.004978387337184052,-0.0043859985300068564,0.00033813296100067763,-0.009606126323344026,0.00043309087500083076
0.23750000000000002,0.00013780985999991869,-0.7848779499999997,-3.5281611750207786e-05,-2.3559629,7.285794249994393e-05,1.5709163999999998,0.7859418374999999,0.039999967500000004,0.0399999585,-9.816734749999995,-0.005072830012074625,-0.004491422775007312,0.0003485519775007226,-0.009632981382312212,0.00044586521250088596
0.24,0.00013663728599991364,-0.7848726999999996,-3.82775466002207e-05,-2.35596788,7.204961199994046e-05,1.5709141799999997,0.7859395499999998,0.039999966000000005,0.0399999576,-9.816649999999994,-0.005167272686965197,-0.0045968470200077665,0.0003589709940007675,-0.0096598364412804,0.000458639550000941
0.2425,0.00013546471199990856,-0.7848674499999997,-4.1273481450233646e-05,-2.3559728600000005,7.124128149993696e-05,1.5709119599999997,0.7859372624999998,0.0399999645,0.0399999567,-9.816565249999995,-0.00526171536185577,-0.004702271265008222,0.00036939001050081255,-0.009686691500248585,0.0004714138875009962
0.245,0.0001342921379999035,-0.7848621999999996,-4.426941630024659e-05,-2.3559778400000004,7.043295099993347e-05,1.5709097399999998,0.7859349749999999,0.039999963,0.0399999558,-9.816480499999994,-0.005356158036746344,-0.0048076955100086775,0.00037980902700085755,-0.00971354655921677,0.0004841882250010514
0.2475,0.00013311956399989842,-0.7848569499999996,-4.7265351150259534e-05,-2.3559828200000004,6.962462049992998e-05,1.5709075199999998,0.7859326874999998,0.0399999615,0.039999954899999995,-9.816395749999993,-0.005450600711636916,-0.004913119755009133,0.0003902280435009026,-0.009740401618184957,0.0004969625625011066
0.25,0.00013194698999987312,-0.7848516999999996,-5.02612860003236e-05,-2.3559878000000003,6.881628999991269e-05,1.5709052999999997,0.7859303999999998,0.03999996,0.039999954,-9.816310999999992,-0.005545043386527401,-0.005018544000010697,0.00040064706000101415,-0.009767256677152465,0.000509736900001289
0.2525,0.00013055192699987662,-0.7848468849999996,-5.38193136003147e-05,-2.3559921800000003,6.785619099991508e-05,1.5709025699999997,0.7859276459999998,0.0399999609,0.0399999546,-9.816207124999991,-0.0056385105475865414,-0.005136161160010403,0.00041179788600098627,-0.009786658547820352,0.0005239099455012536
0.255,0.00012915686399988009,-0.7848420699999996,-5.737734120030581e-05,-2.3559965600000004,6.689609199991748e-05,1.5708998399999998,0.7859248919999998,0.0399999618,0.0399999552,-9.81610324999999,-0.005731977708645683,-0.005253778320010109,0.0004229487120009584,-0.009806060418488237,0.0005380829910012181
0.2575,0.00012776180099988358,-0.7848372549999996,-6.0935368800296914e-05,-2.3560009400000004,6.593599299991988e-05,1.5708971099999998,0.7859221379999998,0.0399999627,0.0399999558,-9.815999374999992,-0.005825444869704825,-0.005371395480009815,0.00043409953800093055,-0.009825462289156124,0.0005522560365011827
0.26,0.00012636673799988708,-0.7848324399999996,-6.449339640028802e-05,-2.3560053200000004,6.497589399992228e-05,1.5708943799999997,0.7859193839999998,0.0399999636,0.0399999564,-9.815895499999991,-0.005918912030763966,-0.005489012640009521,0.00044525036400090267,-0.00984486415982401,0.0005664290820011472
0.2625,0.00012497167499989054,-0.7848276249999996,-6.805142400027913e-05,-2.3560097000000004,6.401579499992467e-05,1.5708916499999999,0.7859166299999998,0.0399999645,0.039999957,-9.815791624999992,-0.006012379191823107,-0.0056066298000092265,0.0004564011900008748,-0.009864266030491897,0.0005806021275011118
0.265,0.00012357661199989404,-0.7848228099999996,-7.160945160027023e-05,-2.3560140800000005,6.305569599992708e-05,1.5708889199999998,0.7859138759999998,0.0399999654,0.039999957600000004,-9.815687749999991,-0.0061058463528822484,-0.005724246960008932,0.0004675520160008469,-0.009883667901159783,0.0005947751730010764
0.2675,0.0001220998187998758,-0.7848181369999996,-7.537372530031628e-05,-2.3560183900000005,6.203990669991465e-05,1.5708859949999998,0.7859109679999998,0.0399999662,0.039999958,-9.815570724999988,-0.006198883405893484,-0.005837827745007989,0.0004791198600009391,-0.00990063096396714,0.0006094654695011906
0.27,0.0001204595651998687,-0.7848137479999996,-7.955049120033432e-05,-2.3560225600000004,6.0912736799909776e-05,1.5708826799999998,0.7859077519999997,0.0399999668,0.039999958,-9.815427399999988,-0.006291060242809198,-0.005943335780008445,0.0004915217400009926,-0.009912716411055067,0.0006251902680012586
0.2725,0.00011881931159986161,-0.7848093589999996,-8.372725710035237e-05,-2.3560267300000004,5.9785566899904906e-05,1.5708793649999997,0.7859045359999998,0.0399999674,0.039999958,-9.815284074999987,-0.0063832370797249115,-0.006048843815008901,0.0005039236200010463,-0.009924801858142995,0.0006409150665013266
0.275,0.00011717905799985454,-0.7848049699999996,-8.790402300037041e-05,-2.3560309000000004,5.8658396999900036e-05,1.5708760499999996,0.7859013199999997,0.039999968000000004,0.039999958,-9.815140749999987,-0.006475413916640625,-0.006154351850009357,0.0005163255000010999,-0.009936887305230922,0.0006566398650013945
0.2775,0.00011553880439984745,-0.7848005809999996,-9.208078890038846e-05,-2.3560350700000003,5.7531227099895166e-05,1.5708727349999996,0.7858981039999997,0.0399999686,0.039999958,-9.814997424999985,-0.006567590753556338,-0.006259859885009812,0.0005287273800011535,-0.00994897275231885,0.0006723646635014625
0.28,0.00011389855079984036,-0.7847961919999996,-9.625755480040651e-05,-2.3560392400000003,5.6404057199890296e-05,1.5708694199999997,0.7858948879999997,0.0399999692,0.039999958,-9.814854099999986,-0.006659767590472051,-0.006365367920010269,0.000541129260001207,-0.009961058199406776,0.0006880894620015305
0.28250000000000003,0.00011225829719983327,-0.7847918029999996,-0.00010043432070042456,-2.3560434100000003,5.5276887299885425e-05,1.5708661049999997,0.7858916719999997,0.0399999698,0.039999958,-9.814710774999984,-0.006751944427387764,-0.006470875955010724,0.0005535311400012606,-0.009973143646494704,0.0007038142605015985
0.28500000000000003,0.0001104392323998021,-0.7847876689999996,-0.00010506193640050324,-2.35604752,5.402792029986417e-05,1.5708625599999995,0.7858880949999996,0.0399999703,0.039999958200000005,-9.814600999999989,-0.006844846764589011,-0.0065761248100109,0.0005666656000014,-0.00998166706413093,0.0007204185200017674
0.28750000000000003,0.00010853076199980037,-0.7847836624999996,-0.00010991497700050765,-2.3560516000000002,5.271805474986298e-05,1.5708588999999995,0.7858843374999996,0.03999997075,0.0399999585,-9.81450799999999,-0.006938111851932856,-0.006681244075010996,0.0005801663500014122,-0.00998840946704213,0.0007374625100017829
0.29,0.00010662229159979867,-0.7847796559999997,-0.00011476801760051196,-2.3560556800000003,5.140818919986182e-05,1.5708552399999995,0.7858805799999996,0.039999971200000005,0.0399999588,-9.81441499999999,-0.007031376939276699,-0.00678636334001109,0.0005936671000014242,-0.00999515186995333,0.000754506500001798
0.2925,0.00010471382119979694,-0.7847756494999996,-0.00011962105820051639,-2.3560597600000004,5.009832364986062e-05,1.5708515799999996,0.7858768224999996,0.03999997165,0.0399999591,-9.81432199999999,-0.007124642026620544,-0.006891482605011185,0.0006071678500014365,-0.010001894272864532,0.0007715504900018136
0.295,0.0001028053507997952,-0.7847716429999996,-0.0001244740988005208,-2.3560638400000005,4.878845809985943e-05,1.5708479199999996,0.7858730649999996,0.0399999721,0.0399999594,-9.81422899999999,-0.007217907113964389,-0.006996601870011281,0.0006206686000014488,-0.010008636675775734,0.0007885944800018291
0.2975,0.00010089688039979345,-0.7847676364999996,-0.0001293271394005252,-2.3560679200000005,4.7478592549858236e-05,1.5708442599999994,0.7858693074999996,0.03999997255,0.039999959700000004,-9.814135999999989,-0.0073111722013082334,-0.007101721135011376,0.000634169350001461,-0.010015379078686933,0.0008056384700018446
0.3,9.89884099997599e-05,-0.7847636299999996,-0.00013418018000060981,-2.3560720000000006,4.61687269998354e-05,1.5708405999999995,0.7858655499999996,0.039999973,0.03999996,-9.814042999999991,-0.007404437288651733,-0.00720684040001247,0.0006476701000016066,-0.010022121481597479,0.0008226824600020201
0.3025,9.67883967497579e-05,-0.7847599954999996,-0.0001397677250006149,-2.3560760050000007,4.466052244983403e-05,1.5708364299999995,0.7858612224999996,0.039999973,0.03999996,-9.813961399999991,-0.007494535762826545,-0.0073211056900125745,0.0006623924500016201,-0.01002284986898308,0.0008411920010020369
0.305,9.45883834997559e-05,-0.7847563609999996,-0.00014535527000061999,-2.356080010000001,4.3152317899832655e-05,1.5708322599999995,0.7858568949999996,0.039999973,0.03999996,-9.813879799999992,-0.007584634237001357,-0.007435370980012678,0.0006771148000016336,-0.01002357825636868,0.0008597015420020537
0.3075,9.23883702497539e-05,-0.7847527264999996,-0.00015094281500062506,-2.3560840150000004,4.164411334983128e-05,1.5708280899999993,0.7858525674999995,0.039999973,0.03999996,-9.81379819999999,-0.007674732711176168,-0.007549636270012782,0.0006918371500016469,-0.010024306643754281,0.0008782110830020705
0.31,9.018835699975189e-05,-0.7847490919999996,-0.00015653036000063016,-2.3560880200000005,4.0135908799829914e-05,1.5708239199999994,0.7858482399999995,0.039999973,0.03999996,-9.81371659999999,-0.007764831185350981,-0.007663901560012887,0.0007065595000016604,-0.010025035031139882,0.0008967206240020875
0.3125,8.79883437497499e-05,-0.7847454574999996,-0.00016211790500063523,-2.3560920250000006,3.862770424982854e-05,1.5708197499999994,0.7858439124999995,0.039999973,0.03999996,-9.81363499999999,-0.007854929659525792,-0.00777816685001299,0.0007212818500016737,-0.010025763418525482,0.0009152301650021043
0.315,8.578833049974789e-05,-0.7847418229999996,-0.00016770545000064033,-2.3560960300000007,3.7119499699827166e-05,1.5708155799999994,0.7858395849999995,0.039999973,0.03999996,-9.813553399999991,-0.007945028133700604,-0.007892432140013094,0.0007360042000016872,-0.010026491805911083,0.0009337397060021211
0.3175,8.348329124971235e-05,-0.7847383019999996,-0.00017355739800072978,-2.3560999950000006,3.553994209980302e-05,1.5708112149999993,0.7858350519999995,0.039999973,0.0399999599,-9.813475399999993,-0.008033341448763682,-0.008005959950012815,0.0007511309650018226,-0.010025498131289503,0.0009527856250023009
0.32,8.096819999971864e-05,-0.7847350079999996,-0.00017993815200071384,-2.3561038800000005,3.381767839980733e-05,1.5708064599999993,0.7858301079999995,0.039999973,0.0399999596,-9.813404599999993,-0.008118084445605139,-0.008118012800012534,0.0007670665600017827,-0.010021060332655343,0.0009729043000022506
0.3225,7.845310874972493e-05,-0.7847317139999996,-0.00018631890600069787,-2.3561077650000004,3.209541469981164e-05,1.5708017049999994,0.7858251639999995,0.039999973,0.0399999593,-9.813333799999992,-0.008202827442446598,-0.008230065650012254,0.0007830021550017429,-0.010016622534021184,0.0009930229750022004
0.325,7.593801749973121e-05,-0.7847284199999996,-0.00019269966000068193,-2.3561116500000003,3.0373150999815945e-05,1.5707969499999994,0.7858202199999995,0.039999973,0.039999959,-9.813262999999992,-0.008287570439288057,-0.008342118500011975,0.0007989377500017031,-0.010012184735387026,0.0010131416500021501
0.3275,7.34229262497375e-05,-0.7847251259999997,-0.00019908041400066597,-2.3561155350000003,2.865088729982025e-05,1.5707921949999994,0.7858152759999995,0.039999973,0.039999958700000005,-9.813192199999992,-0.008372313436129514,-0.008454171350011695,0.0008148733450016632,-0.010007746936752866,0.0010332603250020997
0.33,7.090783499974379e-05,-0.7847218319999997,-0.00020546116800065,-2.35611942,2.6928623599824553e-05,1.5707874399999995,0.7858103319999995,0.039999973,0.0399999584,-9.813121399999993,-0.008457056432970973,-0.008566224200011414,0.0008308089400016234,-0.010003309138118708,0.0010533790000020495
0.3325,6.839274374975007e-05,-0.7847185379999997,-0.00021184192200063406,-2.356123305,2.520635989982886e-05,1.5707826849999995,0.7858053879999994,0.039999973,0.0399999581,-9.813050599999993,-0.008541799429812431,-0.008678277050011134,0.0008467445350015836,-0.00999887133948455,0.001073497675001999
0.335,6.565181869971058e-05,-0.7847154559999997,-0.00021879090400073357,-2.35612696,2.3330670699801993e-05,1.5707774899999996,0.7858000199999994,0.039999973700000004,0.0399999588,-9.812974499999992,-0.008629295416185264,-0.008791615600011559,0.0008634473860017329,-0.009990940056740198,0.0010945240500021783
0.3375,6.279797674969824e-05,-0.7847124799999997,-0.0002260240000007648,-2.3561305000000003,2.137826874979356e-05,1.5707720749999994,0.7857944399999994,0.03999997475,0.03999996,-9.812895749999992,-0.008718167897323173,-0.008905597000012052,0.0008805338650018067,-0.009981262031941527,0.0011160042750022713
0.34,5.994413479968591e-05,-0.7847095039999996,-0.00023325709600079608,-2.35613404,1.9425866799785124e-05,1.5707666599999994,0.7857888599999994,0.0399999758,0.0399999612,-9.812816999999992,-0.00880704037846108,-0.009019578400012544,0.0008976203440018805,-0.009971584007142854,0.001137484500002364
0.3425,5.709029284967358e-05,-0.7847065279999996,-0.00024049019200082732,-2.3561375800000004,1.7473464849776686e-05,1.5707612449999995,0.7857832799999993,0.03999997685,0.0399999624,-9.812738249999992,-0.00889591285959899,-0.009133559800013036,0.0009147068230019544,-0.009961905982344183,0.001158964725002457
0.34500000000000003,5.4236450899661244e-05,-0.7847035519999996,-0.00024772328800085855,-2.35614112,1.552106289976825e-05,1.5707558299999995,0.7857776999999994,0.0399999779,0.0399999636,-9.812659499999992,-0.008984785340736899,-0.00924754120001353,0.0009317933020020282,-0.009952227957545511,0.0011804449500025496
0.34750000000000003,5.1382608949648915e-05,-0.7847005759999996,-0.0002549563840008898,-2.3561446600000004,1.3568660949759814e-05,1.5707504149999993,0.7857721199999993,0.03999997895,0.039999964799999996,-9.81258074999999,-0.009073657821874808,-0.009361522600014022,0.000948879781002102,-0.00994254993274684,0.0012019251750026425
0.35000000000000003,4.8528766999590414e-05,-0.7846975999999997,-0.0002621894800010372,-2.3561482000000002,1.161625899972004e-05,1.5707449999999992,0.7857665399999992,0.03999998,0.039999966,-9.812501999999988,-0.009162530303011689,-0.00947550400001514,0.0009659662600023138,-0.009932871907947395,0.0012234054000029426
0.3525,4.531239394959853e-05,-0.7846949074999997,-0.0002703342535010166,-2.3561516200000003,9.417779499725585e-06,1.5707388799999993,0.7857602639999992,0.039999979549999995,0.039999964799999996,-9.812397599999988,-0.009243328776220621,-0.00959439730001484,0.000984136486002268,-0.009917120076713939,0.0012465126900028842
0.355,4.2096020899606574e-05,-0.7846922149999996,-0.00027847902700099626,-2.3561550400000004,7.219299999731083e-06,1.5707327599999994,0.7857539879999993,0.0399999791,0.0399999636,-9.812293199999989,-0.009324127249429553,-0.009713290600014543,0.0010023067120022227,-0.009901368245480484,0.0012696199800028265
0.3575,3.887964784961462e-05,-0.7846895224999997,-0.0002866238005009759,-2.35615846,5.020820499736579e-06,1.5707266399999993,0.7857477119999993,0.03999997865,0.0399999624,-9.812188799999989,-0.009404925722638487,-0.009832183900014245,0.0010204769380021772,-0.009885616414247027,0.0012927272700027686
0.36,3.566327479962266e-05,-0.7846868299999996,-0.00029476857400095554,-2.35616188,2.8223409997420756e-06,1.5707205199999994,0.7857414359999993,0.0399999782,0.0399999612,-9.81208439999999,-0.009485724195847419,-0.009951077200013949,0.0010386471640021317,-0.009869864583013572,0.001315834560002711
0.3625,3.24469017496307e-05,-0.7846841374999997,-0.0003029133475009352,-2.3561653000000002,6.238614997475729e-07,1.5707143999999993,0.7857351599999993,0.03999997775,0.03999996,-9.81197999999999,-0.009566522669056351,-0.010069970500013651,0.0010568173900020864,-0.009854112751780116,0.001338941850002653
0.365,2.9230528699638742e-05,-0.7846814449999997,-0.0003110581210009148,-2.3561687200000003,-1.5746180002469298e-06,1.5707082799999994,0.7857288839999993,0.039999977299999996,0.0399999588,-9.811875599999988,-0.009647321142265285,-0.010188863800013355,0.001074987616002041,-0.00983836092054666,0.0013620491400025954
0.3675,2.5885379779596165e-05,-0.7846788394999997,-0.0003195265965010218,-2.3561720900000003,-3.860474000275816e-06,1.5707019199999992,0.7857223574999993,0.03999997715,0.0399999581,-9.811779699999992,-0.009727703034886636,-0.010308929200013722,0.0010935333050021631,-0.009820910962296169,0.001385614315002744
0.37,2.2282679119580596e-05,-0.7846764079999997,-0.0003286424760010612,-2.3561753600000004,-6.321083000286449e-06,1.5706950799999992,0.7857153299999993,0.0399999776,0.0399999584,-9.811700799999992,-0.009807251766333241,-0.010431338800014251,0.0011128299200022463,-0.009800064750013293,0.0014100952600028499
0.3725,1.8679978459565027e-05,-0.7846739764999997,-0.0003377583555011006,-2.3561786300000005,-8.78169200029708e-06,1.570688239999999,0.7857083024999992,0.039999978049999996,0.039999958700000005,-9.811621899999992,-0.009886800497779845,-0.01055374840001478,0.0011321265350023298,-0.009779218537730418,0.0014345762050029557
0.375,1.5077277799549462e-05,-0.7846715449999997,-0.00034687423500113997,-2.3561819,-1.1242301000307712e-05,1.5706813999999991,0.7857012749999992,0.0399999785,0.039999959,-9.81154299999999,-0.009966349229226448,-0.010676158000015309,0.0011514231500024132,-0.009758372325447543,0.0014590571500030616
0.3775,1.1474577139533896e-05,-0.7846691134999997,-0.00035599011450117936,-2.3561851700000003,-1.3702910000318347e-05,1.5706745599999992,0.7856942474999992,0.03999997895,0.0399999593,-9.81146409999999,-0.010045897960673051,-0.010798567600015838,0.0011707197650024964,-0.009737526113164668,0.0014835380950031672
0.38,7.871876479518327e-06,-0.7846666819999997,-0.00036510599400121875,-2.3561884400000004,-1.6163519000328978e-05,1.570667719999999,0.7856872199999991,0.039999979399999996,0.0399999596,-9.81138519999999,-0.010125446692119656,-0.010920977200016366,0.0011900163800025799,-0.009716679900881793,0.001508019040003273
0.3825,4.269175819502758e-06,-0.7846642504999997,-0.00037422187350125814,-2.3561917100000005,-1.862412800033961e-05,1.570660879999999,0.7856801924999991,0.03999997985,0.0399999599,-9.81130629999999,-0.01020499542356626,-0.011043386800016895,0.0012093129950026633,-0.009695833688598918,0.0015324999850033789
0.385,3.9304003944706056e-07,-0.7846619959999998,-0.00038402476500139807,-2.3561949500000003,-2.127016820037738e-05,1.570653589999999,0.7856726449999989,0.0399999797,0.0399999594,-9.81123159999999,-0.01027993606404462,-0.011169462000017625,0.001229417960002826,-0.00967175839468477,0.0015580693900035982
0.3875,-3.619813300542906e-06,-0.7846598299999997,-0.00039417116250137273,-2.3561981750000003,-2.400892400037053e-05,1.570646074999999,0.7856648374999989,0.03999997925,0.0399999585,-9.81115899999999,-0.010352572659040302,-0.011297370000017305,0.0012499271000027746,-0.009646068559955999,0.001584183025003533
0.39,-7.632666640532873e-06,-0.7846576639999997,-0.00040431756000134733,-2.3562014000000007,-2.6747679800363686e-05,1.570638559999999,0.785657029999999,0.039999978799999995,0.0399999576,-9.81108639999999,-0.010425209254035986,-0.011425278000016985,0.0012704362400027234,-0.00962037872522723,0.0016102966600034677
0.3925,-1.164551998052284e-05,-0.7846554979999998,-0.000414463957501322,-2.3562046250000006,-2.948643560035684e-05,1.5706310449999992,0.785649222499999,0.03999997835,0.0399999567,-9.81101379999999,-0.01049784584903167,-0.011553186000016665,0.001290945380002672,-0.009594688890498458,0.0016364102950034024
0.395,-1.5658373320512807e-05,-0.7846533319999998,-0.0004246103550012966,-2.3562078500000005,-3.2225191400349994e-05,1.570623529999999,0.7856414149999991,0.0399999779,0.0399999558,-9.810941199999991,-0.010570482444027352,-0.011681094000016346,0.001311454520002621,-0.009568999055769687,0.001662523930003337
0.3975,-1.9671226660502774e-05,-0.7846511659999997,-0.00043475675250127127,-2.3562110750000005,-3.496394720034314e-05,1.570616014999999,0.7856336074999991,0.03999997745,0.039999954899999995,-9.81086859999999,-0.010643119039023036,-0.011809002000016026,0.0013319636600025696,-0.009543309221040916,0.0016886375650032718
0.4,-2.3684080000546022e-05,-0.7846489999999998,-0.0004449031500013797,-2.3562143000000004,-3.770270300037239e-05,1.570608499999999,0.7856257999999989,0.039999977,0.039999954,-9.810795999999991,-0.010715755634018435,-0.011936910000016352,0.0013524728000026485,-0.009517619386311528,0.0017147512000033757
0.4025,-2.8130846500565238e-05,-0.7846470889999998,-0.0004561394175014283,-2.3562175100000005,-4.073542175038549e-05,1.570600189999999,0.7856171449999989,0.03999997805,0.039999954899999995,-9.810730449999992,-0.01078608231619891,-0.012070078650016927,0.0013740425750027418,-0.009486888954411965,0.0017422415500034944
0.405,-3.257761300058445e-05,-0.7846451779999998,-0.00046737568500147684,-2.3562207200000005,-4.37681405003986e-05,1.570591879999999,0.7856084899999989,0.0399999791,0.0399999558,-9.810664899999992,-0.010856408998379382,-0.012203247300017503,0.001395612350002835,-0.0094561585225124,0.0017697319000036132
0.40750000000000003,-3.702437950060366e-05,-0.7846432669999998,-0.0004786119525015254,-2.3562239300000005,-4.680085925041171e-05,1.5705835699999988,0.7855998349999989,0.03999998015,0.0399999567,-9.810599349999992,-0.010926735680559857,-0.012336415950018078,0.0014171821250029283,-0.009425428090612838,0.001797222250003732
0.41000000000000003,-4.147114600062288e-05,-0.7846413559999997,-0.0004898482200015739,-2.3562271400000006,-4.983357800042481e-05,1.570575259999999,0.7855911799999988,0.0399999812,0.0399999576,-9.810533799999991,-0.010997062362740331,-0.012469584600018653,0.0014387519000030214,-0.009394697658713275,0.0018247126000038507
0.41250000000000003,-4.591791250064209e-05,-0.7846394449999997,-0.0005010844875016225,-2.3562303500000006,-5.286629675043791e-05,1.5705669499999988,0.7855825249999987,0.03999998225,0.0399999585,-9.81046824999999,-0.011067389044920804,-0.012602753250019229,0.0014603216750031147,-0.009363967226813713,0.0018522029500039694
0.41500000000000004,-5.03646790006613e-05,-0.7846375339999997,-0.000512320755001671,-2.3562335600000006,-5.5899015500451015e-05,1.5705586399999987,0.7855738699999987,0.0399999833,0.0399999594,-9.81040269999999,-0.011137715727101278,-0.012735921900019806,0.0014818914500032078,-0.00933323679491415,0.0018796933000040882
0.4175,-5.496396780074486e-05,-0.7846357019999998,-0.000523939990001881,-2.3562367750000006,-5.9035224100507756e-05,1.5705500349999986,0.7855649199999986,0.0399999838,0.0399999599,-9.81033687499999,-0.011206475319350775,-0.012870274500020765,0.001503875680003465,-0.009300957852969107,0.0019076369800043816
0.42,-5.986830120074932e-05,-0.7846340279999997,-0.0005363251600018923,-2.3562400000000006,-6.23784124005108e-05,1.5705408399999985,0.7855553799999986,0.0399999832,0.0399999596,-9.810270499999989,-0.011272100731740465,-0.01300699500002089,0.0015266888200034857,-0.009265581890935215,0.001936487320004408
0.4225,-6.477263460075379e-05,-0.7846323539999998,-0.0005487103300019036,-2.3562432250000005,-6.572160070051384e-05,1.5705316449999986,0.7855458399999985,0.0399999826,0.0399999593,-9.81020412499999,-0.011337726144130155,-0.013143715500021014,0.0015495019600035064,-0.009230205928901322,0.001965337660004434
0.425,-6.967696800075826e-05,-0.7846306799999997,-0.0005610955000019149,-2.3562464500000004,-6.906478900051689e-05,1.5705224499999986,0.7855362999999985,0.039999981999999996,0.039999959,-9.81013774999999,-0.011403351556519845,-0.013280436000021139,0.0015723151000035273,-0.00919482996686743,0.0019941880000044604
0.4275,-7.458130140076273e-05,-0.7846290059999997,-0.0005734806700019261,-2.3562496750000004,-7.240797730051993e-05,1.5705132549999987,0.7855267599999985,0.0399999814,0.039999958700000005,-9.810071374999989,-0.011468976968909535,-0.013417156500021264,0.001595128240003548,-0.009159454004833537,0.002023038340004487
0.43,-7.94856348007672e-05,-0.7846273319999997,-0.0005858658400019374,-2.3562529000000003,-7.575116560052297e-05,1.5705040599999986,0.7855172199999986,0.0399999808,0.0399999584,-9.81000499999999,-0.011534602381299225,-0.013553877000021388,0.0016179413800035687,-0.009124078042799645,0.002051888680004513
0.4325,-8.438996820077165e-05,-0.7846256579999997,-0.0005982510100019488,-2.3562561250000003,-7.909435390052602e-05,1.5704948649999986,0.7855076799999986,0.0399999802,0.0399999581,-9.80993862499999,-0.011600227793688914,-0.013690597500021513,0.0016407545200035896,-0.009088702080765752,0.0020807390200045395
0.435,-8.961509140085226e-05,-0.7846241359999997,-0.0006114413650021511,-2.3562593500000006,-8.265441500058054e-05,1.5704850799999985,0.7854975159999984,0.0399999808,0.039999958200000005,-9.809882749999991,-0.011656332481660574,-0.013831284100022578,0.0016642951700037828,-0.00905066868289681,0.0021108650400048687
0.4375,-9.500060950085717e-05,-0.7846226899999997,-0.0006250343125021635,-2.3562625750000006,-8.632291250058389e-05,1.5704749999999985,0.7854870399999984,0.039999981999999996,0.0399999585,-9.809832124999991,-0.011707676807426596,-0.013973953750022708,0.0016881995750038046,-0.009011306567111285,0.0021416289000048966
0.44,-0.00010038612760086207,-0.7846212439999998,-0.0006386272600021759,-2.3562658000000005,-8.999141000058723e-05,1.5704649199999985,0.7854765639999983,0.0399999832,0.0399999588,-9.80978149999999,-0.011759021133192618,-0.014116623400022838,0.0017121039800038263,-0.008971944451325759,0.0021723927600049244
0.4425,-0.00010577164570086698,-0.7846197979999998,-0.0006522202075021883,-2.3562690250000005,-9.365990750059056e-05,1.5704548399999985,0.7854660879999983,0.0399999844,0.0399999591,-9.80973087499999,-0.01181036545895864,-0.014259293050022968,0.001736008385003848,-0.008932582335540232,0.0022031566200049523
0.445,-0.00011115716380087188,-0.7846183519999997,-0.0006658131550022007,-2.3562722500000004,-9.732840500059391e-05,1.5704447599999984,0.7854556119999982,0.0399999856,0.0399999594,-9.80968024999999,-0.011861709784724662,-0.014401962700023096,0.00175991279000387,-0.008893220219754708,0.0022339204800049806
0.4475,-0.00011654268190087678,-0.7846169059999998,-0.000679406102502213,-2.3562754750000003,-0.00010099690250059724,1.5704346799999984,0.7854451359999982,0.0399999868,0.039999959700000004,-9.80962962499999,-0.011913054110490685,-0.014544632350023226,0.0017838171950038918,-0.008853858103969181,0.0022646843400050084
0.45,-0.00012192820000096428,-0.7846154599999998,-0.0006929990500024327,-2.3562787000000003,-0.00010466540000065662,1.5704245999999982,0.7854346599999981,0.039999988,0.03999996,-9.809578999999989,-0.011964398436258225,-0.014687302000025156,0.0018077216000041097,-0.008814495988182935,0.0022954482000051898
0.4525,-0.00012781822900096964,-0.7846142209999998,-0.0007078581565024462,-2.3562819550000005,-0.00010867619600066027,1.570413589999998,0.785423205999998,0.0399999874,0.03999996,-9.80951899999999,-0.0120250148233126,-0.014840971600025296,0.0018328248650041326,-0.0087707298807727,0.0023271499500052187
0.455,-0.000133708258000975,-0.7846129819999998,-0.0007227172630024598,-2.3562852100000002,-0.00011268699200066393,1.570402579999998,0.785411751999998,0.0399999868,0.03999996,-9.80945899999999,-0.012085631210366975,-0.014994641200025437,0.0018579281300041555,-0.008726963773362465,0.0023588517000052477
0.4575,-0.00013959828700098036,-0.7846117429999998,-0.0007375763695024732,-2.3562884650000004,-0.00011669778800066758,1.5703915699999982,0.785400297999998,0.039999986200000004,0.03999996,-9.80939899999999,-0.01214624759742135,-0.015148310800025577,0.0018830313950041783,-0.008683197665952231,0.0023905534500052767
0.46,-0.00014548831600098573,-0.7846105039999998,-0.0007524354760024868,-2.35629172,-0.00012070858400067124,1.570380559999998,0.7853888439999981,0.0399999856,0.03999996,-9.80933899999999,-0.012206863984475725,-0.015301980400025717,0.0019081346600042012,-0.008639431558541995,0.002422255200005305
0.4625,-0.00015137834500099107,-0.7846092649999997,-0.0007672945825025003,-2.3562949750000004,-0.00012471938000067488,1.5703695499999981,0.7853773899999981,0.039999985,0.03999996,-9.80927899999999,-0.0122674803715301,-0.015455650000025856,0.0019332379250042238,-0.008595665451131761,0.002453956950005334
0.465,-0.00015726837400099645,-0.7846080259999998,-0.0007821536890025138,-2.3562982300000006,-0.00012873017600067855,1.5703585399999982,0.785365935999998,0.0399999844,0.03999996,-9.80921899999999,-0.012328096758584475,-0.015609319600025996,0.001958341190004247,-0.008551899343721527,0.002485658700005363
0.4675,-0.00016333434050109157,-0.7846068449999998,-0.0007974541920027525,-2.3563014950000003,-0.00013285986450074287,1.570347209999998,0.7853541449999978,0.0399999843,0.03999996,-9.809161199999991,-0.01238234331832039,-0.01576540255002737,0.0019838184150044605,-0.008506775833658099,0.002518083535005761
0.47000000000000003,-0.00016975218200109742,-0.7846057799999998,-0.0008136374880027673,-2.3563047800000003,-0.00013722733800074682,1.570335239999998,0.7853416799999978,0.039999985200000004,0.03999996,-9.80910779999999,-0.012423850223429117,-0.015926312200027513,0.002010043560004484,-0.00845893751829036,0.0025519545400057918
0.47250000000000003,-0.00017617002350110326,-0.7846047149999998,-0.0008298207840027821,-2.3563080650000003,-0.0001415948115007508,1.5703232699999978,0.7853292149999979,0.0399999861,0.03999996,-9.809054399999992,-0.012465357128537845,-0.01608722185002766,0.0020362687050045083,-0.008411099202922621,0.0025858255450058225
0.47500000000000003,-0.0001825878650011091,-0.7846036499999998,-0.0008460040800027967,-2.3563113500000004,-0.0001459622850007548,1.570311299999998,0.7853167499999978,0.039999987,0.03999996,-9.809000999999991,-0.012506864033646575,-0.016248131500027806,0.002062493850004532,-0.008363260887554883,0.0026196965500058533
0.47750000000000004,-0.00018900570650111495,-0.7846025849999998,-0.0008621873760028115,-2.3563146350000004,-0.00015032975850075877,1.5702993299999979,0.7853042849999978,0.0399999879,0.03999996,-9.80894759999999,-0.012548370938755302,-0.016409041150027955,0.002088718995004556,-0.008315422572187144,0.002653567555005884
0.48,-0.00019542354800112065,-0.7846015199999998,-0.000878370672002826,-2.3563179200000004,-0.00015469723200076265,1.5702873599999978,0.7852918199999978,0.0399999888,0.03999996,-9.80889419999999,-0.012589877843864028,-0.016569950800028096,0.0021149441400045792,-0.008267584256819407,0.0026874385600059144
0.4825,-0.0002018413895011265,-0.7846004549999999,-0.0008945539680028406,-2.3563212050000004,-0.00015906470550076663,1.570275389999998,0.7852793549999978,0.0399999897,0.03999996,-9.808840799999992,-0.012631384748972756,-0.016730860450028244,0.0021411692850046033,-0.008219745941451669,0.002721309565005945
0.485,-0.00020862639700121365,-0.7845995259999998,-0.0009116583400030592,-2.3563245700000004,-0.00016368103900082567,1.5702627299999976,0.7852661839999976,0.0399999905,0.039999961300000005,-9.80878659999999,-0.012675164267428563,-0.016898617500029814,0.002168107450004754,-0.008169195521613791,0.0027555471500059947
0.4875,-0.00021559498750119623,-0.7845986649999999,-0.0009292232500030152,-2.3563279750000006,-0.00016842180250081383,1.5702497249999978,0.7852526599999976,0.03999999125,0.03999996325,-9.80873199999999,-0.01272008009255701,-0.017069798250029383,0.0021954021250046854,-0.008117289049541915,0.0027899680250059087
0.49,-0.00022256357800117882,-0.7845978039999999,-0.0009467881600029713,-2.3563313800000008,-0.00017316256600080198,1.5702367199999978,0.7852391359999977,0.039999992,0.0399999652,-9.80867739999999,-0.012764995917685458,-0.017240979000028956,0.0022226968000046174,-0.00806538257747004,0.0028243889000058226
0.4925,-0.00022953216850116139,-0.7845969429999999,-0.0009643530700029274,-2.3563347850000005,-0.00017790332950079013,1.5702237149999978,0.7852256119999977,0.039999992750000005,0.03999996715,-9.808622799999991,-0.012809911742813906,-0.01741215975002853,0.002249991475004549,-0.008013476105398164,0.0028588097750057366
0.495,-0.00023650075900114395,-0.7845960819999999,-0.0009819179800028834,-2.3563381900000007,-0.00018264409300077826,1.5702107099999978,0.7852120879999978,0.039999993500000004,0.039999969100000005,-9.808568199999991,-0.012854827567942354,-0.0175833405000281,0.0022772861500044805,-0.007961569633326289,0.0028932306500056505
0.4975,-0.00024346934950112654,-0.7845952209999999,-0.0009994828900028395,-2.356341595000001,-0.0001873848565007664,1.5701977049999978,0.7851985639999978,0.039999994250000004,0.03999997105,-9.80851359999999,-0.012899743393070802,-0.017754521250027674,0.0023045808250044125,-0.007909663161254413,0.0029276515250055645
0.5,-0.0002504379400012004,-0.7845943599999999,-0.0010170478000030246,-2.3563450000000006,-0.0001921256200008163,1.5701846999999978,0.7851850399999977,0.039999995,0.039999973,-9.808458999999994,-0.01294465921819692,-0.01792570200002828,0.0023318755000045197,-0.007857756689181983,0.002962072400005776
0.5025000000000001,-0.00025798008400123315,-0.7845936609999999,-0.001036051195003107,-2.3563485250000005,-0.00019725427450083857,1.5701706299999978,0.7851704044999976,0.039999994250000004,0.039999973,-9.808420449999993,-0.012974938843404237,-0.018103377750029053,0.002360273485004643,-0.007802358036851707,0.0029983620500059335
0.505,-0.00026552222800126557,-0.784592962,-0.0010550545900031888,-2.356352050000001,-0.00020238292900086062,1.5701565599999976,0.7851557689999975,0.039999993500000004,0.039999973,-9.808381899999993,-0.013005218468611551,-0.018281053500029815,0.0023886714700047653,-0.007746959384521434,0.0030346517000060897
0.5075000000000001,-0.00027306437200129836,-0.7845922629999998,-0.0010740579850032712,-2.3563555750000007,-0.00020751158350088288,1.5701424899999976,0.7851411334999975,0.039999992750000005,0.039999973,-9.808343349999992,-0.013035498093818867,-0.018458729250030587,0.002417069455004889,-0.0076915607321911585,0.0030709413500062473
0.51,-0.0002806065160013308,-0.7845915639999999,-0.001093061380003353,-2.3563591000000006,-0.00021264023800090495,1.5701284199999976,0.7851264979999975,0.039999992,0.039999973,-9.808304799999993,-0.013065777719026183,-0.01863640500003135,0.0024454674400050105,-0.007636162079860885,0.003107231000006403
0.5125,-0.0002881486600013632,-0.7845908649999999,-0.0011120647750034348,-2.3563626250000005,-0.000217768892500927,1.5701143499999974,0.7851118624999973,0.03999999125,0.039999973,-9.808266249999992,-0.013096057344233499,-0.018814080750032113,0.0024738654250051327,-0.007580763427530612,0.0031435206500065593
0.515,-0.00029569080400139593,-0.7845901659999999,-0.0011310681700035172,-2.3563661500000004,-0.00022289754700094926,1.5701002799999975,0.7850972269999973,0.0399999905,0.039999973,-9.808227699999993,-0.013126336969440815,-0.018991756500032885,0.002502263410005256,-0.007525364775200336,0.003179810300006717
0.5175,-0.000303431650001532,-0.7845895249999999,-0.0011505698000038587,-2.3563697400000008,-0.00022816054250104133,1.570085834999997,0.785082206499997,0.03999999025,0.03999997235,-9.808189299999993,-0.013153306022290236,-0.01917400065003603,0.0025310309500055548,-0.0074688480468356,0.0032168440800072516
0.52,-0.0003115699000015396,-0.7845889999999999,-0.0011710679000038779,-2.356373460000001,-0.0002336922200010465,1.570070639999997,0.785066415999997,0.039999991,0.0399999704,-9.808151199999992,-0.01317365393042947,-0.019365381600036206,0.0025605376000055824,-0.007410095166403825,0.003255366120007288
0.5225,-0.0003197081500015468,-0.7845884749999998,-0.001191566000003896,-2.356377180000001,-0.00023922389750105142,1.570055444999997,0.785050625499997,0.03999999175,0.03999996845,-9.808113099999993,-0.013194001838568703,-0.019556762550036376,0.0025900442500056083,-0.007351342285972053,0.003293888160007322
0.525,-0.0003278464000015544,-0.7845879499999999,-0.0012120641000039152,-2.356380900000001,-0.00024475557500105657,1.570040249999997,0.7850348349999969,0.039999992500000005,0.0399999665,-9.808074999999992,-0.013214349746707937,-0.019748143500036557,0.002619550900005636,-0.007292589405540278,0.003332410200007358
0.5275,-0.00033598465000156164,-0.7845874249999999,-0.0012325622000039333,-2.356384620000001,-0.0002502872525010615,1.570025054999997,0.7850190444999969,0.039999993250000004,0.03999996455,-9.808036899999992,-0.01323469765484717,-0.019939524450036723,0.0026490575500056623,-0.007233836525108506,0.003370932240007392
0.53,-0.00034412290000156924,-0.7845868999999999,-0.0012530603000039525,-2.356388340000001,-0.00025581893000106666,1.570009859999997,0.7850032539999969,0.039999994000000004,0.0399999626,-9.807998799999993,-0.013255045562986404,-0.020130905400036904,0.0026785642000056896,-0.007175083644676731,0.003409454280007428
0.5325,-0.00035226115000157646,-0.784586375,-0.0012735584000039706,-2.356392060000001,-0.00026135060750107157,1.569994664999997,0.7849874634999969,0.039999994750000004,0.03999996065,-9.807960699999992,-0.013275393471125637,-0.020322286350037074,0.002708070850005716,-0.007116330764244959,0.0034479763200074625
0.535,-0.0003608115830017044,-0.7845859599999999,-0.0012950899700042914,-2.356395930000001,-0.0002671612400011582,1.569978709999997,0.7849708799999967,0.0399999955,0.039999961,-9.807927999999993,-0.013296337984506355,-0.020520279200039182,0.002738275210005947,-0.007055595330881905,0.00348694856000763
0.5375,-0.0003695681075017122,-0.7845856,-0.001317138275004311,-2.356399875000001,-0.00027311135000116345,1.5699623749999967,0.7849538999999967,0.03999999625,0.0399999625,-9.807897999999994,-0.013317580800507553,-0.020721578000039362,0.002768828425005974,-0.00699386862105408,0.0035261459000076644
0.54,-0.00037832463200172036,-0.78458524,-0.0013391865800043317,-2.356403820000001,-0.000279061460001169,1.5699460399999967,0.7849369199999967,0.039999997,0.039999964,-9.807867999999994,-0.013338823616508753,-0.02092287680003955,0.0027993816400060027,-0.006932141911226253,0.003565343240007701
0.5425,-0.00038708115650172814,-0.7845848799999999,-0.0013612348850043513,-2.356407765000001,-0.0002850115700011743,1.5699297049999967,0.7849199399999967,0.03999999775,0.039999965500000005,-9.807837999999993,-0.013360066432509954,-0.021124175600039728,0.00282993485500603,-0.006870415201398428,0.0036045405800077357
0.545,-0.0003958376810017363,-0.78458452,-0.0013832831900043717,-2.356411710000001,-0.00029096168000117983,1.5699133699999968,0.7849029599999966,0.0399999985,0.039999967000000004,-9.807807999999994,-0.013381309248511152,-0.021325474400039915,0.0028604880700060582,-0.0068086884915706004,0.0036437379200077724
0.5475,-0.0004045942055017441,-0.78458416,-0.0014053314950043913,-2.356415655000001,-0.0002969117900011851,1.5698970349999966,0.7848859799999967,0.03999999925,0.039999968500000004,-9.807777999999994,-0.013402552064512352,-0.021526773200040095,0.0028910412850060856,-0.006746961781742776,0.0036829352600078074
0.55,-0.0004133507300018804,-0.7845838,-0.0014273798000047331,-2.356419600000001,-0.00030286190000127736,1.5698806999999964,0.7848689999999964,0.04,0.03999997,-9.807747999999995,-0.013423794880511099,-0.021728072000042627,0.0029215945000063154,-0.00668523507191431,0.0037221326000081052
0.5525,-0.0004227475205018887,-0.784583575,-0.0014510332250047542,-2.356423560000001,-0.000309245139501283,1.5698631949999964,0.7848507899999964,0.04,0.039999970450000005,-9.807717549999994,-0.013432786427439997,-0.021941080700042814,0.0029531534950063432,-0.006620318279588577,0.003762636485008141
0.555,-0.0004321443110018975,-0.78458335,-0.0014746866500047761,-2.356427520000001,-0.00031562837900128894,1.5698456899999964,0.7848325799999963,0.04,0.0399999709,-9.807687099999994,-0.013441777974368895,-0.022154089400043014,0.0029847124900063728,-0.006555401487262842,0.003803140370008179
0.5575,-0.00044154110150190583,-0.7845831249999999,-0.0014983400750047972,-2.356431480000001,-0.00032201161850129465,1.5698281849999964,0.7848143699999963,0.04,0.03999997135,-9.807656649999993,-0.013450769521297793,-0.0223670981000432,0.0030162714850064005,-0.006490484694937109,0.003843644255008215
0.56,-0.0004509378920019146,-0.7845829,-0.0015219935000048194,-2.3564354400000007,-0.00032839485800130057,1.5698106799999965,0.7847961599999963,0.04,0.0399999718,-9.807626199999994,-0.013459761068226692,-0.0225801068000434,0.00304783048000643,-0.006425567902611373,0.0038841481400082524
0.5625,-0.00046033468250192294,-0.7845826749999999,-0.0015456469250048404,-2.356439400000001,-0.0003347780975013063,1.5697931749999963,0.7847779499999963,0.04,0.03999997225,-9.807595749999994,-0.01346875261515559,-0.02279311550004359,0.0030793894750064583,-0.00636065111028564,0.003924652025008289
0.5650000000000001,-0.0004697314730019317,-0.7845824499999999,-0.0015693003500048624,-2.356443360000001,-0.0003411613370013122,1.5697756699999963,0.7847597399999963,0.04,0.039999972700000004,-9.807565299999993,-0.013477744162084488,-0.023006124200043786,0.0031109484700064874,-0.006295734317959905,0.003965155910008326
0.5675,-0.00047934890700207673,-0.78458228,-0.001593506810005226,-2.3564473500000007,-0.00034769370000141024,1.569757769999996,0.784741102999996,0.04,0.03999997285,-9.80753004999999,-0.01348103573545643,-0.02322338220004661,0.00314285370000673,-0.006229673069887643,0.004006306575008762
0.5700000000000001,-0.0004894076280020861,-0.78458222,-0.0016188193400052495,-2.356451400000001,-0.0003545243100014166,1.5697390799999962,0.7847216119999959,0.04,0.0399999724,-9.80748519999999,-0.013472927361725038,-0.02344913880004682,0.0031754514000067605,-0.006161322910324445,0.0040487508000088025
0.5725,-0.0004994663490020951,-0.78458216,-0.001644131870005272,-2.356455450000001,-0.0003613549200014227,1.569720389999996,0.7847021209999959,0.04,0.039999971950000004,-9.80744034999999,-0.013464818987993645,-0.02367489540004702,0.0032080491000067895,-0.006092972750761249,0.00409119502500884
0.5750000000000001,-0.0005095250700021044,-0.7845821,-0.0016694444000052956,-2.3564595000000006,-0.00036818553000142907,1.569701699999996,0.7846826299999959,0.04,0.0399999715,-9.80739549999999,-0.013456710614262254,-0.02390065200004723,0.0032406468000068197,-0.00602462259119805,0.00413363925000888
0.5775,-0.0005195837910021133,-0.78458204,-0.0016947569300053182,-2.356463550000001,-0.00037501614000143513,1.569683009999996,0.7846631389999958,0.04,0.03999997105,-9.80735064999999,-0.013448602240530861,-0.02412640860004743,0.0032732445000068487,-0.005956272431634855,0.004176083475008917
0.58,-0.0005296425120021223,-0.78458198,-0.0017200694600053405,-2.3564676000000007,-0.0003818467500014412,1.569664319999996,0.7846436479999959,0.04,0.039999970600000004,-9.80730579999999,-0.013440493866799469,-0.024352165200047633,0.0033058422000068776,-0.005887922272071659,0.004218527700008955
0.5825,-0.0005397012330021317,-0.78458192,-0.0017453819900053642,-2.3564716500000005,-0.0003886773600014475,1.5696456299999961,0.7846241569999959,0.04,0.03999997015,-9.80726094999999,-0.013432385493068077,-0.024577921800047843,0.0033384399000069083,-0.00581957211250846,0.004260971925008995
0.585,-0.0005502154400022616,-0.7845819540000001,-0.0017718361100056896,-2.3564757100000007,-0.0003958160470015354,1.5696260899999959,0.7846037779999956,0.04,0.039999970700000005,-9.807210099999988,-0.013428419083356371,-0.024813589500050658,0.003371713800007077,-0.00574856284072955,0.004304098650009152
0.5875,-0.000560957390002235,-0.784582035,-0.0017988610250056227,-2.356479775000001,-0.0004031087725015173,1.569606124999996,0.7845829549999956,0.04,0.03999997175,-9.807156249999988,-0.013426523655652532,-0.025054212750050063,0.0034053258000069932,-0.005676224012844049,0.004347566625009044
0.59,-0.0005716993400022079,-0.784582116,-0.0018258859400055545,-2.3564838400000006,-0.0004104014980014989,1.5695861599999958,0.7845621319999957,0.04,0.0399999728,-9.80710239999999,-0.01342462822794869,-0.025294836000049455,0.0034389378000069084,-0.005603885184958552,0.004391034600008934
0.5925,-0.0005824412900021813,-0.784582197,-0.0018529108550054876,-2.3564879050000007,-0.00041769422350148086,1.569566194999996,0.7845413089999957,0.04,0.03999997385,-9.807048549999989,-0.013422732800244851,-0.02553545925004886,0.0034725498000068252,-0.005531546357073052,0.004434502575008827
0.595,-0.0005931832400021542,-0.784582278,-0.0018799357700054193,-2.356491970000001,-0.00042498694900146246,1.569546229999996,0.7845204859999958,0.04,0.0399999749,-9.806994699999988,-0.01342083737254101,-0.02577608250004825,0.0035061618000067404,-0.005459207529187554,0.004477970550008717
0.5975,-0.0006039251900021275,-0.7845823590000001,-0.0019069606850053524,-2.3564960350000006,-0.0004322796745014444,1.5695262649999961,0.7844996629999959,0.04,0.03999997595,-9.80694084999999,-0.01341894194483717,-0.026016705750047657,0.003539773800006657,-0.005386868701302053,0.0045214385250086095
0.6,-0.0006146671400022382,-0.78458244,-0.0019339856000056294,-2.3565001000000008,-0.000439572400001519,1.5695062999999958,0.7844788399999957,0.04,0.039999977,-9.80688699999999,-0.013417046517129263,-0.026257329000048284,0.003573385800006787,-0.005314529873415874,0.004564906500008967
0.6025,-0.0006261132590022878,-0.784582659,-0.001962775280005754,-2.356504255000001,-0.00044734082500155276,1.5694850299999958,0.7844566639999956,0.04,0.039999974449999996,-9.80683749999999,-0.0133943557273551,-0.026504262600049355,0.003608097600006938,-0.0052387021481838944,0.0046107654300091665
0.605,-0.000637559378002337,-0.784582878,-0.001991564960005878,-2.356508410000001,-0.00045510925000158615,1.5694637599999957,0.7844344879999955,0.04,0.0399999719,-9.80678799999999,-0.013371664937580937,-0.02675119620005042,0.0036428094000070872,-0.005162874422951918,0.004656624360009363
0.6075,-0.0006490054970023868,-0.7845830970000001,-0.0020203546400060033,-2.356512565000001,-0.00046287767500161986,1.5694424899999957,0.7844123119999954,0.04,0.03999996935,-9.80673849999999,-0.013348974147806773,-0.02699812980005149,0.0036775212000072378,-0.005087046697719939,0.004702483290009563
0.61,-0.000660451616002436,-0.7845833160000001,-0.0020491443200061268,-2.3565167200000006,-0.0004706461000016533,1.5694212199999955,0.7843901359999953,0.04,0.0399999668,-9.80668899999999,-0.01332628335803261,-0.027245063400052554,0.003712233000007387,-0.005011218972487962,0.0047483422200097596
0.6125,-0.0006718977350024856,-0.784583535,-0.002077934000006252,-2.3565208750000006,-0.000478414525001687,1.5693999499999953,0.7843679599999952,0.04,0.03999996425,-9.806639499999989,-0.013303592568258447,-0.027491997000053624,0.003746944800007538,-0.004935391247255983,0.004794201150009959
0.615,-0.0006833438540025348,-0.784583754,-0.002106723680006376,-2.3565250300000007,-0.0004861829500017204,1.5693786799999954,0.7843457839999951,0.04,0.0399999617,-9.80658999999999,-0.013280901778484285,-0.027738930600054685,0.003781656600007687,-0.004859563522024007,0.004840060080010157
0.6175,-0.0006950315685027344,-0.78458402,-0.002136118810006876,-2.356529220000001,-0.0004941147230018555,1.569356974999995,0.7843231424999947,0.04,0.039999959,-9.806541449999989,-0.013257739972317719,-0.027991008350058945,0.003816654140007991,-0.004782567406055341,0.00488622561501051
0.62,-0.0007072024740027451,-0.7845843800000001,-0.0021667248400069035,-2.356533480000001,-0.0005023731920018627,1.569334399999995,0.7842995699999947,0.04,0.039999956,-9.806494799999989,-0.013233636133367303,-0.028253374400059178,0.0038522231600080226,-0.004703234508615666,0.004933004360010551
0.6225,-0.0007193733795027565,-0.7845847400000001,-0.002197330870006932,-2.3565377400000007,-0.0005106316610018704,1.5693118249999949,0.7842759974999947,0.04,0.039999953,-9.806448149999989,-0.013209532294416886,-0.02851574045005942,0.0038877921800080555,-0.004623901611175987,0.004979783105010595
0.625,-0.0007315442850027674,-0.7845851,-0.002227936900006959,-2.356542000000001,-0.0005188901300018778,1.5692892499999949,0.7842524249999946,0.04,0.03999995,-9.80640149999999,-0.01318542845546647,-0.028778106500059655,0.0039233612000080876,-0.004544568713736312,0.005026561850010636
0.6275000000000001,-0.0007437151905027786,-0.7845854600000001,-0.0022585429300069878,-2.356546260000001,-0.0005271485990018855,1.5692666749999948,0.7842288524999946,0.04,0.039999947,-9.80635484999999,-0.013161324616516052,-0.0290404725500599,0.0039589302200081205,-0.004465235816296633,0.0050733405950106805
0.63,-0.0007558860960027895,-0.7845858200000001,-0.002289148960007015,-2.3565505200000008,-0.0005354070680018928,1.5692440999999948,0.7842052799999946,0.04,0.039999943999999996,-9.80630819999999,-0.013137220777565637,-0.029302838600060135,0.003994499240008152,-0.004385902918856957,0.005120119340010721
0.6325000000000001,-0.0007680570015028009,-0.78458618,-0.0023197549900070436,-2.356554780000001,-0.0005436655370019004,1.569221524999995,0.7841817074999945,0.04,0.039999941,-9.80626154999999,-0.013113116938615218,-0.029565204650060378,0.0040300682600081855,-0.0043065700214172786,0.005166898085010765
0.635,-0.0007807246230029837,-0.7845866300000001,-0.0023516056000075017,-2.356559180000001,-0.0005522597340020241,1.5691979899999946,0.7841571849999942,0.039999999,0.039999939,-9.806217099999989,-0.01308064060284836,-0.029835553800063377,0.0040663004400084465,-0.0042250542668434065,0.005214415770011063
0.6375000000000001,-0.0007936406025029958,-0.784587125,-0.002384078500007532,-2.356563650000001,-0.0005610217950020323,1.5691739749999944,0.7841321874999941,0.0399999975,0.0399999375,-9.80617374999999,-0.013043978018677621,-0.030109894500063634,0.004102864200008481,-0.0041424470837035645,0.005262302925011108
0.64,-0.0008065565820030073,-0.78458762,-0.002416551400007561,-2.3565681200000013,-0.0005697838560020401,1.5691499599999945,0.7841071899999942,0.039999996,0.039999936,-9.80613039999999,-0.013007315434506884,-0.030384235200063878,0.004139427960008513,-0.004059839900563726,0.00531019008001115
0.6425,-0.0008194725615030188,-0.7845881150000001,-0.0024490243000075897,-2.356572590000001,-0.0005785459170020478,1.5691259449999944,0.7840821924999941,0.0399999945,0.0399999345,-9.80608704999999,-0.012970652850336146,-0.03065857590006412,0.004175991720008546,-0.003977232717423888,0.005358077235011192
0.645,-0.0008323885410030308,-0.7845886100000001,-0.00248149720000762,-2.356577060000001,-0.000587307978002056,1.5691019299999944,0.7840571949999942,0.039999993,0.039999933,-9.80604369999999,-0.012933990266165407,-0.030932916600064374,0.00421255548000858,-0.003894625534284046,0.005405964390011237
0.6475,-0.0008453045205030423,-0.7845891050000001,-0.002513970100007649,-2.356581530000001,-0.0005960700390020638,1.5690779149999943,0.7840321974999941,0.0399999915,0.0399999315,-9.806000349999989,-0.01289732768199467,-0.03120725730006462,0.004249119240008613,-0.0038120183511442074,0.005453851545011279
0.65,-0.0008582205000032352,-0.7845896000000001,-0.002546443000008132,-2.3565860000000014,-0.0006048321000021943,1.569053899999994,0.7840071999999938,0.03999999,0.03999993,-9.805956999999992,-0.012860665097821545,-0.03148159800006792,0.004285683000008851,-0.003729411168003762,0.005501738700011651
0.6525,-0.0008719014255032473,-0.7845902300000002,-0.0025808325700081625,-2.3565908900000014,-0.0006141112200022025,1.569028504999994,0.7839807249999937,0.0399999897,0.039999928500000004,-9.805930299999993,-0.012813914054993538,-0.03176880330006817,0.004323109950008884,-0.0036442536162009866,0.005551008300011695
0.655,-0.0008855823510032601,-0.7845908600000001,-0.0026152221400081947,-2.356595780000001,-0.0006233903400022112,1.569003109999994,0.7839542499999937,0.0399999894,0.039999927000000005,-9.805903599999994,-0.012767163012165529,-0.032056008600068436,0.004360536900008919,-0.003559096064398207,0.00560027790001174
0.6575,-0.0008992632765032723,-0.7845914900000002,-0.0026496117100082255,-2.356600670000001,-0.0006326694600022194,1.568977714999994,0.7839277749999937,0.0399999891,0.0399999255,-9.805876899999992,-0.012720411969337523,-0.032343213900068696,0.0043979638500089525,-0.0034739385125954316,0.005649547500011785
0.66,-0.000912944202003285,-0.7845921200000001,-0.0026840012800082576,-2.356605560000001,-0.000641948580002228,1.568952319999994,0.7839012999999937,0.0399999888,0.039999924,-9.805850199999993,-0.012673660926509515,-0.03263041920006896,0.004435390800008987,-0.003388780960792652,0.0056988171000118305
0.6625,-0.0009266251275032972,-0.7845927500000002,-0.002718390850008288,-2.356610450000001,-0.0006512277000022363,1.568926924999994,0.7838748249999936,0.0399999885,0.0399999225,-9.805823499999994,-0.012626909883681509,-0.032917624500069215,0.004472817750009021,-0.0033036234089898766,0.005748086700011874
0.665,-0.00094030605300331,-0.7845933800000001,-0.00275278042000832,-2.356615340000001,-0.000660506820002245,1.568901529999994,0.7838483499999936,0.0399999882,0.039999921,-9.805796799999992,-0.012580158840853499,-0.03320482980006948,0.004510244700009055,-0.003218465857187097,0.005797356300011921
0.6675,-0.0009542484565035126,-0.7845940485000001,-0.002787825110008828,-2.356620305000001,-0.000669962625002382,1.5688756499999936,0.7838213719999932,0.0399999876,0.03999991965,-9.80577985,-0.012529812008128414,-0.03349772270007388,0.00454797662500931,-0.003132746682946827,0.005847066715012285
0.67,-0.0009687138160035261,-0.7845947940000002,-0.002824180040008862,-2.356625420000001,-0.0006797718000023911,1.5688487999999936,0.7837933879999932,0.0399999864,0.0399999186,-9.8057824,-0.012472273595617015,-0.033801990800074164,0.004586318500009346,-0.0030459042638327914,0.005897658760012333
0.6725,-0.0009831791755035388,-0.7845955395000002,-0.002860534970008894,-2.356630535000001,-0.0006895809750023997,1.5688219499999934,0.7837654039999932,0.0399999852,0.03999991755,-9.805784950000001,-0.012414735183105619,-0.03410625890007444,0.00462466037500938,-0.002959061844718759,0.0059482508050123775
0.675,-0.0009976445350035523,-0.7845962850000002,-0.002896889900008928,-2.356635650000001,-0.000699390150002409,1.5687950999999933,0.7837374199999931,0.039999983999999995,0.039999916499999996,-9.805787500000001,-0.01235719677059422,-0.03441052700007472,0.004663002250009416,-0.0028722194256047234,0.005998842850012424
0.6775,-0.0010121098945035652,-0.7845970305000002,-0.00293324483000896,-2.356640765000001,-0.0007091993250024176,1.5687682499999933,0.7837094359999931,0.0399999828,0.03999991545,-9.80579005,-0.012299658358082824,-0.034714795100075,0.00470134412500945,-0.002785377006490691,0.006049434895012469
0.68,-0.0010265752540035786,-0.7845977760000001,-0.0029695997600089944,-2.356645880000001,-0.0007190085000024268,1.5687413999999933,0.7836814519999931,0.0399999816,0.039999914399999996,-9.805792600000002,-0.012242119945571426,-0.03501906320007528,0.004739686000009486,-0.002698534587376655,0.006100026940012516
0.6825,-0.0010410406135035915,-0.7845985215000002,-0.0030059546900090264,-2.3566509950000016,-0.0007288176750024355,1.5687145499999933,0.7836534679999931,0.039999980399999996,0.03999991335,-9.805795150000002,-0.012184581533060028,-0.03532333130007555,0.00477802787500952,-0.002611692168262623,0.006150618985012561
0.685,-0.0010560417400038054,-0.7845993600000002,-0.003043651820009562,-2.3566561600000013,-0.0007389889200025801,1.568686689999993,0.7836244529999927,0.03999998,0.0399999127,-9.805774999999993,-0.012115474510919206,-0.03563771620007961,0.004816916410009761,-0.00252311944493655,0.006202081270012934
0.6875,-0.001071310750003819,-0.7846002450000003,-0.0030820200500095963,-2.3566613500000013,-0.0007493412000025892,1.5686583249999928,0.7835949224999926,0.03999998,0.03999991225,-9.805743499999993,-0.012040583183970143,-0.0359571595000799,0.004856078275009795,-0.0024336815695054307,0.00625397867501298
0.6900000000000001,-0.0010865797600038331,-0.7846011300000002,-0.003120388280009632,-2.3566665400000013,-0.0007596934800025988,1.5686299599999929,0.7835653919999926,0.03999998,0.039999911799999996,-9.805711999999993,-0.01196569185702108,-0.036276602800080195,0.004895240140009831,-0.0023442436940743073,0.0063058760800130285
0.6925,-0.0011018487700038468,-0.7846020150000003,-0.003158756510009666,-2.3566717300000013,-0.0007700457600026081,1.568601594999993,0.7835358614999925,0.03999998,0.03999991135,-9.805680499999992,-0.011890800530072018,-0.03659604610008048,0.004934402005009866,-0.002254805818643188,0.0063577734850130746
0.6950000000000001,-0.0011171177800038611,-0.7846029000000002,-0.003197124740009702,-2.3566769200000013,-0.0007803980400026177,1.5685732299999928,0.7835063309999926,0.03999998,0.0399999109,-9.805648999999992,-0.011815909203122952,-0.03691548940008078,0.004973563870009903,-0.0021653679432120645,0.006409670890013123
0.6975,-0.0011323867900038746,-0.7846037850000003,-0.003235492970009736,-2.3566821100000013,-0.0007907503200026269,1.568544864999993,0.7834768004999926,0.03999998,0.03999991045,-9.805617499999991,-0.01174101787617389,-0.03723493270008106,0.0050127257350099375,-0.002075930067780945,0.006461568295013169
0.7000000000000001,-0.0011476558000040984,-0.7846046700000002,-0.0032738612000102964,-2.3566873000000013,-0.0008011026000027781,1.5685164999999925,0.7834472699999921,0.03999998,0.03999991,-9.805585999999987,-0.01166612654922566,-0.03755437600008559,0.005051887600010195,-0.001986492192348974,0.006513465700013556
0.7025,-0.0011637470350041674,-0.7846056450000003,-0.00331428942501047,-2.3566925950000015,-0.0008120105910028251,1.5684866349999924,0.783416155499992,0.0399999806,0.0399999094,-9.805535599999986,-0.011594512686114807,-0.037890434350087036,0.005091918610010368,-0.001893726020328815,0.006566692045013785
0.705,-0.0011798382700042365,-0.7846066200000003,-0.003354717650010644,-2.3566978900000013,-0.000822918582002872,1.5684567699999923,0.7833850409999918,0.0399999812,0.0399999088,-9.805485199999987,-0.011522898823003955,-0.03822649270008848,0.00513194962001054,-0.0018009598483086562,0.006619918390014014
0.7075,-0.0011959295050043065,-0.7846075950000003,-0.0033951458750108195,-2.3567031850000015,-0.0008338265730029193,1.5684269049999922,0.7833539264999917,0.0399999818,0.0399999082,-9.805434799999986,-0.011451284959893098,-0.03856255105008994,0.005171980630010713,-0.0017081936762884933,0.0066731447350142446
0.71,-0.0012120207400043758,-0.7846085700000003,-0.0034355741000109937,-2.3567084800000013,-0.0008447345640029662,1.5683970399999918,0.7833228119999915,0.0399999824,0.0399999076,-9.805384399999985,-0.011379671096782246,-0.038898609400091384,0.005212011640010885,-0.0016154275042683346,0.006726371080014473
0.7125,-0.0012281119750044455,-0.7846095450000002,-0.003476002325011169,-2.3567137750000016,-0.0008556425550030136,1.5683671749999917,0.7832916974999914,0.039999983,0.039999907,-9.805333999999986,-0.01130805723367139,-0.03923466775009284,0.005252042650011059,-0.0015226613322481715,0.006779597425014705
0.715,-0.0012442032100045148,-0.7846105200000003,-0.003516430550011343,-2.3567190700000014,-0.0008665505460030605,1.5683373099999915,0.7832605829999912,0.039999983600000004,0.0399999064,-9.805283599999985,-0.011236443370560538,-0.03957072610009429,0.005292073660011231,-0.0014298951602280128,0.006832823770014934
0.7175,-0.0012605746750047856,-0.7846115415000003,-0.0035575607250120217,-2.3567244200000013,-0.0008776478955032436,1.5683069399999912,0.7832289229999908,0.039999984200000005,0.039999906,-9.805238349999989,-0.011158571671668923,-0.039912633250099944,0.005332383900011551,-0.0013362272525867212,0.006886484225015412
0.72,-0.0012775066000047428,-0.7846126560000003,-0.0036000948000119142,-2.3567298800000014,-0.0008891239620032146,1.5682755599999911,0.7831961719999908,0.0399999848,0.039999906,-9.80520339999999,-0.011068184301231762,-0.040266238000099056,0.005373252600011448,-0.0012407558737054772,0.006941012900015274
0.7225,-0.001294438525004701,-0.7846137705000004,-0.003642628875011809,-2.3567353400000015,-0.0009006000285031861,1.5682441799999913,0.7831634209999909,0.0399999854,0.039999906,-9.80516844999999,-0.010977796930794596,-0.040619842750098174,0.0054141213000113465,-0.0011452844948242288,0.006995541575015139
0.725,-0.0013113704500046582,-0.7846148850000003,-0.0036851629500117018,-2.356740800000001,-0.0009120760950031572,1.5682127999999913,0.783130669999991,0.039999986,0.039999906,-9.80513349999999,-0.010887409560357433,-0.040973447500097286,0.0054549900000112434,-0.0010498131159429845,0.007050070250015002
0.7275,-0.0013283023750046163,-0.7846159995000004,-0.0037276970250115964,-2.3567462600000013,-0.0009235521615031288,1.5681814199999915,0.7830979189999911,0.0399999866,0.039999906,-9.80509854999999,-0.010797022189920267,-0.041327052250096405,0.005495858700011142,-0.0009543417370617361,0.007104598925014867
0.73,-0.0013452343000045735,-0.7846171140000003,-0.003770231100011489,-2.3567517200000014,-0.0009350282280030998,1.5681500399999915,0.7830651679999912,0.0399999872,0.039999906,-9.80506359999999,-0.010706634819483106,-0.04168065700009552,0.005536727400011039,-0.000858870358180492,0.007159127600014729
0.7325,-0.0013621662250045317,-0.7846182285000004,-0.0038127651750113835,-2.356757180000001,-0.0009465042945030714,1.5681186599999914,0.7830324169999913,0.0399999878,0.039999906,-9.80502864999999,-0.01061624744904594,-0.04203426175009464,0.005577596100010938,-0.0007633989792992436,0.007213656275014594
0.735,-0.0013796704900047973,-0.7846194240000004,-0.0038567329500120494,-2.3567629400000016,-0.000958367065003251,1.568086209999991,0.7829985699999907,0.0399999882,0.0399999064,-9.804989199999989,-0.010518639534684456,-0.042395758000098545,0.00561903140001125,-0.0006658278907441011,0.007269051950015055
0.7375,-0.0013974609250048747,-0.7846206600000004,-0.0039014175750122435,-2.3567688500000017,-0.0009704231875033035,1.568053224999991,0.7829641749999906,0.0399999885,0.039999907,-9.804947499999988,-0.010417421348365142,-0.042761200000100134,0.005660750000011431,-0.0005672069473532657,0.007324881125015298
0.74,-0.0014152513600049512,-0.7846218960000004,-0.003946102200012435,-2.3567747600000017,-0.0009824793100033553,1.5680202399999907,0.7829297799999905,0.0399999888,0.0399999076,-9.804905799999988,-0.010316203162045831,-0.0431266420001017,0.00570246860001161,-0.00046858600396243455,0.007380710300015538
0.7425,-0.0014330417950050283,-0.7846231320000004,-0.00399078682501263,-2.356780670000002,-0.0009945354325034076,1.5679872549999907,0.7828953849999903,0.0399999891,0.0399999082,-9.804864099999987,-0.010214984975726517,-0.04349208400010329,0.005744187200011791,-0.00036996506057159905,0.00743653947501578
0.745,-0.0014508322300051048,-0.7846243680000003,-0.004035471450012822,-2.356786580000002,-0.0010065915550034595,1.5679542699999904,0.7828609899999902,0.0399999894,0.0399999088,-9.804822399999988,-0.010113766789407206,-0.04385752600010486,0.005785905800011971,-0.000271344117180768,0.00749236865001602
0.7475,-0.0014686226650051822,-0.7846256040000004,-0.004080156075013016,-2.356792490000002,-0.0010186476775035118,1.5679212849999904,0.7828265949999901,0.0399999897,0.0399999094,-9.804780699999988,-0.010012548603087892,-0.04422296800010645,0.005827624400012152,-0.00017272317378993248,0.007548197825016262
0.75,-0.0014864131000055176,-0.7846268400000005,-0.004124840700013857,-2.356798400000002,-0.0010307038000037386,1.5678882999999897,0.7827921999999894,0.03999999,0.03999991,-9.804739,-0.009911330416765214,-0.044588410000113286,0.005869343000012553,-7.410223039872883e-05,0.007604027000016875
0.7525000000000001,-0.0015050796400054712,-0.7846282080000004,-0.004171719705013741,-2.356804655000002,-0.0010433519800037074,1.5678536799999898,0.7827561099999895,0.03999999,0.0399999088,-9.8047396,-0.009798720665242958,-0.04497166345011234,0.005911812050012448,2.5779257368581537e-05,0.007661115650016734
0.755,-0.0015237461800054243,-0.7846295760000004,-0.004218598710013622,-2.356810910000002,-0.0010560001600036753,1.56781905999999,0.7827200199999895,0.03999999,0.039999907599999995,-9.8047402,-0.009686110913720706,-0.04535491690011137,0.005954281100012341,0.00012566074513588747,0.007718204300016589
0.7575000000000001,-0.001542412720005378,-0.7846309440000004,-0.004265477715013506,-2.356817165000002,-0.0010686483400036441,1.5677844399999898,0.7826839299999896,0.03999999,0.0399999064,-9.8047408,-0.00957350116219845,-0.04573817035011042,0.005996750150012236,0.00022554223290319783,0.007775292950016448
0.76,-0.0015610792600053308,-0.7846323120000004,-0.004312356720013388,-2.356823420000002,-0.001081296520003612,1.56774981999999,0.7826478399999898,0.03999999,0.0399999052,-9.8047414,-0.0094608914106762,-0.04612142380010945,0.006039219200012129,0.0003254237206705037,0.007832381600016303
0.7625000000000001,-0.0015797458000052847,-0.7846336800000004,-0.004359235725013272,-2.3568296750000015,-0.0010939447000035808,1.56771519999999,0.7826117499999898,0.03999999,0.039999903999999996,-9.804742000000001,-0.009348281659153943,-0.0465046772501085,0.006081688250012023,0.00042530520843781405,0.007889470250016163
0.765,-0.0015984123400052375,-0.7846350480000004,-0.004406114730013154,-2.3568359300000017,-0.0011065928800035488,1.5676805799999902,0.7825756599999899,0.03999999,0.039999902799999994,-9.8047426,-0.009235671907631693,-0.046887930700107536,0.006124157300011916,0.00052518669620512,0.00794655890001602
0.7675000000000001,-0.0016173765950054841,-0.7846364520000004,-0.004453739495013771,-2.356842195000002,-0.0011194421900037155,1.5676454149999897,0.7825389929999894,0.0399999905,0.0399999022,-9.804739749999998,-0.00911901360374166,-0.04727697485011233,0.006166888370012128,0.0006256169698019864,0.008004071750016365
0.77,-0.0016369362800055683,-0.7846379280000004,-0.004502855780013982,-2.356848480000002,-0.0011326937600037725,1.5676091599999897,0.7825011719999893,0.039999992,0.0399999028,-9.804729999999998,-0.008994258195126245,-0.04767760040011405,0.006210143480012314,0.0007271448150565829,0.008062433000016614
0.7725,-0.0016564959650056522,-0.7846394040000004,-0.004551972065014193,-2.356854765000002,-0.0011459453300038294,1.5675729049999896,0.7824633509999891,0.0399999935,0.0399999034,-9.804720249999997,-0.008869502786510828,-0.04807822595011577,0.0062533985900125,0.0008286726603111793,0.008120794250016865
0.775,-0.0016760556500057372,-0.7846408800000004,-0.004601088350014407,-2.356861050000002,-0.0011591969000038869,1.5675366499999894,0.7824255299999889,0.039999995,0.039999904,-9.804710499999997,-0.008744747377895407,-0.04847885150011751,0.006296653700012688,0.0009302005055657804,0.008179155500017118
0.7775,-0.0016956153350058214,-0.7846423560000004,-0.004650204635014618,-2.356867335000002,-0.001172448470003944,1.5675003949999893,0.7823877089999887,0.0399999965,0.0399999046,-9.804700749999997,-0.00861999196927999,-0.04887947705011923,0.006339908810012874,0.0010317283508203769,0.00823751675001737
0.78,-0.0017151750200059062,-0.7846438320000004,-0.0046993209200148316,-2.356873620000002,-0.0011857000400040014,1.5674641399999891,0.7823498879999885,0.039999998,0.0399999052,-9.804690999999996,-0.008495236560664568,-0.04928010260012097,0.006383163920013061,0.0011332561960749779,0.008295878000017623
0.7825,-0.0017347347050059904,-0.7846453080000004,-0.004748437205015043,-2.356879905000002,-0.0011989516100040585,1.567427884999989,0.7823120669999883,0.0399999995,0.0399999058,-9.804681249999996,-0.008370481152049152,-0.0496807281501227,0.006426419030013247,0.0012347840413295744,0.008354239250017874
0.785,-0.0017549010000062649,-0.7846468500000005,-0.004799072840015729,-2.3568863200000023,-0.001212613030004244,1.5673905099999885,0.7822730789999879,0.04,0.0399999056,-9.804640499999982,-0.008238315582233716,-0.05009472300012875,0.006470162260013463,0.0013385683764092593,0.008413386500018223
0.7875,-0.0017753706000062132,-0.7846484250000004,-0.0048504681500156,-2.356892800000002,-0.001226479375004209,1.5673525749999886,0.782233507499988,0.04,0.039999905,-9.804584249999982,-0.008102444931823409,-0.05051540250012769,0.006514149550013351,0.0014434809563999198,0.008472926750018072
0.79,-0.0017958402000061626,-0.7846500000000004,-0.004901863460015473,-2.356899280000002,-0.0012403457200041747,1.5673146399999887,0.782193935999988,0.04,0.0399999044,-9.804527999999983,-0.007966574281413095,-0.05093608200012665,0.006558136840013243,0.0015483935363905846,0.008532467000017925
0.7925,-0.001816309800006111,-0.7846515750000004,-0.0049532587700153435,-2.356905760000002,-0.0012542120650041396,1.5672767049999887,0.7821543644999881,0.04,0.0399999038,-9.804471749999983,-0.007830703631002788,-0.05135676150012559,0.006602124130013131,0.0016533061163812451,0.008592007250017774
0.795,-0.0018367794000060601,-0.7846531500000005,-0.005004654080015216,-2.356912240000002,-0.0012680784100041053,1.5672387699999888,0.7821147929999882,0.04,0.0399999032,-9.804415499999983,-0.007694832980592474,-0.05177744100012455,0.006646111420013023,0.00175821869637191,0.008651547500017627
0.7975,-0.0018572490000060085,-0.7846547250000004,-0.005056049390015086,-2.356918720000002,-0.0012819447550040703,1.5672008349999889,0.7820752214999883,0.04,0.0399999026,-9.804359249999985,-0.007558962330182167,-0.052198120500123485,0.0066900987100129115,0.0018631312763625705,0.008711087750017478
0.8,-0.0018777186000062272,-0.7846563000000004,-0.005107444700015634,-2.356925200000002,-0.001295811100004218,1.5671628999999885,0.782035649999988,0.04,0.039999902,-9.804302999999992,-0.007423091679767731,-0.05261880000012764,0.006734086000013013,0.0019680438563539036,0.008770628000017709
0.8025,-0.0018991142400061733,-0.7846580100000005,-0.005161159595015498,-2.356931920000002,-0.0013103030500041814,1.5671232549999885,0.7819943084999881,0.04,0.039999902,-9.804271799999992,-0.00727305896575883,-0.05305734870012654,0.0067787952400129,0.0020752522046986483,0.008831470550017555
0.805,-0.0019205098800061204,-0.7846597200000005,-0.0052148744900153655,-2.356938640000002,-0.0013247950000041455,1.5670836099999887,0.7819529669999882,0.04,0.039999902,-9.804240599999991,-0.007123026251749922,-0.05349589740012545,0.006823504480012789,0.0021824605530433973,0.008892313100017405
0.8075,-0.0019419055200060665,-0.7846614300000004,-0.00526858938501523,-2.356945360000002,-0.0013392869500041089,1.5670439649999888,0.7819116254999883,0.04,0.039999902,-9.804209399999992,-0.00697299353774102,-0.05393444610012434,0.006868213720012677,0.002289668901388142,0.008953155650017251
0.81,-0.0019633011600060134,-0.7846631400000005,-0.005322304280015097,-2.356952080000002,-0.0013537789000040731,1.5670043199999888,0.7818702839999884,0.04,0.039999902,-9.804178199999992,-0.006822960823732112,-0.05437299480012326,0.006912922960012566,0.0023968772497328914,0.0090139982000171
0.8125,-0.0019846968000059597,-0.7846648500000004,-0.005376019175014962,-2.356958800000002,-0.0013682708500040365,1.566964674999989,0.7818289424999885,0.04,0.039999902,-9.804146999999992,-0.006672928109723211,-0.05481154350012215,0.006957632200012453,0.002504085598077636,0.009074840750016947
0.8150000000000001,-0.0020060924400059064,-0.7846665600000005,-0.005429734070014828,-2.356965520000002,-0.0013827628000040006,1.566925029999989,0.7817876009999886,0.04,0.039999902,-9.804115799999991,-0.006522895395714303,-0.055250092200121066,0.007002341440012342,0.0026112939464223855,0.009135683300016795
0.8175,-0.002027802040006161,-0.7846683050000005,-0.005484235425015466,-2.356972470000002,-0.0013974668750041724,1.5668848049999886,0.7817456514999881,0.04,0.039999901899999996,-9.804085899999993,-0.006366420816583371,-0.05569217740012388,0.007047245920012493,0.002719238842867648,0.00919693635001712
0.8200000000000001,-0.002050139560006258,-0.7846701200000005,-0.00554030970001571,-2.356979880000002,-0.0014125952000042382,1.5668434199999883,0.7817024859999879,0.04,0.0399999016,-9.804058599999992,-0.0061970625072242744,-0.05614133560012583,0.007092540880012689,0.0028286568355121336,0.009259010400017389
0.8225,-0.002072477080006354,-0.7846719350000005,-0.005596383975015951,-2.356987290000002,-0.0014277235250043032,1.5668020349999883,0.7816593204999877,0.04,0.039999901299999994,-9.804031299999993,-0.006027704197865186,-0.05659049380012776,0.007137835840012884,0.0029380748281566138,0.009321084450017657
0.8250000000000001,-0.002094814600006451,-0.7846737500000005,-0.005652458250016194,-2.356994700000002,-0.001442851850004369,1.566760649999988,0.7816161549999875,0.04,0.039999901,-9.804003999999992,-0.005858345888506091,-0.05703965200012971,0.007183130800013081,0.003047492820801099,0.009383158500017925
0.8275,-0.002117152120006547,-0.7846755650000006,-0.005708532525016435,-2.357002110000002,-0.001457980175004434,1.566719264999988,0.7815729894999873,0.04,0.0399999007,-9.803976699999993,-0.0056889875791470024,-0.05748881020013164,0.0072284257600132755,0.0031569108134455793,0.009445232550018194
0.8300000000000001,-0.002139489640006644,-0.7846773800000005,-0.005764606800016679,-2.3570095200000023,-0.0014731085000044995,1.5666778799999876,0.7815298239999872,0.04,0.039999900399999996,-9.803949399999992,-0.005519629269787907,-0.05793796840013359,0.0072737207200134725,0.0032663288060900647,0.009507306600018462
0.8325,-0.0021618271600067403,-0.7846791950000006,-0.00582068107501692,-2.357016930000002,-0.0014882368250045647,1.5666364949999874,0.781486658499987,0.04,0.0399999001,-9.803922099999992,-0.005350270960428819,-0.05838712660013552,0.007319015680013667,0.003375746798734545,0.009569380650018729
