rsonawane2002/My_IMU/logs_2/traj_351/clean_351.csv
time,j1,j2,j3,j4,j5,j6,j7,gripper1,gripper2,imu_ax,imu_ay,imu_az,imu_gx,imu_gy,imu_gz,quat_x,quat_y,quat_z,quat_w
1106.0333333326562,0.00016700293,-0.785875,4.0107683e-05,-2.3551247,9.29385e-05,1.570997,0.786,0.04,0.04,0.0,-0.0,0.0,2.875329272945135e-08,-0.0011641195053377316,4.421952117202833e-08,0.9999995971961153,0.00020320632366974898,0.0008736418299892524,3.263050917662294e-05
1106.0499999993228,0.00016699992,-0.78576016,4.0117797e-05,-2.3552213,9.296734e-05,1.5709941,0.786,0.04,0.04,-0.29199846061009893,-2.7610896482897643e-05,0.020128410205000336,-2.8641647932316724e-07,-0.002238187145654624,-4.345198111484877e-07,0.9999996850585554,0.00020320899988144272,0.0007665025205960837,3.2600280045470455e-05
1106.0666666659895,0.00016695664,-0.78565425,4.0149425e-05,-2.35531,9.2947295e-05,1.5709913,0.786,0.04,0.04,0.023262846053073716,5.527235935827478e-05,-0.0016365625980396814,-1.5748665005392576e-06,-0.003228000105385178,-3.967587723627868e-06,0.9999997558638475,0.00020322382645763894,0.0006677674678077489,3.254121319109931e-05
1106.0833333326561,0.00016680715,-0.7855569,4.0238654e-05,-2.355391,9.280274e-05,1.5709884,0.786,0.04,0.04,0.022460733800255817,0.00014183148529462244,-0.001524888837600713,-5.459244994997199e-06,-0.004141513699240048,-1.3353370982382928e-05,0.9999998122709375,0.0002032710358937681,0.0005771386716755803,3.240261574082789e-05
1106.0999999993228,0.00016645699,-0.78546727,4.0437215e-05,-2.3554652,9.242343e-05,1.5709856,0.786,0.04,0.04,0.020255423726900368,0.0002672139076712878,-0.0013236503787039666,-1.2850455861112036e-05,-0.004981639402002514,-3.110681436466072e-05,0.9999998568779094,0.00020337959692851842,0.0004938115014083448,3.2110768306688604e-05
1106.1166666659894,0.0001657862,-0.7853848,4.0810726e-05,-2.355532,9.167397e-05,1.5709827,0.786,0.04,0.04,0.02047176345483237,0.0004229946675952923,-0.000795071128734115,-2.558440517356655e-05,-0.005756827866629333,-5.95099807284852e-05,0.9999998915177098,0.00020358626104418178,0.0004177561928219218,3.157477499063869e-05
1106.133333332656,0.0001646516,-0.7853088,4.1437594e-05,-2.3555954,9.038839e-05,1.5709798,0.7859981,0.04,0.04,0.012857343702310509,0.0006127452444729933,-0.002225930461152714,-4.504174841893735e-05,-0.006468201557694266,-0.00010059218701292929,0.9999999188564025,0.00020298132853624964,0.00034661843746660285,3.068269286237767e-05
1106.1499999993227,0.00016288945,-0.7852387,4.2407406e-05,-2.3556535,8.8378816e-05,1.57098,0.7859962,0.04,0.04,0.016385079331726615,0.0008271659920148762,0.0011920905572671003,-6.364042981723377e-05,-0.007138000417641009,-0.0001561694404598012,0.9999999391378693,0.0002025686138981908,0.0002825440207462442,2.9310250723112626e-05
1106.1666666659894,0.00016031768,-0.78517425,4.3819666e-05,-2.355705,8.5437e-05,1.5709804,0.7859924,0.04,0.04,0.01771940982562281,0.0010661135589876646,2.0643831044608874e-05,-9.170153031751063e-05,-0.007745101821024615,-0.00022788689662019184,0.999999954064275,0.00020145015394710535,0.00022481776582794285,2.7317678049552845e-05
1106.183333332656,0.00015673767,-0.78511524,4.578295e-05,-2.3557546,8.133501e-05,1.5709809,0.78598857,0.04,0.04,0.009238187629878603,0.001327874940488784,-0.0022395893913396137,-0.00012234097678658824,-0.008298128886983185,-0.0003171880177604341,0.999999964991217,0.00020064059445817537,0.00017075748782529744,2.4551923464572666e-05
1106.1999999993227,0.00015193647,-0.7850609,4.8413764e-05,-2.3557982,7.582787e-05,1.5709815,0.78598285,0.04,0.04,0.015307142876830326,0.0016075244002514643,0.00010776138881229969,-0.0001654695294929834,-0.008822415194048899,-0.00042535487964358765,0.9999999724825248,0.00019925135187483453,0.00012206199197697437,2.0849903370447837e-05
1106.2166666659894,0.00014568822,-0.7850109,5.183574e-05,-2.3558402,6.864888e-05,1.5709821,0.7859752,0.039999995,0.04,0.007646611158063088,0.0019104434559542578,-0.001730786070264223,-0.00021432996863985854,-0.009302235587006396,-0.0005543428559051042,0.999999977480901,0.00019735166011160312,7.637693372575424e-05,1.6033834549959e-05
1106.233333332656,0.00013775587,-0.78496486,5.6178244e-05,-2.3558762,5.9531805e-05,1.5709829,0.7859657,0.03999999,0.039999995,0.01461935484510235,0.0022173400153125433,0.0005759476797484453,-0.0002704485977674529,-0.009760906664029833,-0.00070345385166552,0.9999999802950861,0.0001950140730355887,3.5788499785163874e-05,9.925830635051005e-06
1106.2499999993227,0.00012789264,-0.7849225,6.157643e-05,-2.3559108,4.8193186e-05,1.5709838,0.78595424,0.039999988,0.039999988,0.006450460571483241,0.0025423435001147576,-0.0014268674328077324,-0.0003354014907894641,-0.01017885724140855,-0.0008735538066604416,0.9999999815023308,0.00019231418846489702,-2.266300102878163e-06,2.3355676755814795e-06
1106.2666666659893,0.000115843315,-0.7848834,6.8169764e-05,-2.355941,3.4338453e-05,1.5709847,0.7859396,0.039999984,0.039999984,0.010954457295064834,0.002878725769920465,0.0001495636636539288,-0.00041081254795202217,-0.010579261599839887,-0.001067104864062598,0.9999999815116875,0.0001886744501040441,-3.64761801300897e-05,-6.932885429328081e-06
1106.283333332656,0.00010134535,-0.78484756,7.610185e-05,-2.3559687,1.766662e-05,1.5709857,0.7859223,0.039999977,0.039999973,0.008080654810482812,0.0032238430244931667,-0.0006856837094115775,-0.0004923147060675433,-0.010952619819684218,-0.0012830326671941935,0.9999999805273094,0.000184473287765117,-6.773526518157745e-05,-1.8080950839991493e-05
1106.2999999993226,8.4130355e-05,-0.7848145,8.551953e-05,-2.3559954,-2.1320038e-06,1.5709866,0.7859015,0.039999973,0.03999997,0.004651913093733917,0.003578063767208945,-0.0011294382221471722,-0.0005843590681707932,-0.011305445627387107,-0.0015235900816746722,0.9999999787084992,0.00017934582661828424,-9.714634447278422e-05,-3.131554753486533e-05
1106.3166666659893,6.392463e-05,-0.784784,9.6572425e-05,-2.3560176,-2.5371664e-05,1.570991,0.7858772,0.03999997,0.039999966,0.011691525755130883,0.003936969025622555,0.0031206963245544728,-0.0006842952905711295,-0.011650297016259165,-0.0017883789065404787,0.9999999765169276,0.0001734055373186959,-0.00012125250227071499,-4.684543157581329e-05
1106.333333332656,4.0450373e-05,-0.7847559,0.000109412445,-2.3560376,-5.2371455e-05,1.5709957,0.78584915,0.039999966,0.039999958,0.0062917654170657755,0.004303124988677254,-0.00017814735606691556,-0.0007941732444575379,-0.011953823604862968,-0.002076904911680589,0.9999999737989601,0.00016655869670051586,-0.0001430043919568879,-6.488469397701092e-05
1106.3499999993226,1.3426676e-05,-0.78472996,0.00012419329,-2.3560567,-8.345558e-05,1.5710003,0.78581667,0.039999966,0.039999958,0.004059302850856206,0.0046739037501092925,-0.0008229318886332493,-0.0009141575830140699,-0.012245872384128827,-0.002391173974811616,0.9999999704427482,0.0001585932428932286,-0.00016317718976475952,-8.564981409555036e-05
1106.3666666659892,-1.742997e-05,-0.7847061,0.00014107011,-2.356073,-0.00011894957,1.5710051,0.7857796,0.03999997,0.03999996,0.007206498386236326,0.005046168821200439,0.00019027500754997817,-0.0010430595177829804,-0.012530887082279181,-0.002730553784750672,0.9999999664968108,0.0001495064930093559,-0.00018081762297148738,-0.00010935800450008281
1106.3833333326559,-5.2404816e-05,-0.7846841,0.00016019889,-2.3560863,-0.00015918161,1.5710099,0.78573763,0.03999997,0.03999996,0.00690569852361822,0.0054217105114342775,0.00023682223881937858,-0.0011813672696329041,-0.012803229882876525,-0.0030952064214215987,0.9999999617988735,0.00013923676390763853,-0.00019610502059542862,-0.00013622847019068414
1106.3999999993225,-9.178417e-05,-0.78466374,0.00018173638,-2.3560982,-0.00020448116,1.5710181,0.78569037,0.03999997,0.03999996,0.005306346487010671,0.005798305969592012,0.0023060230067484255,-0.0013298680507056945,-0.013064720165124598,-0.0034852293149766323,0.9999999563307614,0.0001276627155217855,-0.0002081459651122833,-0.00016648112067152627
1106.4166666659892,-0.0001358549,-0.78464496,0.00020583955,-2.3561096,-0.00025517767,1.5710266,0.78563744,0.03999997,0.039999958,0.002668019047891157,0.006176102809876197,-0.0005214966310784774,-0.0014877214520122005,-0.013306762572160276,-0.0038998133794709046,0.9999999493688373,0.00011469344050400643,-0.0002190274176133411,-0.00020033653663748167
1106.4333333326558,-0.00018490369,-0.78462756,0.00023266517,-2.3561182,-0.00031160217,1.5710351,0.78557855,0.03999997,0.039999958,0.006418637316851772,0.006553803217553104,0.000595265615199736,-0.0016552035800759845,-0.013548141655798828,-0.004340670437350698,0.9999999407154317,0.00010026769882905014,-0.00022773705908815897,-0.00023801544739639365
1106.4499999993225,-0.0002392168,-0.7846114,0.00026237,-2.3561246,-0.00037408317,1.5710437,0.78551346,0.039999973,0.03999996,0.005035026177391266,0.006929942839200374,0.00025207032721130673,-0.0018320617472797807,-0.013780262761928274,-0.004806902871007524,0.9999999297611957,8.43538272722447e-05,-0.00023475286249782795,-0.00027973760803906073
1106.4666666659891,-0.00029907934,-0.7845965,0.00029510996,-2.3561294,-0.00044294927,1.5710558,0.7854417,0.039999973,0.03999996,0.005320197045111108,0.007305329761779075,0.0026138414492837825,-0.0020194326865129683,-0.014008981288303905,-0.005298435491164927,0.9999999162596409,6.680012755566031e-05,-0.0002385860854634337,-0.00032572247998032087
1106.4833333326558,-0.00036477498,-0.78458273,0.00033104027,-2.3561332,-0.0005185265,1.571068,0.7853629,0.039999973,0.03999996,0.002956204213022673,0.007678952705366332,-4.0140955159806424e-05,-0.002215991463412505,-0.014220846307264999,-0.005815121986484073,0.9999998990080387,4.7514852316047864e-05,-0.00024126488000696778,-0.0003761881297263096
1106.4999999993224,-0.00043658557,-0.78456986,0.00037031533,-2.3561366,-0.0006011392,1.5710804,0.78527683,0.039999977,0.039999966,0.001846599308663599,0.008050001548064366,-0.00020971370280342683,-0.0024220872209665114,-0.01443387221785283,-0.006356811416303234,0.999999877042675,2.646486536744744e-05,-0.0002432083031651608,-0.0004313513268608462
1106.516666665989,-0.00051479065,-0.784558,0.0004130881,-2.3561368,-0.00069110974,1.5710956,0.7851831,0.039999977,0.03999996,0.007266391820648366,0.008416948731420553,0.002854828777376639,-0.0026377355432441875,-0.014651513186549272,-0.006922566913277582,0.9999998500248807,3.5266702950201793e-06,-0.00024173628099029043,-0.0004914278675804082
1106.5333333326557,-0.0005996673,-0.784547,0.00045951043,-2.3561354,-0.0007887554,1.5711117,0.7850813,0.039999977,0.03999996,0.0040747942322338915,0.008780883678416448,0.0009785657350436239,-0.002862893722515854,-0.014851515370369368,-0.0075136289382278015,0.9999998164001209,-2.136394308319076e-05,-0.00023854995902692093,-0.0005566302394365796
1106.5499999993224,-0.00069149,-0.7845367,0.00050973217,-2.356132,-0.0008943936,1.5711279,0.78497124,0.039999977,0.03999996,0.0041527020508302925,0.009143488732266045,0.0004954575873572509,-0.0030969771533559476,-0.015048607470137153,-0.008129206730246398,0.9999997747888568,-4.830152739635702e-05,-0.00023397991780506097,-0.0006271703086465384
1106.566666665989,-0.0007905297,-0.7845271,0.00056390226,-2.3561282,-0.0010083348,1.571147,0.7848525,0.03999998,0.039999966,0.002461110241802622,0.009498514422652399,0.001961218168067269,-0.0033404961070393068,-0.015245474911662955,-0.008768740675568956,0.9999997238603257,-7.735364440394584e-05,-0.00022743320169605125,-0.0007032565854856481
1106.5833333326557,-0.0008970545,-0.78451806,0.0006221671,-2.3561242,-0.0011308915,1.571167,0.78472483,0.03999998,0.03999998,0.0013241044103162736,0.00985507278448013,0.000497194577908644,-0.003592914722079455,-0.015437756517203772,-0.009437487295263681,0.9999996617057003,-0.00010858692327560196,-0.00022004576533856464,-0.0007850969532722116
1106.5999999993223,-0.001011329,-0.7845097,0.0006846713,-2.3561175,-0.001262362,1.5711873,0.7845878,0.03999998,0.039999973,0.005350296801998056,0.010197469460829917,0.0009316227515432374,-0.0038543716336506212,-0.015636076570103793,-0.01012271021243038,0.9999995866899787,-0.00014212835374809857,-0.00021089765431130637,-0.000872892652206062
1106.616666665989,-0.0011336139,-0.7845018,0.0007515577,-2.3561094,-0.0014030491,1.571211,0.7844411,0.039999984,0.03999998,0.004018297974561769,0.010542377110716716,0.002960016465136661,-0.004124548025379903,-0.015832985659951913,-0.010833721531227077,0.9999994969265492,-0.00017804920045133915,-0.0001991289145853007,-0.000966846836926965
1106.6333333326556,-0.0012641655,-0.78449434,0.00082296686,-2.3560998,-0.0015532484,1.5712348,0.78428465,0.039999984,0.039999973,0.0030325781519957573,0.010880201027843378,0.00043482120823945536,-0.00440314765470153,-0.016018789040145462,-0.011565011772786866,0.9999993898196466,-0.00021632944122646768,-0.00018638334693611922,-0.0010671565747712734
1106.6499999993223,-0.0014032366,-0.7844872,0.0008990373,-2.3560886,-0.0017132508,1.5712614,0.784118,0.039999984,0.039999977,0.004075330867370219,0.01121181468121367,0.0025937111014950887,-0.004690748008415413,-0.016209790573686444,-0.012321405375268319,0.9999992631135104,-0.00025710210161321534,-0.0001713251446945573,-0.0011740181600895332
1106.666666665989,-0.0015510755,-0.78448033,0.0009799046,-2.3560772,-0.0018833413,1.5712891,0.78394085,0.039999984,0.039999966,0.0011221203974010052,0.011539415788488572,0.000702463064716774,-0.004986816727332262,-0.016393745285982166,-0.01309563614789109,0.9999991137914,-0.0003004400369614019,-0.00015550978372421459,-0.0012876214140277616
1106.6833333326556,-0.0017079259,-0.784474,0.0010657035,-2.3560643,-0.0020638022,1.5713184,0.78375286,0.039999984,0.039999984,0.0036062798287606057,0.011858339985018488,0.001542734886439412,-0.005291450975768907,-0.01658623991847102,-0.013900178675959527,0.9999989390207606,-0.00034644816962866876,-0.00013793032685015887,-0.0014081570380365595
1106.6999999993222,-0.0018740284,-0.78446794,0.0011565641,-2.3560495,-0.0022549026,1.5713499,0.7835538,0.03999999,0.04,0.004244834330235925,0.012170252290428325,0.002275578983645943,-0.005603755300600327,-0.016776642211366252,-0.014721014139480265,0.9999987355733729,-0.0003951724324765832,-0.00011826577826621746,-0.0015358071525453554
1106.716666665989,-0.0020496177,-0.7844622,0.0012526154,-2.3560333,-0.0024569018,1.5713825,0.7833433,0.03999999,0.04,0.003271878319877075,0.012470748709836419,0.001277292239976191,-0.005924242364077442,-0.016962746374934806,-0.01556300278556403,0.9999984998127653,-0.0004466898554445625,-9.7179244815979e-05,-0.0016707473137083772
1106.7333333326555,-0.0022349234,-0.7844567,0.0013539837,-2.3560154,-0.0026700622,1.5714178,0.7831212,0.03999999,0.039999995,0.003940305342209349,0.0127696196178815,0.002545354354288598,-0.006252555985613172,-0.01715041046140501,-0.016424842704659662,0.9999982279720121,-0.0005010514562317092,-7.393370350701544e-05,-0.0018131558348596078
1106.7499999993222,-0.0024301729,-0.78445125,0.0014607925,-2.3559964,-0.0028946677,1.5714542,0.7828873,0.03999999,0.039999995,0.0025820879068882974,0.01308673741058336,0.0012030415236008452,-0.006588542780990369,-0.017332592137161984,-0.017307799896728572,0.9999979158036769,-0.000558306028010883,-4.9580932012231135e-05,-0.001963217871954792
1106.7666666659889,-0.0026355856,-0.784446,0.0015731636,-2.355977,-0.003130983,1.5714933,0.78264093,0.039999988,0.039999995,0.0015652795201992475,0.01338325001169701,0.0019773236628051194,-0.006932214748861964,-0.01752113443688791,-0.01821214404256301,0.9999975587905645,-0.0006186577893059971,-2.374317482616089e-05,-0.002121110961984139
1106.7833333326555,-0.0028513782,-0.7844408,0.0016912147,-2.3559558,-0.0033792495,1.5715337,0.78238225,0.039999984,0.039999995,0.003826451158328581,0.013660730519472735,0.0017206241053946414,-0.00728227274006746,-0.01771002575677629,-0.01913493676584109,0.9999971522392657,-0.0006820090596679865,3.6294070240843344e-06,-0.00228699886946098
1106.7999999993222,-0.0030777622,-0.7844358,0.0018150619,-2.355933,-0.0036397048,1.5715765,0.78211087,0.03999998,0.039999995,0.0039037627274751685,0.013934156057001275,0.0023371055762666515,-0.0076400493209750585,-0.01789940703084851,-0.020076698169890043,0.9999966909721344,-0.0007484757112661091,3.300274323425162e-05,-0.0024610444347894517
1106.8166666659888,-0.0033149424,-0.7844309,0.0019448178,-2.3559086,-0.0039125914,1.5716211,0.7818266,0.039999977,0.039999995,0.0032553477467667236,0.014207371877511532,0.0018105029171877618,-0.008004849445404477,-0.018086645229360925,-0.021036953776215808,0.9999961695113767,-0.0008180850707941654,6.391833391962671e-05,-0.002643409509976059
1106.8333333326555,-0.0035631203,-0.7844262,0.0020805928,-2.3558826,-0.0041981414,1.5716678,0.7815292,0.039999973,0.039999995,0.003852052485586732,0.014471488926765409,0.002140669521044636,-0.00837660463345435,-0.01827336099253842,-0.022015273621670807,0.9999955819492458,-0.0008909254141990685,9.669161553015679e-05,-0.002834252040161215
1106.849999999322,-0.0038224922,-0.7844216,0.0022224938,-2.355856,-0.004496567,1.5717165,0.78121835,0.039999973,0.039999995,0.002140492023228191,0.014720763363484934,0.0016470780185739997,-0.008755210526998411,-0.018458920952822897,-0.023010417349553603,0.9999949221232297,-0.0009670571663257493,0.0001307432498053113,-0.003033716268134538
1106.8666666659888,-0.00409325,-0.78441703,0.002370625,-2.3558285,-0.004808082,1.5717673,0.7808938,0.039999973,0.039999995,0.0020222986425455503,0.014968047669818192,0.0017037735376534968,-0.009140642664178748,-0.01864757505343452,-0.024022856562691864,0.9999941834369509,-0.0010465716887409794,0.00016599960530304774,-0.003241947577802525
1106.8833333326554,-0.004375578,-0.7844125,0.0025250893,-2.3557987,-0.0051329173,1.5718205,0.7805554,0.03999997,0.039999995,0.005052905780189576,0.01521932854115695,0.0026741996451251637,-0.009531942891312907,-0.01884090327790446,-0.02505294870857988,0.9999933587198617,-0.0011294727557237222,0.00020348911776158036,-0.0034591038785933073
1106.899999999322,-0.004669657,-0.784408,0.0026859855,-2.3557673,-0.005471266,1.5718757,0.7802031,0.039999966,0.03999999,0.00367336520301631,0.01544536293994021,0.0021080982046006724,-0.009929548357746955,-0.019027865004732657,-0.026098573466813924,0.9999924407131223,-0.0012157658650596035,0.0002426301410010833,-0.0036853168911911544
1106.9166666659887,-0.0049756626,-0.78440344,0.0028534099,-2.3557346,-0.005823357,1.5719332,0.77983624,0.03999996,0.03999999,0.0029549692195152133,0.01569648179246966,0.0020587490066725778,-0.010333905655459342,-0.019213852615029052,-0.027160949442311785,0.999991421323628,-0.0013056972927470122,0.00028328619568409154,-0.0039207375149978175
1106.9333333326554,-0.0052937665,-0.7843989,0.0030274554,-2.3557005,-0.0061893724,1.5719931,0.779455,0.039999958,0.03999999,0.00345301514441676,0.015909876885951326,0.0023297955049184083,-0.0107427843738527,-0.0194017483738616,-0.028238790613490695,0.9999902924759491,-0.0013991262082048142,0.000325679019536517,-0.004165493115514423
1106.949999999322,-0.005624133,-0.7843944,0.0032082133,-2.355666,-0.006569501,1.5720552,0.77905905,0.03999996,0.039999995,0.0017365113111456054,0.01612582695706558,0.001621222159520208,-0.011158288577786385,-0.019587177525705577,-0.02933078209720519,0.9999890456090206,-0.0014961830675885694,0.00036913434265390484,-0.004419710174378773
1106.9666666659887,-0.005966924,-0.78438985,0.0033957716,-2.3556292,-0.006963911,1.5721197,0.77864826,0.03999996,0.039999995,0.0046680661424325365,0.016320115026319595,0.002532607709149204,-0.011578947705416369,-0.019777378993928122,-0.030437516723814333,0.9999876713341809,-0.0015968780382637907,0.00041458675838351066,-0.00468351128887863
1106.9833333326553,-0.006322292,-0.7843853,0.0035902134,-2.3555908,-0.007372785,1.5721867,0.77822226,0.03999996,0.039999995,0.003915397847742419,0.016526363615525404,0.0023916079131103274,-0.012005488950708406,-0.01996461690346929,-0.031558484093445784,0.9999861599487466,-0.0017013450678606868,0.0004618368295922599,-0.00495701953423302
1106.999999999322,-0.0066903885,-0.78438073,0.0037916235,-2.3555508,-0.0077963155,1.5722558,0.777781,0.039999958,0.039999995,0.0037569959019823074,0.016735429926587053,0.0021423420589528064,-0.012436416421919463,-0.020147875218940788,-0.03269400848609459,0.9999845015210058,-0.0018095690831571034,0.0005106549574619073,-0.005240363444757758
1107.0166666659886,-0.007071358,-0.78437614,0.0040000807,-2.3555093,-0.008234677,1.5723276,0.7773244,0.039999966,0.04,0.003591023551119399,0.016930720257666947,0.00233948165599962,-0.012872212361590986,-0.02033133744198809,-0.03384199742881824,0.9999826854746613,-0.0019215680196194625,0.0005611680907510741,-0.00553366222358971
1107.0333333326553,-0.0074653416,-0.78437144,0.0042156614,-2.355467,-0.008687986,1.5724019,0.7768522,0.039999958,0.039999995,0.002227620516248585,0.017083861186122443,0.0019797160672796466,-0.013313421994837588,-0.02051296089175368,-0.035002908062322466,0.9999807012306272,-0.0020373906941845285,0.0006128763496892767,-0.005837001631176787
1107.049999999322,-0.007872472,-0.78436667,0.0044384385,-2.355423,-0.009156428,1.5724783,0.77636427,0.039999958,0.039999995,0.004230794268322846,0.01727696547003093,0.0021950331616338303,-0.013759319212407356,-0.020697297238517924,-0.036177082739252533,0.9999785369845964,-0.002157084807153561,0.0006662024531665623,-0.0061505064484338725
1107.0666666659886,-0.008292883,-0.7843618,0.0046684844,-2.355377,-0.009640138,1.5725576,0.77586037,0.03999996,0.04,0.004416903021131624,0.01743751506713999,0.0027417847068722523,-0.014209851075388167,-0.020878911539672848,-0.03736249892913901,0.9999761804812624,-0.0022807319890866032,0.0007214487752088781,-0.006474275508848254
1107.0833333326552,-0.008726692,-0.78435683,0.0049058665,-2.3553295,-0.010139266,1.5726393,0.77534044,0.039999958,0.04,0.003584398729028493,0.01759968901406464,0.0022075217941619485,-0.014664636885029003,-0.021057352405042907,-0.0385603881500632,0.999973619607473,-0.0024083286433639085,0.0007782019224809007,-0.00680840980275784
1107.0999999993219,-0.00917402,-0.7843518,0.0051506488,-2.3552806,-0.010653986,1.5727233,0.77480423,0.03999995,0.04,0.0034978356175496828,0.01778375018086798,0.001919804024352878,-0.015123536539347653,-0.021232824515013266,-0.0397709806860217,0.9999708413701341,-0.002539956822223003,0.0008362553312324886,-0.007153020751287826
1107.1166666659885,-0.009634982,-0.78434676,0.005402896,-2.3552303,-0.011184383,1.5728102,0.7742517,0.03999995,0.04,0.0037906506267892937,0.017895603976698232,0.002519346031792935,-0.01558628718407996,-0.021409170391720213,-0.04098975017303382,0.9999678322157868,-0.002675616830671355,0.0008959982884562155,-0.0075081818906201775
1107.1333333326552,-0.010109692,-0.78434145,0.005662668,-2.3551784,-0.011730613,1.5728997,0.7736828,0.03999995,0.04,0.003913593556825745,0.01806455425655204,0.0024381499799108752,-0.01605270432610095,-0.021582552713709582,-0.042219665083577496,0.999964578346343,-0.0028153034063500065,0.0009572525368442336,-0.007873994344127071
1107.1499999993218,-0.01059825,-0.78433603,0.0059300223,-2.3551245,-0.012292779,1.5729914,0.7730971,0.039999947,0.04,0.004329062041841247,0.018179237412928144,0.0020985893359082297,-0.01652355366416353,-0.021753451548508624,-0.043459445817033523,0.999961065128409,-0.002959165189819255,0.0010199271753975614,-0.008250534358077011
1107.1666666659885,-0.011100759,-0.78433055,0.006205015,-2.3550694,-0.012871005,1.573086,0.7724948,0.03999995,0.04,0.003475302528754831,0.018319031830220205,0.002341338341005361,-0.016997136841181384,-0.02192278011479572,-0.04470867291864686,0.9999572778202288,-0.0031071173488773592,0.0010840809275994246,-0.00863788890182662
1107.1833333326551,-0.011617312,-0.78432506,0.006487694,-2.355013,-0.01346537,1.5731833,0.77187574,0.03999995,0.04,0.003864585137502985,0.018420175621781075,0.002122711245577946,-0.017474339944104005,-0.022089157524304612,-0.045966113599696365,0.9999532011665954,-0.003259190157589618,0.0011496515500337284,-0.009036119604590123
1107.1999999993218,-0.012147995,-0.78431946,0.006778111,-2.354955,-0.014076012,1.5732828,0.77123976,0.039999947,0.04,0.0036520031960529664,0.018553003633943813,0.0018979676006836144,-0.017955215270392868,-0.02225418266817767,-0.04723302351089265,0.9999488192804875,-0.0034154499399816256,0.0012163665171408646,-0.009445314910703825
1107.2166666659884,-0.0126929,-0.7843138,0.0070763114,-2.354895,-0.014703018,1.5733855,0.7705865,0.039999943,0.04,0.004829034458908588,0.01866151597143123,0.0026713659588395444,-0.018439289551621364,-0.022418455676822463,-0.04850814247151077,0.9999441144179226,-0.0035760492816691095,0.0012848751972738036,-0.009865546524090215
1107.233333332655,-0.013252101,-0.78430814,0.00738234,-2.3548336,-0.015346477,1.5734909,0.76991636,0.03999994,0.04,0.004410743464067224,0.018751781350886607,0.0022368895583824155,-0.018925081239166187,-0.02257529089401434,-0.049791145725842714,0.9999390708077119,-0.0037407607370197075,0.0013548760553126048,-0.010296877788559594
1107.2499999993217,-0.013825672,-0.7843022,0.007696238,-2.3547704,-0.016006483,1.5735989,0.76922894,0.039999932,0.04,0.004078771791515834,0.01885398071453659,0.0022887766158330436,-0.019414988649859265,-0.022728202495900254,-0.05108224999894985,0.9999336706693722,-0.003909773257148986,0.0014261219507382514,-0.010739371999083843
1107.2666666659884,-0.014413688,-0.7842962,0.008018042,-2.354706,-0.016683117,1.5737095,0.7685239,0.039999932,0.04,0.0036348397475904903,0.018951226443790145,0.0018768167560079263,-0.019906984397332083,-0.02287908650231027,-0.05237945036449633,0.9999278956347223,-0.0040832430367496175,0.0014984838636568655,-0.011193087327849014
1107.283333332655,-0.015016214,-0.7842902,0.008347793,-2.3546398,-0.01737644,1.573823,0.7678019,0.039999932,0.04,0.004899830072879752,0.01901115798605968,0.0023775150072680162,-0.020399904486973097,-0.023027556874714954,-0.05368241548375767,0.9999217281566263,-0.004260797440640815,0.001572374183828336,-0.011658078952471592
1107.2999999993217,-0.015633313,-0.784284,0.00868552,-2.3545718,-0.018086527,1.5739392,0.7670626,0.039999925,0.04,0.004363308668176025,0.019099839155383228,0.0022187737081624803,-0.020897138759402693,-0.023169741441747577,-0.0549932664284739,0.999915149120057,-0.004442597203176717,0.0016475129344845024,-0.012134397036330222
1107.3166666659884,-0.016265031,-0.7842777,0.009031256,-2.354502,-0.018813467,1.5740582,0.7663056,0.03999992,0.04,0.004875807010540356,0.019172673671211116,0.0022593749183563716,-0.021397490458690636,-0.02330856911543544,-0.05630983810097619,0.9999081378256529,-0.0046288409835020415,0.0017240057025447195,-0.012622105431424903
1107.333333332655,-0.016911432,-0.7842712,0.009385033,-2.354431,-0.019557292,1.5741799,0.7655309,0.03999992,0.04,0.003633205179109922,0.0192290771500174,0.0019414574404130747,-0.021898971326638022,-0.023442306971681155,-0.057630010059348466,0.9999006751524903,-0.004819543369067507,0.0018014228368689023,-0.01312123115681282
1107.3499999993217,-0.017572554,-0.78426456,0.009746865,-2.3543582,-0.020318061,1.5743043,0.76473844,0.039999917,0.04,0.004553000873319668,0.019288421129560335,0.0020867824032766435,-0.022401167175367668,-0.023572408521506983,-0.058956026255019535,0.9998927404083634,-0.005014662248427815,0.0018799899313107634,-0.013631818625759786
1107.3666666659883,-0.018248446,-0.7842577,0.010116791,-2.3542836,-0.021095835,1.5744317,0.7639283,0.03999991,0.04,0.004908192815578083,0.019338359978123,0.002315370620631363,-0.022905120889771827,-0.02369962601358086,-0.06028834976547989,0.9998843123549439,-0.005214189410268797,0.0019597819737385788,-0.014153917828303742
1107.383333332655,-0.018939141,-0.78425074,0.01049482,-2.3542073,-0.021890651,1.5745618,0.76310045,0.03999991,0.04,0.00467867020486068,0.01938633515025795,0.002105994241996534,-0.0234103131220976,-0.023820416090471086,-0.061622265804639156,0.9998753698677921,-0.005418115323206578,0.0020406944222247686,-0.01468755678680262
1107.3999999993216,-0.01964467,-0.78424364,0.010880972,-2.3541296,-0.022702541,1.5746944,0.7622547,0.039999906,0.04,0.004165035307046594,0.019414554860770067,0.001609505951116752,-0.023917061417901897,-0.023936264160127913,-0.06296081392755441,0.9998658915573154,-0.005626521480145999,0.00212232240524488,-0.015232757594618866
1107.4166666659883,-0.020365076,-0.78423625,0.011275267,-2.3540506,-0.023531528,1.57483,0.7613912,0.039999902,0.04,0.003835390571138575,0.019455433668081126,0.0021006202861162393,-0.024424660049703385,-0.024049383512320492,-0.0643028359435841,0.9998558552588908,-0.005839344242246996,0.00220476863838176,-0.015789545863755552
1107.433333332655,-0.021100378,-0.78422874,0.011677716,-2.35397,-0.024377657,1.5749686,0.76050985,0.0399999,0.04,0.00481646978340855,0.019484357902885274,0.0019964924165893905,-0.024933523235441485,-0.024158322706637942,-0.06564789828039642,0.9998452372960001,-0.006056636249286016,0.00228819254545538,-0.016357957963143644
1107.4499999993216,-0.021850595,-0.78422123,0.012088331,-2.3538876,-0.025240961,1.5751098,0.7596106,0.039999895,0.04,0.005364657864936895,0.019506415986017198,0.0019078183682852412,-0.025443196793104333,-0.024261098258825976,-0.06699730289509484,0.9998340140270185,-0.006278392091590909,0.0023726640232774173,-0.016938023875196502
1107.4666666659882,-0.02261573,-0.78421354,0.012507123,-2.353803,-0.026121445,1.5752538,0.7586934,0.03999989,0.04,0.005620685850349361,0.019493039220256497,0.002077522438681534,-0.025953612317582402,-0.024357202906134974,-0.06834721690153549,0.999822161536462,-0.006504647398110875,0.002458162491080481,-0.017529754703100132
1107.4833333326549,-0.023395803,-0.7842058,0.012934099,-2.3537169,-0.027019141,1.5754007,0.7577583,0.039999884,0.04,0.00462337074385033,0.019525937382763175,0.0017401901331925984,-0.026464255482137575,-0.024445955637222596,-0.06969981114685875,0.9998096563238633,-0.006735372279070299,0.0025443986907262802,-0.01813317173368053
1107.4999999993215,-0.024190828,-0.784198,0.013369258,-2.3536296,-0.02793403,1.5755504,0.75680536,0.039999884,0.04,0.00426686277510413,0.019526359370507923,0.001594070059751651,-0.026975424375452386,-0.02452929872420895,-0.07105306069741163,0.9997964745489871,-0.006970562160091175,0.002631201655753139,-0.018748267131542148
1107.5166666659882,-0.0250008,-0.78419,0.0138126025,-2.3535404,-0.028866114,1.5757029,0.75583446,0.03999988,0.04,0.005365592698947097,0.01950369247153763,0.0018511050920100303,-0.027486956390092403,-0.02460802626582751,-0.0724075389550035,0.999782590318038,-0.0072102519978237455,0.0027187563410998364,-0.019375054246115454
1107.5333333326548,-0.025825724,-0.7841819,0.014264135,-2.353449,-0.029815426,1.5758581,0.7548456,0.03999988,0.04,0.005890934091534739,0.019522735028169175,0.0018808282661320064,-0.027998623026956982,-0.02467964947095401,-0.07376444863487286,0.9997679774118997,-0.007454439894440715,0.002807157316032617,-0.020013558788538895
1107.5499999993215,-0.026665589,-0.7841736,0.014723848,-2.3533564,-0.030781912,1.5760163,0.75383896,0.039999876,0.04,0.004734339293199774,0.019475042375741852,0.0017331072309278994,-0.028510189382086066,-0.02474239138217114,-0.0751192468988617,0.9997526117308126,-0.007703080243309547,0.0028960834855715715,-0.02066375069121559
1107.5666666659881,-0.027520387,-0.7841652,0.015191738,-2.3532624,-0.031765595,1.5761774,0.7528144,0.039999876,0.04,0.004410454282788301,0.01948241141535162,0.0014618159051238422,-0.029021930219066655,-0.02479982750263708,-0.07647573688768988,0.9997364670306383,-0.007956208400431597,0.0029853292416632533,-0.02132564292829447
1107.5833333326548,-0.028390106,-0.78415656,0.0156678,-2.353167,-0.032766454,1.576341,0.7517719,0.039999865,0.04,0.00466133519583245,0.01944976407555754,0.0014157830645844527,-0.029533809318538343,-0.024851308464473858,-0.07783278401546152,0.9997195168275739,-0.008213859241757096,0.003074777942794612,-0.021999225690955828
1107.5999999993214,-0.02927473,-0.7841478,0.016152024,-2.3530693,-0.03378448,1.5765076,0.75071156,0.03999986,0.04,0.006550783089775969,0.019414010640969592,0.0019036672660233123,-0.03004448920285703,-0.024898774535790744,-0.07918907507662146,0.9997017318945273,-0.008476007268493705,0.0031650280469391525,-0.02268451333683781
1107.616666665988,-0.030174237,-0.7841389,0.016644394,-2.3529696,-0.034819625,1.5766771,0.7496334,0.039999858,0.04,0.005831745237716568,0.0193707771546911,0.0017364054710089505,-0.030554918639660936,-0.02493494018993514,-0.08054187161074716,0.9996830859069126,-0.008742635241041099,0.0032558435771835987,-0.02338147906518141
1107.6333333326547,-0.031088592,-0.78412986,0.01714491,-2.3528686,-0.035871886,1.5768491,0.7485374,0.039999858,0.04,0.00485617400332039,0.019324966546721556,0.001160903335462038,-0.031064205023117755,-0.02496286684815694,-0.08189497846568272,0.999663552947004,-0.009013731594042899,0.003346659689285016,-0.024090110440735862
1107.6499999993214,-0.03201777,-0.78412056,0.017653538,-2.3527665,-0.0369412,1.5770241,0.74742377,0.03999985,0.04,0.004186369851577609,0.019285617960382306,0.0012928675610091034,-0.03157330388766709,-0.024984292165213827,-0.08324943535652427,0.9996431058989901,-0.009289281278559961,0.0034373880845015923,-0.0248103697091489
1107.666666665988,-0.03296176,-0.7841111,0.01817027,-2.3526626,-0.038027547,1.5772017,0.7462922,0.03999985,0.04,0.0058206163491059115,0.019244772670525684,0.0013689521564330676,-0.032081583421542645,-0.025002443962994954,-0.08460124340463623,0.9996217138905842,-0.00956939899687512,0.0035282925568937357,-0.0255422566137527
1107.6833333326547,-0.0339205,-0.7841016,0.018695079,-2.3525562,-0.039130915,1.5773822,0.7451428,0.039999854,0.04,0.006968529309792082,0.01917936957280056,0.0016082465677191848,-0.032587568127990366,-0.025011564508977648,-0.0859523330823589,0.9995993465575459,-0.00985401668467969,0.003619760581220727,-0.026285776576693363
1107.6999999993213,-0.03489395,-0.7840921,0.019227948,-2.3524487,-0.04025118,1.5775654,0.743976,0.039999858,0.04,0.0049532438928467926,0.019064374918139476,0.0009474489119254415,-0.03309220942038723,-0.025009305829076237,-0.08729452186273333,0.9995759800171413,-0.010143010577805221,0.0037110801806732783,-0.027040846752322666
1107.716666665988,-0.03588206,-0.78408235,0.019768856,-2.35234,-0.041388318,1.5777516,0.7427916,0.039999854,0.04,0.004758227672274629,0.019013633245625744,0.0012487786003267942,-0.03359605081056529,-0.025000473093311493,-0.08863625948182444,0.9995515842507822,-0.010436466464548606,0.0038021574046641178,-0.0278074484366293
1107.7333333326546,-0.036884796,-0.7840725,0.020317772,-2.3522298,-0.042542282,1.5779403,0.7415897,0.03999985,0.04,0.005335276735807248,0.018957269621888706,0.000815414966948147,-0.03409822538144028,-0.024984777606935897,-0.0899727753650372,0.99952613046657,-0.010734324640221256,0.003892930630744524,-0.028585553696714755
1107.7499999993213,-0.03790209,-0.78406245,0.020874666,-2.3521175,-0.043713022,1.578132,0.74037033,0.039999843,0.04,0.006570198020239282,0.018859131622873948,0.0015408097517877195,-0.03459909679464725,-0.024963055117375267,-0.09130651776914396,0.9994995859212206,-0.011036645581995254,0.003983841856305938,-0.02937514598551342
1107.766666665988,-0.03893391,-0.78405225,0.021439504,-2.3520033,-0.04490048,1.5783262,0.7391336,0.039999835,0.04,0.006202384369302649,0.018808343354864004,0.0009637658655137216,-0.0350977662183676,-0.024929456389783874,-0.09263760808584035,0.9994719230201262,-0.01134334137196243,0.004074531285985452,-0.030176180934133708
1107.7833333326546,-0.03998018,-0.78404206,0.022012267,-2.3518882,-0.046104584,1.5785233,0.7378795,0.039999828,0.04,0.00488410987353749,0.018689944030300665,0.0006937606113588402,-0.03559480653606961,-0.024887467790074294,-0.09396258937893094,0.9994431123938958,-0.011654456785072834,0.004164696180252607,-0.030988611314055673
1107.7999999993212,-0.04104085,-0.7840317,0.022592902,-2.3517716,-0.04732525,1.578723,0.73660827,0.03999982,0.04,0.005480943405133942,0.018618905615293974,0.0007804405999456421,-0.036089437834250324,-0.02483889624079519,-0.09528184599929743,0.999413125118679,-0.011969908670050792,0.004254304295928412,-0.0318123800100523
1107.816666665988,-0.042115852,-0.78402126,0.023181384,-2.3516536,-0.04856241,1.5789254,0.73531973,0.039999813,0.04,0.00571342316957324,0.018510198459635585,0.0007523035976175763,-0.03658268214416009,-0.024782618772067968,-0.09659766128086728,0.9993819288876445,-0.01228978334019108,0.004343406939417124,-0.03264745402663053
1107.8333333326545,-0.043205094,-0.7840105,0.023777675,-2.3515337,-0.049815957,1.5791305,0.7340141,0.039999813,0.04,0.006320821711836011,0.018349103374326603,0.0010529428573047284,-0.037072688924636284,-0.024719066987190313,-0.09790643734175906,0.9993494936683962,-0.012614029605808723,0.004432061272773394,-0.03349376949073068
1107.8499999993212,-0.044308502,-0.7839997,0.02438174,-2.3514113,-0.05108585,1.5793382,0.73269147,0.039999805,0.04,0.007319932463767387,0.01825469400907609,0.0009332845414489199,-0.03756002384011362,-0.024644257758830147,-0.09921204367636707,0.9993157871530373,-0.012942603925695826,0.004520410346967975,-0.0343513091544267
1107.8666666659879,-0.045426026,-0.7839887,0.02499353,-2.3512878,-0.052371953,1.5795486,0.7313521,0.039999805,0.04,0.0054217362623454335,0.018161253447050718,0.000536049910260239,-0.038044856948790055,-0.02455857411610397,-0.10050881763921807,0.9992807833984733,-0.013275412701689839,0.004607915804481497,-0.03521997245984339
1107.8833333326545,-0.046557575,-0.7839775,0.025612997,-2.3511634,-0.053674214,1.5797615,0.7299957,0.039999794,0.04,0.004867116516416026,0.018068157628259307,0.0002744191074377511,-0.03852760008369939,-0.024464523533184995,-0.10180096851610843,0.9992444509053262,-0.013612607121208676,0.004694208489209941,-0.03609970455469652
1107.8999999993212,-0.04770306,-0.7839662,0.026240103,-2.3510373,-0.054992497,1.5799772,0.7286226,0.03999979,0.04,0.006357477560992031,0.017883000044806308,0.0006496315937187802,-0.03900680990861964,-0.024366581735930124,-0.10308478038296642,0.999206757212668,-0.013954098315556744,0.00477976200329785,-0.03699044952329853
1107.9166666659878,-0.048862405,-0.7839546,0.026874792,-2.3509095,-0.05632672,1.5801954,0.72723293,0.03999978,0.04,0.006247828151839663,0.01778818326760162,0.0005797621702718914,-0.03948277085021706,-0.02425673279782049,-0.10436329576410003,0.9991676727917804,-0.014299819761808602,0.0048643928542781555,-0.03789214278444403
1107.9333333326545,-0.050035495,-0.783943,0.027517019,-2.3507795,-0.05767681,1.5804163,0.72582674,0.039999772,0.04,0.007324359267890657,0.0176297210642426,0.0006376950579589646,-0.039955474031671975,-0.024138668871399493,-0.10563446939832921,0.9991271636466798,-0.014649777197160253,0.004948361678529053,-0.0388047498138166
1107.949999999321,-0.05122226,-0.78393126,0.02816673,-2.3506484,-0.059042633,1.58064,0.72440434,0.03999976,0.04,0.005727824259893488,0.0175178721348368,0.00029255504399028354,-0.04042494211719231,-0.02400773070047486,-0.10689778850688497,0.9990852038948503,-0.015003853741166685,0.005031160333564004,-0.03972816578948815
1107.9666666659878,-0.052422617,-0.78391933,0.02882388,-2.3505163,-0.06042409,1.5808659,0.72296554,0.039999753,0.04,0.005160107981905249,0.017393993648343042,-0.00017954577724577092,-0.04089201637668513,-0.02386934758697747,-0.10815247180929222,0.9990417631867132,-0.015362163510187184,0.0051123302847209656,-0.04066230957691984
1107.9833333326544,-0.053636435,-0.7839074,0.029488413,-2.3503828,-0.061821047,1.5810944,0.7215103,0.039999746,0.04,0.006349914337544504,0.017188096462167346,0.00014485587769286212,-0.04135486927458455,-0.02372478974406992,-0.10939887761568123,0.9989968061704471,-0.015724781170022337,0.005192309046271574,-0.041607120125878944
1107.999999999321,-0.054863628,-0.7838954,0.03016027,-2.3502476,-0.063233405,1.5813255,0.7200394,0.03999974,0.04,0.006685640040382523,0.01705987359564287,0.00026859871247175704,-0.041812796539763414,-0.02357011861050412,-0.11063913543040539,0.9989503071273043,-0.016091318031582688,0.005271105000868395,-0.042562528429836564
1108.0166666659877,-0.05610406,-0.7838833,0.030839393,-2.35011,-0.06466104,1.5815591,0.7185528,0.039999735,0.04,0.007956612762849424,0.016855643895716255,0.00032358185271252893,-0.04226851451946228,-0.023405277495612387,-0.11186815896062877,0.998902231723303,-0.016461867937676993,0.00534891678967929,-0.043528467138004734
1108.0333333326544,-0.057357673,-0.7838711,0.03152572,-2.3499715,-0.0661038,1.5817951,0.71705043,0.039999723,0.04,0.005609456492905451,0.016758040896121262,-0.00026391194609676205,-0.04272119457611647,-0.023226741792886658,-0.11308867705808617,0.9988525536250018,-0.016836489908189478,0.005425020507272329,-0.04450480734572405
1108.049999999321,-0.058624327,-0.78385884,0.03221919,-2.3498323,-0.0675616,1.5820335,0.7155323,0.03999973,0.04,0.005157956257706431,0.016599642468484443,-0.0004677108568440502,-0.04316967813767055,-0.023041285439743524,-0.1142972806358078,0.9988012426177741,-0.01721520603308998,0.005499141300682576,-0.04549147031459327
1108.0666666659877,-0.0599039,-0.7838464,0.032919753,-2.3496919,-0.06903427,1.5822743,0.71399856,0.039999712,0.04,0.005963290330734949,0.016377835873068736,-0.00026923301927883614,-0.04361384571294991,-0.0228504088082602,-0.1154997006733278,0.9987482671871021,-0.01759799968816,0.005571423455193086,-0.04648836885092363
1108.0833333326543,-0.061196297,-0.7838338,0.033627316,-2.3495493,-0.0705217,1.5825177,0.71244943,0.039999705,0.04,0.007796898090361992,0.016240703518721755,0.0002376986087959665,-0.04405324142427601,-0.02265188174944102,-0.11669199664054382,0.9986935938622099,-0.01798476326060195,0.005642429415621121,-0.047495440405718646
1108.099999999321,-0.06250139,-0.78382087,0.03434184,-2.3494048,-0.07202376,1.5827638,0.7108849,0.0399997,0.04,0.007182687068518767,0.016055925784133618,0.0002272675144077141,-0.044487961318124596,-0.02243854957962925,-0.11787308959964192,0.9986371922744193,-0.018375554962578134,0.005711853617493425,-0.0485125954194798
1108.1166666659876,-0.063819066,-0.78380775,0.035063256,-2.3492594,-0.07354025,1.5830117,0.70930547,0.03999969,0.04,0.0055707372456970106,0.015843290468940674,-0.0008650611445171208,-0.04491726321148203,-0.022214289250139567,-0.11904348567397616,0.9985790430369207,-0.01877019831118741,0.005778897538578294,-0.049539669014487295
1108.1333333326543,-0.06514916,-0.7837946,0.035791487,-2.349113,-0.075071104,1.5832621,0.7077111,0.039999682,0.04,0.0059222296350913695,0.015689393917375782,-0.0006268288576194436,-0.04534296616662438,-0.0219850041577365,-0.12020236035046211,0.9985191115839803,-0.01916872414029077,0.005843792356313897,-0.050576614232945426
1108.149999999321,-0.06649156,-0.78378123,0.036526468,-2.3489654,-0.076616116,1.5835149,0.706102,0.039999664,0.04,0.006287244792191338,0.01546184306645132,-0.00040887337995343387,-0.04576374081629375,-0.021748762512270384,-0.12135268288535497,0.9984573696357356,-0.019571082508794406,0.005906597119889379,-0.051623307332883804
1108.1666666659876,-0.06784615,-0.7837678,0.03726811,-2.3488162,-0.07817518,1.5837699,0.70447826,0.03999966,0.04,0.007177498360055878,0.015319379290038015,-0.0005839665758955448,-0.046179803824229385,-0.021502743456520597,-0.1224898823887702,0.9983937860554257,-0.019977256019300924,0.005967365392571032,-0.052679671203642246
1108.1833333326542,-0.06921279,-0.7837544,0.03801635,-2.3486652,-0.07974808,1.5840273,0.7028401,0.039999653,0.04,0.007372730419974438,0.015050041479870713,-0.0004826951300662685,-0.04659069688604224,-0.021246303971708017,-0.12361459679133771,0.9983283328813887,-0.02038718053587262,0.006026188830237715,-0.053745582927785626
1108.1999999993209,-0.07059134,-0.7837407,0.038771134,-2.3485126,-0.0813347,1.5842867,0.7011877,0.039999638,0.04,0.006979091311865027,0.014868631650774566,-0.0006160725751547247,-0.046996612228476446,-0.020978532937314238,-0.12472998219906459,0.998260983654099,-0.020800815994300975,0.006082679654736516,-0.05482094103661268
1108.2166666659875,-0.07198168,-0.783727,0.039532367,-2.348359,-0.0829349,1.5845486,0.699521,0.039999638,0.04,0.006299665438103119,0.014723210215118743,-0.0007934970938316965,-0.04739732833417436,-0.020702297873829347,-0.12582969494379306,0.9981917084974734,-0.02121820440482009,0.0061368022945253314,-0.055905639664779606
1108.2333333326542,-0.073383644,-0.7837133,0.040299967,-2.3482049,-0.08454851,1.5848126,0.69784045,0.03999962,0.04,0.005825861210451144,0.014484493446391411,-0.0011994288788175211,-0.04779230337332276,-0.020415725144683844,-0.12692100400610212,0.9981204847568221,-0.02163922362782049,0.0061882073848600165,-0.05699954384864384
1108.2499999993208,-0.074797094,-0.78369945,0.041073874,-2.3480494,-0.08617532,1.5850787,0.69614613,0.03999961,0.04,0.006516584504812073,0.014227457897596218,-0.0010501435419252303,-0.048182283448065966,-0.02012326336318648,-0.1279962562755316,0.9980472848929276,-0.022063851826025216,0.00623695570323876,-0.05810252958357848
1108.2666666659875,-0.07622187,-0.7836856,0.04185399,-2.3478925,-0.087815166,1.5853472,0.6944383,0.039999604,0.04,0.007225896079088301,0.01399473996859385,-0.0007919196360672842,-0.04856684036224574,-0.0198221317026841,-0.1290586360850896,0.9979720795987818,-0.022492022880437706,0.006283349407189961,-0.059214497956630224
1108.2833333326541,-0.077657856,-0.7836715,0.042640235,-2.347734,-0.08946789,1.5856174,0.69271684,0.039999593,0.04,0.007154396839359478,0.013840294788898533,-0.0009989345684635609,-0.04894571229793995,-0.019510457512560947,-0.13010969994321062,0.9978948436714102,-0.022923782988236382,0.006326997746225665,-0.060335315090247824
1108.2999999993208,-0.07910489,-0.78365713,0.043432537,-2.3475738,-0.091133334,1.5858899,0.6909823,0.039999582,0.04,0.007427775880364251,0.013589887603573936,-0.000717487461243671,-0.04931839549936214,-0.019189724714339596,-0.131147341916273,0.9978155508045966,-0.023358964973205373,0.006368121496498054,-0.061464887183707885
1108.3166666659874,-0.080562815,-0.78364277,0.0442308,-2.3474126,-0.09281134,1.5861644,0.6892347,0.039999582,0.04,0.006401204216088807,0.013393906820671764,-0.0014686029612409612,-0.04968561456621098,-0.018857813554883973,-0.13217082595673568,0.9977341783561465,-0.02379758123024612,0.006406246631209649,-0.06260307078470767
1108.333333332654,-0.08203147,-0.7836282,0.045034945,-2.347251,-0.094501674,1.5864408,0.68747425,0.039999567,0.04,0.005464168722890683,0.013148337681898048,-0.0015150049496925888,-0.05004734308823734,-0.018519039783528018,-0.1331805606985974,0.997650706536789,-0.024239577831463806,0.006441056575934869,-0.06374969335913351
1108.3499999993207,-0.08351071,-0.7836136,0.045844883,-2.347088,-0.0962042,1.5867193,0.6857011,0.039999556,0.04,0.006871058011959086,0.012920905139911232,-0.0013137186592571126,-0.05040324089100522,-0.018175887091987742,-0.13417818083019864,0.9975651041532684,-0.0246849585122454,0.0064729097470912185,-0.06490467809282814
1108.3666666659874,-0.08500034,-0.78359896,0.04666052,-2.346924,-0.09791875,1.5869999,0.6839154,0.039999545,0.04,0.0069559831444854225,0.01267559535366447,-0.0012585615749571843,-0.05075263561985652,-0.017822505268397196,-0.135160398785393,0.9974773464090135,-0.025133669646572272,0.006501816429428335,-0.06606790774686061
1108.383333332654,-0.086500205,-0.7835842,0.04748178,-2.3467586,-0.09964507,1.5872824,0.6821175,0.039999537,0.04,0.007254602066275595,0.012367924975652256,-0.0013265433667530857,-0.0510955389301533,-0.017460138537963573,-0.13612937564804195,0.9973874146161742,-0.025585578589620683,0.006527705795260472,-0.0672392176527119
1108.3999999993207,-0.08801019,-0.78356946,0.04830857,-2.3465917,-0.10138304,1.5875669,0.68030757,0.03999954,0.04,0.007502665204306425,0.012227528752592476,-0.0014734265935345547,-0.05143246214022499,-0.017088468924654217,-0.13708036449472327,0.9972952820390037,-0.026040671083776435,0.006550609445141815,-0.06841851641294174
1108.4166666659873,-0.08953008,-0.78355455,0.049140804,-2.3464239,-0.10313241,1.5878531,0.67848545,0.039999526,0.04,0.006412997629334782,0.011910956400759676,-0.0016484594607346637,-0.051763169932567236,-0.01670656400817572,-0.138017643326689,0.9972009289815658,-0.02649906957748422,0.006570060329269152,-0.06960560937955752
1108.433333332654,-0.09105973,-0.7835396,0.049978375,-2.3462548,-0.10489301,1.5881412,0.67665184,0.039999522,0.04,0.007033737769424064,0.011697425897830294,-0.0015629943165729188,-0.05208633892472095,-0.016317755145222147,-0.13894060021971022,0.9971043376952191,-0.0269604777811492,0.006586264736400798,-0.07080037785218941
1108.4499999993207,-0.09259896,-0.78352463,0.050821207,-2.3460855,-0.106664635,1.5884312,0.6748068,0.039999515,0.04,0.005503709088472419,0.011457818790824859,-0.0020329337419466853,-0.052403797881679426,-0.015920714208499095,-0.13984452246870505,0.997005489783738,-0.02742494337301154,0.006598728036812082,-0.07200265696744801
1108.4666666659873,-0.09414761,-0.7835094,0.051669188,-2.345915,-0.108447105,1.5887226,0.6729504,0.0399995,0.04,0.006640511873579058,0.01122271361304883,-0.0019191264245765893,-0.05271463472577333,-0.015519119514981167,-0.14073546125922004,0.9969043655236398,-0.027892422626908896,0.006607435506621015,-0.07321229784631078
1108.483333332654,-0.09570549,-0.78349394,0.05252222,-2.3457434,-0.110240206,1.589016,0.67108315,0.03999948,0.04,0.0070449595968913314,0.010938415273029078,-0.0014860135322258827,-0.053019206734064156,-0.015110708519210578,-0.14161048391561262,0.9968009435715478,-0.028362758373930392,0.006612771238896776,-0.07442918841984081
1108.4999999993206,-0.0972724,-0.78347844,0.05338024,-2.3455703,-0.11204377,1.589311,0.66920495,0.039999478,0.04,0.00750528209900736,0.010628123169492687,-0.0017387567737614518,-0.05331761577053917,-0.01469412407207528,-0.14246672923236883,0.9966951984095308,-0.028836063283587125,0.0066146821981267175,-0.0756532147440474
1108.5166666659873,-0.09884821,-0.7834629,0.05424312,-2.3453963,-0.113857545,1.5896078,0.667316,0.039999463,0.04,0.006753025729611117,0.010421898360413184,-0.0018839303918882777,-0.05360835170001055,-0.014268593278242486,-0.14330994996319668,0.9965871172947525,-0.029312261387589755,0.006612954145468086,-0.07688418440713808
1108.533333332654,-0.10043276,-0.78344727,0.055110764,-2.3452215,-0.11568134,1.5899062,0.6654165,0.039999455,0.04,0.006294941243067953,0.010224088183125035,-0.0021898396999731062,-0.05389181081647144,-0.01383566608066181,-0.14413490473073343,0.9964766850893737,-0.029791324284453507,0.006607307675977734,-0.07812193389789256
1108.5499999993206,-0.10202581,-0.78343153,0.055983078,-2.3450456,-0.117514946,1.5902059,0.663507,0.03999945,0.04,0.006992827493457199,0.009846060808696433,-0.002137150590897363,-0.05416782662308731,-0.013396998102765881,-0.14494145626710175,0.9963638901770276,-0.030273003865266615,0.0065978174663319945,-0.07936631774849054
1108.5666666659872,-0.103627205,-0.78341573,0.056859966,-2.344869,-0.119358145,1.5905076,0.6615874,0.039999437,0.04,0.006506087510338432,0.009633389822974459,-0.0018724910486156432,-0.05443806238067495,-0.012951550080748584,-0.14573294333660647,0.9962487091133364,-0.030757430774704952,0.0065845826981131925,-0.08061720233822085
1108.5833333326539,-0.10523674,-0.78339994,0.057741318,-2.3446918,-0.12121075,1.5908107,0.6596581,0.039999418,0.04,0.005951529507020048,0.009365730624444346,-0.0025532230583769078,-0.05470025401802083,-0.012498476839426658,-0.14650971956352582,0.9961311343160936,-0.03124449934893084,0.006567131407751791,-0.08187439948873351
1108.5999999993205,-0.10685422,-0.783384,0.05862703,-2.3445137,-0.1230725,1.5911154,0.65771914,0.03999941,0.04,0.00677214275197624,0.0090487044636961,-0.0020302207786926374,-0.05495567537545837,-0.012040947269995505,-0.14726499407547236,0.9960111474273424,-0.03173418707784626,0.00654578970532867,-0.08313776643686342
1108.6166666659872,-0.1084795,-0.78336805,0.05951701,-2.3443344,-0.1249432,1.5914215,0.6557709,0.039999396,0.04,0.0071913469443352085,0.008800333112385372,-0.0021599818337936227,-0.055202979143411456,-0.01157650959040134,-0.14800461871591403,0.9958887359556183,-0.032226372033843646,0.006520560248761861,-0.08440716104868867
1108.6333333326538,-0.11011236,-0.78335196,0.06041117,-2.3441541,-0.12682265,1.5917287,0.65381366,0.039999377,0.04,0.006617144058296276,0.008514628302275229,-0.0024993460780997623,-0.05544357512641211,-0.01110501228684175,-0.14872734087417,0.9957638918058006,-0.03272097137190212,0.006491094059460861,-0.08568241071629772
1108.6499999993205,-0.111752644,-0.78333586,0.06130937,-2.3439732,-0.12871063,1.5920376,0.6518474,0.03999937,0.04,0.006556457567663543,0.00829784263795541,-0.002252444255312902,-0.05567680483671915,-0.010628891227356234,-0.1494323028364224,0.9956365974539778,-0.033218042153783545,0.006457593007722787,-0.08696336572535561
1108.6666666659871,-0.1134001,-0.7833197,0.06221152,-2.3437912,-0.13060687,1.5923479,0.6498726,0.039999362,0.04,0.006829943826103246,0.007914687392099329,-0.002291483186200871,-0.055901944227708174,-0.010145097155234511,-0.15011667460898376,0.9955068461702399,-0.03371745311991999,0.006420017337812907,-0.08824984963539972
1108.6833333326538,-0.11505458,-0.78330356,0.063117504,-2.3436089,-0.13251115,1.5926594,0.6478893,0.039999343,0.04,0.006009250785776743,0.007694842973454685,-0.002719900224645855,-0.05611970447916706,-0.009655791410622679,-0.15078543978411307,0.9953746330625622,-0.034219178729992326,0.006378015478318546,-0.08954165835616873
1108.6999999993204,-0.11671587,-0.78328717,0.064027235,-2.3434255,-0.13442333,1.5929722,0.645898,0.039999325,0.04,0.0066216824333720226,0.007438447992932917,-0.0022959892105545165,-0.05632985052366111,-0.009162997834156663,-0.15143785580950095,0.9952399449853541,-0.034723085775269634,0.006331750963715917,-0.09083869301969386
1108.716666665987,-0.118383765,-0.7832707,0.0649406,-2.3432415,-0.13634312,1.5932862,0.6438985,0.03999932,0.04,0.006375992635865302,0.00709542590959511,-0.002592207345974984,-0.056532865398762316,-0.008663389114050502,-0.1520676077192386,0.9951027714978489,-0.03522929273724474,0.00628110583330837,-0.0921407553694035
1108.7333333326537,-0.120058104,-0.78325427,0.06585747,-2.3430572,-0.1382703,1.5936013,0.64189136,0.039999302,0.04,0.005631269539474459,0.006909208225197583,-0.0028440251961470153,-0.05672694869203369,-0.008160894271793936,-0.15268114577065653,0.9949631154674532,-0.03573757023145273,0.006225870290641109,-0.09344765097302082
1108.7499999993204,-0.12173867,-0.7832378,0.06677777,-2.342872,-0.14020474,1.593918,0.63987684,0.039999288,0.04,0.006959130943506864,0.006583617173402945,-0.0023654613545920355,-0.05691383002589834,-0.007653923135826345,-0.15327522351373937,0.9948209566706382,-0.03624787724982561,0.006166499863594924,-0.09475932589054141
1108.766666665987,-0.123425245,-0.78322124,0.06770136,-2.342686,-0.1421461,1.5942354,0.6378551,0.03999927,0.04,0.006202145803735348,0.006260290524223722,-0.0028317228064400624,-0.05709255120117373,-0.007140928645884113,-0.15385155068906925,0.9946763040723772,-0.036760165156130856,0.006102517589103754,-0.09607548934918159
1108.7833333326537,-0.12511764,-0.7832047,0.06862815,-2.342499,-0.1440941,1.5945541,0.63582623,0.039999265,0.04,0.006863191811667946,0.005920124598896015,-0.0025372022429026586,-0.05726407788675492,-0.0066255937886299,-0.15440580491766503,0.9945291449716599,-0.03727446541416514,0.006034260921827976,-0.09739600466731009
1108.7999999993203,-0.1268157,-0.78318805,0.06955805,-2.3423119,-0.14604855,1.594874,0.63379073,0.039999247,0.04,0.005611127878735189,0.005705515251053228,-0.0027157412626710453,-0.05742649497403995,-0.00610434510143632,-0.15494367865215122,0.994379483807692,-0.03779058855665611,0.0059614079768277204,-0.09872069293630133
1108.816666665987,-0.12851913,-0.7831714,0.070490874,-2.3421237,-0.14800923,1.5951948,0.63174874,0.039999228,0.04,0.006745641104899391,0.005368921341758481,-0.0027965254618012025,-0.05758147707023316,-0.0055782733416823,-0.1554611832303307,0.9942273162443469,-0.03830851253882263,0.005884102957827181,-0.1000493819721427
1108.8333333326536,-0.13022774,-0.7831548,0.07142655,-2.3419352,-0.14997599,1.5955163,0.62970054,0.039999213,0.04,0.0058938056954893625,0.005156205180548157,-0.0030832338590247588,-0.057728422399685904,-0.005048761330027166,-0.15596197260727163,0.9940726418689655,-0.03882815306293276,0.005802044480753663,-0.10138191898568671
1108.8499999993203,-0.13194141,-0.78313804,0.07236496,-2.3417456,-0.15194847,1.595839,0.62764645,0.039999206,0.04,0.006714666854934492,0.004824948770146276,-0.002456987463284044,-0.05786760610550216,-0.004518018972069358,-0.15643994085837867,0.9939154608098048,-0.0393494072104558,0.005715652649433257,-0.10271812026225105
1108.866666665987,-0.13365982,-0.7831212,0.07330602,-2.341556,-0.15392648,1.5961627,0.6255866,0.03999919,0.04,0.0050590967279440235,0.004497786359608513,-0.003044298758281272,-0.05799943402292548,-0.003980488008172543,-0.15690065548796173,0.9937557777470379,-0.03987230535228122,0.005624367329422964,-0.10405777218650072
1108.8833333326536,-0.13538283,-0.7831043,0.07424959,-2.341366,-0.15590979,1.596487,0.6235212,0.039999172,0.04,0.005722236173300033,0.004250794657542634,-0.0029826495591356306,-0.058122877566034334,-0.003442201607591334,-0.15734081191771404,0.9935935917603639,-0.0403968045498711,0.005528273312759586,-0.10540071531578099
1108.8999999993202,-0.13711022,-0.7830873,0.07519555,-2.341175,-0.1578981,1.5968122,0.6214507,0.03999916,0.04,0.006625710019436681,0.0038847413658893437,-0.0027172418597176673,-0.05823784330409875,-0.0029042595583849695,-0.15775972910647074,0.9934289102220845,-0.040922685258366884,0.005427722126237477,-0.1067467751209687
1108.916666665987,-0.13884181,-0.7830704,0.07614384,-2.340984,-0.15989123,1.5971382,0.619375,0.039999146,0.04,0.00507691860112125,0.003664242486708935,-0.0032626047101969036,-0.05834547373249844,-0.0023601421846663855,-0.15816123166698942,0.9932617304937474,-0.04145011225990249,0.005322219948271938,-0.10809577653650418
1108.9333333326535,-0.14057736,-0.78305334,0.07709428,-2.3407927,-0.16188896,1.5974649,0.6172946,0.03999913,0.04,0.005716585602488777,0.003393820989289198,-0.002857358994812209,-0.05844394321871184,-0.0018163877565770953,-0.15854258128658513,0.9930920632572714,-0.04197884794785532,0.0052120071821006725,-0.10944754543396654
1108.9499999993202,-0.14231661,-0.78303623,0.0780468,-2.340601,-0.16389103,1.5977924,0.6152097,0.039999116,0.04,0.005315385397031136,0.0029951003923250896,-0.003044858116840743,-0.058534725287897944,-0.0012705520930258833,-0.15890221128659304,0.9929199109698672,-0.0425089350623586,0.005096944954643224,-0.1108019042777902
1108.9666666659868,-0.14405942,-0.7830191,0.07900126,-2.340409,-0.16589713,1.5981206,0.61312056,0.0399991,0.04,0.00534733348920291,0.0027413876778376034,-0.0030736401460007556,-0.05861709359720909,-0.0007245533767810293,-0.15924159536931695,0.9927452882965055,-0.043040239121618896,0.0049770830106896854,-0.1121586333108013
1108.9833333326535,-0.14580557,-0.78300196,0.07995756,-2.3402169,-0.16790701,1.5984492,0.6110274,0.039999086,0.04,0.0051756630057742115,0.0024374994227277513,-0.003189068643760784,-0.058690860937139176,-0.00017650829675187538,-0.15956084780764826,0.9925682059540143,-0.04357270104946323,0.004852292998223371,-0.1135175383152016
1108.9999999993202,-0.14755483,-0.7829848,0.08091554,-2.3400242,-0.16992055,1.5987785,0.60893047,0.039999057,0.04,0.005685505090724519,0.0022256777623658186,-0.00302737702067013,-0.05875697103132853,0.0003699935623105756,-0.1598626322050003,0.992388662806484,-0.04410628414154584,0.004722791653017526,-0.11487851353227967
1109.0166666659868,-0.149307,-0.7829675,0.0818751,-2.3398314,-0.17193745,1.5991083,0.6068302,0.03999905,0.04,0.005105212538714099,0.0019159988395606176,-0.003025449102644906,-0.05881445962942646,0.0009180388874720537,-0.16014114573274046,0.9922066789133619,-0.044640829316926395,0.0045884408949561865,-0.11624133897958709
1109.0333333326535,-0.15106183,-0.78295004,0.082836166,-2.3396378,-0.17395742,1.5994389,0.60472655,0.039999027,0.04,0.005860507916555235,0.0014760134198127384,-0.002660675400401047,-0.058864187865462894,0.0014663329898701415,-0.1604004978380516,0.9920222549461175,-0.045176422646522885,0.004449521056962177,-0.11760585993413178
1109.04999999932,-0.15281916,-0.7829326,0.083798565,-2.3394437,-0.17598023,1.5997697,0.60262007,0.039999016,0.04,0.005460111709165716,0.0012930587623638523,-0.0032098875789365877,-0.0589045352808256,0.0020167294249230014,-0.1606380788406439,0.9918354179134937,-0.045712821783265405,0.004305806563455099,-0.11897185266614467
1109.0666666659868,-0.15457872,-0.7829151,0.08476222,-2.3392496,-0.17800565,1.600101,0.60051084,0.039999,0.04,0.004691787648791745,0.0009544590097526617,-0.0031881944354550384,-0.058937134442063346,0.002567800572185922,-0.1608568438537456,0.9916461739818565,-0.046250091930254804,0.004157199958873846,-0.12033915535722559
1109.0833333326534,-0.15634032,-0.7828977,0.08572702,-2.339055,-0.18003343,1.6004325,0.5983992,0.039998986,0.04,0.005460303012139178,0.0006344824788062642,-0.0031745270866023745,-0.05896146194655938,0.0031179511427006992,-0.16105400690002541,0.9914545399853769,-0.04678807478583724,0.0040038877731562155,-0.12170760076067365
1109.09999999932,-0.15810376,-0.7828803,0.086692795,-2.3388605,-0.18206327,1.6007645,0.5962852,0.039998975,0.04,0.004602727175395671,0.00041657791533811217,-0.00313714185409264,-0.058978125385966425,0.003667227920594991,-0.1612289430659773,0.9912605337630488,-0.047326836900675635,0.0038457456389921433,-0.12307694728604823
1109.1166666659867,-0.15986884,-0.7828629,0.08765945,-2.338666,-0.18409495,1.6010966,0.5941693,0.039998952,0.04,0.004447657029871266,0.00011806713474393771,-0.0033619744132629137,-0.05898490151792,0.004216265876204883,-0.161386760446358,0.9910641783474594,-0.04786619424815279,0.0036826458774579848,-0.12444701669391063
1109.1333333326534,-0.16163525,-0.7828455,0.08862687,-2.3384714,-0.18612826,1.6014292,0.5920518,0.039998945,0.04,0.004530013026693425,-0.00024705676599512394,-0.003048674991257272,-0.05898460977709475,0.004762717081156508,-0.16152053015336942,0.9908654843000265,-0.048406118601446654,0.0035148089304208826,-0.12581766896187152
1109.14999999932,-0.16340292,-0.7828281,0.089594945,-2.338276,-0.18816291,1.6017622,0.5899329,0.03999892,0.04,0.00608256765515236,-0.0004960770934536729,-0.0027286152869177016,-0.05897543070965949,0.005307422907658028,-0.1616372126619121,0.9906644674551814,-0.04894645631175548,0.0033426823906983214,-0.12718877234527512
1109.1666666659867,-0.16517147,-0.7828107,0.09056354,-2.3380804,-0.19019869,1.6020952,0.5878127,0.039998896,0.04,0.004317521154995063,-0.0008345340494653186,-0.003233326054896679,-0.05895812120902061,0.005855357371029032,-0.16173166038410772,0.9904611502605438,-0.049487319290486775,0.0031657167902953112,-0.1285600765836941
1109.1833333326533,-0.1669408,-0.7827933,0.09153256,-2.337885,-0.19223534,1.6024284,0.5856918,0.03999889,0.04,0.004264818840482576,-0.0010665739567539134,-0.0032044629210137288,-0.05893178373248053,0.006401101410505244,-0.1618026825782896,0.9902555645501444,-0.05002843856702838,0.0029839765896583588,-0.12993139765173184
1109.19999999932,-0.16871063,-0.7827759,0.092501864,-2.3376894,-0.19427255,1.6027617,0.58357036,0.039998867,0.04,0.0042039371104252155,-0.0014083180888968538,-0.003154683076167508,-0.058897944041195464,0.006942476029110939,-0.16185573126479644,0.9900477338268713,-0.05056979545690777,0.0027975116769335994,-0.1313025302884173
1109.2166666659866,-0.17048079,-0.7827585,0.093471326,-2.337494,-0.19631015,1.603095,0.58144826,0.03999885,0.04,0.004122798842320918,-0.0016207731957290639,-0.003208006402921626,-0.058856149593576546,0.007483781705628335,-0.1618859798937091,0.9898376702464209,-0.05111149376080115,0.002606285096626816,-0.13267331700335358
1109.2333333326533,-0.17225103,-0.78274107,0.09444085,-2.3372984,-0.19834784,1.6034285,0.5793261,0.039998826,0.04,0.004098820943054804,-0.0019820346361665298,-0.0030637725250803882,-0.05880527437337642,0.008020481772498554,-0.16189747643242797,0.9896254065542553,-0.05165331911070358,0.0024104348704714175,-0.13404357176272114
1109.24999999932,-0.17402115,-0.7827237,0.0954103,-2.337103,-0.2003854,1.6037619,0.577204,0.03999881,0.04,0.004076636890859575,-0.0022293264765715914,-0.0031469477853596217,-0.058746407825877006,0.008553797150300461,-0.1618881211863431,0.9894109636297302,-0.05219525582940656,0.002209974922197432,-0.13541313204056177
1109.2666666659866,-0.17579094,-0.7827063,0.09637956,-2.3369074,-0.20242259,1.6040952,0.5750825,0.0399988,0.04,0.003836428277059767,-0.0025149434361548817,-0.003110315394039276,-0.05867882542891913,0.009085150336626074,-0.16185577845246168,0.9891943801638694,-0.05273710067540605,0.0020048689988116106,-0.13678178593975118
1109.2833333326532,-0.17756017,-0.7826889,0.09734854,-2.336712,-0.20445909,1.6044285,0.57296175,0.039998773,0.04,0.003874422846950054,-0.0028720080451849483,-0.0029993825455321144,-0.05860402399469586,0.00961236822532844,-0.16180480378715437,0.9889756808008593,-0.05327883732693605,0.0017952625234465567,-0.13814935870295864
1109.2999999993199,-0.17932856,-0.7826715,0.098317094,-2.3365169,-0.20649475,1.6047616,0.57084185,0.039998762,0.04,0.002926195822050559,-0.003095425953608677,-0.003313993161491169,-0.05852130405556419,0.010138037900565878,-0.16173101854098548,0.9887548903836586,-0.053820523193333934,0.0015808511156980086,-0.13951565838766958
1109.3166666659865,-0.18109597,-0.7826541,0.099285096,-2.3363223,-0.20852922,1.6050943,0.5687232,0.03999874,0.04,0.002798170866613603,-0.0033685515138270894,-0.0033555975764043566,-0.0584301294214429,0.010656201428200236,-0.1616389844095868,0.988532054667067,-0.05436196909225889,0.0013616577407058355,-0.1408804425756689
1109.3333333326532,-0.18286213,-0.78263676,0.100252435,-2.3361278,-0.21056233,1.6054269,0.566606,0.03999873,0.04,0.0037202163445826386,-0.003705478163656961,-0.002960444176203225,-0.05833171978719837,0.011166775048484043,-0.16152533847635775,0.9883071851574621,-0.054903171643830954,0.001138121150613264,-0.14224364375896983
1109.3499999993198,-0.18462692,-0.7826194,0.10121903,-2.3359332,-0.21259381,1.6057593,0.56449044,0.03999871,0.04,0.003535985887692661,-0.003940355220460878,-0.0029649231657824515,-0.058224941888648254,0.011674446930071233,-0.16138964824377952,0.988080318223433,-0.05544403528353968,0.0009102177020087542,-0.1436050667444993
1109.3666666659865,-0.18639001,-0.78260213,0.10218469,-2.3357387,-0.21462336,1.606091,0.56237686,0.03999869,0.04,0.0034031837723880187,-0.0042896486904586695,-0.003193878191720678,-0.05810996482205634,0.012179496261816716,-0.16123471636976067,0.9878514968560526,-0.05598447511520959,0.000677889693333089,-0.14496447554795733
1109.3833333326531,-0.18815127,-0.78258485,0.103149325,-2.335544,-0.21665072,1.6064225,0.5602656,0.039998677,0.04,0.003379392880331622,-0.0045165009312009285,-0.0028465298967939034,-0.05798721271044672,0.012677819645839666,-0.1610587019893472,0.9876207550836891,-0.056524371803083326,0.00044136007409565975,-0.14632171650672976
1109.3999999993198,-0.18991043,-0.7825676,0.10411287,-2.33535,-0.21867569,1.606754,0.5581569,0.03999866,0.04,0.002599069494024775,-0.004869518376227067,-0.0029031009104674155,-0.05785689162916159,0.013173490696249401,-0.1608612401875671,0.9873881211086598,-0.05706373761031471,0.00020055533425295053,-0.1476766329552839
1109.4166666659864,-0.19166735,-0.78255045,0.10507513,-2.335156,-0.22069804,1.6070848,0.5560508,0.039998643,0.04,0.003190474794756426,-0.004956467012218191,-0.003041976341822128,-0.057718487228922644,0.013662218403582362,-0.16064509549912487,0.9871536316671058,-0.05760251168656879,-4.446952747202228e-05,-0.14902904467352637
1109.433333332653,-0.19342174,-0.7825333,0.106036045,-2.3349626,-0.2227175,1.6074154,0.5539478,0.03999862,0.04,0.0019605680806833448,-0.005382952511584493,-0.002837528880461626,-0.05757212348965055,0.014146730506896674,-0.16040726604635733,0.9869173305000498,-0.05814059066909875,-0.00029374743943886796,-0.1503787491228249
1109.4499999993197,-0.19517341,-0.7825162,0.10699547,-2.3347702,-0.22473381,1.6077452,0.55184793,0.03999861,0.04,0.0012570762630836896,-0.005534773997817322,-0.0035365699876610535,-0.05741829668748408,0.014624761109434902,-0.16014887708813988,0.9866792640016968,-0.058677979760174026,-0.0005477171458203802,-0.15172549122103
1109.4666666659864,-0.19692215,-0.78249913,0.10795325,-2.3345778,-0.22674674,1.6080745,0.54975164,0.039998583,0.04,0.003019966011263975,-0.0058711769555575,-0.0026530146965297874,-0.057256843522021955,0.015089938717849721,-0.15987208267166855,0.9864394611810915,-0.059214502196405026,-0.0008055144360346616,-0.15306921081942979
1109.483333332653,-0.19866775,-0.78248215,0.108909324,-2.3343856,-0.22875607,1.6084032,0.54765916,0.039998565,0.04,0.0024153363237466863,-0.006145295228887626,-0.0029343933924730337,-0.05708782182174467,0.015552949622813315,-0.15957355504063472,0.9861979621693889,-0.05975010120346219,-0.0010673512980819404,-0.15440973279015446
1109.4999999993197,-0.20040995,-0.78246516,0.10986355,-2.3341937,-0.23076153,1.6087313,0.54557073,0.03999855,0.04,0.0022933274427483497,-0.006448420782345643,-0.0027330766625865976,-0.056911244395211065,0.016008473360342963,-0.15925483805330592,0.9859548095303725,-0.06028474331860669,-0.0013331027479188877,-0.15574686553507325
1109.5166666659863,-0.20214856,-0.7824482,0.11081581,-2.3340018,-0.23276286,1.6090587,0.5434866,0.039998535,0.04,0.002616557443513301,-0.006716495089398311,-0.0025713614917322047,-0.05672751352200496,0.01645759377333291,-0.15891777898732298,0.9857100432409694,-0.06081835118755155,-0.0016025623603838628,-0.15708045902210377
1109.533333332653,-0.20388336,-0.7824312,0.111766025,-2.3338103,-0.23475984,1.6093854,0.5414069,0.039998516,0.04,0.0016280926678824414,-0.006969326800615461,-0.0028573023681088827,-0.05653570935669459,0.016901643937934592,-0.15855786452711665,0.9854637085925061,-0.06135091006733577,-0.001875995839025994,-0.15841030749489046
1109.5499999993197,-0.2056142,-0.7824142,0.11271404,-2.333619,-0.23675221,1.6097113,0.5393322,0.039998498,0.04,0.001987541588510666,-0.00716450369526167,-0.0026217591659660755,-0.05633641407495364,0.01733688331273006,-0.15817814755708626,0.9852158566033168,-0.06188221072974702,-0.00215311540035245,-0.15973625758313262
1109.5666666659863,-0.20734082,-0.7823973,0.11365976,-2.3334284,-0.23873977,1.6100366,0.53726244,0.039998475,0.04,0.0016015108671219025,-0.007445717900583793,-0.0025835710508959053,-0.05613021366631062,0.017765987897653455,-0.15778101261249672,0.9849665178303362,-0.062412345080694064,-0.0024338778997716943,-0.161058170153145
1109.583333332653,-0.20906302,-0.7823804,0.114603065,-2.3332381,-0.2407222,1.6103609,0.53519785,0.039998457,0.04,0.0013260748607191175,-0.007746151594856254,-0.0028524206944435804,-0.05591664171759376,0.018187474128606777,-0.15736132116715223,0.9847157537993542,-0.06294121714058526,-0.0027184071029613356,-0.16237579150555007
1109.5999999993196,-0.21078056,-0.7823636,0.11554384,-2.333048,-0.24269928,1.6106843,0.5331389,0.039998442,0.04,0.0017360921540365837,-0.008039971534834489,-0.002499068968564444,-0.05569522428983407,0.018599173219852754,-0.1569240450474414,0.9844636032486219,-0.06346870709845474,-0.003006358819657666,-0.16368903110666258
1109.6166666659863,-0.21249327,-0.7823468,0.11648199,-2.332859,-0.24467078,1.6110069,0.53108585,0.039998427,0.04,0.0003314322912117973,-0.00819162257640893,-0.00267743320834235,-0.05546709023282663,0.019004507832551025,-0.1564646046299613,0.9842101275212632,-0.06399471340039584,-0.0032980023203500724,-0.16499765065622873
1109.633333332653,-0.21420096,-0.78233004,0.11741736,-2.3326707,-0.24663648,1.6113284,0.5290388,0.039998405,0.04,0.0006404497576273371,-0.008386735806681367,-0.0027330525123048233,-0.055232492502593766,0.019399415581761798,-0.15598944103113183,0.9839553682525967,-0.06451924146781612,-0.00359322683998247,-0.16630150176168204
1109.6499999993196,-0.21590337,-0.7823134,0.11834985,-2.3324823,-0.24859618,1.6116488,0.526998,0.039998382,0.04,0.0018556640340339214,-0.0087617738524004,-0.002391868935913699,-0.054990568223345915,0.019783796633841257,-0.15549423428403952,0.9836993610880145,-0.06504219648769125,-0.003891544088008801,-0.16760052373337017
1109.6666666659862,-0.21760035,-0.78229684,0.11927937,-2.332295,-0.2505496,1.6119684,0.5249637,0.03999837,0.04,0.00011509793678143865,-0.00889959385166339,-0.0024842221038268164,-0.054742020021860634,0.020161668252017408,-0.15497627852087217,0.9834421638929581,-0.06556356823830382,-0.004193228785535324,-0.16889448075573543
1109.6833333326529,-0.21929166,-0.78228027,0.1202058,-2.332108,-0.25249657,1.6122868,0.52293617,0.03999835,0.04,0.0006514759351983201,-0.009176160812446321,-0.0024361367123582056,-0.05448622793548895,0.02052992584735082,-0.15444326371819034,0.983183829743915,-0.06608323008581705,-0.004498134942379098,-0.17018322600524785
1109.6999999993195,-0.22097717,-0.78226376,0.12112901,-2.3319223,-0.25443676,1.6126044,0.5209156,0.039998326,0.04,-0.0005095506928398663,-0.009309235720639242,-0.0024307268505996404,-0.054223700980948045,0.020889498617316885,-0.15389106936844302,0.9829244147453556,-0.06660116974114501,-0.004806306407484737,-0.17146655214743425
1109.7166666659862,-0.22265653,-0.78224725,0.122048914,-2.331738,-0.25636995,1.6129208,0.5189025,0.03999831,0.04,-0.0012175282981807811,-0.009693375624975076,-0.0026204534490315012,-0.05395474246671273,0.0212372949652599,-0.15331766116648524,0.9826639820727452,-0.06711730408916039,-0.005117919470461427,-0.17274424079844916
1109.7333333326528,-0.22432972,-0.7822308,0.12296541,-2.3315537,-0.25829586,1.6132357,0.5168968,0.039998293,0.04,0.0011332323515578224,-0.009910863387674329,-0.002225329541039045,-0.05367960881460213,0.021571046404372123,-0.1527274748778623,0.9824025723316101,-0.0676314892262009,-0.005432277984126918,-0.17401625756573713
1109.7499999993195,-0.22599642,-0.7822145,0.12387834,-2.3313696,-0.2602143,1.6135496,0.5148987,0.039998274,0.04,0.0008794577442294838,-0.01020614440131462,-0.002032086917136411,-0.05339817155088126,0.021897686013553064,-0.15211966264899812,0.9821402282812626,-0.06814376631251944,-0.005749149226964332,-0.17528247598530866
1109.7666666659861,-0.22765642,-0.78219825,0.12478762,-2.331186,-0.2621251,1.6138619,0.5129088,0.039998252,0.04,1.2143589334101534e-05,-0.010360635832062925,-0.002277195764954776,-0.053109344797687266,0.022217418855101454,-0.15149221347123795,0.9818770195885748,-0.06865392242528813,-0.006068831386587443,-0.1765427048197726
1109.7833333326528,-0.22930954,-0.782182,0.12569317,-2.3310032,-0.2640281,1.6141735,0.5109271,0.039998244,0.04,-0.00021061746227069023,-0.010565853585553509,-0.0016733230303378477,-0.05281539455570106,0.02252582688111318,-0.15084588482751204,0.9816129719688658,-0.0691621001448527,-0.006390947715083171,-0.17779688679306832
1109.7999999993194,-0.23095566,-0.7821658,0.1265949,-2.330821,-0.26592302,1.6144836,0.50895387,0.039998226,0.04,-0.0004743164209397577,-0.01075618968523484,-0.0022891195421204102,-0.052513857179224785,0.02282616013844746,-0.15018185151016905,0.9813481643114041,-0.06966806580397053,-0.006715718193304589,-0.1790447992512465
1109.816666665986,-0.2325945,-0.7821497,0.1274926,-2.33064,-0.26780954,1.6147921,0.5069893,0.039998204,0.04,-0.0015750228001820687,-0.010945409371154735,-0.0023125179083649527,-0.05220675905455612,0.02311616749199326,-0.14950004026004257,0.9810826707436693,-0.07017184932240807,-0.007043300065563323,-0.18028615213967092
1109.8333333326527,-0.23422593,-0.78213364,0.12838629,-2.3304598,-0.2696874,1.6150992,0.5050336,0.039998185,0.04,-0.0006820185832090431,-0.011323473065105727,-0.002004106626651847,-0.05189430588007249,0.023391623986682267,-0.14880084257326565,0.9808165307358482,-0.07067338276133689,-0.007373232492200133,-0.1815209118723806
1109.8499999993194,-0.23584971,-0.78211784,0.12927577,-2.3302803,-0.2715566,1.6154051,0.503087,0.039998163,0.04,-0.0005326143122541538,-0.011395868129099318,-0.0018486227924441323,-0.051575479305473966,0.0236574149940685,-0.14808262559565347,0.9805497823168198,-0.07117263161250471,-0.007705239030433702,-0.18274903611037746
1109.866666665986,-0.2374657,-0.7821021,0.13016096,-2.330103,-0.2734167,1.6157093,0.50114983,0.039998148,0.04,-0.0035262000443569974,-0.011488415712346267,-0.002552841453029586,-0.051250083661637476,0.023914151002442825,-0.14734599329784645,0.9802825329546734,-0.07166946980465377,-0.008040178001387177,-0.18397010142845377
1109.8833333326527,-0.23907366,-0.78208643,0.13104178,-2.3299263,-0.27526763,1.6160121,0.4992223,0.039998125,0.04,-0.0010525162573493674,-0.011856081380606787,-0.0017168970693148822,-0.05092067921339556,0.02415252613859526,-0.14659451794675168,0.980014801516114,-0.07216386047974309,-0.008377130212631263,-0.18518420488635767
1109.8999999993193,-0.24067342,-0.7820708,0.13191812,-2.3297498,-0.2771091,1.6163133,0.49730456,0.0399981,0.04,-0.0004005226494463443,-0.01215114211105539,-0.0015242242472179868,-0.05058524998592861,0.02438134723284785,-0.14582658225077394,0.9797466482685016,-0.07265574728336996,-0.008715793352295423,-0.18639120832156272
1109.916666665986,-0.24226479,-0.7820552,0.1327899,-2.3295739,-0.27894104,1.6166131,0.4953969,0.039998077,0.04,-0.0009050802043830686,-0.012224839919910968,-0.001415970035423264,-0.05024363428722714,0.024601613308121825,-0.14504319304222668,0.9794781172275101,-0.07314505537442663,-0.009056140473740027,-0.18759105806632712
1109.9333333326526,-0.24384764,-0.78203964,0.13365696,-2.3293986,-0.28076303,1.6169114,0.49349937,0.039998062,0.04,-0.001465274772316505,-0.012448013671589875,-0.0015538293885564158,-0.0498965198511708,0.024811615140416313,-0.14423983367910628,0.9792092912201734,-0.0736317896564276,-0.009398188419921882,-0.18878346748192978
1109.9499999993193,-0.24542172,-0.7820242,0.13451922,-2.3292246,-0.28257498,1.6172078,0.4916124,0.039998043,0.04,-0.002425155185070693,-0.01257101430306995,-0.0019495552602277755,-0.04954306425987137,0.0250122034316978,-0.14341940445152154,0.9789402389053081,-0.07411577812291051,-0.00974216867142252,-0.189968287445119
1109.966666665986,-0.24698688,-0.7820088,0.13537659,-2.3290515,-0.28437665,1.6175027,0.48973614,0.03999803,0.04,-0.0020401196783925712,-0.012821251040850967,-0.0013723327008774433,-0.04918562779102896,0.025198867318802845,-0.14258222584621152,0.9786710043480183,-0.0745970520923487,-0.010087645212300182,-0.1911454537299891
1109.9833333326526,-0.24854293,-0.7819936,0.13622901,-2.3288798,-0.28616777,1.6177957,0.48787066,0.039998006,0.04,-0.0030199591439572515,-0.013057100333746519,-0.0018769126542972359,-0.048822511284811666,0.025374346753667686,-0.14173124077135507,0.9784016595761289,-0.07507559985166667,-0.010434900581730987,-0.19231474123279932
1109.9999999993192,-0.2500897,-0.7819786,0.13707633,-2.3287098,-0.28794822,1.618087,0.48601645,0.039997976,0.04,-0.0034444252274390408,-0.013101287663341843,-0.0017311184549839709,-0.048454279176620235,0.02553534502481717,-0.1408660248815696,0.9781322686777286,-0.07555125418706525,-0.010783788766441687,-0.19347605242500143
1110.016666665986,-0.251627,-0.78196365,0.13791853,-2.3285408,-0.2897179,1.6183764,0.4841735,0.039997958,0.04,-0.0025467200364559517,-0.013362402988303934,-0.0015317746561160916,-0.04808216025772046,0.025681919115757297,-0.13998442721816173,0.9778628673999766,-0.07602404041586468,-0.011134093926410184,-0.19462936518311066
1110.0333333326525,-0.25315472,-0.78194875,0.1387554,-2.328372,-0.29147643,1.6186641,0.48234206,0.03999795,0.04,-0.0013208044873813662,-0.013540626096925079,-0.0008565593854203968,-0.047704695553741246,0.025815964268915234,-0.13908424855319543,0.9775935313320657,-0.07649381852421666,-0.011485087671722852,-0.19577455398099686
1110.0499999993192,-0.2546727,-0.7819339,0.13958697,-2.328204,-0.2932236,1.61895,0.48052236,0.039997935,0.04,-0.0023754325682467936,-0.013825820839347136,-0.0011683989477928591,-0.04732224017425469,0.025943180200900924,-0.1381700370713131,0.9773243216794499,-0.0769605632712521,-0.011837046293397472,-0.1969114681521186
1110.0666666659858,-0.25618067,-0.7819191,0.14041309,-2.328037,-0.2949595,1.619234,0.47871467,0.039997917,0.04,-0.0032387316260873433,-0.01377739847417958,-0.0012884941205992817,-0.04693495015556123,0.026057671847553757,-0.1372415819881625,0.9770552829799538,-0.07742423762166481,-0.012190083780163511,-0.1980400547543325
1110.0833333326525,-0.25767854,-0.7819044,0.14123362,-2.3278716,-0.29668367,1.6195161,0.4769191,0.039997894,0.04,-0.0037974263877416092,-0.013950208963797728,-0.0012171333431121312,-0.04654315259692922,0.026161079875873513,-0.13629895958430205,0.9767865049301974,-0.07788480110099515,-0.01254411267648848,-0.1991600531754986
1110.0999999993192,-0.259166,-0.7818898,0.14204851,-2.3277073,-0.298396,1.6197963,0.47513592,0.03999788,0.04,-0.0034975881439081036,-0.014306498029398318,-0.0011999848560817483,-0.046147378706963324,0.0262499284517237,-0.13533903427485733,0.9765180392777251,-0.0783422194241538,-0.012898961814684267,-0.20027139687181617
1110.1166666659858,-0.26064324,-0.7818752,0.14285772,-2.3275454,-0.3000963,1.6200742,0.47336522,0.039997853,0.04,-0.005886795084197871,-0.013970797245427269,-0.0017664760134650237,-0.04574724571280472,0.026326300910067622,-0.1343688586506762,0.9762499717362693,-0.07879638424530422,-0.013255294374268775,-0.20137383068773174
1110.1333333326525,-0.26210976,-0.7818608,0.14366107,-2.327384,-0.3017843,1.6203505,0.47160724,0.039997842,0.04,-0.0022056117900071115,-0.014752824254427033,-0.00047487579568628036,-0.04534458892115437,0.026381920815141947,-0.13338187549376473,0.97598232401654,-0.0792473106370375,-0.013611549834126819,-0.20246751017183906
1110.149999999319,-0.26356548,-0.7818465,0.14445852,-2.3272228,-0.30346,1.6206243,0.46986216,0.03999783,0.04,-0.002384629021445761,-0.014704551968908186,-0.0009178946944521371,-0.04493657903595227,0.02643090573420279,-0.13238201483906445,0.9757151618222882,-0.07969483426229482,-0.013968054108285275,-0.20355232704746748
1110.1666666659858,-0.26501027,-0.7818324,0.14525004,-2.3270628,-0.3051231,1.6208966,0.4681302,0.03999781,0.04,-0.0037211665101288816,-0.014928818428211477,-0.0005462214538676236,-0.04452435729516812,0.026470758940847813,-0.13136958645320646,0.975448540011071,-0.0801390451659227,-0.0143246158256923,-0.2046281618243455
1110.1833333326524,-0.2664439,-0.78181845,0.14603546,-2.326904,-0.30677336,1.6211665,0.46641156,0.03999779,0.04,-0.004127834473033332,-0.01503851758676844,-0.0010794470287622815,-0.044107388574879204,0.026499786953029215,-0.13034298431836117,0.975182550045647,-0.08057980066368339,-0.014681486653400293,-0.20569478301871502
1110.199999999319,-0.26786637,-0.78180456,0.14681469,-2.326747,-0.30841076,1.6214346,0.46470636,0.039997768,0.04,-0.004971412211896009,-0.014879749090218608,-0.0007231217636682885,-0.04368756310063962,0.026514948173465235,-0.1293022586710934,0.9749172392974289,-0.08101711506916943,-0.015038569626305271,-0.20675213423358776
1110.2166666659857,-0.26927748,-0.7817908,0.1475877,-2.3265917,-0.31003514,1.6217003,0.46301484,0.039997756,0.04,-0.005621168690517209,-0.015088600903911953,-0.0011742851900864437,-0.04326365013507034,0.026517072575713733,-0.12824759063386695,0.9746526776815303,-0.08145090038986685,-0.015396102604697925,-0.20780006914938398
1110.2333333326524,-0.27067703,-0.78177714,0.14835447,-2.3264377,-0.31164628,1.621964,0.46133703,0.039997745,0.04,-0.004380260691361215,-0.015476763795441162,-0.0005060470766427017,-0.04283711978453924,0.02650357651556745,-0.12718138530427248,0.9743888972163434,-0.08188123088669322,-0.015753447554783948,-0.208838621667873
1110.249999999319,-0.2720649,-0.7817635,0.14911477,-2.3262842,-0.31324378,1.6222254,0.4596733,0.039997723,0.04,-0.003546903896589626,-0.015623474825565697,-0.00027671190558908876,-0.04240595326163768,0.02647755687469964,-0.12610395709579242,0.9741260061418416,-0.08230785947532063,-0.01611024511829342,-0.2098675783177672
1110.2666666659857,-0.2734409,-0.7817499,0.14986864,-2.326132,-0.31482774,1.6224843,0.4580237,0.039997697,0.04,-0.0052373849912967785,-0.015633619734078952,-0.000753828734234574,-0.04197192963228112,0.026442201330078526,-0.12501349874766537,0.9738640376101128,-0.08273085946932893,-0.016466956200328887,-0.21088689028645521
1110.2833333326523,-0.27480492,-0.78173655,0.15061598,-2.3259807,-0.31639794,1.6227412,0.45638847,0.039997686,0.04,-0.003757557734163086,-0.01590276778952182,-0.00016516632541652143,-0.041534743826460926,0.026392697074669597,-0.12390993679501427,0.9736030374884295,-0.08315014642364874,-0.016822788030404,-0.21189660767910748
1110.299999999319,-0.2761569,-0.7817234,0.15135671,-2.3258314,-0.31795415,1.6229959,0.45476773,0.039997667,0.04,-0.006514408180091635,-0.01578077413674217,-0.0007889323712317875,-0.04109379497893857,0.02633541000646001,-0.12279499326332456,0.9733430990197108,-0.08356572270557124,-0.01717844966226647,-0.21289641247940683
1110.3166666659856,-0.2774967,-0.7817103,0.15209073,-2.3256845,-0.3194964,1.6232483,0.4531616,0.039997645,0.04,-0.007020132118418232,-0.015717759865491177,-0.0007012572538656059,-0.040650739299162235,0.02626043701378363,-0.12167123664322028,0.9730842689791829,-0.08397759157432903,-0.0175339198471237,-0.21388625770118808
1110.3333333326523,-0.2788241,-0.7816974,0.15281798,-2.3255382,-0.3210244,1.6234983,0.45157036,0.039997637,0.04,-0.003971737350605409,-0.01625446622749438,-0.00010076275454018457,-0.04020442624499488,0.0261710939981865,-0.12053266533366455,0.9728266016718503,-0.08438555275769152,-0.01788828790710807,-0.2148662158672935
1110.349999999319,-0.28013903,-0.7816846,0.15353836,-2.3253925,-0.32253796,1.6237459,0.44999403,0.039997615,0.04,-0.004460747129275688,-0.016239727332839626,-5.8645646339172686e-05,-0.039755814695128226,0.026071219745287474,-0.11938438078285638,0.9725701589998654,-0.08478962211796663,-0.018241506223651532,-0.21583617225748228
1110.3666666659856,-0.28144133,-0.7816719,0.15425186,-2.325248,-0.32403702,1.6239914,0.4484328,0.039997604,0.04,-0.005294499765406968,-0.01638450817980086,4.5703643070105215e-05,-0.03930412108001431,0.025962237061186215,-0.11822442686286803,0.9723149878588451,-0.08518983038588566,-0.01859356546189424,-0.21679607124505823
1110.3833333326522,-0.28273082,-0.7816593,0.1549584,-2.3251054,-0.32552147,1.6242343,0.4468869,0.039997585,0.04,-0.006745124130036473,-0.016407391139278138,-0.00040125917009081746,-0.03884889797701827,0.025843826483011284,-0.11705337055841374,0.9720611608098445,-0.08558613798743821,-0.01894484947423852,-0.2177457354526405
1110.3999999993189,-0.28400746,-0.7816468,0.1556579,-2.324965,-0.3269911,1.6244749,0.4453564,0.039997555,0.04,-0.007312905876855069,-0.016400073165950824,-0.00031449586075371627,-0.03839190727697381,0.025710591034905188,-0.1158766890002384,0.9718087464992197,-0.08597852174110925,-0.01929532798520325,-0.21868503456974944
1110.4166666659855,-0.28527114,-0.7816345,0.15635028,-2.324826,-0.32844576,1.6247128,0.44384146,0.039997544,0.04,-0.006057625810962364,-0.01661167372607464,-0.0002617908891666687,-0.03793272731542178,0.025560382201397225,-0.11468609326721248,0.9715578022176279,-0.08636685095339894,-0.019644560054164765,-0.21961396874225572
1110.4333333326522,-0.28652173,-0.78162223,0.15703551,-2.3246875,-0.32988536,1.6249484,0.44234216,0.03999752,0.04,-0.0046780488774711415,-0.016785036970684564,0.0005158215540701505,-0.03747191797020655,0.02539900370348784,-0.11349051448035145,0.9713083558374087,-0.08675112682182716,-0.019991979638593255,-0.22053262939008203
1110.4499999993188,-0.28775916,-0.7816102,0.1577135,-2.3245506,-0.33130977,1.6251816,0.44085866,0.039997503,0.04,-0.0065741667190089,-0.01671993227984614,-3.9044567179402634e-05,-0.03700788565484402,0.02522981845327604,-0.11228241269439715,0.9710604814560552,-0.08713132913243975,-0.020337929808597638,-0.22144083058245911
1110.4666666659855,-0.28898332,-0.78159827,0.1583842,-2.3244152,-0.3327188,1.6254121,0.4393912,0.039997496,0.04,-0.00649492067488211,-0.016836341540377164,3.373545423013269e-05,-0.03654198778214162,0.02504925378456833,-0.11106355330566733,0.9708142499982375,-0.08750734361635706,-0.02068232973078253,-0.2223384763158989
1110.4833333326521,-0.29019406,-0.78158647,0.15904759,-2.324282,-0.33411244,1.6256402,0.4379398,0.039997477,0.04,-0.007754796405023967,-0.016831530186911525,-6.638818275117586e-05,-0.036075357026587804,0.02485537397550068,-0.10983927006927316,0.9705697002856891,-0.0878792709361773,-0.021025373577763063,-0.22322550099168556
1110.4999999993188,-0.2913913,-0.7815748,0.15970355,-2.3241503,-0.33549058,1.6258657,0.43650454,0.039997455,0.04,-0.007023034464381794,-0.016894070477507794,0.00016257600126134975,-0.035606580255426325,0.02464831687290605,-0.10860819153050115,0.9703268838749549,-0.08824704708515478,-0.021366721252565713,-0.22410189721014234
1110.5166666659854,-0.2925749,-0.7815631,0.16035205,-2.3240194,-0.3368531,1.6260887,0.43508556,0.039997447,0.04,-0.0056108792903852844,-0.017157166779402377,0.0006999069721791429,-0.03513624450145235,0.024429037657414818,-0.10736480577540644,0.9700858436163725,-0.08861062947457049,-0.02170584750842972,-0.22496770555609108
1110.533333332652,-0.29374477,-0.7815515,0.16099307,-2.32389,-0.3381997,1.626309,0.43368307,0.03999744,0.04,-0.006995345547622378,-0.017259487872101076,0.0003098506203613738,-0.034663434673090854,0.024200739561707138,-0.106114917368031,0.9698466621716805,-0.08896996353532877,-0.022043044895490454,-0.2258227216971489
1110.5499999993187,-0.29490083,-0.7815401,0.16162652,-2.323762,-0.33953047,1.6265267,0.43229714,0.039997432,0.04,-0.0067931128130638285,-0.017189076664936298,0.0003017971960339594,-0.0341896261590792,0.02396097240507891,-0.10485641022494308,0.9696093734737131,-0.08932499584523344,-0.02237808942218986,-0.22666700047200292
1110.5666666659854,-0.29604304,-0.7815289,0.16225238,-2.323636,-0.3408453,1.6267419,0.4309279,0.03999741,0.04,-0.00814912381255084,-0.0171464717662273,0.00022462991486893458,-0.03371462105968209,0.02371062536465758,-0.10359311806259427,0.9693740331198744,-0.08967575374775476,-0.022711192398019105,-0.22750042822496216
1110.583333332652,-0.29717124,-0.7815179,0.16287056,-2.323512,-0.34214392,1.6269544,0.42957535,0.03999739,0.04,-0.007838050407915631,-0.01732967903813054,0.00026969824253875174,-0.03323864204977301,0.02344876665346285,-0.1023226621318096,0.969140704595483,-0.09002223932912075,-0.023042146336451762,-0.2283229086503383
1110.5999999993187,-0.29828534,-0.78150713,0.16348104,-2.323389,-0.3434265,1.6271638,0.42823973,0.039997377,0.04,-0.00646840759754852,-0.017407770781402432,0.000289867135894184,-0.03276149407709413,0.02317400452913327,-0.10104645133274251,0.9689094188976812,-0.09036426518018972,-0.023370711801812688,-0.22913456173104643
1110.6166666659853,-0.2993853,-0.78149647,0.16408378,-2.3232672,-0.3446927,1.6273711,0.42692107,0.039997365,0.04,-0.006700929224301433,-0.017502297985466653,0.0011778891919833612,-0.03228400816643538,0.022889253528825582,-0.09976163609596599,0.9686802191468121,-0.09070196372194157,-0.023696352645707863,-0.22993535979043744
1110.633333332652,-0.300471,-0.781486,0.16467872,-2.3231468,-0.3459426,1.6275755,0.42561936,0.03999735,0.04,-0.00737088634368277,-0.01750635869563477,0.0005059607147250844,-0.03180428014240693,0.022598488592027195,-0.09847225965050221,0.9684531588290742,-0.09103530560553068,-0.024019465604655947,-0.23072519922921797
1110.6499999993187,-0.30154243,-0.7814755,0.16526586,-2.3230286,-0.34717596,1.6277772,0.42433482,0.039997347,0.04,-0.008894535443371154,-0.017426982762158705,0.0004962915628459186,-0.031323707715886585,0.02229696381378636,-0.09717522835314465,0.9682283125031674,-0.09136426103475687,-0.02434030139963294,-0.23150390148033492
1110.6666666659853,-0.30259958,-0.78146523,0.16584514,-2.3229122,-0.34839272,1.6279763,0.42306757,0.039997324,0.04,-0.008241540446896067,-0.017467892342581948,0.0005452659358029521,-0.03084298043978021,0.021982640120449613,-0.09587634248768409,0.9680057204725155,-0.09168872942365248,-0.02465848875352312,-0.2322715242158507
1110.683333332652,-0.30364233,-0.78145504,0.16641648,-2.322797,-0.34959298,1.6281729,0.42181754,0.039997313,0.04,-0.0071932235128358,-0.017451282573271998,0.0010555646992482792,-0.030362314523224278,0.02165698087888252,-0.09457146690933114,0.9677853960555676,-0.09200875720923025,-0.024973645696731543,-0.23302818026795646
1110.6999999993186,-0.3046705,-0.781445,0.16697988,-2.3226833,-0.35077655,1.6283664,0.42058495,0.0399973,0.04,-0.0077766353340891214,-0.017696819003809594,0.0005733990694256619,-0.029880549801320176,0.021324584173516334,-0.09326002652499316,0.967567410881438,-0.09232426370743471,-0.025285978149180707,-0.23377372615439446
1110.7166666659853,-0.30568412,-0.7814351,0.1675353,-2.322571,-0.35194328,1.6285572,0.4193698,0.039997283,0.04,-0.007855987627625183,-0.017699382383568052,0.001045740354310709,-0.029398918023825604,0.020981886076239704,-0.09194601793213136,0.9673518051099066,-0.09263530674709447,-0.025595230150012235,-0.23450814332991665
1110.733333332652,-0.306683,-0.7814252,0.16808277,-2.3224614,-0.3530932,1.6287454,0.41817215,0.039997272,0.04,-0.009967234376251355,-0.017657153302186313,0.0006915856177736046,-0.028916413495768616,0.02063173918722141,-0.0906273926011669,0.9671386186470963,-0.09294199294837055,-0.025901884021221278,-0.2352313131203473
1110.7499999993186,-0.30766743,-0.7814154,0.16862217,-2.3223526,-0.35422623,1.6289308,0.4169921,0.039997257,0.04,-0.00715750557982453,-0.017457831420486514,0.0009979044922392433,-0.02843408058480377,0.02026672391371936,-0.08930593485365973,0.9669279026305736,-0.09324398754501038,-0.0262051718999979,-0.23594338063789308
1110.7666666659852,-0.308637,-0.78140575,0.1691535,-2.3222454,-0.35534233,1.6291133,0.41582957,0.03999725,0.04,-0.008043716271055601,-0.017852679992325093,0.0010220195401977605,-0.02795222018685159,0.019896545797345316,-0.08797989890127914,0.9667196734824163,-0.09354155562561446,-0.02650521417849253,-0.23664429825065048
1110.7833333326519,-0.30959186,-0.7813965,0.16967678,-2.3221395,-0.3564416,1.6292932,0.4146846,0.039997242,0.04,-0.007629231929806579,-0.017644581875186915,0.0009574621715469078,-0.0274692099241303,0.019517374531141857,-0.08665252310508623,0.966513943839945,-0.09383459462699656,-0.02680173632558367,-0.23733422033932766
1110.7999999993185,-0.3105319,-0.78138745,0.17019194,-2.3220353,-0.3575237,1.6294702,0.41355768,0.03999723,0.04,-0.008551801174805362,-0.017739413243644808,0.0009365532009919519,-0.026985694546513096,0.019132176853790903,-0.08531946518031545,0.966310820986905,-0.09412290663859638,-0.02709489078420822,-0.23801290423610946
1110.8166666659852,-0.31145716,-0.78137857,0.17069896,-2.3219337,-0.35858867,1.6296445,0.41244856,0.039997213,0.04,-0.010226070855301472,-0.01754790542973783,0.0006894843110449855,-0.026504302928819043,0.018738344344833572,-0.0839844301438728,0.9661103385636358,-0.09440668351629322,-0.027385042793798862,-0.23868022804391023
1110.8333333326518,-0.3123675,-0.7813698,0.17119785,-2.3218334,-0.3596365,1.6298159,0.4113572,0.039997194,0.04,-0.007884823287884757,-0.017810218583586,0.0012544363074296072,-0.02602348942590651,0.01833382701597647,-0.08264961071849328,0.9659124965080808,-0.09468590030114149,-0.027671532860164164,-0.23933640684788815
1110.8499999993185,-0.313263,-0.7813611,0.17168854,-2.3217342,-0.3606672,1.6299847,0.41028365,0.039997183,0.04,-0.007910955148959786,-0.01758499757289478,0.0014417431964286465,-0.02554311889054705,0.017922499646429398,-0.08131020357416886,0.9657173275648155,-0.09496050798674377,-0.027954219121245134,-0.2399814717791604
1110.8666666659851,-0.31414357,-0.7813526,0.17217113,-2.3216364,-0.36168078,1.6301507,0.40922806,0.039997168,0.04,-0.008316513430717265,-0.01776182032678375,0.0012040904487475856,-0.025062559800757576,0.017506805273635538,-0.0799722768616075,0.965524861745055,-0.09523049787303621,-0.028233192287110687,-0.24061542028790436
1110.8833333326518,-0.31500915,-0.7813441,0.17264551,-2.3215408,-0.3626772,1.6303139,0.40819037,0.039997153,0.04,-0.009715529761100683,-0.01755108378916348,0.0011159485335809904,-0.024582857329161975,0.017083639581460707,-0.07863218673655539,0.9653351472943714,-0.09549594877439806,-0.028508721244088445,-0.2412381188346042
1110.8999999993184,-0.3158598,-0.7813358,0.17311168,-2.3214471,-0.36365625,1.630474,0.40717062,0.03999714,0.04,-0.009453272841719595,-0.0175936629264295,0.0009309392099199343,-0.02410395729701086,0.016652302027933313,-0.0772908734651448,0.9651482429203829,-0.09575675523438203,-0.02878075615580204,-0.24184950090868595
1110.916666665985,-0.31669536,-0.78132755,0.17356965,-2.3213549,-0.3646182,1.6306316,0.40616888,0.039997134,0.04,-0.008384775638203834,-0.01767617528782295,0.0016115709536856926,-0.02362728719636048,0.016209930472693236,-0.07594950367978387,0.964964114539835,-0.09601300662379499,-0.02904874728373958,-0.24244985149646206
1110.9333333326517,-0.31751603,-0.7813195,0.17401943,-2.321264,-0.36556283,1.6307863,0.405185,0.039997127,0.04,-0.008555556440503764,-0.017591337051986455,0.001296277487750075,-0.023149937621826988,0.015764955429987997,-0.07460898697307716,0.9647828292161316,-0.09626462637480118,-0.029312784555352935,-0.24303903970401203
1110.9499999993184,-0.31832165,-0.7813116,0.17446099,-2.3211749,-0.36649022,1.630938,0.40421912,0.039997112,0.04,-0.009080098932345848,-0.017575065492736464,0.001223728240140609,-0.02267415359105877,0.01531453741583284,-0.07326743478687356,0.9646044055180439,-0.09651164623699748,-0.0295729984302641,-0.24361707813626157
1110.966666665985,-0.3191123,-0.78130376,0.17489435,-2.321088,-0.36740032,1.6310868,0.40327123,0.0399971,0.04,-0.010382877790338085,-0.017371856036724198,0.0009555699573615684,-0.02219946909419554,0.014857151498260663,-0.071928362268664,0.9644288919171946,-0.09675405447055277,-0.029829676493512924,-0.244183856508111
1110.9833333326517,-0.31988797,-0.7812961,0.17531946,-2.3210027,-0.3682933,1.6312331,0.4023413,0.039997086,0.04,-0.008552732164890386,-0.01739015238900743,0.0016689035841288558,-0.021727675268666743,0.01439020706075933,-0.07059131201868957,0.9642562661768308,-0.09699186676074784,-0.03008211296144566,-0.24473965228535616
1110.9999999993183,-0.3206486,-0.7812887,0.1757364,-2.3209186,-0.36916897,1.6313765,0.40142936,0.03999708,0.04,-0.008133548599831286,-0.01762051637799189,0.0014567899526696237,-0.021256509462911632,0.013919187883770877,-0.0692543711239185,0.9640865651832093,-0.09722504097543253,-0.030330211347855542,-0.245284456336233
1111.016666665985,-0.3213943,-0.7812815,0.17614503,-2.3208358,-0.3700274,1.6315169,0.4005354,0.039997067,0.04,-0.008757535201420197,-0.01728490144619621,0.0013048010216287764,-0.020786242121270816,0.0134467299875401,-0.06791783655873083,0.9639198376307048,-0.09745350690199425,-0.030574146818568754,-0.2458181892391517
1111.0333333326516,-0.322125,-0.7812743,0.17654556,-2.320755,-0.3708685,1.6316543,0.39965934,0.039997064,0.04,-0.009819999117866018,-0.0174655699510029,0.0012489682086558318,-0.020318838302214298,0.01296957815186936,-0.06658392615637806,0.9637560971639667,-0.09767743717060513,-0.03081421942654294,-0.2463407950953188
1111.0499999993183,-0.32284078,-0.78126746,0.17693797,-2.320676,-0.37169257,1.6317892,0.3988011,0.039997052,0.04,-0.009241281538008295,-0.01722126154634629,0.001561667415583834,-0.019853200484282164,0.012485225193720393,-0.06525525326145262,0.963595307801925,-0.09789686906600668,-0.031050001366886185,-0.24685255361106329
1111.066666665985,-0.32354182,-0.7812607,0.17732216,-2.3205988,-0.3724994,1.6319214,0.39796078,0.039997038,0.04,-0.009255245946437896,-0.01700431203344177,0.0014546642624457817,-0.01938844740700232,0.011997627892084795,-0.06392810179762903,0.9634375495762513,-0.09811160658603303,-0.031281553254696864,-0.247353320466068
1111.0833333326516,-0.32422787,-0.7812541,0.17769822,-2.320523,-0.3732893,1.6320506,0.3971383,0.03999703,0.04,-0.008859507400904576,-0.017192124066867098,0.001484123963124695,-0.01892663318017,0.01150663305793504,-0.06260410136719419,0.9632827885476498,-0.09832180508326001,-0.03150885662494557,-0.24784326476065854
