rsonawane2002/My_IMU/logs_2/traj_351/imu_400hz_351.csv
time,j1,j2,j3,j4,j5,j6,j7,gripper1,gripper2,imu_ax,imu_ay,imu_az,imu_gx,imu_gy,imu_gz
0.0,0.00016700293,-0.785875,4.0107683e-05,-2.3551247,9.29385e-05,1.570997,0.786,0.04,0.04,-9.439745,0.046243280172348,0.09691082,1.8595134e-08,-0.0011641276068985,3.2774892e-07
0.0025,0.00016700247849999998,-0.785857774,4.0109200100000004e-05,-2.35513919,9.294282600000001e-05,1.570996565,0.786,0.04,0.04,-9.498932450000053,0.03940171766152446,0.08374514667498802,-4.902894210006151e-08,-0.0013252451084555166,3.4975773900002004e-07
0.005,0.000167002027,-0.785840548,4.0110717200000005e-05,-2.3551536800000004,9.2947152e-05,1.57099613,0.786,0.04,0.04,-9.558119900000108,0.03256015515070093,0.07057947334997605,-1.1665301820012301e-07,-0.001486362610012533,3.7176655800004003e-07
0.0075,0.0001670015755,-0.7858233219999999,4.0112234300000007e-05,-2.3551681700000002,9.295147800000001e-05,1.570995695,0.786,0.04,0.04,-9.61730735000016,0.025718592639877393,0.05741380002496408,-1.842770943001845e-07,-0.0016474801115695496,3.9377537700006007e-07
0.01,0.000167001124,-0.785806096,4.011375140000001e-05,-2.35518266,9.295580400000002e-05,1.5709952600000001,0.786,0.04,0.04,-9.676494800000215,0.018877030129053854,0.0442481266999521,-2.51901170400246e-07,-0.001808597613126566,4.1578419600008005e-07
0.0125,0.0001670006725,-0.78578887,4.011526850000001e-05,-2.3551971500000004,9.296013000000003e-05,1.570994825,0.786,0.04,0.04,-9.735682250000268,0.012035467618230315,0.03108245337494013,-3.1952524650030754e-07,-0.0019697151146835824,4.377930150001001e-07
0.015,0.00016700022099999998,-0.785771644,4.011678560000001e-05,-2.3552116400000003,9.296445600000002e-05,1.57099439,0.786,0.04,0.04,-9.794869700000323,0.0051939051074067835,0.017916780049928166,-3.87149322600369e-07,-0.002130832616240599,4.598018340001201e-07
0.0175,0.00016699775599999993,-0.7857548645,4.0119378400000034e-05,-2.3552257350000003,9.296633774999998e-05,1.57099396,0.786,0.04,0.04,-9.834238749999997,0.0006314315862254427,0.009060364474998486,-5.00084383001296e-07,-0.00228773282142444,3.179899809970109e-07
0.02,0.00016699126399999994,-0.7857389779999999,4.0124122600000035e-05,-2.3552390400000003,9.296333099999998e-05,1.5709935400000001,0.786,0.04,0.04,-9.833970999999998,0.0006271360442041487,0.00882246439999827,-7.03641412001481e-07,-0.0024361984338621603,-1.514632160034158e-07
0.0225,0.00016698477199999994,-0.7857230914999999,4.012886680000004e-05,-2.3552523450000002,9.296032424999998e-05,1.57099312,0.786,0.04,0.04,-9.833703249999997,0.0006228405021828548,0.008584564324998052,-9.071984410016661e-07,-0.00258466404629988,-6.209164130038424e-07
0.025,0.00016697827999999994,-0.7857072049999999,4.013361100000004e-05,-2.35526565,9.295731749999998e-05,1.5709927,0.786,0.04,0.04,-9.833435499999997,0.0006185449601615609,0.008346664249997837,-1.1107554700018515e-06,-0.0027331296587376004,-1.0903696100042697e-06
0.0275,0.00016697178799999994,-0.7856913184999998,4.013835520000005e-05,-2.355278955,9.295431074999997e-05,1.57099228,0.786,0.04,0.04,-9.833167749999996,0.000614249418140267,0.00810876417499762,-1.3143124990020365e-06,-0.0028815952711753203,-1.5598228070046965e-06
0.03,0.0001669652959999999,-0.7856754319999998,4.014309940000005e-05,-2.35529226,9.295130399999998e-05,1.57099186,0.786,0.04,0.04,-9.832899999999997,0.000609953876118973,0.007870864099997404,-1.5178695280022217e-06,-0.00303006088361304,-2.0292760040051233e-06
0.0325,0.00016695880399999991,-0.7856595454999998,4.014784360000006e-05,-2.355305565,9.294829724999997e-05,1.57099144,0.786,0.04,0.04,-9.832632249999996,0.0006056583340976792,0.007632964024997187,-1.7214265570024069e-06,-0.0031785264960507605,-2.4987292010055504e-06
0.035,0.0001669416909999995,-0.7856445149999997,4.0158347900000296e-05,-2.3553181,9.293283949999953e-05,1.57099101,0.786,0.04,0.04,-9.832351099999993,0.0005992688820694776,0.007424577299995773,-2.1845727100129436e-06,-0.0033193711424276216,-3.5563721400295073e-06
0.0375,0.00016691926749999917,-0.7856299124999995,4.017173225000049e-05,-2.35533025,9.291115624999922e-05,1.570990575,0.786,0.04,0.04,-9.832063249999988,0.0005918324750378794,0.007230947249992956,-2.7775134250215705e-06,-0.00345640530577426,-4.908109950049175e-06
0.04,0.00016689684399999886,-0.7856153099999993,4.018511660000068e-05,-2.3553424000000005,9.28894729999989e-05,1.57099014,0.786,0.04,0.04,-9.831775399999986,0.0005843960680062812,0.007037317199990138,-3.3704541400301995e-06,-0.0035934394691208996,-6.259847760068847e-06
0.0425,0.00016687442049999852,-0.785600707499999,4.019850095000088e-05,-2.355354550000001,9.286778974999858e-05,1.570989705,0.786,0.04,0.04,-9.83148754999998,0.000576959660974683,0.00684368714998732,-3.9633948550388285e-06,-0.0037304736324675386,-7.611585570088518e-06
0.045,0.0001668519969999982,-0.7855861049999988,4.021188530000107e-05,-2.3553667000000007,9.284610649999826e-05,1.57098927,0.786,0.04,0.04,-9.831199699999978,0.0005695232539430848,0.0066500570999845025,-4.556335570047456e-06,-0.0038675077958141776,-8.963323380108185e-06
0.0475,0.00016682957349999786,-0.7855715024999986,4.0225269650001264e-05,-2.355378850000001,9.282442324999795e-05,1.570988835,0.786,0.04,0.04,-9.830911849999973,0.0005620868469114865,0.006456427049981684,-5.149276285056085e-06,-0.004004541959160816,-1.0315061190127859e-05
0.05,0.00016680714999999427,-0.7855568999999986,4.023865400000325e-05,-2.3553910000000013,9.280273999999379e-05,1.5709884,0.786,0.04,0.04,-9.830623999999975,0.0005546504398795388,0.006262796999979236,-5.7422170001221156e-06,-0.004141576122506253,-1.166679900028498e-05
0.0525,0.00016675462599999492,-0.7855434554999987,4.0268438150002873e-05,-2.355402130000001,9.274584349999451e-05,1.57098798,0.786,0.04,0.04,-9.830388649999978,0.0005440106571757392,0.006072551879981659,-6.861101950107867e-06,-0.004267587210063813,-1.4277918300251728e-05
0.055,0.0001667021019999956,-0.7855300109999989,4.029822230000249e-05,-2.355413260000001,9.268894699999523e-05,1.57098756,0.786,0.04,0.04,-9.830153299999981,0.0005333708744719397,0.005882306759984081,-7.979986900093622e-06,-0.004393598297621374,-1.6889037600218485e-05
0.0575,0.00016664957799999628,-0.7855165664999991,4.032800645000211e-05,-2.355424390000001,9.263205049999595e-05,1.57098714,0.786,0.04,0.04,-9.829917949999984,0.0005227310917681402,0.005692061639986504,-9.098871850079375e-06,-0.004519609385178934,-1.950015690018524e-05
0.06,0.00016659705399999693,-0.7855031219999993,4.035779060000173e-05,-2.3554355200000003,9.257515399999669e-05,1.57098672,0.786,0.04,0.04,-9.829682599999986,0.0005120913090643406,0.005501816519988927,-1.0217756800065126e-05,-0.0046456204727364945,-2.211127620015199e-05
0.0625,0.0001665445299999976,-0.7854896774999994,4.0387574750001354e-05,-2.35544665,9.251825749999741e-05,1.5709863,0.786,0.04,0.04,-9.829447249999989,0.0005014515263605412,0.005311571399991348,-1.1336641750050881e-05,-0.004771631560294055,-2.4722395500118744e-05
0.065,0.00016649200599999829,-0.7854762329999996,4.0417358900000976e-05,-2.35545778,9.246136099999813e-05,1.57098588,0.786,0.04,0.04,-9.829211899999992,0.0004908117436567416,0.005121326279993771,-1.2455526700036634e-05,-0.004897642647851616,-2.73335148000855e-05
0.0675,0.0001664234504999975,-0.7854631464999997,4.0455890550001375e-05,-2.35546854,9.238595699999724e-05,1.570985455,0.786,0.04,0.04,-9.828972099999994,0.00047899411147191693,0.004941099689996066,-1.3841346650047145e-05,-0.005020411824810335,-3.047825305010344e-05
0.07,0.00016632283199999743,-0.7854507759999997,4.051191720000143e-05,-2.3554785600000003,9.227353799999713e-05,1.57098502,0.786,0.04,0.04,-9.828723399999994,0.000464820780325299,0.00478091015999592,-1.5761036600048893e-05,-0.0051366971805720816,-3.469022920010727e-05
0.0725,0.00016622221349999735,-0.7854384054999997,4.056794385000148e-05,-2.3554885800000003,9.216111899999703e-05,1.570984585,0.786,0.04,0.04,-9.828474699999994,0.00045064744917868116,0.004620720629995775,-1.768072655005063e-05,-0.005252982536333827,-3.890220535011108e-05
0.075,0.00016612159499999725,-0.7854260349999996,4.062397050000153e-05,-2.3554986,9.204869999999693e-05,1.57098415,0.786,0.04,0.04,-9.828225999999994,0.0004364741180320633,0.00446053109999563,-1.960041650005238e-05,-0.005369267892095572,-4.311418150011492e-05
0.0775,0.00016602097649999717,-0.7854136644999997,4.067999715000158e-05,-2.35550862,9.193628099999683e-05,1.5709837150000001,0.786,0.04,0.04,-9.827977299999993,0.0004223007868854454,0.004300341569995484,-2.1520106450054125e-05,-0.005485553247857319,-4.732615765011875e-05
0.08,0.00016592035799999706,-0.7854012939999997,4.073602380000163e-05,-2.3555186400000006,9.182386199999672e-05,1.57098328,0.786,0.04,0.04,-9.827728599999993,0.00040812745573882747,0.004140152039995338,-2.343979640005587e-05,-0.005601838603619064,-5.1538133800122586e-05
0.0825,0.00016581973949999698,-0.7853889234999997,4.0792050450001685e-05,-2.3555286600000005,9.171144299999662e-05,1.570982845,0.786,0.04,0.04,-9.827479899999991,0.00039395412459220956,0.003979962509995192,-2.535948635005762e-05,-0.00571812395938081,-5.575010995012642e-05
0.085,0.00016567273999999475,-0.7853771999999997,4.0873412800002913e-05,-2.3555383400000003,9.154541199999404e-05,1.57098241,0.7859998100000001,0.04,0.04,-9.827256199999994,0.00037748678587314527,0.0038212451899951147,-2.7950706700090518e-05,-0.00582802570425295,-6.12326938001892e-05
0.08750000000000001,0.0001655025499999946,-0.7853657999999997,4.0967443000002996e-05,-2.35554785,9.135257499999387e-05,1.570981975,0.785999525,0.04,0.04,-9.827044999999993,0.0003598724433680142,0.0036632639749949705,-3.087769225009318e-05,-0.0059347356436807224,-6.735058150019477e-05
0.09,0.00016533235999999444,-0.7853543999999997,4.106147320000308e-05,-2.3555573600000006,9.115973799999369e-05,1.57098154,0.78599924,0.04,0.04,-9.826833799999992,0.0003422581008628833,0.0035052827599948277,-3.380467780009583e-05,-0.006041445583108494,-7.346846920020031e-05
0.0925,0.00016516216999999428,-0.7853429999999997,4.115550340000317e-05,-2.3555668700000005,9.096690099999351e-05,1.570981105,0.785998955,0.04,0.04,-9.826622599999993,0.00032464375835775225,0.003347301544994684,-3.6731663350098495e-05,-0.006148155522536266,-7.958635690020587e-05
0.095,0.00016499197999999413,-0.7853315999999996,4.124953360000325e-05,-2.3555763800000005,9.077406399999334e-05,1.57098067,0.78599867,0.04,0.04,-9.826411399999992,0.0003070294158526212,0.0031893203299945398,-3.9658648900101165e-05,-0.006254865461964038,-8.570424460021144e-05
0.0975,0.00016482178999999397,-0.7853201999999996,4.1343563800003334e-05,-2.3555858900000004,9.058122699999316e-05,1.570980235,0.7859983850000001,0.04,0.04,-9.826200199999992,0.0002894150733474902,0.003031339114994396,-4.258563445010383e-05,-0.00636157540139181,-9.182213230021701e-05
0.1,0.00016465159999999037,-0.7853087999999997,4.1437594000005294e-05,-2.3555954000000003,9.038838999998904e-05,1.5709798,0.7859981,0.04,0.04,-9.825988999999995,0.0002718007308422727,0.0028733578999950568,-4.551262000010174e-05,-0.006468285340819355,-9.794002000030188e-05
0.10250000000000001,0.00016438727749999013,-0.7852982849999997,4.158306580000542e-05,-2.355604115,9.008695389998876e-05,1.57097983,0.785997815,0.04,0.04,-9.825834499999994,0.0002518104636684145,0.002737496119994933,-4.830897400010428e-05,-0.006568747549321447,-0.00010623741250030943
0.105,0.0001641229549999899,-0.7852877699999996,4.172853760000556e-05,-2.35561283,8.97855177999885e-05,1.57097986,0.78599753,0.04,0.04,-9.825679999999993,0.00023182019649455642,0.0026016343399948103,-5.110532800010682e-05,-0.006669209757823537,-0.00011453480500031693
0.1075,0.00016385863249998966,-0.7852772549999996,4.187400940000569e-05,-2.3556215450000004,8.948408169998822e-05,1.57097989,0.785997245,0.04,0.04,-9.825525499999994,0.00021182992932069822,0.0024657725599946867,-5.390168200010936e-05,-0.0067696719663256286,-0.0001228321975003245
0.11,0.00016359430999998942,-0.7852667399999995,4.201948120000582e-05,-2.3556302600000003,8.918264559998794e-05,1.57097992,0.78599696,0.04,0.04,-9.825370999999993,0.00019183966214684003,0.002329910779994563,-5.669803600011191e-05,-0.00687013417482772,-0.00013112959000033205
0.1125,0.00016332998749998918,-0.7852562249999996,4.2164953000005955e-05,-2.355638975,8.888120949998766e-05,1.5709799500000001,0.785996675,0.04,0.04,-9.825216499999993,0.00017184939497298183,0.0021940489999944393,-5.949439000011445e-05,-0.006970596383329811,-0.0001394269825003396
0.115,0.00016306566499998894,-0.7852457099999995,4.2310424800006084e-05,-2.35564769,8.85797733999874e-05,1.57097998,0.78599639,0.04,0.04,-9.825061999999994,0.00015185912779912362,0.0020581872199943157,-6.2290744000117e-05,-0.007071058591831903,-0.00014772437500034716
0.11750000000000001,0.0001627608614999835,-0.7852354774999996,4.2478019000009054e-05,-2.355656075,8.823172519998114e-05,1.5709800200000001,0.78599601,0.04,0.04,-9.824901749999993,0.0001302382137499245,0.001919159684993786,-6.555920950018009e-05,-0.007168388273570808,-0.00015682999450045837
0.12,0.00016237509599998317,-0.7852258099999996,4.268985800000925e-05,-2.3556638000000003,8.779045279998074e-05,1.57098008,0.78599544,0.04,0.04,-9.824729999999992,0.00010535600595066654,0.0017738006399936543,-6.977189800018389e-05,-0.0072594529017845355,-0.00016755206800046806
0.1225,0.00016198933049998282,-0.7852161424999995,4.290169700000944e-05,-2.3556715250000004,8.734918039998033e-05,1.57098014,0.78599487,0.04,0.04,-9.824558249999992,8.047379815140845e-05,0.0016284415949935221,-7.398458650018773e-05,-0.007350517529998263,-0.00017827414150047783
0.125,0.00016160356499998247,-0.7852064749999995,4.3113536000009634e-05,-2.35567925,8.690790799997993e-05,1.5709802000000002,0.7859943,0.04,0.04,-9.824386499999992,5.559159035215035e-05,0.0014830825499933897,-7.819727500019156e-05,-0.007441582158211991,-0.00018899621500048758
0.1275,0.00016121779949998213,-0.7851968074999995,4.332537500000983e-05,-2.3556869750000002,8.646663559997953e-05,1.57098026,0.7859937300000001,0.04,0.04,-9.824214749999992,3.0709382552892244e-05,0.0013377235049932574,-8.24099635001954e-05,-0.007532646786425719,-0.00019971828850049735
0.13,0.00016083203399998175,-0.7851871399999995,4.3537214000010014e-05,-2.3556947000000004,8.602536319997913e-05,1.57098032,0.78599316,0.04,0.04,-9.824042999999993,5.827174753634141e-06,0.0011923644599931252,-8.662265200019923e-05,-0.007623711414639447,-0.0002104403620005071
0.1325,0.0001604462684999814,-0.7851774724999995,4.374905300001021e-05,-2.3557024250000005,8.558409079997873e-05,1.57098038,0.78599259,0.04,0.04,-9.823871249999993,-1.9055033045623963e-05,0.0010470054149929928,-9.083534050020307e-05,-0.0077147760428531754,-0.00022116243550051687
0.135,0.00015995967899997364,-0.7851683489999995,4.4015994400014464e-05,-2.3557099600000004,8.502680099996978e-05,1.57098045,0.785992017,0.04,0.04,-9.82367469999999,-4.529571160805489e-05,0.0009256435349946284,-9.530330400022571e-05,-0.007800438441340185,-0.00023364714400065647
0.1375,0.00015942267749997313,-0.7851594974999996,4.431048700001473e-05,-2.3557174000000005,8.441150249996922e-05,1.570980525,0.7859914425,0.04,0.04,-9.82346574999999,-7.221562555192395e-05,0.0008162802374945289,-9.98989050002299e-05,-0.007883399724964425,-0.00024701317000066863
0.14,0.00015888567599997265,-0.7851506459999995,4.4604979600015e-05,-2.35572484,8.379620399996866e-05,1.5709806,0.785990868,0.04,0.04,-9.82325679999999,-9.913553949579302e-05,0.0007069169399944293,-0.00010449450600023408,-0.007966361008588666,-0.00026037919600068084
0.14250000000000002,0.00015834867449997217,-0.7851417944999995,4.4899472200015266e-05,-2.3557322800000002,8.31809054999681e-05,1.570980675,0.7859902934999999,0.04,0.04,-9.82304784999999,-0.0001260554534396621,0.0005975536424943298,-0.00010909010700023826,-0.008049322292212906,-0.000273745222000693
0.145,0.0001578116729999717,-0.7851329429999995,4.5193964800015534e-05,-2.3557397200000003,8.256560699996754e-05,1.57098075,0.785989719,0.04,0.04,-9.82283889999999,-0.00015297536738353084,0.0004881903449942314,-0.0001136857080002424,-0.008132283575837146,-0.000287111248000705
0.1475,0.00015727467149997119,-0.7851240914999995,4.54884574000158e-05,-2.3557471600000004,8.195030849996699e-05,1.570980825,0.7859891445,0.04,0.04,-9.822629949999989,-0.0001798952813273999,0.0003788270474941319,-0.00011828130900024659,-0.008215244859461386,-0.0003004772740007172
0.15,0.0001567376699999607,-0.7851152399999995,4.578295000002154e-05,-2.3557546000000005,8.133500999995492e-05,1.5709809,0.78598857,0.04,0.04,-9.822420999999997,-0.00020681519527157523,0.0002694637499942807,-0.00012287691000035272,-0.008298206143085391,-0.0003138433000008839
0.1525,0.00015601748999996006,-0.7851070889999995,4.617757210002189e-05,-2.3557611400000003,8.050893899995416e-05,1.57098099,0.785987712,0.04,0.04,-9.822340299999995,-0.00023934767960045485,0.0001646530454941853,-0.0001293406215003586,-0.008376856194813364,-0.0003300410320008986
0.155,0.0001552973099999594,-0.7850989379999995,4.6572194200022254e-05,-2.3557676800000005,7.968286799995341e-05,1.57098108,0.7859868539999999,0.04,0.04,-9.822259599999995,-0.00027188016392933447,5.984234099408987e-05,-0.00013580433300036448,-0.008455506246541334,-0.0003462387640009134
0.1575,0.00015457712999995875,-0.7850907869999995,4.696681630002261e-05,-2.3557742200000003,7.885679699995267e-05,1.57098117,0.785985996,0.04,0.04,-9.822178899999995,-0.00030441264825821403,-4.496836350600556e-05,-0.00014226804450037038,-0.008534156298269306,-0.0003624364960009281
0.16,0.00015385694999995808,-0.7850826359999995,4.736143840002297e-05,-2.3557807600000005,7.803072599995191e-05,1.57098126,0.7859851379999999,0.04,0.04,-9.822098199999996,-0.0003369451325870937,-0.00014977906800610097,-0.00014873175600037624,-0.008612806349997278,-0.00037863422800094287
0.1625,0.0001531367699999574,-0.7850744849999994,4.7756060500023334e-05,-2.3557873000000007,7.720465499995116e-05,1.57098135,0.78598428,0.04,0.04,-9.822017499999996,-0.0003694776169159733,-0.00025458977250619643,-0.00015519546750038214,-0.00869145640172525,-0.00039483196000095764
0.165,0.00015241658999995677,-0.7850663339999995,4.815068260002369e-05,-2.3557938400000005,7.637858399995042e-05,1.57098144,0.7859834219999999,0.04,0.04,-9.821936799999994,-0.0004020101012448529,-0.00035940047700629184,-0.000161659179000388,-0.008770106453453221,-0.00041102969200097235
0.1675,0.00015162405749994287,-0.7850583999999995,4.8584862800031285e-05,-2.3558003000000007,7.546892049993438e-05,1.57098153,0.7859824674999999,0.03999999975,0.04,-9.821822399999988,-0.00043554842268564637,-0.0004593645310055011,-0.0001684073140004459,-0.008846533903856462,-0.0004282705430011778
0.17,0.00015068681999994203,-0.7850508999999994,4.909815920003175e-05,-2.3558066000000006,7.43920719999334e-05,1.57098162,0.78598132,0.039999999,0.04,-9.821640599999988,-0.0004710984183497188,-0.0005496352840055833,-0.00017572429600045257,-0.008918516151611452,-0.0004475976320011954
0.17250000000000001,0.00014974958249994118,-0.7850433999999995,4.961145560003222e-05,-2.3558129000000005,7.331522349993241e-05,1.57098171,0.7859801725,0.03999999825,0.04,-9.821458799999988,-0.0005066484140137911,-0.0006399060370056654,-0.0001830412780004592,-0.008990498399366442,-0.000466924721001213
0.17500000000000002,0.00014881234499994033,-0.7850358999999995,5.012475200003268e-05,-2.3558192000000004,7.223837499993144e-05,1.5709818,0.7859790249999999,0.0399999975,0.04,-9.821276999999988,-0.0005421984096778635,-0.0007301767900057476,-0.00019035826000046588,-0.009062480647121434,-0.0004862518100012306
0.1775,0.00014787510749993948,-0.7850283999999995,5.0638048400033146e-05,-2.3558255000000003,7.116152649993046e-05,1.5709818899999999,0.7859778774999999,0.03999999675,0.04,-9.821095199999988,-0.0005777484053419355,-0.0008204475430058288,-0.00019767524200047247,-0.009134462894876422,-0.000505578899001248
0.18,0.00014693786999993863,-0.7850208999999995,5.115134480003361e-05,-2.3558318000000003,7.008467799992949e-05,1.57098198,0.7859767299999999,0.039999996,0.04,-9.820913399999988,-0.0006132984010060079,-0.000910718296005911,-0.0002049922240004791,-0.009206445142631414,-0.0005249059880012655
0.1825,0.00014600063249993779,-0.7850133999999994,5.166464120003408e-05,-2.3558381,6.900782949992851e-05,1.57098207,0.7859755824999999,0.03999999525,0.04,-9.82073159999999,-0.0006488483966700802,-0.0010009890490059931,-0.00021230920600048578,-0.009278427390386404,-0.0005442330770012831
0.185,0.00014489498499991994,-0.7850062959999995,5.2269990400043834e-05,-2.3558438,6.773717249990796e-05,1.57098218,0.7859742499999999,0.039999994500000004,0.0399999995,-9.820630899999998,-0.0006879310938556892,-0.0010911507800060644,-0.0002203468920005652,-0.009348305314783843,-0.0005655757260015043
0.1875,0.00014370513249991885,-0.7849993899999995,5.292136600004443e-05,-2.3558492,6.636961124990672e-05,1.5709823,0.7859728249999999,0.039999993750000004,0.03999999875,-9.820570749999996,-0.0007287801418015364,-0.0011812580000061465,-0.00022874493000057285,-0.009417131077502819,-0.0005879261550015245
0.19,0.00014251527999991777,-0.7849924839999995,5.357274160004502e-05,-2.3558546000000002,6.500204999990547e-05,1.57098242,0.7859713999999999,0.039999993000000005,0.039999998,-9.820510599999997,-0.0007696291897473836,-0.0012713652200062285,-0.0002371429680005805,-0.009485956840221797,-0.0006102765840015449
0.1925,0.00014132542749991668,-0.7849855779999995,5.4224117200045616e-05,-2.3558600000000003,6.363448874990423e-05,1.57098254,0.7859699749999999,0.03999999225,0.03999999725,-9.820450449999997,-0.0008104782376932308,-0.0013614724400063105,-0.0002455410060005881,-0.009554782602940775,-0.0006326270130015653
0.195,0.0001401355749999156,-0.7849786719999995,5.4875492800046205e-05,-2.3558654000000003,6.226692749990297e-05,1.5709826599999999,0.7859685499999999,0.0399999915,0.0399999965,-9.820390299999996,-0.000851327285639078,-0.0014515796600063926,-0.00025393904400059577,-0.009623608365659751,-0.0006549774420015857
0.1975,0.00013894572249991452,-0.7849717659999995,5.55268684000468e-05,-2.3558708000000004,6.089936624990173e-05,1.57098278,0.7859671249999999,0.03999999075,0.03999999575,-9.820330149999997,-0.0008921763335849251,-0.0015416868800064746,-0.00026233708200060343,-0.00969243412837873,-0.0006773278710016059
0.2,0.00013775586999989234,-0.7849648599999995,5.617824400005892e-05,-2.3558762000000004,5.9531804999876244e-05,1.5709829,0.7859656999999999,0.03999999,0.039999995,-9.820269999999988,-0.0009330253815309513,-0.0016317941000054505,-0.00027073512000070683,-0.009761259891097262,-0.0006996783000018558
0.2025,0.0001362763854999112,-0.7849585059999996,5.698797190004861e-05,-2.3558813900000004,5.78310121498979e-05,1.570983035,0.7859639809999999,0.0399999897,0.03999999395,-9.820102899999991,-0.0009763340116504149,-0.0017066993450044966,-0.00028044957600058317,-0.009823958622295379,-0.0007251828360015311
0.20500000000000002,0.00013479690099993003,-0.7849521519999997,5.77976998000383e-05,-2.3558865800000004,5.613021929991955e-05,1.57098317,0.785962262,0.0399999894,0.0399999929,-9.819935799999993,-0.0010196426417698784,-0.001781604590003543,-0.0002901640320004595,-0.009886657353493495,-0.0007506873720012064
0.20750000000000002,0.00013331741649994885,-0.7849457979999998,5.8607427700027985e-05,-2.3558917700000004,5.442942644994121e-05,1.570983305,0.785960543,0.0399999891,0.03999999185,-9.819768699999994,-0.0010629512718893421,-0.0018565098350025893,-0.0002998784880003358,-0.009949356084691613,-0.0007761919080008816
0.21,0.0001318379319999677,-0.7849394439999998,5.941715560001767e-05,-2.3558969600000004,5.272863359996288e-05,1.57098344,0.785958824,0.0399999888,0.0399999908,-9.819601599999997,-0.0011062599020088052,-0.0019314150800016348,-0.000309592944000212,-0.010012054815889728,-0.0008016964440005567
0.2125,0.00013035844749998654,-0.7849330899999999,6.022688350000736e-05,-2.3559021500000004,5.1027840749984536e-05,1.570983575,0.785957105,0.0399999885,0.03999998975,-9.819434499999998,-0.0011495685321282686,-0.002006320325000681,-0.00031930740000008835,-0.010074753547087846,-0.000827200980000232
0.215,0.0001288789630000054,-0.784926736,6.103661139999705e-05,-2.3559073400000003,4.932704790000619e-05,1.57098371,0.785955386,0.0399999882,0.0399999887,-9.819267400000001,-0.0011928771622477323,-0.0020812255699997275,-0.00032902185599996463,-0.010137452278285962,-0.0008527055159999071
0.2175,0.00012729017375001314,-0.784920545,6.190609669999281e-05,-2.3559123100000003,4.750044935001512e-05,1.570983845,0.7859535080000001,0.0399999878,0.0399999878,-9.81913515,-0.0012388092523902626,-0.002154430229999492,-0.00033925587499991796,-0.010199272260069388,-0.0008793840829997888
0.22,0.00012548277499998685,-0.78491468,6.289509680000719e-05,-2.3559168400000003,4.5422239399984875e-05,1.57098398,0.785951312,0.0399999872,0.0399999872,-9.8190726,-0.0012899882625792124,-0.002224233720000508,-0.000350529020000082,-0.010259334743023337,-0.0009084107120002112
0.2225,0.00012367537624996053,-0.7849088149999999,6.388409690002159e-05,-2.3559213700000003,4.334402944995464e-05,1.570984115,0.785949116,0.0399999866,0.0399999866,-9.81901005,-0.001341167272768162,-0.0022940372100015236,-0.0003618021650002461,-0.010319397225977286,-0.0009374373410006336
0.225,0.00012186797749993424,-0.7849029499999998,6.487309700003597e-05,-2.3559259000000004,4.126581949992439e-05,1.57098425,0.7859469199999999,0.039999986,0.039999986,-9.818947499999998,-0.001392346282957112,-0.0023638407000025393,-0.00037307531000041016,-0.010379459708931235,-0.000966463970001056
0.2275,0.00012006057874990794,-0.7848970849999997,6.586209710005037e-05,-2.3559304300000004,3.918760954989415e-05,1.570984385,0.7859447239999998,0.0399999854,0.0399999854,-9.818884949999998,-0.0014435252931460619,-0.0024336441900035554,-0.0003843484550005742,-0.010439522191885185,-0.0009954905990014783
0.23,0.00011825317999988164,-0.7848912199999997,6.685109720006477e-05,-2.3559349600000004,3.71093995998639e-05,1.5709845199999999,0.7859425279999999,0.0399999848,0.0399999848,-9.818822399999997,-0.0014947043033350115,-0.002503447680004571,-0.00039562160000073825,-0.010499584674839134,-0.0010245172280019007
0.2325,0.00011644578124985534,-0.7848853549999996,6.784009730007915e-05,-2.3559394900000004,3.503118964983366e-05,1.570984655,0.7859403319999998,0.039999984200000005,0.039999984200000005,-9.818759849999996,-0.0015458833135239614,-0.002573251170005587,-0.0004068947450009023,-0.010559647157793083,-0.0010535438570023232
0.23500000000000001,0.00011439351849981406,-0.7848798159999996,6.896297260010173e-05,-2.3559437700000005,3.267126969978619e-05,1.5709848,0.7859378699999997,0.0399999833,0.0399999829,-9.818672099999992,-0.0016011878731709448,-0.0026410474800057106,-0.000418769284001041,-0.0106170119717765,-0.0010848133000027694
0.23750000000000002,0.00011221882374981208,-0.7848744399999995,7.015278550010282e-05,-2.3559479250000006,3.017049474978391e-05,1.57098495,0.7859352749999997,0.03999998225,0.039999981250000004,-9.818571749999991,-0.001658555207546157,-0.0027078402000057715,-0.0004309445200010521,-0.010673027951275166,-0.0011172041500027987
0.24,0.00011004412899981013,-0.7848690639999996,7.134259840010388e-05,-2.3559520800000002,2.7669719799781664e-05,1.5709851,0.7859326799999997,0.0399999812,0.0399999796,-9.818471399999991,-0.0017159225419213686,-0.0027746329200058315,-0.00044311975600106303,-0.01072904393077383,-0.001149595000002828
0.2425,0.00010786943424980814,-0.7848636879999995,7.253241130010497e-05,-2.3559562350000003,2.5168944849779386e-05,1.5709852499999999,0.7859300849999997,0.03999998015,0.03999997795,-9.818371049999993,-0.0017732898762965808,-0.0028414256400058923,-0.00045529499200107413,-0.010785059910272498,-0.0011819858500028574
0.245,0.00010569473949980617,-0.7848583119999996,7.372222420010604e-05,-2.3559603900000003,2.266816989977711e-05,1.5709854,0.7859274899999997,0.0399999791,0.039999976300000004,-9.818270699999992,-0.0018306572106717932,-0.002908218360005953,-0.0004674702280010852,-0.010841075889771163,-0.001214376700002887
0.2475,0.00010352004474980419,-0.7848529359999995,7.491203710010713e-05,-2.3559645450000004,2.0167394949774835e-05,1.57098555,0.7859248949999997,0.03999997805,0.03999997465,-9.818170349999992,-0.0018880245450470052,-0.002975011080006014,-0.0004796454640010963,-0.010897091869269829,-0.0012467675500029164
0.25,0.00010134534999976515,-0.7848475599999996,7.610185000012848e-05,-2.3559687000000005,1.7666619999729897e-05,1.5709857,0.7859222999999996,0.039999977,0.039999973,-9.818069999999992,-0.0019453918794225702,-0.003041803800004617,-0.00049182070000125,-0.010953107848768216,-0.0012791584000032825
0.2525,9.87631007497628e-05,-0.7848426009999996,7.751450200012977e-05,-2.3559727050000006,1.4696826429727194e-05,1.570985835,0.7859191799999997,0.0399999764,0.03999997255,-9.817981199999993,-0.0020066358789392158,-0.003092567685004663,-0.0005055648100012626,-0.011006054794420638,-0.0013152493600033152
0.255,9.618085149976045e-05,-0.7848376419999995,7.892715400013106e-05,-2.35597671,1.1727032859724491e-05,1.57098597,0.7859160599999997,0.0399999758,0.0399999721,-9.817892399999993,-0.0020678798784558618,-0.0031433315700047093,-0.000519308920001275,-0.011059001740073062,-0.0013513403200033482
0.2575,9.359860224975809e-05,-0.7848326829999995,8.033980600013234e-05,-2.3559807150000003,8.757239289721787e-06,1.570986105,0.7859129399999997,0.0399999752,0.03999997165,-9.817803599999992,-0.0021291238779725073,-0.0031940954550047553,-0.0005330530300012876,-0.011111948685725485,-0.001387431280003381
0.26,9.101635299975574e-05,-0.7848277239999996,8.175245800013363e-05,-2.3559847200000004,5.787445719719084e-06,1.5709862399999999,0.7859098199999998,0.0399999746,0.039999971200000005,-9.817714799999992,-0.0021903678774891533,-0.0032448593400048018,-0.0005467971400013001,-0.01116489563137791,-0.0014235222400034138
0.2625,8.843410374975339e-05,-0.7848227649999995,8.316511000013492e-05,-2.3559887250000004,2.817652149716379e-06,1.570986375,0.7859066999999997,0.039999974,0.03999997075,-9.817625999999992,-0.002251611877005799,-0.003295623225004848,-0.0005605412500013126,-0.011217842577030332,-0.0014596132000034468
0.265,8.585185449975104e-05,-0.7848178059999995,8.45777620001362e-05,-2.35599273,-1.5214142028632392e-07,1.57098651,0.7859035799999997,0.0399999734,0.0399999703,-9.817537199999991,-0.002312855876522445,-0.0033463871100048942,-0.0005742853600013251,-0.011270789522682755,-0.0014957041600034795
0.2675,8.312006874970503e-05,-0.7848129749999996,8.607217475016136e-05,-2.35599651,-3.29398681033926e-06,1.57098682,0.7859002849999996,0.03999997285,0.0399999698,-9.817470099999998,-0.0023772704415092063,-0.0033984184650053106,-0.0005884196075014516,-0.011323339119558597,-0.0015330086650038666
0.27,8.008920999970226e-05,-0.7848083999999995,8.773010900016286e-05,-2.3559998400000004,-6.779935840342434e-06,1.5709874799999999,0.7858966399999997,0.0399999724,0.0399999692,-9.817446399999998,-0.0024480261374334304,-0.0034529847600053604,-0.0006033341300014651,-0.011375094018881624,-0.001572740260003903
0.2725,7.705835124969951e-05,-0.7848038249999996,8.938804325016437e-05,-2.35600317,-1.0265884870345609e-05,1.57098814,0.7858929949999997,0.039999971950000004,0.0399999686,-9.817422699999998,-0.002518781833357655,-0.0035075510550054098,-0.0006182486525014787,-0.011426848918204651,-0.001612471855003939
0.275,7.402749249969675e-05,-0.7847992499999995,9.104597750016589e-05,-2.3560065000000003,-1.3751833900348782e-05,1.5709888,0.7858893499999997,0.0399999715,0.039999968,-9.817398999999998,-0.0025895375292818794,-0.0035621173500054596,-0.0006331631750014923,-0.011478603817527678,-0.0016522034500039751
0.2775,7.0996633749694e-05,-0.7847946749999996,9.27039117501674e-05,-2.35600983,-1.7237782930351957e-05,1.57098946,0.7858857049999997,0.03999997105,0.0399999674,-9.817375299999998,-0.002660293225206104,-0.003616683645005509,-0.0006480776975015058,-0.011530358716850705,-0.0016919350450040115
0.28,6.796577499969123e-05,-0.7847900999999996,9.43618460001689e-05,-2.3560131600000003,-2.0723731960355128e-05,1.57099012,0.7858820599999997,0.039999970600000004,0.0399999668,-9.817351599999999,-0.002731048921130328,-0.0036712499400055588,-0.0006629922200015194,-0.011582113616173732,-0.0017316666400040476
0.28250000000000003,6.493491624968848e-05,-0.7847855249999995,9.601978025017041e-05,-2.3560164900000005,-2.4209680990358303e-05,1.57099078,0.7858784149999997,0.03999997015,0.0399999662,-9.817327899999999,-0.0028018046170545526,-0.0037258162350056086,-0.000677906742501533,-0.011633868515496758,-0.0017713982350040837
0.28500000000000003,6.157720429963488e-05,-0.7847811899999996,9.785642700019972e-05,-2.3560196,-2.8071643100419962e-05,1.57099147,0.7858743949999996,0.039999969600000004,0.0399999652,-9.817233799999988,-0.0028741434915066735,-0.003779724400005556,-0.0006938055510016997,-0.01168147409335246,-0.00181350909000449
0.28750000000000003,5.8056065749631665e-05,-0.7847769749999995,9.978243000020148e-05,-2.3560226,-3.212161175042365e-05,1.5709921750000002,0.7858701874999996,0.039999969,0.039999964,-9.817104499999987,-0.002947273955222375,-0.0038333035000056043,-0.0007101965025017146,-0.011727005010475463,-0.0018568095750045293
0.29,5.453492719962854e-05,-0.7847727599999995,0.00010170843300020318,-2.3560256,-3.6171580400427246e-05,1.5709928800000001,0.7858659799999996,0.0399999684,0.0399999628,-9.816975199999987,-0.0030204044189380747,-0.0038868826000056523,-0.0007265874540017291,-0.011772535927598462,-0.001900110060004568
0.2925,5.1013788649625336e-05,-0.7847685449999996,0.00010363443600020494,-2.3560286,-4.0221549050430934e-05,1.570993585,0.7858617724999996,0.0399999678,0.0399999616,-9.816845899999986,-0.0030935348826537767,-0.003940461700005701,-0.0007429784055017441,-0.011818066844721465,-0.0019434105450046072
0.295,4.749265009962213e-05,-0.7847643299999996,0.0001055604390002067,-2.3560316000000006,-4.427151770043462e-05,1.5709942900000002,0.7858575649999996,0.0399999672,0.0399999604,-9.816716599999987,-0.003166665346369478,-0.00399404080000575,-0.000759369357001759,-0.011863597761844466,-0.0019867110300046467
0.2975,4.3971511549618925e-05,-0.7847601149999995,0.00010748644200020844,-2.3560346000000005,-4.83214863504383e-05,1.5709949950000002,0.7858533574999995,0.0399999666,0.039999959200000004,-9.816587299999986,-0.0032397958100851797,-0.004047619900005799,-0.0007757603085017739,-0.011909128678967467,-0.002030011515004686
0.3,4.045037299955762e-05,-0.7847558999999995,0.00010941244500024197,-2.3560376000000005,-5.237145500050886e-05,1.5709957,0.7858491499999994,0.039999966,0.039999958,-9.816457999999995,-0.0033129262738024775,-0.004101199000003917,-0.0007921512600019524,-0.011954659596090282,-0.0020733120000051477
0.3025,3.639681844955393e-05,-0.7847520089999995,0.00011162957175024398,-2.3560404650000004,-5.70340737505131e-05,1.5709963900000001,0.7858442779999995,0.039999966,0.039999958,-9.816414799999995,-0.0034006832284017323,-0.004137092200003949,-0.0008100417600019688,-0.011998481163759832,-0.0021204817050051905
0.305,3.2343263899550235e-05,-0.7847481179999996,0.000113846698500246,-2.3560433300000003,-6.169669250051735e-05,1.5709970800000002,0.7858394059999995,0.039999966,0.039999958,-9.816371599999997,-0.0034884401830009874,-0.004172985400003982,-0.0008279322600019851,-0.012042302731429382,-0.002167651410005234
0.3075,2.8289709349546546e-05,-0.7847442269999995,0.00011606382525024801,-2.3560461950000002,-6.635931125052159e-05,1.5709977700000002,0.7858345339999995,0.039999966,0.039999958,-9.816328399999996,-0.003576197137600242,-0.004208878600004015,-0.0008458227600020013,-0.012086124299098932,-0.0022148211150052766
0.31,2.4236154799542853e-05,-0.7847403359999995,0.00011828095200025003,-2.35604906,-7.102193000052583e-05,1.57099846,0.7858296619999995,0.039999966,0.039999958,-9.816285199999996,-0.003663954092199497,-0.004244771800004048,-0.0008637132600020176,-0.012129945866768483,-0.0022619908200053195
0.3125,2.0182600249539164e-05,-0.7847364449999995,0.00012049807875025204,-2.356051925,-7.568454875053009e-05,1.57099915,0.7858247899999995,0.039999966,0.039999958,-9.816241999999995,-0.003751711046798752,-0.00428066500000408,-0.0008816037600020339,-0.012173767434438033,-0.0023091605250053627
0.315,1.6129045699535472e-05,-0.7847325539999995,0.00012271520550025407,-2.3560547900000004,-8.034716750053434e-05,1.57099984,0.7858199179999994,0.039999966,0.039999958,-9.816198799999995,-0.003839468001398007,-0.004316558200004113,-0.0008994942600020502,-0.012217589002107582,-0.0023563302300054056
0.3175,1.1883843699465375e-05,-0.7847287669999995,0.0001250371310002924,-2.3560575150000003,-8.523027950061498e-05,1.57100054,0.7858148164999994,0.0399999662,0.0399999581,-9.816156599999996,-0.003927672223663877,-0.0043503014000034,-0.000917824957002219,-0.012261062674229266,-0.0024047581000058845
0.32,7.255346799461161e-06,-0.7847251879999996,0.0001275686540002947,-2.35605996,-9.055437800061983e-05,1.57100126,0.7858092559999994,0.0399999668,0.0399999584,-9.816116399999995,-0.0040167709812625125,-0.004379744600003428,-0.0009370360480022364,-0.012303840555255581,-0.002455702300005931
0.3225,2.626849899456947e-06,-0.7847216089999995,0.000130100177000297,-2.3560624050000003,-9.587847650062468e-05,1.5710019800000001,0.7858036954999994,0.0399999674,0.039999958700000005,-9.816076199999994,-0.004105869738861149,-0.004409187800003454,-0.000956247139002254,-0.012346618436281894,-0.002506646500005977
0.325,-2.001647000547266e-06,-0.7847180299999995,0.00013263170000029931,-2.35606485,-0.00010120257500062952,1.5710027,0.7857981349999994,0.039999968000000004,0.039999959,-9.816035999999995,-0.004194968496459785,-0.004438631000003481,-0.0009754582300022715,-0.012389396317308208,-0.0025575907000060234
0.3275,-6.630143900551479e-06,-0.7847144509999995,0.00013516322300030162,-2.3560672950000003,-0.00010652667350063436,1.57100342,0.7857925744999994,0.0399999686,0.0399999593,-9.815995799999994,-0.004284067254058421,-0.0044680742000035075,-0.0009946693210022889,-0.012432174198334523,-0.00260853490000607
0.33,-1.1258640800555692e-05,-0.7847108719999996,0.00013769474600030393,-2.35606974,-0.0001118507720006392,1.57100414,0.7857870139999994,0.0399999692,0.0399999596,-9.815955599999995,-0.004373166011657057,-0.004497517400003535,-0.0010138804120023064,-0.012474952079360837,-0.0026594791000061164
0.3325,-1.5887137700559904e-05,-0.7847072929999995,0.00014022626900030624,-2.3560721850000004,-0.00011717487050064406,1.5710048600000002,0.7857814534999994,0.0399999698,0.0399999599,-9.815915399999994,-0.004462264769255693,-0.004526960600003562,-0.001033091503002324,-0.01251772996038715,-0.0027104233000061627
0.335,-2.0927454600591696e-05,-0.7847038999999996,0.0001429829880003236,-2.35607433,-0.00012297277400068063,1.57100558,0.7857754029999993,0.03999997,0.03999996,-9.815866199999993,-0.004561859695252655,-0.004554472360002994,-0.0010532306000023237,-0.01255923556164367,-0.002763899690006174
0.3375,-2.6173681500524902e-05,-0.7847005999999996,0.0001458523050002871,-2.356076325,-0.0001290075800006038,1.5710063,0.7857691074999994,0.03999997,0.03999996,-9.815812499999995,-0.004666702705445914,-0.004581018400002656,-0.0010738337000020615,-0.01260010502301564,-0.0028186421750054772
0.34,-3.1419908400458105e-05,-0.7846972999999997,0.00014872162200025056,-2.35607832,-0.00013504238600052696,1.5710070200000001,0.7857628119999994,0.03999997,0.03999996,-9.815758799999994,-0.004771545715639175,-0.004607564440002317,-0.001094436800001799,-0.01264097448438761,-0.00287338466000478
0.3425,-3.666613530039131e-05,-0.7846939999999998,0.00015159093900021401,-2.356080315,-0.00014107719200045013,1.57100774,0.7857565164999996,0.03999997,0.03999996,-9.815705099999995,-0.004876388725832435,-0.0046341104800019794,-0.0011150399000015368,-0.012681843945759578,-0.0029281271450040834
0.34500000000000003,-4.191236220032452e-05,-0.7846906999999997,0.0001544602560001775,-2.35608231,-0.0001471119980003733,1.57100846,0.7857502209999996,0.03999997,0.03999996,-9.815651399999997,-0.004981231736025695,-0.004660656520001642,-0.0011356430000012746,-0.012722713407131549,-0.0029828696300033862
0.34750000000000003,-4.715858910025772e-05,-0.7846873999999998,0.00015732957300014096,-2.356084305,-0.00015314680400029646,1.5710091800000001,0.7857439254999997,0.03999997,0.03999996,-9.815597699999996,-0.005086074746218956,-0.004687202560001304,-0.0011562461000010121,-0.012763582868503518,-0.003037612115002689
0.35000000000000003,-5.240481600021497e-05,-0.7846840999999999,0.0001601988900001176,-2.3560863,-0.00015918161000024727,1.5710099,0.7857376299999997,0.03999997,0.03999996,-9.815543999999997,-0.005190917756412319,-0.004713748600000628,-0.0011768492000008048,-0.01280445232987543,-0.003092354600002131
0.3525,-5.8311719100381385e-05,-0.7846810459999998,0.0001634295135002086,-2.356088085,-0.00016597654250043872,1.57101113,0.7857305409999995,0.03999997,0.03999996,-9.815481449999995,-0.005298586445867467,-0.004731038515001116,-0.0011989609250014277,-0.012843706179412715,-0.003150911135003781
0.355,-6.421862220054793e-05,-0.7846779919999998,0.00016666013700029968,-2.35608987,-0.0001727714750006303,1.57101236,0.7857234519999993,0.03999997,0.03999996,-9.815418899999994,-0.005406255135322617,-0.004748328430001603,-0.0012210726500020512,-0.012882960028950001,-0.003209467670005432
0.3575,-7.012552530071448e-05,-0.7846749379999997,0.00016989076050039076,-2.356091655,-0.00017956640750082189,1.5710135900000002,0.7857163629999991,0.03999997,0.03999996,-9.815356349999993,-0.005513923824777768,-0.004765618345002091,-0.0012431843750026746,-0.012922213878487288,-0.003268024205007083
0.36,-7.603242840088103e-05,-0.7846718839999995,0.00017312138400048184,-2.35609344,-0.00018636134000101347,1.5710148200000003,0.7857092739999989,0.03999997,0.03999996,-9.81529379999999,-0.005621592514232919,-0.004782908260002579,-0.0012652961000032981,-0.012961467728024575,-0.003326580740008734
0.3625,-8.193933150104758e-05,-0.7846688299999995,0.00017635200750057292,-2.3560952250000002,-0.00019315627250120505,1.5710160500000003,0.7857021849999987,0.03999997,0.03999996,-9.81523124999999,-0.005729261203688069,-0.004800198175003066,-0.0012874078250039215,-0.013000721577561863,-0.003385137275010385
0.365,-8.784623460121412e-05,-0.7846657759999994,0.00017958263100066404,-2.3560970100000005,-0.00019995120500139663,1.5710172800000004,0.7856950959999985,0.03999997,0.03999996,-9.815168699999987,-0.00583692989314322,-0.004817488090003554,-0.001309519550004545,-0.013039975427099148,-0.003443693810012036
0.3675,-9.398770650145496e-05,-0.7846628009999994,0.00018294153850079574,-2.3560987700000005,-0.0002070159855016737,1.5710185250000004,0.7856877234999983,0.03999997,0.0399999599,-9.815116199999993,-0.005950087774572242,-0.004838562990006305,-0.0013320924450051712,-0.013078258279718964,-0.003503481785013701
0.37,-0.0001005983160013708,-0.7846599839999995,0.0001865570140007497,-2.3561004800000003,-0.0002146204620015769,1.5710198000000004,0.7856797839999984,0.03999997,0.0399999596,-9.815083799999993,-0.0060742240399379215,-0.00486720786000594,-0.0013555876800048722,-0.013114599138505796,-0.0035657326400129084
0.3725,-0.00010720892550128663,-0.7846571669999994,0.00019017248950070368,-2.35610219,-0.00022222493850148007,1.5710210750000002,0.7856718444999985,0.03999997,0.0399999593,-9.815051399999994,-0.006198360305303601,-0.004895852730005575,-0.001379082915004573,-0.013150939997292627,-0.003627983495012116
0.375,-0.00011381953500120247,-0.7846543499999995,0.00019378796500065765,-2.3561039000000004,-0.00022982941500138325,1.5710223500000002,0.7856639049999985,0.03999997,0.039999959,-9.815018999999994,-0.00632249657066928,-0.00492449760000521,-0.0014025781500042738,-0.01318728085607946,-0.0036902343500113234
0.3775,-0.0001204301445011183,-0.7846515329999995,0.00019740344050061162,-2.35610561,-0.00023743389150128642,1.5710236250000003,0.7856559654999986,0.03999997,0.039999958700000005,-9.814986599999996,-0.00644663283603496,-0.004953142470004846,-0.0014260733850039748,-0.013223621714866293,-0.003752485205010531
0.38,-0.00012704075400103414,-0.7846487159999995,0.0002010189160005656,-2.35610732,-0.00024503836800118963,1.5710249,0.7856480259999987,0.03999997,0.0399999584,-9.814954199999995,-0.006570769101400639,-0.004981787340004481,-0.0014495686200036756,-0.013259962573653125,-0.0038147360600097385
0.3825,-0.00013365136350094997,-0.7846458989999996,0.00020463439150051956,-2.3561090300000003,-0.00025264284450109283,1.571026175,0.7856400864999988,0.03999997,0.0399999581,-9.814921799999995,-0.006694905366766319,-0.005010432210004116,-0.0014730638550033764,-0.013296303432439956,-0.0038769869150089456
0.385,-0.00014075977900103052,-0.7846432199999996,0.0002085221120005636,-2.35611046,-0.00026082012000118546,1.57102745,0.7856315509999988,0.03999997,0.039999958,-9.814899099999998,-0.006821641651931364,-0.005024319850000912,-0.0014975076800034903,-0.013332563824956662,-0.003941870950009273
0.3875,-0.0001481170975010372,-0.7846406099999996,0.00021254595500056728,-2.35611175,-0.0002692837950011932,1.5710287250000001,0.7856227174999988,0.03999997,0.039999958,-9.814881249999997,-0.006949677946995275,-0.005030828875000917,-0.0015224258000035129,-0.01336878398433833,-0.004008071575009333
0.39,-0.0001554744160010439,-0.7846379999999996,0.00021656979800057093,-2.3561130400000003,-0.0002777474700012009,1.5710300000000001,0.7856138839999988,0.03999997,0.039999958,-9.814863399999998,-0.007077714242059187,-0.005037337900000924,-0.0015473439200035357,-0.01340500414372,-0.004074272200009393
0.3925,-0.0001628317345010506,-0.7846353899999996,0.0002205936410005746,-2.35611433,-0.0002862111450012086,1.5710312750000002,0.7856050504999987,0.03999997,0.039999958,-9.814845549999998,-0.007205750537123098,-0.005043846925000929,-0.0015722620400035582,-0.013441224303101667,-0.004140472825009453
0.395,-0.0001701890530010573,-0.7846327799999996,0.00022461748400057826,-2.35611562,-0.00029467482000121627,1.5710325500000002,0.7855962169999987,0.03999997,0.039999958,-9.814827699999999,-0.0073337868321870095,-0.005050355950000935,-0.0015971801600035808,-0.013477444462483334,-0.004206673450009513
0.3975,-0.000177546371501064,-0.7846301699999996,0.00022864132700058193,-2.3561169100000003,-0.000303138495001224,1.5710338250000002,0.7855873834999987,0.03999997,0.039999958,-9.814809849999998,-0.007461823127250921,-0.005056864975000941,-0.0016220982800036036,-0.013513664621865002,-0.0042728740750095735
0.4,-0.0001849036900011856,-0.7846275599999997,0.00023266517000064844,-2.3561182,-0.0003116021700013639,1.5710351000000002,0.7855785499999985,0.03999997,0.039999958,-9.814791999999994,-0.007589859422317624,-0.005063374000001015,-0.0016470164000038276,-0.013549884781246472,-0.00433907470001019
0.4025,-0.00019305065650119304,-0.7846251359999996,0.00023712089450065248,-2.35611916,-0.0003209743200013724,1.5710363900000002,0.7855687864999985,0.039999970450000005,0.0399999583,-9.814746174999994,-0.007737075048520293,-0.005070349600001021,-0.0016733176850038515,-0.013584737852220844,-0.004409091145010253
0.405,-0.00020119762300120045,-0.7846227119999997,0.00024157661900065655,-2.35612012,-0.000330346470001381,1.57103768,0.7855590229999986,0.0399999709,0.0399999586,-9.814700349999994,-0.007884290674722962,-0.005077325200001028,-0.0016996189700038754,-0.013619590923195216,-0.004479107590010317
0.40750000000000003,-0.00020934458950120786,-0.7846202879999996,0.0002460323435006606,-2.35612108,-0.0003397186200013895,1.5710389700000003,0.7855492594999985,0.03999997135,0.0399999589,-9.814654524999993,-0.00803150630092563,-0.005084300800001034,-0.0017259202550038994,-0.013654443994169587,-0.004549124035010381
0.41000000000000003,-0.00021749155600121528,-0.7846178639999997,0.00025048806800066466,-2.3561220400000003,-0.00034909077000139807,1.5710402600000002,0.7855394959999985,0.0399999718,0.039999959200000004,-9.814608699999994,-0.0081787219271283,-0.005091276400001041,-0.0017522215400039233,-0.01368929706514396,-0.0046191404800104445
0.41250000000000003,-0.0002256385225012227,-0.7846154399999996,0.0002549437925006687,-2.356123,-0.0003584629200014066,1.5710415500000001,0.7855297324999986,0.03999997225,0.0399999595,-9.814562874999993,-0.00832593755333097,-0.005098252000001047,-0.0017785228250039471,-0.013724150136118331,-0.004689156925010508
0.41500000000000004,-0.0002337854890012301,-0.7846130159999996,0.00025939951700067274,-2.35612396,-0.0003678350700014151,1.57104284,0.7855199689999985,0.039999972700000004,0.0399999598,-9.814517049999992,-0.008473153179533639,-0.0051052276000010536,-0.0018048241100039712,-0.013759003207092703,-0.004759173370010572
0.4175,-0.00024220992700136378,-0.7846106549999996,0.00026400699800074585,-2.35612484,-0.0003775264750015689,1.5710443050000003,0.7855098719999983,0.039999973,0.03999996,-9.814473674999993,-0.008621119055919686,-0.005109511199999833,-0.0018316432200042305,-0.01379368356429554,-0.0048304574850112116
0.42,-0.00025118930800137194,-0.7846084199999996,0.00026891799200075034,-2.3561255599999997,-0.0003878563900015783,1.57104612,0.7854991079999983,0.039999973,0.03999996,-9.814435199999993,-0.008770585432671478,-0.005108410799999832,-0.0018594979800042558,-0.013828018493955546,-0.004904276940011279
0.4225,-0.0002601686890013801,-0.7846061849999997,0.00027382898600075483,-2.35612628,-0.0003981863050015877,1.5710479350000002,0.7854883439999983,0.039999973,0.03999996,-9.814396724999993,-0.008920051809423268,-0.0051073103999998305,-0.0018873527400042813,-0.013862353423615551,-0.004978096395011346
0.425,-0.0002691480700013883,-0.7846039499999996,0.00027873998000075927,-2.356127,-0.0004085162200015971,1.5710497500000002,0.7854775799999983,0.039999973,0.03999996,-9.814358249999994,-0.009069518186175058,-0.00510620999999983,-0.0019152075000043066,-0.013896688353275559,-0.005051915850011413
0.4275,-0.00027812745100139647,-0.7846017149999996,0.00028365097400076376,-2.35612772,-0.0004188461350016065,1.571051565,0.7854668159999983,0.039999973,0.03999996,-9.814319774999994,-0.00921898456292685,-0.0051051095999998285,-0.001943062260004332,-0.013931023282935565,-0.00512573530501148
0.43,-0.00028710683200140465,-0.7845994799999997,0.00028856196800076825,-2.35612844,-0.0004291760500016159,1.5710533800000002,0.7854560519999984,0.039999973,0.03999996,-9.814281299999994,-0.00936845093967864,-0.005104009199999828,-0.0019709170200043575,-0.01396535821259557,-0.005199554760011547
0.4325,-0.0002960862130014128,-0.7845972449999997,0.0002934729620007727,-2.35612916,-0.0004395059650016253,1.5710551950000002,0.7854452879999984,0.039999973,0.03999996,-9.814242824999994,-0.009517917316430433,-0.0051029087999998266,-0.0019987717800043826,-0.013999693142255576,-0.005273374215011614
0.435,-0.0003056489040015595,-0.7845951229999997,0.0002987029910008529,-2.35612978,-0.000450506993001794,1.5710570200000002,0.7854338199999982,0.039999973,0.03999996,-9.814210699999995,-0.009682249650386282,-0.005106325800000898,-0.0020275302600046225,-0.014032340794806742,-0.00534971683001228
0.4375,-0.00031550325000156846,-0.7845930574999997,0.00030409253750085784,-2.35613035,-0.00046184357750180433,1.5710588500000002,0.7854219999999982,0.039999973,0.03999996,-9.814181749999996,-0.00985401496293889,-0.005112001500000903,-0.0020567406000046493,-0.014064144808804087,-0.005427321025012351
0.44,-0.0003253575960015774,-0.7845909919999997,0.0003094820840008627,-2.35613092,-0.00047318016200181465,1.5710606800000002,0.7854101799999981,0.039999973,0.03999996,-9.814152799999995,-0.010025780275491496,-0.005117677200000908,-0.0020859509400046757,-0.01409594882280143,-0.005504925220012422
0.4425,-0.00033521194200158635,-0.7845889264999997,0.00031487163050086765,-2.35613149,-0.000484516746501825,1.5710625100000002,0.7853983599999981,0.039999973,0.03999996,-9.814123849999996,-0.010197545588044102,-0.0051233529000009135,-0.0021151612800047025,-0.014127752836798775,-0.005582529415012493
0.445,-0.00034506628800159533,-0.7845868609999996,0.0003202611770008725,-2.35613206,-0.0004958533310018353,1.5710643400000002,0.7853865399999981,0.039999973,0.03999996,-9.814094899999995,-0.010369310900596708,-0.005129028600000919,-0.002144371620004729,-0.014159556850796118,-0.005660133610012563
0.4475,-0.0003549206340016043,-0.7845847954999997,0.00032565072350087745,-2.35613263,-0.0005071899155018457,1.5710661700000002,0.7853747199999981,0.039999973,0.03999996,-9.814065949999996,-0.010541076213149314,-0.005134704300000924,-0.0021735819600047553,-0.014191360864793463,-0.005737737805012634
0.45,-0.00036477498000176344,-0.7845827299999997,0.00033104027000096446,-2.3561332,-0.0005185265000020288,1.5710680000000001,0.7853628999999979,0.039999973,0.03999996,-9.814036999999999,-0.010712841525702448,-0.005140379999998096,-0.002202792300005012,-0.014223164878790839,-0.005815342000013321
0.4525,-0.00037554656850177326,-0.7845807994999997,0.0003369315290009698,-2.35613371,-0.0005309184050020401,1.5710698600000002,0.7853499894999979,0.0399999736,0.0399999609,-9.8140235,-0.010887820599629422,-0.005128749899998086,-0.0022334057700050397,-0.014255162235354663,-0.005896708750013395
0.455,-0.00038631815700178307,-0.7845788689999996,0.0003428227880009752,-2.35613422,-0.0005433103100020512,1.5710717200000002,0.7853370789999978,0.0399999742,0.0399999618,-9.814009999999998,-0.011062799673556395,-0.0051171197999980746,-0.0022640192400050674,-0.014287159591918487,-0.005978075500013469
0.4575,-0.0003970897455017929,-0.7845769384999997,0.00034871404700098055,-2.35613473,-0.0005557022150020625,1.5710735800000002,0.7853241684999979,0.0399999748,0.0399999627,-9.813996499999998,-0.011237778747483369,-0.005105489699998064,-0.0022946327100050955,-0.014319156948482311,-0.006059442250013543
0.46,-0.0004078613340018027,-0.7845750079999997,0.0003546053060009859,-2.35613524,-0.0005680941200020738,1.5710754400000002,0.7853112579999979,0.0399999754,0.0399999636,-9.813982999999999,-0.011412757821410343,-0.005093859599998054,-0.0023252461800051232,-0.014351154305046136,-0.006140809000013617
0.4625,-0.0004186329225018125,-0.7845730774999996,0.0003604965650009913,-2.35613575,-0.0005804860250020851,1.5710773000000002,0.7852983474999978,0.039999976,0.0399999645,-9.813969499999999,-0.011587736895337318,-0.005082229499998044,-0.0023558596500051513,-0.01438315166160996,-0.006222175750013692
0.465,-0.00042940451100182233,-0.7845711469999996,0.00036638782400099664,-2.35613626,-0.0005928779300020964,1.5710791600000003,0.7852854369999979,0.0399999766,0.0399999654,-9.813956,-0.011762715969264292,-0.005070599399998032,-0.002386473120005179,-0.014415149018173784,-0.006303542500013765
0.4675,-0.0004404958240019953,-0.7845692669999996,0.00037245396850109125,-2.35613661,-0.0006056377270022954,1.5710811600000005,0.7852721434999976,0.039999977,0.0399999657,-9.813947500000001,-0.01194375688213414,-0.005058680899997875,-0.0024175548250054456,-0.014447375293826569,-0.006386114980014455
0.47000000000000003,-0.00045222658600200594,-0.7845674879999996,0.0003788698840010971,-2.35613664,-0.0006191333080023077,1.5710834400000004,0.7852580839999976,0.039999977,0.039999964799999996,-9.813949000000001,-0.012136921472880471,-0.005046185599997864,-0.002449573000005475,-0.014480059407656929,-0.006471098920014532
0.47250000000000003,-0.0004639573480020166,-0.7845657089999997,0.00038528579950110293,-2.35613667,-0.00063262888900232,1.5710857200000004,0.7852440244999976,0.039999977,0.0399999639,-9.8139505,-0.012330086063626802,-0.005033690299997852,-0.002481591175005504,-0.014512743521487289,-0.006556082860014609
0.47500000000000003,-0.0004756881100020273,-0.7845639299999997,0.00039170171500110877,-2.3561367,-0.0006461244700023323,1.5710880000000005,0.7852299649999976,0.039999977,0.039999963,-9.813952,-0.012523250654373133,-0.00502119499999784,-0.0025136093500055332,-0.014545427635317649,-0.006641066800014687
0.47750000000000004,-0.00048741887200203795,-0.7845621509999997,0.0003981176305011146,-2.35613673,-0.0006596200510023446,1.5710902800000004,0.7852159054999975,0.039999977,0.0399999621,-9.8139535,-0.012716415245119463,-0.005008699699997829,-0.0025456275250055624,-0.014578111749148009,-0.006726050740014764
0.48,-0.0004991496340020484,-0.7845603719999996,0.00040453354600112034,-2.35613676,-0.0006731156320023565,1.5710925600000005,0.7852018459999975,0.039999977,0.0399999612,-9.813955,-0.01290957983586579,-0.004996204399997818,-0.0025776457000055908,-0.014610795862978369,-0.006811034680014839
0.4825,-0.0005108803960020591,-0.7845585929999996,0.0004109494615011262,-2.35613679,-0.0006866112130023688,1.5710948400000004,0.7851877864999975,0.039999977,0.0399999603,-9.8139565,-0.01310274442661212,-0.004983709099997806,-0.00260966387500562,-0.014643479976808729,-0.006896018620014916
0.485,-0.000523278315002362,-0.7845568999999997,0.00041773033300129196,-2.3561366599999998,-0.0007008743060027175,1.5710972100000005,0.7851729199999972,0.039999977,0.03999996,-9.813923399999991,-0.01330949524421475,-0.0049723902599980085,-0.0026426180000062006,-0.014674390852456821,-0.006983541270016474
0.4875,-0.0005360098125025474,-0.7845552499999997,0.00042469368250139326,-2.3561364499999997,-0.0007155211550029306,1.5710996250000004,0.7851576499999969,0.039999977,0.03999996,-9.81387299999999,-0.013523039175240153,-0.004961659649997853,-0.002676040100006687,-0.014704415109014483,-0.007072333275017766
0.49,-0.0005487413100027326,-0.7845535999999996,0.0004316570320014946,-2.3561362399999997,-0.0007301680040031437,1.5711020400000006,0.7851423799999967,0.039999977,0.03999996,-9.81382259999999,-0.013736583106265556,-0.004950929039997697,-0.0027094622000071733,-0.014734439365572144,-0.007161125280019058
0.4925,-0.000561472807502918,-0.7845519499999996,0.00043862038150159596,-2.3561360299999996,-0.0007448148530033569,1.5711044550000006,0.7851271099999965,0.039999977,0.03999996,-9.813772199999988,-0.013950127037290958,-0.00494019842999754,-0.00274288430000766,-0.014764463622129806,-0.00724991728502035
0.495,-0.0005742043050031032,-0.7845502999999996,0.00044558373100169726,-2.35613582,-0.0007594617020035701,1.5711068700000006,0.7851118399999962,0.039999977,0.03999996,-9.813721799999987,-0.01416367096831636,-0.004929467819997384,-0.002776306400008146,-0.014794487878687469,-0.007338709290021643
0.4975,-0.0005869358025032884,-0.7845486499999995,0.0004525470805017986,-2.35613561,-0.0007741085510037832,1.5711092850000008,0.785096569999996,0.039999977,0.03999996,-9.813671399999986,-0.014377214899341764,-0.004918737209997228,-0.0028097285000086326,-0.01482451213524513,-0.0074275012950229344
0.5,-0.0005996673000037581,-0.7845469999999996,0.00045951043000205544,-2.3561354,-0.0007887554000043234,1.5711117000000008,0.7850812999999954,0.039999977,0.03999996,-9.813620999999994,-0.014590758830368184,-0.004908006599993763,-0.0028431506000094766,-0.014854536391802679,-0.007516293300025233
0.5025000000000001,-0.000613440705003583,-0.7845454549999996,0.0004670436910019597,-2.35613489,-0.000804601130004122,1.5711141300000007,0.7850647909999957,0.039999977,0.03999996,-9.813598949999994,-0.014808035921361927,-0.004885150064994054,-0.002877884090009035,-0.014884147839628343,-0.007608774105024058
0.505,-0.0006272141100034074,-0.7845439099999996,0.0004745769520018636,-2.35613438,-0.0008204468600039199,1.5711165600000008,0.7850482819999959,0.039999977,0.03999996,-9.813576899999994,-0.01502531301235566,-0.0048622935299943455,-0.0029126175800085925,-0.014913759287454005,-0.0077012549100228785
0.5075000000000001,-0.0006409875150032323,-0.7845423649999996,0.00048211021300176787,-2.35613387,-0.0008362925900037186,1.5711189900000007,0.785031772999996,0.039999977,0.03999996,-9.813554849999994,-0.015242590103349404,-0.004839436994994636,-0.0029473510700081507,-0.01494337073527967,-0.007793735715021703
0.51,-0.0006547609200030566,-0.7845408199999997,0.0004896434740016718,-2.35613336,-0.0008521383200035165,1.5711214200000005,0.7850152639999963,0.039999977,0.03999996,-9.813532799999994,-0.015459867194343137,-0.0048165804599949276,-0.002982084560007708,-0.014972982183105332,-0.007886216520020523
0.5125,-0.000668534325002881,-0.7845392749999996,0.0004971767350015758,-2.35613285,-0.0008679840500033145,1.5711238500000007,0.7849987549999965,0.039999977,0.03999996,-9.813510749999995,-0.015677144285336873,-0.004793723924995219,-0.003016818050007265,-0.015002593630930995,-0.007978697325019343
0.515,-0.0006823077300027059,-0.7845377299999997,0.00050470999600148,-2.35613234,-0.000883829780003113,1.5711262800000005,0.7849822459999967,0.039999977,0.03999996,-9.813488699999995,-0.015894421376330615,-0.00477086738999551,-0.0030515515400068235,-0.015032205078756657,-0.008071178130018168
0.5175,-0.0006964419850027967,-0.7845362199999997,0.0005124406745015297,-2.35613181,-0.0009000906600032174,1.5711288550000007,0.7849653029999966,0.03999997715,0.0399999603,-9.813467299999996,-0.016120432317302754,-0.0047455367649942995,-0.003086746255006799,-0.015061807353055085,-0.008164860650018087
0.52,-0.0007112979400028105,-0.7845347799999998,0.0005205661880015372,-2.35613124,-0.0009171818400032334,1.5711317200000006,0.7849474919999966,0.0399999776,0.0399999612,-9.813447199999995,-0.016363910958216942,-0.004715257959994271,-0.0031228634200068327,-0.015091391280299057,-0.008260946600018177
0.5225,-0.0007261538950028237,-0.7845333399999997,0.0005286917015015444,-2.35613067,-0.0009342730200032485,1.5711345850000007,0.7849296809999966,0.039999978049999996,0.0399999621,-9.813427099999997,-0.016607389599131116,-0.004684979154994245,-0.0031589805850068646,-0.015120975207543028,-0.008357032550018262
0.525,-0.0007410098500028376,-0.7845318999999997,0.000536817215001552,-2.3561301,-0.0009513642000032644,1.5711374500000006,0.7849118699999965,0.0399999785,0.039999963,-9.813406999999996,-0.016850868240045305,-0.004654700349994216,-0.003195097750006898,-0.015150559134787,-0.008453118500018352
0.5275,-0.0007558658050028507,-0.7845304599999997,0.0005449427285015592,-2.35612953,-0.0009684553800032796,1.5711403150000005,0.7848940589999965,0.03999997895,0.0399999639,-9.813386899999996,-0.017094346880959482,-0.00462442154499419,-0.0032312149150069305,-0.015180143062030972,-0.008549204450018437
0.53,-0.0007707217600028646,-0.7845290199999997,0.0005530682420015668,-2.35612896,-0.0009855465600032956,1.5711431800000006,0.7848762479999966,0.039999979399999996,0.039999964799999996,-9.813366799999995,-0.01733782552187367,-0.004594142739994161,-0.003267332080006964,-0.015209726989274945,-0.008645290400018527
0.5325,-0.0007855777150028778,-0.7845275799999998,0.0005611937555015739,-2.35612839,-0.0010026377400033106,1.5711460450000005,0.7848584369999965,0.03999997985,0.0399999657,-9.813346699999997,-0.017581304162787845,-0.004563863934994135,-0.003303449245006996,-0.015239310916518915,-0.008741376350018613
0.535,-0.0008011821800031102,-0.7845261959999997,0.0005697287440017011,-2.3561278,-0.0010205904700035782,1.5711490000000006,0.7848397329999962,0.03999998,0.039999967399999996,-9.8133387,-0.017830792255748747,-0.004538354039995499,-0.0033404381300072843,-0.015268425177788371,-0.008840392400019558
0.5375,-0.0008171609000031244,-0.7845248399999998,0.0005784684700017088,-2.3561272,-0.0010389739750035945,1.5711520000000005,0.7848205824999962,0.03999998,0.039999969499999996,-9.81333675,-0.018083285074730372,-0.004515228599995478,-0.0033778628750073176,-0.015297304606070771,-0.008940873500019647
0.54,-0.0008331396200031392,-0.7845234839999997,0.000587208196001717,-2.3561266,-0.0010573574800036116,1.5711550000000005,0.7848014319999962,0.03999998,0.039999971599999996,-9.8133348,-0.018335777893712005,-0.004492103159995456,-0.0034152876200073522,-0.015326184034353174,-0.009041354600019742
0.5425,-0.0008491183400031534,-0.7845221279999998,0.0005959479220017249,-2.3561259999999997,-0.0010757409850036279,1.5711580000000007,0.7847822814999962,0.03999998,0.0399999737,-9.81333285,-0.01858827071269363,-0.0044689777199954355,-0.0034527123650073856,-0.015355063462635574,-0.009141835700019831
0.545,-0.0008650970600031683,-0.7845207719999997,0.0006046876480017329,-2.3561254,-0.001094124490003645,1.5711610000000007,0.7847631309999962,0.03999998,0.0399999758,-9.813330899999999,-0.018840763531675266,-0.004445852279995414,-0.0034901371100074206,-0.015383942890917978,-0.009242316800019924
0.5475,-0.0008810757800031825,-0.7845194159999997,0.0006134273740017408,-2.3561248,-0.0011125079950036615,1.5711640000000007,0.7847439804999962,0.03999998,0.0399999779,-9.813328949999999,-0.01909325635065689,-0.004422726839995394,-0.003527561855007454,-0.015412822319200378,-0.009342797900020013
0.55,-0.00089705450000343,-0.7845180599999998,0.0006221671000018761,-2.3561242,-0.0011308915000039462,1.5711670000000006,0.7847248299999959,0.03999998,0.03999998,-9.813327000000003,-0.01934574916964215,-0.00439960139999307,-0.003564986600007753,-0.015441701747482961,-0.009443279000020604
0.5525,-0.0009141956750034452,-0.7845168059999997,0.0006315427300018845,-2.356123195,-0.0011506120750039636,1.5711700450000006,0.7847042754999959,0.03999998,0.03999997895,-9.813343800000004,-0.01961635276680655,-0.0043649717399930395,-0.003603733490007788,-0.015471491729846574,-0.009546241250020696
0.555,-0.0009313368500034612,-0.7845155519999998,0.0006409183600018932,-2.35612219,-0.0011703326500039821,1.5711730900000007,0.7846837209999958,0.03999998,0.0399999779,-9.813360600000003,-0.019886956363970962,-0.004330342079993007,-0.003642480380007824,-0.015501281712210187,-0.00964920350002079
0.5575,-0.0009484780250034765,-0.7845142979999997,0.0006502939900019016,-2.3561211849999997,-0.0011900532250039995,1.5711761350000006,0.7846631664999958,0.03999998,0.03999997685,-9.813377400000004,-0.02015755996113536,-0.004295712419992976,-0.0036812272700078585,-0.015531071694573798,-0.009752165750020882
0.56,-0.0009656192000034925,-0.7845130439999998,0.0006596696200019103,-2.3561201799999996,-0.001209773800004018,1.5711791800000006,0.7846426119999957,0.03999998,0.0399999758,-9.813394200000003,-0.020428163558299774,-0.004261082759992944,-0.0037199741600078945,-0.015560861676937411,-0.00985512800002098
0.5625,-0.0009827603750035077,-0.7845117899999997,0.0006690452500019185,-2.356119175,-0.0012294943750040354,1.5711822250000007,0.7846220574999958,0.03999998,0.03999997475,-9.813411000000004,-0.020698767155464176,-0.004226453099992913,-0.0037587210500079292,-0.015590651659301022,-0.009958090250021069
0.5650000000000001,-0.0009999015500035237,-0.7845105359999998,0.0006784208800019273,-2.35611817,-0.001249214950004054,1.5711852700000006,0.7846015029999958,0.03999998,0.039999973700000004,-9.813427800000005,-0.02096937075262859,-0.004191823439992881,-0.0037974679400079652,-0.015620441641664635,-0.010061052500021166
0.5675,-0.001017443245003787,-0.7845093049999997,0.0006880156200020713,-2.3561170949999997,-0.0012693963550043567,1.5711884850000009,0.7845804649999955,0.0399999802,0.03999997335,-9.813428649999993,-0.021244157012610433,-0.00415503118999151,-0.003836640105008263,-0.015650162193930263,-0.010165308100022058
0.5700000000000001,-0.001035785980003804,-0.7845081199999997,0.0006980485800020807,-2.3561158799999995,-0.0012904994200043766,1.5711920400000008,0.7845584599999954,0.0399999808,0.0399999744,-9.813397599999995,-0.021527308598219424,-0.004113913759991472,-0.0038766628200083003,-0.015679743886000054,-0.010272150400022158
0.5725,-0.0010541287150038204,-0.7845069349999998,0.0007080815400020896,-2.3561146649999998,-0.0013116024850043952,1.5711955950000007,0.7845364549999954,0.0399999814,0.03999997545,-9.813366549999994,-0.0218104601838284,-0.004072796329991436,-0.003916685535008336,-0.015709325578069845,-0.010378992700022252
0.5750000000000001,-0.0010724714500038375,-0.7845057499999998,0.000718114500002099,-2.3561134499999996,-0.001332705550004415,1.5711991500000007,0.7845144499999954,0.039999982,0.0399999765,-9.813335499999994,-0.022093611769437388,-0.004031678899991398,-0.003956708250008373,-0.01573890727013964,-0.010485835000022353
0.5775,-0.0010908141850038539,-0.7845045649999998,0.000728147460002108,-2.3561122349999994,-0.0013538086150044336,1.5712027050000008,0.7844924449999954,0.0399999826,0.039999977549999996,-9.813304449999993,-0.022376763355046365,-0.003990561469991361,-0.003996730965008409,-0.01576848896220943,-0.010592677300022448
0.58,-0.00110915692000387,-0.7845033799999998,0.0007381804200021168,-2.3561110199999997,-0.0013749116800044524,1.5712062600000007,0.7844704399999953,0.0399999832,0.0399999786,-9.813273399999993,-0.02265991494065534,-0.003949444039991324,-0.004036753680008444,-0.015798070654279222,-0.010699519600022541
0.5825,-0.0011274996550038872,-0.7845021949999997,0.0007482133800021262,-2.3561098049999996,-0.001396014745004472,1.5712098150000007,0.7844484349999953,0.0399999838,0.039999979649999996,-9.813242349999992,-0.022943066526264332,-0.003908326609991287,-0.004076776395008482,-0.015827652346349013,-0.010806361900022642
0.585,-0.0011466690600041673,-0.7845010539999998,0.0007586986160022795,-2.3561084399999994,-0.0014180690300047945,1.5712133800000008,0.784425454999995,0.039999984,0.039999979299999995,-9.813219899999995,-0.023243970982796285,-0.0038716341799926624,-0.004117625400008781,-0.015856114216154737,-0.010915243100023387
0.5875,-0.0011662518000041856,-0.7844999349999998,0.0007694099900022894,-2.3561069999999997,-0.0014405989250048155,1.5712169500000006,0.784401987499995,0.039999984,0.03999997825,-9.813201749999996,-0.023553751874781263,-0.00383715424999263,-0.00415888755000882,-0.015884016174828965,-0.01102514375002349
0.59,-0.001185834540004203,-0.7844988159999997,0.0007801213640022989,-2.3561055599999996,-0.0014631288200048355,1.5712205200000007,0.784378519999995,0.039999984,0.0399999772,-9.813183599999995,-0.023863532766766227,-0.0038026743199925995,-0.004200149700008857,-0.015911918133503188,-0.011135044400023587
0.5925,-0.0012054172800042213,-0.7844976969999997,0.000790832738002309,-2.3561041199999995,-0.0014856587150048565,1.5712240900000007,0.7843550524999949,0.039999984,0.03999997615,-9.813165449999996,-0.024173313658751205,-0.003768194389992567,-0.0042414118500088945,-0.015939820092177415,-0.011244945050023691
0.595,-0.0012250000200042387,-0.7844965779999997,0.0008015441120023185,-2.35610268,-0.0015081886100048766,1.5712276600000008,0.7843315849999949,0.039999984,0.0399999751,-9.813147299999995,-0.024483094550736172,-0.0037337144599925366,-0.004282674000008931,-0.01596772205085164,-0.011354845700023788
0.5975,-0.001244582760004257,-0.7844954589999997,0.0008122554860023285,-2.3561012399999997,-0.0015307185050048976,1.5712312300000009,0.784308117499995,0.039999984,0.03999997405,-9.813129149999995,-0.02479287544272115,-0.0036992345299925048,-0.00432393615000897,-0.015995624009525866,-0.011464746350023891
0.6,-0.0012641655000045532,-0.7844943399999997,0.0008229668600024906,-2.3560997999999995,-0.0015532484000052387,1.571234800000001,0.7842846499999946,0.039999984,0.039999973,-9.813110999999997,-0.025102656334708165,-0.00366475459998897,-0.004365198300009293,-0.016023525968200267,-0.011574647000024812
0.6025,-0.0012850261650045726,-0.7844932689999997,0.0008343774260025013,-2.3560981199999995,-0.001577248760005261,1.5712387900000009,0.7842596524999945,0.039999984,0.0399999736,-9.813106049999998,-0.025421828311006568,-0.0036142222999889233,-0.004407772845009332,-0.016052235662943438,-0.011688320900024918
0.605,-0.0013058868300045911,-0.7844921979999997,0.0008457879920025114,-2.3560964399999995,-0.0016012491200052823,1.5712427800000008,0.7842346549999946,0.039999984,0.0399999742,-9.813101099999999,-0.025741000287304954,-0.0035636899999888783,-0.004450347390009371,-0.01608094535768661,-0.011801994800025018
0.6075,-0.0013267474950046107,-0.7844911269999998,0.000857198558002522,-2.3560947599999995,-0.0016252494800053047,1.571246770000001,0.7842096574999945,0.039999984,0.0399999748,-9.813096149999998,-0.026060172263603357,-0.003513157699988831,-0.00449292193500941,-0.01610965505242978,-0.011915668700025125
0.61,-0.0013476081600046293,-0.7844900559999998,0.0008686091240025321,-2.3560930799999995,-0.001649249840005326,1.571250760000001,0.7841846599999944,0.039999984,0.0399999754,-9.813091199999999,-0.026379344239901747,-0.0034626253999887864,-0.004535496480009448,-0.01613836474717295,-0.012029342600025226
0.6125,-0.0013684688250046487,-0.7844889849999997,0.0008800196900025427,-2.3560913999999995,-0.0016732502000053483,1.571254750000001,0.7841596624999945,0.039999984,0.039999976,-9.81308625,-0.02669851621620015,-0.0034120930999887392,-0.004578071025009487,-0.016167074441916125,-0.012143016500025331
0.615,-0.0013893294900046672,-0.7844879139999998,0.0008914302560025528,-2.3560897199999995,-0.0016972505600053697,1.5712587400000009,0.7841346649999944,0.039999984,0.0399999766,-9.8130813,-0.02701768819249854,-0.0033615607999886946,-0.004620645570009525,-0.016195784136659293,-0.012256690400025432
0.6175,-0.001410628545004982,-0.7844868564999998,0.0009030806650027252,-2.3560880299999996,-0.001721755325005732,1.571262785000001,0.784109142499994,0.039999984,0.039999976449999995,-9.813073299999997,-0.027345688454884436,-0.003312386929989563,-0.004663633605009844,-0.016224138904369047,-0.012371262025026144
0.62,-0.0014328043800050018,-0.7844858259999998,0.0009152107600027359,-2.3560863199999997,-0.0017472689000057546,1.571266940000001,0.784082569999994,0.039999984,0.0399999748,-9.813059199999998,-0.027691345289427485,-0.0032659299199895215,-0.004707448620009882,-0.016251783818012677,-0.012487629100026248
0.6225,-0.0014549802150050225,-0.7844847954999998,0.0009273408550027472,-2.35608461,-0.0017727824750057785,1.571271095000001,0.784055997499994,0.039999984,0.03999997315,-9.813045099999998,-0.028037002123970547,-0.0032194729099894784,-0.0047512636350099235,-0.016279428731656307,-0.012603996175026356
0.625,-0.0014771560500050423,-0.7844837649999997,0.0009394709500027581,-2.3560828999999996,-0.0017982960500058012,1.571275250000001,0.784029424999994,0.039999984,0.039999971499999995,-9.813030999999997,-0.028382658958513593,-0.003173015899989437,-0.004795078650009962,-0.016307073645299937,-0.012720363250026458
0.6275000000000001,-0.001499331885005063,-0.7844827344999997,0.0009516010450027694,-2.35608119,-0.001823809625005825,1.571279405000001,0.7840028524999939,0.039999984,0.03999996985,-9.813016899999997,-0.028728315793056656,-0.0031265588899893936,-0.004838893665010003,-0.016334718558943567,-0.012836730325026567
0.63,-0.0015215077200050825,-0.7844817039999997,0.0009637311400027801,-2.3560794799999996,-0.0018493232000058475,1.571283560000001,0.783976279999994,0.039999984,0.0399999682,-9.813002799999998,-0.0290739726275997,-0.0030801018799893522,-0.0048827086800100426,-0.016362363472587196,-0.01295309740002667
0.6325000000000001,-0.0015436835550051032,-0.7844806734999997,0.0009758612350027914,-2.3560777699999997,-0.0018748367750058715,1.5712877150000009,0.7839497074999939,0.039999984,0.039999966549999995,-9.812988699999996,-0.029419629462142764,-0.0030336448699893087,-0.004926523695010083,-0.016390008386230826,-0.01306946447502678
0.635,-0.0015667605400054353,-0.7844796969999998,0.000988484490002973,-2.3560759099999995,-0.0019013873900062535,1.571292030000001,0.7839220509999935,0.039999984,0.0399999678,-9.812996300000004,-0.029776100628161488,-0.0029803337199868925,-0.00497117003001041,-0.016418512724346603,-0.013188870150027936
0.6375000000000001,-0.001590288100005457,-0.7844787474999998,0.0010013543250029851,-2.3560739749999997,-0.0019284565250062787,1.571296425000001,0.7838938524999934,0.039999984,0.0399999705,-9.813014750000004,-0.03013797895991246,-0.0029235954999868394,-0.005016232025010452,-0.01644744677469801,-0.013309795125028048
0.64,-0.001613815660005478,-0.7844777979999997,0.0010142241600029965,-2.3560720399999995,-0.0019555256600063027,1.571300820000001,0.7838656539999934,0.039999984,0.0399999732,-9.813033200000005,-0.030499857291663417,-0.0028668572799867894,-0.005061294020010492,-0.016476380825049416,-0.013430720100028156
0.6425,-0.001637343220005499,-0.7844768484999998,0.001027093995003008,-2.3560701049999997,-0.0019825947950063267,1.571305215000001,0.7838374554999934,0.039999984,0.0399999759,-9.813051650000004,-0.030861735623414377,-0.002810119059986739,-0.005106356015010532,-0.01650531487540082,-0.013551645075028262
0.645,-0.001660870780005521,-0.7844758989999998,0.00103996383000302,-2.3560681699999995,-0.002009663930006352,1.571309610000001,0.7838092569999934,0.039999984,0.0399999786,-9.813070100000004,-0.031223613955165347,-0.002753380839986686,-0.0051514180100105745,-0.01653424892575223,-0.013672570050028376
0.6475,-0.0016843983400055419,-0.7844749494999997,0.0010528336650030314,-2.3560662349999997,-0.002036733065006376,1.571314005000001,0.7837810584999934,0.039999984,0.0399999813,-9.813088550000005,-0.0315854922869163,-0.0026966426199866358,-0.005196480005010614,-0.016563182976103635,-0.013793495025028484
0.65,-0.001707925900005892,-0.7844739999999998,0.001065703500003223,-2.3560642999999994,-0.0020638022000067785,1.5713184000000011,0.7837528599999929,0.039999984,0.039999984,-9.813106999999999,-0.03194737061867268,-0.00263990439998588,-0.00524154200001092,-0.016592117026454967,-0.013914420000029177
0.6525,-0.001732841275005914,-0.7844730909999997,0.0010793325900032352,-2.3560620799999996,-0.002092467260006804,1.571323125000001,0.7837230009999929,0.0399999849,0.0399999864,-9.813098749999998,-0.032332088798375784,-0.002580194934985827,-0.005287721000010961,-0.016620729770518133,-0.014037802200029287
0.655,-0.0017577566500059372,-0.7844721819999998,0.0010929616800032479,-2.3560598599999993,-0.002121132320006831,1.5713278500000012,0.7836931419999928,0.0399999858,0.039999988800000004,-9.813090499999998,-0.03271680697807891,-0.0025204854699857715,-0.005333900000011004,-0.0166493425145813,-0.014161184400029402
0.6575,-0.0017826720250059594,-0.7844712729999997,0.00110659077000326,-2.3560576399999995,-0.0021497973800068564,1.5713325750000011,0.7836632829999929,0.039999986700000004,0.0399999912,-9.813082249999999,-0.033101525157782016,-0.0024607760049857185,-0.005380079000011045,-0.016677955258644465,-0.01428456660002951
0.66,-0.0018075874000059826,-0.7844703639999998,0.0011202198600032726,-2.3560554199999997,-0.002178462440006883,1.571337300000001,0.7836334239999928,0.0399999876,0.0399999936,-9.813073999999999,-0.03348624333748514,-0.002401066539985663,-0.005426258000011088,-0.01670656800270763,-0.014407948800029626
0.6625,-0.0018325027750060049,-0.7844694549999998,0.0011338489500032846,-2.3560531999999994,-0.0022071275000069084,1.5713420250000012,0.7836035649999927,0.0399999885,0.039999996,-9.813065749999998,-0.03387096151718825,-0.00234135707498561,-0.005472437000011129,-0.016735180746770797,-0.014531331000029736
0.665,-0.001857418150006028,-0.7844685459999997,0.0011474780400032973,-2.3560509799999996,-0.0022357925600069353,1.5713467500000011,0.7835737059999928,0.0399999894,0.0399999984,-9.8130575,-0.034255679696891375,-0.002281647609985554,-0.005518616000011173,-0.016763793490833963,-0.01465471320002985
0.6675,-0.0018828078650063957,-0.7844676529999998,0.0011613666650034985,-2.3560486899999997,-0.0022650025600073577,1.5713515300000012,0.7835432749999923,0.03999999,0.04,-9.813045699999996,-0.034643666260040215,-0.0022214377849851365,-0.005565193830011504,-0.01679218253121454,-0.014779157600030735
0.67,-0.0019091462600064203,-0.7844667919999998,0.001175774360003512,-2.3560462599999994,-0.002295302440007386,1.5713564200000012,0.7835116999999923,0.03999999,0.04,-9.813026799999996,-0.03503818959007341,-0.0021602272399850794,-0.005612569320011548,-0.016820124164230434,-0.014905726400030852
0.6725,-0.0019354846550064435,-0.7844659309999997,0.0011901820550035249,-2.3560438299999995,-0.0023256023200074125,1.5713613100000012,0.7834801249999922,0.03999999,0.04,-9.813007899999995,-0.03543271292010659,-0.0020990166949850252,-0.005659944810011591,-0.016848065797246323,-0.015032295200030965
0.675,-0.0019618230500064683,-0.7844650699999998,0.0012045897500035383,-2.3560413999999996,-0.0023559022000074407,1.571366200000001,0.7834485499999922,0.03999999,0.04,-9.812988999999995,-0.03582723625013979,-0.002037806149984968,-0.0057073203000116346,-0.016876007430262213,-0.015158864000031084
0.6775,-0.0019881614450064917,-0.7844642089999998,0.001218997445003551,-2.3560389699999993,-0.0023862020800074677,1.571371090000001,0.7834169749999922,0.03999999,0.04,-9.812970099999996,-0.03622175958017297,-0.0019765956049849136,-0.0057546957900116765,-0.016903949063278103,-0.015285432800031196
0.68,-0.002014499840006516,-0.7844633479999997,0.0012334051400035644,-2.3560365399999994,-0.002416501960007496,1.5713759800000011,0.7833853999999921,0.03999999,0.04,-9.812951199999995,-0.03661628291020617,-0.0019153850599848564,-0.005802071280011721,-0.016931890696293993,-0.015412001600031314
0.6825,-0.0020408382350065395,-0.7844624869999998,0.0012478128350035774,-2.3560341099999995,-0.002446801840007523,1.5713808700000012,0.7833538249999922,0.03999999,0.04,-9.812932299999995,-0.03701080624023935,-0.001854174514984802,-0.005849446770011763,-0.016959832329309883,-0.015538570400031426
0.685,-0.002068148270006927,-0.7844616499999998,0.0012627522300037895,-2.3560315099999993,-0.0024782178400079686,1.5713860300000013,0.7833210899999916,0.03999999,0.0399999995,-9.8129253,-0.03742956481884727,-0.001785910249982108,-0.005897579940012091,-0.01698796022684077,-0.01566713240003229
0.6875,-0.002095944125006952,-0.7844608249999998,0.001277957475003803,-2.356028824999999,-0.002510191900007997,1.5713913250000013,0.7832877749999916,0.03999999,0.03999999875,-9.81292425,-0.037860441021728995,-0.0017141191249820443,-0.005946091950012134,-0.017016181256629057,-0.015796691000032403
0.6900000000000001,-0.002123739980006978,-0.7844599999999998,0.0012931627200038172,-2.356026139999999,-0.002542165960008027,1.5713966200000014,0.7832544599999915,0.03999999,0.039999998,-9.8129232,-0.03829131722461073,-0.0016423279999819773,-0.0059946039600121785,-0.017044402286417345,-0.015926249600032524
0.6925,-0.0021515358350070028,-0.7844591749999998,0.0013083679650038307,-2.3560234549999994,-0.002574140020008055,1.5714019150000014,0.7832211449999916,0.03999999,0.03999999725,-9.81292215,-0.038722193427492446,-0.0015705368749819135,-0.0060431159700122215,-0.01707262331620563,-0.01605580820003264
0.6950000000000001,-0.0021793316900070286,-0.7844583499999997,0.0013235732100038448,-2.3560207699999993,-0.002606114080008085,1.5714072100000014,0.7831878299999916,0.03999999,0.0399999965,-9.8129211,-0.03915306963037418,-0.0014987457499818465,-0.006091627980012267,-0.017100844345993915,-0.016185366800032762
0.6975,-0.002207127545007053,-0.7844575249999998,0.0013387784550038585,-2.356018084999999,-0.0026380881400081134,1.5714125050000014,0.7831545149999916,0.03999999,0.03999999575,-9.81292005,-0.039583945833255904,-0.0014269546249817827,-0.00614013999001231,-0.0171290653757822,-0.016314925400032876
0.7000000000000001,-0.002234923400007459,-0.7844566999999998,0.0013539837000040803,-2.356015399999999,-0.0026700622000085804,1.5714178000000014,0.7831211999999911,0.03999999,0.039999995,-9.812918999999996,-0.04001482203613931,-0.0013551634999825896,-0.006188652000012641,-0.017157286405570273,-0.016444484000033805
0.7025,-0.002264210825007485,-0.7844558824999998,0.0013700050200040946,-2.356012549999999,-0.0027037530250086103,1.5714232600000015,0.783086114999991,0.03999999,0.039999995,-9.812900699999997,-0.04045227468024943,-0.0012868032589825288,-0.0062382851550126855,-0.017184662260122094,-0.016577227100033926
0.705,-0.002293498250007511,-0.7844550649999998,0.001386026340004109,-2.356009699999999,-0.0027374438500086403,1.5714287200000014,0.783051029999991,0.03999999,0.039999995,-9.812882399999996,-0.04088972732435954,-0.0012184430179824682,-0.006287918310012729,-0.01721203811467392,-0.016709970200034042
0.7075,-0.002322785675007538,-0.7844542474999998,0.0014020476600041239,-2.356006849999999,-0.002771134675008672,1.5714341800000016,0.7830159449999909,0.03999999,0.039999995,-9.812864099999995,-0.04132717996846967,-0.0011500827769824044,-0.006337551465012775,-0.017239413969225747,-0.016842713300034166
0.71,-0.0023520731000075644,-0.7844534299999998,0.001418068980004138,-2.356003999999999,-0.0028048255000087015,1.5714396400000015,0.7829808599999909,0.03999999,0.039999995,-9.812845799999996,-0.04176463261257979,-0.0010817225359823438,-0.0063871846200128195,-0.017266789823777568,-0.016975456400034283
0.7125,-0.0023813605250075916,-0.7844526124999999,0.0014340903000041529,-2.356001149999999,-0.002838516325008733,1.5714451000000014,0.7829457749999909,0.03999999,0.039999995,-9.812827499999996,-0.04220208525668992,-0.00101336229498228,-0.006436817775012866,-0.017294165678329396,-0.017108199500034407
0.715,-0.0024106479500076174,-0.7844517949999998,0.0014501116200041672,-2.355998299999999,-0.002872207150008763,1.5714505600000015,0.7829106899999908,0.03999999,0.039999995,-9.812809199999995,-0.04263953790080004,-0.0009450020539822193,-0.00648645093001291,-0.017321541532881218,-0.017240942600034524
0.7175,-0.0024404435350080427,-0.7844509874999999,0.0014664110550043998,-2.3559954299999992,-0.002906483465009253,1.5714561550000015,0.7828749814999904,0.0399999899,0.039999995,-9.812800000000003,-0.04308714028460079,-0.000872870272979202,-0.006536453150013245,-0.01734924195335055,-0.017374759750035492
0.72,-0.0024712554400080702,-0.7844501999999999,0.0014832667200044148,-2.355992519999999,-0.0029419307600092844,1.5714620200000016,0.7828380259999903,0.0399999896,0.039999995,-9.812809000000001,-0.04355504214775895,-0.0007931954119791313,-0.00658719350001329,-0.017377591505654124,-0.01751072500003561
0.7225,-0.002502067345008099,-0.7844494124999998,0.0015001223850044307,-2.3559896099999995,-0.0029773780550093176,1.5714678850000015,0.7828010704999903,0.0399999893,0.039999995,-9.812818000000002,-0.044022944010917144,-0.0007135205509790569,-0.006637933850013338,-0.017405941057957702,-0.017646690250035738
0.725,-0.002532879250008126,-0.7844486249999998,0.0015169780500044457,-2.3559866999999994,-0.003012825350009349,1.5714737500000016,0.7827641149999902,0.039999989,0.039999995,-9.812827000000002,-0.044490845874075306,-0.0006338456899789861,-0.006688674200013382,-0.017434290610261277,-0.017782655500035858
0.7275,-0.002563691155008155,-0.7844478374999998,0.0015338337150044613,-2.3559837899999994,-0.003048272645009382,1.5714796150000014,0.7827271594999902,0.0399999887,0.039999995,-9.812836000000003,-0.0449587477372335,-0.0005541708289789119,-0.00673941455001343,-0.017462640162564852,-0.017918620750035988
0.73,-0.0025945030600081826,-0.7844470499999998,0.0015506893800044763,-2.3559808799999993,-0.0030837199400094136,1.5714854800000015,0.7826902039999902,0.0399999884,0.039999995,-9.812845000000001,-0.04542664960039166,-0.0004744959679788411,-0.006790154900013475,-0.017490989714868427,-0.018054586000036107
0.7325,-0.0026253149650082115,-0.7844462624999998,0.001567545045004492,-2.3559779699999996,-0.0031191672350094467,1.5714913450000016,0.7826532484999902,0.0399999881,0.039999995,-9.812854000000002,-0.04589455146354985,-0.00039482110697876683,-0.006840895250013522,-0.017519339267172005,-0.018190551250036234
0.735,-0.002657164860008655,-0.7844454799999998,0.0015849687100047349,-2.3559748799999993,-0.0031558096500099576,1.5714973400000016,0.7826150619999896,0.0399999876,0.039999995,-9.812866700000002,-0.04638196043683469,-0.0003165214829792476,-0.006892250630013814,-0.01754771415144962,-0.018328370900037097
0.7375,-0.002689533750008685,-0.7844446999999998,0.0016026763750047514,-2.355971699999999,-0.003193049625009992,1.5715034000000017,0.7825762599999896,0.039999987,0.039999995,-9.812881250000004,-0.0468791229651712,-0.00023890947747917522,-0.006943913525013862,-0.017576101701714242,-0.01846711775003723
0.74,-0.002721902640008714,-0.7844439199999999,0.001620384040004767,-2.3559685199999993,-0.003230289600010025,1.5715094600000017,0.7825374579999895,0.0399999864,0.039999995,-9.812895800000003,-0.04737628549350768,-0.0001612974719791063,-0.006995576420013908,-0.017604489251978862,-0.01860586460003735
0.7425,-0.002754271530008744,-0.7844431399999998,0.0016380917050047834,-2.355965339999999,-0.00326752957501006,1.5715155200000017,0.7824986559999895,0.0399999858,0.039999995,-9.812910350000003,-0.047873448021844185,-8.36854664790339e-05,-0.007047239315013956,-0.017632876802243482,-0.01874461145003748
0.745,-0.002786640420008773,-0.7844423599999998,0.0016557993700047993,-2.355962159999999,-0.003304769550010093,1.5715215800000017,0.7824598539999894,0.039999985200000004,0.039999995,-9.812924900000004,-0.048370610550180666,-6.073460978964955e-06,-0.007098902210014002,-0.017661264352508105,-0.018883358300037602
0.7475,-0.002819009310008803,-0.7844415799999999,0.0016735070350048157,-2.355958979999999,-0.0033420095250101278,1.5715276400000018,0.7824210519999895,0.0399999846,0.039999995,-9.812939450000004,-0.04886777307851717,7.153854452110741e-05,-0.00715056510501405,-0.017689651902772725,-0.019022105150037733
0.75,-0.002851378200009265,-0.7844407999999998,0.0016912147000050686,-2.355955799999999,-0.00337924950001066,1.5715337000000018,0.7823822499999888,0.039999984,0.039999995,-9.812953999999996,-0.049364935606855447,0.00014915055002307761,-0.007202228000014401,-0.01771803945303737,-0.019160852000038635
0.7525000000000001,-0.002885335800009297,-0.7844400499999998,0.001709791780005086,-2.355952379999999,-0.0034183177950106963,1.5715401200000019,0.7823415429999888,0.0399999834,0.039999995,-9.812939899999996,-0.04986868798746543,0.00023373094652315648,-0.00725500989501445,-0.017746512498714347,-0.01930245860003877
0.755,-0.002919293400009327,-0.7844392999999998,0.0017283688600051026,-2.3559489599999988,-0.003457386090010731,1.5715465400000017,0.7823008359999888,0.0399999828,0.039999995,-9.812925799999997,-0.05037244036807539,0.0003183113430232316,-0.0073077917900144975,-0.01777498554439132,-0.019444065200038895
0.7575000000000001,-0.002953251000009359,-0.7844385499999998,0.00174694594000512,-2.3559455399999987,-0.003496454385010767,1.5715529600000018,0.7822601289999888,0.0399999822,0.039999995,-9.812911699999995,-0.050876192748685364,0.0004028917395233105,-0.007360573685014546,-0.017803458590068297,-0.019585671800039027
0.76,-0.002987208600009389,-0.7844377999999999,0.0017655230200051364,-2.355942119999999,-0.003535522680010802,1.5715593800000018,0.7822194219999887,0.0399999816,0.039999995,-9.812897599999996,-0.05137994512929532,0.0004874721360233856,-0.007413355580014594,-0.01783193163574527,-0.019727278400039152
0.7625000000000001,-0.0030211662000094205,-0.7844370499999999,0.0017841001000051537,-2.355938699999999,-0.0035745909750108384,1.5715658000000017,0.7821787149999887,0.039999981,0.039999995,-9.812883499999996,-0.051883697509905305,0.0005720525325234645,-0.0074661374750146425,-0.01786040468142225,-0.019868885000039284
0.765,-0.003055123800009451,-0.7844362999999999,0.0018026771800051702,-2.355935279999999,-0.003613659270010873,1.5715722200000017,0.7821380079999887,0.039999980399999996,0.039999995,-9.812869399999997,-0.05238744989051526,0.0006566329290235396,-0.00751891937001469,-0.017888877727099226,-0.020010491600039412
0.7675000000000001,-0.0030896212100099347,-0.7844355549999998,0.0018215496950054351,-2.355931779999999,-0.00365334913001143,1.5715787300000017,0.7820966564999882,0.03999997985,0.039999995,-9.812859,-0.052904705517145906,0.000742640387024814,-0.0075720415350150234,-0.017917241342373588,-0.020153027800040323
0.77,-0.0031251982400099664,-0.7844348199999999,0.0018410130800054524,-2.355928119999999,-0.0036942821200114666,1.571585420000002,0.782054015999988,0.039999979399999996,0.039999995,-9.812856,-0.053448967635783946,0.0008315019680248929,-0.007625844240015072,-0.017945386096843003,-0.02029742320004045
0.7725,-0.003160775270009998,-0.7844340849999998,0.0018604764650054697,-2.355924459999999,-0.003735215110011503,1.5715921100000019,0.782011375499988,0.03999997895,0.039999995,-9.812852999999999,-0.05399322975442199,0.0009203635490249719,-0.007679646945015119,-0.017973530851312418,-0.020441818600040577
0.775,-0.003196352300010031,-0.7844333499999998,0.0018799398500054878,-2.355920799999999,-0.003776148100011541,1.5715988000000018,0.781968734999988,0.0399999785,0.039999995,-9.81285,-0.054537491873060055,0.0010092251300250546,-0.00773344965001517,-0.018001675605781836,-0.020586214000040712
0.7775,-0.003231929330010063,-0.7844326149999998,0.001899403235005505,-2.355917139999999,-0.0038170810900115776,1.5716054900000018,0.781926094499988,0.039999978049999996,0.039999995,-9.812847,-0.0550817539916981,0.0010980867110251336,-0.0077872523550152175,-0.01802982036025125,-0.02073060940004084
0.78,-0.003267506360010096,-0.7844318799999999,0.0019188666200055232,-2.3559134799999986,-0.0038580140800116157,1.5716121800000018,0.7818834539999879,0.0399999776,0.039999995,-9.812843999999998,-0.05562601611033617,0.0011869482920252165,-0.007841055060015268,-0.018057965114720666,-0.020875004800040977
0.7825,-0.0033030833900101276,-0.7844311449999999,0.0019383300050055405,-2.3559098199999986,-0.003898947070011652,1.571618870000002,0.7818408134999879,0.03999997715,0.039999995,-9.812840999999999,-0.05617027822897421,0.0012758098730252954,-0.007894857765015315,-0.01808610986919008,-0.021019400200041102
0.785,-0.0033397601900102933,-0.7844304299999998,0.0019583953000056314,-2.3559059999999987,-0.0039411464000118435,1.571625770000002,0.7817968599999877,0.0399999766,0.039999995,-9.812831699999997,-0.056719312817010675,0.0013690411000263825,-0.007949331400015155,-0.018114193342633807,-0.021165610800040677
0.7875,-0.0033769868750098183,-0.7844297249999999,0.0019787615500053714,-2.355902099999999,-0.003983978900011297,1.5716327750000019,0.7817522499999883,0.039999976,0.039999995,-9.812819249999997,-0.05727073363974326,0.0014644571500251654,-0.008004140500014455,-0.018142246175564723,-0.0213127290000388
0.79,-0.0034142135600093455,-0.7844290199999998,0.001999127800005113,-2.355898199999999,-0.004026811400010753,1.5716397800000017,0.7817076399999888,0.0399999754,0.039999995,-9.812806799999997,-0.057822154462475864,0.0015598732000239527,-0.008058949600013758,-0.018170299008495643,-0.021459847200036932
0.7925,-0.0034514402450088705,-0.7844283149999999,0.002019494050004853,-2.355894299999999,-0.0040696439000102065,1.5716467850000015,0.7816630299999894,0.0399999748,0.039999995,-9.812794349999997,-0.058373575285208444,0.0016552892500227357,-0.00811375870001306,-0.01819835184142656,-0.021606965400035056
0.795,-0.003488666930008397,-0.7844276099999998,0.0020398603000045938,-2.3558903999999994,-0.004112476400009662,1.5716537900000016,0.7816184199999899,0.0399999742,0.039999995,-9.812781899999997,-0.05892499610794105,0.001750705300021523,-0.008168567800012363,-0.018226404674357478,-0.021754083600033187
0.7975,-0.0035258936150079226,-0.7844269049999998,0.0020602265500043342,-2.355886499999999,-0.004155308900009116,1.5716607950000014,0.7815738099999905,0.0399999736,0.039999995,-9.812769449999998,-0.05947641693067363,0.0018461213500203062,-0.008223376900011663,-0.018254457507288394,-0.021901201800031307
0.8,-0.0035631203000077855,-0.7844261999999999,0.002080592800004259,-2.3558825999999993,-0.004198141400008957,1.5716678000000015,0.7815291999999907,0.039999973,0.039999995,-9.812757,-0.06002783775341439,0.0019415374000196653,-0.008278186000011166,-0.018282510340219285,-0.022048320000029948
0.8025,-0.0036020260850083505,-0.7844255099999998,0.0021018779500045683,-2.355878609999999,-0.004242905240009608,1.5716751050000015,0.78148257249999,0.039999973,0.039999995,-9.81275475,-0.06061996333313775,0.0020398117000210935,-0.008333985700011976,-0.018310418166226104,-0.02219797725003212
0.805,-0.003640931870008918,-0.7844248199999998,0.002123163100004879,-2.3558746199999994,-0.004287669080010261,1.5716824100000015,0.7814359449999894,0.039999973,0.039999995,-9.812752499999998,-0.06121208891286115,0.002138086000022526,-0.00838978540001279,-0.018338325992232927,-0.022347634500034304
0.8075,-0.003679837655009483,-0.7844241299999999,0.002144448250005188,-2.355870629999999,-0.004332432920010911,1.5716897150000018,0.7813893174999886,0.039999973,0.039999995,-9.812750249999999,-0.06180421449258452,0.0022363603000239538,-0.0084455851000136,-0.018366233818239746,-0.022497291750036476
0.81,-0.00371874344001005,-0.7844234399999999,0.0021657334000054983,-2.355866639999999,-0.004377196760011563,1.5716970200000018,0.7813426899999879,0.039999973,0.039999995,-9.812748,-0.06239634007230791,0.002334634600025386,-0.008501384800014415,-0.01839414164424657,-0.02264694900003866
0.8125,-0.0037576492250106152,-0.7844227499999998,0.0021870185500058076,-2.3558626499999993,-0.0044219606000122135,1.571704325000002,0.7812960624999873,0.039999973,0.039999995,-9.81274575,-0.06298846565203128,0.002432908900026814,-0.008557184500015224,-0.01842204947025339,-0.022796606250040832
0.8150000000000001,-0.0037965550100111825,-0.7844220599999998,0.002208303700006118,-2.355858659999999,-0.0044667244400128665,1.571711630000002,0.7812494349999866,0.039999973,0.039999995,-9.8127435,-0.06358059123175468,0.002531183200028247,-0.008612984200016037,-0.01844995729626021,-0.022946263500043015
0.8175,-0.0038360300900120788,-0.7844213714999998,0.0022299003600066082,-2.3558546249999988,-0.004512142750013897,1.5717190400000023,0.7812021224999854,0.039999973,0.039999995,-9.812743600000001,-0.06417520642298404,0.0026315616100311048,-0.008669110200016886,-0.018478018231698305,-0.023096792000045285
0.8200000000000001,-0.0038766437600121165,-0.7844206859999998,0.002252120040006629,-2.355850499999999,-0.004558870000013941,1.5717266600000022,0.7811534399999854,0.039999973,0.039999995,-9.812748400000002,-0.06477480083721876,0.0027361482400312023,-0.00872588880001694,-0.018506385385998542,-0.02324906300004543
0.8225,-0.003917257430012152,-0.7844200004999998,0.0022743397200066487,-2.3558463749999987,-0.004605597250013982,1.5717342800000023,0.7811047574999854,0.039999973,0.039999995,-9.812753200000001,-0.06537439525145346,0.0028407348700312954,-0.00878266740001699,-0.018534752540298776,-0.023401334000045564
0.8250000000000001,-0.00395787110001219,-0.7844193149999998,0.0022965594000066694,-2.355842249999999,-0.004652324500014025,1.5717419000000024,0.7810560749999853,0.039999973,0.039999995,-9.812758,-0.06597398966568818,0.002945321500031393,-0.008839446000017043,-0.018563119694599013,-0.023553605000045705
0.8275,-0.003998484770012227,-0.7844186294999997,0.002318779080006689,-2.3558381249999987,-0.0046990517500140674,1.5717495200000022,0.7810073924999853,0.039999973,0.039999995,-9.812762800000002,-0.06657358407992287,0.0030499081300314856,-0.008896224600017093,-0.01859148684889925,-0.023705876000045843
0.8300000000000001,-0.004039098440012264,-0.7844179439999998,0.00234099876000671,-2.355833999999999,-0.0047457790000141106,1.5717571400000023,0.7809587099999853,0.039999973,0.039999995,-9.8127676,-0.06717317849415759,0.003154494760031583,-0.008953003200017146,-0.018619854003199484,-0.023858147000045984
0.8325,-0.004079712110012301,-0.7844172584999998,0.0023632184400067297,-2.3558298749999986,-0.004792506250014152,1.5717647600000024,0.7809100274999852,0.039999973,0.039999995,-9.8127724,-0.06777277290839229,0.003259081390031676,-0.009009781800017196,-0.01864822115749972,-0.024010418000046118
0.835,-0.004121482800012863,-0.7844165769999998,0.002386071430007038,-2.3558255199999985,-0.004840565530014801,1.5717726200000026,0.7808599599999846,0.039999972700000004,0.039999995,-9.812785900000005,-0.06840243041534927,0.0033658072900327437,-0.0090671181000175,-0.018677046522506884,-0.02416446280004706
0.8375,-0.004163832000012903,-0.7844158974999997,0.0024092410750070595,-2.3558210499999985,-0.0048892908250148465,1.5717806000000025,0.7808091999999845,0.03999997225,0.039999995,-9.812803750000006,-0.06904711946864692,0.0034736028250328442,-0.009124733250017555,-0.0187061009928672,-0.024319394500047206
0.84,-0.004206181200012941,-0.7844152179999998,0.00243241072000708,-2.3558165799999986,-0.0049380161200148895,1.5717885800000024,0.7807584399999845,0.0399999718,0.039999995,-9.812821600000005,-0.06969180852194452,0.0035813983600329396,-0.009182348400017606,-0.018735155463227515,-0.024474326200047344
