rsonawane2002/My_IMU/logs_2/traj_327/imu_327.csv
time,j1,j2,j3,j4,j5,j6,j7,gripper1,gripper2,imu_ax,imu_ay,imu_az,imu_gx,imu_gy,imu_gz
840.8333333328973,0.00016700293,-0.785875,4.0107683e-05,-2.3551247,9.29385e-05,1.570997,0.786,0.04,0.04,-9.502803,-0.001794543699361384,0.11139338,3.2547155e-07,-0.0011641274904832244,4.5741382e-07
840.8499999995639,0.00016701475,-0.78576016,4.0108545e-05,-2.3552213,9.297154e-05,1.5709941,0.786,0.04,0.04,-9.834417,0.0006452043307945132,0.009092459,-6.300694e-07,-0.0022385013289749622,1.0975177e-06
840.8666666662306,0.00016708809,-0.7856543,4.006716e-05,-2.35531,9.2984665e-05,1.5709913,0.786,0.04,0.04,-9.83248,0.0006348047754727304,0.00751793,-3.318177e-06,-0.003228774992749095,2.2574989e-06
840.8833333328972,0.00016732381,-0.78555703,3.9914947e-05,-2.355391,9.294989e-05,1.5709884,0.786,0.04,0.04,-9.830676,0.0006369316834025085,0.0060762744,-1.0917735e-05,-0.00414133258163929,4.563646e-06
840.8999999995639,0.00016786628,-0.78546774,3.955398e-05,-2.3554652,9.282721e-05,1.5709856,0.786,0.04,0.04,-9.82899,0.0006386322784237564,0.0047131088,-2.5269534e-05,-0.004980866797268391,8.525028e-06
840.9166666662305,0.00016889887,-0.7853861,3.885948e-05,-2.3555324,9.2564194e-05,1.5709827,0.786,0.04,0.04,-9.827456,0.0006369751063175499,0.0034185122,-4.8087422e-05,-0.005754456389695406,1.3746519e-05
840.9333333328972,0.0001706398,-0.78531164,3.7682457e-05,-2.3555973,9.21147e-05,1.5709798,0.786,0.04,0.039999995,-9.825867,0.000661405676510185,0.0022177608,-8.17919e-05,-0.006462470628321171,2.3958208e-05
840.9499999995638,0.0001733391,-0.78524417,3.5853056e-05,-2.3556557,9.139449e-05,1.570977,0.786,0.04,0.039999995,-9.825072,0.0006532851839438081,0.0010091537,-0.00012758805,-0.0071296305395662785,3.5407193e-05
840.9666666662305,0.00017727449,-0.7851833,3.318191e-05,-2.3557107,9.0327005e-05,1.5709741,0.7859981,0.04,0.039999995,-9.823688,0.0006682468811050057,-0.000120960176,-0.00018714448,-0.007738377898931503,5.007803e-05
840.9833333328971,0.00018274868,-0.785129,2.9462768e-05,-2.3557613,8.882842e-05,1.5709713,0.7859962,0.04,0.039999995,-9.822739,0.0006766206352040172,-0.0011970424,-0.00025351642,-0.008304644376039505,6.824867e-05
840.9999999995638,0.00019008647,-0.785081,2.4474166e-05,-2.3558109,8.680743e-05,1.5709683,0.7859943,0.04,0.039999995,-9.821682,0.0006959778256714344,-0.0022307322,-0.0003364242,-0.008824444375932217,9.019254e-05
841.0166666662304,0.00019963204,-0.7850393,1.7981418e-05,-2.3558545,8.415881e-05,1.5709652,0.7859924,0.04,0.04,-9.821122,0.0007099337526597083,-0.0032136438,-0.00043754082,-0.009316722862422466,0.00011538654
841.0333333328971,0.00021174665,-0.7850037,9.7380325e-06,-2.3558974,8.0802354e-05,1.5709618,0.78598857,0.04,0.039999995,-9.819883,0.0007402418996207416,-0.004166164,-0.00055765116,-0.009757216088473797,0.00014633317
841.0499999995637,0.00022680653,-0.78497446,-5.1252186e-07,-2.3559394,7.6611475e-05,1.5709552,0.78598475,0.04,0.04,-9.819389,0.0007632177439518273,-0.0050582327,-0.0006895327,-0.010174104943871498,0.0001800834
841.0666666662304,0.00024520056,-0.7849514,-1.3035567e-05,-2.3559797,7.148651e-05,1.5709485,0.78597903,0.04,0.04,-9.818888,0.0007975746993906796,-0.0058490625,-0.0008428887,-0.010577996261417866,0.00021832895
841.083333332897,0.0002673285,-0.78493464,-2.8104223e-05,-2.3560174,6.532249e-05,1.5709417,0.7859733,0.04,0.04,-9.818293,0.0008474139031022787,-0.006715095,-0.0010098243,-0.01095303799957037,0.00026291088
841.0999999995637,0.00029359982,-0.7849244,-4.5997713e-05,-2.356054,5.8000616e-05,1.5709344,0.7859657,0.04,0.04,-9.817499,0.0008973580552265048,-0.0075213304,-0.0012002281,-0.011293209157884121,0.00031140764
841.1166666662303,0.00032443143,-0.7849208,-6.700044e-05,-2.3560905,4.9405087e-05,1.5709239,0.78595746,0.04,0.04,-9.816966,0.0009519611485302448,-0.008265871,-0.001406095,-0.011609380133450031,0.00036474384
841.133333332897,0.00036024654,-0.7849239,-9.140136e-05,-2.356127,3.9418006e-05,1.5709133,0.7859479,0.04,0.04,-9.816563,0.0010207162704318762,-0.008911971,-0.0016342133,-0.01191506814211607,0.00042302549
841.1499999995636,0.00040147314,-0.7849338,-0.00011949285,-2.3561642,2.7918573e-05,1.5709016,0.7859365,0.04,0.04,-9.81616,0.0011048902524635196,-0.009620527,-0.0018822689,-0.012199543416500092,0.000486306
841.1666666662303,0.00044854343,-0.78495085,-0.0001515697,-2.356203,1.4787951e-05,1.5708872,0.7859231,0.04,0.04,-9.815858,0.0011957838432863355,-0.010271462,-0.002148184,-0.01246948353946209,0.00055462884
841.183333332897,0.00050189183,-0.78497523,-0.00018792895,-2.3562438,-7.628344e-08,1.570872,0.78590834,0.04,0.03999999,-9.815636,0.0013023953652009368,-0.010809589,-0.0024323184,-0.012735234573483467,0.0006295529
841.1999999995636,0.0005619548,-0.7850072,-0.00022886804,-2.3562858,-1.6828415e-05,1.5708537,0.78589183,0.04,0.039999995,-9.815456,0.0014034450286999345,-0.011452796,-0.0027380341,-0.012988382950425148,0.0007072371
841.2166666662303,0.00062916917,-0.785047,-0.0002746858,-2.3563287,-3.558791e-05,1.5708345,0.78587335,0.04,0.04,-9.815233,0.0015364405699074268,-0.01197998,-0.0030639889,-0.013236528262495995,0.0007901111
841.2333333328969,0.00070397224,-0.7850947,-0.00032568036,-2.356372,-5.6473276e-05,1.5708123,0.78585285,0.04,0.04,-9.814857,0.0016724526649340987,-0.012524342,-0.0034099007,-0.013466200791299343,0.0008781006
841.2499999995636,0.0007867999,-0.78515077,-0.00038214968,-2.3564186,-7.959339e-05,1.570788,0.78583014,0.039999995,0.039999995,-9.814504,0.001840940909460187,-0.01299536,-0.0037763275,-0.013686276972293854,0.0009729509
841.2666666662302,0.0008780865,-0.78521544,-0.00044439026,-2.3564687,-0.00010508291,1.5707614,0.7858051,0.03999999,0.039999995,-9.814421,0.0020007523708045483,-0.013439331,-0.004162393,-0.013901612721383572,0.0010712515
841.2833333328969,0.0009782641,-0.78528893,-0.0005126976,-2.3565195,-0.00013305563,1.5707318,0.7857777,0.039999988,0.03999999,-9.814393,0.002197825815528631,-0.013859989,-0.004568344,-0.014115381054580212,0.0011755524
841.2999999995635,0.0010877625,-0.78537154,-0.0005873649,-2.356574,-0.0001636317,1.5706999,0.7857478,0.039999984,0.039999988,-9.813996,0.0024021172430366278,-0.014236838,-0.0049943575,-0.014317306689918041,0.0012849899
841.3166666662302,0.001207008,-0.78546345,-0.0006686835,-2.3566322,-0.00019693021,1.5706655,0.7857151,0.03999998,0.039999984,-9.813995,0.0026320586912333965,-0.014608494,-0.005440384,-0.014516690745949745,0.0013995386
841.3333333328968,0.0013364219,-0.78556514,-0.0007569417,-2.3566916,-0.00023306932,1.5706275,0.78567976,0.039999977,0.03999998,-9.813889,0.002873920602723956,-0.014944572,-0.0059049274,-0.014711933210492134,0.0015191771
841.3499999995635,0.0014764229,-0.78567696,-0.0008524249,-2.3567572,-0.00027216598,1.5705862,0.7856414,0.03999997,0.039999973,-9.813536,0.0031419754959642887,-0.015219504,-0.0063895457,-0.014897282235324383,0.001643878
841.3666666662301,0.001627424,-0.7857989,-0.00095541566,-2.3568242,-0.00031433554,1.5705423,0.78560007,0.03999996,0.039999966,-9.813737,0.003427106188610196,-0.015457513,-0.0068924585,-0.015090658329427242,0.001773624
841.3833333328968,0.0017898338,-0.7859315,-0.0010661931,-2.3568976,-0.00035969212,1.5704952,0.78555554,0.039999958,0.03999996,-9.813376,0.0037360636051744223,-0.015706252,-0.007414647,-0.015269789844751358,0.0019083808
841.3999999995634,0.0019640545,-0.78607494,-0.0011850322,-2.356973,-0.0004083484,1.5704448,0.78550786,0.039999954,0.039999958,-9.813579,0.0040627289563417435,-0.0158885,-0.007955146,-0.0154564268887043,0.002048111
841.4166666662301,0.0021504837,-0.7862295,-0.001312204,-2.3570545,-0.0004604154,1.5703908,0.7854567,0.03999995,0.039999954,-9.813186,0.004420523531734943,-0.016050732,-0.008514632,-0.01562950760126114,0.0021927967
841.4333333328967,0.0023495124,-0.78639543,-0.0014479761,-2.3571424,-0.00051600294,1.5703331,0.7854021,0.039999943,0.03999995,-9.813379,0.004792351275682449,-0.016123757,-0.009091323,-0.015810642391443253,0.0023415238
841.4499999995634,0.0025615264,-0.78657335,-0.0015926119,-2.3572323,-0.0005752174,1.5702716,0.78534406,0.03999994,0.039999943,-9.813566,0.005213894881308079,-0.016271694,-0.009686156,-0.015999307855963707,0.0024968395
841.46666666623,0.0027869032,-0.78676313,-0.0017463703,-2.357329,-0.0006381658,1.5702062,0.7852824,0.039999936,0.03999994,-9.813122,0.0056352694518864155,-0.016322142,-0.010299209,-0.01617307960987091,0.0026561571
841.4833333328967,0.0030260158,-0.78696525,-0.0019095051,-2.3574286,-0.00070495234,1.5701367,0.7852169,0.039999932,0.03999994,-9.813302,0.006088904570788145,-0.01635132,-0.010929529,-0.016354599967598915,0.0028194129
841.4999999995633,0.0032792275,-0.78717995,-0.0020822652,-2.3575344,-0.0007756776,1.5700631,0.7851476,0.03999993,0.039999932,-9.812988,0.006584038957953453,-0.016336199,-0.011576914,-0.0165261160582304,0.0029891692
841.51666666623,0.0035468985,-0.7874076,-0.0022648973,-2.3576465,-0.0008504438,1.5699855,0.78507435,0.039999932,0.03999994,-9.81305,0.00708864675834775,-0.016277742,-0.012241238,-0.01670079678297043,0.0031619556
841.5333333328966,0.0038293798,-0.7876482,-0.0024576392,-2.3577657,-0.00092934683,1.5699033,0.78499705,0.039999936,0.03999994,-9.813109,0.007643407676368952,-0.016196547,-0.012922012,-0.016878172755241394,0.003341148
841.5499999995633,0.0041270154,-0.7879023,-0.0026607285,-2.3578875,-0.0010124848,1.5698168,0.7849156,0.039999936,0.03999994,-9.813301,0.008212246932089329,-0.01608568,-0.013619348,-0.017065348103642464,0.0035241316
841.5666666662299,0.0044401404,-0.7881702,-0.0028743928,-2.3580163,-0.0010999514,1.569726,0.78482985,0.03999994,0.039999947,-9.8128395,0.008810676634311676,-0.015941408,-0.014332492,-0.017236150801181793,0.0037109286
841.5833333328966,0.004769085,-0.78845215,-0.0030988588,-2.3581524,-0.0011918377,1.5696305,0.78473973,0.039999943,0.03999995,-9.812899,0.009450217708945274,-0.015730657,-0.015060721,-0.017410025000572205,0.0039031862
841.5999999995632,0.005114171,-0.7887483,-0.0033343455,-2.3582954,-0.0012882343,1.56953,0.7846452,0.039999947,0.039999954,-9.813053,0.010119217447936535,-0.015484823,-0.015804417,-0.01759047992527485,0.0040999944
841.6166666662299,0.005475712,-0.7890588,-0.003581069,-2.3584456,-0.0013892285,1.5694249,0.78454614,0.03999995,0.039999954,-9.813095,0.010826053097844124,-0.015216505,-0.01656311,-0.017775464802980423,0.004302191
841.6333333328965,0.005854014,-0.78938395,-0.0038392367,-2.3586006,-0.0014949071,1.5693153,0.7844425,0.039999958,0.03999996,-9.813185,0.011558203026652336,-0.014942993,-0.017336354,-0.017964588478207588,0.0045080185
841.6499999995632,0.0062493756,-0.7897242,-0.0041090543,-2.358762,-0.0016053534,1.5692006,0.7843341,0.039999966,0.039999973,-9.812911,0.012321846559643745,-0.01462075,-0.018124199,-0.01814364269375801,0.00471753
841.6666666662298,0.0066620903,-0.7900796,-0.0043907193,-2.3589299,-0.0017206477,1.5690807,0.78422105,0.039999977,0.039999984,-9.812854,0.013130673207342625,-0.014218086,-0.018925935,-0.01832284964621067,0.004932336
841.6833333328965,0.0070924396,-0.7904505,-0.004684427,-2.3591049,-0.0018408697,1.5689558,0.7841032,0.039999984,0.03999999,-9.812759,0.013972615823149681,-0.013729379,-0.019741375,-0.018501203507184982,0.005151594
841.6999999995631,0.0075406977,-0.79083717,-0.004990366,-2.3592875,-0.001966091,1.5688255,0.7839805,0.039999988,0.039999995,-9.812787,0.014852585271000862,-0.013319891,-0.02057088,-0.01868090033531189,0.0053752265
841.7166666662298,0.008007133,-0.7912397,-0.0053087194,-2.3594778,-0.0020963824,1.5686902,0.7838527,0.039999995,0.04,-9.812804,0.015778670087456703,-0.012799969,-0.02141347,-0.018863637000322342,0.005604172
841.7333333328964,0.008492008,-0.7916581,-0.0056396616,-2.3596754,-0.0022318426,1.5685493,0.7837199,0.03999999,0.04,-9.81284,0.01671450398862362,-0.012263454,-0.022268644,-0.019048405811190605,0.005834709
841.7499999995631,0.008995572,-0.792093,-0.005983367,-2.3598807,-0.0023725163,1.5684032,0.7835819,0.039999988,0.039999995,-9.812834,0.017722472548484802,-0.011700715,-0.023136772,-0.0192355178296566,0.00607224
841.7666666662298,0.00951807,-0.79254454,-0.0063400054,-2.3600936,-0.0025184823,1.5682515,0.78343874,0.039999988,0.039999995,-9.81281,0.01874694786965847,-0.011075675,-0.024016572,-0.019422175362706184,0.0063132634
841.7833333328964,0.0100597385,-0.79301274,-0.006709733,-2.3603141,-0.0026698133,1.5680944,0.7832904,0.039999988,0.04,-9.812787,0.01982027292251587,-0.0103903925,-0.02490818,-0.019610265269875526,0.006557752
841.799999999563,0.010620806,-0.7934976,-0.0070927097,-2.3605428,-0.00282657,1.5679315,0.78313667,0.039999984,0.039999995,-9.812737,0.020943693816661835,-0.009700511,-0.025812179,-0.019797522574663162,0.006807397
841.8166666662297,0.011201492,-0.7939997,-0.0074890857,-2.3607795,-0.0029888083,1.567763,0.78297764,0.03999998,0.039999988,-9.812794,0.02210104651749134,-0.008975718,-0.026726782,-0.019989177584648132,0.0070621683
841.8333333328964,0.011802009,-0.79451895,-0.007899004,-2.3610244,-0.0031565884,1.5675887,0.78281313,0.03999998,0.039999988,-9.812743,0.02329566329717636,-0.008185691,-0.02765317,-0.020180821418762207,0.007320344
841.849999999563,0.012422567,-0.79505575,-0.008322609,-2.361277,-0.0033299692,1.5674087,0.7826431,0.03999998,0.039999988,-9.81277,0.024539081379771233,-0.007370663,-0.028589785,-0.0203754510730505,0.0075827315
841.8666666662297,0.013063361,-0.79560995,-0.008760035,-2.3615377,-0.0035090041,1.5672227,0.7824675,0.039999977,0.039999984,-9.812665,0.025824569165706635,-0.0065060286,-0.029536735,-0.02056712843477726,0.007849354
841.8833333328963,0.0137245795,-0.79618204,-0.009211411,-2.3618064,-0.0036937476,1.5670305,0.7822863,0.03999998,0.039999988,-9.812634,0.02715575322508812,-0.0056128157,-0.030493846,-0.02076074853539467,0.00812019
841.899999999563,0.014406407,-0.79677206,-0.009676861,-2.3620834,-0.003884251,1.5668327,0.78209937,0.03999998,0.03999999,-9.8125515,0.02852308191359043,-0.004647161,-0.031460654,-0.02095382660627365,0.008393443
841.9166666662296,0.015109014,-0.7973799,-0.010156506,-2.362369,-0.0040805615,1.5666287,0.78190696,0.039999984,0.039999995,-9.812497,0.029951702803373337,-0.0036551533,-0.0324367,-0.021146178245544434,0.0086726835
841.9333333328963,0.01583257,-0.7980066,-0.010650457,-2.362663,-0.0042827,1.5664189,0.7817088,0.039999984,0.03999999,-9.812512,0.03143315762281418,-0.0025695954,-0.033423036,-0.02134161815047264,0.008958001
841.9499999995629,0.016577229,-0.7986512,-0.011158825,-2.362965,-0.0044907625,1.5662029,0.78150487,0.039999984,0.04,-9.812367,0.03292021155357361,-0.00151884,-0.034418218,-0.02153162658214569,0.009242779
841.9666666662296,0.01734315,-0.7993143,-0.011681714,-2.3632758,-0.0047047646,1.5659807,0.78129506,0.039999984,0.04,-9.812335,0.03450065106153488,-0.000417253,-0.035422195,-0.02172408439218998,0.00953454
841.9833333328962,0.01813047,-0.79999596,-0.012219222,-2.3635952,-0.0049247476,1.5657523,0.7810794,0.03999998,0.04,-9.812247,0.0361158587038517,0.00075097196,-0.03643424,-0.021915005519986153,0.009830463
841.9999999995629,0.018939337,-0.8006964,-0.0127714425,-2.3639233,-0.0051507535,1.5655177,0.7808578,0.039999984,0.04,-9.812191,0.03777875751256943,0.0019591358,-0.037454747,-0.022106477990746498,0.010130527
842.0166666662295,0.019769872,-0.80141556,-0.013338462,-2.3642607,-0.0053828107,1.5652766,0.78063023,0.039999984,0.04,-9.812146,0.03948615863919258,0.0032162555,-0.038482603,-0.022297890856862068,0.010434743
842.0333333328962,0.0206222,-0.80215365,-0.013920366,-2.3646069,-0.005620947,1.5650291,0.7803968,0.039999984,0.04,-9.812137,0.041253045201301575,0.0045263655,-0.03951778,-0.022491849958896637,0.010743871
842.0499999995628,0.021496428,-0.8029108,-0.014517233,-2.3649616,-0.005865207,1.5647756,0.7801573,0.03999999,0.04,-9.812059,0.043064262717962265,0.005860755,-0.040561195,-0.02268616482615471,0.011056227
842.0666666662295,0.022392673,-0.8036872,-0.015129134,-2.3653252,-0.006115606,1.5645154,0.7799116,0.03999999,0.04,-9.811945,0.04492856189608574,0.0072387382,-0.04161102,-0.022876938804984093,0.011373538
842.0833333328961,0.023311032,-0.8044825,-0.01575614,-2.3656979,-0.0063721887,1.5642489,0.77966,0.03999999,0.04,-9.811843,0.04684389382600784,0.008685583,-0.0426666,-0.02306797355413437,0.011694099
842.0999999995628,0.024251599,-0.80529726,-0.016398314,-2.366079,-0.006634976,1.5639759,0.7794023,0.039999988,0.04,-9.811806,0.04881488159298897,0.010130925,-0.043729886,-0.023259269073605537,0.0120188
842.1166666662294,0.025214456,-0.8061314,-0.017055716,-2.3664699,-0.006904003,1.5636965,0.7791385,0.039999988,0.04,-9.811645,0.050830356776714325,0.0116681475,-0.044799086,-0.023447759449481964,0.012346784
842.1333333328961,0.026199687,-0.8069848,-0.017728398,-2.3668692,-0.0071792835,1.5634106,0.7788686,0.03999999,0.04,-9.811593,0.05291833356022835,0.013237834,-0.045874167,-0.023636434227228165,0.012679679
842.1499999995627,0.027207362,-0.80785775,-0.018416403,-2.3672779,-0.0074608433,1.5631181,0.7785926,0.03999999,0.04,-9.811482,0.05504439026117325,0.014816662,-0.046955157,-0.023824237287044525,0.013015846
842.1666666662294,0.028237538,-0.80875015,-0.01911979,-2.3676956,-0.007748685,1.5628192,0.7783104,0.03999999,0.04,-9.81138,0.057246822863817215,0.016480045,-0.0480419,-0.02401125803589821,0.013357764
842.183333332896,0.029290283,-0.80966216,-0.019838586,-2.3681228,-0.008042823,1.5625137,0.778022,0.039999995,0.04,-9.811281,0.05949225649237633,0.018231882,-0.04913374,-0.024196796119213104,0.013704101
842.1999999995627,0.030365646,-0.81059396,-0.02057283,-2.3685591,-0.008343273,1.5622017,0.7777274,0.04,0.04,-9.811219,0.061792828142642975,0.019899564,-0.050229967,-0.024383462965488434,0.014053958
842.2166666662293,0.031463668,-0.8115452,-0.02132255,-2.369004,-0.008650058,1.5618831,0.77742666,0.04,0.04,-9.811083,0.06414496898651123,0.021690724,-0.05133123,-0.024566758424043655,0.014407075
842.233333332896,0.032584388,-0.81251615,-0.022087771,-2.3694584,-0.008963197,1.5615578,0.7771196,0.039999995,0.04,-9.810896,0.06655683368444443,0.023500588,-0.05243716,-0.02474779263138771,0.014763493
842.2499999995626,0.03372784,-0.81350684,-0.022868516,-2.369922,-0.009282696,1.561226,0.7768063,0.039999995,0.04,-9.810823,0.06903218477964401,0.025372619,-0.053546466,-0.024929257109761238,0.015123502
842.2666666662293,0.03489404,-0.81451714,-0.023664808,-2.3703954,-0.009608547,1.5608876,0.77648675,0.04,0.04,-9.810676,0.07158278673887253,0.027277721,-0.054660074,-0.02510736882686615,0.0154900225
842.283333332896,0.036083005,-0.8155472,-0.024476647,-2.3708777,-0.00994075,1.5605427,0.776161,0.04,0.04,-9.810667,0.07417851686477661,0.029226422,-0.055777177,-0.02528895065188408,0.01585988
842.2999999995626,0.037294757,-0.81659716,-0.025304055,-2.3713691,-0.010279336,1.5601912,0.7758291,0.04,0.04,-9.810473,0.07682237774133682,0.031215742,-0.05689776,-0.025466524064540863,0.016232288
842.3166666662293,0.038529307,-0.8176668,-0.026147025,-2.3718698,-0.010624276,1.5598328,0.7754909,0.04,0.04,-9.810297,0.07955356687307358,0.033263452,-0.05802176,-0.025640496984124184,0.016610118
842.3333333328959,0.039786633,-0.8187561,-0.027005553,-2.3723798,-0.010975588,1.559468,0.77514637,0.04,0.04,-9.8101635,0.08232320100069046,0.03534352,-0.059148673,-0.025813991203904152,0.016991032
842.3499999995626,0.041066732,-0.8198653,-0.027879637,-2.3728988,-0.011333262,1.5590966,0.7747958,0.04,0.04,-9.810047,0.08516563475131989,0.03745381,-0.06027792,-0.02598642371594906,0.017375909
842.3666666662292,0.042369604,-0.82099414,-0.028769273,-2.3734267,-0.011697305,1.5587184,0.77443886,0.04,0.04,-9.8098755,0.08807366341352463,0.039636265,-0.06141036,-0.026156192645430565,0.017765528
842.3833333328959,0.043695204,-0.82214284,-0.029674444,-2.3739643,-0.012067696,1.5583338,0.7740755,0.04,0.04,-9.80965,0.09104015678167343,0.041840233,-0.0625448,-0.02632179483771324,0.018158142
842.3999999995625,0.045043528,-0.8233113,-0.030595126,-2.3745112,-0.012444442,1.5579425,0.7737063,0.04,0.04,-9.809522,0.0940743237733841,0.044100896,-0.06368042,-0.02648618258535862,0.018554525
842.4166666662292,0.04641453,-0.8244993,-0.031531297,-2.3750672,-0.012827509,1.5575446,0.77333057,0.04,0.04,-9.809394,0.09716998040676117,0.046403237,-0.06481932,-0.02664923667907715,0.018955462
842.4333333328958,0.047808174,-0.82570696,-0.03248293,-2.3756323,-0.013216914,1.5571402,0.7729488,0.04,0.04,-9.8092375,0.10032930225133896,0.048797723,-0.06595812,-0.026811614632606506,0.019359393
842.4499999995625,0.049224425,-0.8269342,-0.033450004,-2.3762066,-0.013612638,1.5567292,0.77256083,0.04,0.04,-9.809002,0.10355497151613235,0.051100582,-0.06709903,-0.026968399062752724,0.019767188
842.4666666662291,0.050663214,-0.8281811,-0.034432475,-2.3767898,-0.01401466,1.5563116,0.77216667,0.04,0.04,-9.808843,0.10684759169816971,0.0535308,-0.068241194,-0.02712404355406761,0.020179281
842.4833333328958,0.05212449,-0.8294474,-0.0354303,-2.3773823,-0.014422967,1.5558875,0.7717663,0.04,0.04,-9.808653,0.11020363122224808,0.055999756,-0.06938403,-0.02727699838578701,0.020594351
842.4999999995624,0.0536082,-0.8307332,-0.03644346,-2.377984,-0.01483754,1.555457,0.7713598,0.04,0.04,-9.808459,0.11363811045885086,0.058488786,-0.07052721,-0.02742752619087696,0.021013778
842.5166666662291,0.055114266,-0.83203846,-0.03747188,-2.3785946,-0.015258362,1.5550199,0.77094716,0.04,0.04,-9.808267,0.11712756007909775,0.061038747,-0.07167098,-0.02757471799850464,0.021435965
842.5333333328957,0.056642614,-0.83336294,-0.03851553,-2.379214,-0.015685426,1.5545765,0.7705285,0.04,0.04,-9.808048,0.12069395929574966,0.0636246,-0.07281471,-0.0277188029140234,0.021862514
842.5499999995624,0.058193173,-0.83470684,-0.039574347,-2.379843,-0.0161187,1.5541265,0.7701037,0.04,0.04,-9.807829,0.12432491034269333,0.0662406,-0.0739592,-0.027859022840857506,0.022291899
842.566666666229,0.05976586,-0.8360695,-0.040648274,-2.3804805,-0.016558142,1.5536702,0.7696729,0.04,0.04,-9.807682,0.12802162766456604,0.06891445,-0.075102806,-0.027999022975564003,0.022724453
842.5833333328957,0.061360583,-0.8374514,-0.041737232,-2.381127,-0.017003743,1.5532072,0.7692359,0.04,0.04,-9.807426,0.13179703056812286,0.07158691,-0.0762463,-0.028134658932685852,0.023161298
842.5999999995623,0.06297724,-0.8388527,-0.04284117,-2.3817828,-0.017455472,1.5527381,0.76879305,0.04,0.04,-9.807245,0.13563352823257446,0.074334785,-0.07738832,-0.028269672766327858,0.023600642
842.616666666229,0.064615734,-0.84027267,-0.04396002,-2.3824475,-0.017913306,1.5522624,0.7683441,0.04,0.04,-9.806971,0.1395467072725296,0.07714151,-0.078530155,-0.028398068621754646,0.024044106
842.6333333328956,0.066275924,-0.8417116,-0.045093697,-2.3831205,-0.01837721,1.5517807,0.76788926,0.04,0.04,-9.806818,0.14352557063102722,0.07994543,-0.07967043,-0.028527358546853065,0.024489883
842.6499999995623,0.06795775,-0.84316915,-0.046242144,-2.3838024,-0.018847154,1.5512925,0.7674285,0.04,0.04,-9.806497,0.1475866287946701,0.08279984,-0.08080954,-0.028649495914578438,0.02493971
842.6666666662289,0.06966107,-0.8446453,-0.047405276,-2.384493,-0.019323098,1.5507979,0.7669619,0.04,0.04,-9.806284,0.1517067402601242,0.08568485,-0.08194724,-0.028769731521606445,0.025391733
842.6833333328956,0.07138576,-0.8461401,-0.048583016,-2.3851926,-0.01980504,1.5502976,0.76648927,0.04,0.04,-9.806034,0.15591049194335938,0.08868027,-0.08308291,-0.02888704277575016,0.02584765
842.6999999995622,0.0731317,-0.8476533,-0.04977526,-2.3859003,-0.020292917,1.5497911,0.76601094,0.04,0.04,-9.80583,0.16018110513687134,0.09158078,-0.08421646,-0.029001187533140182,0.02630569
842.7166666662289,0.074898764,-0.8491849,-0.05098191,-2.3866167,-0.0207867,1.5492783,0.7655269,0.04,0.04,-9.805455,0.16452613472938538,0.09459214,-0.08534827,-0.029107429087162018,0.026767535
842.7333333328955,0.076686814,-0.8507344,-0.052202895,-2.3873415,-0.021286342,1.5487595,0.7650371,0.04,0.04,-9.805262,0.16893422603607178,0.097632974,-0.086477555,-0.02921341359615326,0.0272313
842.7499999995622,0.07849571,-0.852302,-0.053438105,-2.3880749,-0.021791827,1.5482346,0.7645417,0.04,0.04,-9.805003,0.17342375218868256,0.10069933,-0.08760451,-0.029315805062651634,0.027697774
842.7666666662288,0.080325276,-0.8538877,-0.054687437,-2.3888168,-0.022303078,1.5477035,0.7640404,0.04,0.04,-9.804698,0.17799662053585052,0.103806935,-0.088729076,-0.029413701966404915,0.028167805
842.7833333328955,0.0821754,-0.8554912,-0.0559508,-2.389567,-0.022820065,1.5471666,0.7635334,0.04,0.04,-9.804474,0.1826380044221878,0.106963076,-0.08984947,-0.029510077089071274,0.02864029
842.7999999995621,0.08404588,-0.8571124,-0.057228085,-2.3903246,-0.023342762,1.5466237,0.763021,0.04,0.04,-9.804168,0.18734164535999298,0.110152245,-0.0909662,-0.02960127219557762,0.029113485
842.8166666662288,0.08593659,-0.8587511,-0.058519162,-2.3910913,-0.023871116,1.5460751,0.76250297,0.04,0.04,-9.803776,0.1921403557062149,0.11336262,-0.09208063,-0.029685139656066895,0.029590098
842.8333333328954,0.087847345,-0.86040723,-0.059823953,-2.391866,-0.024405086,1.5455207,0.76197946,0.04,0.04,-9.803596,0.196995347738266,0.1166143,-0.09319078,-0.02976938709616661,0.030068109
842.8499999995621,0.08977799,-0.8620806,-0.061142314,-2.392649,-0.02494461,1.5449605,0.7614505,0.04,0.04,-9.803265,0.2019161880016327,0.11990084,-0.094297275,-0.02984769269824028,0.030543823
842.8666666662288,0.09172836,-0.86377096,-0.062474135,-2.3934398,-0.025489645,1.5443946,0.7609161,0.04,0.04,-9.802973,0.20695677399635315,0.123208515,-0.09539957,-0.029922809451818466,0.031026134
842.8833333328954,0.09369825,-0.86547834,-0.06381931,-2.3942385,-0.02604014,1.543823,0.76037645,0.04,0.04,-9.802671,0.21204835176467896,0.12655535,-0.0964973,-0.029994433745741844,0.031510502
842.899999999562,0.095687486,-0.8672026,-0.06517767,-2.3950453,-0.026596054,1.5432458,0.75983137,0.04,0.04,-9.802354,0.21721789240837097,0.12994409,-0.09759106,-0.03006192483007908,0.03199585
842.9166666662287,0.09769587,-0.8689433,-0.06654912,-2.3958597,-0.027157318,1.5426629,0.75928104,0.04,0.04,-9.802024,0.22246767580509186,0.1333593,-0.09867969,-0.03012528270483017,0.032484654
842.9333333328954,0.09972324,-0.87070054,-0.06793353,-2.3966818,-0.027723897,1.5420746,0.75872564,0.04,0.04,-9.801726,0.2277873158454895,0.13683277,-0.099763274,-0.03018529899418354,0.032973494
842.949999999562,0.10176939,-0.872474,-0.069330744,-2.3975117,-0.02829571,1.5414808,0.7581652,0.04,0.04,-9.801359,0.23319536447525024,0.14026684,-0.100842364,-0.030240466818213463,0.03346619
842.9666666662287,0.103834115,-0.87426347,-0.07074061,-2.3983493,-0.02887271,1.5408818,0.7575995,0.04,0.04,-9.801082,0.23866532742977142,0.14376222,-0.10191638,-0.030293619260191917,0.033959486
842.9833333328953,0.10591723,-0.87606907,-0.07216303,-2.3991942,-0.029454846,1.5402772,0.75702876,0.04,0.04,-9.800733,0.2442067712545395,0.14727485,-0.10298391,-0.03034234791994095,0.03445347
842.999999999562,0.10801849,-0.8778904,-0.07359783,-2.4000459,-0.030042062,1.5396674,0.7564531,0.04,0.04,-9.800345,0.2498452067375183,0.15085685,-0.104045995,-0.030385227873921394,0.034949414
843.0166666662286,0.1101377,-0.8797273,-0.075044915,-2.400905,-0.030634295,1.5390522,0.75587255,0.04,0.04,-9.799922,0.25555419921875,0.15445606,-0.10510242,-0.030422169715166092,0.035446454
843.0333333328953,0.11227464,-0.8815795,-0.0765041,-2.401771,-0.031231474,1.5384322,0.75528723,0.04,0.04,-9.799572,0.2613443434238434,0.15807003,-0.1061527,-0.03045586682856083,0.03594511
843.0499999995619,0.11442908,-0.8834469,-0.07797523,-2.4026444,-0.031833544,1.5378071,0.754697,0.04,0.04,-9.799177,0.2672092616558075,0.16170694,-0.10719713,-0.030483121052384377,0.036444556
843.0666666662286,0.11660082,-0.88532925,-0.07945816,-2.4035246,-0.03244046,1.5371767,0.75410205,0.04,0.04,-9.798846,0.2731386423110962,0.16537921,-0.108234614,-0.030507860705256462,0.036943965
843.0833333328952,0.11878962,-0.88722646,-0.08095277,-2.404412,-0.033052128,1.5365416,0.7535023,0.04,0.04,-9.798441,0.27916276454925537,0.16908707,-0.10926547,-0.030528277158737183,0.03744469
843.0999999995619,0.120995276,-0.8891383,-0.08245883,-2.405306,-0.033668496,1.5359017,0.7528981,0.04,0.04,-9.798051,0.2852519154548645,0.17281492,-0.11028859,-0.030543722212314606,0.037944783
843.1166666662285,0.12321752,-0.8910646,-0.08397624,-2.4062068,-0.034289513,1.5352565,0.7522892,0.04,0.04,-9.797659,0.2914227545261383,0.17656542,-0.111305,-0.03055451810359955,0.038446292
843.1333333328952,0.12545614,-0.8930049,-0.085504815,-2.4071143,-0.034915086,1.5346069,0.75167584,0.04,0.04,-9.797256,0.2976750135421753,0.18036938,-0.11231354,-0.030562324449419975,0.03894771
843.1499999995618,0.12771083,-0.89495933,-0.08704438,-2.4080281,-0.03554518,1.5339527,0.75105816,0.04,0.04,-9.796878,0.30399221181869507,0.18414238,-0.11331494,-0.030565621331334114,0.039448254
843.1666666662285,0.12998153,-0.8969276,-0.08859481,-2.4089487,-0.036179714,1.5332937,0.7504361,0.04,0.04,-9.79642,0.310404509305954,0.18798654,-0.11430875,-0.030562421306967735,0.03994966
843.1833333328951,0.13226776,-0.89890945,-0.0901559,-2.4098756,-0.036818597,1.5326301,0.74980986,0.04,0.04,-9.7960415,0.31687259674072266,0.19187662,-0.11529411,-0.0305560864508152,0.04044977
843.1999999995618,0.13456938,-0.90090454,-0.09172748,-2.410809,-0.037461776,1.5319622,0.74917936,0.04,0.04,-9.795612,0.32344457507133484,0.19573061,-0.116272286,-0.030546704307198524,0.04095004
843.2166666662284,0.13688613,-0.90291274,-0.09330942,-2.411748,-0.038109213,1.5312899,0.7485445,0.04,0.04,-9.7952,0.3300713896751404,0.19960183,-0.11724135,-0.03053302690386772,0.041449804
843.2333333328951,0.13921775,-0.9049338,-0.09490147,-2.4126928,-0.0387608,1.5306133,0.7479057,0.04,0.04,-9.794692,0.3367820084095001,0.20352165,-0.11820152,-0.03051285445690155,0.041948125
843.2499999995617,0.14156395,-0.9069676,-0.096503474,-2.4136438,-0.039416462,1.5299324,0.7472629,0.04,0.04,-9.794226,0.34355902671813965,0.20747553,-0.119152844,-0.03048749826848507,0.04244564
843.2666666662284,0.14392461,-0.9090138,-0.09811528,-2.414601,-0.040076133,1.5292473,0.7466162,0.04,0.04,-9.793818,0.3504318296909332,0.21143024,-0.12009547,-0.03045951947569847,0.04294272
843.283333332895,0.14629924,-0.91107213,-0.09973672,-2.4155633,-0.040739756,1.5285583,0.74596566,0.04,0.04,-9.793397,0.35734421014785767,0.21541408,-0.12102863,-0.030428331345319748,0.043436337
843.2999999995617,0.1486877,-0.9131425,-0.10136757,-2.4165318,-0.041407235,1.5278652,0.74531144,0.04,0.04,-9.792849,0.3643774688243866,0.21941112,-0.12195286,-0.030390072613954544,0.043930843
843.3166666662283,0.15108971,-0.91522455,-0.103007644,-2.4175055,-0.0420785,1.527168,0.7446534,0.04,0.04,-9.792441,0.3714537024497986,0.2234344,-0.12286805,-0.030349716544151306,0.044422254
843.333333332895,0.15350501,-0.9173181,-0.10465678,-2.4184844,-0.042753454,1.526467,0.7439918,0.04,0.04,-9.791971,0.37861841917037964,0.22747682,-0.12377259,-0.03030582144856453,0.044914123
843.3499999995616,0.1559333,-0.91942316,-0.106314786,-2.4194686,-0.043432076,1.5257622,0.74332654,0.04,0.04,-9.7914295,0.38583776354789734,0.2315359,-0.124667645,-0.03025646135210991,0.045400523
843.3666666662283,0.1583743,-0.92153895,-0.10798146,-2.4204578,-0.044114254,1.525054,0.7426578,0.04,0.04,-9.790921,0.3931467533111572,0.23563299,-0.1255519,-0.030201800167560577,0.045885645
843.383333332895,0.1608278,-0.9236654,-0.1096566,-2.421453,-0.04479987,1.5243421,0.7419857,0.04,0.04,-9.790425,0.4005545675754547,0.23970181,-0.12642562,-0.030142424628138542,0.046372324
843.3999999995616,0.16329345,-0.92580295,-0.11134005,-2.422452,-0.045488894,1.5236266,0.74131006,0.04,0.04,-9.79002,0.407978355884552,0.2438,-0.12728849,-0.030082860961556435,0.04685335
843.4166666662283,0.16577095,-0.92795074,-0.11303157,-2.423456,-0.04618122,1.5229079,0.7406314,0.04,0.04,-9.78934,0.4155188798904419,0.24798033,-0.12813981,-0.030013011768460274,0.047334224
843.4333333328949,0.16825995,-0.9301087,-0.11473099,-2.4244652,-0.046876784,1.5221857,0.73994946,0.04,0.04,-9.788864,0.42309513688087463,0.25214112,-0.12898093,-0.02993869222700596,0.04780958
843.4499999995616,0.17076029,-0.932276,-0.116438106,-2.4254785,-0.0475755,1.5214597,0.7392645,0.04,0.04,-9.788383,0.43078503012657166,0.25629893,-0.12981088,-0.029863091185688972,0.048284613
843.4666666662282,0.17327155,-0.93445283,-0.11815273,-2.4264967,-0.048277304,1.5207312,0.7385765,0.04,0.04,-9.787796,0.43850234150886536,0.2604622,-0.13062921,-0.029784753918647766,0.048753157
843.4833333328949,0.17579357,-0.9366389,-0.11987464,-2.427519,-0.048982084,1.5199995,0.73788553,0.04,0.04,-9.787304,0.44632863998413086,0.26463532,-0.13143606,-0.02970169670879841,0.049221277
843.4999999995615,0.17832598,-0.9388342,-0.12160364,-2.4285452,-0.04968976,1.5192641,0.73719174,0.04,0.04,-9.78675,0.4541976749897003,0.268837,-0.13223055,-0.029615284875035286,0.04968599
843.5166666662282,0.18086848,-0.94103813,-0.12333952,-2.4295757,-0.050400272,1.5185264,0.73649526,0.04,0.04,-9.786109,0.4621412456035614,0.27308995,-0.1330131,-0.029524004086852074,0.05014625
843.5333333328948,0.18342078,-0.94325054,-0.12508208,-2.4306104,-0.051113512,1.5177852,0.735796,0.04,0.04,-9.78555,0.4701623320579529,0.27730095,-0.13378409,-0.0294274240732193,0.050603803
843.5499999995615,0.18598257,-0.94547117,-0.1268311,-2.4316487,-0.051829398,1.517042,0.73509425,0.04,0.04,-9.785041,0.4782300293445587,0.28154534,-0.13454147,-0.02933190017938614,0.05105623
843.5666666662281,0.1885535,-0.94769984,-0.12858638,-2.432691,-0.052547857,1.5162965,0.73438996,0.04,0.04,-9.784389,0.4863796830177307,0.2857975,-0.13528723,-0.02922729216516018,0.05150489
843.5833333328948,0.19113338,-0.9499361,-0.1303477,-2.4337366,-0.053268783,1.5155475,0.7336831,0.04,0.04,-9.783851,0.4945964515209198,0.2900523,-0.13602018,-0.029119273647665977,0.05194998
843.5999999995614,0.19372183,-0.9521799,-0.13211489,-2.4347858,-0.05399212,1.5147965,0.732974,0.04,0.04,-9.783203,0.5028550624847412,0.29434645,-0.13673887,-0.029009655117988586,0.052389074
843.6166666662281,0.19631854,-0.95443094,-0.1338877,-2.4358382,-0.054717757,1.5140433,0.73226273,0.04,0.04,-9.782617,0.5112084746360779,0.29863283,-0.13744482,-0.028895335271954536,0.052825086
843.6333333328947,0.19892317,-0.95668894,-0.13566592,-2.4368937,-0.05544561,1.5132879,0.73154926,0.04,0.04,-9.781932,0.519603967666626,0.30293334,-0.13813774,-0.028773751109838486,0.053255603
843.6499999995614,0.20153542,-0.9589534,-0.13744938,-2.4379523,-0.05617562,1.5125297,0.7308335,0.04,0.04,-9.781311,0.5280454158782959,0.3072483,-0.13881698,-0.028648121282458305,0.053676803
843.666666666228,0.20415504,-0.961224,-0.13923778,-2.4390144,-0.056907672,1.511769,0.7301156,0.04,0.04,-9.780679,0.5366072058677673,0.31157213,-0.13948157,-0.02852228842675686,0.054097135
843.6833333328947,0.20678158,-0.96350074,-0.14103097,-2.4400785,-0.057641692,1.5110066,0.7293958,0.04,0.04,-9.780182,0.5451688766479492,0.31587997,-0.14013128,-0.028398269787430763,0.05451058
843.6999999995613,0.20941487,-0.9657834,-0.1428287,-2.4411461,-0.05837757,1.5102421,0.7286741,0.04,0.04,-9.77935,0.5538415908813477,0.32021564,-0.14076738,-0.028264759108424187,0.054920178
843.716666666228,0.2120545,-0.9680716,-0.14463079,-2.4422166,-0.05911522,1.5094762,0.72795105,0.04,0.04,-9.778808,0.5625286102294922,0.3245646,-0.14138813,-0.028132449835538864,0.055323787
843.7333333328946,0.2147002,-0.9703651,-0.14643699,-2.443289,-0.059854556,1.5087086,0.72722656,0.04,0.04,-9.778159,0.5712999701499939,0.3288873,-0.14199595,-0.027995508164167404,0.055722356
843.7499999995613,0.21735162,-0.9726637,-0.14824705,-2.444364,-0.060595486,1.5079396,0.72650045,0.04,0.04,-9.7774105,0.580108642578125,0.33325428,-0.14259006,-0.027852525934576988,0.056114335
843.7666666662279,0.22000842,-0.9749667,-0.1500608,-2.4454412,-0.061337955,1.5071687,0.72577274,0.04,0.04,-9.776763,0.5889857411384583,0.33760834,-0.14316893,-0.02770702913403511,0.05650091
843.7833333328946,0.22267033,-0.9772742,-0.15187804,-2.4465196,-0.06208182,1.5063964,0.72504324,0.04,0.04,-9.7760515,0.5979083180427551,0.34196725,-0.14373189,-0.02755935676395893,0.056880627
843.7999999995612,0.22533701,-0.9795858,-0.15369849,-2.4476,-0.06282703,1.5056225,0.7243131,0.04,0.04,-9.775249,0.60689377784729,0.34634617,-0.1442781,-0.02740425430238247,0.0572538
843.8166666662279,0.2280081,-0.9819012,-0.15552194,-2.4486825,-0.06357349,1.5048475,0.7235815,0.04,0.04,-9.774516,0.6159230470657349,0.35074612,-0.14481115,-0.027246885001659393,0.057620496
843.8333333328945,0.23068331,-0.98422045,-0.15734814,-2.4497669,-0.0643211,1.5040714,0.72284824,0.04,0.04,-9.773913,0.6249943375587463,0.35509688,-0.14532767,-0.02709001675248146,0.05797873
843.8499999995612,0.23336229,-0.9865428,-0.15917696,-2.4508526,-0.06506977,1.5032941,0.72211474,0.04,0.04,-9.773145,0.6341249942779541,0.35950717,-0.14582533,-0.026928789913654327,0.058331057
843.8666666662278,0.23604475,-0.9888683,-0.1610081,-2.4519405,-0.06581938,1.5025157,0.7213795,0.04,0.04,-9.772368,0.6433142423629761,0.36389077,-0.14631113,-0.026763223111629486,0.058676098
843.8833333328945,0.23873028,-0.9911964,-0.16284138,-2.4530284,-0.066569865,1.5017366,0.7206441,0.04,0.04,-9.771738,0.65253746509552,0.36829615,-0.1467762,-0.026599908247590065,0.05901479
843.8999999995611,0.24141863,-0.993527,-0.16467655,-2.454118,-0.06732115,1.5009565,0.71990734,0.04,0.04,-9.770799,0.6617964506149292,0.37267378,-0.14722867,-0.02642620913684368,0.059342533
843.9166666662278,0.24410945,-0.99585974,-0.16651334,-2.4552083,-0.06807309,1.5001758,0.71917015,0.04,0.04,-9.770119,0.6711430549621582,0.3770913,-0.14766105,-0.0262545607984066,0.05966849
843.9333333328944,0.2468024,-0.9981942,-0.16835162,-2.4562993,-0.06882566,1.4993945,0.71843284,0.04,0.04,-9.769355,0.6804834008216858,0.38145134,-0.1480781,-0.026079175993800163,0.05998337
843.9499999995611,0.24949712,-1.0005302,-0.17019112,-2.457392,-0.069578744,1.4986124,0.7176949,0.04,0.04,-9.7684965,0.6898807287216187,0.38588163,-0.14848042,-0.02589992806315422,0.060289316
843.9666666662278,0.2521933,-1.0028677,-0.17203161,-2.458485,-0.07033219,1.49783,0.71695584,0.04,0.04,-9.767826,0.699330747127533,0.39027575,-0.14886467,-0.025723807513713837,0.06058784
843.9833333328944,0.25489065,-1.005206,-0.17387287,-2.459578,-0.071085945,1.4970474,0.71621674,0.04,0.04,-9.7669525,0.7088184952735901,0.39467674,-0.14922865,-0.025542408227920532,0.060879886
843.999999999561,0.25758874,-1.0075451,-0.17571466,-2.4606712,-0.07183994,1.4962647,0.71547765,0.04,0.04,-9.766141,0.71833336353302,0.39906096,-0.14957625,-0.025358622893691063,0.06116265
844.0166666662277,0.26028743,-1.0098847,-0.17755678,-2.4617646,-0.07259404,1.4954818,0.7147385,0.04,0.04,-9.765253,0.727899968624115,0.4034784,-0.14990753,-0.02517015114426613,0.061437532
844.0333333328944,0.2629862,-1.0122243,-0.17939898,-2.4628587,-0.0733482,1.494699,0.71399933,0.04,0.04,-9.764431,0.7374843955039978,0.40787166,-0.15022072,-0.0249794851988554,0.06170319
844.049999999561,0.26568484,-1.0145638,-0.18124102,-2.4639528,-0.07410233,1.4939162,0.71326023,0.04,0.04,-9.763666,0.7471010684967041,0.41225788,-0.1505163,-0.024789780378341675,0.0619595
844.0666666662277,0.2683829,-1.0169027,-0.18308271,-2.465046,-0.07485629,1.4931334,0.71252114,0.04,0.04,-9.762835,0.7567732930183411,0.41665754,-0.15079369,-0.02459937147796154,0.06220963
844.0833333328943,0.27108014,-1.019241,-0.18492378,-2.4661381,-0.075610034,1.4923508,0.71178204,0.04,0.04,-9.761903,0.7664527297019958,0.42103067,-0.1510525,-0.0244047399610281,0.062447812
844.099999999561,0.27377617,-1.0215781,-0.18676406,-2.4672303,-0.07636341,1.4915684,0.711043,0.04,0.04,-9.760958,0.7761776447296143,0.4254532,-0.15129171,-0.02420649304986,0.06267837
844.1166666662276,0.27647072,-1.0239141,-0.18860328,-2.468322,-0.07711636,1.4907863,0.71030533,0.04,0.04,-9.760115,0.785922110080719,0.4298309,-0.15151148,-0.024008095264434814,0.06289848
844.1333333328943,0.2791634,-1.0262482,-0.19044124,-2.4694138,-0.07786882,1.4900051,0.7095681,0.04,0.04,-9.759249,0.7956916093826294,0.43422967,-0.15171662,-0.02380932681262493,0.06310988
844.1499999995609,0.28185394,-1.0285807,-0.19227771,-2.4705038,-0.07862064,1.4892246,0.7088309,0.04,0.04,-9.758459,0.805489718914032,0.43856537,-0.1519026,-0.023612547665834427,0.06331168
844.1666666662276,0.28454202,-1.0309108,-0.19411246,-2.471593,-0.079371765,1.4884446,0.7080948,0.04,0.04,-9.7574415,0.8153101801872253,0.44296065,-0.15206693,-0.023409878835082054,0.063504
844.1833333328942,0.28722724,-1.0332386,-0.19594528,-2.4726813,-0.08012214,1.4876657,0.7073595,0.04,0.04,-9.756598,0.8251531720161438,0.44728464,-0.15221399,-0.023207981139421463,0.06368654
844.1999999995609,0.2899093,-1.0355636,-0.19777589,-2.4737678,-0.080871634,1.4868872,0.7066243,0.04,0.04,-9.755662,0.835016667842865,0.45167777,-0.15234232,-0.023004520684480667,0.06385858
844.2166666662275,0.29258782,-1.0378857,-0.1996041,-2.4748538,-0.08162014,1.4861102,0.70589095,0.04,0.04,-9.754651,0.8449013829231262,0.45604244,-0.15244783,-0.02279939316213131,0.06402152
844.2333333328942,0.29526255,-1.0402044,-0.2014297,-2.4759371,-0.082367554,1.485334,0.70515776,0.04,0.04,-9.753851,0.8547874093055725,0.4603805,-0.15253736,-0.022596463561058044,0.06417449
844.2499999995608,0.29793307,-1.0425196,-0.20325245,-2.477019,-0.08311383,1.4845593,0.7044263,0.04,0.04,-9.752749,0.8647114634513855,0.46474814,-0.1526038,-0.022388288751244545,0.06431658
844.2666666662275,0.3005992,-1.0448306,-0.20507216,-2.4780996,-0.08385883,1.4837859,0.7036964,0.04,0.04,-9.751813,0.8746477365493774,0.4690733,-0.15265352,-0.022179603576660156,0.06444985
844.2833333328941,0.3032605,-1.0471379,-0.2068886,-2.4791775,-0.084602505,1.4830137,0.70296705,0.04,0.04,-9.7509,0.8845774531364441,0.4733736,-0.15268525,-0.021972279995679855,0.06457129
844.2999999995608,0.30591667,-1.0494406,-0.2087015,-2.4802535,-0.085344724,1.482243,0.7022395,0.04,0.04,-9.749829,0.8945422768592834,0.47774592,-0.15269308,-0.021760977804660797,0.064683944
844.3166666662274,0.3085675,-1.0517389,-0.21051069,-2.4813275,-0.086085476,1.4814739,0.7015137,0.04,0.04,-9.748862,0.904486894607544,0.48204088,-0.15268292,-0.02155013382434845,0.06478363
844.3333333328941,0.3112125,-1.0540318,-0.21231589,-2.4823995,-0.0868246,1.4807067,0.7007896,0.04,0.04,-9.747884,0.9144476652145386,0.48636007,-0.15265322,-0.021338781341910362,0.064874664
844.3499999995607,0.31385148,-1.0563196,-0.21411695,-2.4834692,-0.08756198,1.4799411,0.70006686,0.04,0.04,-9.746956,0.9244207739830017,0.4906296,-0.15260409,-0.021129468455910683,0.06495488
844.3666666662274,0.3164839,-1.0586019,-0.2159136,-2.4845357,-0.088297606,1.4791774,0.6993457,0.04,0.04,-9.745948,0.9343973398208618,0.49492046,-0.15253337,-0.02092035301029682,0.06502382
844.383333332894,0.31910986,-1.0608779,-0.21770567,-2.4856,-0.08903135,1.4784155,0.6986264,0.04,0.04,-9.7448435,0.9443891644477844,0.49920252,-0.15244228,-0.02070874534547329,0.06508274
844.3999999995607,0.32172856,-1.0631483,-0.21949293,-2.4866614,-0.08976307,1.4776558,0.697909,0.04,0.04,-9.743906,0.9543543457984924,0.50342673,-0.15232946,-0.02050069160759449,0.06513028
844.4166666662273,0.32433996,-1.0654123,-0.22127512,-2.487719,-0.09049278,1.4768984,0.6971938,0.04,0.04,-9.742851,0.964335560798645,0.5077127,-0.15219708,-0.020291335880756378,0.06516599
844.433333332894,0.32694364,-1.0676694,-0.22305208,-2.488774,-0.09122033,1.4761434,0.69648075,0.04,0.04,-9.741706,0.9743137359619141,0.5119166,-0.15204515,-0.020076021552085876,0.06519101
844.4499999995606,0.32953933,-1.0699197,-0.2248236,-2.4898255,-0.09194565,1.4753903,0.6957699,0.04,0.04,-9.740714,0.9843063354492188,0.51616293,-0.15187262,-0.019864697009325027,0.065207265
844.4666666662273,0.33212668,-1.0721625,-0.22658935,-2.4908743,-0.09266867,1.4746393,0.6950612,0.04,0.04,-9.7396,0.9942531585693359,0.52041215,-0.15167986,-0.01965213008224964,0.06520974
844.483333332894,0.33470544,-1.074398,-0.22834922,-2.491919,-0.09338924,1.4738913,0.6943547,0.04,0.04,-9.738661,1.004219889640808,0.524601,-0.15146577,-0.01944679021835327,0.06520239
844.4999999995606,0.33727524,-1.0766258,-0.23010302,-2.4929602,-0.094107315,1.4731458,0.69365096,0.04,0.04,-9.737515,1.0141690969467163,0.5287872,-0.15123005,-0.019237130880355835,0.06518489
844.5166666662273,0.33983585,-1.0788456,-0.2318505,-2.4939973,-0.09482281,1.4724026,0.69294965,0.04,0.04,-9.736389,1.0241141319274902,0.5329648,-0.1509757,-0.019026534631848335,0.065155484
844.5333333328939,0.34238693,-1.0810574,-0.23359144,-2.4950306,-0.09553569,1.4716629,0.6922508,0.04,0.04,-9.735321,1.0340297222137451,0.5371609,-0.15069957,-0.01881936937570572,0.06511396
844.5499999995606,0.34492835,-1.0832608,-0.23532565,-2.4960597,-0.09624577,1.4709253,0.6915549,0.04,0.04,-9.734165,1.043946385383606,0.5413088,-0.15040186,-0.018606459721922874,0.06506178
844.5666666662272,0.3474594,-1.0854551,-0.23705298,-2.4970849,-0.09695303,1.4701912,0.6908615,0.04,0.04,-9.733042,1.0538372993469238,0.54546523,-0.15008394,-0.018396778032183647,0.06499871
844.5833333328939,0.3499801,-1.0876405,-0.23877312,-2.4981058,-0.09765736,1.4694597,0.69017124,0.04,0.04,-9.731953,1.0637307167053223,0.54957163,-0.1497455,-0.0181873869150877,0.06492368
844.5999999995605,0.35249,-1.0898167,-0.24048592,-2.4991226,-0.09835869,1.4687316,0.6894837,0.04,0.04,-9.730849,1.0735841989517212,0.5537105,-0.14938635,-0.017980612814426422,0.064837866
844.6166666662272,0.35498893,-1.0919837,-0.2421912,-2.500135,-0.09905693,1.4680067,0.6887994,0.04,0.04,-9.729762,1.083418607711792,0.5577938,-0.1490055,-0.017774470150470734,0.064741
844.6333333328938,0.3574765,-1.0941399,-0.2438887,-2.5011427,-0.099751994,1.4672848,0.68811816,0.04,0.04,-9.728574,1.093245267868042,0.56190753,-0.14860459,-0.01756713166832924,0.06463344
844.6499999995605,0.35995236,-1.0962867,-0.24557829,-2.5021458,-0.1004438,1.4665666,0.6874401,0.04,0.04,-9.727518,1.1030372381210327,0.56590736,-0.1481835,-0.01736639067530632,0.06451352
844.6666666662271,0.3624164,-1.0984228,-0.2472598,-2.5031438,-0.10113231,1.4658518,0.6867653,0.04,0.04,-9.726338,1.1127958297729492,0.5699787,-0.14774145,-0.01716359704732895,0.064381026
844.6833333328938,0.36486825,-1.1005483,-0.24893296,-2.5041373,-0.10181738,1.4651405,0.68609375,0.04,0.04,-9.725188,1.1225498914718628,0.5739395,-0.1472788,-0.016961993649601936,0.06423873
844.6999999995604,0.36730757,-1.1026632,-0.25059757,-2.505125,-0.10249898,1.4644328,0.6854257,0.04,0.04,-9.72408,1.1322523355484009,0.577988,-0.14679475,-0.016764339059591293,0.06408469
844.7166666662271,0.3697342,-1.1047667,-0.2522535,-2.5061078,-0.10317701,1.4637289,0.68476105,0.04,0.04,-9.72284,1.1419367790222168,0.5820025,-0.14629044,-0.016563719138503075,0.063919365
844.7333333328937,0.3721478,-1.1068592,-0.25390044,-2.5070856,-0.10385138,1.4630288,0.6840999,0.04,0.04,-9.721704,1.1515966653823853,0.58595115,-0.14576556,-0.01636708714067936,0.06374294
844.7499999995604,0.37454805,-1.10894,-0.2555383,-2.5080576,-0.104522035,1.4623327,0.6834425,0.04,0.04,-9.720547,1.1611844301223755,0.5899232,-0.14521888,-0.01617155410349369,0.06355498
844.766666666227,0.3769347,-1.1110091,-0.2571669,-2.5090241,-0.10518889,1.4616405,0.6827887,0.04,0.04,-9.719349,1.1707814931869507,0.59383905,-0.14465234,-0.015976199880242348,0.06335658
844.7833333328937,0.37930748,-1.1130663,-0.258786,-2.509985,-0.10585191,1.4609522,0.6821388,0.04,0.04,-9.718153,1.1803187131881714,0.5977716,-0.14406516,-0.0157823134213686,0.06314643
844.7999999995603,0.38166612,-1.1151112,-0.2603954,-2.5109406,-0.10651096,1.4602678,0.6814927,0.04,0.04,-9.716967,1.1898196935653687,0.601685,-0.14345795,-0.015589937567710876,0.06292517
844.816666666227,0.38401043,-1.1171435,-0.26199502,-2.5118902,-0.10716598,1.4595875,0.6808507,0.04,0.04,-9.715859,1.1992770433425903,0.6055537,-0.14282991,-0.015403056517243385,0.062693946
844.8333333328936,0.38634002,-1.1191629,-0.2635846,-2.5128338,-0.107816905,1.4589115,0.6802128,0.04,0.04,-9.714641,1.2086985111236572,0.60939217,-0.14218222,-0.015218263491988182,0.06245096
844.8499999995603,0.38865465,-1.1211697,-0.265164,-2.5137713,-0.108463615,1.45824,0.67957896,0.04,0.04,-9.713457,1.2180774211883545,0.61321026,-0.1415154,-0.015034932643175125,0.062196232
844.8666666662269,0.3909541,-1.123163,-0.26673314,-2.5147026,-0.10910608,1.4575729,0.6789491,0.04,0.04,-9.712222,1.227412462234497,0.6170447,-0.14082822,-0.014850943349301815,0.0619314
844.8833333328936,0.39323816,-1.1251432,-0.2682916,-2.5156276,-0.10974424,1.4569105,0.6783236,0.04,0.04,-9.711069,1.2367055416107178,0.6208071,-0.1401208,-0.014671403914690018,0.061654292
844.8999999995602,0.3955064,-1.1271098,-0.26983947,-2.5165462,-0.11037806,1.4562523,0.6777023,0.04,0.04,-9.709836,1.2459321022033691,0.6245841,-0.13939366,-0.014491839334368706,0.061367173
844.9166666662269,0.39775872,-1.1290624,-0.2713763,-2.5174587,-0.11100741,1.4555988,0.6770854,0.04,0.04,-9.708622,1.2551437616348267,0.62834704,-0.13864702,-0.014314919710159302,0.061069727
844.9333333328935,0.399995,-1.1310011,-0.27290213,-2.5183642,-0.11163223,1.4549501,0.6764731,0.04,0.04,-9.707455,1.2642618417739868,0.63200045,-0.13788086,-0.014141539111733437,0.060761277
844.9499999995602,0.4022149,-1.1329255,-0.27441666,-2.519263,-0.11225247,1.4543061,0.6758652,0.04,0.04,-9.706201,1.2733460664749146,0.63574445,-0.13709539,-0.013968552462756634,0.060442224
844.9666666662268,0.40441814,-1.1348357,-0.2759199,-2.5201554,-0.112868056,1.453667,0.6752619,0.04,0.04,-9.704961,1.2823779582977295,0.6394226,-0.13628992,-0.013797017745673656,0.060113817
844.9833333328935,0.40660438,-1.1367311,-0.2774116,-2.5210407,-0.11347891,1.4530329,0.6746631,0.04,0.04,-9.703824,1.2913545370101929,0.6430752,-0.13546605,-0.013629724271595478,0.059774112
844.9999999995601,0.40877357,-1.1386117,-0.27889156,-2.5219195,-0.11408497,1.4524037,0.6740692,0.04,0.04,-9.702533,1.3002842664718628,0.64670503,-0.13462326,-0.013461906462907791,0.05942401
845.0166666662268,0.4109254,-1.1404773,-0.2803598,-2.522791,-0.11468619,1.4517795,0.6734798,0.04,0.04,-9.701413,1.3091312646865845,0.65028715,-0.13376133,-0.013299836777150631,0.059063975
845.0333333328934,0.41305965,-1.1423277,-0.28181604,-2.5236554,-0.115282506,1.4511603,0.6728954,0.04,0.04,-9.700138,1.3179563283920288,0.65387607,-0.13288054,-0.013137992471456528,0.058693577
845.0499999995601,0.4151761,-1.1441625,-0.28326002,-2.5245125,-0.115873866,1.4505461,0.67231584,0.04,0.04,-9.698974,1.3266903162002563,0.6574145,-0.13198154,-0.012980945408344269,0.05831237
845.0666666662268,0.4172745,-1.1459819,-0.2846917,-2.5253623,-0.116460174,1.4499376,0.67174107,0.04,0.04,-9.697715,1.3353729248046875,0.66094106,-0.13106479,-0.012825418263673782,0.05792251
845.0833333328934,0.41935465,-1.1477854,-0.28611097,-2.5262053,-0.1170414,1.4493343,0.6711714,0.04,0.04,-9.6965,1.3439933061599731,0.66443014,-0.13012938,-0.012670626863837242,0.05752283
845.09999999956,0.42141646,-1.149573,-0.28751773,-2.5270407,-0.11761747,1.4487362,0.67060685,0.04,0.04,-9.695363,1.3525375127792358,0.66789085,-0.12917624,-0.012521140277385712,0.057112217
845.1166666662267,0.42345965,-1.1513447,-0.2889118,-2.5278685,-0.11818831,1.4481437,0.6700474,0.04,0.04,-9.694152,1.3610365390777588,0.6713233,-0.1282059,-0.012374955229461193,0.056692503
845.1333333328934,0.42548394,-1.1530995,-0.2902929,-2.5286887,-0.11875391,1.4475566,0.66949296,0.04,0.04,-9.69291,1.3694576025009155,0.67475015,-0.12721774,-0.012228982523083687,0.056263164
845.14999999956,0.42748925,-1.1548381,-0.29166108,-2.5295005,-0.11931418,1.4469748,0.6689438,0.04,0.04,-9.691718,1.377809762954712,0.678105,-0.12621213,-0.012087278068065643,0.05582502
845.1666666662267,0.42947534,-1.15656,-0.29301608,-2.5303047,-0.119869106,1.4463986,0.6684,0.04,0.04,-9.690419,1.3861150741577148,0.6814777,-0.12519032,-0.011946194805204868,0.05537818
845.1833333328933,0.43144202,-1.1582654,-0.2943578,-2.5311012,-0.120418556,1.445828,0.66786134,0.04,0.04,-9.689228,1.3943229913711548,0.6847468,-0.12415185,-0.011807845905423164,0.054924164
845.19999999956,0.4333891,-1.1599532,-0.2956862,-2.5318897,-0.12096252,1.4452631,0.6673282,0.04,0.04,-9.688079,1.4024606943130493,0.6881191,-0.12309553,-0.011673743836581707,0.054461427
845.2166666662266,0.43531647,-1.1616243,-0.2970011,-2.5326703,-0.121500984,1.4447043,0.66680044,0.04,0.04,-9.686851,1.4105180501937866,0.6913504,-0.122024156,-0.011541579850018024,0.053986393
845.2333333328933,0.43722385,-1.1632781,-0.29830238,-2.5334425,-0.12203388,1.4441512,0.66627806,0.04,0.04,-9.685639,1.4185097217559814,0.6945906,-0.120936655,-0.011409963481128216,0.053502623
845.2499999995599,0.439111,-1.164914,-0.29958987,-2.5342064,-0.12256114,1.4436038,0.66576123,0.04,0.04,-9.684456,1.4264380931854248,0.697811,-0.11983293,-0.011281946673989296,0.05301104
845.2666666662266,0.44097808,-1.1665325,-0.3008635,-2.5349617,-0.123082735,1.4430622,0.66525,0.04,0.04,-9.683245,1.4342881441116333,0.7009609,-0.11871492,-0.011157521046698093,0.052511603
845.2833333328932,0.44282475,-1.1681336,-0.30212322,-2.5357091,-0.123598605,1.4425266,0.6647444,0.04,0.04,-9.681975,1.4420429468154907,0.70413125,-0.11758096,-0.01103244349360466,0.052003384
845.2999999995599,0.44465053,-1.1697167,-0.30336887,-2.5364485,-0.12410874,1.4419969,0.6642445,0.04,0.04,-9.6808815,1.4497220516204834,0.707247,-0.11643184,-0.010912454687058926,0.051486447
845.3166666662265,0.44645563,-1.171282,-0.3046004,-2.5371792,-0.12461308,1.4414734,0.6637503,0.04,0.04,-9.6797085,1.4573421478271484,0.71032166,-0.11526978,-0.010795899666845798,0.050961155
845.3333333328932,0.4482399,-1.1728289,-0.30581754,-2.5379019,-0.12511154,1.4409558,0.6632617,0.04,0.04,-9.678506,1.4648905992507935,0.71339935,-0.11409309,-0.010680259205400944,0.050431684
845.3499999995598,0.45000306,-1.1743572,-0.30702043,-2.5386157,-0.12560412,1.4404444,0.6627789,0.04,0.04,-9.677395,1.4723132848739624,0.71637714,-0.1129019,-0.010570574551820755,0.04989162
845.3666666662265,0.451745,-1.1758674,-0.30820876,-2.5393205,-0.1260908,1.4399391,0.66230196,0.04,0.04,-9.676225,1.4796994924545288,0.7193402,-0.11169772,-0.010464358143508434,0.0493449
845.3833333328931,0.45346567,-1.1773591,-0.3093826,-2.5400174,-0.12657154,1.4394403,0.6618307,0.04,0.04,-9.674985,1.4869776964187622,0.72231513,-0.11048086,-0.010356366634368896,0.048790853
845.3999999995598,0.45516485,-1.1788318,-0.31054166,-2.540705,-0.12704629,1.4389473,0.6613653,0.04,0.04,-9.673937,1.4941725730895996,0.72520554,-0.109249786,-0.01025503221899271,0.04822937
845.4166666662264,0.45684245,-1.1802856,-0.31168625,-2.5413842,-0.12751502,1.4384605,0.6609058,0.04,0.04,-9.672731,1.501289963722229,0.72808325,-0.10800617,-0.010155943222343922,0.047662593
845.4333333328931,0.45849845,-1.1817207,-0.31281593,-2.5420547,-0.1279777,1.4379799,0.6604524,0.04,0.04,-9.671647,1.5083391666412354,0.7308511,-0.1067516,-0.01006344798952341,0.047087062
845.4499999995597,0.4601326,-1.1831383,-0.31393075,-2.5427163,-0.12843423,1.4375058,0.66000503,0.04,0.04,-9.670507,1.5152748823165894,0.73371893,-0.105484955,-0.009972156956791878,0.046507046
845.4666666662264,0.46174484,-1.1845365,-0.31503063,-2.5433688,-0.12888466,1.4370384,0.65956354,0.04,0.04,-9.6693325,1.5221214294433594,0.7365709,-0.10420624,-0.009878379292786121,0.04591977
845.483333332893,0.4633351,-1.1859155,-0.31611553,-2.5440128,-0.12932898,1.436577,0.65912795,0.04,0.04,-9.668181,1.5289075374603271,0.7392983,-0.102916464,-0.009785872884094715,0.045326594
845.4999999995597,0.4649032,-1.1872752,-0.3171853,-2.5446475,-0.1297671,1.4361221,0.6586986,0.04,0.04,-9.667145,1.535574197769165,0.7420099,-0.10161505,-0.00970001146197319,0.044726606
845.5166666662263,0.46644917,-1.1886157,-0.3182399,-2.5452733,-0.13019904,1.4356736,0.6582753,0.04,0.04,-9.665993,1.5421698093414307,0.74466825,-0.10030462,-0.009615231305360794,0.04412057
845.533333332893,0.46797287,-1.1899371,-0.3192793,-2.5458903,-0.13062467,1.4352317,0.657858,0.04,0.04,-9.664936,1.548686146736145,0.7472984,-0.098983616,-0.00953503604978323,0.04351124
845.5499999995596,0.4694742,-1.191239,-0.3203036,-2.546498,-0.13104412,1.434796,0.6574468,0.04,0.04,-9.663835,1.5550885200500488,0.74991745,-0.09765224,-0.009455139748752117,0.042894702
845.5666666662263,0.470953,-1.1925211,-0.32131246,-2.5470967,-0.13145731,1.4343671,0.6570419,0.04,0.04,-9.662754,1.561423897743225,0.7524816,-0.09631231,-0.00937952846288681,0.04227292
845.583333332893,0.4724095,-1.1937839,-0.32230598,-2.5476863,-0.1318642,1.4339447,0.6566431,0.04,0.04,-9.661718,1.5676660537719727,0.754972,-0.09496475,-0.00930809322744608,0.041647702
845.5999999995596,0.4738433,-1.1950272,-0.3232841,-2.5482676,-0.13226481,1.4335289,0.6562504,0.04,0.04,-9.66063,1.573790192604065,0.7574716,-0.09360733,-0.009237008169293404,0.041017666
845.6166666662263,0.47525454,-1.196251,-0.32424682,-2.5488384,-0.13265908,1.4331197,0.655864,0.039999995,0.04,-9.659691,1.5798304080963135,0.759916,-0.09224206,-0.009172496385872364,0.040382214
845.6333333328929,0.47664306,-1.197455,-0.32519406,-2.5494003,-0.13304698,1.4327168,0.6554838,0.03999999,0.04,-9.65846,1.5858169794082642,0.7623511,-0.09087001,-0.009103100746870041,0.039743923
845.6499999995596,0.47800887,-1.1986395,-0.32612577,-2.5499532,-0.13342856,1.4323208,0.6551099,0.039999988,0.04,-9.6575,1.5916681289672852,0.764726,-0.089491025,-0.009039690718054771,0.03909983
845.6666666662262,0.47935197,-1.1998042,-0.32704192,-2.550497,-0.13380371,1.4319314,0.654742,0.03999998,0.04,-9.656501,1.5974465608596802,0.76706445,-0.08810551,-0.008979027159512043,0.038454145
845.6833333328929,0.48067227,-1.200949,-0.32794252,-2.551031,-0.13417257,1.4315485,0.6543805,0.039999984,0.04,-9.655446,1.6031098365783691,0.76931083,-0.08671244,-0.008919883519411087,0.03780443
845.6999999995595,0.48196962,-1.2020742,-0.32882753,-2.5515563,-0.1345351,1.4311721,0.6540252,0.039999977,0.04,-9.654428,1.608707308769226,0.77163,-0.08531528,-0.008863008581101894,0.03715193
845.7166666662262,0.48324427,-1.2031796,-0.32969704,-2.5520723,-0.1348912,1.4308025,0.65367615,0.03999997,0.04,-9.653499,1.614176630973816,0.77386504,-0.08391217,-0.008809554390609264,0.036495004
845.7333333328928,0.48449597,-1.2042649,-0.33055094,-2.552579,-0.13524099,1.4304395,0.6533334,0.039999966,0.04,-9.652483,1.6195894479751587,0.7760431,-0.082504116,-0.008757312782108784,0.035836264
845.7499999995595,0.4857248,-1.2053305,-0.33138925,-2.5530765,-0.13558434,1.430083,0.65299696,0.03999996,0.04,-9.651551,1.6248903274536133,0.7781776,-0.08109288,-0.008709334768354893,0.035174772
845.7666666662261,0.48693094,-1.2063764,-0.33221197,-2.5535645,-0.13592137,1.4297334,0.6526668,0.039999954,0.04,-9.650589,1.6300854682922363,0.7802902,-0.079677634,-0.008663409389555454,0.034509912
845.7833333328928,0.48811412,-1.2074021,-0.33301908,-2.5540435,-0.13625199,1.4293902,0.6523428,0.03999995,0.04,-9.649595,1.6352051496505737,0.7823672,-0.078259,-0.008616854436695576,0.033844907
845.7999999995594,0.48927444,-1.2084086,-0.33381072,-2.554513,-0.1365762,1.4290537,0.652025,0.039999947,0.04,-9.648732,1.6402252912521362,0.784366,-0.07683694,-0.008577598258852959,0.03317858
845.8166666662261,0.49041194,-1.2093952,-0.33458662,-2.5549738,-0.13689408,1.4287239,0.65171355,0.03999994,0.04,-9.647724,1.6451562643051147,0.7863995,-0.07541285,-0.008535635657608509,0.032509625
845.8333333328927,0.49152678,-1.2103616,-0.33534697,-2.5554252,-0.13720554,1.4284006,0.6514082,0.039999932,0.04,-9.64691,1.649970293045044,0.78833467,-0.0739868,-0.008498803712427616,0.03184207
845.8499999995594,0.49261865,-1.2113084,-0.33609188,-2.555867,-0.13751061,1.428084,0.6511092,0.03999993,0.04,-9.64597,1.654694676399231,0.79021925,-0.072558366,-0.008464530110359192,0.031172844
845.866666666226,0.49368778,-1.2122357,-0.33682126,-2.5562994,-0.13780938,1.427774,0.65081644,0.039999925,0.04,-9.645067,1.6593300104141235,0.7921019,-0.071131006,-0.008430792950093746,0.030499525
845.8833333328927,0.49473435,-1.2131432,-0.3375351,-2.556723,-0.13810177,1.4274704,0.65052986,0.03999992,0.04,-9.644144,1.6638847589492798,0.79395807,-0.069703266,-0.008397010155022144,0.029827522
845.8999999995593,0.4957582,-1.2140311,-0.33823353,-2.557137,-0.13838784,1.4271735,0.65024954,0.039999917,0.04,-9.643349,1.6682970523834229,0.79573363,-0.068274796,-0.008368205279111862,0.029153617
845.916666666226,0.4967595,-1.2148994,-0.3389165,-2.5575418,-0.13866766,1.4268832,0.6499754,0.03999991,0.04,-9.642414,1.67266845703125,0.7974963,-0.066847876,-0.008338266052305698,0.028481513
845.9333333328926,0.49773818,-1.2157483,-0.33958414,-2.557938,-0.13894117,1.4265991,0.64970744,0.039999906,0.04,-9.641556,1.67690908908844,0.79917,-0.06542257,-0.008310828357934952,0.02780873
845.9499999995593,0.49869448,-1.2165776,-0.34023646,-2.5583253,-0.1392084,1.4263219,0.6494455,0.0399999,0.04,-9.640825,1.6810683012008667,0.80089396,-0.06399887,-0.00828763097524643,0.027136665
845.9666666662259,0.49962842,-1.2173874,-0.34087363,-2.5587032,-0.13946941,1.4260511,0.64918983,0.0399999,0.04,-9.640003,1.6851423978805542,0.8025086,-0.062576726,-0.008265642449259758,0.026466956
845.9833333328926,0.5005401,-1.2181782,-0.34149548,-2.5590715,-0.13972418,1.4257869,0.6489402,0.039999895,0.04,-9.639206,1.6891154050827026,0.8040889,-0.06115893,-0.008246001787483692,0.025796834
845.9999999995592,0.50142956,-1.2189496,-0.34210226,-2.5594316,-0.13997276,1.4255288,0.64869654,0.03999989,0.04,-9.63831,1.6929965019226074,0.80566394,-0.059744395,-0.008222975768148899,0.025129447
846.0166666662259,0.502297,-1.2197016,-0.34269395,-2.5597827,-0.14021516,1.4252774,0.6484591,0.03999989,0.04,-9.637637,1.6967641115188599,0.80717784,-0.05833325,-0.008206859230995178,0.024462309
846.0333333328925,0.5031424,-1.220435,-0.3432707,-2.5601246,-0.14045142,1.4250321,0.6482276,0.039999895,0.04,-9.636884,1.7004634141921997,0.8086265,-0.056927074,-0.008192213252186775,0.023798827
846.0499999995592,0.50396603,-1.2211493,-0.34383255,-2.5604584,-0.14068154,1.4247932,0.648002,0.039999887,0.04,-9.636074,1.7040570974349976,0.81009746,-0.055525735,-0.008177144452929497,0.023136642
846.0666666662258,0.50476784,-1.2218447,-0.34437954,-2.560783,-0.14090563,1.4245607,0.64778256,0.039999884,0.04,-9.635415,1.7075451612472534,0.8114706,-0.054129884,-0.008165836334228516,0.022475015
846.0833333328925,0.505548,-1.2225219,-0.3449118,-2.5610988,-0.1411237,1.4243345,0.64756894,0.03999988,0.04,-9.63466,1.7109817266464233,0.81282353,-0.052741744,-0.008155531249940395,0.021818995
846.0999999995591,0.50630677,-1.2231802,-0.34542936,-2.5614061,-0.14133573,1.4241143,0.64736116,0.03999988,0.04,-9.633904,1.7142903804779053,0.8141751,-0.051360022,-0.008143347688019276,0.021165343
846.1166666662258,0.50704396,-1.22382,-0.34593248,-2.5617044,-0.14154181,1.4239004,0.6471593,0.039999876,0.04,-9.633264,1.717507243156433,0.81543905,-0.049985047,-0.008136228658258915,0.020514179
846.1333333328924,0.50776035,-1.2244414,-0.34642106,-2.561994,-0.14174202,1.4236926,0.6469631,0.039999872,0.04,-9.632518,1.7206720113754272,0.816677,-0.048620224,-0.008127785287797451,0.019866876
846.1499999995591,0.5084558,-1.2250445,-0.34689534,-2.5622754,-0.14193636,1.423491,0.64677274,0.03999987,0.04,-9.631835,1.723706603050232,0.8178609,-0.04726212,-0.008120959624648094,0.019224485
846.1666666662258,0.5091305,-1.2256293,-0.34735546,-2.5625482,-0.14212485,1.4232954,0.64658815,0.039999872,0.04,-9.6311865,1.726653814315796,0.81901944,-0.045913097,-0.008115379139780998,0.018585863
846.1833333328924,0.50978446,-1.2261962,-0.34780157,-2.5628123,-0.1423075,1.4231058,0.6464091,0.03999987,0.04,-9.630516,1.7295262813568115,0.82009983,-0.04457457,-0.008112306706607342,0.017951014
846.199999999559,0.5104179,-1.2267456,-0.34823376,-2.5630682,-0.14248446,1.422922,0.6462357,0.039999865,0.04,-9.629881,1.7323282957077026,0.8212084,-0.04324645,-0.008108817972242832,0.017321741
846.2166666662257,0.511031,-1.2272778,-0.34865186,-2.5633159,-0.1426558,1.4227443,0.64606786,0.03999986,0.04,-9.629242,1.7350355386734009,0.8222883,-0.041929882,-0.008106110617518425,0.016697064
846.2333333328924,0.51162404,-1.227792,-0.34905636,-2.5635557,-0.14282155,1.4225724,0.64590544,0.03999987,0.04,-9.628613,1.7376227378845215,0.8233087,-0.040624663,-0.008102412335574627,0.01607947
846.249999999559,0.5121972,-1.2282892,-0.34944737,-2.5637877,-0.14298174,1.4224062,0.64574856,0.039999865,0.04,-9.628085,1.740148663520813,0.8242375,-0.0393315,-0.008103369735181332,0.015467045
846.2666666662257,0.5127507,-1.2287695,-0.349825,-2.5640116,-0.14313643,1.4222456,0.645597,0.039999858,0.04,-9.627469,1.7425930500030518,0.8251897,-0.0380522,-0.008103687316179276,0.014859695
846.2833333328923,0.5132849,-1.2292328,-0.3501894,-2.5642276,-0.14328574,1.4220908,0.6454507,0.039999854,0.04,-9.626896,1.7449522018432617,0.8260864,-0.036786016,-0.008105233311653137,0.014259209
846.299999999559,0.5137998,-1.2296798,-0.35054064,-2.564436,-0.14342964,1.4219414,0.64530975,0.039999854,0.04,-9.626362,1.747223138809204,0.826932,-0.035533484,-0.008109021931886673,0.013666218
846.3166666662256,0.5142959,-1.2301104,-0.35087898,-2.5646365,-0.14356829,1.4217975,0.64517397,0.039999846,0.04,-9.625764,1.749405026435852,0.82778233,-0.034296628,-0.008110631257295609,0.013078972
846.3333333328923,0.5147733,-1.2305243,-0.35120475,-2.5648293,-0.14370173,1.4216592,0.6450434,0.039999846,0.04,-9.6252365,1.7515071630477905,0.82856154,-0.033074334,-0.008113667368888855,0.012499063
846.3499999995589,0.5152322,-1.2309225,-0.35151783,-2.565015,-0.14383002,1.4215262,0.64491767,0.039999846,0.04,-9.624689,1.7535706758499146,0.82928425,-0.031869464,-0.008117328397929668,0.011926904
846.3666666662256,0.5156729,-1.2313049,-0.35181853,-2.5651934,-0.14395325,1.4213982,0.64479697,0.039999854,0.04,-9.624237,1.7554996013641357,0.83000636,-0.03068,-0.008124060928821564,0.0113628125
846.3833333328922,0.5160959,-1.231672,-0.35210702,-2.5653648,-0.14407144,1.4212755,0.64468133,0.039999843,0.04,-9.623708,1.7573927640914917,0.830692,-0.029508632,-0.008131301030516624,0.0108075095
846.3999999995589,0.5165011,-1.2320237,-0.35238352,-2.5655296,-0.14418477,1.421158,0.64457035,0.039999843,0.04,-9.623221,1.7591595649719238,0.8313376,-0.028355056,-0.008138026110827923,0.01025934
846.4166666662255,0.5168891,-1.2323604,-0.35264826,-2.5656881,-0.14429322,1.4210453,0.64446414,0.039999846,0.04,-9.622818,1.7608956098556519,0.83190984,-0.027220037,-0.008148550055921078,0.009720537
846.4333333328922,0.5172604,-1.2326822,-0.35290143,-2.5658393,-0.14439696,1.4209375,0.6443625,0.039999846,0.04,-9.622421,1.7625250816345215,0.83244807,-0.026103476,-0.008163978345692158,0.009189915
846.4499999995588,0.51761484,-1.23299,-0.3531432,-2.5659828,-0.14449602,1.420835,0.6442657,0.039999843,0.04,-9.621923,1.7641046047210693,0.832992,-0.02500578,-0.00817771628499031,0.008669046
846.4666666662255,0.51795286,-1.2332834,-0.3533739,-2.566119,-0.14459051,1.4207371,0.644173,0.03999984,0.04,-9.621351,1.765620231628418,0.83352125,-0.023930945,-0.008185264654457569,0.008157896
846.4833333328921,0.5182749,-1.2335631,-0.35359356,-2.5662477,-0.1446805,1.4206437,0.64408475,0.039999843,0.04,-9.620796,1.7670828104019165,0.8340115,-0.022876896,-0.008189980871975422,0.007657645
846.4999999995588,0.51858133,-1.2338288,-0.35380256,-2.5663705,-0.14476614,1.4205545,0.644001,0.03999984,0.04,-9.620245,1.7684526443481445,0.83449364,-0.021845184,-0.008190998807549477,0.0071686385
846.5166666662254,0.51887244,-1.2340814,-0.35400108,-2.5664895,-0.1448475,1.4204702,0.6439214,0.03999984,0.04,-9.619912,1.7697396278381348,0.8348935,-0.020836253,-0.008197205141186714,0.0066895573
846.5333333328921,0.51914847,-1.2343208,-0.3541894,-2.5666013,-0.14492469,1.4203902,0.6438457,0.039999843,0.04,-9.619768,1.7709368467330933,0.8352243,-0.019848943,-0.0082119544968009,0.0062207747
846.5499999995587,0.51940995,-1.234548,-0.3543678,-2.5667064,-0.14499776,1.4203146,0.6437741,0.03999984,0.04,-9.619218,1.772133469581604,0.8355831,-0.018886026,-0.008221863768994808,0.0057639214
846.5666666662254,0.51965725,-1.2347627,-0.3545365,-2.5668046,-0.14506689,1.4202429,0.64370644,0.039999843,0.04,-9.618702,1.7732394933700562,0.83594173,-0.017947972,-0.008226335979998112,0.0053182337
846.583333332892,0.51989055,-1.234965,-0.3546957,-2.5669005,-0.14513211,1.4201753,0.64364254,0.039999835,0.04,-9.618214,1.774314284324646,0.8362513,-0.017036265,-0.008228082209825516,0.004886304
846.5999999995587,0.5201105,-1.2351558,-0.35484582,-2.5669892,-0.14519356,1.4201115,0.6435823,0.039999835,0.04,-9.618209,1.7752517461776733,0.8364444,-0.016149066,-0.008243969641625881,0.0044646333
846.6166666662253,0.52031744,-1.2353354,-0.35498703,-2.5670717,-0.14525142,1.4200515,0.6435255,0.03999984,0.04,-9.617612,1.7762047052383423,0.83671546,-0.015288787,-0.008252100087702274,0.0040559587
846.633333332892,0.5205116,-1.235504,-0.35511968,-2.5671523,-0.14530574,1.419995,0.6434723,0.039999843,0.04,-9.61715,1.7770888805389404,0.8369472,-0.014455813,-0.008256947621703148,0.0036609108
846.6499999995586,0.5206938,-1.2356621,-0.35524398,-2.5672255,-0.14535667,1.4199419,0.64342254,0.039999843,0.04,-9.617178,1.777867078781128,0.8370771,-0.013650443,-0.008276266045868397,0.0032769877
846.6666666662253,0.52086407,-1.2358103,-0.35536024,-2.5672927,-0.14540432,1.4198924,0.6433757,0.039999843,0.04,-9.616529,1.7786569595336914,0.8372576,-0.012874298,-0.008284098468720913,0.00290825
846.683333332892,0.52102315,-1.2359486,-0.3554688,-2.567358,-0.1454488,1.4198467,0.6433321,0.03999984,0.04,-9.615984,1.7793948650360107,0.8374134,-0.012127203,-0.008284644223749638,0.0025542255
846.6999999995586,0.5211714,-1.2360774,-0.35556996,-2.5674167,-0.14549029,1.4198042,0.64329153,0.03999984,0.04,-9.615967,1.7800135612487793,0.8374924,-0.011408758,-0.00829487293958664,0.0022124276
846.7166666662253,0.5213093,-1.2361971,-0.3556641,-2.5674741,-0.14552882,1.4197642,0.6432538,0.039999835,0.04,-9.615355,1.7806816101074219,0.8376088,-0.010722821,-0.008294503204524517,0.0018880904
846.7333333328919,0.5214373,-1.2363085,-0.35575143,-2.5675244,-0.14556462,1.4197263,0.6432188,0.039999835,0.04,-9.615435,1.7811990976333618,0.8376114,-0.010065769,-0.008311284705996513,0.001574651
846.7499999995586,0.52155584,-1.2364116,-0.35583228,-2.5675743,-0.14559777,1.4196922,0.64318633,0.039999835,0.04,-9.614692,1.7817809581756592,0.8377479,-0.009442795,-0.008314601145684719,0.0012787165
846.7666666662252,0.5216655,-1.2365069,-0.355907,-2.567617,-0.14562844,1.4196609,0.6431563,0.039999835,0.04,-9.614792,1.78221595287323,0.8376562,-0.008850134,-0.008329656906425953,0.0009964391
846.7833333328919,0.5217666,-1.236595,-0.35597605,-2.5676591,-0.14565676,1.419631,0.64312875,0.039999835,0.04,-9.613995,1.782724380493164,0.8377198,-0.008292402,-0.008325747214257717,0.0007338566
846.7999999995585,0.5218598,-1.2366765,-0.35603967,-2.567695,-0.14568283,1.4196044,0.64310336,0.039999835,0.04,-9.614066,1.7830978631973267,0.83767474,-0.0077690333,-0.008340070955455303,0.00048354577
846.8166666662252,0.52194566,-1.236751,-0.3560983,-2.5677297,-0.14570683,1.4195788,0.64308,0.03999983,0.04,-9.613322,1.783535122871399,0.83768326,-0.0072818394,-0.008333654142916203,0.0002533858
846.8333333328918,0.52202463,-1.2368196,-0.35615212,-2.5677624,-0.14572895,1.4195561,0.64305854,0.039999835,0.04,-9.613319,1.7838526964187622,0.8375917,-0.0068292236,-0.008344080299139023,3.6632548e-05
846.8499999995585,0.5220973,-1.2368827,-0.35620195,-2.56779,-0.1457493,1.4195341,0.64303875,0.039999835,0.04,-9.61305,1.7841566801071167,0.83748096,-0.0064117196,-0.008351493626832962,-0.00016145725
846.8666666662251,0.5221642,-1.2369411,-0.35624775,-2.5678172,-0.14576806,1.4195153,0.64302045,0.039999835,0.04,-9.612498,1.784516453742981,0.83747375,-0.006029642,-0.008353461511433125,-0.00034456406
846.8833333328918,0.5222258,-1.2369949,-0.3562898,-2.567844,-0.14578527,1.4194968,0.6430033,0.03999983,0.04,-9.612406,1.7847627401351929,0.83737457,-0.0056757163,-0.008354888297617435,-0.0005113213
846.8999999995584,0.5222824,-1.2370437,-0.35632834,-2.5678656,-0.14580111,1.4194815,0.64298785,0.039999835,0.04,-9.612402,1.7849540710449219,0.83730423,-0.005347299,-0.00836903415620327,-0.00066900766
846.9166666662251,0.5223346,-1.2370888,-0.35636377,-2.5678854,-0.1458157,1.4194665,0.64297366,0.039999835,0.04,-9.611782,1.7852492332458496,0.8372156,-0.0050489446,-0.00836370699107647,-0.0008086565
846.9333333328917,0.52238274,-1.2371305,-0.35639638,-2.567905,-0.14582911,1.4194518,0.6429603,0.039999835,0.04,-9.611583,1.785443663597107,0.8372052,-0.00477427,-0.008362272754311562,-0.00093820743
846.9499999995584,0.5224271,-1.237169,-0.35642654,-2.567924,-0.14584146,1.4194402,0.64294857,0.03999983,0.04,-9.611586,1.785606861114502,0.8371763,-0.004518219,-0.008369787596166134,-0.0010581396
846.966666666225,0.5224678,-1.2372044,-0.35645428,-2.567941,-0.14585283,1.419429,0.6429372,0.039999835,0.04,-9.6115,1.7857798337936401,0.83706945,-0.004284506,-0.00837278924882412,-0.0011698867
846.9833333328917,0.52250504,-1.2372372,-0.3564798,-2.5679553,-0.14586328,1.4194181,0.6429272,0.03999984,0.04,-9.611261,1.7859655618667603,0.83706343,-0.004067595,-0.008374961093068123,-0.0012713213
846.9999999995583,0.5225395,-1.2372669,-0.3565032,-2.567968,-0.14587289,1.4194072,0.6429177,0.03999984,0.04,-9.610943,1.7861429452896118,0.83709073,-0.0038719533,-0.008372384123504162,-0.0013648354
847.016666666225,0.5225711,-1.2372947,-0.3565247,-2.56798,-0.14588171,1.4193972,0.6429088,0.03999984,0.04,-9.610802,1.7862679958343506,0.8370477,-0.0036900307,-0.008373994380235672,-0.0014515326
847.0333333328916,0.5226002,-1.2373202,-0.35654455,-2.567992,-0.14588983,1.4193898,0.642901,0.03999984,0.04,-9.61073,1.7863950729370117,0.8370442,-0.0035218545,-0.00837588682770729,-0.0015303561
847.0499999995583,0.52262706,-1.2373435,-0.35656294,-2.5680034,-0.1458973,1.4193825,0.6428935,0.03999984,0.04,-9.610669,1.7864980697631836,0.8369573,-0.0033683288,-0.008372926153242588,-0.0016036956
847.0666666662249,0.52265173,-1.2373652,-0.35657972,-2.5680149,-0.14590421,1.4193754,0.6428865,0.03999984,0.04,-9.610646,1.7866079807281494,0.83693063,-0.0032250271,-0.00837541464716196,-0.0016724094
847.0833333328916,0.52267444,-1.237385,-0.35659528,-2.5680249,-0.1459106,1.4193684,0.6428806,0.03999984,0.04,-9.610648,1.7866944074630737,0.83690995,-0.0030921304,-0.008382187224924564,-0.0017335173
847.0999999995582,0.52269524,-1.2374033,-0.3566095,-2.5680325,-0.14591648,1.4193614,0.6428749,0.039999835,0.04,-9.610507,1.786804437637329,0.83689,-0.0029729756,-0.008389371447265148,-0.0017914339
847.1166666662249,0.52271444,-1.23742,-0.35662258,-2.5680397,-0.1459219,1.4193548,0.6428695,0.039999835,0.04,-9.610228,1.7869000434875488,0.836905,-0.0028631995,-0.008391138166189194,-0.0018452104
847.1333333328915,0.5227321,-1.2374351,-0.35663465,-2.568046,-0.14592686,1.4193511,0.6428643,0.039999835,0.04,-9.610181,1.7869853973388672,0.8368796,-0.0027612671,-0.00839421059936285,-0.001892767
847.1499999995582,0.5227484,-1.2374495,-0.3566458,-2.5680518,-0.14593141,1.4193474,0.6428603,0.039999835,0.04,-9.610049,1.7870606184005737,0.8367957,-0.0026669346,-0.008386660367250443,-0.0019364296
847.1666666662248,0.5227633,-1.2374626,-0.35665604,-2.568057,-0.14593555,1.4193438,0.64285636,0.039999835,0.04,-9.609956,1.7871264219284058,0.836838,-0.0025830863,-0.008378027938306332,-0.0019765052
847.1833333328915,0.5227771,-1.2374747,-0.3566654,-2.5680618,-0.14593944,1.4193403,0.6428526,0.03999983,0.04,-9.60991,1.7871952056884766,0.83683574,-0.002505428,-0.008371462114155293,-0.0020128237
847.1999999995581,0.5227899,-1.2374853,-0.35667402,-2.5680661,-0.14594299,1.4193368,0.642849,0.039999835,0.04,-9.609867,1.7872320413589478,0.83684915,-0.002433013,-0.008366663940250874,-0.002046346
847.2166666662248,0.5228015,-1.2374959,-0.35668206,-2.5680704,-0.14594623,1.4193335,0.6428455,0.039999835,0.04,-9.609841,1.7872778177261353,0.83681315,-0.002365636,-0.008364607580006123,-0.0020781485
847.2333333328914,0.5228123,-1.2375054,-0.35668945,-2.5680747,-0.14594926,1.4193302,0.64284205,0.039999835,0.04,-9.609805,1.7873337268829346,0.8368711,-0.002302647,-0.008361155167222023,-0.0021076992
847.2499999995581,0.52282214,-1.2375141,-0.35669613,-2.568079,-0.145952,1.419327,0.64283997,0.03999984,0.04,-9.421918,1.745506763458252,0.8801465,0.0,-0.0,0.0
847.2666666662248,0.52282214,-1.2375141,-0.35669613,-2.568079,-0.145952,1.419327,0.64283997,0.03999984,0.04,-9.609467,1.787334680557251,0.8364756,0.0,-0.0,0.0
847.2833333328914,0.52282214,-1.2375141,-0.35669613,-2.568079,-0.145952,1.419327,0.64283997,0.03999984,0.04,-9.609467,1.787334680557251,0.8364756,0.0,-0.0,0.0
847.299999999558,0.52282214,-1.2375141,-0.35669613,-2.568079,-0.145952,1.419327,0.64283997,0.03999984,0.04,-9.609467,1.787334680557251,0.8364756,0.0,-0.0,0.0
847.3166666662247,0.52282214,-1.2375141,-0.35669613,-2.568079,-0.145952,1.419327,0.64283997,0.03999984,0.04,-9.609467,1.787334680557251,0.8364756,0.0,-0.0,0.0
847.3333333328914,0.52282214,-1.2375141,-0.35669613,-2.568079,-0.145952,1.419327,0.64283997,0.03999984,0.04,-9.609467,1.787334680557251,0.8364756,0.0,-0.0,0.0
847.349999999558,0.52282214,-1.2375141,-0.35669613,-2.568079,-0.145952,1.419327,0.64283997,0.03999984,0.04,-9.609467,1.787334680557251,0.8364756,0.0,-0.0,0.0
847.3666666662247,0.52282214,-1.2375141,-0.35669613,-2.568079,-0.145952,1.419327,0.64283997,0.03999984,0.04,-9.609467,1.787334680557251,0.8364756,0.0,-0.0,0.0
847.3833333328913,0.52282214,-1.2375141,-0.35669613,-2.568079,-0.145952,1.419327,0.64283997,0.03999984,0.04,-9.609467,1.787334680557251,0.8364756,0.0,-0.0,0.0
847.399999999558,0.52282214,-1.2375141,-0.35669613,-2.568079,-0.145952,1.419327,0.64283997,0.03999984,0.04,-9.609467,1.787334680557251,0.8364756,0.0,-0.0,0.0
847.4166666662246,0.52282214,-1.2375141,-0.35669613,-2.568079,-0.145952,1.419327,0.64283997,0.03999984,0.04,-9.609467,1.787334680557251,0.8364756,0.0,-0.0,0.0
847.4333333328913,0.52282214,-1.2375141,-0.35669613,-2.568079,-0.145952,1.419327,0.64283997,0.03999984,0.04,-9.609467,1.787334680557251,0.8364756,0.0,-0.0,0.0
847.4499999995579,0.52282214,-1.2375141,-0.35669613,-2.568079,-0.145952,1.419327,0.64283997,0.03999984,0.04,-9.609467,1.787334680557251,0.8364756,0.0,-0.0,0.0
847.4666666662246,0.52282214,-1.2375141,-0.35669613,-2.568079,-0.145952,1.419327,0.64283997,0.03999984,0.04,-9.609467,1.787334680557251,0.8364756,0.0,-0.0,0.0
847.4833333328912,0.52282214,-1.2375141,-0.35669613,-2.568079,-0.145952,1.419327,0.64283997,0.03999984,0.04,-9.609467,1.787334680557251,0.8364756,0.0,-0.0,0.0
847.4999999995579,0.52282214,-1.2375141,-0.35669613,-2.568079,-0.145952,1.419327,0.64283997,0.03999984,0.04,-9.609467,1.787334680557251,0.8364756,0.0,-0.0,0.0
847.5166666662245,0.52282214,-1.2375141,-0.35669613,-2.568079,-0.145952,1.419327,0.64283997,0.03999984,0.04,-9.609467,1.787334680557251,0.8364756,0.0,-0.0,0.0
847.5333333328912,0.52282214,-1.2375141,-0.35669613,-2.568079,-0.145952,1.419327,0.64283997,0.03999984,0.04,-9.609467,1.787334680557251,0.8364756,0.0,-0.0,0.0
847.5499999995578,0.52282214,-1.2375141,-0.35669613,-2.568079,-0.145952,1.419327,0.64283997,0.03999984,0.04,-9.609467,1.787334680557251,0.8364756,0.0,-0.0,0.0
847.5666666662245,0.52282214,-1.2375141,-0.35669613,-2.568079,-0.145952,1.419327,0.64283997,0.03999984,0.04,-9.609467,1.787334680557251,0.8364756,0.0,-0.0,0.0
847.5833333328911,0.52282214,-1.2375141,-0.35669613,-2.568079,-0.145952,1.419327,0.64283997,0.03999984,0.04,-9.609467,1.787334680557251,0.8364756,0.0,-0.0,0.0
847.5999999995578,0.52282214,-1.2375141,-0.35669613,-2.568079,-0.145952,1.419327,0.64283997,0.03999984,0.04,-9.609467,1.787334680557251,0.8364756,0.0,-0.0,0.0
847.6166666662244,0.52282214,-1.2375141,-0.35669613,-2.568079,-0.145952,1.419327,0.64283997,0.03999984,0.04,-9.609467,1.787334680557251,0.8364756,0.0,-0.0,0.0
847.6333333328911,0.52282214,-1.2375141,-0.35669613,-2.568079,-0.145952,1.419327,0.64283997,0.03999984,0.04,-9.609467,1.787334680557251,0.8364756,0.0,-0.0,0.0
847.6499999995577,0.52282214,-1.2375141,-0.35669613,-2.568079,-0.145952,1.419327,0.64283997,0.03999984,0.04,-9.609467,1.787334680557251,0.8364756,0.0,-0.0,0.0
847.6666666662244,0.52282214,-1.2375141,-0.35669613,-2.568079,-0.145952,1.419327,0.64283997,0.03999984,0.04,-9.609467,1.787334680557251,0.8364756,0.0,-0.0,0.0
847.683333332891,0.52282214,-1.2375141,-0.35669613,-2.568079,-0.145952,1.419327,0.64283997,0.03999984,0.04,-9.609467,1.787334680557251,0.8364756,0.0,-0.0,0.0
847.6999999995577,0.52282214,-1.2375141,-0.35669613,-2.568079,-0.145952,1.419327,0.64283997,0.03999984,0.04,-9.609467,1.787334680557251,0.8364756,0.0,-0.0,0.0
847.7166666662243,0.52282214,-1.2375141,-0.35669613,-2.568079,-0.145952,1.419327,0.64283997,0.03999984,0.04,-9.609467,1.787334680557251,0.8364756,0.0,-0.0,0.0
847.733333332891,0.52282214,-1.2375141,-0.35669613,-2.568079,-0.145952,1.419327,0.64283997,0.03999984,0.04,-9.609467,1.787334680557251,0.8364756,0.0,-0.0,0.0
847.7499999995576,0.52282214,-1.2375141,-0.35669613,-2.568079,-0.145952,1.419327,0.64283997,0.03999984,0.04,-9.609467,1.787334680557251,0.8364756,0.0,-0.0,0.0
847.7666666662243,0.52282214,-1.2375141,-0.35669613,-2.568079,-0.145952,1.419327,0.64283997,0.03999984,0.04,-9.609467,1.787334680557251,0.8364756,0.0,-0.0,0.0
847.783333332891,0.52282214,-1.2375141,-0.35669613,-2.568079,-0.145952,1.419327,0.64283997,0.03999984,0.04,-9.609467,1.787334680557251,0.8364756,0.0,-0.0,0.0
847.7999999995576,0.52282214,-1.2375141,-0.35669613,-2.568079,-0.145952,1.419327,0.64283997,0.03999984,0.04,-9.609467,1.787334680557251,0.8364756,0.0,-0.0,0.0
847.8166666662243,0.52282214,-1.2375141,-0.35669613,-2.568079,-0.145952,1.419327,0.64283997,0.03999984,0.04,-9.609467,1.787334680557251,0.8364756,0.0,-0.0,0.0
847.8333333328909,0.52282214,-1.2375141,-0.35669613,-2.568079,-0.145952,1.419327,0.64283997,0.03999984,0.04,-9.609467,1.787334680557251,0.8364756,0.0,-0.0,0.0
847.8499999995576,0.52282214,-1.2375141,-0.35669613,-2.568079,-0.145952,1.419327,0.64283997,0.03999984,0.04,-9.609467,1.787334680557251,0.8364756,0.0,-0.0,0.0
847.8666666662242,0.52282214,-1.2375141,-0.35669613,-2.568079,-0.145952,1.419327,0.64283997,0.03999984,0.04,-9.609467,1.787334680557251,0.8364756,0.0,-0.0,0.0
847.8833333328909,0.52282214,-1.2375141,-0.35669613,-2.568079,-0.145952,1.419327,0.64283997,0.03999984,0.04,-9.609467,1.787334680557251,0.8364756,0.0,-0.0,0.0
847.8999999995575,0.52282214,-1.2375141,-0.35669613,-2.568079,-0.145952,1.419327,0.64283997,0.03999984,0.04,-9.609467,1.787334680557251,0.8364756,0.0,-0.0,0.0
847.9166666662242,0.52282214,-1.2375141,-0.35669613,-2.568079,-0.145952,1.419327,0.64283997,0.03999984,0.04,-9.609467,1.787334680557251,0.8364756,0.0,-0.0,0.0
847.9333333328908,0.52282214,-1.2375141,-0.35669613,-2.568079,-0.145952,1.419327,0.64283997,0.03999984,0.04,-9.609467,1.787334680557251,0.8364756,0.0,-0.0,0.0
847.9499999995575,0.52282214,-1.2375141,-0.35669613,-2.568079,-0.145952,1.419327,0.64283997,0.03999984,0.04,-9.609467,1.787334680557251,0.8364756,0.0,-0.0,0.0
847.9666666662241,0.52282214,-1.2375141,-0.35669613,-2.568079,-0.145952,1.419327,0.64283997,0.03999984,0.04,-9.609467,1.787334680557251,0.8364756,0.0,-0.0,0.0
847.9833333328908,0.52282214,-1.2375141,-0.35669613,-2.568079,-0.145952,1.419327,0.64283997,0.03999984,0.04,-9.609467,1.787334680557251,0.8364756,0.0,-0.0,0.0
847.9999999995574,0.52282214,-1.2375141,-0.35669613,-2.568079,-0.145952,1.419327,0.64283997,0.03999984,0.04,-9.609467,1.787334680557251,0.8364756,0.0,-0.0,0.0
848.0166666662241,0.52282214,-1.2375141,-0.35669613,-2.568079,-0.145952,1.419327,0.64283997,0.03999984,0.04,-9.609467,1.787334680557251,0.8364756,0.0,-0.0,0.0
848.0333333328907,0.52282214,-1.2375141,-0.35669613,-2.568079,-0.145952,1.419327,0.64283997,0.03999984,0.04,-9.609467,1.787334680557251,0.8364756,0.0,-0.0,0.0
848.0499999995574,0.52282214,-1.2375141,-0.35669613,-2.568079,-0.145952,1.419327,0.64283997,0.03999984,0.04,-9.609467,1.787334680557251,0.8364756,0.0,-0.0,0.0
848.066666666224,0.52282214,-1.2375141,-0.35669613,-2.568079,-0.145952,1.419327,0.64283997,0.03999984,0.04,-9.609467,1.787334680557251,0.8364756,0.0,-0.0,0.0
848.0833333328907,0.52282214,-1.2375141,-0.35669613,-2.568079,-0.145952,1.419327,0.64283997,0.03999984,0.04,-9.609467,1.787334680557251,0.8364756,0.0,-0.0,0.0
848.0999999995573,0.52282214,-1.2375141,-0.35669613,-2.568079,-0.145952,1.419327,0.64283997,0.03999984,0.04,-9.609467,1.787334680557251,0.8364756,0.0,-0.0,0.0
848.116666666224,0.52282214,-1.2375141,-0.35669613,-2.568079,-0.145952,1.419327,0.64283997,0.03999984,0.04,-9.609467,1.787334680557251,0.8364756,0.0,-0.0,0.0
848.1333333328906,0.52282214,-1.2375141,-0.35669613,-2.568079,-0.145952,1.419327,0.64283997,0.03999984,0.04,-9.609467,1.787334680557251,0.8364756,0.0,-0.0,0.0
848.1499999995573,0.52282214,-1.2375141,-0.35669613,-2.568079,-0.145952,1.419327,0.64283997,0.03999984,0.04,-9.609467,1.787334680557251,0.8364756,0.0,-0.0,0.0
848.1666666662239,0.52282214,-1.2375141,-0.35669613,-2.568079,-0.145952,1.419327,0.64283997,0.03999984,0.04,-9.609467,1.787334680557251,0.8364756,0.0,-0.0,0.0
848.1833333328906,0.52282214,-1.2375141,-0.35669613,-2.568079,-0.145952,1.419327,0.64283997,0.03999984,0.04,-9.609467,1.787334680557251,0.8364756,0.0,-0.0,0.0
848.1999999995572,0.52282214,-1.2375141,-0.35669613,-2.568079,-0.145952,1.419327,0.64283997,0.03999984,0.04,-9.609467,1.787334680557251,0.8364756,0.0,-0.0,0.0
848.2166666662239,0.52282214,-1.2375141,-0.35669613,-2.568079,-0.145952,1.419327,0.64283997,0.03999984,0.04,-9.609467,1.787334680557251,0.8364756,0.0,-0.0,0.0
848.2333333328905,0.52282214,-1.2375141,-0.35669613,-2.568079,-0.145952,1.419327,0.64283997,0.03999984,0.04,-9.609467,1.787334680557251,0.8364756,0.0,-0.0,0.0
848.2499999995572,0.52282214,-1.2375141,-0.35669613,-2.568079,-0.145952,1.419327,0.64283997,0.03999984,0.04,-9.609467,1.787334680557251,0.8364756,0.0,-0.0,0.0
848.2666666662238,0.52282214,-1.2375141,-0.35669613,-2.568079,-0.145952,1.419327,0.64283997,0.03999984,0.04,-9.609467,1.787334680557251,0.8364756,0.0,-0.0,0.0
848.2833333328905,0.52282214,-1.2375141,-0.35669613,-2.568079,-0.145952,1.419327,0.64283997,0.03999984,0.04,-9.609467,1.787334680557251,0.8364756,0.0,-0.0,0.0
848.2999999995571,0.52282214,-1.2375141,-0.35669613,-2.568079,-0.145952,1.419327,0.64283997,0.03999984,0.04,-9.609467,1.787334680557251,0.8364756,0.0,-0.0,0.0
848.3166666662238,0.52282214,-1.2375141,-0.35669613,-2.568079,-0.145952,1.419327,0.64283997,0.03999984,0.04,-9.609467,1.787334680557251,0.8364756,0.0,-0.0,0.0
848.3333333328904,0.52282214,-1.2375141,-0.35669613,-2.568079,-0.145952,1.419327,0.64283997,0.03999984,0.04,-9.609467,1.787334680557251,0.8364756,0.0,-0.0,0.0
848.3499999995571,0.52282214,-1.2375141,-0.35669613,-2.568079,-0.145952,1.419327,0.64283997,0.03999984,0.04,-9.609467,1.787334680557251,0.8364756,0.0,-0.0,0.0
848.3666666662238,0.52282214,-1.2375141,-0.35669613,-2.568079,-0.145952,1.419327,0.64283997,0.03999984,0.04,-9.609467,1.787334680557251,0.8364756,0.0,-0.0,0.0
848.3833333328904,0.52282214,-1.2375141,-0.35669613,-2.568079,-0.145952,1.419327,0.64283997,0.03999984,0.04,-9.609467,1.787334680557251,0.8364756,0.0,-0.0,0.0
848.399999999557,0.52282214,-1.2375141,-0.35669613,-2.568079,-0.145952,1.419327,0.64283997,0.03999984,0.04,-9.609467,1.787334680557251,0.8364756,0.0,-0.0,0.0
848.4166666662237,0.52282214,-1.2375141,-0.35669613,-2.568079,-0.145952,1.419327,0.64283997,0.03999984,0.04,-9.609467,1.787334680557251,0.8364756,0.0,-0.0,0.0
848.4333333328904,0.52282214,-1.2375141,-0.35669613,-2.568079,-0.145952,1.419327,0.64283997,0.03999984,0.04,-9.609467,1.787334680557251,0.8364756,0.0,-0.0,0.0
848.449999999557,0.52282214,-1.2375141,-0.35669613,-2.568079,-0.145952,1.419327,0.64283997,0.03999984,0.04,-9.609467,1.787334680557251,0.8364756,0.0,-0.0,0.0
848.4666666662237,0.52282214,-1.2375141,-0.35669613,-2.568079,-0.145952,1.419327,0.64283997,0.03999984,0.04,-9.609467,1.787334680557251,0.8364756,0.0,-0.0,0.0
848.4833333328903,0.52282214,-1.2375141,-0.35669613,-2.568079,-0.145952,1.419327,0.64283997,0.03999984,0.04,-9.609467,1.787334680557251,0.8364756,0.0,-0.0,0.0
848.499999999557,0.52282214,-1.2375141,-0.35669613,-2.568079,-0.145952,1.419327,0.64283997,0.03999984,0.04,-9.609467,1.787334680557251,0.8364756,0.0,-0.0,0.0
848.5166666662236,0.52282214,-1.2375141,-0.35669613,-2.568079,-0.145952,1.419327,0.64283997,0.03999984,0.04,-9.609467,1.787334680557251,0.8364756,0.0,-0.0,0.0
848.5333333328903,0.52282214,-1.2375141,-0.35669613,-2.568079,-0.145952,1.419327,0.64283997,0.03999984,0.04,-9.609467,1.787334680557251,0.8364756,0.0,-0.0,0.0
848.5499999995569,0.52282214,-1.2375141,-0.35669613,-2.568079,-0.145952,1.419327,0.64283997,0.03999984,0.04,-9.609467,1.787334680557251,0.8364756,0.0,-0.0,0.0
848.5666666662236,0.52282214,-1.2375141,-0.35669613,-2.568079,-0.145952,1.419327,0.64283997,0.03999984,0.04,-9.609467,1.787334680557251,0.8364756,0.0,-0.0,0.0
848.5833333328902,0.52282214,-1.2375141,-0.35669613,-2.568079,-0.145952,1.419327,0.64283997,0.03999984,0.04,-9.609467,1.787334680557251,0.8364756,0.0,-0.0,0.0
848.5999999995569,0.52282214,-1.2375141,-0.35669613,-2.568079,-0.145952,1.419327,0.64283997,0.03999984,0.04,-9.609467,1.787334680557251,0.8364756,0.0,-0.0,0.0
848.6166666662235,0.52282214,-1.2375141,-0.35669613,-2.568079,-0.145952,1.419327,0.64283997,0.03999984,0.04,-9.609467,1.787334680557251,0.8364756,0.0,-0.0,0.0
848.6333333328902,0.52282214,-1.2375141,-0.35669613,-2.568079,-0.145952,1.419327,0.64283997,0.03999984,0.04,-9.609467,1.787334680557251,0.8364756,0.0,-0.0,0.0
848.6499999995568,0.52282214,-1.2375141,-0.35669613,-2.568079,-0.145952,1.419327,0.64283997,0.03999984,0.04,-9.609467,1.787334680557251,0.8364756,0.0,-0.0,0.0
848.6666666662235,0.52282214,-1.2375141,-0.35669613,-2.568079,-0.145952,1.419327,0.64283997,0.03999984,0.04,-9.609467,1.787334680557251,0.8364756,0.0,-0.0,0.0
848.6833333328901,0.52282214,-1.2375141,-0.35669613,-2.568079,-0.145952,1.419327,0.64283997,0.03999984,0.04,-9.609467,1.787334680557251,0.8364756,0.0,-0.0,0.0
848.6999999995568,0.52282214,-1.2375141,-0.35669613,-2.568079,-0.145952,1.419327,0.64283997,0.03999984,0.04,-9.609467,1.787334680557251,0.8364756,0.0,-0.0,0.0
848.7166666662234,0.52282214,-1.2375141,-0.35669613,-2.568079,-0.145952,1.419327,0.64283997,0.03999984,0.04,-9.609467,1.787334680557251,0.8364756,0.0,-0.0,0.0
848.7333333328901,0.52282214,-1.2375141,-0.35669613,-2.568079,-0.145952,1.419327,0.64283997,0.03999984,0.04,-9.609467,1.787334680557251,0.8364756,0.0,-0.0,0.0
848.7499999995567,0.52282214,-1.2375141,-0.35669613,-2.568079,-0.145952,1.419327,0.64283997,0.03999984,0.04,-9.609467,1.787334680557251,0.8364756,0.0,-0.0,0.0
848.7666666662234,0.52282214,-1.2375141,-0.35669613,-2.568079,-0.145952,1.419327,0.64283997,0.03999984,0.04,-9.609467,1.787334680557251,0.8364756,0.0,-0.0,0.0
848.78333333289,0.52282214,-1.2375141,-0.35669613,-2.568079,-0.145952,1.419327,0.64283997,0.03999984,0.04,-9.609467,1.787334680557251,0.8364756,0.0,-0.0,0.0
848.7999999995567,0.52282214,-1.2375141,-0.35669613,-2.568079,-0.145952,1.419327,0.64283997,0.03999984,0.04,-9.609467,1.787334680557251,0.8364756,0.0,-0.0,0.0
848.8166666662233,0.52282214,-1.2375141,-0.35669613,-2.568079,-0.145952,1.419327,0.64283997,0.03999984,0.04,-9.609467,1.787334680557251,0.8364756,0.0,-0.0,0.0
848.83333333289,0.52282214,-1.2375141,-0.35669613,-2.568079,-0.145952,1.419327,0.64283997,0.03999984,0.04,-9.609467,1.787334680557251,0.8364756,0.0,-0.0,0.0
848.8499999995566,0.52282214,-1.2375141,-0.35669613,-2.568079,-0.145952,1.419327,0.64283997,0.03999984,0.04,-9.609467,1.787334680557251,0.8364756,0.0,-0.0,0.0
