rsonawane2002/My_IMU/logs_2/traj_441/clean_441.csv
time,j1,j2,j3,j4,j5,j6,j7,gripper1,gripper2,imu_ax,imu_ay,imu_az,imu_gx,imu_gy,imu_gz,quat_x,quat_y,quat_z,quat_w
2100.5333333324684,0.00016700293,-0.785875,4.0107683e-05,-2.3551247,9.29385e-05,1.570997,0.786,0.04,0.04,0.0,-0.0,0.0,2.875329272945135e-08,-0.0011641195053377316,4.421952117202833e-08,0.9999995971961153,0.00020320632366974898,0.0008736418299892524,3.263050917662294e-05
2100.5499999991353,0.0001670012,-0.78576016,4.0113846e-05,-2.3552213,9.297061e-05,1.5709941,0.786,0.04,0.04,-0.2919984601256864,-2.6785746866440745e-05,0.020128410450204193,9.150829299855721e-07,-0.0022387073034165345,-8.215413927945365e-08,0.9999996850583038,0.00020320975606792903,0.0007665025194522656,3.260331025774679e-05
2100.566666665802,0.00016696745,-0.7856543,4.0114166e-05,-2.35531,9.297631e-05,1.5709913,0.786,0.04,0.04,0.023328724539739554,6.177142969266314e-05,-0.0016704199211847737,6.9291808059209e-06,-0.0032286381439802286,-1.1922976394239927e-06,0.9999997558416401,0.0002032308837676859,0.0006677972599517646,3.25681969982966e-05
2100.583333332469,0.00016684846,-0.78555703,4.0099665e-05,-2.355391,9.292641e-05,1.5709884,0.786,0.04,0.039999995,0.022460745101815505,0.00015297070452318295,-0.0015248555620184234,2.27718747483005e-05,-0.004140996228049291,-3.426181010149507e-06,0.9999998122271678,0.00020329951428962385,0.0005771982343933491,3.251360753710923e-05
2100.599999999136,0.00016656776,-0.78546786,4.005774e-05,-2.3554654,9.274194e-05,1.5709856,0.786,0.04,0.04,0.020311341358425494,0.00031132099373818866,-0.0016669516169409704,5.325803652008397e-05,-0.004980113043833898,-1.0544723939377432e-05,0.9999998567641549,0.00020345838269441907,0.00049399020476238,3.2404221877268244e-05
2100.6166666658028,0.00016602712,-0.7853864,3.997165e-05,-2.3555331,9.23678e-05,1.5709827,0.7860019,0.04,0.04,0.01984906769307848,0.00048067794131390583,-0.0014190974653383037,0.00010276594045322864,-0.005753033388804968,-1.9034260541339165e-05,0.9999998911794344,0.00020471619110617903,0.00041796453617335983,3.2218732743240225e-05
2100.6333333324696,0.0001651097,-0.7853123,3.9821945e-05,-2.3555984,9.1713286e-05,1.5709798,0.7860038,0.04,0.04,0.012224872295463207,0.000700979103728796,-0.003159635907512559,0.0001670409752224843,-0.0064612967118122915,-3.3104511478387246e-05,0.9999999180902667,0.00020618469992653312,0.0003468265000476923,3.1917213271947635e-05
2100.6499999991365,0.00016368134,-0.78524536,3.958588e-05,-2.3556576,9.068753e-05,1.570977,0.78600657,0.04,0.04,0.018444234493308898,0.0009433038632720059,-0.0013113431926337071,0.00025842025748255056,-0.007127521778079727,-5.015251143691084e-05,0.9999999379341128,0.0002083561300146165,0.0002823642406337296,3.1463137543767425e-05
2100.6666666658034,0.00016159288,-0.78518546,3.923847e-05,-2.3557153,8.9179855e-05,1.5709741,0.7860104,0.04,0.04,0.010207965820230314,0.0012207977522695412,-0.0033706797525123733,0.00037733716024053573,-0.007734226467218133,-7.328618755041864e-05,0.9999999525016413,0.00021143323310236878,0.00022213398664135616,3.0809010940598155e-05
2100.6833333324703,0.0001586814,-0.78513217,3.875218e-05,-2.3557684,8.7073415e-05,1.5709739,0.7860161,0.04,0.04,0.015845394251301492,0.00151969961488195,0.00021241855934217568,0.0005263056855673347,-0.008306358332158321,-0.00010211744924935392,0.9999999619963923,0.00021592436016212507,0.00016878815573825802,2.9907242602773852e-05
2100.699999999137,0.00015477222,-0.7850856,3.8097685e-05,-2.3558192,8.424203e-05,1.5709726,0.78602374,0.04,0.04,0.011158172556924306,0.001842180506083312,-0.0035643513202954225,0.0007052728819415344,-0.008817137671937843,-0.00013707458897883128,0.99999996782617,0.00022192719677230477,0.00011946575217596268,2.870387887137218e-05
2100.716666665804,0.00014967978,-0.785046,3.7243604e-05,-2.3558698,8.0551734e-05,1.5709703,0.7860334,0.04,0.04,0.007747223117826607,0.0021843910133107513,-0.004534598679351021,0.0009173858151788176,-0.009295935835294969,-0.00017852512861251383,0.9999999705900919,0.00022960524129488178,7.324293123200572e-05,2.714261041373026e-05
2100.733333332471,0.00014320957,-0.785013,3.6157177e-05,-2.3559196,7.586202e-05,1.570969,0.7860467,0.04,0.04,0.008898449836980404,0.002542392852095853,-0.0027617205786256704,0.00116570706619759,-0.009749874578952227,-0.00022679373042462422,0.9999999704275888,0.00023987196009647978,3.119258692616259e-05,2.5165188615282058e-05
2100.749999999138,0.00013515883,-0.7849868,3.4804423e-05,-2.3559692,7.001508e-05,1.5709661,0.78606254,0.039999995,0.04,0.007360668440559159,0.002924477697818952,-0.004872037991843214,0.0014458179702767876,-0.010170017044643388,-0.00028297588792782646,0.9999999678803724,0.0002523042445806681,-8.145541851015473e-06,2.270402134821675e-05
2100.7666666658047,0.00012531792,-0.7849678,3.314971e-05,-2.3560188,6.28686e-05,1.5709633,0.7860819,0.03999999,0.03999999,0.007973482394940667,0.0033040015494512813,-0.004091776181680551,0.0017658471261343543,-0.010571378865085232,-0.00034476875728203706,0.9999999630661873,0.00026749631081302613,-4.387736024538121e-05,1.9700887528466516e-05
2100.7833333324716,0.000113471186,-0.7849559,3.115678e-05,-2.3560688,5.4269705e-05,1.5709604,0.78610533,0.039999988,0.039999984,0.007097089984098304,0.003698929896256474,-0.004269771310916326,0.002123973997985297,-0.0109430869695463,-0.00041413210151471894,0.9999999561104933,0.00028583699158178855,-7.627105115629444e-05,1.6092001741675168e-05
2100.7999999991384,9.939799e-05,-0.7849513,2.878846e-05,-2.3561194,4.40574e-05,1.5709575,0.7861331,0.039999984,0.03999998,0.007228517136259605,0.004106321827307613,-0.004335392859111664,0.002521074674366535,-0.011291007697341034,-0.0004920930929876247,0.999999947081214,0.0003075986991723857,-0.00010526696266512962,1.1810002208559689e-05
2100.8166666658053,8.28734e-05,-0.7849542,2.6006615e-05,-2.3561707,3.2070053e-05,1.5709547,0.78616583,0.03999998,0.039999977,0.0070206121880023176,0.004520044686726065,-0.0045419240986221965,0.0029582409712183644,-0.011613470507918952,-0.0005779434568419996,0.9999999358973249,0.00033320536516438456,-0.00013089484535777618,6.787509127731072e-06
2100.833333332472,6.3669126e-05,-0.78496486,2.2772916e-05,-2.356226,1.8143515e-05,1.5709518,0.7862037,0.039999973,0.039999966,0.0017439442006494943,0.004939630555930869,-0.0062413141712847064,0.003435413603751096,-0.011911518402924525,-0.0006709514157732727,0.9999999222032461,0.00036287406815379376,-0.00015464475307939464,9.553483703603542e-07
2100.849999999139,4.1554285e-05,-0.7849838,1.9048322e-05,-2.3562841,2.1102155e-06,1.570949,0.78624725,0.039999966,0.039999958,0.0042959091853811415,0.005364944475184065,-0.005975160580518057,0.003954134808926418,-0.012199413573387803,-0.000772928828262915,0.9999999057341181,0.00039703199347982754,-0.00017568215076088907,-5.756122957580099e-06
2100.866666665806,1.6295751e-05,-0.7850109,1.479347e-05,-2.356344,-1.6197437e-05,1.5709461,0.786297,0.03999997,0.03999996,0.006123007766412059,0.005793002896064849,-0.005337838610119938,0.004514538231918057,-0.012468829801727158,-0.0008830883984933967,0.9999998861198856,0.0004360479790596603,-0.00019350031683365075,-1.3416531945597439e-05
2100.883333332473,-1.2341024e-05,-0.7850468,9.968746e-06,-2.3564098,-3.6948313e-05,1.5709432,0.78635347,0.039999973,0.03999996,-0.00031324556668543835,0.006223853586269778,-0.007702591684077831,0.005116434127303187,-0.01271645848996014,-0.001000631481613042,0.9999998623957269,0.00048029165995735617,-0.00020985749250367397,-2.2097090646950526e-05
2100.8999999991397,-4.4591296e-05,-0.78509164,4.5344614e-06,-2.3564794,-6.0312905e-05,1.5709404,0.78641695,0.039999973,0.03999996,0.003331470343592713,0.006656267958638855,-0.006738597703237481,0.005759884464839199,-0.012957009358021389,-0.001127304575717633,0.9999998339867384,0.0005300734369371046,-0.00022368068505322457,-3.18684530264724e-05
2100.9166666658066,-8.0690916e-05,-0.7851457,-1.5491165e-06,-2.3565536,-8.6460816e-05,1.5709375,0.78648806,0.039999973,0.03999996,0.002510048264636744,0.007088553105161926,-0.0072617234061933544,0.00644545440963081,-0.013184025916671744,-0.0012622645997020382,0.9999997998421407,0.0005858232373631883,-0.00023514857956796902,-4.280138385356668e-05
2100.9333333324735,-0.00012087559,-0.78520954,-8.3218065e-06,-2.3566346,-0.00011556203,1.5709345,0.7865672,0.039999977,0.039999966,-0.0009873524911663267,0.007520565280513783,-0.008724693002259976,0.007172869682188842,-0.013397176830543787,-0.0014055193021791086,0.99999975854163,0.0006478814882646287,-0.00024524450649853385,-5.496717971108675e-05
2100.9499999991403,-0.00016538055,-0.7852834,-1.582341e-05,-2.3567228,-0.0001477856,1.5709316,0.78665483,0.039999977,0.03999996,-0.0010931674321756901,0.007950939243673892,-0.00887779333766936,0.007941822219099021,-0.013604409709044432,-0.0015561946839080837,0.9999997086739469,0.000716588367947182,-0.0002539086950008622,-6.843615176157246e-05
2100.966666665807,-0.00021444027,-0.7853675,-2.4093451e-05,-2.3568137,-0.00018330188,1.5709283,0.7867514,0.039999973,0.039999958,0.006789006383267626,0.008381292509185668,-0.007155270085035248,0.008752531858005825,-0.013809166558726032,-0.0017159560960864305,0.9999996491434927,0.000792313625072505,-0.00025887597735253933,-8.327808446184446e-05
2100.983333332474,-0.00026828801,-0.7854624,-3.3171284e-05,-2.3569121,-0.00022227815,1.570925,0.7868573,0.039999977,0.03999996,-0.0010898694974503798,0.008806454032842097,-0.009619125089854741,0.009604643092736133,-0.013988952922295314,-0.0018839195002249161,0.9999995774778845,0.0008753961717167802,-0.0002623217080146155,-9.956363050549565e-05
2100.999999999141,-0.00032715546,-0.78556854,-4.309608e-05,-2.3570182,-0.0002648812,1.570921,0.7869731,0.039999977,0.039999958,-0.0007547734351520674,0.009228973663004255,-0.010333257735672952,0.010498328136192857,-0.014162637413138812,-0.0020591731696928206,0.9999994913803739,0.0009662338548613104,-0.0002643052424953781,-0.00011736213236077645
2101.016666665808,-0.00039127248,-0.78568596,-5.3906653e-05,-2.3571322,-0.0003112777,1.5709143,0.78709924,0.03999998,0.03999996,-0.001766767923760959,0.009648077655555204,-0.011862568927156758,0.011432373895567907,-0.014333869188515442,-0.002243392659241868,0.9999993880120814,0.0010651639683809976,-0.0002658991883954196,-0.0001367435727497014
2101.0333333324747,-0.00046086687,-0.7858154,-6.5641376e-05,-2.3572547,-0.00036163157,1.5709076,0.7872361,0.03999998,0.03999996,-0.0013003725338522898,0.010062381271450909,-0.010667548299703178,0.012407203508785124,-0.014511632736808585,-0.002435626425595001,0.9999992648341559,0.001172522331304501,-0.000265762133092389,-0.00015777521688271635
2101.0499999991416,-0.00053616415,-0.785957,-7.8338526e-05,-2.3573892,-0.00041610433,1.5709009,0.78738433,0.03999998,0.039999958,-0.006910026520579038,0.01047027725393659,-0.012201495266150886,0.01342206983548662,-0.014682319174663753,-0.002634970771510044,0.9999991179966721,0.0012887625463422795,-0.000265532838535645,-0.00018052503633842772
2101.0666666658085,-0.00061738736,-0.7861111,-9.2035654e-05,-2.3575318,-0.00047485778,1.5708941,0.787544,0.039999984,0.03999996,5.4894445389308544e-05,0.010876192558214887,-0.010846791738394757,0.014475740090022862,-0.014863069835641797,-0.0028430122810602066,0.9999989446037513,0.0014140394749862185,-0.000263124787420351,-0.00020505875507014916
2101.0833333324754,-0.00070475676,-0.78627837,-0.00010676987,-2.357683,-0.00053805066,1.5708873,0.7877158,0.039999984,0.03999996,-0.0001309667014837146,0.011274445586677891,-0.01127618486764792,0.015569156527793202,-0.015035803954589144,-0.0030588657138423347,0.9999987404217533,0.001548804078821942,-0.00025844812481422367,-0.00023144199929176824
2101.0999999991423,-0.0007984893,-0.786459,-0.00012257807,-2.357843,-0.0006058389,1.5708803,0.7879,0.039999988,0.03999996,-0.0002888173080695111,0.011665838513408517,-0.01173053288885395,0.016701255987847472,-0.015196340659841778,-0.0032822630571858738,0.9999985009396393,0.0016933268041465512,-0.00025159179884272045,-0.0002597390524882526
2101.116666665809,-0.00089879957,-0.7866534,-0.00013949636,-2.3580148,-0.00067837955,1.5708725,0.78809714,0.039999988,0.039999973,-0.005383693698246539,0.012051723840271174,-0.01364776707146742,0.01787187459374721,-0.015348229772084377,-0.003516728286564277,0.999998220529802,0.0018480251197489689,-0.0002441943914976107,-0.00029001635379697044
2101.133333332476,-0.0010058987,-0.7868621,-0.00015756043,-2.3581972,-0.00075582013,1.570862,0.78830767,0.039999988,0.03999996,-0.002944606722654619,0.012426373124717425,-0.014853636842904194,0.01907944040095421,-0.01550786395784906,-0.0037516724634262073,0.9999978936596723,0.0020131965065363694,-0.0002362553360471624,-0.000322334393009866
2101.149999999143,-0.0011199944,-0.78708524,-0.00017680517,-2.3583903,-0.00083831424,1.5708516,0.78853184,0.03999999,0.03999997,-0.0022933385614543056,0.012802023749140029,-0.01301967613200894,0.020323658583247604,-0.015673430568366925,-0.003999075465403528,0.9999975146319637,0.0021891056207549125,-0.00022643291678875308,-0.0003567556737312609
2101.1666666658098,-0.0012412908,-0.78732324,-0.00019726541,-2.3585956,-0.00092600693,1.570841,0.78877014,0.03999999,0.03999997,-0.0043763162929533195,0.013163475720040204,-0.013954562587259467,0.02160490956541624,-0.015832711201604004,-0.004251069425635772,0.9999970765188619,0.0023761047023649336,-0.00021532248499337868,-0.0003933400569379486
2101.1833333324766,-0.0013699885,-0.78757656,-0.00021897475,-2.358812,-0.0010190443,1.5708303,0.78902304,0.039999995,0.039999984,-0.0022025848690931937,0.013521433067718927,-0.013708549886648491,0.022921527828074984,-0.015992552861097638,-0.004514300090701686,0.9999965720470813,0.0025745444506203477,-0.0002021484168718991,-0.00043214693803520236
2101.1999999991435,-0.001506285,-0.78784543,-0.00024196669,-2.3590415,-0.0011175629,1.5708195,0.7892909,0.039999995,0.039999995,-0.004861785610899005,0.013864932066571575,-0.014772198948875825,0.024272809310411782,-0.01614532983601472,-0.004781883971317439,0.9999959930786043,0.002784713598675793,-0.00018774437353379642,-0.0004732324583367076
2101.2166666658104,-0.0016503731,-0.78813016,-0.0002662737,-2.359283,-0.0012217151,1.5708079,0.7895741,0.039999995,0.039999988,-0.0034809026053572723,0.014214595857578796,-0.014976972016578216,0.025657955752031697,-0.016299457389965754,-0.005055409440045198,0.9999953310350622,0.003006898929665773,-0.0001718412540730233,-0.0005166599331635557
2101.2333333324773,-0.0018024419,-0.78843117,-0.00029192795,-2.3595374,-0.0013316243,1.5707941,0.7898729,0.04,0.03999999,-0.004739905875594808,0.014533883832914644,-0.01669088313220879,0.027076995001118213,-0.01645236505588846,-0.005334753275373287,0.9999945765325522,0.003241355420202243,-0.00015536201140044456,-0.000562479481238243
2101.249999999144,-0.0019626773,-0.788749,-0.00031896067,-2.359805,-0.0014474321,1.5707798,0.7901877,0.04,0.039999988,-0.004407171862252923,0.01486428313145962,-0.015877318776724714,0.028529051056647894,-0.016612603707908482,-0.005621439069841708,0.9999937195870829,0.0034883949080973973,-0.00013738174010113693,-0.0006107484042426855
2101.266666665811,-0.002131262,-0.78908384,-0.00034740256,-2.3600864,-0.001569266,1.5707654,0.7905189,0.039999995,0.039999973,-0.004451654112536119,0.015177917180726683,-0.01585500522371941,0.03001341503808225,-0.016771867466667572,-0.00591289899728615,0.9999927494848758,0.0037482680818269614,-0.00011772055608352185,-0.0006615179029892871
2101.283333332478,-0.0023083715,-0.78943604,-0.00037728366,-2.3603811,-0.0016972515,1.5707507,0.7908668,0.03999999,0.039999954,-0.003772397117685067,0.015479826683552269,-0.01600800536807334,0.03152924340106694,-0.01692909734167513,-0.006207802085679283,0.9999916544909812,0.004021281684166307,-9.616865493589194e-05,-0.0007148381612822824
2101.299999999145,-0.002494181,-0.78980595,-0.00040863323,-2.3606904,-0.0018315171,1.5707356,0.79123205,0.04,0.039999966,-0.005497121735809074,0.01577923480496528,-0.016925197841843875,0.0330761411517383,-0.01708109556653016,-0.006513885019446835,0.9999904215291688,0.004307831067594602,-7.326112660624281e-05,-0.0007707621005094364
2101.3166666658117,-0.0026888584,-0.79019386,-0.0004414799,-2.3610144,-0.0019721852,1.5707189,0.79161465,0.04,0.039999984,-0.005932746125969501,0.01606283694759623,-0.01800290851154962,0.03465141823753998,-0.017234929923610382,-0.006829224956926769,0.9999890379338409,0.004608010106301286,-4.95033897902692e-05,-0.0008293397531154687
2101.3333333324786,-0.00289257,-0.79059994,-0.00047585156,-2.3613532,-0.0021193735,1.5707008,0.7920148,0.04,0.039999984,-0.005718222377804061,0.01634144404999106,-0.01801835874783997,0.03625656617779885,-0.0173945637681469,-0.007145347434294413,0.9999874899689482,0.004922000887218639,-2.4745084758248703e-05,-0.0008906180718266223
2101.3499999991454,-0.0031054765,-0.79102474,-0.0005117754,-2.3617067,-0.002273197,1.5706825,0.792433,0.04,0.04,-0.004734154577956673,0.016610815387940476,-0.01734712230281321,0.03789096144727709,-0.0175578996575188,-0.007468614487840346,0.9999857619770195,0.005250190418743467,1.9392799938897716e-06,-0.0009546413179620306
2101.3666666658123,-0.0033277348,-0.7914685,-0.0005492781,-2.3620753,-0.002433772,1.570664,0.7928696,0.04,0.04,-0.004937477390942746,0.016872907932414128,-0.017681145147196986,0.039553278353297645,-0.017718612469315494,-0.007796485998265429,0.9999838380942335,0.005592785389750011,3.04916720147357e-05,-0.0010214559060070989
2101.383333332479,-0.0035594974,-0.79193145,-0.00058838533,-2.3624597,-0.0026012047,1.5706449,0.7933248,0.04,0.04,-0.006065792516074531,0.017117383754241492,-0.01849532126811937,0.041242379248326716,-0.017875506870146964,-0.008129603892695559,0.9999817015639482,0.00594998955090535,6.04369108671566e-05,-0.0010911044839572973
2101.399999999146,-0.0038009135,-0.79241383,-0.00062912237,-2.3628597,-0.0027756135,1.5706239,0.7937989,0.039999995,0.03999997,-0.006169171948289254,0.017364570669382764,-0.019433374428667882,0.04295808796251169,-0.018034694292115298,-0.00846717985964349,0.9999793345230419,0.00632203545884358,9.13595609879768e-05,-0.001163635656851726
2101.416666665813,-0.0040521272,-0.79291594,-0.00067151344,-2.3632758,-0.002957084,1.5706018,0.79429233,0.04,0.039999943,-0.006047199019532101,0.017582421278043887,-0.019179353193821136,0.04469974298865613,-0.01819859246923284,-0.008802669861273999,0.9999767176653267,0.006709211429279045,0.0001236489955268467,-0.0012390803859713376
2101.43333333248,-0.0043132794,-0.79343814,-0.0007155823,-2.3637085,-0.0031457315,1.5705795,0.7948052,0.04,0.039999966,-0.006633803566669094,0.017814856999750443,-0.019083597274227593,0.04646555442792775,-0.018364207137357674,-0.009156668168064756,0.9999738313403589,0.007111683918732441,0.00015754557791555415,-0.0013174846163495982
2101.4499999991467,-0.0045845048,-0.7939807,-0.00076135184,-2.3641582,-0.0033416464,1.5705569,0.7953379,0.04,0.03999995,-0.0067795966802508545,0.01801839354840084,-0.019451387171165457,0.048255820026538124,-0.018529380251496558,-0.009504990058734172,0.9999706544898236,0.007529676589048548,0.000193021605368837,-0.0013988825247656564
2101.4666666658136,-0.0048659365,-0.7945438,-0.00080884434,-2.3646243,-0.003544928,1.5705332,0.7958906,0.04,0.03999996,-0.006096655181297983,0.018224969747533334,-0.019843129573682283,0.05006893829991177,-0.01869545423060652,-0.009863779115769987,0.9999671651612695,0.00796338324085454,0.00023001965537759877,-0.0014833130660858074
2101.4833333324805,-0.0051577017,-0.79512775,-0.00085808145,-2.365107,-0.0037556656,1.5705074,0.7964636,0.04,0.039999954,-0.0064452336050235814,0.018410529371602757,-0.02086656758282235,0.05190503287421171,-0.018862122122924374,-0.010223545221417465,0.9999633404229161,0.008412994235982223,0.00026812478059860096,-0.001570811042246507
2101.4999999991473,-0.0054599233,-0.7957325,-0.0009090839,-2.3656075,-0.00397395,1.5704814,0.7970571,0.04,0.039999977,-0.007598348184245651,0.018596913597110874,-0.019932497377039837,0.05376255588727515,-0.019032912542972884,-0.010592468794895199,0.9999591560704028,0.008878694185465996,0.0003077268121983748,-0.0016614104664506358
2101.5166666658142,-0.0057727196,-0.7963584,-0.000961872,-2.3661249,-0.004199865,1.5704551,0.7976713,0.04,0.039999973,-0.006064813891293319,0.018769004976685634,-0.01990823776811812,0.05564151573197928,-0.019207134408941708,-0.010960363854600627,0.9999545866431209,0.009360668681205601,0.0003493050940958416,-0.0017551407855948304
2101.533333332481,-0.0060962057,-0.79700595,-0.0010164647,-2.3666592,-0.004433493,1.5704279,0.79830664,0.04,0.039999958,-0.005731972863554091,0.018929672069512536,-0.020537148588739562,0.05754065480966464,-0.019376616481024397,-0.011330219637737157,0.9999496050235728,0.009859160484674001,0.0003928623693012199,-0.0018520331792782783
2101.549999999148,-0.0064304923,-0.7976756,-0.0010728814,-2.3672123,-0.0046749166,1.570399,0.79896307,0.04,0.039999958,-0.008756690140199197,0.0190722313893053,-0.02228339493286491,0.059458844832485806,-0.019543201741521847,-0.011706331723325927,0.9999441851326294,0.010374229560500974,0.0004372686976319277,-0.0019521210397464334
2101.566666665815,-0.0067756865,-0.798367,-0.0011311393,-2.3677828,-0.004924211,1.5703692,0.7996409,0.04,0.03999994,-0.006530906447244078,0.019224705087570945,-0.020917225277461426,0.06139638126228597,-0.019719201196484838,-0.012079197014884642,0.9999382975166302,0.01090608417656328,0.0004834210648224879,-0.0020554297728414654
2101.5833333324817,-0.0071318904,-0.7990806,-0.0011912565,-2.368372,-0.005181449,1.570339,0.8003405,0.04,0.039999917,-0.007992407387114042,0.019352678844554612,-0.021333783169641407,0.06335190199692291,-0.019893331037536346,-0.012458506342789166,0.9999319114949399,0.011454957365036196,0.0005311735841682616,-0.0021619853062265037
2101.5999999991486,-0.007499201,-0.79981637,-0.0012532489,-2.3689787,-0.005446705,1.570308,0.80106235,0.04,0.039999906,-0.006491731143842827,0.019482124599930206,-0.021092367840913617,0.06532405324072833,-0.020068197935507646,-0.012844670002080208,0.9999249936161422,0.012021171900789109,0.0005808873764851799,-0.002271813756823877
2101.6166666658155,-0.007877714,-0.8005748,-0.0013171326,-2.3696046,-0.0057200454,1.5702754,0.8018053,0.04,0.039999925,-0.00871418659211809,0.01958262995945259,-0.022624689089201233,0.06731033591867423,-0.02024141375419847,-0.013235265533128777,0.9999175204112984,0.012604182686752462,0.0006316700083938049,-0.002384941575799091
2101.6333333324824,-0.00826752,-0.8013559,-0.0013829229,-2.3702488,-0.0060015325,1.5702418,0.8025706,0.04,0.039999925,-0.0073305197238360265,0.01969196441496679,-0.021990274665406595,0.06931675849759814,-0.02042050990484955,-0.013627389314997199,0.9999094521951026,0.013204635851764455,0.00068415173839162,-0.0025013874771685346
2101.6499999991493,-0.008668698,-0.80215985,-0.001450634,-2.370912,-0.0062912316,1.5702077,0.8033585,0.04,0.039999932,-0.008276793089501133,0.019779892031542012,-0.02193762526256915,0.07133761904388934,-0.02059978303574175,-0.014023605769366083,0.9999007530013465,0.013822751290364596,0.0007383362725948967,-0.002621174098319811
2101.666666665816,-0.009081338,-0.80298686,-0.0015202797,-2.371594,-0.006589199,1.5701728,0.8041687,0.04,0.039999943,-0.007372142276440563,0.019869732919146343,-0.022131475923292676,0.07337124994963594,-0.020779486202032942,-0.014422358170503479,0.9998913902667904,0.014458399052078895,0.0007944052916746293,-0.0027443191193206977
2101.683333332483,-0.009505516,-0.8038368,-0.0015918737,-2.3722951,-0.0068954895,1.5701363,0.8050015,0.04,0.03999994,-0.008998364234735767,0.01993699187236575,-0.02292181192093956,0.07541964159488111,-0.02095902938236824,-0.014822319441804411,0.9998813266948767,0.01511176968183572,0.0008515877667409408,-0.0028708434739633756
2101.69999999915,-0.009941304,-0.8047102,-0.0016654284,-2.3730152,-0.007210162,1.5700988,0.80585724,0.04,0.039999947,-0.00757314017996169,0.02000621894542101,-0.022627488450543964,0.07748101362450155,-0.021142825289236465,-0.015226142958612854,0.9998705219098608,0.0157830806926422,0.0009106030370222878,-0.0030007635130145077
2101.716666665817,-0.010388773,-0.8056071,-0.001740955,-2.3737547,-0.0075332606,1.5700606,0.8067358,0.04,0.039999954,-0.00862985436631547,0.02005570920781234,-0.022629509561822303,0.07955385978973603,-0.021327102987237084,-0.01563937648347291,0.999858938548698,0.016472307633670056,0.0009713652000544092,-0.0031340923950433828
2101.7333333324837,-0.010847986,-0.8065275,-0.001818465,-2.3745134,-0.007864828,1.5700216,0.8076374,0.04,0.039999947,-0.007889464232513355,0.020097592218512594,-0.02263459443954119,0.08163869449518023,-0.02151116157855542,-0.016038832960437267,0.9998465355234288,0.017179574719369956,0.001034027317964021,-0.0032708411401726613
2101.7499999991505,-0.0113190105,-0.80747163,-0.0018979682,-2.3752918,-0.008204925,1.5699813,0.8085622,0.04,0.039999958,-0.009123904467744914,0.020142191282282798,-0.02341297628931649,0.08373444760644501,-0.021694336392831467,-0.01645555298081898,0.9998332704767439,0.017905035810059502,0.0010980870986103714,-0.0034110328557116786
2101.7666666658174,-0.011801898,-0.8084395,-0.0019794747,-2.37609,-0.008553573,1.56994,0.80951035,0.04,0.039999943,-0.009110791160105158,0.020147685395984286,-0.02324074532722431,0.08584004728126483,-0.021881978658686026,-0.016856664408936017,0.9998191008709723,0.018648746325043423,0.0011636678638994656,-0.0035546689251295333
2101.7833333324843,-0.0122967055,-0.8094314,-0.0020629943,-2.3769069,-0.008910825,1.5698979,0.81048197,0.04,0.039999947,-0.006712108261397454,0.020191992285051308,-0.022618622303927083,0.087954957011363,-0.022071367480653307,-0.017266199136885298,0.9998039805960924,0.0194108287800022,0.001231697967895231,-0.0037017604457560724
2101.799999999151,-0.012803484,-0.8104472,-0.0021485349,-2.377744,-0.009276717,1.5698547,0.811477,0.04,0.03999996,-0.00979400000180597,0.02018320733668255,-0.023596501578082574,0.09007799444372741,-0.02225427776486306,-0.017690327691011566,0.9997878670421766,0.02019127440457093,0.001301138540960138,-0.0038523228929366374
2101.816666665818,-0.01332228,-0.811487,-0.0022361046,-2.3786018,-0.009651275,1.5698103,0.81249565,0.04,0.03999996,-0.01074868444310706,0.020170526655215182,-0.023989700679560855,0.09220933199553293,-0.022442167312208206,-0.018102811415178346,0.9997707134040386,0.02099019524836417,0.0013716366747140152,-0.004006361921754785
2101.833333332485,-0.013853131,-0.8125511,-0.0023257101,-2.3794782,-0.010034532,1.5697647,0.81353796,0.04,0.039999947,-0.006772746946270836,0.020174858025487005,-0.023034176181835342,0.09434816404419702,-0.022637224615662362,-0.018507416180105703,0.9997524703919085,0.02180764513648271,0.0014445380839487748,-0.004163876631364401
2101.849999999152,-0.01439608,-0.8136396,-0.0024173583,-2.3803751,-0.010426525,1.5697186,0.814604,0.04,0.039999973,-0.009742488987551923,0.020151979307267073,-0.02362699202684837,0.09649320795320723,-0.022825259268272592,-0.018934116838948835,0.999733090207547,0.022643668465478762,0.0015192217201983407,-0.004324880097631324
2101.8666666658187,-0.014951161,-0.8147524,-0.002511055,-2.3812926,-0.010827267,1.5696713,0.81569386,0.04,0.039999973,-0.010135026091573351,0.02010848689835837,-0.024008136694475546,0.09864467011165615,-0.023014639347569765,-0.019350948704432117,0.9997125228723572,0.023498341520708156,0.001595334941883557,-0.004489372382197594
2101.8833333324856,-0.015518401,-0.8158895,-0.002606805,-2.3822293,-0.011236781,1.5696226,0.8168076,0.04,0.039999984,-0.008285572348620818,0.020077500497313328,-0.023541881120725527,0.10080119858622319,-0.023207974206474614,-0.01977005470067568,0.9996907164804407,0.024371709185160975,0.001673389397321968,-0.0046573535556136535
2101.8999999991524,-0.016097836,-0.8170511,-0.002704614,-2.3831863,-0.011655092,1.569573,0.8179453,0.04,0.039999984,-0.009549370475370189,0.020036071348826512,-0.023866222749480137,0.1029620040162186,-0.0234008364931196,-0.02018617752172353,0.9996676196265483,0.02526378530520742,0.001753241056547403,-0.004828826776841173
2101.9166666658193,-0.016689487,-0.81823736,-0.0028044847,-2.384164,-0.012082221,1.5695226,0.8191069,0.04,0.03999998,-0.010337236164059682,0.01997191969475634,-0.02402356832944541,0.10512702657005679,-0.02359319967391231,-0.020604316587016128,0.9996431800269989,0.026174574703269154,0.0018347460442082629,-0.005003795715770332
2101.933333332486,-0.017293371,-0.81944805,-0.0029064214,-2.3851619,-0.012518172,1.569471,0.82029253,0.04,0.039999954,-0.009507963416188758,0.01990550730731691,-0.023878268722299367,0.10729579871929885,-0.02378877875896592,-0.02100857807673269,0.9996173413630667,0.027104176401841585,0.0019179993824117276,-0.005182253002401143
2101.949999999153,-0.017909504,-0.82068336,-0.0030104273,-2.3861794,-0.012962971,1.569418,0.8215023,0.04,0.039999966,-0.009069120576921108,0.019839116430839243,-0.024052796216555983,0.10946675545691464,-0.023983124806121442,-0.021437597607877598,0.9995900475159762,0.028052626514759205,0.002003096033226426,-0.005364201610051777
2101.96666666582,-0.018537898,-0.8219433,-0.0031165038,-2.3872173,-0.01341661,1.5693643,0.8227361,0.04,0.039999966,-0.009697435107125507,0.01974556643467712,-0.023643592945887804,0.1116393505762241,-0.024178406356881853,-0.021853152235349057,0.9995612446878823,0.02901983331911915,0.0020902197206595936,-0.0055496282453192675
2101.983333332487,-0.019178567,-0.8232278,-0.0032246523,-2.3882754,-0.0138791045,1.5693097,0.82399404,0.04,0.03999996,-0.009897305452200023,0.019665526331463096,-0.023911563537404312,0.11381395735224697,-0.024372595863015312,-0.022268623458000004,0.9995308724747666,0.030005921066973848,0.002179197864116402,-0.005738533560353616
2101.9999999991537,-0.019831516,-0.8245369,-0.003334874,-2.389354,-0.014350462,1.5692539,0.825276,0.04,0.03999996,-0.010529904279321656,0.019558814533308932,-0.02416142337602345,0.11598878784149935,-0.02456716591637643,-0.02267625909051563,0.9994988758921359,0.031010796422589217,0.0022697674475074107,-0.005930914881157669
2102.0166666658206,-0.020496745,-0.82587063,-0.003447169,-2.3904529,-0.014830688,1.5691967,0.82658213,0.04,0.04,-0.010225880218994732,0.019452941553507047,-0.024267442899383873,0.1181640070168414,-0.02476332369969354,-0.02311205383948329,0.9994651937894954,0.032034516577388344,0.002361964417619868,-0.006126767097702352
2102.0333333324875,-0.021174261,-0.8272288,-0.0035615377,-2.3915718,-0.015319762,1.5691389,0.8279123,0.04,0.039999954,-0.009834146929987853,0.019348449349798624,-0.02344390777428984,0.1203385868320675,-0.024962989916931924,-0.023510204898676317,0.9994297667178987,0.033077018467249794,0.0024562411712760646,-0.0063260672484745295
2102.0499999991544,-0.02186405,-0.8286121,-0.0036779793,-2.3927112,-0.015817704,1.5690801,0.82926655,0.04,0.04,-0.010090148940178345,0.01920940233133689,-0.024311573286728283,0.12251252791205293,-0.025158801061871374,-0.0239434414249126,0.9993925316003393,0.03413834865503988,0.002552544601366979,-0.006528816786360462
2102.0666666658212,-0.022566104,-0.8300195,-0.0037964927,-2.3938706,-0.01632449,1.56902,0.8306449,0.04,0.039999988,-0.010628795097855637,0.019083990415746932,-0.023776492906124602,0.12468444182724628,-0.02535440316176238,-0.024355590124745325,0.9993534282417715,0.03521846917103692,0.0026504037221205313,-0.006735001913632273
2102.083333332488,-0.02328042,-0.8314516,-0.003917075,-2.3950503,-0.016840126,1.5689588,0.8320473,0.04,0.04,-0.010393614893544623,0.01894719625739616,-0.02415109220870182,0.1268539273270228,-0.02555210239814161,-0.02477462556770814,0.9993123936593227,0.036317340297308334,0.002750092772149361,-0.006944613909276658
2102.099999999155,-0.024006968,-0.83290845,-0.0040397267,-2.3962502,-0.017364591,1.5688968,0.8334736,0.04,0.04,-0.010337863186693497,0.018789478345965227,-0.023792638171649116,0.12902083061969588,-0.025750723358065098,-0.025182132887609766,0.9992693644147349,0.0374349111527178,0.0028518561921439286,-0.007157631271535108
2102.116666665822,-0.024745747,-0.8343898,-0.004164441,-2.3974705,-0.017897874,1.5688337,0.8349238,0.04,0.039999995,-0.010803294096906058,0.018644916721606564,-0.023923962531635645,0.13118463164804692,-0.02594725376521614,-0.025594458094682415,0.9992242783119333,0.03857111210255496,0.0029554018966679273,-0.007374045212613393
2102.1333333324887,-0.025496725,-0.8358955,-0.004291216,-2.3987105,-0.01843997,1.5687693,0.83639824,0.04,0.04,-0.010356620166862562,0.01848794841522866,-0.02379076807317304,0.13334487892801813,-0.026144532454122394,-0.02601037638447897,0.9991770612555883,0.039726130949287626,0.0030607677967861824,-0.007593844937876695
2102.1499999991556,-0.026259888,-0.83742565,-0.0044200467,-2.3999712,-0.018990856,1.568704,0.83789635,0.04,0.04,-0.011775536934144348,0.018309139294075266,-0.024032403873541774,0.1354990809580066,-0.026342929560866618,-0.02641731605632009,0.9991276587038745,0.040899648934145036,0.0031677495789032583,-0.007817013021808
2102.1666666658225,-0.027035203,-0.8389802,-0.0045509282,-2.4012518,-0.019550499,1.5686378,0.8394184,0.04,0.04,-0.010342600013424352,0.018138211673018184,-0.023456718385261865,0.13764924005528342,-0.026543546770659485,-0.026823420103244226,0.9990759956497818,0.0420917932002928,0.0032768317761891026,-0.008043521311686393
2102.1833333324894,-0.027822638,-0.84055895,-0.0046838587,-2.402552,-0.02011889,1.5685706,0.84096444,0.04,0.04,-0.010304582174947008,0.01796961769461522,-0.023426033273010738,0.1397929096100815,-0.026741413998129907,-0.027231144800081833,0.99902200345304,0.04330254139217168,0.003387931833946036,-0.008273357452805788
2102.1999999991563,-0.028622156,-0.842162,-0.004818828,-2.4038725,-0.020696005,1.5685021,0.8425342,0.04,0.04,-0.011982364509810495,0.017743673866867787,-0.024072831825927565,0.14192961391058656,-0.026937883770638944,-0.027632008835683564,0.9989656199059506,0.04453174045022716,0.0035005193222285864,-0.008506509440901899
2102.216666665823,-0.029433727,-0.8437893,-0.0049558314,-2.405213,-0.021281814,1.5684327,0.84412754,0.04,0.04,-0.011248543908126685,0.017573010561711122,-0.0234372237129854,0.14405905833069632,-0.027137000297045386,-0.02803770659508028,0.9989067762121993,0.045779306458058514,0.003615017776301689,-0.008742950534417575
2102.23333333249,-0.03025731,-0.84544045,-0.005094863,-2.406573,-0.021876285,1.5683625,0.8457445,0.04,0.04,-0.010450215021529097,0.017383261319892096,-0.022954957576959423,0.14618163620334623,-0.027337393363185775,-0.02842867233906438,0.9988454008794543,0.04704521131050303,0.003731642739331912,-0.008982654239053428
2102.249999999157,-0.031092864,-0.8471158,-0.0052359146,-2.4079535,-0.022479402,1.5682911,0.847385,0.04,0.04,-0.01238858836516421,0.017146172854719255,-0.023886482337487358,0.14829593153679435,-0.027534588262494948,-0.028826921901328906,0.9987814263117334,0.04832938784230548,0.003849775400500997,-0.00922561406375428
2102.266666665824,-0.03194033,-0.84881514,-0.0053789797,-2.4093533,-0.023091119,1.5682185,0.8490489,0.04,0.04,-0.010718761410855038,0.016937389151618076,-0.023227922605539852,0.150401552332766,-0.027734548292007558,-0.0292245956184799,0.9987147816227736,0.04963174386733652,0.003969899078626619,-0.009471793397663674
2102.2833333324907,-0.03279967,-0.85053825,-0.005524049,-2.4107726,-0.023711402,1.568145,0.850736,0.04,0.04,-0.011305227300306697,0.016726451037892,-0.0229546453155427,0.15249761833699574,-0.027933996563605012,-0.029616415591868492,0.9986454003285956,0.05095212335067471,0.0040919900551867686,-0.009721169990537725
2102.2999999991575,-0.03367084,-0.8522852,-0.005671115,-2.4122114,-0.024340209,1.5680707,0.8524464,0.04,0.04,-0.011391845564667769,0.016500712510134075,-0.02306068445760978,0.15458492314703587,-0.028130900168885403,-0.03001074471411784,0.998573207736382,0.05229052420947021,0.004216025978019219,-0.009973715151527117
2102.3166666658244,-0.034553766,-0.8540555,-0.005820168,-2.413669,-0.024977507,1.5679951,0.85417986,0.04,0.04,-0.010858751440223635,0.016268737781133247,-0.022654628865459436,0.1566615466896519,-0.028327850389564455,-0.030399150311164455,0.99849813352276,0.05364684046131077,0.004342013775187579,-0.010229407434431152
2102.3333333324913,-0.0354484,-0.85584927,-0.0059711984,-2.4151466,-0.025623256,1.5679185,0.85593635,0.04,0.04,-0.012453803682110909,0.016013446163462564,-0.02290242095570605,0.15872759867028752,-0.028523351738622076,-0.030779811131756346,0.9984201084264566,0.05502096521529627,0.004469632505362778,-0.01048822490924748
2102.349999999158,-0.036354695,-0.8576666,-0.0061241942,-2.416643,-0.026277414,1.5678412,0.85771567,0.04,0.04,-0.010719077924070675,0.01580610176879632,-0.0224833261536439,0.16078225955914072,-0.0287202092511172,-0.03116703588658999,0.9983390592649839,0.05641278143551432,0.004599514329026591,-0.010750130443528768
2102.366666665825,-0.037272573,-0.8595071,-0.006279146,-2.4181588,-0.026939925,1.5677629,0.85951775,0.04,0.04,-0.01258285879270904,0.015515609505190042,-0.022598749470148505,0.16282530329147654,-0.028914588320008885,-0.031546139959298516,0.9982549166475898,0.05782219695783285,0.0047310109851414145,-0.011015101585617177
2102.383333332492,-0.03820198,-0.8613707,-0.006436042,-2.4196935,-0.027610753,1.5676835,0.8613425,0.04,0.04,-0.011517088389978447,0.015292709649379621,-0.022360396953025052,0.1648561539765652,-0.02910940168474683,-0.03192591769121067,0.9981676066135837,0.05924911734225762,0.004864427366275194,-0.011283108963023246
2102.399999999159,-0.03914282,-0.8632571,-0.006594872,-2.421247,-0.028289841,1.567603,0.86318964,0.04,0.04,-0.011938968269209482,0.015000723990978015,-0.0221749021481088,0.16687410453034562,-0.029303833769758203,-0.03229919411553548,0.9980770623038668,0.06069335848966548,0.004999620892073277,-0.011554121734847054
2102.4166666658257,-0.04009504,-0.86516637,-0.0067556216,-2.4228194,-0.028977146,1.5675216,0.8650591,0.04,0.04,-0.012014376671332094,0.014751605474437601,-0.02206297648277289,0.16887935915325034,-0.02949874963014352,-0.03267109680504265,0.997983210986708,0.06215481561024298,0.005136658126185079,-0.011828111785542328
2102.4333333324926,-0.04105856,-0.8670984,-0.00691828,-2.4244103,-0.029672606,1.5674391,0.86695075,0.04,0.04,-0.011823849064240832,0.014476041132555073,-0.02199128414890339,0.17087105770962907,-0.0296931999664655,-0.033036351800065165,0.9978859782638755,0.0636334082939223,0.005275576133905006,-0.012105041499413435
2102.4499999991594,-0.042033322,-0.8690529,-0.0070828344,-2.4260209,-0.03037616,1.5673558,0.8688646,0.04,0.04,-0.013792195839612553,0.014195080774151436,-0.022032909145353052,0.1728485119954134,-0.02988679318015504,-0.03340268845261247,0.9977852924970346,0.065129048673565,0.005415875740309689,-0.01238488536277207
2102.4666666658263,-0.043019224,-0.87102985,-0.00724927,-2.4276497,-0.03108777,1.5672715,0.8708003,0.04,0.04,-0.011916602373873708,0.013924656488437104,-0.02158329186474628,0.1748109585144612,-0.030083945795597467,-0.03375768894071877,0.9976810842303288,0.06664152896521845,0.005558099517020244,-0.01266760892720756
2102.483333332493,-0.044016194,-0.87302893,-0.007417575,-2.4292955,-0.031807356,1.5671862,0.87275773,0.04,0.04,-0.009963264678880535,0.013686380103876405,-0.020755922618032052,0.17675809063740072,-0.030280762300654684,-0.034115543660361694,0.9975732790352366,0.06817071819662954,0.005702790140508482,-0.012953158690257057
2102.49999999916,-0.04502414,-0.87505007,-0.0075877323,-2.4309604,-0.032534868,1.5671,0.87473667,0.04,0.04,-0.013793402584516556,0.01332798643012556,-0.02160094054366457,0.1786898716489261,-0.030469900255009508,-0.03446976979416115,0.997461813999842,0.06971644377702259,0.0058488521608700324,-0.013241525879975838
2102.516666665827,-0.046042997,-0.877093,-0.00775973,-2.4326427,-0.03327026,1.5670129,0.87673706,0.04,0.04,-0.011310523179641763,0.013116799542385593,-0.020735661213078238,0.18060595894003012,-0.030663371219967237,-0.03481971137599488,0.9973466091361914,0.07127863661562671,0.005997008067598913,-0.013532667918621363
2102.533333332494,-0.047072653,-0.8791577,-0.007933552,-2.4343433,-0.034013435,1.5669248,0.87875855,0.04,0.04,-0.013111950040523013,0.01274467197583673,-0.02106858042127957,0.1825055523976621,-0.03085229204689898,-0.03517159233606214,0.997227605114844,0.07285703564023113,0.006146756756290854,-0.013826544615700322
2102.5499999991607,-0.048113026,-0.88124394,-0.008109183,-2.4360614,-0.034764342,1.5668358,0.88080114,0.04,0.04,-0.011846323921216317,0.012490149599374278,-0.020503195939047814,0.18438863126062494,-0.031043198049060375,-0.03552001988755739,0.9971047227037704,0.07445158751858633,0.006298463654445065,-0.014123116985743256
2102.5666666658276,-0.04916402,-0.8833513,-0.008286607,-2.437797,-0.03552291,1.5667459,0.88286453,0.04,0.04,-0.012692086635879285,0.012183985314187518,-0.020286874185337922,0.18625437567067715,-0.03123420308490928,-0.03584610982350042,0.9969778985862369,0.0760620700269785,0.0064518963031878224,-0.014422353063043656
2102.5833333324945,-0.050225526,-0.88547987,-0.008465808,-2.4395504,-0.036289074,1.5666552,0.88494855,0.04,0.04,-0.012807404911008291,0.011855432240402697,-0.020244950235026593,0.18810229942330275,-0.03142334179352103,-0.03618860056885869,0.9968470641780384,0.07768831892578465,0.006607061433764934,-0.014724214115595423
2102.5999999991614,-0.05129747,-0.8876293,-0.008646769,-2.4413207,-0.03706277,1.5665636,0.88705313,0.04,0.04,-0.01200554170697199,0.01160779635503012,-0.01974782770428618,0.18993271896214808,-0.031612163775061805,-0.0365212124524531,0.9967121431473119,0.07933025217048738,0.006764175041161219,-0.015028663589014061
2102.6166666658282,-0.052379727,-0.8897995,-0.008829474,-2.4431076,-0.03784392,1.566471,0.889178,0.04,0.04,-0.011852713708115914,0.011253404164286718,-0.01974685552874611,0.19174384935483452,-0.031798405914388664,-0.03685384563643347,0.9965730725121076,0.0809876404993661,0.006923213117900021,-0.015335656172687303
2102.633333332495,-0.05347221,-0.8919903,-0.009013901,-2.4449124,-0.03863244,1.5663776,0.89132273,0.04,0.04,-0.01406222491291409,0.010913224176807568,-0.01984093991602709,0.19353603239358075,-0.03198390429758534,-0.03717904236957737,0.9964297958187167,0.08266022265271881,0.0070836743976732605,-0.015645163875815035
2102.649999999162,-0.054574795,-0.8942011,-0.009200037,-2.4467332,-0.03942826,1.5662833,0.8934874,0.04,0.04,-0.011663783012827444,0.010654037442020536,-0.018827349911298974,0.19530988579235603,-0.03217071060177792,-0.037495390285073524,0.996282234249626,0.08434793429681259,0.007246073218732484,-0.01595713386991815
2102.666666665829,-0.055687398,-0.8964323,-0.009387862,-2.448571,-0.040231314,1.5661883,0.8956718,0.04,0.04,-0.012905099597348979,0.010315549399550483,-0.019221435205296622,0.19706354193176917,-0.032355323791267446,-0.037811512370264394,0.9961303215304771,0.08605061083509497,0.007410267238783672,-0.016271534713883973
2102.6833333324957,-0.056809902,-0.89868325,-0.009577356,-2.4504242,-0.0410415,1.5660924,0.8978758,0.04,0.04,-0.01125708192002417,0.01002422197485392,-0.018437788221192797,0.19879719104992263,-0.032540026484674446,-0.03811535977253371,0.9959739855384738,0.08776812585007188,0.007576561075789437,-0.016588307256578467
2102.6999999991626,-0.057942178,-0.9009538,-0.009768501,-2.452294,-0.04185875,1.5659955,0.9000991,0.04,0.04,-0.013578934234437234,0.009636723973217853,-0.01878587365047313,0.2005092599951701,-0.032719572855090744,-0.03842709559863634,0.9958131723991617,0.08950022697050632,0.00774427549818516,-0.016907431666383185
2102.7166666658295,-0.059084136,-0.90324384,-0.009961277,-2.45418,-0.042682964,1.5658978,0.9023411,0.04,0.04,-0.01257288494915798,0.00935185069260297,-0.01816607042233187,0.2022001480765299,-0.03289987298741446,-0.03873026833593733,0.9956478318192503,0.09124655372261038,0.007913800108120816,-0.01722884776244059
2102.7333333324964,-0.060235646,-0.9055529,-0.0101556685,-2.456082,-0.04351408,1.5657994,0.9046018,0.04,0.04,-0.013484520027984281,0.009015012847798931,-0.01810995852640218,0.20387075486349612,-0.033078810078771934,-0.03902926310855682,0.9954778982682743,0.09300698313525768,0.008084785140492117,-0.017552532486490656
2102.7499999991633,-0.06139659,-0.907881,-0.010351653,-2.4579995,-0.044352017,1.5657003,0.9068811,0.04,0.04,-0.011950360456203235,0.008726141429438172,-0.017450956984665922,0.20552039306729977,-0.03326113577962646,-0.03931978439558367,0.995303297722413,0.09478141177326016,0.008257803811148587,-0.01787842838099001
2102.76666666583,-0.062566854,-0.91022784,-0.010549207,-2.4599323,-0.04519667,1.5656004,0.90917873,0.04,0.04,-0.012840180163520287,0.008356377186688468,-0.017510082358662693,0.20714785155770993,-0.033437296190653706,-0.03961618900858468,0.9951239737590969,0.09656963178404301,0.00843247448760925,-0.018206494473527044
2102.783333332497,-0.06374632,-0.912593,-0.010748315,-2.4618807,-0.046047967,1.5654995,0.9114944,0.04,0.04,-0.013341127314081547,0.008037961857172704,-0.0173528055440908,0.20875263580587872,-0.03361253264770779,-0.039901670681847745,0.994939874924934,0.0983713815764471,0.008608563499893534,-0.01853669888535361
2102.799999999164,-0.06493485,-0.9149763,-0.010948953,-2.4638438,-0.04690581,1.5653979,0.9138278,0.04,0.04,-0.012425262553450445,0.007716568651898459,-0.01678280069956628,0.21033512136345892,-0.03379050570760589,-0.04017780409229521,0.9947509412750436,0.10018645541193309,0.008786374182413985,-0.018868985482376147
2102.816666665831,-0.0661323,-0.91737765,-0.011151101,-2.4658215,-0.047770098,1.5652956,0.9161789,0.04,0.04,-0.012105649715254962,0.007362994184968719,-0.01641072197913207,0.2118945634034196,-0.033966031311777355,-0.04045986548794683,0.9945571065401348,0.10201472350438051,0.008966122275536744,-0.01920329841927452
2102.8333333324977,-0.06733859,-0.9197965,-0.011354735,-2.467814,-0.048640765,1.5651925,0.9185473,0.04,0.04,-0.013221867812207577,0.007075637710278471,-0.016348337545313285,0.21343049391869479,-0.03413726991783933,-0.04073476701835592,0.9943583259569027,0.10385590810526159,0.009147305085906611,-0.01953962030037327
2102.8499999991645,-0.06855355,-0.92223287,-0.011559836,-2.4698207,-0.04951769,1.5650886,0.9209327,0.04,0.04,-0.012532614196225644,0.0066886752552119955,-0.015959842748380915,0.214942588654522,-0.03430998459151258,-0.04100258598955647,0.9941545451227541,0.10570978029526797,0.009330195923347455,-0.019877882325031668
2102.8666666658314,-0.06977705,-0.9246863,-0.01176638,-2.471841,-0.050400794,1.5649841,0.9233349,0.04,0.04,-0.011765231898119843,0.006395483497340093,-0.015416451025562772,0.21643092286997087,-0.03448092129592213,-0.04126078802484974,0.9939457112945028,0.10757610817682012,0.009514978172898899,-0.020218039943656903
2102.8833333324983,-0.07100897,-0.9271567,-0.011974349,-2.4738755,-0.051289983,1.5648787,0.9257536,0.04,0.04,-0.012893182665707492,0.006050607246058104,-0.015538945597848297,0.2178952913972915,-0.03464803346723524,-0.04151818184579063,0.9937317753947665,0.10945468415899182,0.009701269620455656,-0.020560059683078752
2102.899999999165,-0.0722492,-0.92964375,-0.012183713,-2.4759238,-0.052185155,1.5647726,0.92818856,0.04,0.04,-0.012779853280830977,0.005716780510378605,-0.015158277056559477,0.21933532032040987,-0.03481460089432295,-0.04177002934667216,0.9935126860122478,0.11134529647074447,0.009889134770436167,-0.02090389198361487
2102.916666665832,-0.07349757,-0.93214726,-0.0123944525,-2.4779859,-0.053086206,1.564666,0.93063956,0.04,0.04,-0.013032212098873508,0.0053680717962245605,-0.014783381642247129,0.220750377228004,-0.03497940265280845,-0.04201639424977133,0.993288394933257,0.11324772019205971,0.010078578506670086,-0.021249485111404964
2102.933333332499,-0.07475394,-0.9346668,-0.0126065435,-2.480061,-0.053993043,1.5645586,0.9331064,0.04,0.04,-0.012432273040241526,0.00503339624730037,-0.014466677819280349,0.22214012957143148,-0.03514516419375503,-0.042249740196863686,0.9930588506405046,0.11516177039772747,0.01026957676928936,-0.021596795975349796
2102.949999999166,-0.076018184,-0.937202,-0.012819961,-2.4821491,-0.05490556,1.5644505,0.9355886,0.04,0.04,-0.012484765970643963,0.004727237614005064,-0.0139952144117661,0.22350399721266495,-0.03530712188891871,-0.042491832452334906,0.9928240229365377,0.11708709031076842,0.010462101036447928,-0.021945778741493872
2102.9666666658327,-0.07729014,-0.93975294,-0.0130346855,-2.4842503,-0.055823654,1.5643415,0.9380859,0.04,0.04,-0.012852784648575977,0.004328212560381073,-0.01418679346019136,0.22484244463247235,-0.03546860554841538,-0.042723549741243864,0.9925838656287677,0.1190234818772161,0.010656067224832002,-0.022296382813729674
2102.9833333324996,-0.07856969,-0.94231904,-0.01325069,-2.4863636,-0.05674722,1.5642321,0.94059813,0.04,0.04,-0.0118321171080904,0.004082792922843748,-0.013129288396274141,0.2261556756297411,-0.03562905101814505,-0.04295996282882936,0.9923383300151039,0.12097074108908923,0.010851807050141321,-0.022648551100188884
2102.9999999991664,-0.07985668,-0.9448998,-0.013467948,-2.4884887,-0.05767616,1.5641221,0.94312507,0.04,0.04,-0.01160535760911241,0.0037638144178342436,-0.012704052824719092,0.2274420607779873,-0.03578509543623075,-0.04318382739668993,0.9920873703862347,0.12292867940914887,0.011049266088509245,-0.023002239407367578
2103.0166666658333,-0.08115098,-0.94749534,-0.013686437,-2.4906266,-0.058610365,1.5640115,0.94566625,0.04,0.04,-0.013612710741228717,0.003354279492437384,-0.013158331623297492,0.22870187435556705,-0.03593840161942314,-0.04340190159444563,0.9918309676287015,0.12489694650155936,0.011247909862593417,-0.023357417045200245
2103.0333333325,-0.08245241,-0.9501051,-0.013906134,-2.492776,-0.05954974,1.5639004,0.94822156,0.04,0.04,-0.01178967121129304,0.0030857889202373645,-0.012110485399308146,0.22993488017187041,-0.03609274603423444,-0.043615308063900494,0.991569070316484,0.1268753804923101,0.011448220554200812,-0.023714022492561413
2103.049999999167,-0.08376086,-0.9527289,-0.014127008,-2.4949372,-0.06049416,1.5637885,0.95079046,0.04,0.04,-0.012824387198984155,0.0027072734772731755,-0.012361664153903718,0.2311407609892402,-0.03624448497275244,-0.043819497401376056,0.9913016629760987,0.12886362211264232,0.011649810917772249,-0.024072012429610597
2103.066666665834,-0.08507613,-0.9553665,-0.014349039,-2.4971092,-0.06144352,1.5636759,0.95337284,0.04,0.04,-0.011310785369711418,0.00240529937659828,-0.011674229971925243,0.2323198588734235,-0.036394625458802524,-0.04402410204347964,0.9910286992317121,0.13086150533985869,0.011853014026529645,-0.024431327793917934
2103.083333332501,-0.08639813,-0.9580176,-0.014572199,-2.4992926,-0.062397715,1.5635628,0.9559684,0.04,0.04,-0.012663144330526954,0.0020888194366935897,-0.011522832252963688,0.23347177111715042,-0.03654243044950022,-0.04422608341554907,0.9907501508546367,0.13286878447401862,0.012057564453815749,-0.024791930811322242
2103.0999999991677,-0.08772664,-0.9606818,-0.0147964675,-2.5014863,-0.063356616,1.5634493,0.95857674,0.04,0.04,-0.011065063629955851,0.0017525885964486676,-0.010653795625303886,0.23459522312566922,-0.03668811949032873,-0.044421309613813006,0.9904659914676185,0.13488515636572632,0.012263911013543101,-0.025153743755417027
2103.1166666658346,-0.089061566,-0.9633588,-0.015021812,-2.5036914,-0.06432017,1.5633352,0.9611976,0.04,0.04,-0.013534609424015187,0.0014389554233412705,-0.011073063324662513,0.23569145532732738,-0.03682865572704964,-0.044610534064862574,0.9901762020694699,0.1369103794883502,0.012471193641234531,-0.025516782179560014
2103.1333333325015,-0.0904027,-0.96604836,-0.015248208,-2.5059063,-0.06528823,1.5632205,0.9638308,0.04,0.04,-0.011044261900017283,0.0011206209632991238,-0.010162927472978645,0.23675962209843063,-0.036972822575522785,-0.044791837494749444,0.98988074314686,0.13894425408036337,0.012680100839197437,-0.02588095144656258
2103.1499999991684,-0.09174989,-0.96875,-0.015475628,-2.5081313,-0.06626066,1.5631055,0.96647596,0.04,0.04,-0.01183749762871944,0.0007757192706681071,-0.009779898987849478,0.2377987877256421,-0.037111776563993594,-0.04497012528209643,0.9895796043562869,0.1409864557821071,0.012890424534988707,-0.0262461975029221
2103.1666666658352,-0.09310302,-0.97146344,-0.015704045,-2.510366,-0.067237385,1.56299,0.96913266,0.04,0.04,-0.01181825919647217,0.0005216847873440456,-0.009540988044820509,0.23880964383451922,-0.03724735963227321,-0.045143740179212306,0.9892727667843091,0.1430367206053184,0.013102077175947397,-0.026612497648085567
2103.183333332502,-0.0944619,-0.97418845,-0.015933432,-2.5126102,-0.06821825,1.5628737,0.97180074,0.04,0.04,-0.011784136544168433,0.0001307336276235027,-0.009401280374787824,0.23979216435461015,-0.03738212379422933,-0.04530786045803815,0.9889602067464662,0.14509484129456843,0.013314942800755316,-0.026979785023297325
2103.199999999169,-0.09582638,-0.9769247,-0.016163765,-2.5148635,-0.06920317,1.5627568,0.97447973,0.04,0.04,-0.011314572946363732,-0.00014882245638336844,-0.008973424384151052,0.24074512399436515,-0.03751604101700808,-0.04547007798372292,0.9886419181140179,0.14716048046231875,0.013529110268485656,-0.02734801479592518
2103.216666665836,-0.097196296,-0.97967196,-0.016395012,-2.5171258,-0.07019198,1.5626396,0.9771695,0.04,0.04,-0.011498048487523782,-0.0004720398127877612,-0.008375524151027491,0.24166936724169225,-0.0376468748795875,-0.04562544031301907,0.9883178740747703,0.14923345859733556,0.013744672363886762,-0.027717117473022086
2103.2333333325028,-0.09857149,-0.9824298,-0.01662715,-2.5193973,-0.071184605,1.562522,0.97986954,0.04,0.04,-0.011930842550111898,-0.0007749694841852062,-0.008190875426117294,0.24256371049644676,-0.03777436526137316,-0.04577797106134371,0.9879880829390645,0.15131339664048862,0.013961389892288942,-0.028087071043205597
2103.2499999991696,-0.09995176,-0.98519784,-0.016860148,-2.5216768,-0.07218095,1.5624042,0.9825796,0.04,0.04,-0.010747664740184959,-0.001044737373012694,-0.007514556602972178,0.2434292083035838,-0.03790067287597887,-0.04592615585651416,0.9876525267834059,0.15340006316068625,0.014179533562115567,-0.028457824734372052
2103.2666666658365,-0.10133701,-0.98797584,-0.017093984,-2.5239646,-0.073180854,1.5622858,0.98529935,0.04,0.04,-0.01147384903208426,-0.0013604007517736827,-0.007484020142611847,0.24426565132083425,-0.0380238179137707,-0.046066713958081776,0.9873111982098793,0.15549322363758172,0.014398805147302494,-0.02882932018788318
2103.2833333325034,-0.102727026,-0.9907633,-0.017328631,-2.5262604,-0.07418421,1.562167,0.98802865,0.04,0.04,-0.011113440208498915,-0.0016654729972892524,-0.006873412577701465,0.2450714096263795,-0.03814462434108579,-0.04620216447686386,0.9869640840985735,0.15759265734237193,0.014619267578405459,-0.029201507952585637
2103.2999999991703,-0.10412167,-0.99356014,-0.017564049,-2.528564,-0.0751909,1.5620478,0.99076706,0.04,0.04,-0.011314367576642503,-0.001980301280757324,-0.006802582554854553,0.24584744988001606,-0.038263574935152055,-0.04633167862998712,0.9866111896857932,0.1596980548456485,0.014840801073726893,-0.02957435187438834
2103.316666665837,-0.10552076,-0.9963658,-0.01780022,-2.5308747,-0.07620082,1.5619283,0.99351406,0.04,0.04,-0.010595087734954767,-0.0022213484007466144,-0.006079395225433437,0.24659236714781405,-0.038381145001042866,-0.046455399640638884,0.9862525300538778,0.16180904106159633,0.015063551419264671,-0.02994779811088876
2103.333333332504,-0.10692411,-0.99917996,-0.018037109,-2.5331924,-0.07721384,1.5618081,0.9962695,0.04,0.04,-0.010587594364230846,-0.0025633539761815705,-0.005910782185503116,0.24730839168235094,-0.038495895281040166,-0.04657462120750227,0.9858880953202886,0.16392543460477088,0.015287373253227782,-0.0303218009753185
2103.349999999171,-0.10833158,-1.0020025,-0.018274698,-2.5355172,-0.07822979,1.5616875,0.999033,0.04,0.04,-0.011165574728999594,-0.0028721973405393397,-0.0057273327394691265,0.2479936690694034,-0.038608288607008115,-0.046688733624069355,0.985517903837399,0.1660469003532948,0.015512113457336605,-0.030696293507343247
2103.366666665838,-0.109742984,-1.004833,-0.018512951,-2.5378485,-0.07924858,1.5615666,1.0018042,0.04,0.04,-0.01023111198621418,-0.003131151752727712,-0.004998451540472182,0.248648023639561,-0.03871965237680483,-0.04679715731806162,0.9851419484251677,0.1681732250660919,0.01573807234854689,-0.031071223063888473
2103.3833333325047,-0.11115814,-1.0076709,-0.018751847,-2.5401862,-0.08027007,1.5614455,1.0045826,0.04,0.04,-0.010812438071083896,-0.0034148368915076777,-0.00461004252662045,0.24927249202987056,-0.03882679875336008,-0.04690186252900298,0.9847602725396761,0.1703039647785405,0.01596494641789148,-0.031446552977492125
2103.3999999991715,-0.11257687,-1.0105163,-0.01899134,-2.542529,-0.08129418,1.5613242,1.0073682,0.04,0.04,-0.00866307795779342,-0.0036304658970337522,-0.004021402472320634,0.24986715982705088,-0.03893371846824954,-0.04700152560043325,0.9843728466630121,0.1724390242148048,0.016193454980477577,-0.031822220164523206
2103.4166666658384,-0.113999054,-1.0133679,-0.019231416,-2.5448775,-0.08232078,1.5612028,1.0101607,0.04,0.04,-0.010329236224548843,-0.003853163542533178,-0.0034859402103903925,0.25043082734170735,-0.03903249045922093,-0.04709374344145717,0.9839796892465132,0.17457817512746956,0.016422764498335407,-0.03219820997710842
2103.4333333325053,-0.115424484,-1.0162263,-0.01947204,-2.5472317,-0.08334972,1.561081,1.0129597,0.04,0.04,-0.010231427772611212,-0.004261308095712679,-0.003739287658810486,0.2509619912421182,-0.03913036059426775,-0.04718099189127181,0.9835808196674242,0.1767211144434713,0.016653051719615716,-0.03257444950631048
2103.449999999172,-0.11685299,-1.0190908,-0.019713186,-2.5495915,-0.08438087,1.560959,1.0157645,0.04,0.04,-0.010945078884017079,-0.004536428709128737,-0.0033829238781257764,0.2514620153215601,-0.039224903360785754,-0.047264786805953245,0.9831763101335274,0.17886731012387241,0.01688389050409407,-0.032950915051303625
2103.466666665839,-0.11828441,-1.0219615,-0.019954816,-2.5519555,-0.08541416,1.5608367,1.018575,0.04,0.04,-0.007972512702014711,-0.004676661644018032,-0.0026229125564491973,0.2519323048256391,-0.03932011520114453,-0.04734368830103379,0.9827661310244982,0.18101669001494636,0.01711623669879745,-0.033327527487688205
2103.483333332506,-0.11971855,-1.024837,-0.02019691,-2.5543246,-0.08644939,1.5607142,1.0213908,0.04,0.04,-0.011167408375434285,-0.005036546013548193,-0.0022565878892488733,0.25237156596108884,-0.03940787353586967,-0.04741523775496869,0.9823503394900501,0.18316890579593903,0.017348897741646427,-0.033704275699852036
2103.499999999173,-0.121155255,-1.0277176,-0.020439433,-2.5566976,-0.08748647,1.5605915,1.0242121,0.04,0.04,-0.00871675322662302,-0.005222946051477995,-0.0018509046885162306,0.25277952359456757,-0.03949848815016831,-0.047484102532611164,0.9819289017836793,0.18532395005101732,0.017582532984738275,-0.03408107852205105
2103.5166666658397,-0.122594334,-1.0306047,-0.020682355,-2.5590749,-0.08852527,1.5604684,1.0270376,0.04,0.04,-0.008138124917755896,-0.005633376716032701,-0.0025414874732732073,0.25315440128211103,-0.039585760420109146,-0.047547515750564276,0.981501927170971,0.18748107029945238,0.01781771834195061,-0.034457860527445205
2103.5333333325066,-0.12403561,-1.0334963,-0.020925649,-2.5614555,-0.08956565,1.5603452,1.0298673,0.04,0.04,-0.00843570270796512,-0.005751417938779091,-0.0010872871391232053,0.25349988939992174,-0.039662213592489275,-0.047603947645223,0.9810694296712434,0.18964014122790676,0.01805386136891333,-0.034834596154864866
2103.5499999991735,-0.12547892,-1.0363903,-0.021169282,-2.5638392,-0.090607494,1.5602218,1.0327009,0.04,0.04,-0.009681686463736128,-0.005872283363847486,5.959473204919519e-05,0.2538146362900626,-0.03973605052358443,-0.04765550240750215,0.9806314515413603,0.19180091138891295,0.01829018862824451,-0.03521129986538553
2103.5666666658403,-0.1269241,-1.0392879,-0.02141324,-2.5662258,-0.0916507,1.5600982,1.0355383,0.04,0.04,-0.008374270357158764,-0.006172707958823631,-0.0003314701865986258,0.2540987972717531,-0.03981175927261643,-0.047703281571320554,0.9801879936862661,0.19396324057485298,0.01852729501998007,-0.0355878866784319
2103.583333332507,-0.12837093,-1.0421894,-0.02165748,-2.5686157,-0.09269513,1.5599744,1.038379,0.04,0.04,-0.008949091338572579,-0.006545068459656855,-0.0004090235961928812,0.25434979713405104,-0.03988354738289103,-0.047745861496661705,0.9797391279609772,0.19612669397895724,0.018765113902083047,-0.03596430941072312
2103.599999999174,-0.12981926,-1.0450947,-0.021901967,-2.5710082,-0.09374066,1.5598507,1.0412228,0.04,0.04,-0.007592786338261881,-0.006738548101939412,-7.922660927306424e-06,0.25457023054738726,-0.03995382977133802,-0.04778411006601784,0.9792848494192957,0.19829118961659525,0.01900412265809514,-0.036340488993118175
2103.616666665841,-0.13126892,-1.0480013,-0.022146678,-2.5734026,-0.094787166,1.5597266,1.0440698,0.04,0.04,-0.008892566092888465,-0.006803034172048195,0.001331804703819106,0.25475739304579725,-0.04001634774696233,-0.0478160535914612,0.9788252039016205,0.2004565371877775,0.01924313341889451,-0.0367164639073348
2103.633333332508,-0.13271971,-1.0509112,-0.022391578,-2.575799,-0.0958345,1.5596025,1.0469182,0.04,0.04,-0.006899974027141376,-0.007206150937766331,0.0007397727254776498,0.25491113790552156,-0.04008219921567209,-0.04784594415537273,0.9783603474675029,0.20262182790762884,0.019483365005588307,-0.03709209951859493
2103.6499999991747,-0.1341715,-1.0538224,-0.022636643,-2.5781968,-0.09688253,1.5594784,1.049769,0.04,0.04,-0.007849415017169292,-0.00727330738049814,0.0019179248000766869,0.2550369732891786,-0.040139270403273426,-0.04786831728128253,0.9778902013810167,0.20478747581959153,0.01972406557522095,-0.03746738618611144
2103.6666666658416,-0.13562404,-1.0567349,-0.022881841,-2.580596,-0.09793115,1.5593541,1.0526209,0.04,0.04,-0.007922984572217295,-0.0075992741119051965,0.00185957233751477,0.2551281397365942,-0.040194110121849674,-0.04788509611287643,0.9774149500617136,0.20695258020496257,0.019965091193698756,-0.037842305373664974
2103.6833333325085,-0.1370772,-1.0596501,-0.023127137,-2.5829961,-0.09898024,1.5592297,1.0554745,0.04,0.04,-0.005887852701991214,-0.007818286789074147,0.001716388541994629,0.25519066666917073,-0.040249552556377986,-0.04789781418009639,0.9769344971535571,0.20911749648227457,0.020207468524031873,-0.03821673916182197
2103.6999999991754,-0.13853079,-1.0625656,-0.02337251,-2.5853968,-0.10002963,1.5591054,1.058329,0.04,0.04,-0.0070262812532195795,-0.00793285870560323,0.0030034227036401795,0.25521843281954687,-0.040294164671925196,-0.04790198160123356,0.9764489865149989,0.2112816169380252,0.020450288349797566,-0.03859068260986505
2103.7166666658422,-0.13998462,-1.0654817,-0.023617927,-2.5877979,-0.10107921,1.5589811,1.0611837,0.04,0.04,-0.0068072248514017275,-0.00820078218762843,0.0030017934187331896,0.2552151971764508,-0.040335581061674584,-0.047905127658876806,0.9759585041078628,0.2134445366534692,0.020693660150048202,-0.03896409195558057
2103.733333332509,-0.14143853,-1.068398,-0.023863351,-2.590199,-0.10212885,1.5588567,1.0640385,0.04,0.04,-0.006285741749101348,-0.008371786492070155,0.0034289732220638136,0.25518134925093505,-0.04037496569525082,-0.047901769389061,0.9754630854286449,0.21560610137443909,0.02093764189804975,-0.039336918637490045
2103.749999999176,-0.14289233,-1.0713128,-0.024108754,-2.5925999,-0.10317837,1.5587324,1.0668932,0.04,0.04,-0.007392513321891059,-0.008515201585421184,0.004400158520345698,0.2551165050069763,-0.0404056109330544,-0.04790381829821776,0.9749628055499059,0.21776606077167873,0.021181456336046275,-0.039709148539425726
2103.766666665843,-0.14434585,-1.074227,-0.024354119,-2.5950005,-0.10422772,1.558608,1.0697477,0.04,0.04,-0.006551074829008741,-0.008741151001123715,0.004069124804806368,0.255019210351831,-0.040442934357996965,-0.047885782202128024,0.9744576928383087,0.21992426936609652,0.02142557908754154,-0.04008073318681105
2103.7833333325098,-0.14579889,-1.0771414,-0.024599403,-2.5974007,-0.10527671,1.5584837,1.0726005,0.04,0.04,-0.005419559872676949,-0.00908115295204237,0.0039070662446349935,0.25488847521653274,-0.040479178837246145,-0.04786341478934428,0.9739479259140019,0.222079934410321,0.021670514783728157,-0.04045156522471922
2103.7999999991766,-0.14725128,-1.0800532,-0.024844576,-2.5997994,-0.10632527,1.5583595,1.0754521,0.04,0.04,-0.006150837913398988,-0.008986273853964222,0.0056587164381283195,0.25473063583879574,-0.04050554924192455,-0.04784150802921396,0.9734335095074336,0.22423315444956818,0.021915384754043234,-0.04082169673983886
2103.8166666658435,-0.14870284,-1.0829644,-0.025089612,-2.6021976,-0.107373245,1.5582355,1.0783027,0.04,0.04,-0.005999127775746516,-0.009418338712580132,0.004631359457740736,0.2545402781343257,-0.04053370861541226,-0.04780972215010913,0.972914438752408,0.226383954886973,0.022160786868074062,-0.04119101069660422
2103.8333333325104,-0.15015341,-1.0858725,-0.025334476,-2.6045935,-0.10842053,1.5581115,1.0811508,0.04,0.04,-0.004905327325332998,-0.009314942481902788,0.006295788754728804,0.25431600928539033,-0.04055718045525359,-0.04777414308259046,0.972390944685758,0.2285314314285815,0.02240627197496105,-0.04155952981599728
2103.8499999991773,-0.15160279,-1.0887798,-0.025579143,-2.6069875,-0.10946696,1.5579876,1.0839974,0.04,0.04,-0.0037859853116550823,-0.009751291907070248,0.005260116357586053,0.2540634040461173,-0.040579442809111445,-0.04773080115322333,0.9718629101048952,0.23067608268592826,0.022652753952240035,-0.04192709836726746
2103.866666665844,-0.15305082,-1.0916843,-0.025823582,-2.6093798,-0.11051238,1.5578637,1.0868409,0.04,0.04,-0.00573092385427465,-0.009860380257098456,0.006172629600453838,0.2537757001813129,-0.040589439811320634,-0.04768429491425942,0.9713305969175462,0.23281696109566316,0.022899187398955276,-0.04229375053659086
2103.883333332511,-0.15449737,-1.0945855,-0.026067764,-2.611769,-0.11155672,1.5577401,1.0896811,0.04,0.04,-0.0037036548428126537,-0.009811590104930046,0.0070841324707360265,0.25345897380309945,-0.04060014268591351,-0.04763597881192646,0.9707940430549608,0.23495395038893668,0.023146045013387097,-0.04265943935255577
2103.899999999178,-0.15594216,-1.0974833,-0.026311655,-2.6141553,-0.11259985,1.5576165,1.092518,0.04,0.04,-0.00425598668367666,-0.010135592923454784,0.006989149388136884,0.25311219363428267,-0.04060321028585694,-0.047582029942165906,0.9702533413456857,0.23708678488027554,0.023393026133930652,-0.04302413707401053
2103.916666665845,-0.15738507,-1.1003772,-0.026555227,-2.6165385,-0.11364162,1.5574931,1.0953511,0.04,0.04,-0.004026276072144341,-0.01022936899466309,0.007471168302419784,0.2527345124646514,-0.040604688764387886,-0.04752269806142814,0.9697085620900306,0.23921527152368463,0.02364018248591689,-0.043387789194284626
2103.9333333325117,-0.15882592,-1.1032666,-0.026798455,-2.6189187,-0.11468191,1.55737,1.0981802,0.04,0.04,-0.004579315986208421,-0.01037822146366385,0.00785676683981995,0.25232578588224097,-0.04060184502590813,-0.04745927716427823,0.9691598093147045,0.24133912302753963,0.023887149380786,-0.043750380567986295
2103.9499999991785,-0.16026455,-1.1061507,-0.027041307,-2.621295,-0.115720555,1.557247,1.1010052,0.04,0.04,-0.0039043265522620274,-0.010465370646334238,0.008483760956046194,0.25188664379239256,-0.0405971799830219,-0.04739063933237154,0.9686071322556185,0.24345825373899843,0.024133924518913864,-0.04411185461097292
2103.9666666658454,-0.16170077,-1.1090312,-0.027283747,-2.6236672,-0.1167575,1.5571243,1.1038254,0.04,0.04,-0.002207395450626315,-0.01072104916599037,0.007915819348003339,0.251415146104549,-0.04059169072784553,-0.047318343039354165,0.9680506442044439,0.24557225143826547,0.024381323927337346,-0.04447213309987543
2103.9833333325123,-0.16313437,-1.1119057,-0.027525749,-2.6260352,-0.117792554,1.5570017,1.1066402,0.04,0.04,-0.0035855677892771,-0.010780809733884622,0.009117748593834296,0.25091312630947793,-0.04057820791671462,-0.04724055979379867,0.9674905246007242,0.2476806172976794,0.024628380032520502,-0.04483123375315141
2103.999999999179,-0.16456519,-1.1147752,-0.027767284,-2.628399,-0.11882565,1.5568793,1.1094501,0.04,0.04,-0.0027889421542193205,-0.01098072196540345,0.008705011102649873,0.25038230449010807,-0.040563155749136146,-0.04715817502462771,0.9669267386761654,0.24978357936211823,0.0248755209070144,-0.0451890913133674
2104.016666665846,-0.1659931,-1.1176383,-0.028008327,-2.6307576,-0.119856626,1.5567572,1.1122538,0.04,0.04,-0.0025116875321584686,-0.010976013822378006,0.009734291356877645,0.24981905436763863,-0.040543314800084045,-0.04707018689413525,0.9663595124844028,0.2518804125180526,0.025122535220549122,-0.04554567646588753
2104.033333332513,-0.16741787,-1.1204956,-0.028248841,-2.6331108,-0.120885395,1.5566355,1.1150514,0.04,0.04,-0.0013459769916623898,-0.011124990329658413,0.009827456386168887,0.24922699736255277,-0.040521644067317994,-0.046978443790592225,0.9657888812240866,0.2539710859661311,0.025369841274859813,-0.04590093191646295
2104.04999999918,-0.16883935,-1.1233467,-0.02848881,-2.635459,-0.12191174,1.5565141,1.1178429,0.04,0.04,-0.002215042554376545,-0.011387393758793829,0.009800697962092375,0.24860468695154392,-0.04049146139891463,-0.04688084596168115,0.9652149192346757,0.2560554959094649,0.025617136538237727,-0.046254783719501556
2104.0666666658467,-0.1702574,-1.1261905,-0.028728196,-2.6378014,-0.12293562,1.556393,1.1206274,0.04,0.04,-0.001941676458816488,-0.011324563828235545,0.01049063686240359,0.2479512178771956,-0.04045712065591762,-0.046778880988293886,0.9646378115574616,0.2581331108950869,0.025864102494563685,-0.04660727170095581
2104.0833333325136,-0.17167176,-1.1290271,-0.028966967,-2.640138,-0.12395689,1.5562721,1.1234049,0.04,0.04,-0.0014759061684799235,-0.01155917432611453,0.010668248853518136,0.24726838871262374,-0.04042034925933246,-0.04667161649968353,0.9640576332929193,0.26020380095060797,0.026110856856534644,-0.04695833062119323
2104.0999999991805,-0.17308237,-1.1318562,-0.029205093,-2.642468,-0.124975435,1.5561515,1.1261748,0.04,0.04,-0.0007925604794456476,-0.011547957479413062,0.010960351321132045,0.24655643296615115,-0.04037930337755085,-0.046560146569284186,0.9634744931530521,0.26226731287658184,0.026357502381254908,-0.04730792436990349
2104.1166666658473,-0.17448898,-1.1346768,-0.029442545,-2.6447916,-0.12599112,1.5560311,1.128937,0.04,0.04,-0.001502223924854107,-0.011702916945571795,0.01142680736442303,0.24581411567524747,-0.04033401636660559,-0.04644403903827852,0.9628885173325178,0.26432339132392196,0.02660355759007667,-0.047656045909810665
2104.133333332514,-0.17589143,-1.1374891,-0.029679302,-2.6471078,-0.1270038,1.555911,1.131691,0.04,0.04,0.0002882753056265841,-0.01176148309150471,0.011756348151281681,0.2450424262963381,-0.04028844144243034,-0.04632403315008717,0.9622998171688579,0.2663717597419582,0.026849540057606217,-0.04800260084047646
2104.149999999181,-0.17728958,-1.1402934,-0.02991533,-2.6494174,-0.12801348,1.5557911,1.1344362,0.04,0.04,-0.0005348696941354092,-0.011904223674208403,0.011508693431150352,0.2442421229866637,-0.04023577135205974,-0.04619850718099808,0.9617085313313248,0.2684120937213323,0.027095321278438122,-0.04834761910885822
2104.166666665848,-0.17868325,-1.143088,-0.0301506,-2.6517193,-0.12901983,1.5556719,1.137173,0.04,0.04,-0.00010654589130965064,-0.011934292213566788,0.01273878489493896,0.24341336885090337,-0.04017907236238572,-0.04606812842612787,0.9611147144922809,0.2704444149519413,0.027340659136331248,-0.04869098854731444
2104.183333332515,-0.18007231,-1.1458738,-0.030385084,-2.6540136,-0.13002281,1.5555532,1.1399006,0.04,0.04,0.0005933455159201628,-0.012076212830125499,0.012366530860441483,0.24255454934951,-0.04011837664102013,-0.04593428279247483,0.9605185352703908,0.27246827042435107,0.027585887952675258,-0.04903268093677937
2104.1999999991817,-0.1814565,-1.1486493,-0.030618763,-2.6563,-0.13102236,1.5554352,1.1426188,0.04,0.04,1.623551253437938e-05,-0.012062715883315311,0.013239527731034872,0.24166773028356903,-0.04005229265918877,-0.045794794307540646,0.9599200975341087,0.27448351753306244,0.027830534171373763,-0.04937272850998399
2104.2166666658486,-0.18283579,-1.1514153,-0.030851599,-2.658578,-0.13201837,1.5553174,1.1453271,0.04,0.04,0.0017146669414325189,-0.012141699071555045,0.012875291734770755,0.24075167844493706,-0.03998332711768501,-0.04565076866113471,0.9593195198785065,0.276489893465543,0.028075050560967183,-0.0497110563907415
2104.2333333325155,-0.18420987,-1.154171,-0.031083573,-2.660848,-0.13301067,1.5552001,1.1480254,0.04,0.04,-2.2848407565945195e-05,-0.012383061439746879,0.013228742728943477,0.23980795985646003,-0.03990835759621263,-0.04550162455185902,0.9587169457482678,0.27848715690379683,0.028318780067670996,-0.0500476579894794
2104.2499999991824,-0.18557864,-1.1569158,-0.03131465,-2.6631088,-0.13399915,1.555083,1.1507132,0.04,0.04,0.0016319430702793625,-0.012315427579034921,0.013657678261735917,0.23883556008468332,-0.03983152967384144,-0.04534868245459531,0.9581124967517781,0.2804750674319719,0.02856194273519685,-0.05038249243830735
2104.2666666658492,-0.1869419,-1.1596498,-0.031544805,-2.6653607,-0.13498367,1.5549663,1.1533904,0.04,0.04,0.0018387336913061603,-0.012485804579243087,0.013760664342199469,0.23783558382775885,-0.039749937579064344,-0.0451906758487053,0.9575062758030785,0.28245347039793867,0.028804649630382893,-0.05071549090317997
2104.283333332516,-0.18829957,-1.1623725,-0.031774007,-2.667603,-0.13596414,1.55485,1.1560565,0.04,0.04,0.0021689504268618265,-0.012426833452910957,0.014208935278769985,0.2368075942520954,-0.03966467076828853,-0.04502937698634561,0.9568984245346318,0.2844220980795005,0.029046765543937376,-0.05104665178667652
2104.299999999183,-0.18965147,-1.1650836,-0.03200223,-2.6698363,-0.1369404,1.5547341,1.1587111,0.04,0.04,0.0014678643966314908,-0.012597664274299758,0.0141874784366669,0.23575156197906982,-0.03957747345564982,-0.04485856391613559,0.9562891051172112,0.2863806341660747,0.02928809490165251,-0.05137594092366484
2104.31666666585,-0.1909974,-1.1677825,-0.03222945,-2.6720595,-0.1379124,1.5546192,1.161354,0.04,0.04,0.002694439118422487,-0.012497098688640795,0.015200083166433398,0.23466920399438113,-0.03948702226477077,-0.04468353345809725,0.9556784195458543,0.2883289226282938,0.02952892924265273,-0.05170331834735249
2104.3333333325168,-0.19233721,-1.1704694,-0.032455646,-2.6742723,-0.13887997,1.5545049,1.1639848,0.04,0.04,0.0036485005926456537,-0.01261073746482988,0.015039976194253235,0.23356023049668162,-0.03939013338004961,-0.044508124497356645,0.9550664903275521,0.290266760793556,0.029769430440213063,-0.05202871940663116
2104.3499999991836,-0.19367075,-1.1731437,-0.032680783,-2.6764758,-0.13984303,1.554391,1.1666037,0.04,0.04,0.0012732227564260512,-0.012826050581415949,0.01479173400834588,0.2324244467844947,-0.03928498180131866,-0.044327615260554856,0.9544534247152818,0.29219408828443383,0.030008710091254994,-0.052352193264057996
2104.3666666658505,-0.19499786,-1.1758053,-0.032904845,-2.6786675,-0.14080147,1.5542777,1.1692098,0.04,0.04,0.005249485285663269,-0.012611524091293846,0.015659723913297174,0.23126073173470116,-0.039181857762578626,-0.04414401734427305,0.9538393774706149,0.294110526768827,0.03024780564621846,-0.05267362037891041
2104.3833333325174,-0.19631843,-1.1784536,-0.03312779,-2.680849,-0.14175518,1.5541646,1.171803,0.04,0.04,0.002377126368147131,-0.012837502975299175,0.015371280276921251,0.23007147834847474,-0.03906861809345826,-0.043954826733618696,0.9532245160994366,0.29601584784424695,0.030485640699781946,-0.052993069765493
2104.3999999991843,-0.19763222,-1.1810882,-0.0333496,-2.683019,-0.14270401,1.554052,1.1743828,0.04,0.04,0.004721190944989573,-0.012815933642329469,0.01595972509449428,0.22885578468978668,-0.038955581673476104,-0.04376219385636958,0.9526089662807601,0.29790982602968774,0.030722792389996534,-0.053310439355009225
2104.416666665851,-0.19893916,-1.1837094,-0.033570237,-2.6851778,-0.14364791,1.55394,1.176949,0.04,0.04,0.0038028383845922775,-0.012873996291268286,0.015949972345186136,0.22761508927339014,-0.03883731136600928,-0.043565783727933856,0.9519928561757798,0.29979228469207303,0.03095913239354836,-0.053625739629647
2104.433333332518,-0.20023908,-1.1863163,-0.033789705,-2.687325,-0.14458677,1.5538292,1.1795018,0.04,0.04,0.00459046893936943,-0.012758508028165583,0.016756899005276882,0.22634928009594102,-0.038715442836582355,-0.0433642452532181,0.9513762578367636,0.30166321500221627,0.031194775783059382,-0.05393891640446058
2104.449999999185,-0.20153183,-1.1889086,-0.03400795,-2.6894605,-0.14552045,1.5537189,1.1820403,0.04,0.04,0.004323323862509554,-0.01292866080018773,0.016533334337398564,0.22505643311408538,-0.03858725495018601,-0.04315797469437639,0.9507593803666284,0.3035222197583425,0.03142934235320217,-0.05424996955831951
2104.466666665852,-0.20281722,-1.1914862,-0.03422497,-2.6915839,-0.14644885,1.5536091,1.1845646,0.04,0.04,0.0050905249623589555,-0.012967265475094525,0.016664134709032385,0.22373926825878435,-0.03845737929154331,-0.04294726263351656,0.950142331687344,0.3053691847564538,0.0316629422626071,-0.05455885468180898
2104.4833333325187,-0.20409513,-1.1940488,-0.03444072,-2.6936946,-0.14737183,1.5534998,1.1870742,0.04,0.04,0.005625112304352697,-0.01297038704489717,0.017000873789951854,0.22239692832751698,-0.03832236382008334,-0.04273284577000336,0.949525255420683,0.3072039002271628,0.03189555799013735,-0.05486553001661409
2104.4999999991855,-0.20536542,-1.1965963,-0.034655187,-2.6957932,-0.14828931,1.553391,1.1895686,0.04,0.04,0.004986317856614519,-0.013077541922967839,0.016817719666684106,0.2210295881009502,-0.03818470444560147,-0.042514832061780874,0.948908326481694,0.3090260762455439,0.03212699397009171,-0.05516999540003274
2104.5166666658524,-0.20662798,-1.1991283,-0.034868337,-2.6978786,-0.14920118,1.553283,1.1920482,0.04,0.04,0.00646967174473545,-0.01294236362051615,0.01754458573132167,0.2196390790453559,-0.03804359785788183,-0.04229275843622452,0.9482915832531799,0.3108357951414516,0.0323576647786196,-0.055472183299681885
2104.5333333325193,-0.20788263,-1.2016444,-0.035080157,-2.6999507,-0.15010738,1.5531759,1.194512,0.04,0.04,0.006735689622461294,-0.01293746219115377,0.017842657029165654,0.21822320917540045,-0.0378975063918991,-0.04206560653299863,0.9476752555130132,0.31263259088517886,0.03258754280631736,-0.055772083147501775
2104.549999999186,-0.2091292,-1.2041442,-0.03529063,-2.7020102,-0.1510078,1.5530695,1.1969599,0.04,0.04,0.005108309342927164,-0.013117945602419967,0.017553050487817412,0.21678475743562065,-0.037743262938874325,-0.041834976526240464,0.9470595119811437,0.31441626134117917,0.032815846986976004,-0.0560697383336199
2104.566666665853,-0.2103676,-1.2066278,-0.035499718,-2.704056,-0.1519023,1.5529635,1.1993917,0.04,0.04,0.00687531705727551,-0.013081144501453368,0.0177133071728397,0.2153228836593276,-0.0375916103151627,-0.041593887584981684,0.9464444152997313,0.31618682207754323,0.03304304117538085,-0.05636505763623302
2104.58333333252,-0.21159765,-1.2090948,-0.035707407,-2.706088,-0.15279083,1.5528581,1.2018074,0.04,0.04,0.007055534645328265,-0.01306940818743274,0.01805045936890126,0.2138383130590811,-0.037435073212886506,-0.04135434857163726,0.9458301105176682,0.31794408088915016,0.033269056469547635,-0.056658038682212655
2104.599999999187,-0.21281928,-1.2115448,-0.035913665,-2.7081065,-0.15367317,1.5527537,1.2042063,0.04,0.04,0.006673205729601506,-0.01312374980743658,0.018318668533279236,0.21233012864123132,-0.037274070275455325,-0.04111146886915002,0.9452167732851932,0.3196877719114908,0.033493807618852074,-0.05694861580219264
2104.6166666658537,-0.21403232,-1.2139775,-0.036118478,-2.71011,-0.15454938,1.5526501,1.2065885,0.04,0.04,0.008911950224588239,-0.012898460473548257,0.018765829142419754,0.21080035728942062,-0.03710930444552194,-0.04086563100045371,0.9446044880460219,0.3214178348270368,0.0337177635172487,-0.057236780498272674
2104.6333333325206,-0.21523665,-1.2163926,-0.03632181,-2.7120993,-0.15541928,1.5525471,1.2089535,0.04,0.04,0.00709805203953362,-0.013141923605702877,0.01840429907183916,0.20924849429632786,-0.03693615170710959,-0.040614744803377956,0.9439934460102761,0.32313401725145213,0.033940196202068666,-0.05752255093741138
2104.6499999991875,-0.21643212,-1.2187899,-0.036523666,-2.7140741,-0.15628278,1.5524448,1.2113011,0.04,0.04,0.007775441339785694,-0.013074568848581158,0.01874580447559504,0.20767487434936355,-0.036762612109570623,-0.040361634032860534,0.9433837777047007,0.3248361732781261,0.03416120924074084,-0.057805884448223384
2104.6666666658543,-0.21761861,-1.2211692,-0.036723994,-2.716034,-0.15713985,1.5523432,1.2136312,0.04,0.04,0.008599573880196942,-0.013034478367796032,0.018917518109606846,0.20607985999845807,-0.036585256114664434,-0.040104074535875854,0.9427755895721327,0.32652421539092735,0.03438097367132568,-0.058086772329578935
2104.683333332521,-0.21879601,-1.2235302,-0.036922783,-2.7179787,-0.1579904,1.5522425,1.2159433,0.04,0.04,0.008462588185809139,-0.01301236789349458,0.019106001765589742,0.20446331792836883,-0.03640413235315311,-0.039843320403045814,0.942169041589456,0.32819793551383464,0.03459935324297349,-0.058365203246717
2104.699999999188,-0.21996418,-1.2258729,-0.037120033,-2.7199087,-0.15883425,1.5521427,1.2182373,0.04,0.04,0.008263798792662591,-0.013136233042032597,0.01908700889681203,0.20282564171985124,-0.03621911521407133,-0.03957790350404784,0.9415643005506015,0.3298571081395708,0.03481632684109776,-0.058641107797770604
2104.716666665855,-0.22112298,-1.2281969,-0.037315704,-2.721823,-0.15967135,1.5520437,1.2205127,0.04,0.04,0.009550906563626782,-0.013033350395780241,0.019341480320844706,0.20116861263667907,-0.0360304543471075,-0.039309701061386114,0.9409614871682923,0.33150161856844196,0.03503200042678692,-0.05891447613818219
2104.733333332522,-0.22227232,-1.2305018,-0.03750975,-2.7237215,-0.16050163,1.5519452,1.22277,0.04,0.04,0.009335528114950975,-0.013050261397179463,0.019357341132408834,0.19949223078971912,-0.03583719954052529,-0.039036207632890674,0.9403606660824066,0.3331315432425905,0.03524613949917866,-0.05918532108781029
2104.7499999991887,-0.22341207,-1.2327876,-0.03770221,-2.7256045,-0.161325,1.5518478,1.2250081,0.04,0.04,0.009177172997532068,-0.013032712042010397,0.019606864634169607,0.19779410519005414,-0.035642329700053745,-0.038759594709513984,0.9397620801485858,0.33474643343768024,0.0354588278405073,-0.05945359151248175
2104.7666666658556,-0.22454213,-1.2350539,-0.037893016,-2.727471,-0.16214134,1.5517515,1.2272272,0.04,0.04,0.010550918883178717,-0.01292201413941596,0.020025844166038365,0.19607817887394458,-0.035442202608356885,-0.03848058218821742,0.9391658078887455,0.3363462892473304,0.03567029519411556,-0.05971925186232525
2104.7833333325225,-0.22566243,-1.2373004,-0.038082182,-2.729322,-0.16295059,1.5516558,1.229427,0.04,0.04,0.009062982208507542,-0.013038959120914573,0.01951650801937932,0.1943427474411992,-0.03523852848568023,-0.03819052672261763,0.9385720077212919,0.3379309743998402,0.035879815796227704,-0.05998234474932293
2104.7999999991894,-0.2267727,-1.2395272,-0.038269658,-2.731156,-0.16375266,1.5515608,1.2316074,0.04,0.04,0.01091778977444502,-0.013060960503480379,0.01986839396955764,0.19258848770118753,-0.0350346754574563,-0.03790256638209319,0.9379807720965068,0.3395004199240757,0.03608797887690521,-0.060242790682350444
2104.8166666658562,-0.22787294,-1.2417336,-0.038455438,-2.7329733,-0.1645475,1.5514666,1.2337681,0.04,0.04,0.010844389948228006,-0.012863111276328887,0.020227026704566775,0.19081627255651468,-0.034823039189287766,-0.037611822202245765,0.9373922705624875,0.3410544148189143,0.036294524264646195,-0.060500617605403165
2104.833333332523,-0.22896306,-1.24392,-0.038639512,-2.7347739,-0.165335,1.5513734,1.235909,0.04,0.04,0.010996975442267853,-0.012956968042487915,0.02002202615003501,0.1890263007804581,-0.03460917534439333,-0.037318607419558,0.9368065900639625,0.34259294394451656,0.03649967806655922,-0.060755749301591444
2104.84999999919,-0.2300429,-1.2460854,-0.038821857,-2.7365577,-0.16611515,1.5512812,1.2380297,0.04,0.04,0.010348608274712845,-0.012863659035616815,0.020431906032669644,0.18721834533053122,-0.03438927746743217,-0.037021777665314,0.9362239209537763,0.34411575697783964,0.03670295617045922,-0.06100826699599947
2104.866666665857,-0.23111242,-1.24823,-0.039002452,-2.7383246,-0.16688782,1.5511897,1.2401301,0.04,0.04,0.01075475625256228,-0.012927193668571535,0.020083466153919538,0.18539356164030796,-0.03416772802680223,-0.03672265783602435,0.9356443835809384,0.3456227756061163,0.03690427994531405,-0.06125813070513798
2104.8833333325238,-0.23217143,-1.2503539,-0.03918128,-2.7400742,-0.16765296,1.5510991,1.2422098,0.04,0.04,0.011961007076188857,-0.012874788567213136,0.020382549563457975,0.1835517773488659,-0.03394572646672204,-0.03642024806486362,0.9350681044141084,0.3471138454007202,0.03710416963386287,-0.06150527647537657
2104.8999999991906,-0.23321989,-1.2524568,-0.039358325,-2.7418063,-0.16841048,1.5510094,1.2442688,0.04,0.04,0.011694920459648372,-0.012836682516448317,0.020491844994263708,0.18169497524254064,-0.033718885625999624,-0.036114921652778936,0.9344952026212118,0.34858890351426947,0.037302375031860006,-0.061749699931596715
2104.9166666658575,-0.2342577,-1.2545382,-0.03953358,-2.7435205,-0.16916029,1.550921,1.2463068,0.04,0.04,0.012419912211081297,-0.012720868538740326,0.020874680477778185,0.17982204361907217,-0.03348760721140515,-0.03580470097856672,0.9339258078651664,0.3500478214901676,0.03749905748484051,-0.061991360374916045
2104.9333333325244,-0.23528476,-1.2565981,-0.03970702,-2.745217,-0.16990241,1.550833,1.2483238,0.04,0.04,0.011847855491287085,-0.012803568928027032,0.020245620170233902,0.1779342133295001,-0.0332511692927603,-0.035491971895205386,0.9333600194772244,0.3514905990873155,0.03769374213489338,-0.062230335035121875
2104.9499999991913,-0.23630098,-1.2586362,-0.03987863,-2.746896,-0.17063664,1.5507461,1.2503196,0.04,0.04,0.0118715367702249,-0.012804678226779886,0.020774917531374282,0.17603035015836488,-0.033014420588779424,-0.035175948778013506,0.9327979868585732,0.3529170719914099,0.03788652579358001,-0.062466528420390896
2104.966666665858,-0.2373063,-1.2606522,-0.040048394,-2.7485564,-0.17136303,1.5506601,1.2522938,0.04,0.04,0.013299768454944072,-0.0125446266647955,0.020988556909462552,0.17411197041920068,-0.032774830591421236,-0.034858184545314384,0.9322398305177693,0.35432711818593776,0.03807762999136394,-0.06269996657487231
2104.983333332525,-0.23830056,-1.2626462,-0.0402163,-2.7501986,-0.17208144,1.5505754,1.2542464,0.04,0.04,0.012815277881483844,-0.012695361974329744,0.020945528708760097,0.17217961140608595,-0.03253107087230573,-0.03453696146610054,0.9316856880143733,0.35572060975814074,0.03826704300210162,-0.0629305963928179
2104.999999999192,-0.23928373,-1.2646178,-0.04038233,-2.7518232,-0.17279182,1.5504911,1.2561773,0.04,0.04,0.011478751063065395,-0.012798773816419251,0.02039908596860318,0.17023326507805228,-0.03228712943598011,-0.0342056514321123,0.9311356517861982,0.3570976019347553,0.03845393435813551,-0.06315849584592126
2105.016666665859,-0.24025574,-1.2665669,-0.04054648,-2.753429,-0.17349413,1.550408,1.2580862,0.03999999,0.04,0.01377382667961946,-0.012474543024854068,0.021211399068687964,0.1682732983859649,-0.0320419030611726,-0.03388051304834917,0.9305898500662154,0.35845790530403304,0.038639164789275975,-0.06338356272071387
2105.0333333325257,-0.2412165,-1.2684938,-0.04070873,-2.7550151,-0.17418827,1.5503259,1.2599729,0.03999998,0.04,0.015247454213818123,-0.012481055237173466,0.021100558969988636,0.1663010234145159,-0.03179113741775046,-0.03355187643838296,0.9300483684399751,0.3598014854778655,0.03882313502166417,-0.06360571984618346
2105.0499999991926,-0.24216592,-1.2703979,-0.04086906,-2.756583,-0.17487428,1.5502449,1.2618374,0.039999966,0.04,0.012951439995068093,-0.012488985190017843,0.021057840234939285,0.16431701684532574,-0.031531968009577534,-0.03322015603267268,0.9295113645701114,0.361128210983053,0.03900507343304786,-0.0638250939182344
2105.0666666658594,-0.24310397,-1.272279,-0.04102747,-2.7581325,-0.17555211,1.5501645,1.2636795,0.039999954,0.04,0.012601082782026651,-0.012527966403075297,0.020562079443020576,0.16232052096689553,-0.03127107967174505,-0.03288606332583668,0.9289789293291811,0.36243810624663764,0.039184499996412346,-0.06404172829328116
2105.0833333325263,-0.24403045,-1.2741373,-0.04118394,-2.759663,-0.17622165,1.5500853,1.265499,0.03999995,0.04,0.013874881103448367,-0.012469028396699944,0.02125063447031561,0.16031205776639854,-0.031012095490466213,-0.03254969282331108,0.9284512145661123,0.36373094140605366,0.03936210387514133,-0.06425549947747007
2105.099999999193,-0.2449454,-1.2759724,-0.04133846,-2.7611747,-0.17688288,1.5500073,1.2672956,0.03999994,0.04,0.01415008593257383,-0.012317593082011857,0.021208403902472917,0.15829338940044194,-0.030749390964971385,-0.032211378718845024,0.9279283248486359,0.3650066649905388,0.03953780900141001,-0.06446642626559305
2105.11666666586,-0.24584873,-1.2777841,-0.041491017,-2.7626672,-0.1775357,1.5499302,1.2690699,0.039999932,0.04,0.013921864735833012,-0.012395305333945394,0.020998309326036857,0.15626569522993056,-0.030483205157197397,-0.03187034038560323,0.9274102532671165,0.36626553468786227,0.03971133144648517,-0.06467449566548357
2105.133333332527,-0.24674036,-1.2795722,-0.04164161,-2.7641397,-0.17818011,1.5498536,1.2708211,0.039999925,0.04,0.015336183956771166,-0.012234733523547314,0.021007289641727933,0.1542249549971856,-0.030216939772206526,-0.03152737475324979,0.9268972056706003,0.36750721661422153,0.039882814430689036,-0.06487971154057096
2105.149999999194,-0.24762025,-1.281337,-0.04179021,-2.7655933,-0.178816,1.5497782,1.2725492,0.039999906,0.04,0.013833262290452453,-0.01232029285256897,0.02115960275684836,0.15217585243045495,-0.02994670972676881,-0.03118239392515692,0.9263892942251581,0.36873164334418157,0.04005219065020657,-0.06508204641705916
2105.1666666658607,-0.24848835,-1.283078,-0.04193683,-2.7670276,-0.1794434,1.5497044,1.274254,0.0399999,0.04,0.01447498261553104,-0.012101189459490236,0.02152970757254291,0.15011772931129616,-0.029674992888875214,-0.03083568793812972,0.9258866160395881,0.3699387592661695,0.040219569226750414,-0.06528150490439054
2105.1833333325276,-0.24934462,-1.2847952,-0.042081445,-2.7684424,-0.18006228,1.5496312,1.2759356,0.03999989,0.04,0.014698502592658258,-0.012173793479636208,0.020816480956775685,0.14805146072511688,-0.029401562529758462,-0.03048625703967908,0.9253892136073885,0.3711286828591855,0.04038465182600916,-0.06547811844576347
2105.1999999991945,-0.2501889,-1.2864885,-0.042224057,-2.7698376,-0.18067254,1.5495588,1.2775939,0.039999884,0.04,0.01472136223124032,-0.012222298822878175,0.020923367719616337,0.14597622782265193,-0.029126739948301113,-0.030135956142594705,0.9248972559897956,0.3723011952727569,0.040547420133693224,-0.06567185532269401
2105.2166666658613,-0.25102127,-1.2881579,-0.042364646,-2.7712128,-0.18127415,1.5494875,1.2792287,0.039999858,0.04,0.01569768784739356,-0.011953483637067164,0.021317337646697965,0.14389387202557877,-0.02885570222867745,-0.029777244731173633,0.9244107541647456,0.37345642758417713,0.04070827881516436,-0.0658626625375661
2105.233333332528,-0.25184166,-1.2898034,-0.042503208,-2.7725677,-0.18186712,1.5494176,1.28084,0.039999843,0.04,0.016267709469897085,-0.011828695384835664,0.02148835849937747,0.14180347008768848,-0.028578578119093388,-0.029421678103313316,0.923929800532289,0.3745943155633555,0.040867457279505366,-0.0660505364966388
2105.249999999195,-0.25264996,-1.2914245,-0.04263974,-2.7739038,-0.18245143,1.5493484,1.2824277,0.039999828,0.04,0.013327745199065433,-0.012152409920113127,0.020588458721282343,0.13970720463434816,-0.028292682943331218,-0.029064806601610597,0.9234545907638416,0.37571468131125474,0.0410236468515391,-0.06623562065360732
2105.266666665862,-0.25344622,-1.2930216,-0.042774238,-2.775219,-0.18302698,1.5492799,1.2839917,0.039999813,0.04,0.017321419407001493,-0.011753125458319191,0.021168503567337016,0.1376046640684846,-0.028013840141546245,-0.028708639957606603,0.9229850725567869,0.37681773123624057,0.04117813247261141,-0.06641772857741558
2105.283333332529,-0.2542304,-1.2945942,-0.042906687,-2.7765143,-0.1835938,1.549213,1.285532,0.03999981,0.04,0.015356713794800747,-0.011728342856848206,0.02139336757754906,0.13549580070134157,-0.027728103631026145,-0.028349126941718365,0.9225213873128589,0.37790333272245064,0.04133049525317359,-0.06659693108357397
2105.2999999991957,-0.2550024,-1.2961425,-0.043037083,-2.7777898,-0.18415184,1.5491471,1.2870487,0.0399998,0.04,0.015289882376201547,-0.011829738014518254,0.020898128321045206,0.13338206997716565,-0.027440679877905234,-0.02798892992265972,0.9220635944693472,0.3789715413141944,0.04148049936697114,-0.06677324913824238
2105.3166666658626,-0.2557622,-1.297666,-0.043165416,-2.7790449,-0.18470106,1.549082,1.2885408,0.03999979,0.04,0.016198543420009592,-0.011700926866220485,0.021084458341658063,0.13126231954559522,-0.027153838534600024,-0.027626649671795414,0.9216119316970232,0.3800219553888584,0.0416281617899456,-0.06694667222573507
2105.3333333325295,-0.2565098,-1.2991652,-0.04329169,-2.7802794,-0.18524148,1.5490178,1.2900081,0.03999978,0.04,0.01668323917214387,-0.011589396555183873,0.020801715930873765,0.1291414264377053,-0.02686547346193218,-0.027265270118505266,0.9211664965673273,0.3810544856329049,0.04177375798938772,-0.06711719395477245
2105.3499999991964,-0.25724524,-1.30064,-0.0434159,-2.7814946,-0.18577307,1.5489553,1.291452,0.039999772,0.04,0.014797967426027903,-0.011554717252504343,0.02120666642131397,0.1270216710481191,-0.02657477221157629,-0.02690060584040138,0.920727089371085,0.3820698121381856,0.04191704568092781,-0.06728481873591032
2105.3666666658632,-0.25796837,-1.302091,-0.043538053,-2.7826889,-0.18629582,1.5488935,1.2928722,0.03999977,0.04,0.017863562682274292,-0.011567817855456797,0.020526356518901778,0.12489493368833005,-0.026283665591857054,-0.026535455866439926,0.9202938206611208,0.38306778209875925,0.0420586439171137,-0.06744945101887745
2105.38333333253,-0.2586792,-1.3035161,-0.043658122,-2.7838633,-0.1868097,1.5488325,1.294268,0.03999976,0.04,0.014519049069017242,-0.011451845660809257,0.020998516062664674,0.1227650878308742,-0.025986765724142928,-0.026167640730984806,0.9198669392000628,0.3840480867713878,0.04219706049569749,-0.0676113104403914
2105.399999999197,-0.2593777,-1.3049173,-0.043776114,-2.7850173,-0.18731467,1.5487728,1.2956398,0.039999753,0.04,0.01721360723700993,-0.011463310172599162,0.02077301702442247,0.12063483416368369,-0.025696304120336255,-0.02580231740680132,0.9194463915587636,0.3850108985884075,0.042333709581481034,-0.06777018555962841
2105.416666665864,-0.26006392,-1.3062936,-0.043892033,-2.786151,-0.18781078,1.5487143,1.2969874,0.039999746,0.04,0.016203671862280444,-0.011241335953693365,0.020854689078142474,0.11850330818509786,-0.025399841801580808,-0.02543443268414504,0.919032243627956,0.38595626479894934,0.042467994551466735,-0.06792618253210823
2105.4333333325308,-0.26073784,-1.3076453,-0.04400588,-2.7872639,-0.18829803,1.5486567,1.298311,0.039999742,0.04,0.017241965545311544,-0.011189899176755613,0.02065020234729431,0.11637083247952931,-0.025103441105509116,-0.025066138211405308,0.9186245316230504,0.3868842265557751,0.04260020580105167,-0.06807927444075035
2105.4499999991976,-0.26139945,-1.3089722,-0.044117652,-2.7883573,-0.18877634,1.5485998,1.2996105,0.039999735,0.04,0.01499176065229424,-0.011375358360865562,0.02018670160290892,0.11423792417514786,-0.02480579695304143,-0.024697171292245683,0.9182233642775651,0.38779475801594165,0.042729509015502085,-0.06822952447028775
2105.4666666658645,-0.26204872,-1.3102748,-0.044227347,-2.7894306,-0.18924573,1.5485446,1.3008857,0.039999716,0.04,0.016543700027304986,-0.011134139302837465,0.02078602193317236,0.11210415967431128,-0.02451401894088935,-0.024324886958046993,0.9178288109040882,0.3886877586670492,0.042856834991040524,-0.06837683695027273
2105.4833333325314,-0.2626857,-1.3115524,-0.044334963,-2.7904832,-0.18970628,1.5484902,1.302137,0.0399997,0.04,0.016990753864054575,-0.010972231126521459,0.020393707041699294,0.10997311810064184,-0.024217958054166117,-0.023953510666570282,0.91744081506098,0.3895635405312651,0.042981725349386844,-0.06852131080897478
2105.4999999991983,-0.26331037,-1.312805,-0.04444049,-2.791515,-0.19015792,1.5484366,1.3033638,0.039999694,0.04,0.017206275164460827,-0.010916404709582217,0.020464526159769125,0.10784185958889851,-0.023921650493120415,-0.023584184976544034,0.9170595590513053,0.39042180629051126,0.04310432225075673,-0.06866291378016832
2105.516666665865,-0.26392284,-1.3140334,-0.044543944,-2.792527,-0.19060066,1.548384,1.3045666,0.039999686,0.04,0.016397563055781106,-0.0109646252989537,0.019937553129356633,0.10571518799106994,-0.023624840094706095,-0.02321617205848703,0.916684972234153,0.39126287284151406,0.04322452087785221,-0.06880164831423423
2105.533333332532,-0.2645229,-1.315237,-0.04464532,-2.7935185,-0.19103456,1.5483328,1.3057451,0.039999675,0.04,0.01687577212832192,-0.01080988522240145,0.020585824628438498,0.10358985960389844,-0.023327450469358933,-0.022846878923602845,0.9163172052359922,0.39208649101514986,0.043342607694381696,-0.06893751743556058
2105.549999999199,-0.2651107,-1.316416,-0.044744648,-2.7944896,-0.19145958,1.5482826,1.3068997,0.039999668,0.04,0.01710934274576914,-0.010729293349925895,0.020116641290257586,0.1014697899376086,-0.023029584006784037,-0.022478816899414486,0.9159562028303329,0.39289294345693493,0.043458404695560914,-0.06907051860020177
2105.566666665866,-0.26568627,-1.3175707,-0.044841897,-2.79544,-0.19187577,1.5482333,1.3080304,0.03999966,0.04,0.017775650305695834,-0.010632982002728442,0.01990703527741111,0.09935372303358234,-0.022730401559385178,-0.022110097387104108,0.9156019543075512,0.39368235819851316,0.043572147487906165,-0.06920065082600621
2105.5833333325327,-0.26624972,-1.3187006,-0.044937078,-2.796371,-0.1922831,1.5481851,1.3091369,0.039999656,0.04,0.015166700899182928,-0.01065720134850734,0.019838031342345186,0.09724025049248627,-0.022428873972155275,-0.02174060346413641,0.9152546269887899,0.3944545420351321,0.04368305044543351,-0.06932801127428302
2105.5999999991996,-0.26680088,-1.3198061,-0.045030203,-2.7972817,-0.19268164,1.5481379,1.3102195,0.03999965,0.04,0.017095109021569854,-0.010554915639654494,0.019747307216733123,0.09513393317433284,-0.022131898554662462,-0.021373505681261926,0.9149141675533766,0.3952096841489817,0.04379171716134113,-0.06945255267472382
2105.6166666658664,-0.26733997,-1.3208872,-0.04512128,-2.7981722,-0.19307138,1.5480918,1.3112781,0.03999964,0.04,0.017095618016815806,-0.010360675114140516,0.01973644631345639,0.09303261715189026,-0.02183444737178893,-0.02100690048612792,0.9145806284495492,0.39594778611735754,0.043898125020824845,-0.06957427220781458
2105.6333333325333,-0.26786688,-1.3219442,-0.045210302,-2.7990427,-0.19345237,1.5480466,1.3123131,0.039999638,0.04,0.016937847595888122,-0.010420612598716072,0.019463479296166764,0.09093910434823525,-0.021537502281285505,-0.020641099262394783,0.9142539758258698,0.3966690373658087,0.04400229382077963,-0.0696931891965237
2105.6499999992,-0.26838169,-1.3229768,-0.045297287,-2.799893,-0.19382462,1.5480026,1.3133243,0.039999634,0.04,0.01722715626291116,-0.010206725046746357,0.01969608422278668,0.08885181909070339,-0.021240173485842735,-0.020275911508885545,0.9139342560778715,0.39737343955447213,0.044104269345601146,-0.06980930116772995
2105.666666665867,-0.26888445,-1.3239857,-0.04538224,-2.800723,-0.1941882,1.5479597,1.3143116,0.039999623,0.04,0.017313547340402913,-0.010161466515173911,0.019261879723730946,0.08677267352964471,-0.02094172954414122,-0.01991196023287506,0.9136215271204318,0.3980609472215865,0.04420421811617397,-0.06992263281600071
2105.683333332534,-0.26937526,-1.3249699,-0.04546517,-2.8015342,-0.19454312,1.5479176,1.3152757,0.03999962,0.04,0.014973723353639556,-0.010172804969049709,0.019025809632955415,0.08470341853302812,-0.020641694470133705,-0.0195475887892132,0.9133157342679756,0.3987318884393552,0.04430109791286394,-0.07003330210584835
