rsonawane2002/My_IMU/logs_2/traj_325/clean_325.csv
time,j1,j2,j3,j4,j5,j6,j7,gripper1,gripper2,imu_ax,imu_ay,imu_az,imu_gx,imu_gy,imu_gz,quat_x,quat_y,quat_z,quat_w
818.7333333329174,0.00016700293,-0.785875,4.0107683e-05,-2.3551247,9.29385e-05,1.570997,0.786,0.04,0.04,0.0,-0.0,0.0,2.875329272945135e-08,-0.0011641195053377316,4.421952117202833e-08,0.9999995971961153,0.00020320632366974898,0.0008736418299892524,3.263050917662294e-05
818.749999999584,0.00016700101,-0.78576016,4.010682e-05,-2.3552213,9.297462e-05,1.5709941,0.786,0.04,0.04,-0.2919984593529046,-2.125194705894051e-05,0.020128411890651954,1.2424158439026823e-06,-0.0022381812421965112,4.367182168910031e-07,0.9999996850576349,0.00020321233421009136,0.0007665025178173892,3.260779739637378e-05
818.7666666662507,0.00016696558,-0.7856541,4.0051687e-05,-2.35531,9.301193e-05,1.5709913,0.786,0.04,0.04,0.023131104418472326,0.00010014007251622401,-0.0015688322638984786,8.96229581735845e-06,-0.003228767364271654,2.899299210455408e-06,0.9999997558953718,0.0002032539154795605,0.0006677078384825996,3.260805161535255e-05
818.7833333329173,0.000166839,-0.7855565,3.9853432e-05,-2.355391,9.305557e-05,1.5709884,0.786,0.04,0.04,0.02226312407107578,0.0002650787521651769,-0.0014233814403130651,2.9660432970988927e-05,-0.0041417408818448295,9.3403223477075e-06,0.9999998123583748,0.00020339132043252319,0.0005769299585784377,3.2665103320731785e-05
818.799999999584,0.0001665369,-0.78546625,3.9384646e-05,-2.3554652,9.312546e-05,1.5709856,0.786,0.04,0.039999995,0.019926072560161323,0.0004941614546886258,-0.0011545672965684872,6.89210251204398e-05,-0.0049821417746881555,2.2226503364142005e-05,0.9999998570369976,0.00020371184444410476,0.0004933045952793541,3.2833599349248314e-05
818.8166666662506,0.00016595097,-0.7853826,3.8483257e-05,-2.355532,9.3209936e-05,1.5709859,0.7860019,0.04,0.04,0.02090058198851441,0.0008136505509979367,0.001906847886790075,0.0001325664739956693,-0.0057579881658542855,4.077472126276354e-05,0.9999998908958149,0.00020528069985507533,0.0004182920169651312,3.3165965209586036e-05
818.8333333329173,0.0001649511,-0.7853047,3.6955415e-05,-2.3555942,9.3333874e-05,1.5709865,0.7860038,0.04,0.04,0.014102002317084583,0.0011687423901497371,-0.0010756142716505934,0.0002170765808853687,-0.006456261529778626,6.872818606118767e-05,0.9999999172140103,0.00020727788942603953,0.00034852456802610566,3.3741288725125664e-05
818.8499999995839,0.00016338781,-0.785232,3.457956e-05,-2.3556519,9.35118e-05,1.5709873,0.78600574,0.04,0.04,0.013508470090717317,0.0015849500931313266,-0.0007647931971721533,0.0003359480114041594,-0.007108437073715255,0.00010651947589222134,0.9999999371274847,0.00020985652977628493,0.00028373400162991463,3.464505395923073e-05
818.8666666662506,0.00016109442,-0.78516334,3.1108815e-05,-2.3557026,9.3771385e-05,1.5709883,0.78600955,0.04,0.039999995,0.01627016232121914,0.0020399966016459744,0.0008616524246107815,0.0004936572856753707,-0.0077178345414386645,0.0001560134708337641,0.9999999512274979,0.00021414093220052855,0.00022448649683539464,3.597882338412239e-05
818.8833333329172,0.00015788921,-0.78509825,2.6274716e-05,-2.3557496,9.409466e-05,1.5709927,0.7860153,0.039999995,0.04,0.011533255207063497,0.002571493263424249,0.002236962415103072,0.0006859615138909043,-0.008277352467843632,0.00021501352026374271,0.9999999604518006,0.00022031708654399467,0.00017066281649385552,3.782832002166302e-05
818.8999999995839,0.00015357618,-0.7850356,1.9788256e-05,-2.355792,9.452268e-05,1.5709975,0.7860223,0.039999988,0.039999988,0.010513333127271096,0.0030993379027620103,0.0008937998445368578,0.0009169066224017648,-0.008791444067811984,0.0002893392469028504,0.9999999658691384,0.00022828717864383917,0.00012050459267072888,4.03153732909002e-05
818.9166666662505,0.00014794793,-0.78497493,1.1343428e-05,-2.355829,9.507547e-05,1.5710057,0.78603154,0.039999984,0.03999998,0.012588581947459154,0.003674982332856064,0.0039044188730130713,0.0011928262346286875,-0.009275283726948899,0.0003771931144955336,0.9999999676872008,0.00023871028274574473,7.579990618723404e-05,4.355884088715165e-05
818.9333333329172,0.00014078623,-0.7849155,6.190123e-07,-2.3558633,9.577231e-05,1.5710143,0.786043,0.03999998,0.039999977,0.0059529662657320515,0.004282094211925359,0.0007207169537171154,0.001513297569759028,-0.009711680695196553,0.00047837809544323915,0.9999999666078656,0.0002518092152221302,3.321085234848022e-05,4.768045860161024e-05
818.9499999995838,0.00013186378,-0.7848565,-1.2719639e-05,-2.3558917,9.663552e-05,1.5710267,0.7860567,0.039999977,0.039999973,0.011797309351213592,0.004911923991212655,0.005268184145923449,0.0018821272956445953,-0.010133425460127311,0.0005943324573532523,0.9999999627256259,0.00026784591782097206,-4.282385812581126e-06,5.281072197813945e-05
818.9666666662505,0.00012094567,-0.78479725,-2.9018423e-05,-2.3559184,9.768754e-05,1.5710428,0.78607386,0.03999997,0.03999996,0.003741209690444336,0.005564333482098003,0.0036278307338211135,0.002301883522348425,-0.010512896328435242,0.0007264027544465888,0.9999999561126987,0.0002876564932861277,-3.921308940640059e-05,5.9081946117016965e-05
818.9833333329171,0.00010778989,-0.7847368,-4.8633454e-05,-2.355939,9.8950186e-05,1.5710622,0.7860945,0.039999966,0.039999958,0.010270200125339635,0.006236977519320612,0.005934722439482343,0.002770062572499154,-0.01087337218685569,0.0008732930636274632,0.9999999468197023,0.00031148801113023227,-6.997199471562721e-05,6.663130990223971e-05
818.9999999995838,9.214882e-05,-0.78467464,-7.192888e-05,-2.355958,0.00010044732,1.5710849,0.78611887,0.03999997,0.03999996,0.0015358340071713883,0.006924152108699412,0.004010597449943809,0.0032897996247512537,-0.011200288743997613,0.0010362049157445295,0.9999999345026123,0.0003397424381078459,-9.927118873242334e-05,7.559813293985187e-05
819.0166666662504,7.377008e-05,-0.7846102,-9.927599e-05,-2.3559709,0.000102202954,1.5711117,0.7861476,0.03999997,0.039999958,0.009346085992123498,0.0076254905420996095,0.007165744849091382,0.00386247855757355,-0.01151951385155837,0.0012162943722145928,0.999999918983369,0.0003729755937401187,-0.000124517965899212,8.612629136430482e-05
819.0333333329171,5.239771e-05,-0.7845426,-0.00013105136,-2.3559823,0.000104240244,1.5711429,0.7861809,0.03999997,0.039999958,0.0003294040198609238,0.008337459089240502,0.005708378461921626,0.004487728536162149,-0.011807593438237375,0.0014120620547665515,0.9999998994535834,0.0004115683597801437,-0.00014842443141330135,9.835901865898055e-05
819.0499999995837,2.777228e-05,-0.7844713,-0.00016763632,-2.3559878,0.00010658431,1.5711782,0.78621936,0.039999973,0.03999996,0.007252855169248562,0.00905890731344926,0.007813041740378779,0.005167012483674025,-0.01208851704417934,0.0016245463804356519,0.9999998753708056,0.000456054008305893,-0.0001692025662989922,0.00011244379117116312
819.0666666662504,-3.678233e-07,-0.78439546,-0.00020941554,-2.3559914,0.00010926015,1.5712186,0.78626317,0.039999973,0.039999958,-8.703904237350457e-05,0.00978607298457444,0.007195527422498849,0.005900061464799017,-0.012346364582420938,0.0018547300476468651,0.9999998455035,0.0005068193068787637,-0.00018870023444952542,0.00012852777086121898
819.083333332917,-3.228574e-05,-0.78431445,-0.000256776,-2.3559892,0.00011229176,1.571265,0.7863128,0.039999977,0.03999996,0.0058658608546480195,0.01052109179778926,0.00993473845070092,0.0066881783058655424,-0.012600078788966358,0.0021009760907764238,0.9999998089705354,0.0005643719806380934,-0.00020495063179166068,0.00014675966202193664
819.0999999995837,-6.824577e-05,-0.7842278,-0.0003101063,-2.3559852,0.00011570477,1.5713172,0.7863687,0.039999977,0.039999958,-0.0011833866238930568,0.011256203541173097,0.008398877458715148,0.007531219136839072,-0.012830171086255584,0.0023650382629849926,0.999999763831563,0.0006291911035489749,-0.00022015929634424297,0.0001672879487265632
819.1166666662504,-0.000108512555,-0.7841346,-0.00036979566,-2.3559754,0.000119523356,1.5713756,0.78643143,0.03999998,0.03999996,0.004485883857374695,0.01199766121016097,0.010849742306984211,0.0084292499648355,-0.01305857371964079,0.002645197457260767,0.9999997085624963,0.0007018161291379439,-0.0002326574982013734,0.0001902617459879269
819.133333332917,-0.00015335083,-0.78403467,-0.00043623324,-2.3559625,0.00012377313,1.5714405,0.78650117,0.03999998,0.039999958,-0.0002277725528188057,0.012735934302485118,0.010013368900452235,0.00938147785285618,-0.013267936289105255,0.002943141014814959,0.9999996407320254,0.0007826375059346395,-0.00024378654144784314,0.000215829739606246
819.1499999995837,-0.00020302464,-0.783927,-0.0005098074,-2.3559444,0.00012847877,1.5715126,0.78657836,0.039999988,0.039999966,0.002689583599635448,0.013477503733740738,0.012102137153613413,0.010388920948299366,-0.013473326231287046,0.0032570752700297597,0.9999995580089213,0.000872134967358386,-0.00025250358564849856,0.000244140328315595
819.1666666662503,-0.00025779713,-0.78381085,-0.0005909053,-2.355923,0.00013366411,1.5715922,0.7866634,0.039999984,0.039999958,-0.0014034781421035092,0.014215584475526172,0.011888514025626407,0.011451329655421626,-0.013664446427962641,0.003588534459096905,0.9999994570638644,0.0009707874505318442,-0.00026006060031052785,0.000275340128682008
819.183333332917,-0.00031793021,-0.7836865,-0.0006799121,-2.355897,0.00013935649,1.5716797,0.7867569,0.03999999,0.039999966,0.0011259398265739406,0.014950833005934645,0.012483806530316777,0.012567795010624449,-0.013851986460572863,0.0039359381879167255,0.999999334571106,0.001079132380363319,-0.0002655042372400749,0.00030957737477927723
819.1999999995836,-0.00038368398,-0.78355265,-0.0007772102,-2.355867,0.00014557762,1.5717752,0.786859,0.03999999,0.03999996,-0.0011691593251539345,0.015685278645333322,0.013126186129230888,0.013738125956286016,-0.014029536504620188,0.004300489270737517,0.9999991863568635,0.0011975567513911537,-0.00026969908456144875,0.0003469954495062014
819.2166666662503,-0.00045531648,-0.78340894,-0.0008831793,-2.3558326,0.0001523534,1.5718795,0.7869702,0.03999999,0.039999958,-0.0008364077134892511,0.016413908037265407,0.014016267751038036,0.014962511488923743,-0.014203371105727877,0.004680561966882061,0.9999990078789877,0.0013265651112544376,-0.00027225810914647977,0.00038773904601327865
819.2333333329169,-0.0005330834,-0.78325474,-0.0009981955,-2.3557937,0.00015970884,1.5719929,0.787091,0.039999995,0.03999996,-0.0010889442545680694,0.017138014984349585,0.014663128582936835,0.01623988929395718,-0.014371210083610576,0.005077664170479604,0.999998793824371,0.0014666599267040528,-0.0002732711662163947,0.0004319506131992639
819.2499999995836,-0.00061723794,-0.78308946,-0.0011226315,-2.3557508,0.00016766488,1.5721154,0.7872216,0.04,0.039999966,-0.0025297743026397868,0.017858878001819015,0.014863765186268196,0.017569567522979758,-0.014533926031289317,0.00548873538366799,0.999998538313035,0.0016181924580933446,-0.00027321552614662864,0.0004797689428412237
819.2666666662502,-0.00070803025,-0.78291273,-0.0012568554,-2.3557029,0.0001762462,1.5722477,0.78736246,0.04,0.039999977,-0.0011259718269762686,0.01857352662793634,0.01592879089848953,0.01895193539228183,-0.01469510543279999,0.005912866312288259,0.9999982348289971,0.001781660532071157,-0.000271495687506533,0.0005313329748533035
819.2833333329169,-0.00080570776,-0.7827239,-0.0014012313,-2.3556502,0.0001854794,1.5723902,0.7875139,0.04,0.039999966,-0.002154541907684049,0.019278832127285726,0.016445646108920187,0.020386008993845038,-0.01485003498684519,0.006360169103318309,0.9999978759252949,0.001957499842047789,-0.0002683804465140616,0.0005867803700796863
819.2999999995835,-0.0009105144,-0.78252274,-0.0015561177,-2.3555932,0.00019538305,1.5725428,0.78767645,0.04,0.039999977,-0.0032406622239689042,0.019980629684068947,0.016350920889052212,0.021871287234968145,-0.015003192049244884,0.006814859569314998,0.9999974531817081,0.002146202231285069,-0.0002642281017353901,0.0006462426714361456
819.3166666662502,-0.0010226904,-0.7823085,-0.0017218691,-2.3555305,0.00020598664,1.5727059,0.7878504,0.04,0.03999996,-0.0015017299338060397,0.02067399236249743,0.01765154907180655,0.023406770726642045,-0.015156126292064595,0.007294731154914371,0.9999969576899616,0.0023481680596379065,-0.0002585028963651495,0.0007098548004272068
819.3333333329168,-0.0011424732,-0.78208065,-0.0018988336,-2.355463,0.00021730382,1.5728801,0.7880359,0.04,0.03999996,-0.0035710614357586934,0.021365209156826177,0.018073286329323146,0.024991720258838068,-0.015303476545771473,0.007782621220753007,0.999996379452648,0.0025637641758961566,-0.0002516227825884645,0.0007777408444328553
819.3499999995835,-0.0012700956,-0.78183895,-0.0020873554,-2.355391,0.00022936355,1.573066,0.78823376,0.039999995,0.03999994,-0.004077145027392426,0.022039512829123593,0.018313663857205675,0.026626533663408992,-0.015451672615907004,0.00828543546116764,0.9999957070421536,0.0027935630681661877,-0.000243618515505711,0.00085003097976677
819.3666666662501,-0.0014057865,-0.78158265,-0.0022877706,-2.3553133,0.000242184,1.5732639,0.7884441,0.04,0.03999994,-0.0027765741865692917,0.022716835294007125,0.019624217326952298,0.028308729518349757,-0.015599186344816593,0.008801799262678236,0.9999949285828217,0.003037924996970192,-0.00023404393872904637,0.0009268461494385853
819.3833333329168,-0.0015497713,-0.7813115,-0.0025004118,-2.3552303,0.00025578748,1.5734737,0.78866714,0.04,0.039999936,-0.003908115810569157,0.023378385926587676,0.019431345088571916,0.03003816373419515,-0.015742731731959028,0.009331458512002486,0.9999940310162522,0.0032971770793939685,-0.0002233171978131215,0.0010083077919234027
819.3999999995834,-0.0017022715,-0.78102505,-0.0027256038,-2.355142,0.0002701948,1.5736957,0.7889034,0.03999999,0.039999925,-0.004382279217907126,0.024033570732609737,0.019852867315695022,0.03181492646660307,-0.015885170715826763,0.009874232420700903,0.999992999640761,0.0035718216318630187,-0.0002115586663178868,0.0010945330665088429
819.4166666662501,-0.0018635034,-0.7807228,-0.002963666,-2.3550482,0.00028542697,1.5739306,0.7891531,0.039999988,0.039999917,-0.0038592248259083917,0.02468481762303819,0.020932370575676984,0.03363727689009886,-0.01603066747540453,0.010431112379212197,0.9999918192145012,0.0038621789318187853,-0.00019835218752743702,0.0011856366984610081
819.4333333329167,-0.0020336793,-0.7804044,-0.0032149125,-2.354948,0.0003015035,1.5741782,0.7894167,0.039999988,0.039999913,-0.0035830272858694556,0.025326116103313156,0.021054212710658327,0.035505029560196036,-0.01617127415874817,0.010998493616657824,0.9999904725546327,0.004168714335559832,-0.0001838183009229594,0.0012817299182019484
819.4499999995834,-0.0022130078,-0.78006953,-0.0034796486,-2.3548427,0.0003184442,1.5744395,0.7896944,0.03999999,0.039999913,-0.005221731696036791,0.025954522168999926,0.021557541435557326,0.03741670189511895,-0.016313451251843702,0.011578681171681912,0.9999889414508497,0.00449179990353417,-0.0001680477449611338,0.0013829206741679972
819.46666666625,-0.0024016926,-0.77971774,-0.0037581753,-2.3547318,0.00033626822,1.574714,0.7899866,0.039999995,0.039999913,-0.0055630403413831075,0.02657596492697173,0.021455321270824612,0.03937185310293485,-0.016452940509075087,0.01217053766418821,0.9999872063995997,0.00483177412263272,-0.00015145913551805834,0.0014893139636926822
819.4833333329167,-0.0025999332,-0.7793483,-0.004050785,-2.3546143,0.00035499447,1.5750026,0.7902936,0.039999995,0.03999991,-0.004022021957483801,0.027202487442054002,0.023162134359289155,0.04136973766105214,-0.01659740480735653,0.012773624129029462,0.9999852463612507,0.005189032905614826,-0.00013327917856105576,0.0016010103039791684
819.4999999995833,-0.0028079248,-0.77896136,-0.0043577664,-2.354491,0.00037464147,1.5753052,0.7906156,0.04,0.03999991,-0.005581235642049265,0.027802307952015,0.022533031247085056,0.04340912664047045,-0.01673840829851156,0.013387578337064034,0.9999830387149815,0.005563936650202339,-0.0001139863461247724,0.0017181089654868381
819.51666666625,-0.0030258556,-0.778556,-0.0046793986,-2.3543608,0.00039522757,1.5756226,0.79095304,0.04,0.03999991,-0.004394827125220324,0.028410745074269363,0.023980307393012268,0.045489580138999015,-0.01688063424285426,0.014011511389483942,0.9999805593891002,0.005956843112759988,-9.313534944840306e-05,0.0018407036152129459
819.5333333329166,-0.0032539123,-0.7781323,-0.0050159534,-2.3542254,0.00041677046,1.5759546,0.79130614,0.04,0.039999917,-0.007137431417691964,0.0289842904941549,0.023107842712311033,0.047610065844492205,-0.017019283711941065,0.014645967061489797,0.9999777825689377,0.006368103702116779,-7.150290876382928e-05,0.001968885746711829
819.5499999995833,-0.0034922766,-0.7776899,-0.005367699,-2.3540838,0.000439287,1.5763015,0.7916752,0.04,0.03999991,-0.006010661285893448,0.029577655763681626,0.02393875586239602,0.04976964912796997,-0.01716305868256354,0.015290064970550694,0.999974680851544,0.006798069780620837,-4.873337844578919e-05,0.00210274301054548
819.56666666625,-0.0037411235,-0.77722806,-0.005734894,-2.3539355,0.00046279398,1.5766637,0.79206026,0.04,0.039999917,-0.005754869327878609,0.030155991640176683,0.024794921038551188,0.05196729394975198,-0.017308256842816595,0.01594274786842137,0.9999712261423264,0.007246937898103954,-2.4649720022200324e-05,0.002242358335478332
819.5833333329166,-0.0040006246,-0.7767469,-0.0061177914,-2.35378,0.000487308,1.5770413,0.7924618,0.04,0.039999902,-0.004959749551058934,0.03072591085698847,0.02483514269335796,0.05420345115572353,-0.01745358739413039,0.016605567625996593,0.9999673867244528,0.0077151692181104525,9.542200394261883e-07,0.002387812910153756
819.5999999995832,-0.004270946,-0.77624583,-0.006516637,-2.3536181,0.0005128446,1.5774344,0.7928801,0.04,0.0399999,-0.006841450187566878,0.03127786281882268,0.025085565786420183,0.05647624541475785,-0.017595038601420074,0.017276109433104172,0.9999631300261289,0.008203071371486594,2.7569515404809235e-05,0.0025391826132524346
819.6166666662499,-0.0045522507,-0.77572477,-0.006931671,-2.3534493,0.0005394189,1.5778438,0.79331535,0.04,0.039999895,-0.005891529523238681,0.03184011314923355,0.02568530782565137,0.058784409644555516,-0.01773995667923159,0.017954440246631218,0.9999584218468511,0.008710920600324032,5.573027283164535e-05,0.002696541115315033
819.6333333329165,-0.0048446963,-0.7751832,-0.007363124,-2.3532739,0.0005670462,1.5782692,0.7937678,0.04,0.03999989,-0.006986517159002226,0.0323766909228437,0.025723319826997937,0.061127772855812286,-0.017883230675498567,0.018640188029126797,0.9999532256272311,0.009239046594549752,8.498684974954059e-05,0.0028599568100081247
819.6499999995832,-0.0051484327,-0.77462083,-0.0078112185,-2.3530912,0.00059574103,1.5787109,0.7942377,0.04,0.039999884,-0.006526223883707161,0.03291282611345703,0.026128595545582556,0.06350517641479816,-0.018027897027930645,0.01933323401128201,0.9999475033555625,0.009787714814345325,0.00011548567150797006,0.0030294941409288226
819.6666666662499,-0.0054636113,-0.77403754,-0.008276174,-2.3529017,0.00062551774,1.5791696,0.7947253,0.04,0.03999988,-0.006859218724608596,0.03344875644226784,0.026634749978549088,0.0659160436690022,-0.018174475875636045,0.020033236447440005,0.9999412140679512,0.010357280436965193,0.00014746217269577321,0.0032052153078071226
819.6833333329165,-0.0057903724,-0.77343285,-0.008758204,-2.3527055,0.00065638893,1.5796448,0.7952307,0.04,0.039999876,-0.008048978479924251,0.03395964973754474,0.02627153083138989,0.06835894858163306,-0.0183176725921848,0.020738775698446812,0.9999343167188297,0.010947911945085846,0.00018025813446263683,0.0033871786333965104
819.6999999995832,-0.006128854,-0.77280647,-0.009257509,-2.3525023,0.0006883687,1.5801371,0.7957543,0.04,0.039999872,-0.007815124751342495,0.034476691604456294,0.026999546607853198,0.0708337285829642,-0.018466178081482505,0.021449979149310953,0.9999267655447059,0.011560013820113877,0.00021419790743024554,0.003575436621977967
819.7166666662498,-0.00647919,-0.7721584,-0.009774286,-2.3522923,0.0007214699,1.5806469,0.79629624,0.04,0.039999872,-0.007807394732517459,0.034981831899608476,0.027091295024317397,0.07333878530255797,-0.018616772848016744,0.02216719233990346,0.9999185148715052,0.012193777836457144,0.0002493977677175375,0.0037700397865392723
819.7333333329165,-0.0068415115,-0.7714882,-0.010308729,-2.3520749,0.00075570424,1.5811738,0.7968567,0.04,0.03999986,-0.007609925158225117,0.03549178760942143,0.027277583236173797,0.07587384010775906,-0.01876846162351061,0.022888523949849155,0.9999095158921726,0.012849484449650391,0.00028576493952431976,0.003971034633253691
819.7499999995831,-0.0072159404,-0.7707959,-0.010861019,-2.3518503,0.0007910834,1.5817183,0.7974359,0.04,0.039999865,-0.007938474425417397,0.03597989124470638,0.027428921935945816,0.07843746918005756,-0.0189210533172541,0.023613937119970813,0.9998997179329739,0.013527376711081994,0.00032341521832785164,0.004178463769386641
819.7666666662498,-0.007602597,-0.77008116,-0.011431332,-2.3516183,0.00082761946,1.5822806,0.79803383,0.04,0.03999986,-0.007906246877187328,0.03646811191523533,0.027696516791619885,0.08102939731546338,-0.01907405257971895,0.024344203555063858,0.9998890689402428,0.01422763602502166,0.0003623751240970747,0.004392365105902067
819.7833333329164,-0.008001597,-0.7693435,-0.012019836,-2.351379,0.0008653228,1.5828611,0.7986509,0.04,0.039999858,-0.008476181938932292,0.036950758728772695,0.028160673221511168,0.08364917386419603,-0.019227349573003073,0.02507704362798993,0.9998775125785245,0.014950589752562153,0.0004025511922085162,0.004612771224634477
819.7999999995831,-0.008413048,-0.768583,-0.012626697,-2.351132,0.0009042047,1.5834595,0.7992872,0.04,0.03999987,-0.008057925796611798,0.0374240337578928,0.028008006943092134,0.08629515177426562,-0.019381612672720254,0.02581366950185871,0.999864992210124,0.015696411218878097,0.00044405905837559663,0.0048397147694010075
819.8166666662497,-0.00883706,-0.7677993,-0.013252069,-2.3508773,0.00094427547,1.5840763,0.7999429,0.04,0.039999917,-0.008433907153859721,0.03789444158688558,0.02836275972484259,0.08896708501932643,-0.01953620102795176,0.026552759035933546,0.9998514475826445,0.016465361399451824,0.0004868946154557567,0.005073221314813876
819.8333333329164,-0.009273731,-0.7669925,-0.0138960965,-2.350615,0.0009855428,1.5847113,0.80061823,0.04,0.03999991,-0.00849483311593513,0.03834247751783801,0.02812400799245829,0.09166338364314636,-0.01968972846326747,0.027294015042907745,0.9998368165886581,0.017257662727060065,0.000531023919834355,0.0053133120229963285
819.849999999583,-0.009723156,-0.76616204,-0.014558925,-2.3503447,0.0010280169,1.5853649,0.8013131,0.04,0.03999991,-0.008267536206840731,0.03881459378669225,0.02879105228785761,0.09438368888043813,-0.019844561603446872,0.028036252876214796,0.9998210366489624,0.01807342126478911,0.0005765923469780252,0.0055600053278006545
819.8666666662497,-0.010185429,-0.76530766,-0.015240692,-2.3500662,0.0010717071,1.5860372,0.8020278,0.04,0.03999991,-0.008634242058125352,0.039264319175671275,0.02879848588539513,0.09712809662359699,-0.01999791420353718,0.028779589708707663,0.999804039898448,0.018912917191570275,0.0006234759895956976,0.005813316070679969
819.8833333329163,-0.010660638,-0.7644298,-0.015941523,-2.3497798,0.0011166214,1.5867282,0.8027631,0.04,0.039999906,-0.008593763355535522,0.03969672615644591,0.028500643847362284,0.0998946263759869,-0.02015187603812066,0.029524394281912954,0.9997857515314857,0.019776631712454112,0.000671877252135776,0.0060732572554044115
819.899999999583,-0.011148862,-0.76352805,-0.016661543,-2.3494852,0.0011627674,1.5874381,0.8035179,0.04,0.039999902,-0.008356133585873948,0.04014157323721443,0.028820949175423216,0.10267998807925358,-0.020302831400265745,0.030268900870637584,0.9997661118228967,0.020664150625675986,0.0007218249425262726,0.00633983424066586
819.9166666662496,-0.011650181,-0.762602,-0.017400865,-2.3491828,0.0012101532,1.5881673,0.80429286,0.04,0.039999902,-0.010003475411024532,0.04055728747711512,0.028932914504231633,0.10548908547481206,-0.020452765228697947,0.03101321177543784,0.9997450417146259,0.021575950833887164,0.0007729848703556178,0.006613048240018502
819.9333333329163,-0.012164673,-0.76165164,-0.01815961,-2.3488724,0.0012587851,1.5889157,0.80508834,0.04,0.0399999,-0.009272502873525212,0.041007457571091976,0.02888687480897545,0.10831860844092146,-0.020603938910578733,0.03175765720559855,0.9997224627792878,0.022512302166995735,0.000825560222377775,0.006892903305325768
819.9499999995829,-0.012692405,-0.76067686,-0.01893786,-2.3485544,0.00130867,1.5896827,0.8059042,0.04,0.0399999,-0.010592109972917818,0.04136562714787684,0.028167448929705685,0.11116628864141033,-0.020752802755290907,0.032500921632977534,0.9996982998048107,0.02347324519606189,0.0008789210321853383,0.007179388912391571
819.9666666662496,-0.013233438,-0.7596776,-0.019735726,-2.3482287,0.0013598144,1.5904691,0.8067406,0.04,0.03999989,-0.010512899102255169,0.04180173619958566,0.02866324365478068,0.11403279775642272,-0.020906365901765218,0.03324139585663391,0.9996724713910421,0.024458952340371588,0.0009334496364025374,0.007472500593101075
819.9833333329162,-0.013787837,-0.7586537,-0.020553289,-2.3478944,0.0014122245,1.5912752,0.80759764,0.04,0.039999887,-0.009067303842758001,0.042238755128243266,0.0291938535202263,0.11691710847124522,-0.02106175525178037,0.03398113486506804,0.9996448927371442,0.02546961987396523,0.0009896770590020055,0.007772221518850994
819.9999999995829,-0.014355656,-0.7576051,-0.021390643,-2.3475518,0.0014659052,1.5921006,0.80847543,0.04,0.03999988,-0.009848038095205958,0.04262944553199699,0.028714034683763323,0.11981821227800202,-0.021212803398530912,0.034718025595226694,0.9996154787568422,0.0265053790844342,0.0010472405393135084,0.008078539259833435
820.0166666662495,-0.014936949,-0.7565317,-0.02224785,-2.347201,0.0015208623,1.5929456,0.8093741,0.04,0.039999884,-0.01030660770469094,0.04300172766663543,0.02860574990521947,0.12273547576280035,-0.021363575925048704,0.03545311566019019,0.9995841409986211,0.0275663823301163,0.0011061346124919586,0.00839142988397373
820.0333333329162,-0.015531766,-0.75543314,-0.023124997,-2.3468428,0.001577099,1.5938102,0.8102936,0.04,0.03999988,-0.011758693743102455,0.043391379279379694,0.028552955431626614,0.12566771507168098,-0.021514504858258728,0.03618362929738404,0.9995507903212533,0.02865272902846601,0.0011659369498808058,0.008710871277220242
820.0499999995828,-0.01614015,-0.7543096,-0.02402214,-2.3464763,0.0016346211,1.5946944,0.81123406,0.04,0.039999872,-0.010846444946199796,0.043774482369687145,0.028372395305376052,0.12861490288608074,-0.02166781576004118,0.036910207797584096,0.9995153338387494,0.029764536473456716,0.001226940105838828,0.009036836155992184
820.0666666662495,-0.016762136,-0.75316113,-0.024939327,-2.346102,0.0016934314,1.5955985,0.8121956,0.04,0.039999872,-0.011209289658675736,0.04412785071727654,0.028301449384837696,0.13157564875974942,-0.0218206961847638,0.037633704342722875,0.9994776747422767,0.030901974120978212,0.001289227346970675,0.009369289196402975
820.0833333329161,-0.017397754,-0.75198746,-0.02587663,-2.34572,0.0017535341,1.5965225,0.81317806,0.04,0.039999865,-0.012099871987558686,0.044503982897022704,0.028154908821753644,0.13454951601334786,-0.021973623670311936,0.038351981890606755,0.9994377192547533,0.03206504070792938,0.0013525258441011577,0.009708201125687767
820.0999999995828,-0.018047044,-0.75078857,-0.026834082,-2.3453286,0.0018149319,1.5974662,0.81418175,0.04,0.039999872,-0.00902629825523249,0.04494416576008853,0.028775980534412327,0.13753623709091028,-0.022129359614925126,0.03906506148581903,0.999395362302172,0.03325396994986569,0.0014177227584980354,0.010053524439907872
820.1166666662494,-0.018710032,-0.74956435,-0.027811721,-2.344929,0.0018776275,1.5984298,0.81520647,0.04,0.03999987,-0.011753924509894098,0.04523219123264838,0.027951377845880643,0.14053380239475738,-0.022277293488602697,0.039773756658492754,0.9993505065158643,0.03446874222439414,0.0014840385419933103,0.010405218188938902
820.1333333329161,-0.019386746,-0.748315,-0.028809594,-2.3445208,0.0019416246,1.5994134,0.81625235,0.04,0.03999992,-0.010809708468140222,0.04563300063010131,0.02804394645525843,0.14354293083057523,-0.022427768520575528,0.040477382202613134,0.9993030450912889,0.03570949846123296,0.0015519139336894745,0.010763240871937472
820.1499999995827,-0.020077197,-0.7470401,-0.029827723,-2.3441048,0.0020069228,1.6004169,0.81731945,0.04,0.039999925,-0.012636086253947632,0.045925033632406714,0.027590207211880546,0.14656202792925593,-0.02257334497479673,0.04117325290666754,0.9992528719784168,0.03697632904507264,0.0016207468137812724,0.01112753849698355
820.1666666662494,-0.0207814,-0.7457399,-0.03086612,-2.3436804,0.0020735243,1.6014404,0.81840783,0.04,0.03999992,-0.011735602308338144,0.04627703967046218,0.02758391314281461,0.14959063405047013,-0.02272155412903292,0.04186424441520815,0.9991998770095505,0.03826932631406073,0.001690918395348622,0.011498053859135058
820.183333332916,-0.021499364,-0.7444144,-0.03192481,-2.3432474,0.0021414298,1.6024842,0.81951743,0.04,0.039999932,-0.011344179640859764,0.046643399217742576,0.027611928591575463,0.15262769007431165,-0.022867480513335266,0.042545782698189726,0.9991439496947241,0.03958852674558629,0.0017626912396863364,0.011874731918404938
820.1999999995827,-0.022231098,-0.74306345,-0.033003803,-2.3428063,0.0022106415,1.6035477,0.8206483,0.04,0.039999925,-0.012720087039874706,0.046921001565926324,0.02679974683872377,0.15567282859662468,-0.023009400573328148,0.04322151325658339,0.9990849768999472,0.04093401383237663,0.001835433218760363,0.012257513177734922
820.2166666662494,-0.022976603,-0.741687,-0.034103103,-2.3423572,0.0022811594,1.6046313,0.82180053,0.04,0.03999992,-0.01280468970314974,0.04725652234727207,0.026942942347574217,0.15872490639815517,-0.023152645286661826,0.0438886520360585,0.999022841511745,0.042305872608986946,0.0019093464542306049,0.012646330562998182
820.233333332916,-0.02373589,-0.7402852,-0.035222705,-2.3419,0.002352983,1.6057347,0.8229739,0.04,0.039999913,-0.013289691079210186,0.04754775380229892,0.026211793063057875,0.16178339432787442,-0.023296343980815468,0.04454746096282059,0.9989574299619195,0.0437040644414966,0.0019842173950576397,0.013041117916014654
820.2499999995827,-0.024508951,-0.73885804,-0.03636261,-2.341435,0.0024261123,1.6068581,0.8241687,0.04,0.039999925,-0.013048409432347974,0.047885456643564916,0.02628109154221292,0.1648477510980239,-0.02344060753224631,0.04519834287237712,0.9988886166032724,0.045128759174870775,0.0020602468787099017,0.013441804139914889
820.2666666662493,-0.025295766,-0.73740536,-0.037522808,-2.3409607,0.0025005457,1.6080016,0.8253847,0.04,0.03999992,-0.011731972627182508,0.048242776050015646,0.026552224242104572,0.16791665593047833,-0.023584322963719533,0.04583964830474556,0.9988162823180597,0.046579911109776995,0.0021378469265486786,0.013848309205594463
820.283333332916,-0.026096335,-0.7359274,-0.038703274,-2.3404787,0.002576284,1.609165,0.8266219,0.04,0.039999917,-0.013709919697113548,0.0484573793073928,0.02548212330704125,0.17098983876009372,-0.02372303243898404,0.04647173863446928,0.9987403041076612,0.048057555188836136,0.002216474922737693,0.01426056026687489
820.2999999995826,-0.026910627,-0.73442405,-0.039903983,-2.3399885,0.0026533247,1.6103486,0.8278803,0.04,0.039999917,-0.013508089509950416,0.04876375636095748,0.025656539880825058,0.17406655496671725,-0.023862330832101222,0.04709400015330496,0.9986605553266132,0.04956172381399235,0.002296362830725926,0.01467847012041089
820.3166666662493,-0.027738642,-0.73289555,-0.04112492,-2.3394895,0.0027316662,1.6115518,0.82916,0.04,0.039999913,-0.012418069752095917,0.049098579442018175,0.025065661382095428,0.17714602377826721,-0.023999567784373663,0.04770681794909952,0.9985769064944312,0.05109246043853214,0.0023776235272645295,0.015101960426103346
820.3333333329159,-0.028580343,-0.7313418,-0.042366035,-2.3389828,0.002811308,1.6127748,0.8304607,0.04,0.039999977,-0.014668987943133871,0.04926864463965508,0.024525664388774793,0.1802274085741053,-0.024133464013388353,0.04831004892030287,0.9984892321542248,0.052649717311766375,0.0024597746648919844,0.015530938402278234
820.3499999995826,-0.02943571,-0.7297628,-0.043627292,-2.3384678,0.0028922455,1.6140178,0.8317825,0.04,0.039999966,-0.013563863704812995,0.049606569355926944,0.024553155147444272,0.1833101904529176,-0.02426847194141382,0.048900927070300394,0.9983974002116055,0.05423349756469616,0.0025431976912413815,0.01596531046082522
820.3666666662492,-0.030304698,-0.72815883,-0.044908643,-2.3379445,0.0029744764,1.6152806,0.83312535,0.04,0.03999997,-0.013512215542665906,0.04984409382084859,0.024038980608498406,0.18639418487197196,-0.024400547130365192,0.04948252835451412,0.9983012766812637,0.055843812583230124,0.0026279456582118865,0.016404983216862717
820.3833333329159,-0.031187288,-0.7265294,-0.046210058,-2.3374124,0.0030579974,1.6165631,0.83448905,0.04,0.03999997,-0.013488911607684173,0.05018308910501729,0.02414284224658836,0.18947792877511874,-0.02452968557874128,0.050050243774579686,0.9982007294626415,0.05748060973625368,0.002713954123259201,0.016849856308457943
820.3999999995825,-0.03208345,-0.7248747,-0.04753146,-2.3368726,0.0031428055,1.6178652,0.83587384,0.04,0.039999973,-0.015586997167371663,0.05031417812732947,0.02317574424750557,0.19256145049696494,-0.024655788943714875,0.05060706100736511,0.9980956158913202,0.059144008551622336,0.0028006783877760166,0.01729982634421864
820.4166666662492,-0.032993123,-0.7231955,-0.048872788,-2.3363247,0.0032288972,1.619187,0.8372794,0.04,0.039999977,-0.01391147073657173,0.050553613044297674,0.02261348709546862,0.19564283764744766,-0.02478394668034025,0.05115208293437894,0.9979858054655772,0.06083382343254936,0.002888800014229607,0.017754797950923037
820.4333333329158,-0.03391629,-0.7214914,-0.050233997,-2.3357687,0.0033162695,1.6205283,0.8387057,0.04,0.03999998,-0.01471228839096117,0.0508548111686144,0.022458916656020733,0.1987228140353416,-0.024907036064135538,0.0516847916842759,0.99787115416399,0.06255011691797725,0.002978014417816318,0.018214664177560277
820.4499999995825,-0.034852855,-0.71976256,-0.051614992,-2.3352041,0.0034049153,1.6218892,0.8401527,0.04,0.039999973,-0.01388295197402023,0.05103292909209994,0.022282818674024263,0.20179954069546896,-0.025028640715601416,0.05220395723884248,0.9977515257604058,0.06429276699921517,0.003068644113671521,0.018679303457853538
820.4666666662491,-0.03580281,-0.718009,-0.053015724,-2.3346314,0.0034948324,1.6232696,0.84162045,0.04,0.039999977,-0.01494217735362735,0.05129209887294872,0.021616450557937483,0.2048733931024905,-0.02514470418496787,0.05271087378277658,0.997626768519935,0.06606188985004238,0.003160383406542698,0.01914861401346356
820.4833333329158,-0.036766086,-0.716231,-0.0544361,-2.334051,0.0035860147,1.6246693,0.84310865,0.04,0.03999998,-0.01520013804463538,0.051438218635525834,0.020999955255129876,0.2079421675544429,-0.025259168843045812,0.053203899422030125,0.9974967488824001,0.06785728118191123,0.00325325884012834,0.019622478603888042
820.4999999995824,-0.037742633,-0.7144284,-0.055876024,-2.3334625,0.0036784583,1.6260881,0.84461784,0.04,0.04,-0.015662298493746007,0.05162517795003069,0.020455216662695896,0.2110066083697873,-0.025371053218100625,0.05368610636311835,0.997361301361386,0.0696791993036052,0.003347020537032107,0.02010077572274046
820.5166666662491,-0.038732376,-0.7126015,-0.057335425,-2.3328662,0.0037721554,1.627526,0.8461471,0.04,0.04,-0.015657148325454173,0.051818841672701677,0.020009570852042025,0.2140630255448187,-0.025482017853296388,0.05415169508088853,0.9972203071948512,0.07152717922218205,0.00344176010316088,0.02058338743055964
820.5333333329157,-0.039735258,-0.71075034,-0.058814205,-2.3322618,0.0038671005,1.6289828,0.8476966,0.04,0.04,-0.015318911932959978,0.052019587578625015,0.019503266727816104,0.2171143832952917,-0.02559074951278014,0.05460313393246388,0.9970736118004945,0.07340126300402484,0.003537559622549826,0.021070190137909887
820.5499999995824,-0.040751234,-0.7088751,-0.060312256,-2.3316498,0.003963288,1.6304582,0.8492663,0.04,0.04,-0.01624147461900538,0.05215297179055056,0.018746538951974756,0.22015894903587288,-0.025696689172858417,0.05504038734183362,0.9969210642125699,0.07530142954027497,0.0036341747690119934,0.0215610577712818
820.566666666249,-0.0417802,-0.706976,-0.061829478,-2.33103,0.0040607103,1.6319528,0.85085607,0.04,0.04,-0.015712742931173196,0.05234035458085984,0.018675029313963698,0.22319573324350447,-0.02580252631775176,0.05546267205902718,0.9967625153860629,0.0772275810300484,0.0037319875402730975,0.02205585905140044
820.5833333329157,-0.04282209,-0.7050529,-0.06336579,-2.3304024,0.004159362,1.6334665,0.85246575,0.04,0.04,-0.016367897125069142,0.052531260118737766,0.018298645834780025,0.2262238968349396,-0.025903481967154425,0.05586992259191975,0.9965978172357182,0.07917961115926025,0.0038309044120428968,0.022554468050840132
820.5999999995823,-0.043876838,-0.7031063,-0.06492103,-2.3297672,0.004259236,1.6349993,0.8540952,0.04,0.04,-0.016112812197288662,0.05263132819703642,0.017614135706400802,0.22924282424752823,-0.026001287337559943,0.056262024445399496,0.9964268202577238,0.08115741011188014,0.003931069851787347,0.023056741852100625
820.616666666249,-0.04494437,-0.701136,-0.0664951,-2.3291245,0.0043603242,1.63655,0.8557444,0.04,0.04,-0.016853342049327757,0.05270018429775758,0.0164156858506459,0.23225233968163128,-0.02609366046447502,0.05663969285591382,0.9962493738456053,0.08316090274255075,0.004031823204102333,0.023562550136483437
820.6333333329156,-0.046024572,-0.69914234,-0.06808788,-2.3284738,0.004462618,1.6381192,0.8574133,0.04,0.04,-0.016066346635890127,0.052904066500178426,0.016525372323550336,0.2352511875175079,-0.026186559015392644,0.05700079423595316,0.9960653211378544,0.08519001425937898,0.004133784486265862,0.02407175363056792
820.6499999995823,-0.04711739,-0.6971254,-0.069699265,-2.3278155,0.0045661125,1.6397071,0.85910153,0.04,0.04,-0.016616891070531103,0.05304296087428051,0.015976578456800006,0.2382384993848562,-0.02627537858821584,0.05734874028424109,0.9958745161129688,0.08724456190039123,0.004236862379601883,0.02458421389317268
820.666666666249,-0.048222713,-0.69508547,-0.071329094,-2.3271499,0.0046707965,1.641313,0.8608092,0.04,0.04,-0.01699612962109409,0.05302551622760332,0.014833230220112625,0.24121392995521707,-0.026358742226060716,0.057677455569827486,0.995676801403032,0.08932449301809098,0.0043408118332676545,0.025099789790285716
820.6833333329156,-0.04934047,-0.69302255,-0.07297726,-2.3264768,0.0047766627,1.6429371,0.862536,0.04,0.04,-0.017206198754182722,0.05321153790783795,0.014635774502536059,0.24417615928357325,-0.026439353717641646,0.05799058193607282,0.995472028656735,0.09142962609167721,0.004445720550374507,0.025618337252224534
820.6999999995822,-0.05047056,-0.6909369,-0.074643604,-2.3257964,0.004883703,1.6445787,0.8642817,0.04,0.04,-0.01728546863264402,0.05320156770395046,0.013551230982744578,0.24712506713013388,-0.02651734853685858,0.05828843644997899,0.9952600525469956,0.09355975781852663,0.004551377498143468,0.026139710862201085
820.7166666662489,-0.051612888,-0.6888287,-0.07632797,-2.3251083,0.004991906,1.6462382,0.86604637,0.04,0.04,-0.016826181637208393,0.05334536765204956,0.013471221060856742,0.25006106040516135,-0.026592391256418296,0.05856710720125121,0.9950407090119396,0.09571485559150293,0.00465813414472279,0.02666375094400959
820.7333333329155,-0.052767355,-0.6866981,-0.07803025,-2.324413,0.005101265,1.6479155,0.8678297,0.04,0.04,-0.017680163635325208,0.05339151235138617,0.012622261500805365,0.25298164562304826,-0.026663976510282475,0.05883060751262756,0.9948138518055998,0.09789470870150521,0.004765780533976569,0.027190321804931996
820.7499999995822,-0.053933848,-0.6845452,-0.07975028,-2.3237107,0.0052117687,1.6496102,0.8696315,0.04,0.04,-0.017787355482923317,0.05338842544140854,0.011853032755104742,0.2558873558687085,-0.026731100989117587,0.05907761781877179,0.9945793286686433,0.10009916622693493,0.004874223691633978,0.027719268552893184
820.7666666662489,-0.055112265,-0.6823705,-0.0814879,-2.323001,0.005323407,1.6513219,0.87145174,0.04,0.04,-0.017263478020512757,0.05344989831357616,0.011108127231840292,0.2587767231256074,-0.0267956306175796,0.05930673009516152,0.9943369875114424,0.10232805913895897,0.004983580221048175,0.02825044261075549
820.7833333329155,-0.05630251,-0.68017393,-0.083242945,-2.3222837,0.0054361736,1.653051,0.8732903,0.04,0.04,-0.017282357343417765,0.053521840866641024,0.010920562701532965,0.26164995339024116,-0.02685661511709811,0.05952106325036892,0.9940866665363756,0.10458130772856614,0.00509405406095702,0.028783677694203574
820.7999999995822,-0.057504453,-0.6779558,-0.08501527,-2.3215601,0.0055500525,1.6547971,0.87514687,0.04,0.04,-0.01899425003102362,0.053361316365674316,0.009512313184334431,0.2645047377875018,-0.02691104140865369,0.0597145641171465,0.9938282285242944,0.10685862516531221,0.005205049358721416,0.02931883144355261
820.8166666662488,-0.058718003,-0.6757165,-0.086804695,-2.3208294,0.0056650364,1.65656,0.87702143,0.04,0.04,-0.017490984959400713,0.05349288619083403,0.009155595570686792,0.2673417203748796,-0.026965835712489644,0.0598922614234271,0.9935615092676582,0.10915993103085767,0.005317068203076238,0.02985574559168494
820.8333333329155,-0.05994303,-0.673456,-0.08861108,-2.320092,0.005781115,1.6583395,0.87891364,0.04,0.04,-0.018631851722661352,0.05342879650292731,0.00841275287393195,0.270159536279474,-0.0270137791024523,0.060050980301664086,0.9932863699531735,0.11148494705506123,0.00542978363465891,0.030394264180245052
820.8499999995821,-0.06117943,-0.6711745,-0.0904342,-2.3193476,0.005898277,1.6601355,0.8808233,0.04,0.04,-0.01820351634849171,0.05338548841403723,0.007813356676256156,0.2729579490807906,-0.027058655263880377,0.06019280066451466,0.9930026627660847,0.11383346637201301,0.005543313660309812,0.030934209976343437
820.8666666662488,-0.06242709,-0.6688722,-0.09227388,-2.3185966,0.006016508,1.6619478,0.88275033,0.04,0.04,-0.018708502346709288,0.053345322347939095,0.007096016283170137,0.2757365860262584,-0.02710081494377481,0.06031568034667298,0.9927102356169056,0.11620532794999258,0.005657537134441856,0.03147542106207495
820.8833333329154,-0.06368585,-0.6665494,-0.09412997,-2.3178391,0.006135801,1.6637762,0.8846944,0.04,0.04,-0.018917174127164316,0.0532103283590768,0.0060533154740749495,0.2784944846516885,-0.027139007671557996,0.06042159266475273,0.9924089497835905,0.11860025172090036,0.005772364702045805,0.032017752683730395
820.8999999995821,-0.06495559,-0.6642064,-0.09600228,-2.3170748,0.006256139,1.6656206,0.88665545,0.04,0.04,-0.017957010995561795,0.05327713267730405,0.005833638454699752,0.2812311170543296,-0.027175082336471715,0.06050869392282147,0.9920986479582132,0.12101810156561281,0.005888210630381649,0.032561031748282294
820.9166666662487,-0.066236235,-0.6618431,-0.09789065,-2.3163035,0.0063775172,1.6674805,0.88863343,0.04,0.04,-0.018424533371375063,0.05325806285570722,0.004973086058956966,0.28394567785505953,-0.027205506904193585,0.06057957338699783,0.9917791741809129,0.12345875783869883,0.006004745522449551,0.03310510240374818
820.9333333329154,-0.06752761,-0.65946007,-0.09979486,-2.3155258,0.0064999172,1.669356,0.89062786,0.04,0.04,-0.018801357247277828,0.05301732508658785,0.004127295940414832,0.2866365309116743,-0.027232329564975247,0.0606317594011357,0.9914504067273368,0.12592181408684763,0.006122032621577561,0.03364979128993506
820.949999999582,-0.06882957,-0.65705746,-0.10171468,-2.3147416,0.0066233287,1.671247,0.8926387,0.04,0.04,-0.018729965308716956,0.05289417994008283,0.003477749818325826,0.28930399011056507,-0.02725357001715116,0.06066482881193115,0.9911121957542581,0.12840709959008612,0.006240129405918128,0.034194926334654145
820.9666666662487,-0.07014202,-0.65463597,-0.10364996,-2.3139513,0.0067477394,1.6731533,0.8946655,0.04,0.04,-0.018581250773830327,0.052795890755091834,0.0023793548551420685,0.29194749154021216,-0.027271035056651197,0.06067975366344609,0.990764410923047,0.13091428624081114,0.00635912917192305,0.03474036819812494
820.9833333329153,-0.07146484,-0.6521951,-0.10560049,-2.3131554,0.0068731355,1.6750745,0.8967083,0.04,0.04,-0.02072180705645632,0.0525414473102781,0.001519498822766252,0.2945666028915542,-0.02728194341948853,0.06067629239548941,0.990406901007471,0.13344326671963072,0.006478254774153186,0.035285935144931724
820.999999999582,-0.07279783,-0.64973557,-0.107566096,-2.312353,0.0069995043,1.6770103,0.8987668,0.04,0.04,-0.018021342440932564,0.052581713896743265,0.0011930650101854567,0.29716019169614416,-0.027293757393722556,0.06065362741815196,0.9900395337466614,0.13599371071579022,0.006598342401423172,0.03583146859949585
821.0166666662486,-0.07414087,-0.6472576,-0.109546505,-2.3115444,0.0071268342,1.6789608,0.9008409,0.04,0.04,-0.019127134212082453,0.052248822986955545,0.00024179038351501703,0.2997272945067285,-0.02729859609901361,0.060613349806837816,0.9896621729090896,0.13856538440369737,0.006719154033016464,0.03637678829962003
821.0333333329153,-0.07549383,-0.64476156,-0.11154154,-2.3107295,0.007255108,1.6809254,0.90293026,0.04,0.04,-0.018296810359008653,0.05217299791313579,-0.000534440809607517,0.30226749637534606,-0.027298472375727495,0.06055490847695065,0.9892746838534067,0.1411580290779809,0.006840781029846347,0.03692173382255708
821.0499999995819,-0.076856546,-0.64224744,-0.113550976,-2.3099089,0.0073843193,1.6829042,0.90503454,0.04,0.04,-0.01955088877791944,0.051878047249642734,-0.0012268932326087167,0.3047802699420732,-0.027293148550444624,0.060481433642227106,0.9888769525655379,0.14377126948620036,0.006963020683221593,0.03746613267987905
821.0666666662486,-0.078228906,-0.63971555,-0.11557462,-2.309083,0.007514446,1.6848971,0.9071537,0.04,0.04,-0.020282784813097088,0.05161967762140063,-0.0023624382328391036,0.307265676081894,-0.02728274453065628,0.060384953978625526,0.9884688347115789,0.14640495209575816,0.007085603541114356,0.03800982804788944
821.0833333329152,-0.07961072,-0.6371662,-0.11761225,-2.3082514,0.007645479,1.6869038,0.9092875,0.04,0.04,-0.019243714488514918,0.05147797501095508,-0.002682783656626775,0.30972173787622725,-0.0272712259620443,0.06027141909021481,0.9880502083334346,0.1490587497472622,0.007208920053345246,0.03855264462659036
821.0999999995819,-0.08100186,-0.6345996,-0.11966361,-2.3074136,0.007777402,1.688924,0.91143554,0.04,0.04,-0.018467697353363732,0.05128818029446203,-0.003410332557551854,0.3121485727965061,-0.02725423388509901,0.06013999391573828,0.9876209597444826,0.15173231132532294,0.007333035991247664,0.03909440057621245
821.1166666662485,-0.082402185,-0.6320163,-0.12172852,-2.3065703,0.007910201,1.6909574,0.9135978,0.04,0.04,-0.019250775475510018,0.050965690224963334,-0.0044995507847644944,0.314546033893516,-0.02723175502512197,0.05998968665149012,0.9871809496174184,0.15442546423603273,0.007457830662216839,0.03963495262708704
821.1333333329152,-0.08381155,-0.6294165,-0.123806715,-2.3057227,0.00804386,1.6930039,0.91577375,0.04,0.04,-0.021194092645093754,0.05039600952485013,-0.006017869644003859,0.3169117538968244,-0.027201860715251616,0.059822284565343796,0.9867300956755808,0.1571377086171685,0.0075826901207351315,0.04017414129932324
821.1499999995818,-0.08522977,-0.6268001,-0.12589794,-2.3048692,0.008178369,1.6950631,0.9179632,0.04,0.04,-0.01876808980967315,0.050424398377069135,-0.005583382262530634,0.3192477638890444,-0.02717433669821595,0.059635179738929914,0.9862682709625951,0.15986880166830233,0.007708241585522624,0.04071175453420591
821.1666666662485,-0.08665668,-0.6241679,-0.12800203,-2.30401,0.008313707,1.6971347,0.92016613,0.04,0.04,-0.018365579567736212,0.05012344256789536,-0.006839065562869173,0.3215529789757647,-0.02713991729107111,0.05943159691600007,0.9857953454438239,0.16261852907189675,0.007834603738495533,0.041247665243566455
821.1833333329151,-0.08809215,-0.62152004,-0.13011877,-2.3031464,0.008449864,1.6992189,0.9223822,0.04,0.04,-0.020788589556786086,0.04959005439921227,-0.008064434842913748,0.32382471621191444,-0.02709841379707273,0.05921042899056961,0.9853112220400654,0.16538652508885338,0.007961188542686815,0.04178172468837325
821.1999999995818,-0.08953599,-0.6188568,-0.13224782,-2.302277,0.008586824,1.701315,0.9246112,0.04,0.04,-0.018208441018163768,0.04940721206943555,-0.008141922513793531,0.3260634501046876,-0.0270561852420248,0.05897204324727928,0.9848157871272281,0.16817249653570546,0.008088623869989632,0.042313721153027305
821.2166666662484,-0.09098805,-0.6161782,-0.134389,-2.3014028,0.00872457,1.703423,0.9268528,0.04,0.04,-0.01958487394320141,0.048994159639376145,-0.009190922182122918,0.32826838039325074,-0.02700608998977161,0.05871477561503517,0.9843089518694992,0.17097605353884895,0.00821647213741722,0.04284350559260547
821.2333333329151,-0.092448175,-0.613485,-0.1365421,-2.300524,0.008863087,1.7055427,0.92910737,0.04,0.04,-0.019720778687459806,0.04858558794265111,-0.010305450315306608,0.33043928902694464,-0.026951896891689975,0.058438920945648405,0.9837905619713971,0.17379717022059785,0.008344755212653982,0.04337094487967703
821.2499999995817,-0.09391617,-0.6107771,-0.13870683,-2.2996397,0.0090023605,1.7076738,0.9313737,0.04,0.04,-0.018267929902582303,0.04837386757766127,-0.010327398148857192,0.3325729339546979,-0.026893783329882348,0.05814622990117912,0.9832605978036987,0.1766350650497262,0.008473855185593118,0.043895835564271374
821.2666666662484,-0.09539189,-0.6080552,-0.14088297,-2.2987523,0.00914237,1.7098162,0.9336519,0.04,0.04,-0.02168755126266131,0.04741660264548919,-0.012522264253722604,0.3346722015805818,-0.02682901043120918,0.057836621765654295,0.982718952017813,0.1794895201691022,0.008602848625096146,0.044418064906191115
821.283333332915,-0.09687517,-0.6053193,-0.14307025,-2.2978601,0.009283102,1.7119694,0.9359419,0.04,0.04,-0.019027723309772426,0.04737871390204651,-0.012428738493586167,0.336735850194522,-0.026764538638150995,0.05750868681311732,0.9821655167286896,0.1823602776395635,0.008732305209031923,0.044937442450852114
821.2999999995817,-0.098365806,-0.60256994,-0.14526844,-2.2969625,0.009424542,1.7141335,0.9382431,0.04,0.04,-0.017268553821292443,0.047228244883051884,-0.01244336552297387,0.33876239468063385,-0.026695166522474986,0.0571623924040897,0.9816002192264398,0.1852468911544824,0.008862920475846199,0.04545379602237152
821.3166666662484,-0.099863686,-0.5998073,-0.14747722,-2.2960608,0.009566672,1.7163078,0.9405553,0.04,0.04,-0.019716906727706984,0.04628513979532678,-0.0144037823516463,0.340751550805723,-0.026615923817178755,0.056801842613892276,0.9810229980145725,0.18814894901728887,0.008993721968915434,0.0459669807071926
821.333333332915,-0.10136857,-0.5970317,-0.14969636,-2.2951555,0.009709481,1.7184926,0.9428782,0.04,0.04,-0.0201685059962875,0.04577123652209081,-0.014827011761764375,0.3427037453313777,-0.026533980109977318,0.05642456602176589,0.9804337775567564,0.1910660845331931,0.009124834331695978,0.046476839020767095
821.3499999995817,-0.10288031,-0.5942437,-0.15192565,-2.2942455,0.009852949,1.7206873,0.9452117,0.04,0.04,-0.017678705404389206,0.04561078440205035,-0.01542472111577542,0.3446179913796172,-0.02644893625012784,0.056030718497813645,0.979832460928126,0.19399803463558385,0.009256738084194489,0.04698322965808137
821.3666666662483,-0.10439876,-0.59144324,-0.15416479,-2.2933319,0.009997052,1.7228913,0.94755554,0.04,0.04,-0.020020954401145374,0.04477864420769917,-0.01672021127572254,0.3464929559288355,-0.026355104389964176,0.05562039519182509,0.9792189941694075,0.1969443975882388,0.009388640246310566,0.047485988994490344
821.383333332915,-0.10592372,-0.58863086,-0.1564136,-2.2924142,0.01014178,1.725105,0.94990927,0.04,0.04,-0.018488733199228946,0.044577081209706826,-0.016914914835797212,0.34832845894982845,-0.026261805024443197,0.055193913658272725,0.9785933147778388,0.19990475999545307,0.009521176274321357,0.04798498104235336
821.3999999995816,-0.107455,-0.58580685,-0.1586717,-2.291493,0.010287114,1.7273281,0.95227265,0.04,0.04,-0.019092610501791896,0.043731387894579976,-0.017910925536912536,0.35012416689093395,-0.026161904498726463,0.054749796156316005,0.9779553776024607,0.20287869370311223,0.009654086783729462,0.04848003370584153
821.4166666662483,-0.10899242,-0.5829717,-0.16093884,-2.2905674,0.0104330415,1.7295592,0.95464545,0.04,0.04,-0.01766833872807183,0.04320226704614405,-0.018914919500878646,0.3518798572920957,-0.02605628190708223,0.05429128083543061,0.9773051279968169,0.2058658159114708,0.009787380009082488,0.048971010024172305
821.4333333329149,-0.11053581,-0.5801257,-0.16321485,-2.2896392,0.010579541,1.7317997,0.95702744,0.04,0.04,-0.01980247135648927,0.042628441870617984,-0.01948374628055749,0.35359483449440154,-0.025946917403881137,0.05381681831233448,0.976642501117391,0.20886580680879643,0.00992103382075588,0.049457788519146784
821.4499999995816,-0.11208498,-0.5772692,-0.16549937,-2.2887068,0.010726596,1.7340481,0.9594184,0.04,0.04,-0.016980372125585674,0.04218972290681022,-0.020080608458039606,0.355268210341106,-0.025834275561858647,0.05332713437735315,0.9759674479069009,0.21187828627741295,0.010055294065161403,0.04994019915359072
821.4666666662482,-0.113639735,-0.57440215,-0.16779213,-2.287771,0.010874188,1.7363043,0.9618176,0.04,0.04,-0.018799852687800822,0.0413105131628011,-0.021009277204142585,0.3568986425679144,-0.02571488751677048,0.0528229351779191,0.975279992928258,0.2149025918059248,0.01018961853416984,0.05041808309606027
821.4833333329149,-0.115199916,-0.5715253,-0.17009291,-2.286833,0.011022295,1.7385683,0.9642253,0.04,0.04,-0.019909944836804527,0.040524698872912435,-0.02231446787848146,0.3584888123037545,-0.02559318070642401,0.052302025584450455,0.9745800422262717,0.21793859192068815,0.010323824873365275,0.05089135570851147
821.4999999995815,-0.11676532,-0.56863904,-0.17240137,-2.2858908,0.011170912,1.74084,0.96664095,0.04,0.04,-0.01564451401805389,0.04044847875324664,-0.021703489387481234,0.36003536796225555,-0.025471924912876212,0.05176655102294411,0.9738675784177737,0.2209857799254548,0.010459118508882745,0.051359824936001705
821.5166666662482,-0.11833579,-0.56574345,-0.17471725,-2.284946,0.011320013,1.7431186,0.96906424,0.04,0.04,-0.018766114074697526,0.03929759317036208,-0.023427671329101507,0.36153830726482483,-0.025339425158900614,0.051218608883465216,0.9731425983217747,0.22404370099067175,0.010594382897206387,0.05182337724400977
821.5333333329148,-0.11991111,-0.5628391,-0.17704034,-2.2839983,0.01146958,1.7454044,0.971495,0.04,0.04,-0.01757126787211849,0.038824492131667165,-0.023859340259702044,0.3629980681103008,-0.02520602311688727,0.05065653087146401,0.9724050616565042,0.22711201032484807,0.01073004081210022,0.0522818998811917
821.5499999995815,-0.12149108,-0.55992603,-0.17937033,-2.2830474,0.011619597,1.7476966,0.97393286,0.04,0.04,-0.01724666394937735,0.03814219935613927,-0.024336616656905896,0.3644134342934006,-0.02506758675786655,0.05007956742140103,0.9716549614296379,0.23019027038520806,0.010866015193390647,0.05273523549744358
821.5666666662481,-0.123075545,-0.5570049,-0.18170694,-2.2820945,0.011770045,1.7499958,0.9763777,0.04,0.04,-0.017893755036890724,0.0373072676589592,-0.025227650959447345,0.36578345836117915,-0.024925264627751742,0.0494892060714934,0.9708922741909121,0.23327811585244926,0.011002344064818254,0.05318327750157394
821.5833333329148,-0.12466431,-0.5540759,-0.1840499,-2.2811387,0.011920908,1.752301,0.9788289,0.04,0.04,-0.01681115775626907,0.036739003282304505,-0.025785381754994674,0.36710829984068116,-0.024779114346087455,0.048885249677774925,0.9701170376602342,0.23637495636182101,0.011138989831481065,0.05362589068549923
821.5999999995814,-0.12625715,-0.5511396,-0.18639886,-2.2801802,0.0120721655,1.7546121,0.9812864,0.04,0.04,-0.016306070330784905,0.03583673837791457,-0.02641512437304705,0.3683878536781069,-0.024628293570130327,0.048268844752446895,0.9693292322616743,0.23948044916726527,0.011276163743071487,0.05406294554385218
821.6166666662481,-0.1278539,-0.548196,-0.18875359,-2.2792199,0.0122238025,1.7569287,0.98374987,0.04,0.04,-0.017703264362456395,0.03492607299815931,-0.02743224082231155,0.3696209164125297,-0.024471567210555004,0.047639802711539045,0.9685288747950765,0.24259415265494724,0.011413285719187384,0.05449433635620475
821.6333333329147,-0.12945436,-0.54524565,-0.19111384,-2.2782571,0.012375797,1.7592504,0.98621905,0.04,0.04,-0.016326270721545022,0.03438617350549622,-0.02784152189754252,0.3708084709810847,-0.024313365138895718,0.04699891198125436,0.9677159629259369,0.24571568127923255,0.011550663116445035,0.05491995314436842
821.6499999995814,-0.13105838,-0.5422891,-0.19347928,-2.277292,0.012528129,1.7615775,0.9886935,0.04,0.04,-0.01539111156083628,0.033728512673553146,-0.028136836720937808,0.3719489397708119,-0.024151753786413446,0.04634398414012239,0.9668905330757926,0.2488445139539086,0.011688730256281907,0.05533966487473999
821.666666666248,-0.13266571,-0.53932637,-0.19584963,-2.276325,0.012680781,1.7639093,0.99117285,0.04,0.04,-0.016303974485287753,0.03264665427783475,-0.029026794686060065,0.3730413249720964,-0.023982524039698236,0.04567927928028531,0.9660526264233651,0.25198017366978726,0.01182699361794982,0.05575336115269596
821.6833333329147,-0.13427617,-0.536358,-0.19822456,-2.2753568,0.012833737,1.7662455,0.9936571,0.04,0.04,-0.01699935593471036,0.03151855576213336,-0.030169505138322172,0.37408770592307805,-0.02381019028944019,0.04500367764728619,0.965202254215146,0.2551223073249836,0.011965102743400057,0.056160956896380405
821.6999999995813,-0.13588955,-0.5333842,-0.20060387,-2.2743866,0.012986978,1.7685856,0.9961457,0.04,0.04,-0.015514847371433937,0.03105814059793932,-0.030276084429314842,0.37508581340985203,-0.023637678063022693,0.044314479723082986,0.9643394690039738,0.25827039779706823,0.012103374020444778,0.05656234153745091
821.716666666248,-0.13750567,-0.53040564,-0.20298721,-2.2734149,0.013140487,1.7709296,0.9986384,0.04,0.04,-0.0149531927476243,0.03013662057015365,-0.030827498199959003,0.37603568698215256,-0.02346250547149724,0.043614813635816665,0.9634643180653123,0.261423973183783,0.012242028405860979,0.05695741216257712
821.7333333329146,-0.13912435,-0.5274225,-0.20537435,-2.2724411,0.013294242,1.7732773,1.0011349,0.04,0.04,-0.01432334711377603,0.02954250317787066,-0.031091635015778607,0.3769377421518484,-0.02328366047492146,0.04290551739669364,0.9625768283828243,0.2645826619765455,0.01238116700948418,0.05734606477650343
821.7499999995813,-0.14074536,-0.5244351,-0.20776494,-2.271466,0.013448225,1.7756284,1.0036349,0.04,0.04,-0.014659476384792924,0.02840466419383736,-0.03177151080004936,0.377790622991554,-0.023098639419360523,0.042185968263069376,0.9616770620932591,0.26774599393573495,0.012520621956383225,0.0577281993558484
821.7666666662479,-0.14236853,-0.5214438,-0.21015872,-2.2704902,0.013602417,1.7779827,1.0061381,0.04,0.04,-0.015536578295693992,0.027329085484240068,-0.032707778101537244,0.37859383624565457,-0.02290869999915307,0.041457108648187316,0.9607651038448094,0.27091344401669126,0.01266002612983226,0.05810374190600461
821.7833333329146,-0.14399368,-0.5184492,-0.21255541,-2.269513,0.013756799,1.7803395,1.0086442,0.04,0.04,-0.013493879947823473,0.026675958804900368,-0.03305811445626361,0.37934857777743225,-0.022718214548776455,0.04071765402867082,0.9598409867331289,0.274084657255772,0.012799773539007134,0.058472614457621995
821.7999999995812,-0.14562058,-0.51545143,-0.21495464,-2.2685342,0.0139113525,1.7826988,1.0111527,0.04,0.04,-0.013237081362826864,0.02576696498018949,-0.033130420171678665,0.3800528979130429,-0.02252306130108997,0.039970690302969875,0.9589048317302331,0.2772590140490182,0.012939946269718705,0.05883468877725484
821.8166666662479,-0.14724903,-0.51245075,-0.21735622,-2.2675548,0.014066061,1.7850602,1.0136639,0.04,0.04,-0.01418752204738194,0.024657298225905233,-0.033991065248484276,0.3807084593030893,-0.02232269257844882,0.039215996471348255,0.9579566427460042,0.28043632906483285,0.013080124893169742,0.0591899171500029
821.8333333329145,-0.14887887,-0.5094477,-0.21975982,-2.2665744,0.014220902,1.7874234,1.0161773,0.04,0.04,-0.013036712696767871,0.023881869377573306,-0.034374845321205605,0.3813124857682936,-0.022121495443617703,0.03845148535558657,0.9569965011274636,0.2836161398515663,0.013220533751548979,0.05953821909339649
821.8499999995812,-0.15050986,-0.5064428,-0.22216518,-2.2655935,0.014375858,1.7897882,1.018692,0.04,0.04,-0.013046156414775467,0.022766054641865097,-0.03497423859901705,0.3818641669067403,-0.021916939257708393,0.03767872323950513,0.956024594946736,0.2867976525416867,0.013361173336584924,0.05987954075121942
821.8666666662479,-0.15214181,-0.5034362,-0.2245719,-2.2646124,0.014530911,1.7921543,1.021208,0.04,0.04,-0.013242717585715269,0.021548850113095597,-0.03546932087798993,0.3823671491141541,-0.021709777617442416,0.03690001322844556,0.9550409975553265,0.2899805079030095,0.013501782635828562,0.06021378488763629
821.8833333329145,-0.15377448,-0.5004283,-0.22697978,-2.2636304,0.0146860415,1.7945215,1.0237255,0.04,0.04,-0.011437174291040186,0.02107112436603442,-0.0352775073765077,0.38281990851232184,-0.02150114704216062,0.036112473872733294,0.9540457275672464,0.29316450037388153,0.013642836386121715,0.06054088243953406
821.8999999995812,-0.15540776,-0.49741942,-0.22938852,-2.2626483,0.014841226,1.7968892,1.0262433,0.04,0.04,-0.01270945657476652,0.01975331595593932,-0.036311757858364935,0.38321947599459516,-0.021288202177178916,0.035317926745834685,0.9530390094155611,0.2963488111965421,0.01378380895611461,0.060860785775930466
821.9166666662478,-0.15704143,-0.4944101,-0.2317978,-2.2616658,0.01499645,1.7992572,1.0287617,0.04,0.04,-0.011018382955430006,0.0189219634617932,-0.03643693403438952,0.3835693851128846,-0.021073612244466994,0.03451733896216446,0.9520208753118051,0.2995332311636022,0.013925053564805471,0.061173436085065674
821.9333333329145,-0.15867525,-0.4914006,-0.23420733,-2.2606833,0.015151697,1.8016255,1.0312802,0.04,0.04,-0.011340539970694508,0.017820200442075773,-0.03665322886823308,0.38386753292802145,-0.020856064084588274,0.03371127881935628,0.9509914942340941,0.3027171479128254,0.014066531831193689,0.061478768173828344
821.9499999995811,-0.16030909,-0.4883913,-0.23661683,-2.2597017,0.015306941,1.8039935,1.0337985,0.04,0.04,-0.01254518112352443,0.016396009826036284,-0.03783992730954644,0.3841142663184333,-0.020635239928837104,0.03289940377618834,0.9499509699960127,0.30590019437178306,0.014207614529308247,0.06177677052360844
821.9666666662478,-0.16194265,-0.4853826,-0.239026,-2.2587202,0.01546217,1.8063611,1.0363162,0.04,0.04,-0.0102342617748441,0.015751732054303247,-0.03722045593854695,0.3843092358226526,-0.020417269078397388,0.03208094048997316,0.9488994615265237,0.3090818057211753,0.014348971252455964,0.06206735301917565
821.9833333329144,-0.16357575,-0.48237476,-0.24143454,-2.2577386,0.01561736,1.8087281,1.0388334,0.04,0.04,-0.009702614514428554,0.014867898402837199,-0.03742250422484883,0.3844535201933539,-0.020195716444485992,0.03125651616082569,0.9478370301835536,0.3122617561104716,0.014490647587485016,0.06235046925341424
821.9999999995811,-0.16520824,-0.47936827,-0.24384215,-2.256758,0.015772492,1.811094,1.0413492,0.04,0.04,-0.010715563012109186,0.013349167351617286,-0.03836292608523362,0.3845431831156979,-0.01997086915468542,0.030429758815813855,0.9467639359364186,0.31543924895989295,0.014632187241085904,0.06262610416065865
822.0166666662477,-0.16683987,-0.47636345,-0.24624862,-2.2557774,0.015927551,1.8134586,1.0438638,0.04,0.04,-0.008564593993409808,0.012837863390247062,-0.03800901920802957,0.38458356318699427,-0.019746365683256245,0.029598191849932766,0.9456802215019712,0.3186141304377417,0.014774045803248237,0.06289421369242235
822.0333333329144,-0.16847058,-0.4733607,-0.24865355,-2.2547972,0.016082512,1.8158215,1.0463763,0.04,0.04,-0.00869717648599444,0.011701751350601253,-0.038381281248422994,0.38456970161827153,-0.019518270764129028,0.02876116612056668,0.9445861236273566,0.32178570800078155,0.014916153162798972,0.06315474290901574
822.049999999581,-0.17010008,-0.4703603,-0.25105664,-2.253818,0.016237369,1.8181827,1.0488871,0.04,0.04,-0.008963240346337997,0.010343375591526094,-0.038710344312220535,0.3845052393082888,-0.019286705815328306,0.027922763306085306,0.943481733977532,0.3249537368027454,0.015058309913282,0.06340768006509379
822.0666666662477,-0.17172813,-0.46736273,-0.2534577,-2.2528403,0.01639208,1.8205416,1.0513953,0.04,0.04,-0.00918951545598734,0.009095252714175217,-0.03929889523381913,0.38438684641990684,-0.019054031699978755,0.0270824002139688,0.9423673074900472,0.3281175118320515,0.015200275546728944,0.06365302684402302
822.0833333329143,-0.17335458,-0.46436825,-0.25585636,-2.2518635,0.016546644,1.822898,1.053901,0.04,0.04,-0.0078253340967116,0.008268604396677315,-0.039026201470049315,0.38421808630568843,-0.018823062426136003,0.026236124425234188,0.9412429408752913,0.3312767925134298,0.015342318865915722,0.06389073677978341
822.099999999581,-0.17497915,-0.46137738,-0.25825244,-2.2508874,0.016701037,1.8252516,1.0564039,0.04,0.04,-0.006626902913020594,0.007333614249072085,-0.03905837064077655,0.38399559361506247,-0.01859103811345965,0.025390216984952384,0.9401087950751682,0.334431160184463,0.015484639273002856,0.06412081149341706
822.1166666662476,-0.17660172,-0.45839036,-0.26064557,-2.2499125,0.016855244,1.8276021,1.0589035,0.04,0.04,-0.006954450060825401,0.006135505072102365,-0.03926005176018155,0.38372000962398756,-0.018354922705156457,0.024541563153995527,0.9389651018065557,0.33758003804930825,0.015627083934776798,0.06434321835071362
822.1333333329143,-0.17822215,-0.45540756,-0.26303533,-2.2489395,0.01700923,1.8299494,1.0613993,0.04,0.04,-0.00754151850288487,0.004602867883141126,-0.039754931444413444,0.38339210775141197,-0.01811757488534918,0.023691351972238067,0.9378120829274986,0.34072290499444463,0.015769327283892087,0.06455793866246419
822.1499999995809,-0.1798401,-0.45242944,-0.26542157,-2.2479675,0.01716299,1.8322929,1.0638914,0.04,0.04,-0.005182115353630223,0.003996479108947515,-0.03924531046559654,0.3830123037540235,-0.01788065421700409,0.02283800226096904,0.9366498864423793,0.34385941829767236,0.015911889351934855,0.06476497859735597
822.1666666662476,-0.18145546,-0.44945624,-0.26780397,-2.2469976,0.017316513,1.8346325,1.0663792,0.04,0.04,-0.006781291112045729,0.002415149920154125,-0.039929072348909855,0.38258070210812145,-0.01764264552705881,0.02198662829625983,0.9354787490834124,0.34698905628254967,0.016054197384421005,0.06496435622571368
822.1833333329142,-0.18306807,-0.44648844,-0.27018234,-2.2460291,0.017469764,1.8369678,1.0688627,0.04,0.04,-0.004779612525962484,0.001883888601417194,-0.03963545009719738,0.3820973719572759,-0.017406083578392087,0.021135829833282292,0.9342987897206143,0.3501115899092838,0.016196667665965243,0.0651560748841358
822.1999999995809,-0.18467768,-0.44352633,-0.27255628,-2.245062,0.01762273,1.8392988,1.071341,0.04,0.04,-0.004118464449076598,0.0006797463633967382,-0.03926445869000261,0.3815601339168341,-0.017167511740245292,0.020284148367515423,0.9331103343825735,0.3532262697475251,0.01633947720559425,0.06534009269459468
822.2166666662475,-0.18628411,-0.4405702,-0.27492553,-2.2440975,0.01777539,1.8416249,1.0738145,0.04,0.04,-0.0053771500070576295,-0.0009311095128916591,-0.04009123861092867,0.3809723247973179,-0.016924305090379857,0.01943097356338496,0.9319135120370627,0.3563329110165839,0.016481937322735254,0.06551647389232863
822.2333333329142,-0.18788715,-0.43762058,-0.27728978,-2.2431355,0.01792774,1.843946,1.0762825,0.04,0.04,-0.0047861694663531296,-0.0021064502905954186,-0.03989020869981097,0.3803320046461603,-0.016686041489610295,0.018582038765672576,0.9307086014071576,0.35943091638519303,0.016624259808921828,0.06568523120944694
822.2499999995808,-0.18948662,-0.43467772,-0.27964884,-2.2421756,0.018079743,1.8462619,1.0787449,0.04,0.04,-0.0034918734949540564,-0.0027540431030703694,-0.039587160797838195,0.37964022317388585,-0.01644571371625013,0.01772907055810051,0.9294957654553481,0.3625200093099463,0.016766642428605087,0.06584637083518341
822.2666666662475,-0.19108233,-0.431742,-0.28200236,-2.2412179,0.01823139,1.8485718,1.0812012,0.04,0.04,-0.0029282254011553377,-0.004116279026833425,-0.03968131682601239,0.3788959850181126,-0.01620698560479851,0.016880460563642827,0.9282752870815099,0.3655996307082554,0.016908938335910374,0.06599991836419301
822.2833333329141,-0.1926741,-0.42881376,-0.28434986,-2.2402625,0.018382654,1.8508759,1.0836515,0.04,0.04,-0.0026124489155954222,-0.0053968045452545965,-0.03928788286660101,0.37810114985737153,-0.0159684535545266,0.016033336058286392,0.9270473500501116,0.3686694908563045,0.017051235071062716,0.06614584385560716
822.2999999995808,-0.19426173,-0.42589346,-0.2866914,-2.2393093,0.018533528,1.8531737,1.0860951,0.04,0.04,-0.0014044100744348142,-0.005929655459546712,-0.03927748195127201,0.3772528349255841,-0.015731222171336295,0.015190850911610466,0.9258122280457932,0.3717290568126658,0.017193748690780726,0.06628424947156278
822.3166666662474,-0.19584507,-0.42298132,-0.28902662,-2.2383587,0.018683989,1.8554653,1.0885317,0.04,0.04,-0.001730048935311146,-0.007234819292856187,-0.03920874977092481,0.37635365740236404,-0.015490103963437377,0.014349156434882222,0.9245701413617254,0.3747779812078664,0.017336292505212177,0.06641514485634249
822.3333333329141,-0.19742389,-0.42007777,-0.29135504,-2.2374113,0.01883402,1.8577497,1.0909613,0.04,0.04,-0.0019537098175259615,-0.00910555291806503,-0.039509370283408174,0.37540345485300586,-0.01524935322784736,0.01350933413140775,0.9233213628839102,0.37781580650972985,0.017478424922103806,0.0665385741945461
822.3499999995807,-0.19899793,-0.41718304,-0.2936766,-2.2364666,0.01898359,1.8600274,1.0933833,0.04,0.04,-0.0008447527809263278,-0.009557293738715611,-0.038696383985525884,0.37440168785240335,-0.015012883016626483,0.012676664102482027,0.9220661584279722,0.3808420704666243,0.017620634954365815,0.06665455774649957
822.3666666662474,-0.20056714,-0.41429755,-0.2959909,-2.2355251,0.019132696,1.8622977,1.0957975,0.04,0.04,-0.0006586343984205101,-0.010979702532865065,-0.03897095651403948,0.3733505958144035,-0.014776151191641607,0.011845048220817667,0.9208047615988243,0.38385643424289945,0.017762604932989128,0.066763154308747
822.383333332914,-0.20213118,-0.41142175,-0.2982977,-2.2345867,0.019281307,1.8645601,1.0982039,0.04,0.04,0.00015239868527139322,-0.01220079914369121,-0.038615274450637393,0.3722482784532656,-0.014540840306814573,0.011017247196964328,0.9195374209096495,0.3868585170762614,0.01790443409342114,0.06686441917926443
822.3999999995807,-0.20369,-0.4085559,-0.30059668,-2.2336516,0.019429421,1.8668147,1.1006017,0.04,0.04,0.00033452035801406765,-0.013182424532565129,-0.038425117619556026,0.37109556157501794,-0.014307235826938491,0.010194661739876994,0.918264458021791,0.3898477866948065,0.018046105640518305,0.06695839315812521
822.4166666662474,-0.20524338,-0.40570033,-0.30288762,-2.2327204,0.019577011,1.8690614,1.1029907,0.04,0.04,0.00018231782923372464,-0.014477380062372092,-0.0382925894029551,0.36989392419601397,-0.014074654335696851,0.009375632958436707,0.91698611596625,0.39282391398034555,0.01818748534616134,0.06704514230782269
822.433333332914,-0.2067911,-0.4028554,-0.3051703,-2.231792,0.019724067,1.8713002,1.105371,0.04,0.04,0.002673612799952707,-0.01472920241794018,-0.03707361135525389,0.3686432159329174,-0.013844856068520803,0.008562401936279947,0.9157025960529327,0.39578664513877604,0.0183293444855536,0.0671246768516766
822.4499999995807,-0.208333,-0.40002128,-0.3074443,-2.230867,0.019870555,1.8735297,1.1077421,0.04,0.04,0.0018155536630093394,-0.01677844279792673,-0.03774080554235226,0.3673413243899001,-0.01360914523859652,0.0077534321655958124,0.9144142495273774,0.39873545742357963,0.018470716409711253,0.06719708245008653
822.4666666662473,-0.20986897,-0.3971985,-0.30970943,-2.2299464,0.02001647,1.8757509,1.110104,0.04,0.04,0.0011322314088291208,-0.0177715486213037,-0.03735892316163447,0.36599096412767207,-0.013382544937671187,0.006955017400367532,0.913121258117754,0.40167017694345536,0.018611849704637806,0.06726244106658123
822.483333332914,-0.21139869,-0.39438742,-0.3119655,-2.2290287,0.020161794,1.8779627,1.112456,0.04,0.04,0.00443338408064875,-0.0182830327797312,-0.0364648206971685,0.3645903807276807,-0.01315347639504258,0.006155712815850332,0.911823988676371,0.4045902134817641,0.018753189623891615,0.06732080442199181
822.4999999995806,-0.21292208,-0.39158818,-0.31421226,-2.228116,0.020306513,1.8801651,1.1147977,0.04,0.04,0.0011162299194955594,-0.020289992753041997,-0.03726401369874566,0.36314174609219607,-0.012924369586390302,0.005366809228107193,0.9105227459649831,0.407495188600146,0.018893740485226913,0.06737230082604508
822.5166666662473,-0.21443893,-0.38880137,-0.31644937,-2.2272062,0.020450607,1.882358,1.1171291,0.04,0.04,0.005955624268749737,-0.020209668769277656,-0.03537251436898092,0.3616462286672505,-0.012706178294963691,0.004585657649373152,0.9092177713538538,0.4103847953591521,0.019034803757733046,0.06741691359193588
822.5333333329139,-0.21594903,-0.38602716,-0.3186766,-2.2263012,0.02059404,1.8845408,1.1194501,0.04,0.04,0.002984939937022979,-0.02243412380374954,-0.036211605743763364,0.3601016406115139,-0.012478075418473025,0.0038097184531792547,0.90790933561875,0.4132587549128495,0.019175277041302893,0.0674547888188128
822.5499999995806,-0.21745224,-0.38326582,-0.32089368,-2.2254002,0.020736823,1.8867134,1.1217604,0.04,0.04,0.004783283389175885,-0.022953014213289435,-0.03529864400195759,0.3585096389709411,-0.012260837639480715,0.0030445490642857856,0.9065977191947007,0.4161167238582393,0.019315540628887174,0.06748598051941189
822.5666666662472,-0.2189484,-0.38051775,-0.32310024,-2.2245033,0.020878928,1.8888751,1.1240593,0.04,0.04,0.00543038481402025,-0.024294457420204196,-0.034935916890410645,0.3568695178279576,-0.01204091358055806,0.002280883101595424,0.9052833185543561,0.418958137370067,0.019455505555131987,0.0675105590423502
822.5833333329139,-0.22043735,-0.37778342,-0.32529613,-2.2236118,0.02102034,1.8910266,1.1263468,0.04,0.04,0.00408923207195766,-0.025623529935348,-0.03497807364669647,0.35518400640993475,-0.01182571400342898,0.0015281185797156316,0.9039663744361908,0.4217827751946889,0.019594990306223622,0.06752866645102709
822.5999999995805,-0.2219189,-0.375063,-0.3274811,-2.2227244,0.02116104,1.893167,1.1286225,0.04,0.04,0.006796443421053233,-0.02606587295346241,-0.03382081945901838,0.3534523840111357,-0.011614305074291092,0.0007826269816773382,0.9026472039213581,0.4245902526924353,0.019734386828289374,0.06754033275043587
822.6166666662472,-0.22339292,-0.37235683,-0.32965502,-2.221841,0.021301018,1.8952962,1.1308863,0.04,0.04,0.007457387245923819,-0.026703561150209776,-0.0333782710664865,0.35167525223759344,-0.011408925016385518,5.067105216167295e-05,0.9013260280400122,0.4273803994189256,0.019873796650431392,0.06754567030411444
822.6333333329138,-0.22485913,-0.36966518,-0.33181748,-2.2209628,0.02144024,1.897414,1.1331383,0.04,0.04,0.006398526761230983,-0.028689888645694328,-0.033157466316802164,0.34985189328495647,-0.011199325023248233,-0.0006743655481571131,0.9000031498803899,0.4301529079862296,0.020012746945513894,0.06754476971655049
822.6499999995805,-0.22631747,-0.36698833,-0.33396822,-2.2200892,0.021578705,1.89952,1.135378,0.04,0.04,0.007415916730901806,-0.029383149033090916,-0.032507280072557876,0.34798161614692436,-0.010992444094614903,-0.0013940646362012102,0.8986788913348653,0.43290741291858376,0.02015139853841396,0.06753771721210285
822.6666666662471,-0.22776775,-0.36432666,-0.33610708,-2.2192209,0.02171639,1.901614,1.1376048,0.04,0.04,0.0071925368365199915,-0.03064782379790243,-0.03243854655528011,0.34606643885604993,-0.010790291924485385,-0.00210303787590245,0.8973536296894221,0.43564345789369663,0.020289466522694862,0.06752465050532966
822.6833333329138,-0.22920983,-0.36168048,-0.33823374,-2.218358,0.021853285,1.9036958,1.1398185,0.04,0.04,0.00755882981167133,-0.03168694581723308,-0.031730021680309584,0.34410807386951525,-0.010590457195618658,-0.0028067216950036014,0.8960276762309615,0.43836072482412425,0.0204270548629752,0.06750565746244253
822.6999999995804,-0.23064348,-0.35904998,-0.34034804,-2.2174995,0.02198938,1.9057653,1.1420195,0.04,0.04,0.009990815544669296,-0.03190868641371747,-0.030404327574418133,0.34210660685068317,-0.01039737082343202,-0.0034972080809969816,0.8947011837498221,0.44105921331982606,0.020564646575932693,0.06748079321977654
822.7166666662471,-0.23206858,-0.35643554,-0.34244967,-2.2166464,0.022124648,1.9078221,1.1442069,0.04,0.04,0.008674441096823138,-0.033640275513524553,-0.030533805103916123,0.34005916450549073,-0.010204506263168739,-0.004176286490572674,0.8933746172373893,0.4437383248150595,0.02070174271946985,0.0674502054455725
822.7333333329137,-0.23348497,-0.35383743,-0.34453857,-2.2157993,0.022259068,1.909866,1.1463804,0.04,0.04,0.008327060957569188,-0.034678655410991244,-0.03040877558657673,0.3379697708786611,-0.010015750781087684,-0.004845265713200722,0.892048259227454,0.44639783211482414,0.020838059509221147,0.0674140487461221
822.7499999995804,-0.2348925,-0.351256,-0.3466143,-2.214957,0.022392644,1.9118968,1.1485399,0.04,0.04,0.01120591605887622,-0.03501924069586604,-0.028708791229692388,0.3358388320243152,-0.00983853229776599,-0.0055022948943946395,0.8907224337653701,0.4490374028267019,0.020974368340356327,0.06737234389918006
822.766666666247,-0.23629099,-0.3486915,-0.34867662,-2.21412,0.022525346,1.9139143,1.1506853,0.04,0.04,0.010796725519823802,-0.036328825481379834,-0.028358745273870944,0.33366631191975293,-0.009656726775476604,-0.006149668685231979,0.889397421169495,0.45165683427926,0.02111034778367724,0.06732521431336971
822.7833333329137,-0.2376803,-0.34614414,-0.35072553,-2.2132883,0.022657165,1.9159186,1.1528159,0.04,0.04,0.011008111452781577,-0.036874215788695874,-0.027835355152827645,0.33145213811079977,-0.00947780618499365,-0.006786741143438434,0.8880735813740266,0.45425575289801007,0.021246085035326212,0.06727279461449287
822.7999999995803,-0.23906027,-0.34361425,-0.35276058,-2.2124631,0.022788078,1.9179089,1.1549323,0.04,0.04,0.009829963579321976,-0.03891167735405876,-0.027842264027699848,0.32919850386450855,-0.00929882336615026,-0.007413409031987388,0.8867511457237452,0.45683407851871827,0.021380873829991303,0.06721524005643953
822.816666666247,-0.24043076,-0.34110215,-0.35478166,-2.2116435,0.022918088,1.919885,1.1570337,0.04,0.04,0.012101839676170734,-0.03901768144116691,-0.026656797242163854,0.32690376103408925,-0.009129239660211508,-0.008029411023595022,0.8854304631766408,0.4593914575607785,0.021515242076717456,0.06715264668919192
822.8333333329136,-0.24179168,-0.33860806,-0.35678858,-2.2108295,0.023047166,1.921847,1.1591201,0.04,0.04,0.012207755741289184,-0.039777668767237984,-0.02604466179263465,0.32456904235072126,-0.008964441956242172,-0.008633493939925255,0.8841117984629272,0.46192773003021415,0.02164916976874684,0.06708512127220094
822.8499999995803,-0.2431428,-0.3361323,-0.35878113,-2.2100217,0.023175305,1.9237945,1.161191,0.04,0.04,0.012013806408495142,-0.04106700889530135,-0.02557316932816356,0.32219449793091515,-0.008801568003978286,-0.009226013193804047,0.88279554797155,0.464442490629727,0.021782465836707107,0.06701281639611556
822.8666666662469,-0.24448402,-0.33367512,-0.36075902,-2.2092202,0.02330249,1.9257275,1.1632465,0.04,0.04,0.012607095356664821,-0.04189660392657224,-0.02476165958136267,0.3197821867129007,-0.0086444749597792,-0.009806724850165233,0.8814819482680549,0.46693564124003684,0.02191519132870357,0.0669358364879073
822.8833333329136,-0.24581514,-0.33123684,-0.36272198,-2.2084253,0.023428708,1.9276456,1.1652862,0.04,0.04,0.012333926179386445,-0.0432714805501222,-0.024301450441366335,0.31733098236603985,-0.008486824455259723,-0.010381845788600262,0.8801714102618893,0.46940676758853495,0.022047082050803357,0.06685432875084037
822.8999999995802,-0.24713609,-0.32881746,-0.36466995,-2.2076356,0.023553943,1.9295485,1.16731,0.04,0.04,0.014893508303437386,-0.04281709049214211,-0.02279275994863106,0.3148431516582483,-0.008345552663774902,-0.010934587143021049,0.8788641197596442,0.47185586010318115,0.022178722678435615,0.06676833490319978
822.9166666662469,-0.24844672,-0.32641748,-0.36660272,-2.2068527,0.023678185,1.9314364,1.1693175,0.04,0.04,0.013441078039178045,-0.0444295178833487,-0.022821585419041668,0.312317568774486,-0.008195452458602884,-0.011485566889504438,0.8775604644019751,0.4742825572151671,0.022309714032718527,0.06667806160807058
822.9333333329135,-0.24974686,-0.32403716,-0.36851996,-2.2060754,0.023801416,1.933309,1.1713086,0.04,0.039999977,0.015603551225296108,-0.04486543003192622,-0.021391801610293193,0.30975651472450616,-0.008058755804464343,-0.012014993206778415,0.8762607296416492,0.47668667507206697,0.02244047224254488,0.06658357682006587
822.9499999995802,-0.25103638,-0.32167664,-0.37042156,-2.205305,0.023923624,1.9351661,1.173283,0.04,0.039999977,0.01389291331237441,-0.046218026637645515,-0.021299859015355693,0.3071588880766788,-0.007919786365539527,-0.012534011345086124,0.8749652851572242,0.479067909390675,0.022570468575157227,0.06648505027510433
822.9666666662469,-0.25231516,-0.3193362,-0.37230733,-2.2045412,0.024044806,1.937007,1.1752408,0.04,0.039999954,0.015044133214581201,-0.046937601014529484,-0.020710417329494746,0.3045277768381652,-0.0077873836101119975,-0.01304041347724054,0.8736743282910607,0.4814262570639432,0.022699594746210458,0.06638264451589664
822.9833333329135,-0.25358316,-0.31701615,-0.3741771,-2.2037845,0.02416494,1.9388319,1.1771812,0.04,0.039999943,0.014607677038380729,-0.047733235037994426,-0.02009485438247971,0.3018613086616677,-0.0076560580725868604,-0.013540798189569409,0.8723882652020303,0.48376133539113636,0.02282789138762362,0.06627648522041153
822.9999999995802,-0.25484017,-0.31471658,-0.3760306,-2.2030344,0.024284018,1.940641,1.179105,0.04,0.03999994,0.01576143975055011,-0.04825209493484195,-0.018703263473773823,0.2991619899238024,-0.0075399734153149545,-0.01401978701205232,0.8711072320974114,0.4860732505473375,0.022955606631595155,0.06616664880517627
823.0166666662468,-0.2560861,-0.3124377,-0.3778677,-2.202291,0.024402019,1.9424335,1.1810112,0.04,0.039999932,0.016011886406963605,-0.04906605677177378,-0.01841618790965338,0.2964267993727623,-0.007417559270690308,-0.0144951725920618,0.8698316983039759,0.4883615243637055,0.023082464442207486,0.0660532965267695
823.0333333329135,-0.25732064,-0.31017983,-0.37968814,-2.201554,0.024518939,1.9442097,1.1828995,0.04,0.039999932,0.017190775552267112,-0.04972700034024946,-0.01678302902612394,0.2936605352134868,-0.007305894074956923,-0.014953504860550443,0.8685620330615361,0.49062584199797027,0.02320893933712057,0.0659365075101758
823.0499999995801,-0.25854397,-0.30794328,-0.38149187,-2.2008238,0.024634767,1.945969,1.1847703,0.04,0.039999913,0.017242335192224623,-0.050200637093666955,-0.01691648671142687,0.29086476944142853,-0.007202460132422386,-0.015390371733869649,0.8672982778353239,0.49286649061225374,0.023334714466635747,0.06581649334477649
823.0666666662468,-0.25975576,-0.30572808,-0.38327864,-2.200101,0.024749478,1.9477116,1.1866231,0.04,0.039999858,0.016251816197998536,-0.0515133918847388,-0.01601054261088919,0.28803536554943004,-0.007090788695670744,-0.01582728686310453,0.8660409303814804,0.4950829621712369,0.023459558220566824,0.06569335278267713
823.0833333329134,-0.260956,-0.30353448,-0.38504836,-2.1993852,0.024863083,1.9494369,1.1884577,0.04,0.03999985,0.017028968823851187,-0.051969700736842483,-0.01546861818335632,0.28517692367027814,-0.006992046323985285,-0.016245596134072254,0.8647902006945246,0.4972752416033633,0.023583414997974072,0.06556725865913582
823.0999999995801,-0.26214454,-0.30136275,-0.3868008,-2.1986768,0.02497556,1.9511449,1.190274,0.04,0.03999983,0.017204420481253813,-0.05278685998431065,-0.014660017009138215,0.2822883329370611,-0.006900158904904599,-0.01665174354144446,0.8635464144249818,0.4994431155090648,0.02370629202753885,0.06543833908850175
823.1166666662467,-0.26332128,-0.29921302,-0.38853577,-2.1979759,0.025086902,1.952836,1.1920718,0.04,0.039999824,0.017663151751223793,-0.0531722175521665,-0.013515839344924174,0.2793712638376453,-0.006813231073786841,-0.01704550568299572,0.8623098392202596,0.5015864679804104,0.02382841603237063,0.06530668351903172
823.1333333329134,-0.26448604,-0.2970856,-0.39025304,-2.1972818,0.02519709,1.9545093,1.193851,0.04,0.03999982,0.018844858847200108,-0.054012496561939294,-0.012732637420409532,0.27642639999343893,-0.006731542351241793,-0.017425430154783005,0.8610807951564957,0.5037051001153756,0.023949699411727088,0.06517244991945778
823.14999999958,-0.26563883,-0.29498062,-0.3919526,-2.1965952,0.025306128,1.956165,1.1956114,0.04,0.039999813,0.018392194743799273,-0.0543140416982002,-0.012174553992938542,0.27345425933081274,-0.0066546286760585036,-0.0177926608040518,0.8598595119921573,0.5057989685292803,0.024070124340296227,0.06503577619716633
823.1666666662467,-0.26677945,-0.29289818,-0.39363438,-2.195916,0.025413996,1.9578027,1.1973531,0.04,0.039999805,0.018590503636906064,-0.055036874611325004,-0.011528480765021776,0.27045523379902714,-0.00658255844027137,-0.018146472063324134,0.8586461787487711,0.5078681035921577,0.02418950341392422,0.0648968180916954
823.1833333329133,-0.2679079,-0.2908386,-0.39529803,-2.195244,0.02552069,1.9594226,1.1990758,0.04,0.0399998,0.0193109077524678,-0.05554955471189782,-0.010424060676639257,0.26742793338880494,-0.00651644646983509,-0.01848838475133409,0.8574411679578703,0.509912210294174,0.024308105245284622,0.06475567390844776
823.19999999958,-0.26902398,-0.288802,-0.3969435,-2.1945796,0.025626194,1.9610242,1.2007792,0.04,0.039999746,0.019410112990492223,-0.05623594021653133,-0.009891636035463947,0.2643756839116708,-0.006453527816711095,-0.018817242477481726,0.8562447766276635,0.5119311409010419,0.024425684942297653,0.06461250179879882
823.2166666662466,-0.27012768,-0.28678858,-0.39857063,-2.193923,0.025730507,1.9626077,1.2024634,0.04,0.039999727,0.01916975507711971,-0.05685389259579843,-0.009117617745402207,0.26129908470780644,-0.006402457429890963,-0.019127636399337913,0.8550572004430815,0.5139249075950554,0.024542268836057993,0.06446743646393908
823.2333333329133,-0.2712189,-0.28479847,-0.4001794,-2.1932743,0.025833616,1.964173,1.2041279,0.04,0.03999972,0.019332727974297192,-0.0572545831139637,-0.008577051406710723,0.2581980313418773,-0.006345705887381363,-0.019435763206933195,0.8538787593645651,0.5158933196958295,0.024657739030752933,0.06432062581426538
823.2499999995799,-0.2722975,-0.28283167,-0.40176946,-2.192633,0.02593552,1.9657197,1.2057726,0.04,0.03999971,0.020269453025223427,-0.057676666914874275,-0.007201003987500343,0.25507426991259036,-0.0063018592869432954,-0.019726495354321878,0.8527097570838211,0.5178362122804291,0.024772265196848414,0.06417213026015096
823.2666666662466,-0.27336338,-0.2808886,-0.40334094,-2.1919994,0.026036197,1.9672483,1.2073976,0.04,0.0399997,0.02030324483597301,-0.057994630263324964,-0.006699694402056977,0.251928695257603,-0.006267431696858908,-0.019998375609682668,0.8515503650927653,0.5197536247223626,0.024885972481875948,0.06402213423476996
823.2833333329132,-0.27441645,-0.27896932,-0.40489358,-2.1913733,0.026135644,1.9687582,1.2090026,0.04,0.039999694,0.02119903924282518,-0.05847598825499123,-0.00573215750605538,0.24876164291386685,-0.006224836200200826,-0.0202676571333171,0.8504008661871133,0.5216454280334788,0.024998837235903838,0.06387074711343857
823.2999999995799,-0.27545676,-0.2770739,-0.4064272,-2.1907551,0.026233861,1.9702489,1.2105879,0.04,0.039999694,0.020375596384525352,-0.05930724656717512,-0.005505286283247202,0.24557367960662627,-0.006191374144781499,-0.02051702260788907,0.8492614396033636,0.5235116764862181,0.02511039011760607,0.06371813002241619
823.3166666662465,-0.27648413,-0.27520245,-0.4079418,-2.1901448,0.026330838,1.9717206,1.2121526,0.04,0.039999682,0.020738558076627278,-0.05961419782758437,-0.004586517536764312,0.24236448854609696,-0.006166254929033374,-0.02075529411272777,0.848132482805003,0.525352045454491,0.025220767800643563,0.06356439899306464
823.3333333329132,-0.2774985,-0.27335525,-0.40943703,-2.1895418,0.02642656,1.973173,1.2136977,0.04,0.03999966,0.022035582184143365,-0.059888769706217815,-0.0033642393938659865,0.2391375535807584,-0.006152475386655587,-0.02097569338305968,0.8470140220397304,0.5271668067096623,0.025330224311768557,0.0634096531131667
823.3499999995798,-0.27849975,-0.27153245,-0.41091314,-2.188947,0.026521029,1.9746066,1.2152225,0.04,0.03999963,0.02124210229275114,-0.06023410561488696,-0.003058965632196653,0.23589062442690945,-0.006134689819757823,-0.021191457282751746,0.8459063558798883,0.5289557952323733,0.02543866975338141,0.06325407380772893
823.3666666662465,-0.27948803,-0.26973394,-0.41236976,-2.18836,0.026614232,1.9760213,1.2167274,0.04,0.039999604,0.021557901546498393,-0.060409686740325874,-0.002114592906177215,0.23262538708622374,-0.006122213630467277,-0.02139126355527921,0.8448095897238708,0.5307191664386702,0.025546091376648893,0.06309770757011667
823.3833333329131,-0.280463,-0.26795992,-0.4138069,-2.187781,0.026706163,1.9774162,1.2182103,0.04,0.039999597,0.02126463485017105,-0.06151672872400926,-0.001749913041271256,0.22934003407382603,-0.006116016321802115,-0.021578349808910508,0.8437245248726495,0.5324559689499657,0.0256521004938744,0.06294074195803093
823.3999999995798,-0.2814247,-0.26621068,-0.41522437,-2.1872103,0.026796825,1.9787917,1.219673,0.04,0.03999959,0.02195032311853584,-0.06155214452590041,-0.0007412134943818316,0.22604617039148903,-0.006115252790265056,-0.021754441977343345,0.8426508951217306,0.5341669240339255,0.025756998911130296,0.06278330371820916
823.4166666662464,-0.28237304,-0.26448607,-0.4166223,-2.1866481,0.02688621,1.9801477,1.2211158,0.04,0.03999959,0.020898204753105887,-0.06202641373700413,-0.0005381465495224447,0.22273599164431773,-0.006112484499322529,-0.021923227507635604,0.8415887597649883,0.5358522584302626,0.025860350114225106,0.06262554482306354
823.4333333329131,-0.28330794,-0.2627863,-0.41800043,-2.1860938,0.026974315,1.9814844,1.2225369,0.04,0.03999959,0.022612326992854648,-0.06191032609590419,0.0010254874179826956,0.21940780976201735,-0.006129918415496448,-0.02207266739867981,0.8405388189638866,0.5375111550059093,0.02596275613757702,0.06246749036697987
823.4499999995797,-0.28422937,-0.2611115,-0.41935882,-2.1855478,0.02706113,1.9828014,1.2239376,0.04,0.039999574,0.021946140113593415,-0.06241270145521671,0.0010649744154545004,0.2160702258961963,-0.006138863992530691,-0.022219318704127685,0.8395008677268682,0.5391442437550331,0.026063820893525408,0.06230934722879917
823.4666666662464,-0.28513741,-0.25946167,-0.42069715,-2.1850097,0.027146658,1.9840987,1.2253168,0.04,0.03999958,0.022843980538200803,-0.06247396407699224,0.0021821796186038966,0.21271858198618188,-0.006158601688660503,-0.022349794314655752,0.8384754270672532,0.5407510061960911,0.026163752749735134,0.0621511507886459
823.483333332913,-0.28603187,-0.25783703,-0.42201576,-2.1844797,0.02723088,1.9853761,1.2266756,0.04,0.03999956,0.02275921430796579,-0.06252791674112856,0.0024720644369535805,0.20935768835123728,-0.006182985565548957,-0.02246702384656557,0.837462256263973,0.5423321005162057,0.026262472011270604,0.06199310160649242
823.4999999995797,-0.2869127,-0.25623754,-0.42331424,-2.1839583,0.027313806,1.9866338,1.228013,0.04,0.039999515,0.022006890230730214,-0.06348676268557174,0.0032557000763322463,0.2059818983988302,-0.006210963944794076,-0.022575113832543,0.8364619356759709,0.5438869291468252,0.026359755996604256,0.06183527902616431
823.5166666662464,-0.28777996,-0.25466326,-0.42459258,-2.1834447,0.027395425,1.9878716,1.2293293,0.04,0.039999504,0.02339107948994279,-0.0629660982979674,0.004287915283440746,0.20259897088692486,-0.006250425168077854,-0.022666985591323654,0.8354744925695428,0.5454157216851812,0.02645596604322164,0.061677748540440856
823.533333332913,-0.28863353,-0.2531142,-0.4258508,-2.1829395,0.02747573,1.9890897,1.2306247,0.04,0.039999496,0.022605087446292416,-0.06342649602431027,0.0046494919854200845,0.19920638644569696,-0.006286843459213272,-0.022750502092496072,0.8345000538164786,0.5469185704957946,0.02655084773700681,0.06152064622203708
823.5499999995797,-0.28947347,-0.2515905,-0.42708874,-2.1824427,0.027554726,1.9902879,1.2318989,0.04,0.03999948,0.02287984922861863,-0.06367911789793013,0.005278975158806709,0.1958056318877692,-0.006329981434672512,-0.022824675372643072,0.8335388168687071,0.5483954459562376,0.026644409329197646,0.06136408623187715
823.5666666662463,-0.2902996,-0.25009212,-0.42830652,-2.1819537,0.02763241,1.9914659,1.2331516,0.04,0.03999948,0.023587653378909224,-0.0635257781644194,0.006106301944086567,0.19239725247664596,-0.006370392108451514,-0.022892429235467644,0.8325910560369577,0.5498461971026506,0.0267367511290778,0.06120816185835404
823.583333332913,-0.29111204,-0.24861923,-0.42950398,-2.1814725,0.027708787,1.992624,1.234383,0.04,0.03999947,0.023979912457128272,-0.06346559178673772,0.0068060518007451165,0.18898435574948153,-0.0064210428679181974,-0.022944437409408595,0.8316568007264324,0.5512710378316283,0.026828046245607143,0.06105296543295674
823.5999999995796,-0.29191062,-0.24717176,-0.4306811,-2.1810002,0.027783854,1.9937621,1.2355932,0.04,0.03999947,0.022229341097856903,-0.06450321100828216,0.006927698052416886,0.18556551676911304,-0.006479973636349959,-0.02297894845362243,0.8307362463409991,0.5526699551922774,0.026917718055980155,0.06089865431757631
823.6166666662463,-0.2926954,-0.24574974,-0.43183798,-2.1805363,0.0278576,1.9948801,1.2367821,0.04,0.039999474,0.023083516947308702,-0.06404260431509545,0.007571531363881334,0.1821424618469668,-0.006532281860429465,-0.0230155523307767,0.8298295103494508,0.5540430217134596,0.027005952100906658,0.06074530759600218
823.6333333329129,-0.29346633,-0.24435319,-0.43297446,-2.1800807,0.027930027,1.9959782,1.2379496,0.04,0.039999474,0.0232825473818421,-0.06410256853068841,0.008506109650041616,0.17871625526129054,-0.006602811608318548,-0.023033066667075594,0.8289367527024911,0.5553902443663017,0.027092920548287665,0.060592987531175126
823.6499999995796,-0.29422334,-0.24298216,-0.43409052,-2.1796336,0.028001139,1.9970561,1.2390962,0.04,0.039999463,0.022839157863541182,-0.0646602006535657,0.008741015457647272,0.17528732484238177,-0.006662487076757866,-0.02304967189611916,0.8280580321703256,0.5567117922771274,0.02717827521890393,0.06044184853164128
823.6666666662462,-0.29496664,-0.24163665,-0.43518633,-2.1791952,0.028070927,1.998114,1.2402213,0.04,0.03999945,0.02289730426263681,-0.06405248264225172,0.0089761263330157,0.17185633624445767,-0.006734791808946525,-0.023054033451337302,0.8271934919806254,0.5580076895835571,0.027262135777111896,0.06029196582787836
823.6833333329129,-0.29569608,-0.24031663,-0.4362616,-2.178765,0.028139403,1.9991517,1.2413249,0.04,0.039999444,0.023318659069482273,-0.06448971565324868,0.01007227911096198,0.16842498881970652,-0.006811857170702797,-0.02304954643011079,0.8263433581481447,0.5592778394848507,0.027344541672320137,0.06014340151949559
823.6999999995795,-0.29641163,-0.23902205,-0.43731663,-2.178343,0.028206553,2.0001698,1.242407,0.04,0.03999941,0.023767920979556045,-0.06367906563093939,0.0106715128811663,0.16499513539741087,-0.006890988871470306,-0.023036744408219397,0.8255076855311414,0.5605223823128375,0.02742580813633905,0.05999620907547539
823.7166666662462,-0.29711336,-0.23775293,-0.4383512,-2.1779294,0.028272396,2.0011678,1.243468,0.04,0.0399994,0.023342269430948193,-0.06425216911500886,0.011009546132556558,0.1615672761272024,-0.006979738481933985,-0.023008444105696284,0.8246864676103688,0.5617415654539574,0.027505630467177574,0.05985051440273958
823.7333333329128,-0.29780123,-0.23650922,-0.43936554,-2.1775236,0.028336916,2.0021455,1.244508,0.04,0.039999396,0.023976712622530982,-0.06378462036009669,0.011505557955571177,0.15814054142609935,-0.007065729029863483,-0.02297573506800635,0.8238798005639415,0.5629354663477634,0.027584089681451464,0.059706389498879464
823.7499999995795,-0.2984753,-0.23529088,-0.4403594,-2.1771264,0.028400127,2.003103,1.2455264,0.04,0.039999396,0.02274347460042847,-0.06449688509388984,0.011688560969513873,0.15471635420442703,-0.007149281490258629,-0.0229411124362928,0.823087966752498,0.5641039042397631,0.02766082510957648,0.059563940122798295
823.7666666662461,-0.29913548,-0.23409796,-0.441333,-2.1767368,0.028462023,2.0040407,1.2465235,0.04,0.039999384,0.024594707727820797,-0.06340325650640022,0.012920370725111319,0.15129864523441292,-0.007250418186515749,-0.02288939830028585,0.822310953989761,0.5652470838253445,0.027736538300447477,0.059423174086386504
823.7833333329128,-0.29978198,-0.23293027,-0.44228622,-2.1763556,0.0285226,2.0049589,1.2474998,0.04,0.03999938,0.02320078978574891,-0.06361500743259363,0.012905145417096975,0.14788680762152615,-0.00733873807532218,-0.022836240075803968,0.8215486581442312,0.5663653796246005,0.027810893716959932,0.059284173729245916
823.7999999995794,-0.30041453,-0.23178788,-0.44321918,-2.1759834,0.028581886,2.0058568,1.2484549,0.04,0.039999373,0.021793646527035193,-0.06479121992160053,0.012762751735850841,0.14447930730289577,-0.007436718380580604,-0.02277082639456396,0.8208013877537285,0.5674585666231092,0.02788320284567832,0.05914713878681189
823.8166666662461,-0.30103338,-0.23067068,-0.44413203,-2.1756198,0.028639868,2.006735,1.2493889,0.04,0.03999937,0.0227048570372812,-0.06349709302435613,0.01341248947885898,0.14108122965183806,-0.007540735420108743,-0.02270118852960852,0.8200690675052836,0.5685269344174259,0.027954005467864175,0.05901205759199851
823.8333333329127,-0.3016384,-0.22957861,-0.44502467,-2.1752648,0.028696552,2.0075936,1.2503017,0.04,0.039999366,0.02255485970152904,-0.06388178801441935,0.013980451847195319,0.13769142721612587,-0.007655552912803131,-0.022620878474113287,0.8193518869930366,0.5695704092776402,0.028023147202361223,0.05887900625117774
823.8499999995794,-0.30222985,-0.2285116,-0.44589728,-2.1749175,0.028751941,2.0084324,1.2511936,0.04,0.03999937,0.024038474657217535,-0.06250974203958481,0.014471723841680273,0.13431299638854727,-0.007759331560746208,-0.022544271447269743,0.8186496877839993,0.5705893919332918,0.02809104556121567,0.05874800135863933
823.866666666246,-0.3028076,-0.22746949,-0.44674984,-2.1745777,0.028806038,2.0092518,1.2520648,0.04,0.039999366,0.02397543563321669,-0.062464296463282665,0.015361116690248977,0.13094400006153112,-0.007878479070661068,-0.02244977417762874,0.817962560541459,0.5715839317930743,0.02815784883346559,0.05861905848358439
823.8833333329127,-0.3033717,-0.22645226,-0.4475823,-2.1742456,0.028858848,2.0100517,1.2529151,0.04,0.039999366,0.023884064878054723,-0.06252892187830206,0.015604631052923423,0.12758666030553137,-0.007984218626887328,-0.02235640788341085,0.8172906196754005,0.5725540470496735,0.028223429382266237,0.05849225787695491
823.8999999995793,-0.30392218,-0.22545975,-0.44839492,-2.1739218,0.028910382,2.0108316,1.2537447,0.04,0.03999936,0.02218606907908871,-0.06296797396918574,0.015018414136913627,0.12424221984616438,-0.008104748782619655,-0.022246002655369846,0.8166338602372052,0.5734999420024776,0.02828710793718551,0.058367751042726825
823.916666666246,-0.30445918,-0.2244919,-0.44918773,-2.173606,0.028960638,2.0115921,1.2545538,0.04,0.039999362,0.023136461346773274,-0.06194440325679729,0.015845673914793856,0.12091321628162022,-0.00822276498012068,-0.02213808386859374,0.8159922143981635,0.5744218626626822,0.028349427477880412,0.05824551225968091
823.9333333329126,-0.30498266,-0.22354852,-0.4499608,-2.173298,0.029009623,2.0123334,1.2553424,0.04,0.039999362,0.022861586218114738,-0.06187485202742149,0.016205644093059135,0.11759884796888331,-0.00833571614804612,-0.022028277810811032,0.8153657493185341,0.5753198807919172,0.028410300365395897,0.05812559192771693
