rsonawane2002/My_IMU/logs_2/traj_325/imu_325.csv
time,j1,j2,j3,j4,j5,j6,j7,gripper1,gripper2,imu_ax,imu_ay,imu_az,imu_gx,imu_gy,imu_gz
818.7333333329174,0.00016700293,-0.785875,4.0107683e-05,-2.3551247,9.29385e-05,1.570997,0.786,0.04,0.04,-9.534708,0.03438669815659523,0.08844036,2.901562e-07,-0.0011641274904832244,5.656138e-07
818.749999999584,0.00016700101,-0.78576016,4.010682e-05,-2.3552213,9.297462e-05,1.5709941,0.786,0.04,0.04,-9.834397,0.0006284911069087684,0.009087236,1.0979751e-06,-0.0022382433526217937,1.3433274e-06
818.7666666662507,0.00016696558,-0.7856541,4.0051687e-05,-2.35531,9.301193e-05,1.5709913,0.786,0.04,0.04,-9.832463,0.0005195836420170963,0.007665605,8.757205e-06,-0.00322878104634583,4.197732e-06
818.7833333329173,0.000166839,-0.7855565,3.9853432e-05,-2.355391,9.305557e-05,1.5709884,0.786,0.04,0.04,-9.830616,0.00033368924050591886,0.0064395056,2.9403329e-05,-0.0041417935863137245,1.0987324e-05
818.799999999584,0.0001665369,-0.78546625,3.9384646e-05,-2.3554652,9.312546e-05,1.5709856,0.786,0.04,0.039999995,-9.8288555,6.98929070495069e-05,0.0054176166,6.862036e-05,-0.00498213293030858,2.4180807e-05
818.8166666662506,0.00016595097,-0.7853826,3.8483257e-05,-2.355532,9.3209936e-05,1.5709859,0.7860019,0.04,0.04,-9.827258,-0.00027781527023762465,0.0045370767,0.00013222639,-0.00575804291293025,4.3005384e-05
818.8333333329173,0.0001649511,-0.7853047,3.6955415e-05,-2.3555942,9.3333874e-05,1.5709865,0.7860038,0.04,0.04,-9.825568,-0.0006716765929013491,0.0037473887,0.0002166999,-0.006456190254539251,7.122638e-05
818.8499999995839,0.00016338781,-0.785232,3.457956e-05,-2.3556519,9.35118e-05,1.5709873,0.78600574,0.04,0.04,-9.82439,-0.0011215137783437967,0.0031580387,0.0003355296,-0.007108413614332676,0.000109277215
818.8666666662506,0.00016109442,-0.78516334,3.1108815e-05,-2.3557026,9.3771385e-05,1.5709883,0.78600955,0.04,0.039999995,-9.823249,-0.001619112677872181,0.0027010897,0.00049319223,-0.007717834319919348,0.00015903884
818.8833333329172,0.00015788921,-0.78509825,2.6274716e-05,-2.3557496,9.409466e-05,1.5709927,0.7860153,0.039999995,0.04,-9.821838,-0.0021727627608925104,0.002308353,0.00068543525,-0.0082774069160223,0.00021834219
818.8999999995839,0.00015357618,-0.7850356,1.9788256e-05,-2.355792,9.452268e-05,1.5709975,0.7860223,0.039999988,0.039999988,-9.820831,-0.002721101976931095,0.0019941204,0.00091630017,-0.0087914252653718,0.00029302342
818.9166666662505,0.00014794793,-0.78497493,1.1343428e-05,-2.355829,9.507547e-05,1.5710057,0.78603154,0.039999984,0.03999998,-9.819874,-0.0033134843688458204,0.001798535,0.0011921161,-0.009275192394852638,0.0003813041
818.9333333329172,0.00014078623,-0.7849155,6.190123e-07,-2.3558633,9.577231e-05,1.5710143,0.786043,0.03999998,0.039999977,-9.818695,-0.003926653880625963,0.0016524832,0.0015124562,-0.009711632505059242,0.00048299733
818.9499999995838,0.00013186378,-0.7848565,-1.2719639e-05,-2.3558917,9.663552e-05,1.5710267,0.7860567,0.039999977,0.039999973,-9.818047,-0.0045234733261168,0.001662103,0.0018811133,-0.010133299976587296,0.00059957267
818.9666666662505,0.00012094567,-0.78479725,-2.9018423e-05,-2.3559184,9.768754e-05,1.5710428,0.78607386,0.03999997,0.03999996,-9.816975,-0.0051635680720210075,0.0016471123,0.0023006578,-0.010512770153582096,0.0007323785
818.9833333329171,0.00010778989,-0.7847368,-4.8633454e-05,-2.355939,9.8950186e-05,1.5710622,0.7860945,0.039999966,0.039999958,-9.816449,-0.005789777729660273,0.0017273278,0.002768578,-0.010873181745409966,0.00088015717
818.9999999995838,9.214882e-05,-0.78467464,-7.192888e-05,-2.355958,0.00010044732,1.5710849,0.78611887,0.03999997,0.03999996,-9.815447,-0.006402663886547089,0.0018422941,0.0032880022,-0.011200040578842163,0.0010441148
819.0166666662504,7.377008e-05,-0.7846102,-9.927599e-05,-2.3559709,0.000102202954,1.5711117,0.7861476,0.03999997,0.039999958,-9.81508,-0.006993189454078674,0.0020574455,0.0038603009,-0.011519291438162327,0.0012254427
819.0333333329171,5.239771e-05,-0.7845426,-0.00013105136,-2.3559823,0.000104240244,1.5711429,0.7861809,0.03999997,0.039999958,-9.814131,-0.007581640034914017,0.0023004408,0.0044851154,-0.011807265691459179,0.0014226413
819.0499999995837,2.777228e-05,-0.7844713,-0.00016763632,-2.3559878,0.00010658431,1.5711782,0.78621936,0.039999973,0.03999996,-9.813821,-0.008137756027281284,0.0025749255,0.0051638847,-0.012088249437510967,0.0016367801
819.0666666662504,-3.678233e-07,-0.78439546,-0.00020941554,-2.3559914,0.00010926015,1.5712186,0.78626317,0.039999973,0.039999958,-9.8129635,-0.008659029379487038,0.0029165912,0.005896348,-0.012346036732196808,0.0018688536
819.083333332917,-3.228574e-05,-0.78431445,-0.000256776,-2.3559892,0.00011229176,1.571265,0.7863128,0.039999977,0.03999996,-9.812706,-0.00915552955120802,0.0032628393,0.0066837883,-0.012599694542586803,0.002117257
819.0999999995837,-6.824577e-05,-0.7842278,-0.0003101063,-2.3559852,0.00011570477,1.5713172,0.7863687,0.039999977,0.039999958,-9.81195,-0.009605064988136292,0.0036329934,0.007526073,-0.012829679064452648,0.0023837308
819.1166666662504,-0.000108512555,-0.7841346,-0.00036979566,-2.3559754,0.000119523356,1.5713756,0.78643143,0.03999998,0.03999996,-9.811747,-0.010020146146416664,0.0040545673,0.00842325,-0.013058118522167206,0.0026666026
819.133333332917,-0.00015335083,-0.78403467,-0.00043623324,-2.3559625,0.00012377313,1.5714405,0.78650117,0.03999998,0.039999958,-9.811029,-0.010374212637543678,0.004491358,0.009374531,-0.01326739601790905,0.002967543
819.1499999995837,-0.00020302464,-0.783927,-0.0005098074,-2.3559444,0.00012847877,1.5715126,0.78657836,0.039999988,0.039999966,-9.810743,-0.010688606649637222,0.004983332,0.010380919,-0.013472702354192734,0.003284806
819.1666666662503,-0.00025779713,-0.78381085,-0.0005909053,-2.355923,0.00013366411,1.5715922,0.7866634,0.039999984,0.039999958,-9.810175,-0.010939116589725018,0.0054719932,0.011442176,-0.013663792051374912,0.0036199018
819.183333332917,-0.00031793021,-0.7836865,-0.0006799121,-2.355897,0.00013935649,1.5716797,0.7867569,0.03999999,0.039999966,-9.8099165,-0.011074649170041084,0.00592129,0.012557379,-0.013851308263838291,0.0039712954
819.1999999995836,-0.00038368398,-0.78355265,-0.0007772102,-2.355867,0.00014557762,1.5717752,0.786859,0.03999999,0.03999996,-9.809489,-0.011256388388574123,0.006557671,0.013726332,-0.014028799720108509,0.0043401835
819.2166666662503,-0.00045531648,-0.78340894,-0.0008831793,-2.3558326,0.0001523534,1.5718795,0.7869702,0.03999999,0.039999958,-9.809161,-0.01132077258080244,0.0071130507,0.014949215,-0.014202564023435116,0.004724972
819.2333333329169,-0.0005330834,-0.78325474,-0.0009981955,-2.3557937,0.00015970884,1.5719929,0.787091,0.039999995,0.03999996,-9.808863,-0.011301582679152489,0.007696216,0.016224971,-0.014370335265994072,0.005127171
819.2499999995836,-0.00061723794,-0.78308946,-0.0011226315,-2.3557508,0.00016766488,1.5721154,0.7872216,0.04,0.039999966,-9.808528,-0.0112243527546525,0.008297449,0.017552907,-0.014532938599586487,0.0055437363
819.2666666662502,-0.00070803025,-0.78291273,-0.0012568554,-2.3557029,0.0001762462,1.5722477,0.78736246,0.04,0.039999977,-9.808302,-0.011072460561990738,0.0089117875,0.018933393,-0.014694033190608025,0.005973776
819.2833333329169,-0.00080570776,-0.7827239,-0.0014012313,-2.3556502,0.0001854794,1.5723902,0.7875139,0.04,0.039999966,-9.807946,-0.01077367179095745,0.00954384,0.020365458,-0.014848959632217884,0.0064273966
819.2999999995835,-0.0009105144,-0.78252274,-0.0015561177,-2.3555932,0.00019538305,1.5725428,0.78767645,0.04,0.039999977,-9.807712,-0.010482406243681908,0.010193647,0.021848587,-0.015002087689936161,0.00688884
819.3166666662502,-0.0010226904,-0.7823085,-0.0017218691,-2.3555305,0.00020598664,1.5727059,0.7878504,0.04,0.03999996,-9.807523,-0.009994743391871452,0.010879686,0.02338177,-0.015154942870140076,0.0073759244
819.3333333329168,-0.0011424732,-0.78208065,-0.0018988336,-2.355463,0.00021730382,1.5728801,0.7880359,0.04,0.03999996,-9.807145,-0.009515976533293724,0.011567701,0.02496429,-0.015302326530218124,0.007871454
819.3499999995835,-0.0012700956,-0.78183895,-0.0020873554,-2.355391,0.00022936355,1.573066,0.78823376,0.039999995,0.03999994,-9.806997,-0.00889616273343563,0.012245955,0.026596507,-0.01545050647109747,0.008382401
819.3666666662501,-0.0014057865,-0.78158265,-0.0022877706,-2.3553133,0.000242184,1.5732639,0.7884441,0.04,0.03999994,-9.806806,-0.00818607397377491,0.012962493,0.02827596,-0.01559794507920742,0.008907378
819.3833333329168,-0.0015497713,-0.7813115,-0.0025004118,-2.3552303,0.00025578748,1.5734737,0.78866714,0.04,0.039999936,-9.806547,-0.007381577044725418,0.01365525,0.030002512,-0.01574149914085865,0.009446125
819.3999999995834,-0.0017022715,-0.78102505,-0.0027256038,-2.355142,0.0002701948,1.5736957,0.7889034,0.03999999,0.039999925,-9.806315,-0.006464630365371704,0.014400444,0.03177622,-0.01588389277458191,0.009998475
819.4166666662501,-0.0018635034,-0.7807228,-0.002963666,-2.3550482,0.00028542697,1.5739306,0.7891531,0.039999988,0.039999917,-9.806202,-0.005431817844510078,0.0151555855,0.033595353,-0.01602938026189804,0.010565473
819.4333333329167,-0.0020336793,-0.7804044,-0.0032149125,-2.354948,0.0003015035,1.5741782,0.7894167,0.039999988,0.039999913,-9.805936,-0.004212634637951851,0.015823785,0.035459734,-0.01616997830569744,0.011143445
819.4499999995834,-0.0022130078,-0.78006953,-0.0034796486,-2.3548427,0.0003184442,1.5744395,0.7896944,0.03999999,0.039999913,-9.805736,-0.003065284341573715,0.016686905,0.037367877,-0.01631223037838936,0.01173475
819.46666666625,-0.0024016926,-0.77971774,-0.0037581753,-2.3547318,0.00033626822,1.574714,0.7899866,0.039999995,0.039999913,-9.80554,-0.0017144419252872467,0.01746867,0.039319318,-0.01645190827548504,0.01233826
819.4833333329167,-0.0025999332,-0.7793483,-0.004050785,-2.3546143,0.00035499447,1.5750026,0.7902936,0.039999995,0.03999991,-9.805457,-0.00024751201272010803,0.018279811,0.04131332,-0.01659630797803402,0.012953599
819.4999999995833,-0.0028079248,-0.77896136,-0.0043577664,-2.354491,0.00037464147,1.5753052,0.7906156,0.04,0.03999991,-9.805198,0.0013408642262220383,0.019059982,0.043348663,-0.01673753932118416,0.013580308
819.51666666625,-0.0030258556,-0.778556,-0.0046793986,-2.3543608,0.00039522757,1.5756226,0.79095304,0.04,0.03999991,-9.805069,0.003049226477742195,0.01989457,0.04542488,-0.01687995158135891,0.014217562
819.5333333329166,-0.0032539123,-0.7781323,-0.0050159534,-2.3542254,0.00041677046,1.5759546,0.79130614,0.04,0.039999917,-9.8048,0.004879865795373917,0.020696275,0.047540978,-0.017018897458910942,0.014865862
819.5499999995833,-0.0034922766,-0.7776899,-0.005367699,-2.3540838,0.000439287,1.5763015,0.7916752,0.04,0.03999991,-9.804776,0.006832744926214218,0.021559708,0.049695976,-0.01716291718184948,0.015524459
819.56666666625,-0.0037411235,-0.77722806,-0.005734894,-2.3539355,0.00046279398,1.5766637,0.79206026,0.04,0.039999917,-9.804649,0.00890645757317543,0.022414442,0.051888835,-0.017308460548520088,0.016192263
819.5833333329166,-0.0040006246,-0.7767469,-0.0061177914,-2.35378,0.000487308,1.5770413,0.7924618,0.04,0.039999902,-9.804488,0.01112062856554985,0.023243323,0.054120027,-0.017454158514738083,0.016870772
819.5999999995832,-0.004270946,-0.77624583,-0.006516637,-2.3536181,0.0005128446,1.5774344,0.7928801,0.04,0.0399999,-9.804205,0.013453993946313858,0.024138229,0.056387685,-0.017596103250980377,0.017557539
819.6166666662499,-0.0045522507,-0.77572477,-0.006931671,-2.3534493,0.0005394189,1.5778438,0.79331535,0.04,0.039999895,-9.804111,0.015918061137199402,0.025012558,0.058690526,-0.017741531133651733,0.01825273
819.6333333329165,-0.0048446963,-0.7751832,-0.007363124,-2.3532739,0.0005670462,1.5782692,0.7937678,0.04,0.03999989,-9.803933,0.018514446914196014,0.02591283,0.06102839,-0.017885450273752213,0.018955916
819.6499999995832,-0.0051484327,-0.77462083,-0.0078112185,-2.3530912,0.00059574103,1.5787109,0.7942377,0.04,0.039999884,-9.803809,0.021246150135993958,0.026805464,0.06340005,-0.018030917271971703,0.019667044
819.6666666662499,-0.0054636113,-0.77403754,-0.008276174,-2.3529017,0.00062551774,1.5791696,0.7947253,0.04,0.03999988,-9.803666,0.024113822728395462,0.027724618,0.06580506,-0.018178226426243782,0.020385766
819.6833333329165,-0.0057903724,-0.77343285,-0.008758204,-2.3527055,0.00065638893,1.5796448,0.7952307,0.04,0.039999876,-9.803493,0.0272456593811512,0.028546184,0.06824188,-0.01832251064479351,0.021110585
819.6999999995832,-0.006128854,-0.77280647,-0.009257509,-2.3525023,0.0006883687,1.5801371,0.7957543,0.04,0.039999872,-9.803409,0.03024984523653984,0.029565394,0.070710346,-0.018472060561180115,0.021841856
819.7166666662498,-0.00647919,-0.7721584,-0.009774286,-2.3522923,0.0007214699,1.5806469,0.79629624,0.04,0.039999872,-9.803313,0.03353806585073471,0.030484712,0.07320891,-0.018624041229486465,0.022579843
819.7333333329165,-0.0068415115,-0.7714882,-0.010308729,-2.3520749,0.00075570424,1.5811738,0.7968567,0.04,0.03999986,-9.803216,0.03694763034582138,0.03143475,0.07573721,-0.01877700351178646,0.023322593
819.7499999995831,-0.0072159404,-0.7707959,-0.010861019,-2.3518503,0.0007910834,1.5817183,0.7974359,0.04,0.039999865,-9.803042,0.04050333797931671,0.032375503,0.07829393,-0.018931226804852486,0.02407016
819.7666666662498,-0.007602597,-0.77008116,-0.011431332,-2.3516183,0.00082761946,1.5822806,0.79803383,0.04,0.03999986,-9.802925,0.044208087027072906,0.03335048,0.08087869,-0.01908600889146328,0.024823207
819.7833333329164,-0.008001597,-0.7693435,-0.012019836,-2.351379,0.0008653228,1.5828611,0.7986509,0.04,0.039999858,-9.802765,0.04804037883877754,0.034306347,0.08349105,-0.01924133487045765,0.025579577
819.7999999995831,-0.008413048,-0.768583,-0.012626697,-2.351132,0.0009042047,1.5834595,0.7992872,0.04,0.03999987,-9.802653,0.05203261226415634,0.035256654,0.0861295,-0.019397826865315437,0.026340393
819.8166666662497,-0.00883706,-0.7677993,-0.013252069,-2.3508773,0.00094427547,1.5840763,0.7999429,0.04,0.039999917,-9.802493,0.056156884878873825,0.036243163,0.08879366,-0.01955491118133068,0.027104372
819.8333333329164,-0.009273731,-0.7669925,-0.0138960965,-2.350615,0.0009855428,1.5847113,0.80061823,0.04,0.03999991,-9.802317,0.06042690575122833,0.03721117,0.091481976,-0.019711151719093323,0.027871141
819.849999999583,-0.009723156,-0.76616204,-0.014558925,-2.3503447,0.0010280169,1.5853649,0.8013131,0.04,0.03999991,-9.80219,0.06483887135982513,0.03821459,0.09419411,-0.019869117066264153,0.028639637
819.8666666662497,-0.010185429,-0.76530766,-0.015240692,-2.3500662,0.0010717071,1.5860372,0.8020278,0.04,0.03999991,-9.801994,0.06939275562763214,0.03919547,0.096930094,-0.020025961101055145,0.029409856
819.8833333329163,-0.010660638,-0.7644298,-0.015941523,-2.3497798,0.0011166214,1.5867282,0.8027631,0.04,0.039999906,-9.801812,0.07410252094268799,0.040175706,0.09968803,-0.020183566957712173,0.03018223
819.899999999583,-0.011148862,-0.76352805,-0.016661543,-2.3494852,0.0011627674,1.5874381,0.8035179,0.04,0.039999902,-9.801606,0.07894595712423325,0.04119532,0.10246463,-0.0203387551009655,0.03095488
819.9166666662496,-0.011650181,-0.762602,-0.017400865,-2.3491828,0.0012101532,1.5881673,0.80429286,0.04,0.039999902,-9.801397,0.08393962681293488,0.042220548,0.10526476,-0.020493244752287865,0.03172791
819.9333333329163,-0.012164673,-0.76165164,-0.01815961,-2.3488724,0.0012587851,1.5889157,0.80508834,0.04,0.0399999,-9.80132,0.08923368901014328,0.043108627,0.10808513,-0.020649410784244537,0.03250183
819.9499999995829,-0.012692405,-0.76067686,-0.01893786,-2.3485544,0.00130867,1.5896827,0.8059042,0.04,0.0399999,-9.8010645,0.09437309205532074,0.044229433,0.11092347,-0.02080376073718071,0.03327523
819.9666666662496,-0.013233438,-0.7596776,-0.019735726,-2.3482287,0.0013598144,1.5904691,0.8067406,0.04,0.03999989,-9.800966,0.09979584813117981,0.04526138,0.1137803,-0.020963309332728386,0.034046803
819.9833333329162,-0.013787837,-0.7586537,-0.020553289,-2.3478944,0.0014122245,1.5912752,0.80759764,0.04,0.039999887,-9.800859,0.1053750291466713,0.046272293,0.11665468,-0.021125299856066704,0.034818426
819.9999999995829,-0.014355656,-0.7576051,-0.021390643,-2.3475518,0.0014659052,1.5921006,0.80847543,0.04,0.03999988,-9.800586,0.1110944002866745,0.047275074,0.11954573,-0.02128353714942932,0.035587724
820.0166666662495,-0.014936949,-0.7565317,-0.02224785,-2.347201,0.0015208623,1.5929456,0.8093741,0.04,0.039999884,-9.800384,0.11697162687778473,0.048296466,0.122452796,-0.021442115306854248,0.036355834
820.0333333329162,-0.015531766,-0.75543314,-0.023124997,-2.3468428,0.001577099,1.5938102,0.8102936,0.04,0.03999988,-9.800204,0.12296949326992035,0.049320303,0.12537453,-0.021601449698209763,0.03712019
820.0499999995828,-0.01614015,-0.7543096,-0.02402214,-2.3464763,0.0016346211,1.5946944,0.81123406,0.04,0.039999872,-9.800095,0.12913039326667786,0.050302867,0.12831089,-0.021764004603028297,0.03788157
820.0666666662495,-0.016762136,-0.75316113,-0.024939327,-2.346102,0.0016934314,1.5955985,0.8121956,0.04,0.039999872,-9.799878,0.13543419539928436,0.051299777,0.13126063,-0.021926896646618843,0.038640626
820.0833333329161,-0.017397754,-0.75198746,-0.02587663,-2.34572,0.0017535341,1.5965225,0.81317806,0.04,0.039999865,-9.799715,0.14186689257621765,0.052301973,0.13422328,-0.022090528160333633,0.03939526
820.0999999995828,-0.018047044,-0.75078857,-0.026834082,-2.3453286,0.0018149319,1.5974662,0.81418175,0.04,0.039999872,-9.79961,0.14845743775367737,0.053283215,0.13719848,-0.022257942706346512,0.04014557
820.1166666662494,-0.018710032,-0.74956435,-0.027811721,-2.344929,0.0018776275,1.5984298,0.81520647,0.04,0.03999987,-9.799176,0.1551809310913086,0.054262646,0.1401844,-0.022418376058340073,0.040891703
820.1333333329161,-0.019386746,-0.748315,-0.028809594,-2.3445208,0.0019416246,1.5994134,0.81625235,0.04,0.03999992,-9.799033,0.16205331683158875,0.0552376,0.14318168,-0.022582344710826874,0.041633736
820.1499999995827,-0.020077197,-0.7470401,-0.029827723,-2.3441048,0.0020069228,1.6004169,0.81731945,0.04,0.039999925,-9.798709,0.16904711723327637,0.05620797,0.14618875,-0.02274247817695141,0.04236844
820.1666666662494,-0.0207814,-0.7457399,-0.03086612,-2.3436804,0.0020735243,1.6014404,0.81840783,0.04,0.03999992,-9.798568,0.1762041449546814,0.0571514,0.149205,-0.022906381636857986,0.0430993
820.183333332916,-0.021499364,-0.7444144,-0.03192481,-2.3432474,0.0021414298,1.6024842,0.81951743,0.04,0.039999932,-9.798314,0.18362538516521454,0.057979945,0.1522296,-0.0230691097676754,0.043821253
820.1999999995827,-0.022231098,-0.74306345,-0.033003803,-2.3428063,0.0022106415,1.6035477,0.8206483,0.04,0.039999925,-9.797993,0.19089502096176147,0.059039265,0.15526207,-0.02322900854051113,0.044537865
820.2166666662494,-0.022976603,-0.741687,-0.034103103,-2.3423572,0.0022811594,1.6046313,0.82180053,0.04,0.03999992,-9.797759,0.19844704866409302,0.059964977,0.15830123,-0.02339153178036213,0.04524689
820.233333332916,-0.02373589,-0.7402852,-0.035222705,-2.3419,0.002352983,1.6057347,0.8229739,0.04,0.039999913,-9.797555,0.20613765716552734,0.060865827,0.16134652,-0.023556116968393326,0.045948405
820.2499999995827,-0.024508951,-0.73885804,-0.03636261,-2.341435,0.0024261123,1.6068581,0.8241687,0.04,0.039999925,-9.797314,0.2139625996351242,0.06176076,0.16439733,-0.023722359910607338,0.046643015
820.2666666662493,-0.025295766,-0.73740536,-0.037522808,-2.3409607,0.0025005457,1.6080016,0.8253847,0.04,0.03999992,-9.7970495,0.22191646695137024,0.0626284,0.16745248,-0.02388969622552395,0.047328837
820.283333332916,-0.026096335,-0.7359274,-0.038703274,-2.3404787,0.002576284,1.609165,0.8266219,0.04,0.039999917,-9.796672,0.22999556362628937,0.06347068,0.17051175,-0.024053674191236496,0.048005745
820.2999999995826,-0.026910627,-0.73442405,-0.039903983,-2.3399885,0.0026533247,1.6103486,0.8278803,0.04,0.039999917,-9.79642,0.23821128904819489,0.064311706,0.17357428,-0.024219606071710587,0.0486738
820.3166666662493,-0.027738642,-0.73289555,-0.04112492,-2.3394895,0.0027316662,1.6115518,0.82916,0.04,0.039999913,-9.796123,0.24655069410800934,0.0651204,0.1766394,-0.02438536286354065,0.04933306
820.3333333329159,-0.028580343,-0.7313418,-0.042366035,-2.3389828,0.002811308,1.6127748,0.8304607,0.04,0.039999977,-9.795728,0.2550235390663147,0.065928355,0.1797062,-0.024549521505832672,0.049983308
820.3499999995826,-0.02943571,-0.7297628,-0.043627292,-2.3384678,0.0028922455,1.6140178,0.8317825,0.04,0.039999966,-9.795494,0.2636032998561859,0.06668837,0.18277404,-0.024716755375266075,0.050622292
820.3666666662492,-0.030304698,-0.72815883,-0.044908643,-2.3379445,0.0029744764,1.6152806,0.83312535,0.04,0.03999997,-9.795125,0.2723178267478943,0.067431286,0.18584296,-0.02488279901444912,0.05125249
820.3833333329159,-0.031187288,-0.7265294,-0.046210058,-2.3374124,0.0030579974,1.6165631,0.83448905,0.04,0.03999997,-9.794756,0.281136155128479,0.0681707,0.18891145,-0.02504836395382881,0.051869366
820.3999999995825,-0.03208345,-0.7248747,-0.04753146,-2.3368726,0.0031428055,1.6178652,0.83587384,0.04,0.039999973,-9.79435,0.29008954763412476,0.06883475,0.19197948,-0.02521301619708538,0.052476034
820.4166666662492,-0.032993123,-0.7231955,-0.048872788,-2.3363247,0.0032288972,1.619187,0.8372794,0.04,0.039999977,-9.794084,0.2991531789302826,0.069478855,0.19504496,-0.02538173273205757,0.05307207
820.4333333329158,-0.03391629,-0.7214914,-0.050233997,-2.3357687,0.0033162695,1.6205283,0.8387057,0.04,0.03999998,-9.793675,0.3084852993488312,0.070032105,0.19810891,-0.02554772049188614,0.05365611
820.4499999995825,-0.034852855,-0.71976256,-0.051614992,-2.3352041,0.0034049153,1.6218892,0.8401527,0.04,0.039999973,-9.79328,0.31761670112609863,0.07074925,0.20116939,-0.025714874267578125,0.054227524
820.4666666662491,-0.03580281,-0.718009,-0.053015724,-2.3346314,0.0034948324,1.6232696,0.84162045,0.04,0.039999977,-9.79279,0.327007919549942,0.071329005,0.2042269,-0.025878867134451866,0.054786723
820.4833333329158,-0.036766086,-0.716231,-0.0544361,-2.334051,0.0035860147,1.6246693,0.84310865,0.04,0.03999998,-9.792405,0.3365127742290497,0.071871236,0.2072791,-0.026043934747576714,0.05533286
820.4999999995824,-0.037742633,-0.7144284,-0.055876024,-2.3334625,0.0036784583,1.6260881,0.84461784,0.04,0.04,-9.79198,0.3461447060108185,0.07239314,0.21032667,-0.02620886079967022,0.05586882
820.5166666662491,-0.038732376,-0.7126015,-0.057335425,-2.3328662,0.0037721554,1.627526,0.8461471,0.04,0.04,-9.79158,0.3558436930179596,0.07287228,0.213366,-0.026375887915492058,0.0563892
820.5333333329157,-0.039735258,-0.71075034,-0.058814205,-2.3322618,0.0038671005,1.6289828,0.8476966,0.04,0.04,-9.791138,0.3656533658504486,0.07330751,0.21639985,-0.026543648913502693,0.056896176
820.5499999995824,-0.040751234,-0.7088751,-0.060312256,-2.3316498,0.003963288,1.6304582,0.8492663,0.04,0.04,-9.790664,0.3755682408809662,0.07370944,0.21942686,-0.026711639016866684,0.057389576
820.566666666249,-0.0417802,-0.706976,-0.061829478,-2.33103,0.0040607103,1.6319528,0.85085607,0.04,0.04,-9.790239,0.3855741620063782,0.0740721,0.22244552,-0.026882652193307877,0.057869274
820.5833333329157,-0.04282209,-0.7050529,-0.06336579,-2.3304024,0.004159362,1.6334665,0.85246575,0.04,0.04,-9.789729,0.39566996693611145,0.07439491,0.22545551,-0.02705204486846924,0.05833413
820.5999999995823,-0.043876838,-0.7031063,-0.06492103,-2.3297672,0.004259236,1.6349993,0.8540952,0.04,0.04,-9.789283,0.40586087107658386,0.074645475,0.22845604,-0.02722170017659664,0.058784537
820.616666666249,-0.04494437,-0.701136,-0.0664951,-2.3291245,0.0043603242,1.63655,0.8557444,0.04,0.04,-9.788745,0.4161350727081299,0.07488408,0.231447,-0.027389200404286385,0.059220694
820.6333333329156,-0.046024572,-0.69914234,-0.06808788,-2.3284738,0.004462618,1.6381192,0.8574133,0.04,0.04,-9.788277,0.4264891743659973,0.07507851,0.23442689,-0.027560852468013763,0.059641674
820.6499999995823,-0.04711739,-0.6971254,-0.069699265,-2.3278155,0.0045661125,1.6397071,0.85910153,0.04,0.04,-9.787728,0.4369426667690277,0.07522012,0.23739502,-0.027731716632843018,0.06004994
820.666666666249,-0.048222713,-0.69508547,-0.071329094,-2.3271499,0.0046707965,1.641313,0.8608092,0.04,0.04,-9.787166,0.4474440813064575,0.07529604,0.24035123,-0.02790146693587303,0.060439177
820.6833333329156,-0.04934047,-0.69302255,-0.07297726,-2.3264768,0.0047766627,1.6429371,0.862536,0.04,0.04,-9.786662,0.45819222927093506,0.07524322,0.24329385,-0.028072204440832138,0.06081362
820.6999999995822,-0.05047056,-0.6909369,-0.074643604,-2.3257964,0.004883703,1.6445787,0.8642817,0.04,0.04,-9.786106,0.4687204957008362,0.075347215,0.24622308,-0.0282441433519125,0.061173607
820.7166666662489,-0.051612888,-0.6888287,-0.07632797,-2.3251083,0.004991906,1.6462382,0.86604637,0.04,0.04,-9.785514,0.4794441759586334,0.07530661,0.24913867,-0.028417808935046196,0.061515216
820.7333333329155,-0.052767355,-0.6866981,-0.07803025,-2.324413,0.005101265,1.6479155,0.8678297,0.04,0.04,-9.784928,0.490254670381546,0.07519715,0.25203902,-0.028591860085725784,0.0618423
820.7499999995822,-0.053933848,-0.6845452,-0.07975028,-2.3237107,0.0052117687,1.6496102,0.8696315,0.04,0.04,-9.784312,0.5011209845542908,0.07503497,0.2549241,-0.028765611350536346,0.062153313
820.7666666662489,-0.055112265,-0.6823705,-0.0814879,-2.323001,0.005323407,1.6513219,0.87145174,0.04,0.04,-9.783756,0.5120489001274109,0.074812695,0.25779247,-0.028941543772816658,0.062447336
820.7833333329155,-0.05630251,-0.68017393,-0.083242945,-2.3222837,0.0054361736,1.653051,0.8732903,0.04,0.04,-9.78308,0.5230464935302734,0.07456499,0.26064458,-0.02911766991019249,0.06272714
820.7999999995822,-0.057504453,-0.6779558,-0.08501527,-2.3215601,0.0055500525,1.6547971,0.87514687,0.04,0.04,-9.78243,0.5340628623962402,0.074237324,0.26347807,-0.029293054714798927,0.06298627
820.8166666662488,-0.058718003,-0.6757165,-0.086804695,-2.3208294,0.0056650364,1.65656,0.87702143,0.04,0.04,-9.781875,0.5451681017875671,0.07386863,0.26629344,-0.029472865164279938,0.06323114
820.8333333329155,-0.05994303,-0.673456,-0.08861108,-2.320092,0.005781115,1.6583395,0.87891364,0.04,0.04,-9.781152,0.5562942028045654,0.07344703,0.2690893,-0.029651125892996788,0.06345703
820.8499999995821,-0.06117943,-0.6711745,-0.0904342,-2.3193476,0.005898277,1.6601355,0.8808233,0.04,0.04,-9.780519,0.5674831867218018,0.07294899,0.2718656,-0.029831085354089737,0.063666895
820.8666666662488,-0.06242709,-0.6688722,-0.09227388,-2.3185966,0.006016508,1.6619478,0.88275033,0.04,0.04,-9.779877,0.5787003636360168,0.072395325,0.27462175,-0.03001377545297146,0.06385883
820.8833333329154,-0.06368585,-0.6665494,-0.09412997,-2.3178391,0.006135801,1.6637762,0.8846944,0.04,0.04,-9.779166,0.5899664759635925,0.071772486,0.27735674,-0.03019735775887966,0.06403452
820.8999999995821,-0.06495559,-0.6642064,-0.09600228,-2.3170748,0.006256139,1.6656206,0.88665545,0.04,0.04,-9.778527,0.6012517213821411,0.07109983,0.2800702,-0.030384309589862823,0.06419261
820.9166666662487,-0.066236235,-0.6618431,-0.09789065,-2.3163035,0.0063775172,1.6674805,0.88863343,0.04,0.04,-9.777787,0.6125826239585876,0.07035816,0.28276128,-0.030570682138204575,0.064334586
820.9333333329154,-0.06752761,-0.65946007,-0.09979486,-2.3155258,0.0064999172,1.669356,0.89062786,0.04,0.04,-9.777073,0.6240717768669128,0.0694378,0.28542852,-0.030758988112211227,0.064458765
820.949999999582,-0.06882957,-0.65705746,-0.10171468,-2.3147416,0.0066233287,1.671247,0.8926387,0.04,0.04,-9.776279,0.6352972984313965,0.06867218,0.28807193,-0.030947497114539146,0.06456429
820.9666666662487,-0.07014202,-0.65463597,-0.10364996,-2.3139513,0.0067477394,1.6731533,0.8946655,0.04,0.04,-9.775575,0.6466913223266602,0.06775427,0.29069144,-0.03113815002143383,0.064652264
820.9833333329153,-0.07146484,-0.6521951,-0.10560049,-2.3131554,0.0068731355,1.6750745,0.8967083,0.04,0.04,-9.774771,0.6581076979637146,0.06678998,0.29328617,-0.0313279964029789,0.06472212
820.999999999582,-0.07279783,-0.64973557,-0.107566096,-2.312353,0.0069995043,1.6770103,0.8987668,0.04,0.04,-9.774154,0.6695318818092346,0.06572672,0.29585463,-0.031524814665317535,0.06477495
821.0166666662486,-0.07414087,-0.6472576,-0.109546505,-2.3115444,0.0071268342,1.6789608,0.9008409,0.04,0.04,-9.773293,0.6809734106063843,0.064605355,0.2983967,-0.03172053024172783,0.06481013
821.0333333329153,-0.07549383,-0.64476156,-0.11154154,-2.3107295,0.007255108,1.6809254,0.90293026,0.04,0.04,-9.772518,0.692406415939331,0.06342212,0.3009116,-0.03191719576716423,0.064827666
821.0499999995819,-0.076856546,-0.64224744,-0.113550976,-2.3099089,0.0073843193,1.6829042,0.90503454,0.04,0.04,-9.771662,0.7038680911064148,0.06217905,0.30339876,-0.03211415559053421,0.064830564
821.0666666662486,-0.078228906,-0.63971555,-0.11557462,-2.309083,0.007514446,1.6848971,0.9071537,0.04,0.04,-9.770878,0.7152754068374634,0.060862202,0.30585825,-0.03231348842382431,0.06481115
821.0833333329152,-0.07961072,-0.6371662,-0.11761225,-2.3082514,0.007645479,1.6869038,0.9092875,0.04,0.04,-9.770172,0.7267297506332397,0.059471004,0.30828804,-0.0325174555182457,0.06477654
821.0999999995819,-0.08100186,-0.6345996,-0.11966361,-2.3074136,0.007777402,1.688924,0.91143554,0.04,0.04,-9.769358,0.7381582856178284,0.058005482,0.31068817,-0.032722413539886475,0.06472446
821.1166666662485,-0.082402185,-0.6320163,-0.12172852,-2.3065703,0.007910201,1.6909574,0.9135978,0.04,0.04,-9.768481,0.7495584487915039,0.05648671,0.31305882,-0.032928645610809326,0.06465383
821.1333333329152,-0.08381155,-0.6294165,-0.123806715,-2.3057227,0.00804386,1.6930039,0.91577375,0.04,0.04,-9.767597,0.7609621286392212,0.054898188,0.31539777,-0.033133670687675476,0.06456607
821.1499999995818,-0.08522977,-0.6268001,-0.12589794,-2.3048692,0.008178369,1.6950631,0.9179632,0.04,0.04,-9.766956,0.7723543047904968,0.053273797,0.31770602,-0.033347927033901215,0.064461924
821.1666666662485,-0.08665668,-0.6241679,-0.12800203,-2.30401,0.008313707,1.6971347,0.92016613,0.04,0.04,-9.766046,0.7836983799934387,0.05151392,0.31998318,-0.03356173262000084,0.06434111
821.1833333329151,-0.08809215,-0.62152004,-0.13011877,-2.3031464,0.008449864,1.6992189,0.9223822,0.04,0.04,-9.765135,0.7951366305351257,0.049624793,0.32222697,-0.033775147050619125,0.06420274
821.1999999995818,-0.08953599,-0.6188568,-0.13224782,-2.302277,0.008586824,1.701315,0.9246112,0.04,0.04,-9.764369,0.8063541650772095,0.047886085,0.32443708,-0.033994100987911224,0.06404926
821.2166666662484,-0.09098805,-0.6161782,-0.134389,-2.3014028,0.00872457,1.703423,0.9268528,0.04,0.04,-9.763427,0.817603588104248,0.045957852,0.3266133,-0.03421255201101303,0.06387663
821.2333333329151,-0.092448175,-0.613485,-0.1365421,-2.300524,0.008863087,1.7055427,0.92910737,0.04,0.04,-9.762565,0.8288235664367676,0.043951295,0.32875514,-0.03443397209048271,0.063686654
821.2499999995817,-0.09391617,-0.6107771,-0.13870683,-2.2996397,0.0090023605,1.7076738,0.9313737,0.04,0.04,-9.761719,0.840032696723938,0.04191294,0.33085936,-0.03465787693858147,0.063480794
821.2666666662484,-0.09539189,-0.6080552,-0.14088297,-2.2987523,0.00914237,1.7098162,0.9336519,0.04,0.04,-9.760786,0.8511723279953003,0.039763037,0.332929,-0.03488200902938843,0.06325833
821.283333332915,-0.09687517,-0.6053193,-0.14307025,-2.2978601,0.009283102,1.7119694,0.9359419,0.04,0.04,-9.760095,0.8622769713401794,0.03760109,0.33496237,-0.03511356934905052,0.06302031
821.2999999995817,-0.098365806,-0.60256994,-0.14526844,-2.2969625,0.009424542,1.7141335,0.9382431,0.04,0.04,-9.759184,0.8733140826225281,0.035345018,0.33695817,-0.03534749895334244,0.06276478
821.3166666662484,-0.099863686,-0.5998073,-0.14747722,-2.2960608,0.009566672,1.7163078,0.9405553,0.04,0.04,-9.758179,0.8843188881874084,0.033007212,0.33891702,-0.0355781614780426,0.062493667
821.333333332915,-0.10136857,-0.5970317,-0.14969636,-2.2951555,0.009709481,1.7184926,0.9428782,0.04,0.04,-9.757323,0.8952562212944031,0.030630888,0.34083822,-0.03581274673342705,0.062207624
821.3499999995817,-0.10288031,-0.5942437,-0.15192565,-2.2942455,0.009852949,1.7206873,0.9452117,0.04,0.04,-9.756526,0.9061250686645508,0.028181609,0.34272116,-0.036051180213689804,0.06190655
821.3666666662483,-0.10439876,-0.59144324,-0.15416479,-2.2933319,0.009997052,1.7228913,0.94755554,0.04,0.04,-9.755506,0.9169326424598694,0.025680432,0.34456486,-0.03628809005022049,0.061588317
821.383333332915,-0.10592372,-0.58863086,-0.1564136,-2.2924142,0.01014178,1.725105,0.94990927,0.04,0.04,-9.754744,0.9276843070983887,0.02309817,0.3463683,-0.03653192147612572,0.06125708
821.3999999995816,-0.107455,-0.58580685,-0.1586717,-2.291493,0.010287114,1.7273281,0.95227265,0.04,0.04,-9.753836,0.9383553266525269,0.020474596,0.3481318,-0.03677692636847496,0.060908414
821.4166666662483,-0.10899242,-0.5829717,-0.16093884,-2.2905674,0.0104330415,1.7295592,0.95464545,0.04,0.04,-9.752941,0.9489488005638123,0.017765377,0.34985498,-0.03702287748456001,0.06054583
821.4333333329149,-0.11053581,-0.5801257,-0.16321485,-2.2896392,0.010579541,1.7317997,0.95702744,0.04,0.04,-9.7520275,0.9595422148704529,0.014949731,0.35153717,-0.037272002547979355,0.060168713
821.4499999995816,-0.11208498,-0.5772692,-0.16549937,-2.2887068,0.010726596,1.7340481,0.9594184,0.04,0.04,-9.751234,0.9699209332466125,0.012232214,0.35317734,-0.03752445802092552,0.059777763
821.4666666662482,-0.113639735,-0.57440215,-0.16779213,-2.287771,0.010874188,1.7363043,0.9618176,0.04,0.04,-9.750223,0.9802766442298889,0.009364204,0.35477448,-0.03777668997645378,0.059372645
821.4833333329149,-0.115199916,-0.5715253,-0.17009291,-2.286833,0.011022295,1.7385683,0.9642253,0.04,0.04,-9.749392,0.9905345439910889,0.0064425487,0.3563307,-0.03803424909710884,0.058952894
821.4999999995815,-0.11676532,-0.56863904,-0.17240137,-2.2858908,0.011170912,1.74084,0.96664095,0.04,0.04,-9.748655,1.0007379055023193,0.003475776,0.35784262,-0.03829840198159218,0.058521993
821.5166666662482,-0.11833579,-0.56574345,-0.17471725,-2.284946,0.011320013,1.7431186,0.96906424,0.04,0.04,-9.747591,1.0108122825622559,0.00043613836,0.35931128,-0.03855746611952782,0.05807631
821.5333333329148,-0.11991111,-0.5628391,-0.17704034,-2.2839983,0.01146958,1.7454044,0.971495,0.04,0.04,-9.74678,1.0208035707473755,-0.0026480276,0.36073628,-0.038822147995233536,0.057619505
821.5499999995815,-0.12149108,-0.55992603,-0.17937033,-2.2830474,0.011619597,1.7476966,0.97393286,0.04,0.04,-9.745932,1.0307025909423828,-0.005782714,0.36211652,-0.039088644087314606,0.05714848
821.5666666662481,-0.123075545,-0.5570049,-0.18170694,-2.2820945,0.011770045,1.7499958,0.9763777,0.04,0.04,-9.745042,1.0405023097991943,-0.008976107,0.3634511,-0.03935735300183296,0.056665465
821.5833333329148,-0.12466431,-0.5540759,-0.1840499,-2.2811387,0.011920908,1.752301,0.9788289,0.04,0.04,-9.744253,1.0501892566680908,-0.0121953,0.36474007,-0.03962872549891472,0.056170147
821.5999999995814,-0.12625715,-0.5511396,-0.18639886,-2.2801802,0.0120721655,1.7546121,0.9812864,0.04,0.04,-9.743362,1.0597779750823975,-0.015494203,0.36598364,-0.039901334792375565,0.05566326
821.6166666662481,-0.1278539,-0.548196,-0.18875359,-2.2792199,0.0122238025,1.7569287,0.98374987,0.04,0.04,-9.742479,1.0692484378814697,-0.018802939,0.36718094,-0.040174372494220734,0.05514427
821.6333333329147,-0.12945436,-0.54524565,-0.19111384,-2.2782571,0.012375797,1.7592504,0.98621905,0.04,0.04,-9.741711,1.078620433807373,-0.022174152,0.3683318,-0.04045138508081436,0.054615688
821.6499999995814,-0.13105838,-0.5422891,-0.19347928,-2.277292,0.012528129,1.7615775,0.9886935,0.04,0.04,-9.740885,1.0878618955612183,-0.02558464,0.3694353,-0.040731556713581085,0.054074932
821.666666666248,-0.13266571,-0.53932637,-0.19584963,-2.276325,0.012680781,1.7639093,0.99117285,0.04,0.04,-9.73998,1.0970112085342407,-0.029045394,0.37049094,-0.041009265929460526,0.05352339
821.6833333329147,-0.13427617,-0.536358,-0.19822456,-2.2753568,0.012833737,1.7662455,0.9936571,0.04,0.04,-9.739211,1.1060566902160645,-0.032611527,0.37150028,-0.04128923639655113,0.05296263
821.6999999995813,-0.13588955,-0.5333842,-0.20060387,-2.2743866,0.012986978,1.7685856,0.9961457,0.04,0.04,-9.7384815,1.1149219274520874,-0.03602866,0.37246063,-0.04157513752579689,0.052391805
821.716666666248,-0.13750567,-0.53040564,-0.20298721,-2.2734149,0.013140487,1.7709296,0.9986384,0.04,0.04,-9.737693,1.123700499534607,-0.039613552,0.37337244,-0.041863080114126205,0.051812418
821.7333333329146,-0.13912435,-0.5274225,-0.20537435,-2.2724411,0.013294242,1.7732773,1.0011349,0.04,0.04,-9.736897,1.1323440074920654,-0.0431934,0.3742363,-0.04215216636657715,0.05122439
821.7499999995813,-0.14074536,-0.5244351,-0.20776494,-2.271466,0.013448225,1.7756284,1.0036349,0.04,0.04,-9.736069,1.1408706903457642,-0.04682947,0.375051,-0.04244060814380646,0.05062593
821.7666666662479,-0.14236853,-0.5214438,-0.21015872,-2.2704902,0.013602417,1.7779827,1.0061381,0.04,0.04,-9.735282,1.149261713027954,-0.05048913,0.37581605,-0.04272881895303726,0.05001876
821.7833333329146,-0.14399368,-0.5184492,-0.21255541,-2.269513,0.013756799,1.7803395,1.0086442,0.04,0.04,-9.73461,1.1575274467468262,-0.05416039,0.37653196,-0.04302113130688667,0.04940405
821.7999999995812,-0.14562058,-0.51545143,-0.21495464,-2.2685342,0.0139113525,1.7826988,1.0111527,0.04,0.04,-9.733807,1.1656744480133057,-0.05786369,0.3771976,-0.043312590569257736,0.048782118
821.8166666662479,-0.14724903,-0.51245075,-0.21735622,-2.2675548,0.014066061,1.7850602,1.0136639,0.04,0.04,-9.7330265,1.1736584901809692,-0.061607663,0.3778145,-0.04360278323292732,0.04815262
821.8333333329145,-0.14887887,-0.5094477,-0.21975982,-2.2665744,0.014220902,1.7874234,1.0161773,0.04,0.04,-9.732374,1.1815197467803955,-0.06534708,0.37837943,-0.04389645531773567,0.04751582
821.8499999995812,-0.15050986,-0.5064428,-0.22216518,-2.2655935,0.014375858,1.7897882,1.018692,0.04,0.04,-9.731658,1.1892545223236084,-0.0691234,0.37889177,-0.0441906712949276,0.046872396
821.8666666662479,-0.15214181,-0.5034362,-0.2245719,-2.2646124,0.014530911,1.7921543,1.021208,0.04,0.04,-9.730963,1.1968575716018677,-0.07290262,0.37935543,-0.04448489472270012,0.0462241
821.8833333329145,-0.15377448,-0.5004283,-0.22697978,-2.2636304,0.0146860415,1.7945215,1.0237255,0.04,0.04,-9.730342,1.204286813735962,-0.076696016,0.37976846,-0.04478181153535843,0.045569364
821.8999999995812,-0.15540776,-0.49741942,-0.22938852,-2.2626483,0.014841226,1.7968892,1.0262433,0.04,0.04,-9.729632,1.2115988731384277,-0.08051431,0.38012853,-0.045077405869960785,0.044908036
821.9166666662478,-0.15704143,-0.4944101,-0.2317978,-2.2616658,0.01499645,1.7992572,1.0287617,0.04,0.04,-9.729012,1.2187614440917969,-0.08435234,0.38043845,-0.04537411779165268,0.044242665
821.9333333329145,-0.15867525,-0.4914006,-0.23420733,-2.2606833,0.015151697,1.8016255,1.0312802,0.04,0.04,-9.72837,1.2257877588272095,-0.08822213,0.3806968,-0.045670244842767715,0.043572605
821.9499999995811,-0.16030909,-0.4883913,-0.23661683,-2.2597017,0.015306941,1.8039935,1.0337985,0.04,0.04,-9.727717,1.2326650619506836,-0.09202727,0.38090357,-0.04596546292304993,0.04289776
821.9666666662478,-0.16194265,-0.4853826,-0.239026,-2.2587202,0.01546217,1.8063611,1.0363162,0.04,0.04,-9.727264,1.2394208908081055,-0.09585053,0.38105798,-0.046265363693237305,0.04222115
821.9833333329144,-0.16357575,-0.48237476,-0.24143454,-2.2577386,0.01561736,1.8087281,1.0388334,0.04,0.04,-9.726667,1.245978832244873,-0.099715665,0.38116175,-0.04656442254781723,0.041539267
821.9999999995811,-0.16520824,-0.47936827,-0.24384215,-2.256758,0.015772492,1.811094,1.0413492,0.04,0.04,-9.72605,1.2524276971817017,-0.103595465,0.38121143,-0.04686051979660988,0.040855244
822.0166666662477,-0.16683987,-0.47636345,-0.24624862,-2.2557774,0.015927551,1.8134586,1.0438638,0.04,0.04,-9.725569,1.2587285041809082,-0.107418574,0.38121104,-0.04715863987803459,0.040169083
822.0333333329144,-0.16847058,-0.4733607,-0.24865355,-2.2547972,0.016082512,1.8158215,1.0463763,0.04,0.04,-9.724997,1.2648566961288452,-0.11128336,0.38115683,-0.04745494946837425,0.03947825
822.049999999581,-0.17010008,-0.4703603,-0.25105664,-2.253818,0.016237369,1.8181827,1.0488871,0.04,0.04,-9.724418,1.2708666324615479,-0.1151272,0.3810521,-0.04774810001254082,0.038785487
822.0666666662477,-0.17172813,-0.46736273,-0.2534577,-2.2528403,0.01639208,1.8205416,1.0513953,0.04,0.04,-9.723937,1.2767155170440674,-0.118965454,0.38089356,-0.048039510846138,0.038092453
822.0833333329143,-0.17335458,-0.46436825,-0.25585636,-2.2518635,0.016546644,1.822898,1.053901,0.04,0.04,-9.723564,1.2824182510375977,-0.122765064,0.3806841,-0.048333972692489624,0.037397496
822.099999999581,-0.17497915,-0.46137738,-0.25825244,-2.2508874,0.016701037,1.8252516,1.0564039,0.04,0.04,-9.723089,1.2879698276519775,-0.12658884,0.38042134,-0.0486258901655674,0.036703892
822.1166666662476,-0.17660172,-0.45839036,-0.26064557,-2.2499125,0.016855244,1.8276021,1.0589035,0.04,0.04,-9.722555,1.293365478515625,-0.13038805,0.3801057,-0.04891420528292656,0.036006972
822.1333333329143,-0.17822215,-0.45540756,-0.26303533,-2.2489395,0.01700923,1.8299494,1.0613993,0.04,0.04,-9.722137,1.2986159324645996,-0.1341747,0.37973782,-0.04920043423771858,0.035309687
822.1499999995809,-0.1798401,-0.45242944,-0.26542157,-2.2479675,0.01716299,1.8322929,1.0638914,0.04,0.04,-9.721808,1.3037010431289673,-0.13792184,0.37931785,-0.04948720335960388,0.034611914
822.1666666662476,-0.18145546,-0.44945624,-0.26780397,-2.2469976,0.017316513,1.8346325,1.0663792,0.04,0.04,-9.721364,1.3086613416671753,-0.14166206,0.37884656,-0.04976998642086983,0.033916637
822.1833333329142,-0.18306807,-0.44648844,-0.27018234,-2.2460291,0.017469764,1.8369678,1.0688627,0.04,0.04,-9.72104,1.3134214878082275,-0.14538455,0.37832332,-0.05005132034420967,0.0332242
822.1999999995809,-0.18467768,-0.44352633,-0.27255628,-2.245062,0.01762273,1.8392988,1.071341,0.04,0.04,-9.720661,1.3181370496749878,-0.14907567,0.3777466,-0.050329506397247314,0.03253142
822.2166666662475,-0.18628411,-0.4405702,-0.27492553,-2.2440975,0.01777539,1.8416249,1.0738145,0.04,0.04,-9.720264,1.322595477104187,-0.15275112,0.37711978,-0.05060313269495964,0.031835757
822.2333333329142,-0.18788715,-0.43762058,-0.27728978,-2.2431355,0.01792774,1.843946,1.0762825,0.04,0.04,-9.720012,1.3269970417022705,-0.1563824,0.3764403,-0.05087534710764885,0.031148331
822.2499999995808,-0.18948662,-0.43467772,-0.27964884,-2.2421756,0.018079743,1.8462619,1.0787449,0.04,0.04,-9.719776,1.3311760425567627,-0.15997767,0.37570938,-0.05114663392305374,0.030458063
822.2666666662475,-0.19108233,-0.431742,-0.28200236,-2.2412179,0.01823139,1.8485718,1.0812012,0.04,0.04,-9.719503,1.3352636098861694,-0.16356316,0.37492633,-0.05141349881887436,0.02977352
822.2833333329141,-0.1926741,-0.42881376,-0.28434986,-2.2402625,0.018382654,1.8508759,1.0836515,0.04,0.04,-9.719227,1.3391672372817993,-0.16709794,0.37409282,-0.051677681505680084,0.02909166
822.2999999995808,-0.19426173,-0.42589346,-0.2866914,-2.2393093,0.018533528,1.8531737,1.0860951,0.04,0.04,-9.718974,1.342929482460022,-0.17061031,0.37320635,-0.05193661153316498,0.028415347
822.3166666662474,-0.19584507,-0.42298132,-0.28902662,-2.2383587,0.018683989,1.8554653,1.0885317,0.04,0.04,-9.718703,1.3465466499328613,-0.17408295,0.37226966,-0.052190326154232025,0.027738338
822.3333333329141,-0.19742389,-0.42007777,-0.29135504,-2.2374113,0.01883402,1.8577497,1.0909613,0.04,0.04,-9.718515,1.3500434160232544,-0.17751063,0.37128198,-0.052440397441387177,0.027064387
822.3499999995807,-0.19899793,-0.41718304,-0.2936766,-2.2364666,0.01898359,1.8600274,1.0933833,0.04,0.04,-9.718345,1.353387713432312,-0.18088393,0.37024316,-0.052686139941215515,0.026400028
822.3666666662474,-0.20056714,-0.41429755,-0.2959909,-2.2355251,0.019132696,1.8622977,1.0957975,0.04,0.04,-9.718218,1.3565709590911865,-0.18422846,0.36915526,-0.0529286228120327,0.025737464
822.383333332914,-0.20213118,-0.41142175,-0.2982977,-2.2345867,0.019281307,1.8645601,1.0982039,0.04,0.04,-9.718084,1.3596382141113281,-0.18752524,0.36801657,-0.05316665396094322,0.025080012
822.3999999995807,-0.20369,-0.4085559,-0.30059668,-2.2336516,0.019429421,1.8668147,1.1006017,0.04,0.04,-9.717957,1.3625415563583374,-0.19076481,0.36682776,-0.05339987576007843,0.024428826
822.4166666662474,-0.20524338,-0.40570033,-0.30288762,-2.2327204,0.019577011,1.8690614,1.1029907,0.04,0.04,-9.717848,1.3653165102005005,-0.19396317,0.3655904,-0.05362863093614578,0.023782216
822.433333332914,-0.2067911,-0.4028554,-0.3051703,-2.231792,0.019724067,1.8713002,1.105371,0.04,0.04,-9.717813,1.3678910732269287,-0.19708946,0.36430424,-0.05385272204875946,0.023142824
822.4499999995807,-0.208333,-0.40002128,-0.3074443,-2.230867,0.019870555,1.8735297,1.1077421,0.04,0.04,-9.717658,1.370436668395996,-0.20025186,0.36296827,-0.05406679958105087,0.02250298
822.4666666662473,-0.20986897,-0.3971985,-0.30970943,-2.2299464,0.02001647,1.8757509,1.110104,0.04,0.04,-9.717625,1.3728408813476562,-0.20328605,0.36158374,-0.05427706614136696,0.021878486
822.483333332914,-0.21139869,-0.39438742,-0.3119655,-2.2290287,0.020161794,1.8779627,1.112456,0.04,0.04,-9.717683,1.3750513792037964,-0.20627066,0.3601496,-0.05448334291577339,0.02125261
822.4999999995806,-0.21292208,-0.39158818,-0.31421226,-2.228116,0.020306513,1.8801651,1.1147977,0.04,0.04,-9.717535,1.3771611452102661,-0.2092374,0.3586682,-0.05467952787876129,0.02063492
822.5166666662473,-0.21443893,-0.38880137,-0.31644937,-2.2272062,0.020450607,1.882358,1.1171291,0.04,0.04,-9.717747,1.3791859149932861,-0.21209565,0.35713986,-0.054874639958143234,0.020031612
822.5333333329139,-0.21594903,-0.38602716,-0.3186766,-2.2263012,0.02059404,1.8845408,1.1194501,0.04,0.04,-9.717535,1.3809860944747925,-0.21496122,0.35556406,-0.0550566092133522,0.019425433
822.5499999995806,-0.21745224,-0.38326582,-0.32089368,-2.2254002,0.020736823,1.8867134,1.1217604,0.04,0.04,-9.7177,1.3827508687973022,-0.21770428,0.35394076,-0.05523485317826271,0.01883559
822.5666666662472,-0.2189484,-0.38051775,-0.32310024,-2.2245033,0.020878928,1.8888751,1.1240593,0.04,0.04,-9.717747,1.3843183517456055,-0.2204181,0.35227028,-0.055407408624887466,0.018245663
822.5833333329139,-0.22043735,-0.37778342,-0.32529613,-2.2236118,0.02102034,1.8910266,1.1263468,0.04,0.04,-9.717791,1.385799527168274,-0.22306903,0.3505548,-0.055572301149368286,0.01766767
822.5999999995805,-0.2219189,-0.375063,-0.3274811,-2.2227244,0.02116104,1.893167,1.1286225,0.04,0.04,-9.717962,1.3871707916259766,-0.22563885,0.3487939,-0.055731482803821564,0.017098123
822.6166666662472,-0.22339292,-0.37235683,-0.32965502,-2.221841,0.021301018,1.8952962,1.1308863,0.04,0.04,-9.718057,1.3884297609329224,-0.22817537,0.34698796,-0.05588134750723839,0.016542837
822.6333333329138,-0.22485913,-0.36966518,-0.33181748,-2.2209628,0.02144024,1.897414,1.1331383,0.04,0.04,-9.718052,1.3895394802093506,-0.23067072,0.34513745,-0.056020721793174744,0.015989421
822.6499999995805,-0.22631747,-0.36698833,-0.33396822,-2.2200892,0.021578705,1.89952,1.135378,0.04,0.04,-9.718231,1.3905317783355713,-0.23304792,0.34324023,-0.0561545193195343,0.015442292
822.6666666662471,-0.22776775,-0.36432666,-0.33610708,-2.2192209,0.02171639,1.901614,1.1376048,0.04,0.04,-9.718395,1.3914345502853394,-0.23538017,0.3412988,-0.05628019571304321,0.0149065405
822.6833333329138,-0.22920983,-0.36168048,-0.33823374,-2.218358,0.021853285,1.9036958,1.1398185,0.04,0.04,-9.718582,1.3921016454696655,-0.23756629,0.3393148,-0.0564005970954895,0.014376711
822.6999999995804,-0.23064348,-0.35904998,-0.34034804,-2.2174995,0.02198938,1.9057653,1.1420195,0.04,0.04,-9.718822,1.3929100036621094,-0.23983419,0.3372881,-0.05651222541928291,0.013861253
822.7166666662471,-0.23206858,-0.35643554,-0.34244967,-2.2166464,0.022124648,1.9078221,1.1442069,0.04,0.04,-9.718921,1.3934690952301025,-0.24199909,0.33521718,-0.05661209300160408,0.013353372
822.7333333329137,-0.23348497,-0.35383743,-0.34453857,-2.2157993,0.022259068,1.909866,1.1463804,0.04,0.04,-9.719141,1.393935203552246,-0.24406296,0.33310482,-0.05670390650629997,0.012855833
822.7499999995804,-0.2348925,-0.351256,-0.3466143,-2.214957,0.022392644,1.9118968,1.1485399,0.04,0.04,-9.719494,1.394364356994629,-0.24604735,0.33095115,-0.05679016932845116,0.01237552
822.766666666247,-0.23629099,-0.3486915,-0.34867662,-2.21412,0.022525346,1.9139143,1.1506853,0.04,0.04,-9.719587,1.3945791721343994,-0.248015,0.32875746,-0.05686378851532936,0.011897633
822.7833333329137,-0.2376803,-0.34614414,-0.35072553,-2.2132883,0.022657165,1.9159186,1.1528159,0.04,0.04,-9.7198305,1.3947231769561768,-0.24987693,0.32652315,-0.05692798271775246,0.011428767
822.7999999995803,-0.23906027,-0.34361425,-0.35276058,-2.2124631,0.022788078,1.9179089,1.1549323,0.04,0.04,-9.720046,1.3948038816452026,-0.25169542,0.3242504,-0.05698150396347046,0.010966488
822.816666666247,-0.24043076,-0.34110215,-0.35478166,-2.2116435,0.022918088,1.919885,1.1570337,0.04,0.04,-9.720417,1.3947947025299072,-0.25339758,0.3219371,-0.05702894926071167,0.0105189085
822.8333333329136,-0.24179168,-0.33860806,-0.35678858,-2.2108295,0.023047166,1.921847,1.1591201,0.04,0.04,-9.720693,1.3946934938430786,-0.25505126,0.3195845,-0.057066965848207474,0.010082446
822.8499999995803,-0.2431428,-0.3361323,-0.35878113,-2.2100217,0.023175305,1.9237945,1.161191,0.04,0.04,-9.720943,1.3944973945617676,-0.25667125,0.31719345,-0.05709393694996834,0.009654682
822.8666666662469,-0.24448402,-0.33367512,-0.36075902,-2.2092202,0.02330249,1.9257275,1.1632465,0.04,0.04,-9.721268,1.3942286968231201,-0.25819543,0.31476533,-0.05711214616894722,0.009238881
822.8833333329136,-0.24581514,-0.33123684,-0.36272198,-2.2084253,0.023428708,1.9276456,1.1652862,0.04,0.04,-9.72161,1.39382803440094,-0.2596353,0.31229913,-0.05712270364165306,0.008826212
822.8999999995802,-0.24713609,-0.32881746,-0.36466995,-2.2076356,0.023553943,1.9295485,1.16731,0.04,0.04,-9.721985,1.3934420347213745,-0.26102507,0.30979723,-0.05712142586708069,0.0084402235
822.9166666662469,-0.24844672,-0.32641748,-0.36660272,-2.2068527,0.023678185,1.9314364,1.1693175,0.04,0.04,-9.722222,1.3928332328796387,-0.26237738,0.30725878,-0.05711158365011215,0.008048051
822.9333333329135,-0.24974686,-0.32403716,-0.36851996,-2.2060754,0.023801416,1.933309,1.1713086,0.04,0.039999977,-9.722563,1.3921618461608887,-0.26354071,0.30468586,-0.05708858370780945,0.0076790447
822.9499999995802,-0.25103638,-0.32167664,-0.37042156,-2.205305,0.023923624,1.9351661,1.173283,0.04,0.039999977,-9.722838,1.3915717601776123,-0.26484513,0.30207795,-0.05705336853861809,0.007314191
822.9666666662469,-0.25231516,-0.3193362,-0.37230733,-2.2045412,0.024044806,1.937007,1.1752408,0.04,0.039999954,-9.7232685,1.3908401727676392,-0.2659483,0.29943734,-0.05700896680355072,0.0069617867
822.9833333329135,-0.25358316,-0.31701615,-0.3741771,-2.2037845,0.02416494,1.9388319,1.1771812,0.04,0.039999943,-9.723612,1.3899916410446167,-0.2669897,0.29676208,-0.05695753172039986,0.006613991
822.9999999995802,-0.25484017,-0.31471658,-0.3760306,-2.2030344,0.024284018,1.940641,1.179105,0.04,0.03999994,-9.7240715,1.3891867399215698,-0.2679817,0.29405507,-0.0568939708173275,0.006290693
823.0166666662468,-0.2560861,-0.3124377,-0.3778677,-2.202291,0.024402019,1.9424335,1.1810112,0.04,0.039999932,-9.724405,1.3881659507751465,-0.26891023,0.29131326,-0.05682157725095749,0.0059639304
823.0333333329135,-0.25732064,-0.31017983,-0.37968814,-2.201554,0.024518939,1.9442097,1.1828995,0.04,0.039999932,-9.724806,1.387189269065857,-0.26977977,0.28854132,-0.05673810467123985,0.0056553707
823.0499999995801,-0.25854397,-0.30794328,-0.38149187,-2.2008238,0.024634767,1.945969,1.1847703,0.04,0.039999913,-9.725123,1.3861130475997925,-0.2705946,0.28574148,-0.05663888528943062,0.0053648576
823.0666666662468,-0.25975576,-0.30572808,-0.38327864,-2.200101,0.024749478,1.9477116,1.1866231,0.04,0.039999858,-9.725486,1.3849265575408936,-0.27131173,0.28290895,-0.05653313919901848,0.0050674225
823.0833333329134,-0.260956,-0.30353448,-0.38504836,-2.1993852,0.024863083,1.9494369,1.1884577,0.04,0.03999985,-9.725948,1.383785605430603,-0.27197385,0.28004822,-0.05641605705022812,0.0047906316
823.0999999995801,-0.26214454,-0.30136275,-0.3868008,-2.1986768,0.02497556,1.9511449,1.190274,0.04,0.03999983,-9.72638,1.382552146911621,-0.2725752,0.27715826,-0.05628976598381996,0.004525965
823.1166666662467,-0.26332128,-0.29921302,-0.38853577,-2.1979759,0.025086902,1.952836,1.1920718,0.04,0.039999824,-9.726795,1.3812649250030518,-0.2731241,0.27424106,-0.056153587996959686,0.004271856
823.1333333329134,-0.26448604,-0.2970856,-0.39025304,-2.1972818,0.02519709,1.9545093,1.193851,0.04,0.03999982,-9.727246,1.3799253702163696,-0.27361226,0.2712968,-0.05600619316101074,0.004029139
823.14999999958,-0.26563883,-0.29498062,-0.3919526,-2.1965952,0.025306128,1.956165,1.1956114,0.04,0.039999813,-9.727604,1.3785203695297241,-0.274034,0.2683265,-0.0558481365442276,0.0037965777
823.1666666662467,-0.26677945,-0.29289818,-0.39363438,-2.195916,0.025413996,1.9578027,1.1973531,0.04,0.039999805,-9.728022,1.3770860433578491,-0.27440953,0.26533043,-0.055679067969322205,0.003574821
823.1833333329133,-0.2679079,-0.2908386,-0.39529803,-2.195244,0.02552069,1.9594226,1.1990758,0.04,0.0399998,-9.728412,1.3754770755767822,-0.27459127,0.26230708,-0.055500440299510956,0.0033638082
823.19999999958,-0.26902398,-0.288802,-0.3969435,-2.1945796,0.025626194,1.9610242,1.2007792,0.04,0.039999746,-9.728858,1.374098777770996,-0.27497822,0.25926006,-0.05531033128499985,0.0031617465
823.2166666662466,-0.27012768,-0.28678858,-0.39857063,-2.193923,0.025730507,1.9626077,1.2024634,0.04,0.039999727,-9.729261,1.372589349746704,-0.2751908,0.25618964,-0.05510810390114784,0.0029786255
823.2333333329133,-0.2712189,-0.28479847,-0.4001794,-2.1932743,0.025833616,1.964173,1.2041279,0.04,0.03999972,-9.729717,1.3709380626678467,-0.27530923,0.25309572,-0.05489962920546532,0.0027914646
823.2499999995799,-0.2722975,-0.28283167,-0.40176946,-2.192633,0.02593552,1.9657197,1.2057726,0.04,0.03999971,-9.730195,1.3693759441375732,-0.27540287,0.24997988,-0.054680243134498596,0.0026236635
823.2666666662466,-0.27336338,-0.2808886,-0.40334094,-2.1919994,0.026036197,1.9672483,1.2073976,0.04,0.0399997,-9.730567,1.3677276372909546,-0.2754755,0.24684365,-0.05444725602865219,0.0024725131
823.2833333329132,-0.27441645,-0.27896932,-0.40489358,-2.1913733,0.026135644,1.9687582,1.2090026,0.04,0.039999694,-9.730997,1.3659887313842773,-0.27544993,0.24368714,-0.0542069748044014,0.0023149233
823.2999999995799,-0.27545676,-0.2770739,-0.4064272,-2.1907551,0.026233861,1.9702489,1.2105879,0.04,0.039999694,-9.731339,1.3642957210540771,-0.2754103,0.24051093,-0.053951941430568695,0.0021743297
823.3166666662465,-0.27648413,-0.27520245,-0.4079418,-2.1901448,0.026330838,1.9717206,1.2121526,0.04,0.039999682,-9.731813,1.3625775575637817,-0.27528125,0.23731437,-0.0536893792450428,0.0020457997
823.3333333329132,-0.2774985,-0.27335525,-0.40943703,-2.1895418,0.02642656,1.973173,1.2136977,0.04,0.03999966,-9.732225,1.360846757888794,-0.2751339,0.23410092,-0.05341486632823944,0.0019349765
823.3499999995798,-0.27849975,-0.27153245,-0.41091314,-2.188947,0.026521029,1.9746066,1.2152225,0.04,0.03999963,-9.732602,1.358998417854309,-0.27491087,0.23086861,-0.053133293986320496,0.0018222728
823.3666666662465,-0.27948803,-0.26973394,-0.41236976,-2.18836,0.026614232,1.9760213,1.2167274,0.04,0.039999604,-9.732965,1.3572112321853638,-0.27467984,0.22761911,-0.05283861234784126,0.0017208571
823.3833333329131,-0.280463,-0.26795992,-0.4138069,-2.187781,0.026706163,1.9774162,1.2182103,0.04,0.039999597,-9.73341,1.3554106950759888,-0.2743843,0.22435081,-0.05253411829471588,0.0016301717
823.3999999995798,-0.2814247,-0.26621068,-0.41522437,-2.1872103,0.026796825,1.9787917,1.219673,0.04,0.03999959,-9.733827,1.3535590171813965,-0.2740378,0.22107455,-0.05222201719880104,0.0015488629
823.4166666662464,-0.28237304,-0.26448607,-0.4166223,-2.1866481,0.02688621,1.9801477,1.2211158,0.04,0.03999959,-9.734197,1.351658582687378,-0.2736408,0.21778303,-0.05190159007906914,0.0014684324
823.4333333329131,-0.28330794,-0.2627863,-0.41800043,-2.1860938,0.026974315,1.9814844,1.2225369,0.04,0.03999959,-9.734648,1.349726676940918,-0.27306315,0.21447413,-0.051571059972047806,0.0014140343
823.4499999995797,-0.28422937,-0.2611115,-0.41935882,-2.1855478,0.02706113,1.9828014,1.2239376,0.04,0.039999574,-9.735069,1.3479223251342773,-0.27275655,0.21115683,-0.05123446136713028,0.0013525834
823.4666666662464,-0.28513741,-0.25946167,-0.42069715,-2.1850097,0.027146658,1.9840987,1.2253168,0.04,0.03999958,-9.735474,1.3460737466812134,-0.27225924,0.20782638,-0.05088706687092781,0.0013072176
823.483333332913,-0.28603187,-0.25783703,-0.42201576,-2.1844797,0.02723088,1.9853761,1.2266756,0.04,0.03999956,-9.7358055,1.3441674709320068,-0.2717418,0.2044878,-0.05052940547466278,0.0012711596
823.4999999995797,-0.2869127,-0.25623754,-0.42331424,-2.1839583,0.027313806,1.9866338,1.228013,0.04,0.039999515,-9.736186,1.342274785041809,-0.27116367,0.20113514,-0.05016418173909187,0.0012415007
823.5166666662464,-0.28777996,-0.25466326,-0.42459258,-2.1834447,0.027395425,1.9878716,1.2293293,0.04,0.039999504,-9.736589,1.3403942584991455,-0.2705684,0.19777618,-0.049788787961006165,0.00122845
823.533333332913,-0.28863353,-0.2531142,-0.4258508,-2.1829395,0.02747573,1.9890897,1.2306247,0.04,0.039999496,-9.736892,1.3384301662445068,-0.2699442,0.19440879,-0.049404460936784744,0.0012153393
823.5499999995797,-0.28947347,-0.2515905,-0.42708874,-2.1824427,0.027554726,1.9902879,1.2318989,0.04,0.03999948,-9.737319,1.3365254402160645,-0.2692582,0.19103381,-0.04901422560214996,0.0012115886
823.5666666662463,-0.2902996,-0.25009212,-0.42830652,-2.1819537,0.02763241,1.9914659,1.2331516,0.04,0.03999948,-9.737645,1.3345682621002197,-0.26855776,0.18765187,-0.04861695319414139,0.0012072155
823.583333332913,-0.29111204,-0.24861923,-0.42950398,-2.1814725,0.027708787,1.992624,1.234383,0.04,0.03999947,-9.7379465,1.3326696157455444,-0.26784366,0.18426648,-0.04820992797613144,0.0012179315
823.5999999995796,-0.29191062,-0.24717176,-0.4306811,-2.1810002,0.027783854,1.9937621,1.2355932,0.04,0.03999947,-9.738226,1.3307795524597168,-0.26711583,0.18087646,-0.0477900430560112,0.0012425387
823.6166666662463,-0.2926954,-0.24574974,-0.43183798,-2.1805363,0.0278576,1.9948801,1.2367821,0.04,0.039999474,-9.738626,1.3287991285324097,-0.26628447,0.17748241,-0.047369956970214844,0.0012596004
823.6333333329129,-0.29346633,-0.24435319,-0.43297446,-2.1800807,0.027930027,1.9959782,1.2379496,0.04,0.039999474,-9.738983,1.326961636543274,-0.2654835,0.17408594,-0.04693978279829025,0.0013002879
823.6499999995796,-0.29422334,-0.24298216,-0.43409052,-2.1796336,0.028001139,1.9970561,1.2390962,0.04,0.039999463,-9.739252,1.3249832391738892,-0.2646502,0.17068757,-0.04650520533323288,0.0013305377
823.6666666662462,-0.29496664,-0.24163665,-0.43518633,-2.1791952,0.028070927,1.998114,1.2402213,0.04,0.03999945,-9.739637,1.3231055736541748,-0.2637704,0.16728757,-0.046064626425504684,0.0013767293
823.6833333329129,-0.29569608,-0.24031663,-0.4362616,-2.178765,0.028139403,1.9991517,1.2413249,0.04,0.039999444,-9.7399025,1.321075439453125,-0.26272988,0.16388777,-0.0456184558570385,0.0014300207
823.6999999995795,-0.29641163,-0.23902205,-0.43731663,-2.178343,0.028206553,2.0001698,1.242407,0.04,0.03999941,-9.740244,1.31932532787323,-0.26198867,0.16049002,-0.045166369527578354,0.0014875801
823.7166666662462,-0.29711336,-0.23775293,-0.4383512,-2.1779294,0.028272396,2.0011678,1.243468,0.04,0.0399994,-9.740523,1.3174866437911987,-0.2610988,0.15709534,-0.044704560190439224,0.0015593276
823.7333333329128,-0.29780123,-0.23650922,-0.43936554,-2.1775236,0.028336916,2.0021455,1.244508,0.04,0.039999396,-9.740774,1.3155856132507324,-0.26016414,0.1537023,-0.04423864930868149,0.0016294833
823.7499999995795,-0.2984753,-0.23529088,-0.4403594,-2.1771264,0.028400127,2.003103,1.2455264,0.04,0.039999396,-9.741026,1.3136930465698242,-0.25919276,0.15031208,-0.043771080672740936,0.0016973382
823.7666666662461,-0.29913548,-0.23409796,-0.441333,-2.1767368,0.028462023,2.0040407,1.2465235,0.04,0.039999384,-9.741317,1.3119128942489624,-0.25822577,0.1469289,-0.043295569717884064,0.001787263
823.7833333329128,-0.29978198,-0.23293027,-0.44228622,-2.1763556,0.0285226,2.0049589,1.2474998,0.04,0.03999938,-9.741446,1.309979796409607,-0.25725827,0.14355253,-0.042815692722797394,0.0018651288
823.7999999995794,-0.30041453,-0.23178788,-0.44321918,-2.1759834,0.028581886,2.0058568,1.2484549,0.04,0.039999373,-9.741721,1.30820631980896,-0.2562574,0.14018102,-0.04232899844646454,0.0019557185
823.8166666662461,-0.30103338,-0.23067068,-0.44413203,-2.1756198,0.028639868,2.006735,1.2493889,0.04,0.03999937,-9.742047,1.3063974380493164,-0.2551966,0.1368189,-0.04184248298406601,0.0020530217
823.8333333329127,-0.3016384,-0.22957861,-0.44502467,-2.1752648,0.028696552,2.0075936,1.2503017,0.04,0.039999366,-9.742324,1.3046585321426392,-0.25416675,0.13346522,-0.041351474821567535,0.0021636344
823.8499999995794,-0.30222985,-0.2285116,-0.44589728,-2.1749175,0.028751941,2.0084324,1.2511936,0.04,0.03999937,-9.742556,1.3027925491333008,-0.25310403,0.13012314,-0.04086218774318695,0.0022620335
823.866666666246,-0.3028076,-0.22746949,-0.44674984,-2.1745777,0.028806038,2.0092518,1.2520648,0.04,0.039999366,-9.742692,1.3010998964309692,-0.25209764,0.12679136,-0.04036342352628708,0.002380431
823.8833333329127,-0.3033717,-0.22645226,-0.4475823,-2.1742456,0.028858848,2.0100517,1.2529151,0.04,0.039999366,-9.7427845,1.2992618083953857,-0.25105897,0.123471685,-0.03986334800720215,0.0024852331
823.8999999995793,-0.30392218,-0.22545975,-0.44839492,-2.1739218,0.028910382,2.0108316,1.2537447,0.04,0.03999936,-9.742938,1.297581434249878,-0.25000012,0.120165616,-0.039354510605335236,0.00260915
823.916666666246,-0.30445918,-0.2244919,-0.44918773,-2.173606,0.028960638,2.0115921,1.2545538,0.04,0.039999362,-9.743151,1.295833945274353,-0.24888265,0.11687464,-0.03884974122047424,0.002729455
823.9333333329126,-0.30498266,-0.22354852,-0.4499608,-2.173298,0.029009623,2.0123334,1.2553424,0.04,0.039999362,-9.743203,1.2939549684524536,-0.24763915,0.113598675,-0.03834410756826401,0.0028450612
823.9499999995793,-0.30549282,-0.22262956,-0.45071417,-2.172998,0.02905735,2.013056,1.2561103,0.04,0.039999355,-9.74339,1.292474627494812,-0.246726,0.11033988,-0.03783152624964714,0.0029797954
823.9666666662459,-0.30598956,-0.22173476,-0.45144802,-2.172706,0.029103829,2.0137599,1.2568585,0.04,0.039999355,-9.743538,1.290783405303955,-0.24562256,0.10709912,-0.03731812164187431,0.0031082993
823.9833333329126,-0.30647308,-0.22086413,-0.4521625,-2.1724222,0.029149057,2.0144444,1.2575862,0.04,0.039999347,-9.743654,1.2891262769699097,-0.24451488,0.10387511,-0.03680386394262314,0.0032383602
823.9999999995792,-0.3069435,-0.22001745,-0.4528577,-2.1721463,0.029193046,2.01511,1.2582941,0.04,0.039999317,-9.743837,1.2875171899795532,-0.24336986,0.10067214,-0.03629300743341446,0.0033713675
824.0166666662459,-0.30740073,-0.21919452,-0.45353365,-2.171878,0.029235804,2.0157566,1.2589815,0.04,0.03999931,-9.743903,1.2858808040618896,-0.24227056,0.097489804,-0.03578220680356026,0.0034999843
824.0333333329125,-0.3078449,-0.21839517,-0.45419046,-2.1716175,0.029277349,2.016385,1.2596498,0.04,0.039999306,-9.744042,1.2843265533447266,-0.24113639,0.09433173,-0.0352722592651844,0.0036394212
824.0499999995792,-0.30827612,-0.21761923,-0.45482838,-2.171364,0.029317686,2.0169947,1.2602984,0.04,0.039999306,-9.74405,1.2827247381210327,-0.24003789,0.09119534,-0.034759290516376495,0.0037795815
824.0666666662459,-0.3086945,-0.21686654,-0.45544752,-2.1711185,0.029356815,2.0175862,1.2609276,0.04,0.039999306,-9.744124,1.2811708450317383,-0.23890066,0.0880833,-0.034249067306518555,0.003922285
824.0833333329125,-0.3091001,-0.21613686,-0.456048,-2.1708806,0.029394753,2.01816,1.2615374,0.04,0.039999306,-9.744163,1.279650330543518,-0.23778914,0.08499733,-0.03373654559254646,0.0040719733
824.0999999995792,-0.309493,-0.21543002,-0.45662996,-2.17065,0.02943151,2.0187159,1.262128,0.04,0.039999306,-9.744236,1.2781109809875488,-0.23664735,0.08193811,-0.033226486295461655,0.004216254
824.1166666662458,-0.30987328,-0.21474583,-0.4571937,-2.1704264,0.029467098,2.0192537,1.2626997,0.04,0.039999306,-9.744245,1.2765694856643677,-0.23550154,0.0789091,-0.03272087499499321,0.0043543675
824.1333333329125,-0.31024113,-0.214084,-0.4577392,-2.1702104,0.02950153,2.0197737,1.2632529,0.04,0.039999314,-9.744246,1.2751355171203613,-0.23437895,0.07590911,-0.032212994992733,0.0045063742
824.1499999995791,-0.31059667,-0.21344429,-0.45826676,-2.1700015,0.029534811,2.0202765,1.2637876,0.04,0.03999931,-9.7442665,1.273643136024475,-0.2332271,0.07293906,-0.03171123191714287,0.0046537416
824.1666666662458,-0.31094006,-0.21282652,-0.4587765,-2.1698,0.029566959,2.0207622,1.2643042,0.04,0.039999314,-9.744281,1.2721912860870361,-0.2320885,0.07000001,-0.03121236339211464,0.0048002615
824.1833333329124,-0.3112713,-0.21223041,-0.45926872,-2.169606,0.02959799,2.0212307,1.2648023,0.04,0.039999314,-9.744235,1.2706303596496582,-0.23078825,0.06709402,-0.030716843903064728,0.0049481913
824.1999999995791,-0.31159067,-0.2116557,-0.4597436,-2.169419,0.029627912,2.021682,1.2652826,0.04,0.039999306,-9.744284,1.2693499326705933,-0.22978656,0.06422366,-0.030226632952690125,0.0050968938
824.2166666662457,-0.31189823,-0.21110216,-0.46020132,-2.1692393,0.029656738,2.022117,1.2657452,0.04,0.03999931,-9.744291,1.2679673433303833,-0.22863793,0.061388675,-0.029742812737822533,0.0052454877
824.2333333329124,-0.31219417,-0.21056943,-0.46064207,-2.1690664,0.029684486,2.0225358,1.2661903,0.04,0.039999306,-9.744274,1.2665956020355225,-0.22750105,0.058591157,-0.029263459146022797,0.0053948644
824.249999999579,-0.31247854,-0.21005727,-0.4610661,-2.168899,0.029711176,2.0229383,1.2666185,0.04,0.03999931,-9.744239,1.2652239799499512,-0.2263573,0.055831663,-0.028789324685931206,0.005542681
824.2666666662457,-0.3127516,-0.20956539,-0.46147358,-2.1687381,0.02973681,2.0233247,1.2670294,0.04,0.03999931,-9.7439785,1.2638320922851562,-0.22527747,0.053110905,-0.028314538300037384,0.005687715
824.2833333329123,-0.31301332,-0.20909342,-0.46186477,-2.1685839,0.029761415,2.0236952,1.2674239,0.04,0.039999306,-9.743919,1.2625068426132202,-0.22412792,0.05043304,-0.027846025303006172,0.0058323424
824.299999999579,-0.31326422,-0.20864107,-0.46224,-2.168436,0.029785013,2.0240505,1.2678018,0.039999995,0.0399993,-9.743818,1.261167287826538,-0.22297177,0.047796868,-0.027384962886571884,0.005975465
824.3166666662456,-0.3135042,-0.20820801,-0.46259952,-2.1682951,0.029807605,2.0243907,1.2681634,0.04,0.039999302,-9.74372,1.2598737478256226,-0.22183776,0.045204435,-0.02692873403429985,0.00611777
824.3333333329123,-0.3137335,-0.20779392,-0.46294367,-2.1681607,0.029829219,2.024716,1.2685095,0.039999995,0.039999302,-9.743704,1.2586005926132202,-0.22066306,0.042657427,-0.026482438668608665,0.006259181
824.3499999995789,-0.31395233,-0.20739841,-0.4632726,-2.1680315,0.02984987,2.0250268,1.26884,0.04,0.039999306,-9.743573,1.2573316097259521,-0.21952817,0.04015492,-0.026043102145195007,0.0063999803
824.3666666662456,-0.31416082,-0.20702119,-0.46358663,-2.1679087,0.029869579,2.0253234,1.2691551,0.039999995,0.039999302,-9.74336,1.2560175657272339,-0.21840258,0.03770096,-0.025610726326704025,0.0065298607
824.3833333329122,-0.31435928,-0.20666178,-0.4638859,-2.1677916,0.029888356,2.0256057,1.2694554,0.03999999,0.039999302,-9.743266,1.2548354864120483,-0.21725333,0.03529631,-0.025182673707604408,0.0066727865
824.3999999995789,-0.31454784,-0.20631993,-0.464171,-2.16768,0.029906224,2.0258746,1.2697409,0.039999995,0.039999306,-9.74309,1.2535163164138794,-0.21608947,0.03294179,-0.024767113849520683,0.006799279
824.4166666662455,-0.31472668,-0.20599516,-0.46444213,-2.167574,0.029923214,2.0261304,1.2700125,0.04,0.039999314,-9.742858,1.2523399591445923,-0.21497905,0.030639865,-0.024352427572011948,0.006936218
824.4333333329122,-0.31489602,-0.20568708,-0.4646995,-2.1674738,0.029939335,2.0263724,1.2702702,0.039999995,0.03999931,-9.742629,1.2509922981262207,-0.21370868,0.02838979,-0.02394724264740944,0.0070632817
824.4499999995788,-0.31505615,-0.20539533,-0.46494344,-2.1673787,0.029954612,2.0266018,1.270514,0.04,0.03999932,-9.742587,1.2499028444290161,-0.21262284,0.02619346,-0.023557288572192192,0.0071899383
824.4666666662455,-0.3152072,-0.20511937,-0.4651744,-2.1672885,0.029969066,2.0268188,1.2707447,0.039999995,0.039999314,-9.742301,1.2486798763275146,-0.21149218,0.024055779,-0.023173626512289047,0.0073132413
824.4833333329121,-0.3153495,-0.20485899,-0.4653927,-2.1672037,0.029982718,2.0270236,1.2709624,0.04,0.039999325,-9.742083,1.2474727630615234,-0.21033436,0.021974675,-0.022799177095294,0.0074323127
824.4999999995788,-0.3154832,-0.20461355,-0.4655986,-2.167124,0.029995592,2.0272164,1.2711676,0.04,0.03999932,-9.741853,1.2463011741638184,-0.20915474,0.019952761,-0.022434983402490616,0.0075493995
824.5166666662454,-0.3156087,-0.20438264,-0.46579263,-2.1670485,0.030007713,2.027398,1.2713606,0.04,0.039999325,-9.7416935,1.2451263666152954,-0.20796451,0.017991394,-0.022084243595600128,0.007663791
824.5333333329121,-0.3157261,-0.20416586,-0.4659751,-2.1669776,0.030019103,2.0275683,1.2715417,0.04,0.039999325,-9.741351,1.2439302206039429,-0.20682992,0.016092326,-0.021739978343248367,0.0077737602
824.5499999995787,-0.31583565,-0.20396265,-0.46614635,-2.1669118,0.030029785,2.0277286,1.2717113,0.04,0.03999933,-9.741093,1.2427634000778198,-0.20564513,0.014257321,-0.021408265456557274,0.007879649
824.5666666662454,-0.31593776,-0.20377262,-0.4663068,-2.1668496,0.030039791,2.0278776,1.2718703,0.04,0.03999933,-9.740928,1.2416250705718994,-0.20443173,0.012487806,-0.021089274436235428,0.007984074
824.583333332912,-0.3160325,-0.20359516,-0.46645698,-2.1667922,0.03004914,2.028017,1.2720188,0.04,0.039999336,-9.740551,1.240447759628296,-0.20325908,0.010783287,-0.02078218013048172,0.008083328
824.5999999995787,-0.31612036,-0.20342983,-0.4665971,-2.166738,0.03005786,2.0281472,1.2721571,0.04,0.039999336,-9.740331,1.239300012588501,-0.20205955,0.009146229,-0.020487220957875252,0.008179951
824.6166666662454,-0.31620148,-0.20327616,-0.46672752,-2.1666882,0.030065978,2.028268,1.2722856,0.04,0.03999934,-9.73997,1.2381267547607422,-0.20086935,0.0075788447,-0.020202992483973503,0.0082706055
824.633333332912,-0.31627613,-0.20313354,-0.46684885,-2.1666415,0.030073524,2.0283804,1.2724049,0.04,0.03999934,-9.739712,1.2369517087936401,-0.19961858,0.006082933,-0.01993604190647602,0.008351855
824.6499999995787,-0.31634462,-0.2030014,-0.46696138,-2.1665993,0.030080529,2.0284843,1.2725154,0.04,0.039999343,-9.7393265,1.2358251810073853,-0.1984361,0.0046602334,-0.01967431791126728,0.008441145
824.6666666662453,-0.3164073,-0.20287931,-0.46706575,-2.1665592,0.030087007,2.028581,1.2726175,0.04,0.039999343,-9.739143,1.2346534729003906,-0.19715643,0.0033113195,-0.019432753324508667,0.008522262
824.683333332912,-0.3164645,-0.20276661,-0.46716225,-2.1665218,0.030092988,2.0286698,1.2727115,0.04,0.039999347,-9.73862,1.2333881855010986,-0.1958915,0.0020393133,-0.019199412316083908,0.008594419
824.6999999995786,-0.3165166,-0.2026628,-0.46725142,-2.1664877,0.030098513,2.0287511,1.2727982,0.04,0.039999347,-9.738247,1.2322748899459839,-0.19470736,0.00084498985,-0.01897898130118847,0.00866276
824.7166666662453,-0.3165638,-0.20256712,-0.46733367,-2.1664562,0.030103605,2.0288255,1.2728783,0.04,0.03999935,-9.737993,1.2311352491378784,-0.19339576,-0.00027070454,-0.018778854981064796,0.008728367
824.7333333329119,-0.31660646,-0.20247918,-0.46740958,-2.1664276,0.0301083,2.0288935,1.2729524,0.04,0.03999935,-9.737606,1.2299453020095825,-0.19213325,-0.0013073311,-0.018593180924654007,0.008790566
824.7499999995786,-0.31664485,-0.2023983,-0.46747956,-2.166401,0.030112632,2.0289588,1.2730199,0.04,0.03999936,-9.737295,1.2287793159484863,-0.19082691,-0.0022650785,-0.018426360562443733,0.008848734
824.7666666662452,-0.31667945,-0.20232393,-0.46754405,-2.166376,0.030116618,2.0290172,1.2730824,0.04,0.03999936,-9.736825,1.2275564670562744,-0.18967853,-0.0031413338,-0.018262088298797607,0.008888665
824.7833333329119,-0.31671038,-0.20225556,-0.46760368,-2.1663532,0.030120298,2.0290697,1.2731402,0.04,0.039999362,-9.73654,1.2265527248382568,-0.18850978,-0.0039471504,-0.018112998455762863,0.008941939
824.7999999995785,-0.31673825,-0.20219266,-0.4676586,-2.1663337,0.030123685,2.0291204,1.2731928,0.04,0.03999936,-9.736272,1.2255452871322632,-0.18743739,-0.004687679,-0.01798246242105961,0.008988223
824.8166666662452,-0.31676325,-0.20213482,-0.4677092,-2.1663146,0.030126799,2.0291648,1.2732413,0.04,0.039999362,-9.736141,1.2246325016021729,-0.1864585,-0.0053640185,-0.017859218642115593,0.009026792
824.8333333329118,-0.31678572,-0.20208158,-0.4677559,-2.1662965,0.030129666,2.029208,1.273286,0.04,0.039999366,-9.735808,1.2237647771835327,-0.1855683,-0.005984108,-0.017751352861523628,0.009064788
824.8499999995785,-0.31680584,-0.20203264,-0.46779898,-2.1662798,0.030132318,2.029245,1.2733274,0.04,0.039999366,-9.735459,1.2229605913162231,-0.18483001,-0.006552723,-0.017640409991145134,0.009094572
824.8666666662451,-0.31682384,-0.20198764,-0.4678387,-2.166265,0.030134756,2.0292804,1.2733655,0.04,0.039999366,-9.735321,1.2222843170166016,-0.18401057,-0.007074763,-0.017549574375152588,0.009127537
824.8833333329118,-0.31683993,-0.20194627,-0.4678753,-2.1662517,0.030137006,2.0293155,1.2734004,0.04,0.03999937,-9.735169,1.2216346263885498,-0.18334253,-0.0075535974,-0.017462827265262604,0.009154768
824.8999999995784,-0.31685436,-0.2019082,-0.467909,-2.1662402,0.03013908,2.0293434,1.2734324,0.04,0.03999937,-9.734967,1.2210317850112915,-0.1827431,-0.007991555,-0.01737413927912712,0.009176067
824.9166666662451,-0.31686726,-0.20187318,-0.46794024,-2.1662288,0.030140985,2.0293713,1.2734622,0.04,0.03999937,-9.735025,1.2205537557601929,-0.18203431,-0.008391904,-0.017313990741968155,0.009206947
824.9333333329117,-0.31687883,-0.20184098,-0.4679689,-2.166218,0.030142749,2.029399,1.2734894,0.04,0.03999937,-9.734681,1.2199945449829102,-0.1815973,-0.008760676,-0.01724614016711712,0.009228423
824.9499999995784,-0.31688914,-0.20181137,-0.46799543,-2.1662078,0.030144364,2.0294204,1.2735139,0.04,0.03999937,-9.73447,1.2195369005203247,-0.1811717,-0.009097431,-0.017174741253256798,0.009243386
824.966666666245,-0.31689832,-0.20178413,-0.4680198,-2.1661983,0.030145856,2.0294406,1.273537,0.04,0.039999373,-9.734398,1.2191637754440308,-0.18064325,-0.009403864,-0.017124395817518234,0.009263818
824.9833333329117,-0.31690654,-0.2017591,-0.4680423,-2.1661894,0.030147232,2.029461,1.2735578,0.04,0.039999373,-9.734253,1.218773603439331,-0.18026231,-0.009686915,-0.017075402662158012,0.009282191
824.9999999995783,-0.31691387,-0.20173603,-0.46806312,-2.1661813,0.030148506,2.0294812,1.2735772,0.04,0.03999937,-9.734105,1.2184243202209473,-0.17992724,-0.009943955,-0.017023207619786263,0.009296423
825.016666666245,-0.31692034,-0.20171484,-0.4680823,-2.1661744,0.030149672,2.0295007,1.2735956,0.04,0.039999373,-9.733977,1.2180978059768677,-0.17960572,-0.0101812845,-0.01696961186826229,0.0093040615
825.0333333329116,-0.31692603,-0.2016954,-0.46809995,-2.1661682,0.030150747,2.0295134,1.2736118,0.04,0.039999373,-9.733933,1.2178362607955933,-0.17926118,-0.010400939,-0.016918431967496872,0.009311185
825.0499999995783,-0.31693116,-0.20167752,-0.4681162,-2.1661627,0.030151736,2.029526,1.273627,0.04,0.039999373,-9.734002,1.217636227607727,-0.17883724,-0.0105987545,-0.016893934458494186,0.009329524
825.0666666662449,-0.3169358,-0.20166105,-0.4681312,-2.166158,0.030152656,2.0295386,1.2736416,0.04,0.039999377,-9.733923,1.2173749208450317,-0.17861356,-0.0107815685,-0.016868537291884422,0.009343662
825.0833333329116,-0.3169399,-0.20164591,-0.46814513,-2.1661541,0.030153504,2.0295513,1.273654,0.04,0.039999373,-9.733855,1.2171648740768433,-0.17840783,-0.01095193,-0.0168417040258646,0.0093570845
825.0999999995782,-0.31694353,-0.20163193,-0.46815795,-2.1661503,0.030154277,2.029564,1.2736658,0.04,0.039999377,-9.733829,1.2169700860977173,-0.17819968,-0.011103874,-0.01681593805551529,0.009366374
825.1166666662449,-0.31694666,-0.20161912,-0.46816975,-2.1661465,0.030154992,2.0295758,1.2736768,0.04,0.039999377,-9.7337,1.2167701721191406,-0.17803256,-0.011244914,-0.01678675413131714,0.009373236
825.1333333329115,-0.31694946,-0.20160733,-0.46818063,-2.1661427,0.030155648,2.0295877,1.2736875,0.04,0.039999377,-9.733584,1.2165911197662354,-0.17785276,-0.011374322,-0.01675749570131302,0.009378113
825.1499999995782,-0.31695193,-0.2015965,-0.46819064,-2.1661391,0.030156257,2.0295951,1.2736962,0.04,0.039999377,-9.181535,0.9465628862380981,-0.03782709,0.0,-0.0,0.0
825.1666666662449,-0.31695193,-0.2015965,-0.46819064,-2.1661391,0.030156257,2.0295951,1.2736962,0.04,0.039999377,-9.732866,1.2150989770889282,-0.17592035,0.0,-0.0,0.0
825.1833333329115,-0.31695193,-0.2015965,-0.46819064,-2.1661391,0.030156257,2.0295951,1.2736962,0.04,0.039999377,-9.732866,1.2150989770889282,-0.17592035,0.0,-0.0,0.0
825.1999999995782,-0.31695193,-0.2015965,-0.46819064,-2.1661391,0.030156257,2.0295951,1.2736962,0.04,0.039999377,-9.732866,1.2150989770889282,-0.17592035,0.0,-0.0,0.0
825.2166666662448,-0.31695193,-0.2015965,-0.46819064,-2.1661391,0.030156257,2.0295951,1.2736962,0.04,0.039999377,-9.732866,1.2150989770889282,-0.17592035,0.0,-0.0,0.0
825.2333333329115,-0.31695193,-0.2015965,-0.46819064,-2.1661391,0.030156257,2.0295951,1.2736962,0.04,0.039999377,-9.732866,1.2150989770889282,-0.17592035,0.0,-0.0,0.0
825.2499999995781,-0.31695193,-0.2015965,-0.46819064,-2.1661391,0.030156257,2.0295951,1.2736962,0.04,0.039999377,-9.732866,1.2150989770889282,-0.17592035,0.0,-0.0,0.0
825.2666666662448,-0.31695193,-0.2015965,-0.46819064,-2.1661391,0.030156257,2.0295951,1.2736962,0.04,0.039999377,-9.732866,1.2150989770889282,-0.17592035,0.0,-0.0,0.0
825.2833333329114,-0.31695193,-0.2015965,-0.46819064,-2.1661391,0.030156257,2.0295951,1.2736962,0.04,0.039999377,-9.732866,1.2150989770889282,-0.17592035,0.0,-0.0,0.0
825.2999999995781,-0.31695193,-0.2015965,-0.46819064,-2.1661391,0.030156257,2.0295951,1.2736962,0.04,0.039999377,-9.732866,1.2150989770889282,-0.17592035,0.0,-0.0,0.0
825.3166666662447,-0.31695193,-0.2015965,-0.46819064,-2.1661391,0.030156257,2.0295951,1.2736962,0.04,0.039999377,-9.732866,1.2150989770889282,-0.17592035,0.0,-0.0,0.0
825.3333333329114,-0.31695193,-0.2015965,-0.46819064,-2.1661391,0.030156257,2.0295951,1.2736962,0.04,0.039999377,-9.732866,1.2150989770889282,-0.17592035,0.0,-0.0,0.0
825.349999999578,-0.31695193,-0.2015965,-0.46819064,-2.1661391,0.030156257,2.0295951,1.2736962,0.04,0.039999377,-9.732866,1.2150989770889282,-0.17592035,0.0,-0.0,0.0
825.3666666662447,-0.31695193,-0.2015965,-0.46819064,-2.1661391,0.030156257,2.0295951,1.2736962,0.04,0.039999377,-9.732866,1.2150989770889282,-0.17592035,0.0,-0.0,0.0
825.3833333329113,-0.31695193,-0.2015965,-0.46819064,-2.1661391,0.030156257,2.0295951,1.2736962,0.04,0.039999377,-9.732866,1.2150989770889282,-0.17592035,0.0,-0.0,0.0
825.399999999578,-0.31695193,-0.2015965,-0.46819064,-2.1661391,0.030156257,2.0295951,1.2736962,0.04,0.039999377,-9.732866,1.2150989770889282,-0.17592035,0.0,-0.0,0.0
825.4166666662446,-0.31695193,-0.2015965,-0.46819064,-2.1661391,0.030156257,2.0295951,1.2736962,0.04,0.039999377,-9.732866,1.2150989770889282,-0.17592035,0.0,-0.0,0.0
825.4333333329113,-0.31695193,-0.2015965,-0.46819064,-2.1661391,0.030156257,2.0295951,1.2736962,0.04,0.039999377,-9.732866,1.2150989770889282,-0.17592035,0.0,-0.0,0.0
825.4499999995779,-0.31695193,-0.2015965,-0.46819064,-2.1661391,0.030156257,2.0295951,1.2736962,0.04,0.039999377,-9.732866,1.2150989770889282,-0.17592035,0.0,-0.0,0.0
825.4666666662446,-0.31695193,-0.2015965,-0.46819064,-2.1661391,0.030156257,2.0295951,1.2736962,0.04,0.039999377,-9.732866,1.2150989770889282,-0.17592035,0.0,-0.0,0.0
825.4833333329112,-0.31695193,-0.2015965,-0.46819064,-2.1661391,0.030156257,2.0295951,1.2736962,0.04,0.039999377,-9.732866,1.2150989770889282,-0.17592035,0.0,-0.0,0.0
825.4999999995779,-0.31695193,-0.2015965,-0.46819064,-2.1661391,0.030156257,2.0295951,1.2736962,0.04,0.039999377,-9.732866,1.2150989770889282,-0.17592035,0.0,-0.0,0.0
825.5166666662445,-0.31695193,-0.2015965,-0.46819064,-2.1661391,0.030156257,2.0295951,1.2736962,0.04,0.039999377,-9.732866,1.2150989770889282,-0.17592035,0.0,-0.0,0.0
825.5333333329112,-0.31695193,-0.2015965,-0.46819064,-2.1661391,0.030156257,2.0295951,1.2736962,0.04,0.039999377,-9.732866,1.2150989770889282,-0.17592035,0.0,-0.0,0.0
825.5499999995778,-0.31695193,-0.2015965,-0.46819064,-2.1661391,0.030156257,2.0295951,1.2736962,0.04,0.039999377,-9.732866,1.2150989770889282,-0.17592035,0.0,-0.0,0.0
825.5666666662445,-0.31695193,-0.2015965,-0.46819064,-2.1661391,0.030156257,2.0295951,1.2736962,0.04,0.039999377,-9.732866,1.2150989770889282,-0.17592035,0.0,-0.0,0.0
825.5833333329111,-0.31695193,-0.2015965,-0.46819064,-2.1661391,0.030156257,2.0295951,1.2736962,0.04,0.039999377,-9.732866,1.2150989770889282,-0.17592035,0.0,-0.0,0.0
825.5999999995778,-0.31695193,-0.2015965,-0.46819064,-2.1661391,0.030156257,2.0295951,1.2736962,0.04,0.039999377,-9.732866,1.2150989770889282,-0.17592035,0.0,-0.0,0.0
825.6166666662444,-0.31695193,-0.2015965,-0.46819064,-2.1661391,0.030156257,2.0295951,1.2736962,0.04,0.039999377,-9.732866,1.2150989770889282,-0.17592035,0.0,-0.0,0.0
825.6333333329111,-0.31695193,-0.2015965,-0.46819064,-2.1661391,0.030156257,2.0295951,1.2736962,0.04,0.039999377,-9.732866,1.2150989770889282,-0.17592035,0.0,-0.0,0.0
825.6499999995777,-0.31695193,-0.2015965,-0.46819064,-2.1661391,0.030156257,2.0295951,1.2736962,0.04,0.039999377,-9.732866,1.2150989770889282,-0.17592035,0.0,-0.0,0.0
825.6666666662444,-0.31695193,-0.2015965,-0.46819064,-2.1661391,0.030156257,2.0295951,1.2736962,0.04,0.039999377,-9.732866,1.2150989770889282,-0.17592035,0.0,-0.0,0.0
825.683333332911,-0.31695193,-0.2015965,-0.46819064,-2.1661391,0.030156257,2.0295951,1.2736962,0.04,0.039999377,-9.732866,1.2150989770889282,-0.17592035,0.0,-0.0,0.0
825.6999999995777,-0.31695193,-0.2015965,-0.46819064,-2.1661391,0.030156257,2.0295951,1.2736962,0.04,0.039999377,-9.732866,1.2150989770889282,-0.17592035,0.0,-0.0,0.0
825.7166666662444,-0.31695193,-0.2015965,-0.46819064,-2.1661391,0.030156257,2.0295951,1.2736962,0.04,0.039999377,-9.732866,1.2150989770889282,-0.17592035,0.0,-0.0,0.0
825.733333332911,-0.31695193,-0.2015965,-0.46819064,-2.1661391,0.030156257,2.0295951,1.2736962,0.04,0.039999377,-9.732866,1.2150989770889282,-0.17592035,0.0,-0.0,0.0
825.7499999995777,-0.31695193,-0.2015965,-0.46819064,-2.1661391,0.030156257,2.0295951,1.2736962,0.04,0.039999377,-9.732866,1.2150989770889282,-0.17592035,0.0,-0.0,0.0
825.7666666662443,-0.31695193,-0.2015965,-0.46819064,-2.1661391,0.030156257,2.0295951,1.2736962,0.04,0.039999377,-9.732866,1.2150989770889282,-0.17592035,0.0,-0.0,0.0
825.783333332911,-0.31695193,-0.2015965,-0.46819064,-2.1661391,0.030156257,2.0295951,1.2736962,0.04,0.039999377,-9.732866,1.2150989770889282,-0.17592035,0.0,-0.0,0.0
825.7999999995776,-0.31695193,-0.2015965,-0.46819064,-2.1661391,0.030156257,2.0295951,1.2736962,0.04,0.039999377,-9.732866,1.2150989770889282,-0.17592035,0.0,-0.0,0.0
825.8166666662443,-0.31695193,-0.2015965,-0.46819064,-2.1661391,0.030156257,2.0295951,1.2736962,0.04,0.039999377,-9.732866,1.2150989770889282,-0.17592035,0.0,-0.0,0.0
825.8333333329109,-0.31695193,-0.2015965,-0.46819064,-2.1661391,0.030156257,2.0295951,1.2736962,0.04,0.039999377,-9.732866,1.2150989770889282,-0.17592035,0.0,-0.0,0.0
825.8499999995776,-0.31695193,-0.2015965,-0.46819064,-2.1661391,0.030156257,2.0295951,1.2736962,0.04,0.039999377,-9.732866,1.2150989770889282,-0.17592035,0.0,-0.0,0.0
825.8666666662442,-0.31695193,-0.2015965,-0.46819064,-2.1661391,0.030156257,2.0295951,1.2736962,0.04,0.039999377,-9.732866,1.2150989770889282,-0.17592035,0.0,-0.0,0.0
825.8833333329109,-0.31695193,-0.2015965,-0.46819064,-2.1661391,0.030156257,2.0295951,1.2736962,0.04,0.039999377,-9.732866,1.2150989770889282,-0.17592035,0.0,-0.0,0.0
825.8999999995775,-0.31695193,-0.2015965,-0.46819064,-2.1661391,0.030156257,2.0295951,1.2736962,0.04,0.039999377,-9.732866,1.2150989770889282,-0.17592035,0.0,-0.0,0.0
825.9166666662442,-0.31695193,-0.2015965,-0.46819064,-2.1661391,0.030156257,2.0295951,1.2736962,0.04,0.039999377,-9.732866,1.2150989770889282,-0.17592035,0.0,-0.0,0.0
825.9333333329108,-0.31695193,-0.2015965,-0.46819064,-2.1661391,0.030156257,2.0295951,1.2736962,0.04,0.039999377,-9.732866,1.2150989770889282,-0.17592035,0.0,-0.0,0.0
825.9499999995775,-0.31695193,-0.2015965,-0.46819064,-2.1661391,0.030156257,2.0295951,1.2736962,0.04,0.039999377,-9.732866,1.2150989770889282,-0.17592035,0.0,-0.0,0.0
825.9666666662441,-0.31695193,-0.2015965,-0.46819064,-2.1661391,0.030156257,2.0295951,1.2736962,0.04,0.039999377,-9.732866,1.2150989770889282,-0.17592035,0.0,-0.0,0.0
825.9833333329108,-0.31695193,-0.2015965,-0.46819064,-2.1661391,0.030156257,2.0295951,1.2736962,0.04,0.039999377,-9.732866,1.2150989770889282,-0.17592035,0.0,-0.0,0.0
825.9999999995774,-0.31695193,-0.2015965,-0.46819064,-2.1661391,0.030156257,2.0295951,1.2736962,0.04,0.039999377,-9.732866,1.2150989770889282,-0.17592035,0.0,-0.0,0.0
826.0166666662441,-0.31695193,-0.2015965,-0.46819064,-2.1661391,0.030156257,2.0295951,1.2736962,0.04,0.039999377,-9.732866,1.2150989770889282,-0.17592035,0.0,-0.0,0.0
826.0333333329107,-0.31695193,-0.2015965,-0.46819064,-2.1661391,0.030156257,2.0295951,1.2736962,0.04,0.039999377,-9.732866,1.2150989770889282,-0.17592035,0.0,-0.0,0.0
826.0499999995774,-0.31695193,-0.2015965,-0.46819064,-2.1661391,0.030156257,2.0295951,1.2736962,0.04,0.039999377,-9.732866,1.2150989770889282,-0.17592035,0.0,-0.0,0.0
826.066666666244,-0.31695193,-0.2015965,-0.46819064,-2.1661391,0.030156257,2.0295951,1.2736962,0.04,0.039999377,-9.732866,1.2150989770889282,-0.17592035,0.0,-0.0,0.0
826.0833333329107,-0.31695193,-0.2015965,-0.46819064,-2.1661391,0.030156257,2.0295951,1.2736962,0.04,0.039999377,-9.732866,1.2150989770889282,-0.17592035,0.0,-0.0,0.0
826.0999999995773,-0.31695193,-0.2015965,-0.46819064,-2.1661391,0.030156257,2.0295951,1.2736962,0.04,0.039999377,-9.732866,1.2150989770889282,-0.17592035,0.0,-0.0,0.0
826.116666666244,-0.31695193,-0.2015965,-0.46819064,-2.1661391,0.030156257,2.0295951,1.2736962,0.04,0.039999377,-9.732866,1.2150989770889282,-0.17592035,0.0,-0.0,0.0
826.1333333329106,-0.31695193,-0.2015965,-0.46819064,-2.1661391,0.030156257,2.0295951,1.2736962,0.04,0.039999377,-9.732866,1.2150989770889282,-0.17592035,0.0,-0.0,0.0
826.1499999995773,-0.31695193,-0.2015965,-0.46819064,-2.1661391,0.030156257,2.0295951,1.2736962,0.04,0.039999377,-9.732866,1.2150989770889282,-0.17592035,0.0,-0.0,0.0
826.1666666662439,-0.31695193,-0.2015965,-0.46819064,-2.1661391,0.030156257,2.0295951,1.2736962,0.04,0.039999377,-9.732866,1.2150989770889282,-0.17592035,0.0,-0.0,0.0
826.1833333329106,-0.31695193,-0.2015965,-0.46819064,-2.1661391,0.030156257,2.0295951,1.2736962,0.04,0.039999377,-9.732866,1.2150989770889282,-0.17592035,0.0,-0.0,0.0
826.1999999995772,-0.31695193,-0.2015965,-0.46819064,-2.1661391,0.030156257,2.0295951,1.2736962,0.04,0.039999377,-9.732866,1.2150989770889282,-0.17592035,0.0,-0.0,0.0
826.2166666662439,-0.31695193,-0.2015965,-0.46819064,-2.1661391,0.030156257,2.0295951,1.2736962,0.04,0.039999377,-9.732866,1.2150989770889282,-0.17592035,0.0,-0.0,0.0
826.2333333329105,-0.31695193,-0.2015965,-0.46819064,-2.1661391,0.030156257,2.0295951,1.2736962,0.04,0.039999377,-9.732866,1.2150989770889282,-0.17592035,0.0,-0.0,0.0
826.2499999995772,-0.31695193,-0.2015965,-0.46819064,-2.1661391,0.030156257,2.0295951,1.2736962,0.04,0.039999377,-9.732866,1.2150989770889282,-0.17592035,0.0,-0.0,0.0
826.2666666662439,-0.31695193,-0.2015965,-0.46819064,-2.1661391,0.030156257,2.0295951,1.2736962,0.04,0.039999377,-9.732866,1.2150989770889282,-0.17592035,0.0,-0.0,0.0
826.2833333329105,-0.31695193,-0.2015965,-0.46819064,-2.1661391,0.030156257,2.0295951,1.2736962,0.04,0.039999377,-9.732866,1.2150989770889282,-0.17592035,0.0,-0.0,0.0
826.2999999995772,-0.31695193,-0.2015965,-0.46819064,-2.1661391,0.030156257,2.0295951,1.2736962,0.04,0.039999377,-9.732866,1.2150989770889282,-0.17592035,0.0,-0.0,0.0
826.3166666662438,-0.31695193,-0.2015965,-0.46819064,-2.1661391,0.030156257,2.0295951,1.2736962,0.04,0.039999377,-9.732866,1.2150989770889282,-0.17592035,0.0,-0.0,0.0
826.3333333329105,-0.31695193,-0.2015965,-0.46819064,-2.1661391,0.030156257,2.0295951,1.2736962,0.04,0.039999377,-9.732866,1.2150989770889282,-0.17592035,0.0,-0.0,0.0
826.3499999995771,-0.31695193,-0.2015965,-0.46819064,-2.1661391,0.030156257,2.0295951,1.2736962,0.04,0.039999377,-9.732866,1.2150989770889282,-0.17592035,0.0,-0.0,0.0
826.3666666662438,-0.31695193,-0.2015965,-0.46819064,-2.1661391,0.030156257,2.0295951,1.2736962,0.04,0.039999377,-9.732866,1.2150989770889282,-0.17592035,0.0,-0.0,0.0
826.3833333329104,-0.31695193,-0.2015965,-0.46819064,-2.1661391,0.030156257,2.0295951,1.2736962,0.04,0.039999377,-9.732866,1.2150989770889282,-0.17592035,0.0,-0.0,0.0
826.3999999995771,-0.31695193,-0.2015965,-0.46819064,-2.1661391,0.030156257,2.0295951,1.2736962,0.04,0.039999377,-9.732866,1.2150989770889282,-0.17592035,0.0,-0.0,0.0
826.4166666662437,-0.31695193,-0.2015965,-0.46819064,-2.1661391,0.030156257,2.0295951,1.2736962,0.04,0.039999377,-9.732866,1.2150989770889282,-0.17592035,0.0,-0.0,0.0
826.4333333329104,-0.31695193,-0.2015965,-0.46819064,-2.1661391,0.030156257,2.0295951,1.2736962,0.04,0.039999377,-9.732866,1.2150989770889282,-0.17592035,0.0,-0.0,0.0
826.449999999577,-0.31695193,-0.2015965,-0.46819064,-2.1661391,0.030156257,2.0295951,1.2736962,0.04,0.039999377,-9.732866,1.2150989770889282,-0.17592035,0.0,-0.0,0.0
826.4666666662437,-0.31695193,-0.2015965,-0.46819064,-2.1661391,0.030156257,2.0295951,1.2736962,0.04,0.039999377,-9.732866,1.2150989770889282,-0.17592035,0.0,-0.0,0.0
826.4833333329103,-0.31695193,-0.2015965,-0.46819064,-2.1661391,0.030156257,2.0295951,1.2736962,0.04,0.039999377,-9.732866,1.2150989770889282,-0.17592035,0.0,-0.0,0.0
826.499999999577,-0.31695193,-0.2015965,-0.46819064,-2.1661391,0.030156257,2.0295951,1.2736962,0.04,0.039999377,-9.732866,1.2150989770889282,-0.17592035,0.0,-0.0,0.0
826.5166666662436,-0.31695193,-0.2015965,-0.46819064,-2.1661391,0.030156257,2.0295951,1.2736962,0.04,0.039999377,-9.732866,1.2150989770889282,-0.17592035,0.0,-0.0,0.0
826.5333333329103,-0.31695193,-0.2015965,-0.46819064,-2.1661391,0.030156257,2.0295951,1.2736962,0.04,0.039999377,-9.732866,1.2150989770889282,-0.17592035,0.0,-0.0,0.0
826.5499999995769,-0.31695193,-0.2015965,-0.46819064,-2.1661391,0.030156257,2.0295951,1.2736962,0.04,0.039999377,-9.732866,1.2150989770889282,-0.17592035,0.0,-0.0,0.0
826.5666666662436,-0.31695193,-0.2015965,-0.46819064,-2.1661391,0.030156257,2.0295951,1.2736962,0.04,0.039999377,-9.732866,1.2150989770889282,-0.17592035,0.0,-0.0,0.0
826.5833333329102,-0.31695193,-0.2015965,-0.46819064,-2.1661391,0.030156257,2.0295951,1.2736962,0.04,0.039999377,-9.732866,1.2150989770889282,-0.17592035,0.0,-0.0,0.0
826.5999999995769,-0.31695193,-0.2015965,-0.46819064,-2.1661391,0.030156257,2.0295951,1.2736962,0.04,0.039999377,-9.732866,1.2150989770889282,-0.17592035,0.0,-0.0,0.0
826.6166666662435,-0.31695193,-0.2015965,-0.46819064,-2.1661391,0.030156257,2.0295951,1.2736962,0.04,0.039999377,-9.732866,1.2150989770889282,-0.17592035,0.0,-0.0,0.0
826.6333333329102,-0.31695193,-0.2015965,-0.46819064,-2.1661391,0.030156257,2.0295951,1.2736962,0.04,0.039999377,-9.732866,1.2150989770889282,-0.17592035,0.0,-0.0,0.0
826.6499999995768,-0.31695193,-0.2015965,-0.46819064,-2.1661391,0.030156257,2.0295951,1.2736962,0.04,0.039999377,-9.732866,1.2150989770889282,-0.17592035,0.0,-0.0,0.0
826.6666666662435,-0.31695193,-0.2015965,-0.46819064,-2.1661391,0.030156257,2.0295951,1.2736962,0.04,0.039999377,-9.732866,1.2150989770889282,-0.17592035,0.0,-0.0,0.0
826.6833333329101,-0.31695193,-0.2015965,-0.46819064,-2.1661391,0.030156257,2.0295951,1.2736962,0.04,0.039999377,-9.732866,1.2150989770889282,-0.17592035,0.0,-0.0,0.0
826.6999999995768,-0.31695193,-0.2015965,-0.46819064,-2.1661391,0.030156257,2.0295951,1.2736962,0.04,0.039999377,-9.732866,1.2150989770889282,-0.17592035,0.0,-0.0,0.0
826.7166666662434,-0.31695193,-0.2015965,-0.46819064,-2.1661391,0.030156257,2.0295951,1.2736962,0.04,0.039999377,-9.732866,1.2150989770889282,-0.17592035,0.0,-0.0,0.0
826.7333333329101,-0.31695193,-0.2015965,-0.46819064,-2.1661391,0.030156257,2.0295951,1.2736962,0.04,0.039999377,-9.732866,1.2150989770889282,-0.17592035,0.0,-0.0,0.0
826.7499999995767,-0.31695193,-0.2015965,-0.46819064,-2.1661391,0.030156257,2.0295951,1.2736962,0.04,0.039999377,-9.732866,1.2150989770889282,-0.17592035,0.0,-0.0,0.0
