rsonawane2002/My_IMU/logs_2/traj_325/imu_400hz_325.csv
time,j1,j2,j3,j4,j5,j6,j7,gripper1,gripper2,imu_ax,imu_ay,imu_az,imu_gx,imu_gy,imu_gz
0.0,0.00016700293,-0.785875,4.0107683e-05,-2.3551247,9.29385e-05,1.570997,0.786,0.04,0.04,-9.534708,0.0343866981565952,0.08844036,2.901562e-07,-0.0011641274904832,5.656138e-07
0.0025,0.000167002642,-0.785857774,4.010755355e-05,-2.35513919,9.294391800000001e-05,1.570996565,0.786,0.04,0.04,-9.579661350000041,0.02932296709913762,0.07653739139998916,4.113290350001102e-07,-0.0013252448698041217,6.822708400001061e-07
0.005,0.000167002354,-0.785840548,4.01074241e-05,-2.3551536800000004,9.2949336e-05,1.57099613,0.786,0.04,0.04,-9.624614700000082,0.024259236041680038,0.06463442279997834,5.325018700002204e-07,-0.0014863622491250433,7.989278800002122e-07
0.0075,0.000167002066,-0.7858233219999999,4.0107294650000004e-05,-2.3551681700000002,9.295475400000001e-05,1.570995695,0.786,0.04,0.04,-9.669568050000123,0.01919550498422246,0.05273145419996752,6.536747050003306e-07,-0.0016474796284459648,9.155849200003183e-07
0.01,0.000167001778,-0.785806096,4.01071652e-05,-2.35518266,9.296017200000002e-05,1.5709952600000001,0.786,0.04,0.04,-9.714521400000162,0.014131773926764877,0.04082848559995669,7.748475400004409e-07,-0.0018085970077668864,1.0322419600004244e-06
0.0125,0.00016700149,-0.78578887,4.010703575e-05,-2.3551971500000004,9.296559000000003e-05,1.570994825,0.786,0.04,0.04,-9.759474750000203,0.009068042869307295,0.02892551699994586,8.960203750005511e-07,-0.001969714387087808,1.1488990000005306e-06
0.015,0.000167001202,-0.785771644,4.01069063e-05,-2.3552116400000003,9.297100800000002e-05,1.57099439,0.786,0.04,0.04,-9.804428100000244,0.004004311811849716,0.017022548399935042,1.0171932100006612e-06,-0.0021308317664087296,1.2655560400006365e-06
0.0175,0.00016699923849999997,-0.7857548569999999,4.010406334999995e-05,-2.3552257350000003,9.297648550000004e-05,1.57099396,0.786,0.04,0.04,-9.834300299999997,0.000623045733664011,0.009016154449998643,1.4809365950073151e-06,-0.002287770237308851,1.4860476300027262e-06
0.02,0.00016699392399999996,-0.7857389479999999,4.009579339999994e-05,-2.3552390400000003,9.298208200000004e-05,1.5709935400000001,0.786,0.04,0.04,-9.834010199999998,0.0006067096139302412,0.008802909799998449,2.6298210800083594e-06,-0.002436350891367601,1.9142083200031153e-06
0.0225,0.00016698860949999994,-0.785723039,4.0087523449999936e-05,-2.3552523450000002,9.298767850000005e-05,1.57099312,0.786,0.04,0.04,-9.833720099999997,0.0005903734941964713,0.008589665149998255,3.7787055650094034e-06,-0.002584931545426351,2.3423690100035044e-06
0.025,0.00016698329499999996,-0.7857071299999999,4.007925349999992e-05,-2.35526565,9.299327500000005e-05,1.5709927,0.786,0.04,0.04,-9.833429999999998,0.0005740373744627014,0.008376420499998061,4.92759005001045e-06,-0.0027335121994851016,2.7705297000038944e-06
0.0275,0.00016697798049999994,-0.7856912209999999,4.0070983549999916e-05,-2.355278955,9.299887150000006e-05,1.57099228,0.786,0.04,0.04,-9.833139899999997,0.0005577012547289316,0.008163175849997867,6.076474535011494e-06,-0.0028820928535438516,3.198690390004283e-06
0.03,0.00016697266599999993,-0.7856753119999998,4.006271359999991e-05,-2.35529226,9.300446800000006e-05,1.57099186,0.786,0.04,0.04,-9.832849799999996,0.0005413651349951618,0.007949931199997673,7.225359020012538e-06,-0.0030306735076026017,3.6268510800046726e-06
0.0325,0.00016696735149999994,-0.7856594029999998,4.00544436499999e-05,-2.355305565,9.301006450000007e-05,1.57099144,0.786,0.04,0.04,-9.832559699999997,0.0005250290152613919,0.0077366865499974785,8.374243505013584e-06,-0.0031792541616613517,4.055011770005062e-06
0.035,0.00016695292199999975,-0.7856443399999998,4.0031861499999624e-05,-2.3553181,9.301629400000009e-05,1.57099101,0.786,0.04,0.04,-9.832278299999997,0.000500994201865535,0.007542995059997658,1.0821817400039436e-05,-0.003320082300344334,4.876691200012969e-06
0.0375,0.00016693393499999973,-0.7856296999999998,4.0002123249999596e-05,-2.35533025,9.302284000000009e-05,1.570990575,0.786,0.04,0.04,-9.832001249999996,0.0004731100416388446,0.007359080149997491,1.3918736000042248e-05,-0.0034570341813396433,5.895130000013893e-06
0.04,0.00016691494799999973,-0.7856150599999998,3.997238499999957e-05,-2.3553424,9.302938600000009e-05,1.57099014,0.786,0.04,0.04,-9.831724199999996,0.00044522588141215425,0.007175165239997324,1.7015654600045066e-05,-0.003593986062334953,6.913568800014821e-06
0.0425,0.0001668959609999997,-0.7856004199999997,3.994264674999954e-05,-2.35535455,9.30359320000001e-05,1.5709897050000001,0.786,0.04,0.04,-9.831447149999995,0.00041734172118546383,0.006991250329997156,2.0112573200047885e-05,-0.003730937943330263,7.932007600015748e-06
0.045,0.0001668769739999997,-0.7855857799999998,3.9912908499999514e-05,-2.3553667000000003,9.30424780000001e-05,1.57098927,0.786,0.04,0.04,-9.831170099999994,0.0003894575609587735,0.00680733541999699,2.3209491800050697e-05,-0.003867889824325572,8.950446400016672e-06
0.0475,0.00016685798699999968,-0.7855711399999997,3.9883170249999487e-05,-2.35537885,9.30490240000001e-05,1.570988835,0.786,0.04,0.04,-9.830893049999995,0.00036157340073208317,0.006623420509996822,2.6306410400053515e-05,-0.004004841705320882,9.968885200017599e-06
0.05,0.0001668389999999992,-0.7855564999999998,3.985343199999872e-05,-2.355391,9.305557000000018e-05,1.5709884,0.786,0.04,0.04,-9.830615999999994,0.0003336892405051802,0.0064395055999972115,2.940332900010701e-05,-0.0041417935863159935,1.0987324000036e-05
0.0525,0.00016679368499999915,-0.7855429624999998,3.978311409999866e-05,-2.3554021300000003,9.30660535000002e-05,1.57098798,0.786,0.04,0.03999999925,-9.830351924999993,0.0002941197904866853,0.006286222249997073,3.528588365011235e-05,-0.004267844487915328,1.2966346450037796e-05
0.055,0.0001667483699999991,-0.7855294249999998,3.971279619999859e-05,-2.35541326,9.307653700000021e-05,1.57098756,0.786,0.04,0.0399999985,-9.830087849999995,0.0002545503404681903,0.006132938899996933,4.11684383001177e-05,-0.004393895389514662,1.4945368900039598e-05
0.0575,0.00016670305499999905,-0.7855158874999997,3.964247829999853e-05,-2.35542439,9.308702050000021e-05,1.57098714,0.786,0.04,0.03999999775,-9.829823774999994,0.00021498089044969535,0.005979655549996793,4.705099295012306e-05,-0.004519946291113997,1.69243913500414e-05
0.06,0.000166657739999999,-0.7855023499999997,3.9572160399998466e-05,-2.3554355200000003,9.309750400000023e-05,1.57098672,0.786,0.04,0.039999997,-9.829559699999994,0.00017541144043120045,0.0058263721999966545,5.29335476001284e-05,-0.004645997192713331,1.8903413800043196e-05
0.0625,0.00016661242499999896,-0.7854888124999997,3.95018424999984e-05,-2.35544665,9.310798750000024e-05,1.5709863,0.786,0.04,0.03999999625,-9.829295624999993,0.00013584199041270548,0.005673088849996515,5.8816102250133755e-05,-0.004772048094312666,2.0882436250044997e-05
0.065,0.00016656710999999892,-0.7854752749999997,3.943152459999834e-05,-2.35545778,9.311847100000026e-05,1.57098588,0.786,0.04,0.0399999955,-9.829031549999993,9.627254039421048e-05,0.005519805499996375,6.469865690013911e-05,-0.0048980989959120005,2.28614587000468e-05
0.0675,0.00016650760349999784,-0.7854620674999997,3.933957654999668e-05,-2.35546854,9.312968380000032e-05,1.570985615,0.786000095,0.04,0.03999999525,-9.828775624999993,5.25074981838707e-05,0.0053735896049967565,7.18006615002343e-05,-0.005020928429442443,2.5122035850069344e-05
0.07,0.00016641971399999775,-0.7854495199999997,3.920436819999656e-05,-2.3554785600000003,9.314235520000032e-05,1.57098566,0.78600038,0.04,0.039999996,-9.828535999999994,3.5127159075719154e-07,0.005241508619996636,8.134156600024299e-05,-0.005137314926835804,2.7945722400071916e-05
0.0725,0.00016633182449999769,-0.7854369724999997,3.9069159849996434e-05,-2.3554885800000003,9.315502660000033e-05,1.570985705,0.786000665,0.04,0.03999999675,-9.828296374999994,-5.1804955002356025e-05,0.005109427634996517,9.088247050025164e-05,-0.005253701424229164,3.076940895007447e-05
0.075,0.0001662439349999976,-0.7854244249999996,3.8933951499996315e-05,-2.3554986,9.316769800000035e-05,1.57098575,0.78600095,0.04,0.0399999975,-9.828056749999993,-0.00010396118159546955,0.004977346649996397,0.00010042337500026032,-0.005370087921622526,3.3593095500077046e-05
0.0775,0.00016615604549999753,-0.7854118774999996,3.879874314999619e-05,-2.35550862,9.318036940000036e-05,1.570985795,0.7860012350000001,0.04,0.03999999825,-9.827817124999994,-0.00015611740818858306,0.0048452656649962764,0.000109964279500269,-0.005486474419015886,3.6416782050079614e-05
0.08,0.00016606815599999743,-0.7853993299999997,3.866353479999606e-05,-2.3555186400000006,9.319304080000037e-05,1.5709858399999999,0.78600152,0.04,0.039999999,-9.827577499999993,-0.00020827363478169658,0.004713184679996156,0.00011950518400027769,-0.005602860916409247,3.924046860008218e-05
0.0825,0.00016598026649999737,-0.7853867824999997,3.852832644999594e-05,-2.3555286600000005,9.320571220000038e-05,1.570985885,0.786001805,0.04,0.03999999975,-9.827337874999992,-0.0002604298613748101,0.004581103694996036,0.00012904608850028637,-0.005719247413802609,4.206415515008475e-05
0.085,0.00016585098299999536,-0.7853748099999996,3.833047279999291e-05,-2.3555382200000006,9.322232980000056e-05,1.57098596,0.78600209,0.04,0.04,-9.827088999999992,-0.000317201402505797,0.004458107899996336,0.00014067374100039186,-0.005827857647094339,4.5827483600130915e-05
0.08750000000000001,0.00016570100249999522,-0.7853631249999996,3.81012964999927e-05,-2.3555475500000003,9.324092050000059e-05,1.57098605,0.786002375,0.04,0.04,-9.826835499999993,-0.0003762806009054058,0.004339654699996229,0.0001533447675004034,-0.005932579748335783,5.006063300013476e-05
0.09,0.0001655510219999951,-0.7853514399999997,3.7872120199992496e-05,-2.3555568800000004,9.325951120000061e-05,1.57098614,0.7860026600000001,0.04,0.04,-9.826581999999993,-0.0004353597993050143,0.004221201499996122,0.00016601579400041486,-0.006037301849577229,5.42937824001386e-05
0.0925,0.00016540104149999495,-0.7853397549999996,3.764294389999229e-05,-2.3555662100000005,9.327810190000063e-05,1.57098623,0.786002945,0.04,0.04,-9.826328499999992,-0.0004944389977046231,0.004102748299996014,0.0001786868205004264,-0.006142023950818674,5.8526931800142445e-05
0.095,0.00016525106099999482,-0.7853280699999996,3.741376759999208e-05,-2.3555755400000002,9.329669260000064e-05,1.57098632,0.78600323,0.04,0.04,-9.826074999999992,-0.0005535181961042318,0.003984295099995906,0.00019135784700043793,-0.006246746052060119,6.27600812001463e-05
0.0975,0.00016510108049999468,-0.7853163849999996,3.7184591299991875e-05,-2.3555848700000004,9.331528330000066e-05,1.57098641,0.786003515,0.04,0.04,-9.825821499999991,-0.0006125973945038406,0.0038658418999957984,0.00020402887350044947,-0.006351468153301565,6.699323060015015e-05
0.1,0.00016495109999999146,-0.7853046999999995,3.695541499998704e-05,-2.3555942000000005,9.333387400000098e-05,1.5709865,0.7860038,0.04,0.04,-9.825567999999993,-0.0006716765929037548,0.003747388699996784,0.0002166999000006485,-0.00645619025454276,7.122638000020765e-05
0.10250000000000001,0.00016471660649999126,-0.7852937949999995,3.6599036749986714e-05,-2.3556028550000003,9.3360562900001e-05,1.57098662,0.786004091,0.04,0.04,-9.825391299999994,-0.0007391521707201763,0.0036589861999967036,0.00023452435500066472,-0.006554023758511858,7.693400525021285e-05
0.105,0.00016448211299999104,-0.7852828899999996,3.624265849998639e-05,-2.35561151,9.338725180000102e-05,1.5709867400000002,0.786004382,0.04,0.04,-9.825214599999994,-0.0008066277485365974,0.0035705836999966236,0.00025234881000068084,-0.006651857262480957,8.264163050021802e-05
0.1075,0.00016424761949999082,-0.7852719849999996,3.588628024998607e-05,-2.3556201650000004,9.341394070000104e-05,1.57098686,0.786004673,0.04,0.04,-9.825037899999993,-0.0008741033263530188,0.0034821811999965428,0.0002701732650006971,-0.006749690766450056,8.834925575022321e-05
0.11,0.0001640131259999906,-0.7852610799999996,3.552990199998574e-05,-2.35562882,9.344062960000107e-05,1.57098698,0.7860049640000001,0.04,0.04,-9.824861199999992,-0.0009415789041694403,0.0033937786999964623,0.00028799772000071325,-0.006847524270419155,9.405688100022841e-05
0.1125,0.0001637786324999904,-0.7852501749999996,3.5173523749985415e-05,-2.3556374750000004,9.346731850000109e-05,1.5709871000000002,0.7860052550000001,0.04,0.04,-9.824684499999993,-0.0010090544819858617,0.003305376199996382,0.0003058221750007295,-0.006945357774388254,9.97645062502336e-05
0.115,0.00016354413899999018,-0.7852392699999996,3.481714549998509e-05,-2.3556461300000002,9.349400740000111e-05,1.5709872200000001,0.786005546,0.04,0.04,-9.824507799999992,-0.0010765300598022832,0.003216973699996301,0.0003236466300007457,-0.007043191278357353,0.0001054721315002388
0.11750000000000001,0.00016327314049998528,-0.7852285669999995,3.4406022749977746e-05,-2.355654435,9.352477925000166e-05,1.57098735,0.7860059305,0.04,0.03999999975,-9.824332949999992,-0.0011463937233233109,0.0031351912499970698,0.000343412731501011,-0.007138884649615843,0.00011176529625031909
0.12,0.00016292913199998497,-0.7852182679999996,3.3885410999977275e-05,-2.3556620400000003,9.35637170000017e-05,1.5709875,0.786006502,0.04,0.039999999,-9.824161799999992,-0.0012210335582526384,0.003066648899997008,0.0003670621260010324,-0.00723029775545393,0.00011922954000032585
0.1225,0.00016258512349998466,-0.7852079689999996,3.33647992499768e-05,-2.3556696450000003,9.360265475000174e-05,1.57098765,0.7860070735,0.04,0.03999999825,-9.823990649999992,-0.0012956733931819664,0.0029981065499969455,0.0003907115205010539,-0.007321710861292018,0.00012669378375033263
0.125,0.00016224111499998434,-0.7851976699999995,3.2844187499976326e-05,-2.3556772500000003,9.364159250000177e-05,1.5709878000000002,0.786007645,0.04,0.0399999975,-9.823819499999992,-0.0013703132281112943,0.002929564199996883,0.00041436091500107546,-0.007413123967130107,0.00013415802750033943
0.1275,0.00016189710649998403,-0.7851873709999996,3.232357574997585e-05,-2.3556848550000002,9.368053025000181e-05,1.5709879500000001,0.7860082165,0.04,0.03999999675,-9.823648349999992,-0.0014449530630406223,0.002861021849996821,0.00043801030950109697,-0.007504537072968195,0.00014162227125034623
0.13,0.00016155309799998374,-0.7851770719999995,3.180296399997538e-05,-2.35569246,9.371946800000185e-05,1.5709881,0.786008788,0.04,0.039999996,-9.823477199999992,-0.0015195928979699503,0.0027924794999967585,0.0004616597040011185,-0.007595950178806284,0.000149086515000353
0.1325,0.00016120908949998343,-0.7851667729999995,3.12823522499749e-05,-2.355700065,9.375840575000188e-05,1.57098825,0.7860093595,0.04,0.03999999525,-9.823306049999992,-0.001594232732899278,0.002723937149996696,0.00048530909850114004,-0.0076873632846443715,0.0001565507587503598
0.135,0.0001607738989999764,-0.7851568309999996,3.062540509996438e-05,-2.3557073,9.380371250000238e-05,1.57098874,0.786010125,0.0399999995,0.0399999955,-9.82310789999999,-0.001674477686178219,0.002661816029997107,0.0005124165320014164,-0.007773791579533723,0.0001649691750004369
0.1375,0.00016029311749997594,-0.7851470674999995,2.9900290249963724e-05,-2.3557143500000004,9.385220375000242e-05,1.5709894,0.7860109875,0.03999999875,0.03999999625,-9.82289624999999,-0.0017575251986313547,0.0026029055249970528,0.0005412529850014426,-0.00785772746894925,0.00017386467750044502
0.14,0.00015981233599997552,-0.7851373039999995,2.9175175399963065e-05,-2.3557214,9.390069500000247e-05,1.57099006,0.78601185,0.039999998,0.039999997,-9.82268459999999,-0.0018405727110844903,0.002543995019996999,0.0005700894380014688,-0.007941663358364775,0.00018276018000045312
0.14250000000000002,0.00015933155449997507,-0.7851275404999994,2.8450060549962404e-05,-2.3557284500000004,9.394918625000251e-05,1.57099072,0.7860127125,0.03999999725,0.03999999775,-9.82247294999999,-0.001923620223537626,0.0024850845149969455,0.0005989258910014951,-0.008025599247780303,0.0001916556825004612
0.145,0.00015885077299997464,-0.7851177769999995,2.7724945699961752e-05,-2.3557355000000006,9.399767750000257e-05,1.57099138,0.786013575,0.0399999965,0.0399999985,-9.822261299999989,-0.0020066677359907607,0.0024261740099968928,0.000627762344001521,-0.008109535137195829,0.0002005511850004692
0.1475,0.00015836999149997422,-0.7851080134999995,2.6999830849961093e-05,-2.3557425500000004,9.40461687500026e-05,1.57099204,0.7860144375,0.03999999575,0.03999999925,-9.822049649999988,-0.002089715248443896,0.002367263504996839,0.0006565987970015472,-0.008193471026611355,0.0002094466875004773
0.15,0.00015788920999996472,-0.7850982499999994,2.627471599994691e-05,-2.3557496000000007,9.409466000000351e-05,1.5709927,0.7860153000000001,0.039999995,0.04,-9.82183799999999,-0.002172762760896988,0.002308352999997428,0.0006854352500018896,-0.008277406916026507,0.00021834219000061128
0.1525,0.0001572422554999641,-0.7850888524999995,2.5301746999946024e-05,-2.3557559600000006,9.415886300000356e-05,1.57099342,0.78601635,0.03999999395,0.0399999982,-9.821686949999991,-0.0022550136433028382,0.002261218109997385,0.0007200649880019211,-0.008354509668429003,0.00022954437450062147
0.155,0.00015659530099996352,-0.7850794549999994,2.4328777999945136e-05,-2.3557623200000006,9.422306600000362e-05,1.57099414,0.7860174,0.0399999929,0.0399999964,-9.821535899999992,-0.002337264525708688,0.002214083219997342,0.0007546947260019527,-0.008431612420831498,0.0002407465590006317
0.1575,0.00015594834649996294,-0.7850700574999995,2.335580899994425e-05,-2.3557686800000006,9.428726900000368e-05,1.57099486,0.78601845,0.03999999185,0.0399999946,-9.82138484999999,-0.002419515408114538,0.002166948329997299,0.0007893244640019842,-0.008508715173233993,0.0002519487435006419
0.16,0.00015530139199996235,-0.7850606599999994,2.2382839999943365e-05,-2.3557750400000006,9.435147200000373e-05,1.57099558,0.7860195,0.0399999908,0.0399999928,-9.821233799999991,-0.002501766290520388,0.0021198134399972564,0.0008239542020020157,-0.008585817925636488,0.0002631509280006521
0.1625,0.00015465443749996177,-0.7850512624999993,2.140987099994248e-05,-2.3557814000000006,9.441567500000379e-05,1.5709963,0.78602055,0.03999998975,0.039999991,-9.821082749999992,-0.0025840171729262377,0.0020726785499972132,0.0008585839400020472,-0.008662920678038984,0.0002743531125006623
0.165,0.00015400748299996116,-0.7850418649999994,2.0436901999941595e-05,-2.3557877600000006,9.447987800000385e-05,1.57099702,0.7860216,0.0399999887,0.0399999892,-9.82093169999999,-0.0026662680553320877,0.0020255436599971705,0.0008932136780020788,-0.008740023430441479,0.0002855552970006725
0.1675,0.00015329476749994855,-0.7850325664999994,1.9366014599922807e-05,-2.3557938500000004,9.455031950000505e-05,1.5709979100000002,0.786022762,0.0399999878,0.0399999876,-9.820783149999992,-0.002750721096532155,0.001984341129998212,0.0009300909665025212,-0.008815613621850262,0.000297437454000807
0.17,0.00015245052999994778,-0.7850234659999994,1.8099290399921653e-05,-2.3557994000000004,9.463323800000512e-05,1.57099914,0.7860241480000001,0.0399999872,0.0399999864,-9.820639599999991,-0.002839578455319456,0.0019550033199981854,0.0009714633560025589,-0.008888178691272447,0.000310679556000819
0.17250000000000001,0.00015160629249994702,-0.7850143654999994,1.68325661999205e-05,-2.3558049500000005,9.47161565000052e-05,1.5710003700000001,0.7860255340000001,0.0399999866,0.0399999852,-9.820496049999992,-0.002928435814106757,0.0019256655099981587,0.0010128357455025966,-0.008960743760694634,0.0003239216580008311
0.17500000000000002,0.00015076205499994625,-0.7850052649999993,1.5565841999919346e-05,-2.3558105000000005,9.479907500000528e-05,1.5710016,0.7860269200000001,0.039999986,0.039999983999999995,-9.820352499999991,-0.003017293172894058,0.001896327699998132,0.0010542081350026341,-0.00903330883011682,0.00033716376000084315
0.1775,0.00014991781749994549,-0.7849961644999993,1.4299117799918208e-05,-2.3558160500000005,9.488199350000536e-05,1.57100283,0.7860283060000001,0.0399999854,0.0399999828,-9.82020894999999,-0.0031061505316813576,0.0018669898899981057,0.0010955805245026714,-0.009105873899539006,0.00035040586200085506
0.18,0.00014907357999994472,-0.7849870639999994,1.3032393599917055e-05,-2.3558216000000005,9.496491200000543e-05,1.5710040600000001,0.7860296920000001,0.0399999848,0.0399999816,-9.820065399999992,-0.0031950078904686586,0.0018376520799980789,0.0011369529140027091,-0.009178438968961191,0.0003636479640008671
0.1825,0.00014822934249994395,-0.7849779634999994,1.1765669399915901e-05,-2.3558271500000005,9.50478305000055e-05,1.57100529,0.786031078,0.039999984200000005,0.039999980399999996,-9.819921849999991,-0.0032838652492559596,0.0018083142699980522,0.0011783253035027468,-0.009251004038383378,0.00037689006600087914
0.185,0.0001472317599999277,-0.7849689869999994,1.0270986429891735e-05,-2.3558324300000004,9.514515400000704e-05,1.57100656,0.7860326860000001,0.039999983600000004,0.0399999797,-9.819756099999989,-0.00337480132003,0.0017839298199985255,0.001224150110003234,-0.009318836405877665,0.0003914734230010266
0.1875,0.00014615750499992673,-0.7849600724999993,8.66232407489027e-06,-2.3558375750000002,9.524968000000713e-05,1.57100785,0.7860344050000001,0.039999983,0.03999997925,-9.819579249999988,-0.003466776746797099,0.0017620220499985056,0.0012722011250032776,-0.009384302422408716,0.0004067274075010405
0.19,0.00014508324999992574,-0.7849511579999994,7.053661719888806e-06,-2.3558427200000005,9.535420600000722e-05,1.5710091400000001,0.7860361240000001,0.0399999824,0.039999978799999995,-9.819402399999989,-0.0035587521735641974,0.0017401142799984856,0.0013202521400033215,-0.009449768438939765,0.0004219813920010544
0.1925,0.00014400899499992476,-0.7849422434999993,5.444999364887341e-06,-2.3558478650000003,9.545873200000731e-05,1.57101043,0.7860378430000001,0.0399999818,0.03999997835,-9.819225549999988,-0.0036507276003312963,0.0017182065099984657,0.0013683031550033651,-0.009515234455470815,0.0004372353765010683
0.195,0.0001429347399999238,-0.7849333289999993,3.836337009885877e-06,-2.3558530100000006,9.556325800000742e-05,1.5710117200000002,0.7860395620000001,0.0399999812,0.0399999779,-9.819048699999987,-0.003742703027098395,0.0016962987399984457,0.0014163541700034088,-0.009580700472001866,0.00045248936100108215
0.1975,0.00014186048499992282,-0.7849244144999994,2.227674654884412e-06,-2.3558581550000004,9.566778400000751e-05,1.5710130100000002,0.7860412810000001,0.0399999806,0.03999997745,-9.818871849999987,-0.0038346784538654936,0.0016743909699984258,0.0014644051850034527,-0.009646166488532915,0.00046774334550109606
0.2,0.00014078622999990262,-0.7849154999999993,6.190122998544138e-07,-2.3558633000000007,9.577231000000942e-05,1.5710143000000003,0.7860430000000002,0.03999998,0.039999977,-9.818694999999993,-0.003926653880632414,0.001652483200000105,0.0015124562000040237,-0.009711632505063803,0.0004829973300012724
0.2025,0.0001394478624999014,-0.7849066499999994,-1.3817853951474071e-06,-2.3558675600000005,9.590179150000954e-05,1.57101616,0.7860450550000002,0.039999979549999995,0.0399999764,-9.818597799999992,-0.00401617679745613,0.0016539261700001062,0.001567754765004074,-0.00977488262579306,0.0005004836310012884
0.20500000000000002,0.00013810949499990017,-0.7848977999999993,-3.382583090149229e-06,-2.3558718200000004,9.603127300000966e-05,1.5710180200000001,0.7860471100000002,0.0399999791,0.0399999758,-9.818500599999993,-0.004105699714279847,0.0016553691400001077,0.0016230533300041245,-0.009838132746522317,0.0005179699320013042
0.20750000000000002,0.00013677112749989895,-0.7848889499999993,-5.383380785151051e-06,-2.3558760800000003,9.616075450000977e-05,1.5710198800000001,0.7860491650000002,0.03999997865,0.0399999752,-9.818403399999992,-0.004195222631103564,0.001656812110000109,0.0016783518950041747,-0.009901382867251575,0.0005354562330013201
0.21,0.00013543275999989776,-0.7848800999999993,-7.38417848015285e-06,-2.3558803400000006,9.629023600000989e-05,1.5710217400000002,0.7860512200000002,0.0399999782,0.0399999746,-9.818306199999993,-0.0042847455479272795,0.0016582550800001102,0.0017336504600042244,-0.009964632987980832,0.0005529425340013358
0.2125,0.00013409439249989654,-0.7848712499999992,-9.38497617515467e-06,-2.3558846000000004,9.641971750001001e-05,1.5710236000000002,0.7860532750000002,0.03999997775,0.039999974,-9.818208999999992,-0.004374268464750996,0.0016596980500001115,0.0017889490250042749,-0.010027883108710089,0.0005704288350013518
0.215,0.00013275602499989532,-0.7848623999999993,-1.1385773870156492e-05,-2.3558888600000003,9.654919900001013e-05,1.5710254600000002,0.7860553300000002,0.039999977299999996,0.0399999734,-9.818111799999992,-0.004463791381574713,0.001661141020000113,0.0018442475900043252,-0.010091133229439348,0.0005879151360013677
0.2175,0.0001313178744998704,-0.7848535374999993,-1.3534578200193448e-05,-2.3558930350000002,9.668812100001248e-05,1.5710275050000002,0.7860575580000002,0.03999997665,0.03999997235,-9.817993399999986,-0.004555478063419607,0.001661353464999822,0.0019020905250049793,-0.010152273485441444,0.0006062129615015762
0.22,0.00012968015799986893,-0.7848446499999993,-1.5979395800195672e-05,-2.3558970400000003,9.684592400001262e-05,1.5710299200000002,0.7860601320000002,0.0399999756,0.0399999704,-9.817832599999987,-0.004651492275305325,0.00165910485999982,0.0019650222000050367,-0.010209194011990715,0.0006261338360015943
0.2225,0.00012804244149986743,-0.7848357624999992,-1.8424213400197898e-05,-2.3559010450000004,9.700372700001277e-05,1.5710323350000002,0.7860627060000003,0.03999997455,0.03999996845,-9.817671799999987,-0.004747506487191042,0.001656856254999818,0.002027953875005094,-0.010266114538539988,0.0006460547105016125
0.225,0.00012640472499986593,-0.7848268749999993,-2.0869031000200124e-05,-2.3559050500000005,9.716153000001291e-05,1.5710347500000001,0.7860652800000002,0.0399999735,0.0399999665,-9.817510999999987,-0.00484352069907676,0.001654607649999816,0.0020908855500051515,-0.01032303506508926,0.0006659755850016307
0.2275,0.00012476700849986443,-0.7848179874999992,-2.331384860020235e-05,-2.3559090550000006,9.731933300001306e-05,1.5710371650000003,0.7860678540000002,0.039999972450000004,0.03999996455,-9.817350199999986,-0.004939534910962477,0.001652359044999814,0.0021538172250052086,-0.010379955591638531,0.0006858964595016487
0.23,0.00012312929199986296,-0.7848090999999993,-2.5758666200204577e-05,-2.3559130600000007,9.74771360000132e-05,1.5710395800000003,0.7860704280000003,0.0399999714,0.0399999626,-9.817189399999986,-0.005035549122848194,0.0016501104399998117,0.0022167489000052658,-0.010436876118187803,0.0007058173340016669
0.2325,0.00012149157549986146,-0.7848002124999992,-2.8203483800206803e-05,-2.3559170650000003,9.763493900001335e-05,1.5710419950000003,0.7860730020000002,0.039999970350000004,0.03999996065,-9.817028599999986,-0.005131563334733911,0.0016478618349998098,0.0022796805750053234,-0.010493796644737076,0.000725738208501685
0.23500000000000001,0.00011963009199983127,-0.7847912049999992,-3.0979926100251556e-05,-2.3559204600000005,9.781380460001619e-05,1.5710447400000003,0.7860759240000003,0.039999969600000004,0.0399999598,-9.816922399999992,-0.005226189037792951,0.0016551338500010286,0.002347449820006001,-0.010548811312769413,0.0007471563670018951
0.23750000000000002,0.00011765672499982949,-0.7847821374999993,-3.392218075025423e-05,-2.3559235500000004,9.800320150001637e-05,1.5710476500000004,0.7860790200000003,0.039999969,0.0399999595,-9.816843499999992,-0.005320120486438916,0.0016671661750010396,0.002417637850006065,-0.010602873051543647,0.0007693231675019154
0.24,0.00011568335799982771,-0.7847730699999992,-3.686443540025688e-05,-2.3559266400000003,9.819259840001653e-05,1.5710505600000004,0.7860821160000003,0.0399999684,0.039999959200000004,-9.816764599999994,-0.005414051935084881,0.0016791985000010503,0.002487825880006128,-0.01065693479031788,0.0007914899680019353
0.2425,0.00011370999099982591,-0.7847640024999992,-3.980669005025956e-05,-2.35592973,9.83819953000167e-05,1.5710534700000003,0.7860852120000003,0.0399999678,0.0399999589,-9.816685699999994,-0.005507983383730846,0.0016912308250010613,0.002558013910006192,-0.010710996529092114,0.0008136567685019555
0.245,0.00011173662399982412,-0.7847549349999992,-4.2748944700262236e-05,-2.35593282,9.857139220001688e-05,1.5710563800000004,0.7860883080000003,0.0399999672,0.0399999586,-9.816606799999994,-0.005601914832376812,0.0017032631500010723,0.0026282019400062557,-0.010765058267866348,0.0008358235690019756
0.2475,0.00010976325699982232,-0.7847458674999992,-4.569119935026492e-05,-2.35593591,9.876078910001706e-05,1.5710592900000004,0.7860914040000003,0.0399999666,0.0399999583,-9.816527899999993,-0.005695846281022777,0.0017152954750010833,0.0026983899700063194,-0.010819120006640582,0.0008579903695019958
0.25,0.00010778988999978662,-0.7847367999999991,-4.863345400031781e-05,-2.3559390000000002,9.895018600002042e-05,1.5710622000000003,0.7860945000000004,0.039999966,0.039999958,-9.816448999999986,-0.005789777729668561,0.0017273278000015683,0.002768578000007086,-0.01087318174541436,0.0008801571700022368
0.2525,0.00010544372949978449,-0.7847274759999991,-5.212776790032099e-05,-2.3559418500000002,9.917475610002063e-05,1.5710656050000005,0.7860981555000004,0.0399999666,0.0399999583,-9.816298699999987,-0.005881710653201665,0.001744572745001584,0.002846491630007157,-0.010922210570429233,0.0009047508145022591
0.255,0.00010309756899978234,-0.7847181519999992,-5.562208180032417e-05,-2.3559447000000002,9.939932620002083e-05,1.5710690100000004,0.7861018110000003,0.0399999672,0.0399999586,-9.816148399999987,-0.005973643576734768,0.0017618176900015999,0.002924405260007228,-0.010971239395444109,0.0009293444590022815
0.2575,0.00010075140849978021,-0.7847088279999991,-5.911639570032735e-05,-2.3559475500000002,9.962389630002104e-05,1.5710724150000004,0.7861054665000003,0.0399999678,0.0399999589,-9.815998099999986,-0.006065576500267872,0.0017790626350016154,0.003002318890007299,-0.011020268220458982,0.0009539381035023039
0.26,9.840524799977808e-05,-0.7846995039999991,-6.261070960033053e-05,-2.3559504000000002,9.984846640002125e-05,1.5710758200000003,0.7861091220000004,0.0399999684,0.039999959200000004,-9.815847799999986,-0.006157509423800976,0.0017963075800016312,0.00308023252000737,-0.011069297045473858,0.0009785317480023262
0.2625,9.605908749977594e-05,-0.7846901799999991,-6.610502350033371e-05,-2.35595325,0.00010007303650002145,1.5710792250000003,0.7861127775000004,0.039999969,0.0399999595,-9.815697499999986,-0.00624944234733408,0.001813552525001647,0.003158146150007441,-0.011118325870488733,0.0010031253925023487
0.265,9.37129269997738e-05,-0.784680855999999,-6.959933740033689e-05,-2.3559561000000007,0.00010029760660002166,1.5710826300000003,0.7861164330000003,0.039999969600000004,0.0399999598,-9.815547199999987,-0.0063413752708671835,0.0018307974700016627,0.0032360597800075116,-0.011167354695503607,0.001027719037002371
0.2675,9.12298829997317e-05,-0.7846714179999991,-7.329623550039922e-05,-2.3559586450000003,0.00010053510170002564,1.5710862400000003,0.7861203065000004,0.03999997,0.0399999599,-9.815428649999996,-0.006432190164932201,0.001853051670003141,0.0033166171350083548,-0.01121600312181277,0.001053181195002647
0.27,8.84730719997292e-05,-0.784661751999999,-7.739830200040296e-05,-2.3559605800000005,0.00010079844680002587,1.5710902600000005,0.7861246160000004,0.03999997,0.0399999596,-9.815373599999996,-0.006520769000062022,0.0018853243800031703,0.003402461940008433,-0.011263890750710845,0.0010803803800026718
0.2725,8.571626099972668e-05,-0.784652085999999,-8.150036850040669e-05,-2.3559625150000003,0.00010106179190002612,1.5710942800000005,0.7861289255000005,0.03999997,0.0399999593,-9.815318549999995,-0.006609347835191842,0.0019175970900031996,0.0034883067450085107,-0.011311778379608919,0.0011075795650026966
0.275,8.295944999972417e-05,-0.7846424199999991,-8.560243500041042e-05,-2.35596445,0.00010132513700002635,1.5710983000000005,0.7861332350000004,0.03999997,0.039999959,-9.815263499999995,-0.006697926670321663,0.001949869800003229,0.0035741515500085893,-0.011359666008506991,0.0011347787500027213
0.2775,8.020263899972167e-05,-0.784632753999999,-8.970450150041416e-05,-2.3559663850000003,0.0001015884821000266,1.5711023200000005,0.7861375445000004,0.03999997,0.039999958700000005,-9.815208449999995,-0.006786505505451483,0.0019821425100032585,0.003659996355008667,-0.011407553637405065,0.001161977935002746
0.28,7.744582799971915e-05,-0.784623087999999,-9.38065680004179e-05,-2.35596832,0.00010185182720002683,1.5711063400000005,0.7861418540000004,0.03999997,0.0399999584,-9.815153399999994,-0.006875084340581304,0.0020144152200032876,0.003745841160008745,-0.01145544126630314,0.0011891771200027708
0.28250000000000003,7.468901699971665e-05,-0.7846134219999991,-9.790863450042163e-05,-2.3559702550000003,0.00010211517230002708,1.5711103600000005,0.7861461635000004,0.03999997,0.0399999581,-9.815098349999994,-0.006963663175711125,0.002046687930003317,0.0038316859650088233,-0.011503328895201214,0.0012163763050027957
0.28500000000000003,7.163284299966757e-05,-0.7846034399999989,-0.00010245352700049425,-2.35597204,0.00010240668300003169,1.5711148200000005,0.7861509300000005,0.03999997,0.039999958,-9.814985099999985,-0.007052034512171293,0.0020817450300037797,0.003922782350009719,-0.01154808886349646,0.0012451625600030673
0.28750000000000003,6.842698749966465e-05,-0.7845932999999989,-0.00010721983250049858,-2.35597375,0.00010271227650003197,1.5711195000000004,0.7861559250000004,0.03999997,0.039999958,-9.814842749999984,-0.007140302099296683,0.002118194325003813,0.004016504525009804,-0.011591285001491019,0.0012747423500030941
0.29,6.52211319996618e-05,-0.784583159999999,-0.00011198613800050281,-2.3559754600000002,0.00010301787000003224,1.5711241800000004,0.7861609200000005,0.03999997,0.039999958,-9.814700399999985,-0.007228569686422072,0.002154643620003845,0.004110226700009887,-0.011634481139485578,0.0013043221400031205
0.2925,6.201527649965888e-05,-0.784573019999999,-0.00011675244350050715,-2.35597717,0.00010332346350003252,1.5711288600000004,0.7861659150000004,0.03999997,0.039999958,-9.814558049999984,-0.007316837273547462,0.002191092915003878,0.004203948875009972,-0.011677677277480137,0.0013339019300031474
0.295,5.8809420999655966e-05,-0.7845628799999989,-0.0001215187490005115,-2.3559788800000003,0.0001036290570000328,1.5711335400000004,0.7861709100000005,0.03999997,0.039999958,-9.814415699999985,-0.0074051048606728525,0.0022275422100039113,0.004297671050010057,-0.011720873415474696,0.0013634817200031744
0.2975,5.560356549965305e-05,-0.7845527399999989,-0.00012628505450051582,-2.35598059,0.00010393465050003308,1.5711382200000004,0.7861759050000005,0.03999997,0.039999958,-9.814273349999985,-0.007493372447798243,0.0022639915050039444,0.004391393225010143,-0.011764069553469255,0.0013930615100032013
0.3,5.2397709999596875e-05,-0.7845425999999988,-0.00013105136000059891,-2.3559823,0.00010424024400003837,1.5711429000000006,0.7861809000000006,0.03999997,0.039999958,-9.814130999999994,-0.007581640034923104,0.002300440800004493,0.0044851154000111115,-0.011807265691463701,0.0014226413000035054
0.3025,4.8703895499593516e-05,-0.7845319049999988,-0.0001365391040006039,-2.355983125,0.00010459185390003869,1.5711481950000006,0.7861866690000006,0.039999970450000005,0.0399999583,-9.814084499999995,-0.00766505743377826,0.0023416135050045306,0.004586930795011204,-0.01184941325337151,0.0014547621200035347
0.305,4.501008099959015e-05,-0.7845212099999987,-0.0001420268480006089,-2.35598395,0.00010494346380003901,1.5711534900000006,0.7861924380000006,0.0399999709,0.0399999586,-9.814037999999995,-0.007748474832633415,0.0023827862100045684,0.004688746190011297,-0.011891560815279317,0.001486882940003564
0.3075,4.1316266499586785e-05,-0.7845105149999988,-0.0001475145920006139,-2.355984775,0.00010529507370003933,1.5711587850000006,0.7861982070000006,0.03999997135,0.0399999589,-9.813991499999995,-0.007831892231488571,0.002423958915004606,0.00479056158501139,-0.011933708377187125,0.0015190037600035932
0.31,3.7622451999583426e-05,-0.7844998199999987,-0.00015300233600061889,-2.3559856,0.00010564668360003965,1.5711640800000006,0.7862039760000007,0.0399999718,0.039999959200000004,-9.813944999999995,-0.007915309630343727,0.0024651316200046433,0.004892376980011482,-0.011975855939094933,0.0015511245800036225
0.3125,3.3928637499580066e-05,-0.7844891249999988,-0.0001584900800006239,-2.3559864249999998,0.00010599829350003998,1.5711693750000006,0.7862097450000006,0.03999997225,0.0399999595,-9.813898499999995,-0.007998727029198884,0.0025063043250046807,0.004994192375011575,-0.012018003501002742,0.0015832454000036518
0.315,3.0234822999576697e-05,-0.7844784299999987,-0.0001639778240006289,-2.35598725,0.0001063499034000403,1.5711746700000007,0.7862155140000007,0.039999972700000004,0.0399999598,-9.813851999999995,-0.00808214442805404,0.0025474770300047186,0.005096007770011668,-0.01206015106291055,0.001615366220003681
0.3175,2.636527483451244e-05,-0.7844675079999986,-0.00016972528100072388,-2.35598798,0.00010671810200004637,1.5711802200000007,0.7862215505000008,0.039999973,0.0399999599,-9.813778124999986,-0.008163819694900522,0.00259200878500592,0.005200507865012691,-0.012101138802249662,0.001648383775004021
0.32,2.2144259339508598e-05,-0.7844561319999986,-0.0001759921640007296,-2.35598852,0.00010711947800004673,1.5711862800000007,0.7862281220000008,0.039999973,0.0399999596,-9.813649499999986,-0.008242010697731462,0.0026432586400059665,0.005310377360012791,-0.012139806896452582,0.0016831948000040526
0.3225,1.7923243844504753e-05,-0.7844447559999986,-0.00018225904700073527,-2.35598906,0.0001075208540000471,1.5711923400000007,0.7862346935000007,0.039999973,0.0399999593,-9.813520874999986,-0.008320201700562403,0.002694508495006013,0.005420246855012891,-0.012178474990655502,0.0017180058250040842
0.325,1.3702228349500913e-05,-0.7844333799999986,-0.00018852593000074098,-2.3559896,0.00010792223000004746,1.5711984000000008,0.7862412650000008,0.039999973,0.039999959,-9.813392249999985,-0.008398392703393345,0.0027457583500060598,0.005530116350012991,-0.012217143084858422,0.001752816850004116
0.3275,9.481212854497069e-06,-0.7844220039999986,-0.0001947928130007467,-2.3559901400000003,0.00010832360600004783,1.5712044600000008,0.7862478365000009,0.039999973,0.039999958700000005,-9.813263624999985,-0.008476583706224285,0.0027970082050061064,0.005639985845013091,-0.012255811179061342,0.0017876278750041477
0.33,5.260197359493227e-06,-0.7844106279999986,-0.00020105969600075238,-2.35599068,0.0001087249820000482,1.5712105200000006,0.7862544080000008,0.039999973,0.0399999584,-9.813134999999985,-0.008554774709055227,0.002848258060006153,0.005749855340013191,-0.012294479273264262,0.0018224389000041793
0.3325,1.0391818644893847e-06,-0.7843992519999987,-0.0002073265790007581,-2.3559912200000004,0.00010912635800004856,1.5712165800000006,0.7862609795000008,0.039999973,0.0399999581,-9.813006374999985,-0.008632965711886167,0.0028995079150061997,0.005859724835013291,-0.012333147367467183,0.001857249925004211
0.335,-3.5596149705835245e-06,-0.7843873589999986,-0.00021415158600086585,-2.35599118,0.00010956331100005543,1.5712232400000008,0.7862681330000009,0.0399999734,0.039999958200000005,-9.812937749999996,-0.008708679396668176,0.0029512160100063304,0.005975092030014396,-0.012371402513240436,0.0018936939400045413
0.3375,-8.347302475587883e-06,-0.7843752074999986,-0.00022125565500087232,-2.35599085,0.00011001805250005585,1.5712302000000007,0.7862755775000009,0.039999974,0.0399999585,-9.812899124999996,-0.008783154422426394,0.0030031532250063774,0.006093208075014503,-0.012409451184798971,0.0019309544500045752
0.34,-1.313498998059224e-05,-0.7843630559999986,-0.00022835972400087878,-2.35599052,0.00011047279400005625,1.5712371600000008,0.7862830220000009,0.0399999746,0.0399999588,-9.812860499999996,-0.008857629448184613,0.003055090440006425,0.006211324120014611,-0.012447499856357506,0.001968214960004609
0.3425,-1.79226774855966e-05,-0.7843509044999986,-0.00023546379300088525,-2.35599019,0.00011092753550005667,1.5712441200000007,0.786290466500001,0.0399999752,0.0399999591,-9.812821874999996,-0.008932104473942831,0.0031070276550064723,0.0063294401650147184,-0.012485548527916042,0.002005475470004643
0.34500000000000003,-2.271036499060096e-05,-0.7843387529999984,-0.00024256786200089174,-2.3559898599999998,0.00011138227700005709,1.5712510800000008,0.786297911000001,0.0399999758,0.0399999594,-9.812783249999995,-0.009006579499701049,0.0031589648700065193,0.006447556210014826,-0.012523597199474575,0.002042735980004677
0.34750000000000003,-2.749805249560532e-05,-0.7843266014999984,-0.0002496719310008982,-2.35598953,0.00011183701850005749,1.5712580400000007,0.786305355500001,0.0399999764,0.039999959700000004,-9.812744624999995,-0.009081054525459266,0.0032109020850065667,0.0065656722550149335,-0.01256164587103311,0.002079996490004711
0.35000000000000003,-3.228574000068689e-05,-0.7843144499999983,-0.00025677600000101867,-2.3559892,0.00011229176000006519,1.5712650000000008,0.7863128000000011,0.039999977,0.03999996,-9.812705999999986,-0.009155529551216587,0.0032628393000070704,0.006683788300016089,-0.012599694542591192,0.00211725700000509
0.3525,-3.7679744500691676e-05,-0.7843014524999984,-0.0002647755450010258,-2.3559886,0.00011280371150006565,1.571272830000001,0.7863211850000011,0.039999977,0.039999959700000004,-9.812592599999986,-0.009222959866755876,0.00331836241500712,0.0068101310050162015,-0.012634192220871093,0.0021572280700051256
0.355,-4.307374900069659e-05,-0.7842884549999983,-0.00027277509000103305,-2.355988,0.00011331566300006611,1.5712806600000009,0.7863295700000011,0.039999977,0.0399999594,-9.812479199999986,-0.009290390182295168,0.00337388553000717,0.006936473710016316,-0.012668689899150995,0.002197199140005162
0.3575,-4.84677535007015e-05,-0.7842754574999983,-0.0002807746350010404,-2.3559874,0.00011382761450006657,1.571288490000001,0.7863379550000011,0.039999977,0.0399999591,-9.812365799999986,-0.009357820497834459,0.003429408645007221,0.007062816415016431,-0.012703187577430896,0.0022371702100051983
0.36,-5.3861758000706403e-05,-0.7842624599999983,-0.00028877418000104765,-2.3559867999999997,0.00011433956600006705,1.571296320000001,0.7863463400000011,0.039999977,0.0399999588,-9.812252399999984,-0.00942525081337375,0.0034849317600072712,0.007189159120016546,-0.012737685255710798,0.0022771412800052346
0.3625,-5.9255762500711315e-05,-0.7842494624999983,-0.0002967737250010549,-2.3559862,0.00011485151750006751,1.571304150000001,0.7863547250000011,0.039999977,0.0399999585,-9.812138999999984,-0.009492681128913043,0.003540454875007322,0.007315501825016661,-0.012772182933990699,0.002317112350005271
0.365,-6.464976700071623e-05,-0.7842364649999983,-0.0003047732700010622,-2.3559856,0.00011536346900006798,1.571311980000001,0.7863631100000011,0.039999977,0.039999958200000005,-9.812025599999984,-0.009560111444452334,0.0035959779900073723,0.0074418445300167765,-0.0128066806122706,0.0023570834200053073
0.3675,-7.02591092508075e-05,-0.7842231399999982,-0.000313090768001197,-2.35598471,0.00011589569930007657,1.571320120000001,0.7863718365000013,0.03999997715,0.0399999581,-9.811939849999996,-0.009625819046058543,0.003654072095008454,0.007570931850017992,-0.01284110103734291,0.0023978743900056726
0.37,-7.6299127000813e-05,-0.7842091599999982,-0.0003220441720012051,-2.35598324,0.0001164684872000771,1.5713288800000011,0.7863812460000013,0.0399999776,0.0399999584,-9.811909399999996,-0.00968808121980066,0.0037173081800085115,0.007705508400018115,-0.012875366956000132,0.002440305160005711
0.3725,-8.23391447508185e-05,-0.7841951799999981,-0.0003309975760012133,-2.35598177,0.00011704127510007763,1.5713376400000012,0.7863906555000013,0.039999978049999996,0.039999958700000005,-9.811878949999995,-0.009750343393542776,0.003780544265008569,0.007840084950018237,-0.012909632874657354,0.0024827359300057497
0.375,-8.8379162500824e-05,-0.7841811999999981,-0.00033995098000122145,-2.3559803,0.00011761406300007814,1.5713464000000013,0.7864000650000014,0.0399999785,0.039999959,-9.811848499999996,-0.009812605567284895,0.003843780350008627,0.00797466150001836,-0.012943898793314574,0.0025251667000057887
0.3775,-9.44191802508295e-05,-0.784167219999998,-0.0003489043840012296,-2.3559788299999997,0.00011818685090007867,1.5713551600000013,0.7864094745000013,0.03999997895,0.0399999593,-9.811818049999996,-0.009874867741027011,0.003907016435008685,0.008109238050018482,-0.012978164711971796,0.0025675974700058272
0.38,-0.000100459198000835,-0.7841532399999981,-0.0003578577880012378,-2.35597736,0.00011875963880007919,1.5713639200000014,0.7864188840000014,0.039999979399999996,0.0399999596,-9.811787599999995,-0.009937129914769128,0.003970252520008742,0.008243814600018605,-0.013012430630629018,0.002610028240005866
0.3825,-0.0001064992157508405,-0.7841392599999981,-0.0003668111920012459,-2.35597589,0.0001193324267000797,1.5713726800000014,0.7864282935000013,0.03999997985,0.0399999599,-9.811757149999996,-0.009999392088511245,0.004033488605008799,0.008378391150018727,-0.013046696549286238,0.0026524590100059043
0.385,-0.00011299638250094204,-0.7841246069999979,-0.0003764394180013958,-2.35597411,0.00011994833340008929,1.5713820900000015,0.7864384040000015,0.03999998,0.0399999598,-9.811675199999986,-0.01005555279553674,0.004098246370009177,0.008518378100019987,-0.013079046271745777,0.0026966966400063224
0.3875,-0.00011972212375094817,-0.7841096174999979,-0.0003864050550014049,-2.355972175,0.00012058579950008987,1.5713918250000014,0.7864488650000016,0.03999998,0.0399999595,-9.811567499999985,-0.010108662769205837,0.004163764975009237,0.008661070250020116,-0.013110437896107077,0.0027418377000063636
0.39,-0.0001264478650009543,-0.7840946279999979,-0.000396370692001414,-2.35597024,0.00012122326560009045,1.5714015600000015,0.7864593260000015,0.03999998,0.039999959200000004,-9.811459799999986,-0.010161772742874936,0.004229283580009296,0.008803762400020246,-0.013141829520468374,0.002786978760006405
0.3925,-0.00013317360625096042,-0.7840796384999978,-0.0004063363290014231,-2.3559683049999998,0.00012186073170009104,1.5714112950000014,0.7864697870000015,0.03999998,0.0399999589,-9.811352099999985,-0.010214882716544034,0.004294802185009355,0.008946454550020376,-0.013173221144829673,0.002832119820006446
0.395,-0.00013989934750096653,-0.7840646489999978,-0.00041630196600143216,-2.3559663699999995,0.00012249819780009162,1.5714210300000016,0.7864802480000015,0.03999998,0.0399999586,-9.811244399999984,-0.010267992690213133,0.0043603207900094155,0.009089146700020506,-0.01320461276919097,0.002877260880006487
0.3975,-0.00014662508875097266,-0.7840496594999978,-0.00042626760300144124,-2.3559644349999997,0.0001231356639000922,1.5714307650000015,0.7864907090000015,0.03999998,0.0399999583,-9.811136699999985,-0.01032110266388223,0.004425839395009475,0.009231838850020636,-0.01323600439355227,0.002922401940006528
0.4,-0.00015335083000108434,-0.7840346699999977,-0.0004362332400016061,-2.3559624999999995,0.00012377313000010273,1.5714405000000016,0.7865011700000016,0.03999998,0.039999958,-9.811028999999992,-0.010374212637550463,0.00449135800001074,0.009374531000021969,-0.013267396017913482,0.0029675430000069255
0.4025,-0.00016080190150109114,-0.7840185194999977,-0.00044726936400161615,-2.3559597849999996,0.00012447897600010338,1.5714513150000016,0.7865127485000016,0.0399999812,0.039999959200000004,-9.810986099999994,-0.010421371739364546,0.004565154100010807,0.009525489200022106,-0.013298191968356065,0.003015132450006969
0.405,-0.0001682529730010979,-0.7840023689999976,-0.0004583054880016262,-2.3559570699999997,0.000125184822000104,1.5714621300000016,0.7865243270000017,0.0399999824,0.0399999604,-9.810943199999993,-0.010468530841178629,0.0046389502000108735,0.009676447400022244,-0.013328987918798647,0.003062721900007012
0.40750000000000003,-0.00017570404450110468,-0.7839862184999976,-0.0004693416120016362,-2.3559543549999993,0.00012589066800010464,1.5714729450000016,0.7865359055000017,0.0399999836,0.0399999616,-9.810900299999993,-0.010515689942992712,0.004712746300010941,0.009827405600022382,-0.013359783869241231,0.0031103113500070556
0.41000000000000003,-0.00018315511600111147,-0.7839700679999977,-0.0004803777360016462,-2.3559516399999993,0.0001265965140001053,1.5714837600000016,0.7865474840000017,0.0399999848,0.0399999628,-9.810857399999994,-0.010562849044806795,0.004786542400011008,0.00997836380002252,-0.013390579819683814,0.0031579008000070987
0.41250000000000003,-0.00019060618750111824,-0.7839539174999977,-0.0004914138600016563,-2.3559489249999994,0.00012730236000010593,1.5714945750000016,0.7865590625000017,0.039999986,0.039999964,-9.810814499999994,-0.010610008146620878,0.004860338500011076,0.010129322000022657,-0.013421375770126398,0.0032054902500071422
0.41500000000000004,-0.00019805725900112504,-0.7839377669999976,-0.0005024499840016663,-2.3559462099999995,0.00012800820600010658,1.5715053900000016,0.7865706410000017,0.0399999872,0.0399999652,-9.810771599999994,-0.01065716724843496,0.004934134600011143,0.010280280200022794,-0.01345217172056898,0.0032530797000071853
0.4175,-0.0002057632645012478,-0.7839211924999974,-0.0005138622950018475,-2.3559433299999992,0.00012873803700011812,1.5715165800000017,0.786582612000002,0.0399999878,0.0399999656,-9.810714599999988,-0.010701132146647297,0.005007765060011132,0.010433981850024178,-0.013482256839056165,0.003301560790007634
0.42,-0.0002139791380012553,-0.7839037699999973,-0.0005260269800018586,-2.355940119999999,0.00012951583800011884,1.5715285200000018,0.786595368000002,0.0399999872,0.0399999644,-9.810629399999987,-0.0107387086376605,0.005081064240011199,0.010593170400024323,-0.01351092029363352,0.00335182516000768
0.4225,-0.00022219501150126276,-0.7838863474999973,-0.0005381916650018697,-2.3559369099999996,0.00013029363900011955,1.5715404600000018,0.786608124000002,0.0399999866,0.0399999632,-9.810544199999987,-0.010776285128673705,0.005154363420011266,0.010752358950024467,-0.013539583748210876,0.0034020895300077257
0.425,-0.00023041088500127025,-0.7838689249999973,-0.0005503563500018808,-2.3559336999999996,0.00013107144000012026,1.5715524000000018,0.786620880000002,0.039999986,0.039999962,-9.810458999999987,-0.01081386161968691,0.005227662600011332,0.010911547500024613,-0.013568247202788233,0.0034523539000077715
0.4275,-0.00023862675850127774,-0.7838515024999972,-0.0005625210350018919,-2.3559304899999995,0.00013184924100012095,1.571564340000002,0.786633636000002,0.0399999854,0.0399999608,-9.810373799999986,-0.010851438110700114,0.005300961780011399,0.011070736050024758,-0.013596910657365588,0.003502618270007817
0.43,-0.00024684263200128523,-0.7838340799999972,-0.0005746857200019028,-2.3559272799999995,0.00013262704200012166,1.571576280000002,0.786646392000002,0.0399999848,0.0399999596,-9.810288599999986,-0.010889014601713319,0.005374260960011466,0.011229924600024902,-0.013625574111942944,0.003552882640007863
0.4325,-0.0002550585055012927,-0.7838166574999972,-0.0005868504050019139,-2.3559240699999995,0.00013340484300012237,1.571588220000002,0.786659148000002,0.039999984200000005,0.0399999584,-9.810203399999986,-0.010926591092726522,0.0054475601400115325,0.011389113150025047,-0.0136542375665203,0.0036031470100079087
0.435,-0.0002638104380014274,-0.783798414999997,-0.0005998059800021128,-2.3559203999999996,0.00013423334800013512,1.571600950000002,0.7866727500000023,0.0399999846,0.0399999588,-9.810149149999994,-0.010952669847759817,0.005516922880010665,0.011553696300026473,-0.013682543672625681,0.003655041160008341
0.4375,-0.0002728304000014356,-0.783779762499997,-0.000613157000002125,-2.3559164999999997,0.0001350872050001359,1.571614075000002,0.7866867750000023,0.0399999855,0.03999996,-9.810110374999994,-0.010972999734807237,0.005584317400010726,0.011720976750026625,-0.013710671104495201,0.0037077502000083893
0.44,-0.00028185036200144384,-0.7837611099999969,-0.0006265080200021371,-2.3559125999999995,0.00013594106200013668,1.571627200000002,0.7867008000000022,0.0399999864,0.0399999612,-9.810071599999993,-0.010993329621854654,0.005651711920010788,0.011888257200026777,-0.013738798536364722,0.003760459240008437
0.4425,-0.00029087032400145206,-0.7837424574999969,-0.0006398590400021493,-2.3559086999999996,0.00013679491900013747,1.5716403250000022,0.7867148250000022,0.0399999873,0.0399999624,-9.810032824999993,-0.011013659508902072,0.005719106440010849,0.01205553765002693,-0.013766925968234242,0.003813168280008485
0.445,-0.0002998902860014603,-0.7837238049999969,-0.0006532100600021614,-2.3559047999999994,0.00013764877600013823,1.5716534500000021,0.7867288500000023,0.0399999882,0.0399999636,-9.809994049999993,-0.011033989395949491,0.005786500960010911,0.012222818100027082,-0.013795053400103762,0.003865877320008533
0.4475,-0.00030891024800146845,-0.783705152499997,-0.0006665610800021736,-2.3559008999999995,0.00013850263300013902,1.571666575000002,0.7867428750000023,0.0399999891,0.039999964799999996,-9.809955274999993,-0.011054319282996909,0.005853895480010972,0.012390098550027234,-0.013823180831973283,0.003918586360008581
0.45,-0.0003179302100016147,-0.7836864999999966,-0.0006799121000023894,-2.3558969999999992,0.00013935649000015277,1.5716797000000025,0.7867569000000025,0.03999999,0.039999966,-9.80991649999999,-0.011074649170045463,0.005921290000015627,0.012557379000028707,-0.013851308263842559,0.0039712954000090585
0.4525,-0.0003277932755016237,-0.7836664224999966,-0.0006945068150024026,-2.3558924999999995,0.00014028965950015364,1.5716940250000024,0.7867722150000025,0.03999999,0.0399999651,-9.80985237499999,-0.011101910052825452,0.0060167471500157145,0.012732721950028867,-0.013877931982283128,0.004026628615009109
0.455,-0.0003376563410016327,-0.7836463449999966,-0.0007091015300024159,-2.3558879999999993,0.00014122282900015448,1.5717083500000024,0.7867875300000026,0.03999999,0.0399999642,-9.80978824999999,-0.011129170935605443,0.006112204300015802,0.012908064900029026,-0.013904555700723697,0.00408196183000916
0.4575,-0.00034751940650164166,-0.7836262674999966,-0.0007236962450024292,-2.355883499999999,0.00014215599850015532,1.5717226750000024,0.7868028450000025,0.03999999,0.0399999633,-9.809724124999988,-0.011156431818385432,0.006207661450015889,0.013083407850029186,-0.013931179419164266,0.00413729504500921
0.46,-0.0003573824720016506,-0.7836061899999966,-0.0007382909600024425,-2.3558789999999994,0.00014308916800015616,1.5717370000000024,0.7868181600000025,0.03999999,0.0399999624,-9.809659999999989,-0.011183692701165423,0.006303118600015975,0.013258750800029345,-0.013957803137604835,0.00419262826000926
0.4625,-0.0003672455375016596,-0.7835861124999965,-0.0007528856750024559,-2.355874499999999,0.00014402233750015702,1.5717513250000024,0.7868334750000026,0.03999999,0.0399999615,-9.809595874999989,-0.011210953583945412,0.006398575750016062,0.013434093750029505,-0.013984426856045404,0.00424796147500931
0.465,-0.0003771086030016686,-0.7835660349999966,-0.0007674803900024691,-2.355869999999999,0.00014495550700015786,1.5717656500000026,0.7868487900000025,0.03999999,0.0399999606,-9.809531749999989,-0.011238214466725403,0.0064940329000161496,0.013609436700029665,-0.014011050574485975,0.0043032946900093605
0.4675,-0.0003872656050018275,-0.7835454644999963,-0.0007825086550027036,-2.355865279999999,0.00014591640900017287,1.5717804150000028,0.7868645600000028,0.03999999,0.0399999599,-9.80947259999999,-0.011259607598187159,0.006585439985014169,0.013787476150031201,-0.014037487935279263,0.004359422925009817
0.47000000000000003,-0.00039801048000183734,-0.7835239079999963,-0.0007984040200027181,-2.355860119999999,0.0001469327760001738,1.5717960600000027,0.7868812400000028,0.03999999,0.0399999596,-9.809423399999991,-0.011269265227021413,0.006668746940014245,0.013970908600031367,-0.014063552580778278,0.004417141200009869
0.47250000000000003,-0.0004087553550018471,-0.7835023514999963,-0.0008142993850027325,-2.355854959999999,0.00014794914300017472,1.5718117050000027,0.7868979200000028,0.03999999,0.0399999593,-9.809374199999992,-0.011278922855855666,0.006752053895014321,0.014154341050031534,-0.01408961722627729,0.004474859475009922
0.47500000000000003,-0.0004195002300018569,-0.7834807949999962,-0.000830194750002747,-2.3558497999999988,0.00014896551000017564,1.5718273500000028,0.7869146000000028,0.03999999,0.039999959,-9.80932499999999,-0.01128858048468992,0.006835360850014397,0.014337773500031702,-0.014115681871776305,0.004532577750009975
0.47750000000000004,-0.0004302451050018667,-0.7834592384999963,-0.0008460901150027615,-2.355844639999999,0.00014998187700017657,1.5718429950000028,0.7869312800000029,0.03999999,0.039999958700000005,-9.809275799999991,-0.011298238113524173,0.0069186678050144725,0.014521205950031868,-0.014141746517275318,0.004590296025010027
0.48,-0.00044098998000187623,-0.7834376819999963,-0.0008619854800027756,-2.355839479999999,0.0001509982440001775,1.5718586400000027,0.7869479600000029,0.03999999,0.0399999584,-9.809226599999992,-0.011307895742358427,0.007001974760014546,0.01470463840003203,-0.014167811162774331,0.004648014300010078
0.4825,-0.00045173485500188604,-0.7834161254999963,-0.00087788084500279,-2.355834319999999,0.00015201461100017842,1.571874285000003,0.7869646400000029,0.03999999,0.0399999581,-9.80917739999999,-0.01131755337119268,0.007085281715014623,0.014888070850032197,-0.014193875808273346,0.004705732575010131
0.485,-0.00046309317200205814,-0.783393519999996,-0.0008946809200030439,-2.3558287099999986,0.00015308894400019467,1.5718908400000031,0.7869822800000031,0.0399999905,0.039999958200000005,-9.809131199999992,-0.011318853590636892,0.0071713672300154335,0.015076790600033764,-0.01421934114769543,0.004765191900010644
0.4875,-0.0004747582100020688,-0.783370389999996,-0.0009119333500030597,-2.355822874999999,0.00015419226000019568,1.571907850000003,0.7870004000000032,0.03999999125,0.0399999585,-9.809086499999992,-0.01131597510538939,0.007258842025015514,0.015268154000033939,-0.014244506834079289,0.0048255217500106995
0.49,-0.00048642324800207936,-0.7833472599999959,-0.0009291857800030754,-2.355817039999999,0.0001552955760001967,1.571924860000003,0.7870185200000032,0.039999992,0.0399999588,-9.809041799999992,-0.011313096620141887,0.007346316820015593,0.015459517400034112,-0.014269672520463147,0.004885851600010754
0.4925,-0.00049808828600209,-0.7833241299999959,-0.0009464382100030911,-2.355811204999999,0.0001563988920001977,1.571941870000003,0.7870366400000032,0.039999992750000005,0.0399999591,-9.808997099999992,-0.011310218134894384,0.007433791615015672,0.015650880800034288,-0.014294838206847004,0.004946181450010809
0.495,-0.0005097533240021006,-0.7833009999999958,-0.0009636906400031068,-2.355805369999999,0.00015750220800019867,1.571958880000003,0.7870547600000032,0.039999993500000004,0.0399999594,-9.808952399999992,-0.011307339649646883,0.007521266410015752,0.01584224420003446,-0.014320003893230862,0.005006511300010864
0.4975,-0.0005214183620021113,-0.7832778699999958,-0.0009809430700031226,-2.3557995349999987,0.00015860552400019968,1.571975890000003,0.7870728800000033,0.039999994250000004,0.039999959700000004,-9.808907699999992,-0.01130446116439938,0.007608741205015832,0.016033607600034635,-0.01434516957961472,0.0050668411500109185
0.5,-0.0005330834000022961,-0.7832547399999954,-0.0009981955000033954,-2.3557936999999987,0.00015970884000021709,1.5719929000000032,0.7870910000000035,0.039999995,0.03999996,-9.808862999999992,-0.011301582679150293,0.007696216000016404,0.016224971000036233,-0.014370335265998438,0.005127171000011366
0.5025000000000001,-0.0005457065810023079,-0.7832299479999955,-0.0010168609000034126,-2.3557872649999987,0.0001609022460002182,1.5720112750000033,0.7871105900000036,0.03999999575,0.0399999609,-9.80881274999999,-0.011289998190475298,0.007786400950016488,0.01642416140003642,-0.01439472576603732,0.005189655795011424
0.505,-0.0005583297620023191,-0.7832051559999954,-0.0010355263000034292,-2.3557808299999987,0.00016209565200021926,1.5720296500000033,0.7871301800000036,0.0399999965,0.0399999618,-9.808762499999991,-0.011278413701800301,0.007876585900016568,0.016623351800036597,-0.014419116266076202,0.0052521405900114795
0.5075000000000001,-0.0005709529430023308,-0.7831803639999954,-0.0010541917000034466,-2.3557743949999987,0.00016328905800022035,1.5720480250000033,0.7871497700000036,0.03999999725,0.0399999627,-9.808712249999992,-0.011266829213125306,0.007966770850016652,0.01682254220003678,-0.014443506766115085,0.005314625385011538
0.51,-0.0005835761240023421,-0.7831555719999954,-0.0010728571000034632,-2.3557679599999988,0.0001644824640002214,1.5720664000000033,0.7871693600000036,0.039999998,0.0399999636,-9.808661999999991,-0.011255244724450312,0.008056955800016733,0.01702173260003696,-0.014467897266153966,0.005377110180011593
0.5125,-0.0005961993050023533,-0.7831307799999954,-0.0010915225000034797,-2.355761524999999,0.00016567587000022247,1.5720847750000033,0.7871889500000037,0.03999999875,0.0399999645,-9.808611749999992,-0.011243660235775315,0.008147140750016813,0.017220923000037136,-0.014492287766192847,0.005439594975011649
0.515,-0.000608822486002365,-0.7831059879999953,-0.0011101879000034972,-2.355755089999999,0.0001668692760002236,1.5721031500000033,0.7872085400000036,0.0399999995,0.0399999654,-9.80856149999999,-0.01123207574710032,0.008237325700016897,0.01742011340003732,-0.01451667826623173,0.005502079770011707
0.5175,-0.0006217775555025638,-0.7830806234999951,-0.0011293426950037902,-2.3557484049999986,0.0001680939460002423,1.5721220150000037,0.787228643000004,0.04,0.039999966549999995,-9.808516699999995,-0.011216758145015122,0.008328165925017348,0.01762193130003898,-0.014540993329142028,0.005565238285012143
0.52,-0.0006353964020025764,-0.783054113999995,-0.001149476280003809,-2.3557412199999987,0.0001693811440002435,1.5721418600000037,0.787249772000004,0.04,0.0399999682,-9.808482799999995,-0.01119397431611583,0.008420316700017434,0.017829004200039175,-0.014565157517795291,0.005629744240012204
0.5225,-0.0006490152485025885,-0.783027604499995,-0.0011696098650038269,-2.3557340349999984,0.00017066834200024465,1.5721617050000036,0.787270901000004,0.04,0.03999996985,-9.808448899999993,-0.011171190487216539,0.008512467475017516,0.018036077100039356,-0.014589321706448553,0.005694250195012261
0.525,-0.0006626340950026012,-0.7830010949999949,-0.0011897434500038457,-2.3557268499999986,0.00017195554000024586,1.5721815500000038,0.787292030000004,0.04,0.0399999715,-9.808414999999993,-0.011148406658317248,0.008604618250017602,0.01824315000003955,-0.014613485895101816,0.0057587561500123206
0.5275,-0.0006762529415026133,-0.7829745854999949,-0.0012098770350038634,-2.3557196649999983,0.000173242738000247,1.5722013950000038,0.787313159000004,0.04,0.03999997315,-9.808381099999993,-0.011125622829417958,0.008696769025017684,0.018450222900039736,-0.014637650083755078,0.005823262105012378
0.53,-0.000689871788002626,-0.7829480759999948,-0.0012300106200038821,-2.3557124799999984,0.0001745299360002482,1.5722212400000037,0.787334288000004,0.04,0.0399999748,-9.808347199999993,-0.011102839000518666,0.00878891980001777,0.018657295800039927,-0.01466181427240834,0.005887768060012438
0.5325,-0.0007034906345026381,-0.7829215664999948,-0.0012501442050039,-2.3557052949999986,0.00017581713400024936,1.5722410850000037,0.7873554170000041,0.04,0.03999997645,-9.808313299999993,-0.011080055171619377,0.00888107057501785,0.018864368700040112,-0.014685978461061601,0.005952274015012496
0.535,-0.0007177980010028518,-0.7828938469999944,-0.0012712929900042154,-2.355697629999998,0.0001771695200002696,1.5722619500000041,0.7873776040000044,0.04,0.0399999759,-9.808266399999988,-0.011042581684878646,0.008974992750018455,0.01907659950004181,-0.014709525834773503,0.006019138060013245
0.5375,-0.0007324496275028648,-0.7828655224999944,-0.0012929493750042345,-2.355689724999998,0.00017855450000027083,1.5722833250000041,0.7874003200000045,0.04,0.03999997425,-9.80821299999999,-0.01099776336922361,0.009069800625018538,0.019291409250042003,-0.014732764801014995,0.006087181150013304
0.54,-0.0007471012540028785,-0.7828371979999944,-0.0013146057600042548,-2.3556818199999983,0.00017993948000027211,1.572304700000004,0.7874230360000044,0.04,0.039999972599999996,-9.808159599999989,-0.010952945053568575,0.009164608500018627,0.0195062190000422,-0.014756003767256486,0.0061552242400133685
0.5425,-0.0007617528805028915,-0.7828088734999944,-0.001336262145004274,-2.3556739149999983,0.00018132446000027335,1.5723260750000043,0.7874457520000044,0.04,0.03999997095,-9.808106199999989,-0.01090812673791354,0.00925941637501871,0.019721028750042394,-0.014779242733497977,0.006223267330013429
0.545,-0.0007764045070029052,-0.7827805489999944,-0.0013579185300042942,-2.3556660099999984,0.00018270944000027463,1.5723474500000043,0.7874684680000045,0.04,0.0399999693,-9.808052799999988,-0.010863308422258503,0.009354224250018799,0.019935838500042595,-0.014802481699739469,0.006291310420013492
0.5475,-0.0007910561335029182,-0.7827522244999944,-0.0013795749150043134,-2.3556581049999985,0.00018409442000027587,1.5723688250000043,0.7874911840000045,0.04,0.039999967649999996,-9.80799939999999,-0.01081849010660347,0.009449032125018884,0.020150648250042785,-0.01482572066598096,0.006359353510013553
0.55,-0.0008057077600031459,-0.782723899999994,-0.0014012313000046491,-2.355650199999998,0.00018547940000029727,1.5723902000000047,0.7875139000000049,0.04,0.039999966,-9.807945999999992,-0.010773671790948658,0.009543840000019505,0.020365458000044516,-0.014848959632222398,0.006427396600013851
0.5525,-0.0008214287560031598,-0.782693725999994,-0.0014244642600046698,-2.355641649999998,0.0001869649475002986,1.5724130900000046,0.7875382825000049,0.04,0.039999967649999996,-9.807910899999992,-0.010729981958857293,0.00964131105001959,0.020587927350044714,-0.014871928840880162,0.006496613110013912
0.555,-0.0008371497520031745,-0.7826635519999939,-0.0014476972200046913,-2.355633099999998,0.00018845049500029997,1.5724359800000047,0.7875626650000049,0.04,0.0399999693,-9.807875799999993,-0.010686292126765928,0.009738782100019681,0.020810396700044923,-0.01489489804953793,0.006565829620013977
0.5575,-0.0008528707480031885,-0.7826333779999939,-0.001470930180004712,-2.355624549999998,0.0001899360425003013,1.5724588700000046,0.787587047500005,0.04,0.03999997095,-9.807840699999993,-0.010642602294674565,0.009836253150019769,0.021032866050045118,-0.014917867258195694,0.006635046130014038
0.56,-0.0008685917440032032,-0.7826032039999938,-0.0014941631400047337,-2.355615999999998,0.00019142159000030268,1.5724817600000047,0.787611430000005,0.04,0.039999972599999996,-9.807805599999993,-0.0105989124625832,0.00993372420001986,0.021255335400045327,-0.014940836466853461,0.006704262640014103
0.5625,-0.0008843127400032171,-0.7825730299999938,-0.0015173961000047543,-2.355607449999998,0.000192907137500304,1.5725046500000046,0.7876358125000049,0.04,0.03999997425,-9.807770499999993,-0.010555222630491835,0.010031195250019945,0.021477804750045525,-0.014963805675511225,0.006773479150014165
0.5650000000000001,-0.0009000337360032317,-0.7825428559999938,-0.0015406290600047758,-2.355598899999998,0.00019439268500030538,1.5725275400000047,0.787660195000005,0.04,0.0399999759,-9.807735399999993,-0.01051153279840047,0.010128666300020036,0.02170027410004573,-0.014986774884168993,0.006842695660014229
0.5675,-0.0009161232000034739,-0.7825120279999933,-0.0015644052700051329,-2.355590064999998,0.0001959132295003284,1.572550955000005,0.7876851475000054,0.04,0.03999997615,-9.807702549999995,-0.010458023101076273,0.010227948950021246,0.02192524615004748,-0.01500973044895103,0.006913194220015084
0.5700000000000001,-0.0009329496000034896,-0.7824798919999933,-0.0015892679800051561,-2.355580659999998,0.00019750376800032986,1.572575420000005,0.7877112400000054,0.04,0.0399999736,-9.807674199999994,-0.01038487367330463,0.010330854800021341,0.022155223600047694,-0.015032658725981635,0.0069862568800151525
0.5725,-0.0009497760000035046,-0.7824477559999933,-0.0016141306900051783,-2.355571254999998,0.00019909430650033127,1.5725998850000051,0.7877373325000054,0.04,0.03999997105,-9.807645849999995,-0.01031172424553299,0.010433760650021433,0.022385201050047897,-0.01505558700301224,0.007059319540015217
0.5750000000000001,-0.0009666024000035203,-0.7824156199999932,-0.0016389934000052015,-2.355561849999998,0.00020068484500033277,1.5726243500000052,0.7877634250000054,0.04,0.0399999685,-9.807617499999994,-0.010238574817761347,0.01053666650002153,0.022615178500048114,-0.015078515280042847,0.007132382200015285
0.5775,-0.0009834288000035352,-0.7823834839999932,-0.0016638561100052237,-2.355552444999998,0.00020227538350033416,1.572648815000005,0.7877895175000055,0.04,0.03999996595,-9.807589149999995,-0.010165425389989706,0.01063957235002162,0.022845155950048317,-0.015101443557073452,0.007205444860015351
0.58,-0.0010002552000035502,-0.7823513479999932,-0.0016887188200052456,-2.355543039999998,0.00020386592200033558,1.5726732800000052,0.7878156100000054,0.04,0.0399999634,-9.807560799999994,-0.010092275962218067,0.01074247820002171,0.023075133400048523,-0.015124371834104058,0.007278507520015415
0.5825,-0.001017081600003566,-0.7823192119999931,-0.0017135815300052689,-2.355533634999998,0.00020545646050033707,1.5726977450000053,0.7878417025000055,0.04,0.03999996085,-9.807532449999993,-0.010019126534446424,0.010845384050021807,0.023305110850048737,-0.015147300111134663,0.007351570180015483
0.585,-0.0010346686800038237,-0.7822857149999927,-0.0017395655500056489,-2.355523749999998,0.00020711835800036127,1.5727233200000057,0.7878689500000059,0.04,0.03999996,-9.807485199999988,-0.009946866705998347,0.010948487500021961,0.023540022000050516,-0.015169681236152513,0.007425477360015818
0.5875,-0.0010526361000038405,-0.7822515374999927,-0.0017661102250056736,-2.3555136249999977,0.00020881593500036283,1.5727494500000057,0.7878967750000059,0.04,0.03999996,-9.807428499999988,-0.009875051677211625,0.011051689750022058,0.023777400000050738,-0.015191788785164249,0.007499806800015887
0.59,-0.0010706035200038564,-0.7822173599999926,-0.0017926549000056972,-2.355503499999998,0.00021051351200036434,1.5727755800000056,0.787924600000006,0.04,0.03999996,-9.807371799999988,-0.009803236648424907,0.01115489200002215,0.02401477800005095,-0.015213896334175985,0.007574136240015953
0.5925,-0.0010885709400038732,-0.7821831824999926,-0.001819199575005722,-2.355493374999998,0.00021221108900036593,1.5728017100000056,0.787952425000006,0.04,0.03999996,-9.807315099999988,-0.009731421619638185,0.011258094250022246,0.024252156000051168,-0.01523600388318772,0.007648465680016023
0.595,-0.0011065383600038891,-0.7821490049999926,-0.0018457442500057456,-2.3554832499999976,0.00021390866600036744,1.5728278400000055,0.787980250000006,0.04,0.03999996,-9.807258399999988,-0.009659606590851466,0.011361296500022338,0.02448953400005138,-0.015258111432199455,0.007722795120016088
0.5975,-0.001124505780003906,-0.7821148274999926,-0.0018722889250057703,-2.355473124999998,0.000215606243000369,1.5728539700000057,0.788008075000006,0.04,0.03999996,-9.807201699999988,-0.009587791562064744,0.011464498750022433,0.0247269120000516,-0.01528021898121119,0.0077971245600161575
0.6,-0.0011424732000041786,-0.7820806499999922,-0.0018988336000061723,-2.3554629999999976,0.00021730382000039483,1.5728801000000059,0.7880359000000065,0.04,0.03999996,-9.807144999999995,-0.009515976533273407,0.011567701000022206,0.02496429000005344,-0.015302326530222952,0.007871454000016728
0.6025,-0.0011616165600041963,-0.7820443949999921,-0.0019271118700061986,-2.3554521999999976,0.00021911277950039653,1.572907985000006,0.7880655790000065,0.03999999925,0.039999957,-9.807122799999995,-0.009423004463294605,0.011669439100022301,0.025209122550053666,-0.015324553521354867,0.0079480960500168
0.605,-0.0011807599200042132,-0.7820081399999921,-0.0019553901400062236,-2.3554413999999975,0.00022092173900039813,1.572935870000006,0.7880952580000066,0.0399999985,0.039999954,-9.807100599999995,-0.009330032393315807,0.011771177200022392,0.025453955100053886,-0.015346780512486781,0.008024738100016868
0.6075,-0.0011999032800042312,-0.781971884999992,-0.0019836684100062504,-2.3554305999999974,0.00022273069850039983,1.5729637550000062,0.7881249370000065,0.03999999775,0.039999951,-9.807078399999996,-0.009237060323337007,0.011872915300022486,0.025698787650054112,-0.015369007503618698,0.00810138015001694
0.61,-0.001219046640004248,-0.781935629999992,-0.0020119466800062754,-2.3554197999999977,0.00022453965800040143,1.5729916400000061,0.7881546160000066,0.039999997,0.039999948,-9.807056199999996,-0.009144088253358208,0.011974653400022576,0.02594362020005433,-0.015391234494750612,0.008178022200017006
0.6125,-0.001238190000004266,-0.781899374999992,-0.0020402249500063017,-2.3554089999999976,0.00022634861750040313,1.5730195250000063,0.7881842950000066,0.03999999625,0.039999944999999995,-9.807033999999996,-0.009051116183379407,0.012076391500022671,0.026188452750054558,-0.015413461485882528,0.008254664250017078
0.615,-0.001257333360004283,-0.7818631199999919,-0.0020685032200063267,-2.3553981999999976,0.00022815757700040472,1.5730474100000063,0.7882139740000067,0.0399999955,0.039999942,-9.807011799999996,-0.00895814411340061,0.012178129600022762,0.026433285300054777,-0.015435688477014443,0.008331306300017147
0.6175,-0.0012768801450045728,-0.7818261349999914,-0.002097376160006754,-2.3553871149999974,0.00023000457250043206,1.5730758950000068,0.7882442770000071,0.03999999525,0.03999994,-9.806987449999994,-0.008860658295428635,0.012281781900024146,0.026680479650056595,-0.015457878401507868,0.00840864985001769
0.62,-0.0012972337800045907,-0.7817876899999914,-0.0021274384400067807,-2.355375459999997,0.00023192764000043374,1.5731055800000067,0.7882758280000071,0.039999996,0.03999994,-9.806958799999995,-0.008754144981479434,0.012389262600024242,0.02693239760005682,-0.015479994192724389,0.008487396400017761
0.6225,-0.0013175874150046097,-0.7817492449999913,-0.0021575007200068086,-2.3553638049999974,0.00023385070750043554,1.5731352650000068,0.7883073790000071,0.03999999675,0.03999994,-9.806930149999994,-0.00864763166753023,0.012496743300024343,0.027184315550057056,-0.015502109983940908,0.008566142950017834
0.625,-0.0013379410500046279,-0.7817107999999913,-0.0021875630000068353,-2.3553521499999976,0.00023577377500043725,1.5731649500000067,0.7883389300000072,0.0399999975,0.03999994,-9.806901499999993,-0.008541118353581031,0.012604224000024438,0.027436233500057278,-0.015524225775157429,0.008644889500017905
0.6275000000000001,-0.0013582946850046469,-0.7816723549999912,-0.0022176252800068636,-2.3553404949999974,0.00023769684250043904,1.5731946350000068,0.7883704810000072,0.03999999825,0.03999994,-9.806872849999994,-0.008434605039631827,0.012711704700024539,0.027688151450057513,-0.01554634156637395,0.00872363605001798
0.63,-0.0013786483200046648,-0.7816339099999913,-0.00224768756000689,-2.3553288399999976,0.00023961991000044075,1.5732243200000067,0.7884020320000072,0.039999999,0.03999994,-9.806844199999993,-0.008328091725682628,0.012819185400024634,0.02794006940005774,-0.015568457357590468,0.008802382600018048
0.6325000000000001,-0.0013990019550046838,-0.7815954649999912,-0.002277749840006918,-2.3553171849999974,0.00024154297750044254,1.5732540050000068,0.7884335830000072,0.03999999975,0.03999994,-9.806815549999992,-0.008221578411733424,0.012926666100024735,0.028191987350057974,-0.01559057314880699,0.008881129150018123
0.635,-0.0014201849800049894,-0.7815555349999906,-0.0023090347200073686,-2.3553049999999973,0.00024354434800047137,1.5732848800000072,0.7884664040000077,0.04,0.0399999396,-9.80678009999999,-0.008105624280842072,0.013031768700024007,0.02844861520005983,-0.015612300485377494,0.00896125270001867
0.6375000000000001,-0.0014417827000050094,-0.7815148624999906,-0.002340930900007398,-2.355292549999997,0.0002455848700004733,1.5733163500000074,0.7884998600000077,0.04,0.039999939,-9.806741249999991,-0.007984949741484535,0.013135682250024103,0.02870759800006007,-0.015633833594625196,0.009042064750018744
0.64,-0.0014633804200050288,-0.7814741899999906,-0.0023728270800074266,-2.355280099999997,0.0002476253920004751,1.5733478200000073,0.7885333160000078,0.04,0.0399999384,-9.806702399999992,-0.007864275202127003,0.013239595800024196,0.028966580800060298,-0.015655366703872894,0.009122876800018815
0.6425,-0.001484978140005048,-0.7814335174999906,-0.002404723260007455,-2.3552676499999974,0.0002496659140004769,1.5733792900000074,0.7885667720000078,0.04,0.039999937799999996,-9.80666354999999,-0.00774360066276947,0.013343509350024287,0.02922556360006053,-0.015676899813120593,0.009203688850018888
0.645,-0.001506575860005068,-0.7813928449999905,-0.0024366194400074846,-2.355255199999997,0.0002517064360004788,1.5734107600000073,0.7886002280000078,0.04,0.0399999372,-9.806624699999992,-0.007622926123411933,0.013447422900024385,0.02948454640006077,-0.015698432922368295,0.009284500900018963
0.6475,-0.0015281735800050872,-0.7813521724999904,-0.002468515620007513,-2.3552427499999973,0.0002537469580004806,1.5734422300000075,0.7886336840000079,0.04,0.0399999366,-9.80658584999999,-0.007502251584054401,0.013551336450024477,0.029743529200061,-0.015719966031615993,0.009365312950019035
0.65,-0.0015497713000054095,-0.7813114999999898,-0.002500411800007988,-2.355230299999997,0.000255787480000511,1.5734737000000079,0.7886671400000084,0.04,0.039999936,-9.806546999999991,-0.007381577044692875,0.013655250000026434,0.030002512000062913,-0.015741499140863653,0.009446125000019592
0.6525,-0.0015726463300054297,-0.7812685324999898,-0.002534190600008018,-2.355217054999997,0.00025794857800051293,1.573507000000008,0.7887025790000085,0.0399999985,0.03999993435,-9.806512199999991,-0.007244035042789697,0.013767029100026532,0.030268568200063153,-0.015762858185922168,0.009528977500019666
0.655,-0.0015955213600054511,-0.7812255649999897,-0.0025679694000080495,-2.355203809999997,0.00026010967600051496,1.573540300000008,0.7887380180000085,0.039999997,0.0399999327,-9.806477399999991,-0.007106493040886514,0.013878808200026637,0.0305346244000634,-0.015784217230980682,0.009611830000019743
0.6575,-0.0016183963900054713,-0.7811825974999898,-0.002601748200008079,-2.355190564999997,0.0002622707740005169,1.573573600000008,0.7887734570000086,0.039999995499999996,0.03999993105,-9.806442599999992,-0.006968951038983337,0.013990587300026737,0.030800680600063638,-0.015805576276039193,0.009694682500019817
0.66,-0.0016412714200054928,-0.7811396299999896,-0.002635527000008111,-2.3551773199999966,0.0002644318720005189,1.5736069000000081,0.7888088960000086,0.039999994,0.0399999294,-9.806407799999992,-0.006831409037080153,0.014102366400026841,0.031066736800063884,-0.015826935321097708,0.009777535000019894
0.6625,-0.001664146450005513,-0.7810966624999897,-0.0026693058000081408,-2.3551640749999967,0.00026659297000052084,1.573640200000008,0.7888443350000086,0.0399999925,0.03999992775,-9.806372999999992,-0.006693867035176976,0.01421414550002694,0.03133279300006412,-0.015848294366156222,0.009860387500019968
0.665,-0.0016870214800055344,-0.7810536949999896,-0.002703084600008172,-2.355150829999997,0.00026875406800052286,1.5736735000000082,0.7888797740000086,0.039999991,0.0399999261,-9.806338199999992,-0.006556325033273793,0.014325924600027044,0.03159884920006437,-0.015869653411214737,0.009943240000020045
0.6675,-0.0017103330950058726,-0.781009937499989,-0.002737506910008671,-2.3551373099999964,0.0002709564085005548,1.5737074450000086,0.7889158850000091,0.0399999899,0.0399999246,-9.806309349999996,-0.006412989739290996,0.014438201075027506,0.03186717665006626,-0.015891167148953004,0.010026824900020652
0.67,-0.0017345178800058953,-0.7809645999999889,-0.0027732162400087045,-2.3551232399999966,0.00027324123400055696,1.5737426800000085,0.7889533400000092,0.0399999896,0.0399999234,-9.806292399999995,-0.006258067861161596,0.014551472300027611,0.032140046600066516,-0.01591299027205044,0.010111874600020731
0.6725,-0.0017587026650059167,-0.7809192624999889,-0.0028089255700087363,-2.3551091699999964,0.000275526059500559,1.5737779150000086,0.7889907950000092,0.0399999893,0.0399999222,-9.806275449999996,-0.006103145983032203,0.014664743525027711,0.032412916550066756,-0.015934813395147872,0.010196924300020808
0.675,-0.0017828874500059393,-0.7808739249999889,-0.0028446349000087693,-2.3550950999999967,0.00027781088500056114,1.5738131500000085,0.7890282500000092,0.039999989,0.039999921,-9.806258499999997,-0.005948224104902804,0.014778014750027818,0.03268578650006701,-0.015956636518245308,0.010281974000020887
0.6775,-0.0018070722350059607,-0.7808285874999888,-0.002880344230008801,-2.3550810299999965,0.0002800957105005632,1.5738483850000087,0.7890657050000093,0.0399999887,0.0399999198,-9.806241549999996,-0.005793302226773412,0.014891285975027918,0.03295865645006726,-0.015978459641342743,0.010367023700020963
0.68,-0.0018312570200059834,-0.7807832499999888,-0.0029160535600088345,-2.3550669599999967,0.00028238053600056527,1.5738836200000086,0.7891031600000094,0.0399999884,0.0399999186,-9.806224599999997,-0.005638380348644012,0.015004557200028024,0.03323152640006751,-0.01600028276444018,0.010452073400021042
0.6825,-0.0018554418050060048,-0.7807379124999888,-0.0029517628900088662,-2.3550528899999965,0.0002846653615005673,1.5739188550000087,0.7891406150000093,0.0399999881,0.0399999174,-9.806207649999996,-0.0054834584705146195,0.015117828425028125,0.03350439635006775,-0.01602210588753761,0.010537123100021117
0.685,-0.0018805209900063617,-0.7806909599999882,-0.002988790650009392,-2.355038179999996,0.000287034623000601,1.5739553600000091,0.7891794600000099,0.039999988,0.039999916600000004,-9.80617539999999,-0.005309899523808603,0.01522240545002498,0.0337817911000697,-0.016043440066283197,0.010623270200021608
0.6875,-0.0019060473750063844,-0.7806431999999881,-0.003026477625009426,-2.3550231499999965,0.0002894461025006031,1.5739925000000092,0.7892190000000099,0.039999988,0.039999916,-9.806135499999991,-0.005127022042824711,0.01532263537502507,0.034061448250069945,-0.016064529772853123,0.010709966000021684
0.6900000000000001,-0.0019315737600064083,-0.780595439999988,-0.003064164600009461,-2.3550081199999964,0.0002918575820006054,1.5740296400000093,0.78925854000001,0.039999988,0.0399999154,-9.80609559999999,-0.00494414456184081,0.015422865300025162,0.03434110540007021,-0.016085619479423052,0.010796661800021765
0.6925,-0.001957100145006431,-0.780547679999988,-0.0031018515750094945,-2.3549930899999962,0.00029426906150060756,1.5740667800000092,0.78929808000001,0.039999988,0.0399999148,-9.806055699999991,-0.004761267080856917,0.01552309522502525,0.034620762550070454,-0.016106709185992982,0.010883357600021841
0.6950000000000001,-0.001982626530006455,-0.7804999199999879,-0.0031395385500095296,-2.354978059999996,0.0002966805410006098,1.5741039200000093,0.78933762000001,0.039999988,0.0399999142,-9.80601579999999,-0.004578389599873016,0.015623325150025345,0.03490041970007072,-0.01612779889256291,0.010970053400021922
0.6975,-0.0020081529150064777,-0.7804521599999878,-0.0031772255250095633,-2.354963029999996,0.00029909202050061194,1.5741410600000094,0.78937716000001,0.039999988,0.0399999136,-9.805975899999991,-0.004395512118889124,0.015723555075025434,0.03518007685007096,-0.01614888859913284,0.011056749200022
0.7000000000000001,-0.002033679300006851,-0.7804043999999872,-0.0032149125000101135,-2.354947999999996,0.00030150350000064717,1.57417820000001,0.7894167000000106,0.039999988,0.039999913,-9.805935999999994,-0.004212634637907968,0.015823785000032974,0.03545973400007289,-0.016169978305702833,0.01114344500002259
0.7025,-0.002060578575006875,-0.7803541694999871,-0.003254622915010149,-2.354932204999996,0.00030404460500064946,1.57421739500001,0.7894583550000106,0.0399999883,0.039999913,-9.805905999999993,-0.0040405320934511,0.01595325300003309,0.03574595545007315,-0.01619131611660664,0.011232140750022669
0.705,-0.002087477850006899,-0.7803039389999871,-0.003294333330010184,-2.354916409999996,0.0003065857100006517,1.57425659000001,0.7895000100000107,0.0399999886,0.039999913,-9.805875999999992,-0.003868429548994232,0.016082721000033204,0.036032176900073404,-0.01621265392751044,0.011320836500022748
0.7075,-0.002114377125006924,-0.7802537084999871,-0.003334043745010221,-2.3549006149999956,0.00030912681500065405,1.57429578500001,0.7895416650000107,0.0399999889,0.039999913,-9.805845999999992,-0.0036963270045373567,0.016212189000033322,0.03631839835007367,-0.016233991738414246,0.01140953225002283
0.71,-0.002141276400006948,-0.780203477999987,-0.0033737541600102564,-2.3548848199999957,0.00031166792000065634,1.5743349800000102,0.7895833200000107,0.0399999892,0.039999913,-9.805815999999993,-0.0035242244600804887,0.016341657000033438,0.03660461980007393,-0.016255329549318052,0.011498228000022908
0.7125,-0.0021681756750069727,-0.7801532474999869,-0.0034134645750102935,-2.3548690249999957,0.0003142090250006587,1.5743741750000102,0.7896249750000108,0.0399999895,0.039999913,-9.805785999999992,-0.0033521219156236134,0.01647112500003356,0.03689084125007419,-0.016276667360221854,0.011586923750022992
0.715,-0.0021950749500069967,-0.780103016999987,-0.0034531749900103288,-2.354853229999996,0.0003167501300006609,1.5744133700000102,0.7896666300000108,0.039999989799999996,0.039999913,-9.805755999999992,-0.003180019371166746,0.016600593000033675,0.03717706270007445,-0.01629800517112566,0.01167561950002307
0.7175,-0.0022224420400073883,-0.7800519404999863,-0.0034935749350109057,-2.3548371549999954,0.0003193354010006979,1.5744532250000107,0.7897090100000115,0.03999999025,0.039999913,-9.805726199999992,-0.0029977422207064825,0.01672599325003061,0.03746544905007641,-0.016319214273249553,0.011764925500023631
0.72,-0.002250744760007413,-0.7799991719999863,-0.003535353940010943,-2.3548205199999956,0.00032200900400070027,1.5744944000000107,0.7897528400000114,0.039999991,0.039999913,-9.805696799999993,-0.0027951158582633275,0.01684325800003071,0.03775816520007667,-0.01634016595781393,0.011855452000023711
0.7225,-0.00227904748000744,-0.7799464034999861,-0.003577132945010982,-2.3548038849999955,0.00032468260700070276,1.5745355750000107,0.7897966700000115,0.03999999175,0.039999913,-9.805667399999992,-0.0025924894958201635,0.01696052275003082,0.03805088135007694,-0.0163611176423783,0.011945978500023796
0.725,-0.0023073502000074647,-0.7798936349999861,-0.003618911950011019,-2.354787249999996,0.00032735621000070514,1.5745767500000107,0.7898405000000116,0.039999992500000005,0.039999913,-9.805637999999993,-0.0023898631333770085,0.017077787500030927,0.0383435975000772,-0.016382069326942677,0.012036505000023876
0.7275,-0.0023356529200074913,-0.7798408664999861,-0.003660690955011058,-2.3547706149999956,0.00033002981300070763,1.574617925000011,0.7898843300000116,0.039999993250000004,0.039999913,-9.805608599999992,-0.0021872367709338445,0.017195052250031036,0.038636313650077476,-0.01640302101150705,0.01212703150002396
0.73,-0.0023639556400075162,-0.779788097999986,-0.003702469960011095,-2.3547539799999955,0.00033270341600071,1.574659100000011,0.7899281600000116,0.039999994000000004,0.039999913,-9.805579199999993,-0.0019846104084906896,0.01731231700003114,0.03892902980007774,-0.016423972696071425,0.012217558000024041
0.7325,-0.002392258360007543,-0.779735329499986,-0.003744248965011134,-2.3547373449999958,0.0003353770190007125,1.574700275000011,0.7899719900000116,0.039999994750000004,0.039999913,-9.805549799999993,-0.0017819840460475255,0.01742958175003125,0.039221745950078005,-0.0164449243806358,0.012308084500024125
0.735,-0.0024215166600079514,-0.7796807959999852,-0.003787436270011736,-2.3547200499999956,0.0003381408450007511,1.5747428600000115,0.7900173000000124,0.039999995,0.0399999127,-9.805531699999998,-0.0015677489339716547,0.017549784100032533,0.039518718200079975,-0.016466348245745693,0.01239979390002468
0.7375,-0.002451252750007979,-0.7796253799999852,-0.003831327725011777,-2.3547024249999953,0.0003409497825007537,1.5747861500000115,0.7900633500000124,0.039999995,0.03999991225,-9.805519249999998,-0.0013477094470863843,0.017671455250032646,0.03981781850008025,-0.01648800820112806,0.012492094750024767
0.74,-0.0024809888400080054,-0.7795699639999851,-0.003875219180011816,-2.3546847999999954,0.00034375872000075617,1.5748294400000116,0.7901094000000124,0.039999995,0.039999911799999996,-9.805506799999998,-0.0011276699602011239,0.017793126400032753,0.04011691880008052,-0.01650966815651043,0.012584395600024847
0.7425,-0.002510724930008033,-0.7795145479999851,-0.003919110635011857,-2.3546671749999954,0.0003465676575007588,1.5748727300000116,0.7901554500000124,0.039999995,0.03999991135,-9.805494349999996,-0.0009076304733158537,0.017914797550032866,0.0404160191000808,-0.016531328111892802,0.012676696450024933
0.745,-0.0025404610200080594,-0.779459131999985,-0.003963002090011896,-2.3546495499999955,0.0003493765950007613,1.5749160200000116,0.7902015000000125,0.039999995,0.0399999109,-9.805481899999997,-0.0006875909864305933,0.018036468700032976,0.040715119400081067,-0.01655298806727517,0.012768997300025016
0.7475,-0.002570197110008087,-0.7794037159999849,-0.004006893545011937,-2.354631924999995,0.0003521855325007639,1.5749593100000117,0.7902475500000126,0.039999995,0.03999991045,-9.805469449999997,-0.00046755149954532315,0.01815813985003309,0.041014219700081345,-0.01657464802265754,0.012861298150025102
0.75,-0.002599933200008513,-0.7793482999999841,-0.004050785000012564,-2.3546142999999953,0.0003549944700008041,1.5750026000000124,0.7902936000000133,0.039999995,0.03999991,-9.80545699999999,-0.0002475120126550921,0.01827981100003193,0.0413133200000833,-0.01659630797803978,0.01295359900002565
0.7525000000000001,-0.0026311319400085416,-0.7792902589999842,-0.004096832210012607,-2.354595804999995,0.0003579415200008068,1.5750479900000123,0.7903419000000133,0.03999999575,0.03999991,-9.80541814999999,-9.255576813554906e-06,0.01839683665003204,0.04161862145008359,-0.016617492679512312,0.013047605350025736
0.755,-0.0026623306800085695,-0.7792322179999841,-0.004142879420012648,-2.354577309999995,0.0003608885700008095,1.5750933800000124,0.7903902000000133,0.0399999965,0.03999991,-9.80537929999999,0.00022900085902797173,0.018513862300032144,0.04192392290008386,-0.01663867738098485,0.01314161170002582
0.7575000000000001,-0.0026935294200085987,-0.779174176999984,-0.004188926630012691,-2.354558814999995,0.0003638356200008122,1.5751387700000126,0.7904385000000134,0.03999999725,0.03999991,-9.80534044999999,0.0004672572948695089,0.018630887950032253,0.042229224350084145,-0.016659862082457382,0.013235618050025908
0.76,-0.002724728160008626,-0.779116135999984,-0.004234973840012732,-2.354540319999995,0.0003667826700008148,1.5751841600000125,0.7904868000000134,0.039999998,0.03999991,-9.80530159999999,0.0007055137307110356,0.018747913600032355,0.04253452580008441,-0.016681046783929915,0.013329624400025991
0.7625000000000001,-0.0027559269000086554,-0.7790580949999839,-0.004281021050012775,-2.3545218249999946,0.0003697297200008176,1.5752295500000126,0.7905351000000134,0.03999999875,0.03999991,-9.80526274999999,0.0009437701665525728,0.018864939250032464,0.0428398272500847,-0.016702231485402452,0.013423630750026078
0.765,-0.002787125640008683,-0.7790000539999838,-0.004327068260012816,-2.3545033299999947,0.0003726767700008202,1.5752749400000128,0.7905834000000134,0.0399999995,0.03999991,-9.80522389999999,0.0011820266023940993,0.01898196490003257,0.043145128700084974,-0.016723416186874986,0.013517637100026162
0.7675000000000001,-0.0028188213400091285,-0.7789410919999831,-0.004373848010013472,-2.3544844899999946,0.0003756707750008623,1.5753210700000133,0.7906324720000141,0.04,0.03999991,-9.805191549999995,0.0014262823388695625,0.019101711400034957,0.043452473850086965,-0.016744659934198804,0.013612170700026691
0.77,-0.0028515109600091575,-0.778880287999983,-0.004422092840013515,-2.3544649599999943,0.000378758690000865,1.5753686800000133,0.7906830880000142,0.04,0.03999991,-9.805172199999996,0.001682536676597805,0.01922689960003507,0.043763906400087246,-0.016766021773225042,0.013707758800026776
0.7725,-0.0028842005800091865,-0.7788194839999829,-0.004470337670013558,-2.3544454299999944,0.0003818466050008678,1.5754162900000135,0.7907337040000142,0.04,0.03999991,-9.805152849999995,0.0019387910143260478,0.01935208780003518,0.04407533895008752,-0.016787383612251284,0.013803346900026861
0.775,-0.0029168902000092168,-0.7787586799999829,-0.004518582500013603,-2.3544258999999945,0.0003849345200008707,1.5754639000000135,0.7907843200000143,0.04,0.03999991,-9.805133499999995,0.0021950453520543016,0.019477276000035296,0.04438677150008781,-0.016808745451277522,0.01389893500002695
0.7775,-0.0029495798200092458,-0.7786978759999829,-0.004566827330013646,-2.354406369999994,0.0003880224350008734,1.5755115100000134,0.7908349360000143,0.04,0.03999991,-9.805114149999994,0.002451299689782544,0.01960246420003541,0.044698204050088085,-0.01683010729030376,0.013994523100027035
0.78,-0.0029822694400092765,-0.7786370719999828,-0.00461507216001369,-2.3543868399999943,0.0003911103500008763,1.5755591200000134,0.7908855520000143,0.04,0.03999991,-9.805094799999994,0.0027075540275107984,0.019727652400035524,0.04500963660008838,-0.016851469129330002,0.014090111200027126
0.7825,-0.0030149590600093055,-0.7785762679999827,-0.004663316990013733,-2.3543673099999944,0.000394198265000879,1.5756067300000136,0.7909361680000144,0.04,0.03999991,-9.805075449999993,0.002963808365239041,0.019852840600035636,0.045321069150088655,-0.01687283096835624,0.01418569930002721
0.785,-0.0030486612700097696,-0.7785136299999819,-0.004713054080014417,-2.354347259999994,0.0003973818590009229,1.5756558000000143,0.7909883500000151,0.04,0.0399999107,-9.805042099999989,0.003232290409583703,0.019974740500034345,0.04563648980009065,-0.016893846169120052,0.014282392000027773
0.7875,-0.0030828697750098,-0.7784500749999819,-0.004763537300014462,-2.354326949999994,0.00040061329250092574,1.5757056000000143,0.7910413150000152,0.04,0.03999991175,-9.805001749999988,0.003506886307228717,0.020094996250034452,0.04595390450009093,-0.01691468805075287,0.014379637000027859
0.79,-0.003117078280009832,-0.7783865199999818,-0.004814020520014509,-2.354306639999994,0.00040384472600092875,1.5757554000000142,0.7910942800000152,0.04,0.0399999128,-9.804961399999987,0.003781482204873743,0.020215252000034562,0.04627131920009123,-0.01693552993238569,0.01447688200002795
0.7925,-0.0031512867850098623,-0.7783229649999817,-0.004864503740014554,-2.354286329999994,0.00040707615950093164,1.5758052000000144,0.7911472450000152,0.04,0.03999991385,-9.804921049999988,0.004056078102518757,0.02033550775003467,0.04658873390009151,-0.01695637181401851,0.014574127000028036
0.795,-0.003185495290009894,-0.7782594099999817,-0.004914986960014601,-2.354266019999994,0.00041030759300093465,1.5758550000000144,0.7912002100000153,0.04,0.0399999149,-9.804880699999988,0.0043306740001637836,0.020455763500034783,0.046906148600091804,-0.01697721369565133,0.014671372000028127
0.7975,-0.0032197037950099246,-0.7781958549999816,-0.004965470180014647,-2.354245709999994,0.0004135390265009375,1.5759048000000144,0.7912531750000154,0.04,0.03999991595,-9.804840349999989,0.0046052698978087964,0.02057601925003489,0.047223563300092086,-0.016998055577284146,0.014768617000028213
0.8,-0.0032539123000104066,-0.7781322999999807,-0.005015953400015357,-2.3542253999999936,0.00041677046000098306,1.575954600000015,0.7913061400000161,0.04,0.039999917,-9.804799999999998,0.00487986579545916,0.020696275000037696,0.04754097800009408,-0.017018897458917187,0.014865862000028754
0.8025,-0.0032896669450104385,-0.7780659399999806,-0.005068715240015404,-2.3542041599999934,0.00042014794100098606,1.5760066350000153,0.7913614990000162,0.04,0.03999991595,-9.804796399999999,0.005172797665085465,0.02082578995003781,0.04786422770009437,-0.01704050041735798,0.014964651550028841
0.805,-0.0033254215900104717,-0.7779995799999806,-0.005121477080015453,-2.3541829199999937,0.0004235254220009892,1.5760586700000152,0.7914168580000163,0.04,0.0399999149,-9.8047928,0.005465729534711783,0.02095530490003793,0.04818747740009467,-0.017062103375798776,0.015063441100028933
0.8075,-0.0033611762350105037,-0.7779332199999806,-0.0051742389200155,-2.3541616799999936,0.0004269029030009922,1.5761107050000154,0.7914722170000162,0.04,0.03999991385,-9.8047892,0.005758661404338088,0.021084819850038048,0.04851072710009496,-0.01708370633423957,0.01516223065002902
0.81,-0.003396930880010537,-0.7778668599999805,-0.005227000760015549,-2.354140439999994,0.00043028038400099534,1.5761627400000153,0.7915275760000163,0.04,0.0399999128,-9.804785599999999,0.006051593273964406,0.02121433480003817,0.04883397680009526,-0.017105309292680365,0.015261020200029113
0.8125,-0.0034326855250105684,-0.7778004999999805,-0.005279762600015596,-2.3541191999999938,0.00043365786500099835,1.5762147750000155,0.7915829350000164,0.04,0.03999991175,-9.804782,0.0063445251435907115,0.021343849750038283,0.04915722650009555,-0.01712691225112116,0.0153598097500292
0.8150000000000001,-0.003468440170010602,-0.7777341399999803,-0.0053325244400156445,-2.354097959999994,0.0004370353460010015,1.5762668100000155,0.7916382940000164,0.04,0.0399999107,-9.8047784,0.006637457013217029,0.021473364700038404,0.04948047620009585,-0.017148515209561954,0.015458599300029293
0.8175,-0.0035047189450111015,-0.7776668079999794,-0.005386058750016381,-2.3540763849999937,0.0004404623490010487,1.576319610000016,0.7916944530000172,0.04,0.03999991035,-9.804769649999995,0.00693643055865477,0.02160244470003813,0.04980561895009783,-0.017170194350189422,0.01555784920002979
0.8200000000000001,-0.0035420459800111362,-0.7775975319999794,-0.005441138000016432,-2.3540541399999935,0.00044398839600105197,1.5763739400000163,0.7917522120000172,0.04,0.0399999114,-9.804750599999995,0.007247487455699241,0.02173065480003825,0.050134547800098135,-0.017192025855190033,0.015658019800029885
0.8225,-0.0035793730150111692,-0.7775282559999793,-0.005496217250016481,-2.3540318949999937,0.0004475144430010551,1.5764282700000163,0.7918099710000173,0.04,0.03999991245,-9.804731549999994,0.007558544352743697,0.021858864900038365,0.05046347665009843,-0.017213857360190644,0.015758190400029973
0.8250000000000001,-0.003616700050011204,-0.7774589799999793,-0.005551296500016532,-2.3540096499999934,0.0004510404900010584,1.5764826000000163,0.7918677300000173,0.04,0.039999913500000005,-9.804712499999994,0.007869601249788166,0.021987075000038485,0.05079240550009873,-0.017235688865191254,0.015858361000030068
0.8275,-0.0036540270850112374,-0.7773897039999792,-0.005606375750016581,-2.353987404999993,0.0004545665370010615,1.5765369300000163,0.7919254890000174,0.04,0.03999991455,-9.804693449999995,0.008180658146832623,0.022115285100038597,0.051121334350099024,-0.01725752037019186,0.015958531600030156
0.8300000000000001,-0.003691354120011272,-0.7773204279999791,-0.005661455000016633,-2.3539651599999933,0.0004580925840010648,1.5765912600000163,0.7919832480000174,0.04,0.039999915600000005,-9.804674399999994,0.008491715043877093,0.022243495200038717,0.05145026320009933,-0.017279351875192472,0.016058702200030247
0.8325,-0.003728681155011305,-0.7772511519999791,-0.0057165342500166815,-2.353942914999993,0.0004616186310010679,1.5766455900000163,0.7920410070000174,0.04,0.03999991665,-9.804655349999994,0.00880277194092155,0.02237170530003883,0.05177919205009962,-0.017301183380193083,0.01615887280003034
0.835,-0.0037670736100118237,-0.777179943999978,-0.005773183740017446,-2.3539199499999928,0.00046524538200111697,1.576701460000017,0.7921004140000183,0.04,0.039999915500000004,-9.804632899999993,0.009127874672513726,0.022497330100037766,0.05211195420010166,-0.01732303034514844,0.016260113900030914
0.8375,-0.00380599877501186,-0.777107769999978,-0.0058306183500174994,-2.353896624999993,0.0004689224850011204,1.5767581000000173,0.7921606450000184,0.04,0.03999991325,-9.804608749999993,0.009460000321370196,0.022621662250037883,0.05244663300010197,-0.01734488504008116,0.01636189025003101
