rsonawane2002/My_IMU/logs_2/traj_286/clean_286.csv
time,j1,j2,j3,j4,j5,j6,j7,gripper1,gripper2,imu_ax,imu_ay,imu_az,imu_gx,imu_gy,imu_gz,quat_x,quat_y,quat_z,quat_w
387.7833333333093,0.00016700293,-0.785875,4.0107683e-05,-2.3551247,9.29385e-05,1.570997,0.786,0.04,0.04,0.0,-0.0,0.0,2.875329272945135e-08,-0.0011641195053377316,4.421952117202833e-08,0.9999995971961153,0.00020320632366974898,0.0008736418299892524,3.263050917662294e-05
387.79999999997597,0.00016701105,-0.78576016,4.0124738e-05,-2.3552213,9.297744e-05,1.5709941,0.786,0.04,0.04,-0.2919984606964299,-5.565221327959017e-05,0.020128403435415443,-1.7980830751962138e-07,-0.0022383912949280257,-1.3416265359728382e-07,0.9999996850601022,0.0002032009758041964,0.0007665025192305336,3.26028807110627e-05
387.8166666666426,0.00016705657,-0.7856542,4.0211213e-05,-2.35531,9.303684e-05,1.5709913,0.786,0.04,0.04,0.023196970278838158,-0.00013891426559200322,-0.0016027503136673005,-1.9798438744134484e-06,-0.0032272127181489536,-1.6016709401625055e-06,0.9999997558976055,0.0002031519881187511,0.0006677376533962226,3.2564171959515124e-05
387.83333333330927,0.00016720465,-0.78555673,4.0482562e-05,-2.355391,9.315754e-05,1.5709884,0.786,0.04,0.04,0.022394853967466766,-0.0003779241468342099,-0.0014911994607125223,-6.5834635804576055e-06,-0.0041382134481055865,-5.547015084572605e-06,0.9999998123775086,0.00020298594978403184,0.000577049216670875,3.249390121130809e-05
387.8499999999759,0.00016755128,-0.78546685,4.1104744e-05,-2.3554654,9.339603e-05,1.5709856,0.786,0.04,0.04,0.01971842277019853,-0.0007223107261266216,-0.0013628029009282727,-1.4784504869036422e-05,-0.004974578994746004,-1.3038026120958157e-05,0.9999998571907461,0.00020259621080307615,0.0004934835440369163,3.2361309897834097e-05
387.8666666666426,0.00016821989,-0.7853838,4.228896e-05,-2.355533,9.382308e-05,1.5709862,0.7860019,0.04,0.04,0.020429297299040527,-0.0011617241171841674,0.001735545568259944,-2.7268042255091608e-05,-0.005742961220982503,-2.5029736618883295e-05,0.999999891335962,0.00020280008086121868,0.00041853073135223514,3.21281542743785e-05
387.8833333333092,0.00016935878,-0.7853073,4.428711e-05,-2.3555982,9.452575e-05,1.570987,0.7860038,0.04,0.04,0.010906289418977089,-0.0016872298827329008,-0.002582310939480692,-5.2594944942036245e-05,-0.006432398046934978,-4.24002313246304e-05,0.9999999184384033,0.0002024807548962366,0.0003480184970177739,3.174675007533473e-05
387.8999999999759,0.00017113835,-0.7852365,4.738775e-05,-2.3556573,9.5601165e-05,1.5709879,0.78600574,0.04,0.04,0.01690013519308753,-0.0022896354029032606,-0.000412765421242689,-8.227212608598246e-05,-0.007078286520006247,-6.590241841487768e-05,0.9999999390295617,0.00020145086391484574,0.000283526377432014,3.1164334114774105e-05
387.9166666666425,0.00017374853,-0.78517056,5.1911775e-05,-2.3557146,9.7153374e-05,1.5709922,0.78600955,0.04,0.04,0.009704375832320089,-0.002956208568880291,0.0005439571325371872,-0.00011601185853248695,-0.00766654415230872,-9.704696176882305e-05,0.9999999543385372,0.00020045583630409546,0.00022410068522171956,3.0319368928663066e-05
387.9333333333092,0.0001773971,-0.7851092,5.8209098e-05,-2.355766,9.9305435e-05,1.570997,0.7860153,0.04,0.04,0.014949601522507017,-0.0036913212806562157,0.000293506921766884,-0.0001620312914316255,-0.008207147853279955,-0.00013477557774056877,0.9999999652595277,0.00019926786888305477,0.00017006926426283692,2.914970153720947e-05
387.94999999997583,0.00018230728,-0.7850518,6.665528e-05,-2.3558166,0.00010218385,1.5710052,0.7860229,0.04,0.04,0.007065557608387785,-0.004475811675023838,0.0007541114083187139,-0.00021951618899460865,-0.008695962660884602,-0.00018047265613470735,0.9999999728629447,0.00019764276494708646,0.00012021024216830715,2.7585226905619668e-05
387.9666666666425,0.0001887158,-0.78499776,7.764845e-05,-2.3558664,0.00010593378,1.5710138,0.78603244,0.04,0.04,0.0050185237827404805,-0.0053155487237678415,-0.0013225712974795911,-0.00028770166627653504,-0.009143324099508946,-0.0002338476198621331,0.9999999779659695,0.00019532136172459975,7.255668994440551e-05,2.555685932200539e-05
387.98333333330913,0.00019687167,-0.78494656,9.160667e-05,-2.355915,0.00011068823,1.5710262,0.78604424,0.039999995,0.039999995,0.006396920017293084,-0.006184445974568225,0.0017386842343869446,-0.00036506111304430327,-0.009569451219757101,-0.00029690986272301313,0.999999980847699,0.00019221018694816732,2.883717047606431e-05,2.2983980129389955e-05
387.9999999999758,0.0002070343,-0.7848977,0.00010896544,-2.3559618,0.000116578056,1.5710424,0.7860595,0.039999988,0.039999995,0.0070184275305473776,-0.00708350412505488,0.0023645812192274462,-0.0004526177097028707,-0.009955269125650973,-0.00037076445905496585,0.9999999819564092,0.0001886215618550701,-1.0858879815585532e-05,1.97780766302217e-05
388.01666666664244,0.00021947196,-0.7848507,0.0001301748,-2.3560083,0.00012377015,1.5710624,0.7860779,0.039999984,0.039999995,0.003720321498867918,-0.008035758811972089,0.0018529863783367517,-0.0005542292290432378,-0.010301120697133645,-0.000453335795140631,0.9999999817936623,0.000184113305661234,-4.7574492159705265e-05,1.586295137992625e-05
388.0333333333091,0.00023446063,-0.7848054,0.00015569777,-2.3560553,0.00013242659,1.5710863,0.7861,0.039999984,0.03999999,0.0022405102763078943,-0.009008437524521082,0.001666718970039227,-0.0006672875897058188,-0.010618144768616366,-0.0005439841706577085,0.9999999806403228,0.00017862217656969325,-8.178644909709136e-05,1.1155663015280555e-05
388.04999999997574,0.00025228306,-0.7847613,0.0001860083,-2.3561049,0.00014269598,1.5711153,0.78612614,0.039999977,0.039999988,-0.001518389554289179,-0.009991147400835768,0.0019493712176466005,-0.0007920468899878454,-0.010907053516430492,-0.0006463446788953079,0.9999999786639908,0.00017207782770162425,-0.00011415032686166321,5.56255110075562e-06
388.0666666666424,0.00027322726,-0.7847178,0.0002215891,-2.3561547,0.00015474747,1.5711504,0.786157,0.03999997,0.039999984,0.002212405269386153,-0.011007044771891971,0.004154674501233302,-0.0009291814874785138,-0.011176216704943134,-0.0007588661210236298,0.9999999762171692,0.00016446349849842147,-0.0001432355246080257,-1.0016796985628199e-06
388.08333333330904,0.0002975856,-0.7846745,0.0002629304,-2.3562052,0.00016874722,1.5711901,0.7861926,0.03999996,0.039999977,0.00047700819894025415,-0.012032748151963491,0.0028968086563496698,-0.0010797747432772517,-0.011412360017229891,-0.0008808489587141164,0.9999999733789584,0.0001554597161472122,-0.0001702936263270722,-8.62787134292797e-06
388.0999999999757,0.00032565414,-0.78463113,0.0003105283,-2.3562567,0.00018486197,1.5712367,0.78623366,0.039999958,0.039999977,0.00042967569502394554,-0.01307134661334725,0.004765813360552151,-0.0012420638745539699,-0.011625266322681294,-0.0010141156984773613,0.9999999704154644,0.00014513050867585628,-0.00019443042248959888,-1.7407370168970588e-05
388.11666666664235,0.00035773122,-0.7845874,0.0003648831,-2.356314,0.00020326176,1.5712899,0.7862807,0.039999958,0.039999977,-0.008051216687943175,-0.01411594209978744,0.00248621968672591,-0.001417461905118256,-0.011807499966615589,-0.0011570455085041036,0.9999999668938631,0.00013338878747532517,-0.00021832794906637235,-2.7433751963084597e-05
388.133333333309,0.00039411773,-0.78454274,0.00042649818,-2.3563726,0.00022411629,1.5713503,0.786334,0.03999995,0.03999997,-0.0011281383809125245,-0.015172826826924278,0.00524576317584291,-0.0016067482988404848,-0.011984807546335649,-0.0013105134080835129,0.9999999633005388,0.00012005478319550092,-0.0002397508260473355,-3.879834486468311e-05
388.14999999997565,0.000435115,-0.784497,0.00049587927,-2.3564374,0.0002475953,1.5714184,0.7863939,0.03999995,0.039999977,-0.00931744898755582,-0.016226359170885267,0.0034617297594463636,-0.001808948559047287,-0.012133616603397521,-0.0014763003844441693,0.9999999590998181,0.00010497854603449386,-0.0002609935847571969,-5.159666472837164e-05
388.1666666666423,0.00048102534,-0.7844499,0.0005735328,-2.3565037,0.00027387225,1.5714945,0.78646094,0.03999995,0.039999977,-0.0015005515368260447,-0.01729257579554303,0.006066963319528718,-0.002023582658057975,-0.012277455409547892,-0.0016509331389626186,0.9999999548386294,8.80975724372715e-05,-0.0002796717449256471,-6.591867848041385e-05
388.18333333330895,0.0005321508,-0.7844009,0.000659965,-2.3565772,0.00030311628,1.571579,0.7865356,0.039999958,0.039999988,-0.011537192341481983,-0.01834526485583526,0.004072771605767578,-0.0022517090579192373,-0.012393128272257758,-0.0018370074838533295,0.9999999496608506,6.93213091296972e-05,-0.0002986161751583838,-8.186105427467282e-05
388.1999999999756,0.00058879284,-0.7843498,0.0007556809,-2.356654,0.00033549897,1.5716733,0.7866183,0.03999996,0.039999995,-0.00490835599604722,-0.019408432417856482,0.006889946700172622,-0.0024927093664348313,-0.012507269466428692,-0.0020335832724068673,0.9999999441393388,4.849876465668609e-05,-0.0003153826826029949,-9.951358117040438e-05
388.21666666664225,0.0006512518,-0.7842962,0.00086118415,-2.3567357,0.00037119503,1.5717767,0.78670937,0.039999966,0.04,-0.008398841448920003,-0.02046359715035676,0.005916064505684382,-0.002746963104500624,-0.012595504166135137,-0.0022397962725721494,0.9999999377141545,2.551085912942709e-05,-0.0003313119030659209,-0.00011896766720050174
388.2333333333089,0.0007198268,-0.7842399,0.0009769757,-2.3568246,0.00041038517,1.5718907,0.7868093,0.03999997,0.04,-0.011899293805694988,-0.02151862097266844,0.00604464494677881,-0.0030134480240592626,-0.012671890768770042,-0.002455651764567227,0.999999929972907,2.7011381233107885e-07,-0.00034693973967928223,-0.00014031010350569362
388.24999999997556,0.00079481484,-0.78418064,0.0011035533,-2.356921,0.00045321955,1.5720152,0.7869186,0.03999997,0.04,-0.012508537069533254,-0.022546168034177985,0.006018568668242352,-0.0032930037748342645,-0.01274054162661316,-0.002683483103773564,0.9999999205432464,-2.7338948562259997e-05,-0.0003624741735813949,-0.00016364154790501464
388.2666666666422,0.0008765106,-0.7841181,0.0012414112,-2.357025,0.00049987243,1.5721508,0.78703755,0.039999966,0.04,-0.013090231690804366,-0.023585140633446324,0.006623776864000952,-0.003585046102058213,-0.012803348590009877,-0.0029207310845800437,0.9999999090940788,-5.742915893489801e-05,-0.000377854895230769,-0.00018904868207646468
388.28333333330886,0.0009652059,-0.7840522,0.0013910384,-2.3571362,0.0005504867,1.572298,0.7871668,0.03999996,0.04,-0.012712014385130033,-0.024592724132286095,0.007040362124688393,-0.003889776911302212,-0.012859921243313581,-0.0031703745909579585,0.9999998953180784,-9.005079847767612e-05,-0.0003928426486272098,-0.00021663180544534636
388.2999999999755,0.0010611893,-0.7839825,0.0015529197,-2.3572552,0.0006052585,1.5724572,0.7873065,0.039999958,0.04,-0.013408833181394186,-0.025630381120439125,0.007373140548705415,-0.004207058865536394,-0.012908429923773217,-0.003426805273866873,0.999999878714542,-0.00012539968900459312,-0.0004075557805189362,-0.0002464631923895157
388.31666666664216,0.0011647476,-0.7839088,0.0017275343,-2.357382,0.00066431664,1.5726293,0.78745717,0.039999954,0.04,-0.013814710792514617,-0.026610527927257033,0.008202134293955332,-0.0045362257818703875,-0.01294765987196652,-0.0036961911159279722,0.9999998588779521,-0.00016354966147643708,-0.0004217250134506769,-0.00027864600711134457
388.3333333333088,0.0012761618,-0.7838308,0.0019153553,-2.3575165,0.000727839,1.5728141,0.7876193,0.039999947,0.04,-0.013731906036262842,-0.027612920853641726,0.008109613516715797,-0.00487761914473059,-0.012977293621646822,-0.0039736006601615,0.9999998351812285,-0.00020456946691120364,-0.00043549822847733556,-0.0003132573097201811
388.34999999997547,0.0013957117,-0.78374815,0.0021168496,-2.3576589,0.00079599256,1.5730126,0.7877932,0.039999943,0.04,-0.014338185509488177,-0.028600661492776507,0.009032005586440128,-0.0052307623257617075,-0.012997702153976767,-0.004259733649224026,0.9999998070572512,-0.00024858479636882824,-0.0004486953659205705,-0.0003503762664192744
388.3666666666421,0.0015236709,-0.7836611,0.0023324776,-2.3578098,0.00086893205,1.5732251,0.78797925,0.03999994,0.039999995,-0.015058864651851245,-0.029560516444026696,0.008731542664297542,-0.005595948574214827,-0.013007654141828718,-0.004555237299993236,0.9999997737779178,-0.0002957449581496736,-0.0004613150480709642,-0.0003900864767469894
388.38333333330877,0.0016603101,-0.7835689,0.0025626929,-2.3579688,0.00094680325,1.5734518,0.7881779,0.039999932,0.03999999,-0.015187447650899522,-0.03050768732136699,0.009370672216379994,-0.0059720930605042626,-0.013004994138193367,-0.0048607049497700235,0.9999997344812916,-0.00034607715461825415,-0.0004735345145379337,-0.0004324731354354851
388.3999999999754,0.0018058955,-0.7834719,0.0028079427,-2.358138,0.0010297395,1.5736933,0.7883897,0.039999932,0.04,-0.018191549382873262,-0.031422120767136824,0.008767708646706396,-0.0063597522305554165,-0.012993900688767148,-0.005176714187646023,0.9999996880684011,-0.00039963188591331375,-0.00048582885134057583,-0.0004776272431448983
388.4166666666421,0.0019606892,-0.7833696,0.0030686646,-2.3583193,0.0011179,1.57395,0.78861463,0.039999925,0.04,-0.021395699308257576,-0.03233868787182667,0.00845365975321588,-0.006759101748767565,-0.012978880571508648,-0.0055006973280903974,0.9999996330583452,-0.0004566626662441101,-0.0004990605542762313,-0.0005256243405219612
388.4333333333087,0.0021249477,-0.7832618,0.003345291,-2.3585093,0.0012114554,1.5742224,0.78885335,0.03999992,0.039999995,-0.016365123905015544,-0.03327726823663356,0.010232657886821706,-0.007168811317066407,-0.012964924239331023,-0.005830751607041967,0.999999569194224,-0.000517153811199498,-0.0005116480865772686,-0.0005765236659429628
388.4499999999754,0.0022989234,-0.78314817,0.0036382447,-2.35871,0.0013105223,1.5745108,0.7891062,0.039999913,0.039999995,-0.019780061114227365,-0.034133709588717726,0.009699731439249959,-0.007589041895962637,-0.012940184937348706,-0.006171683820266241,0.9999994948494626,-0.0005811996109211864,-0.0005244832661246973,-0.0006304166364536916
388.466666666642,0.0024828631,-0.78302854,0.0039479416,-2.3589227,0.0014152259,1.5748159,0.78937346,0.03999991,0.04,-0.02186855078643024,-0.03498484123444605,0.009750467012392683,-0.008020242127254737,-0.012911552965949546,-0.006522445969614435,0.999999408522493,-0.0006489189843413235,-0.000537921314445253,-0.0006873859726343855
388.4833333333087,0.0026770108,-0.7829031,0.0042747892,-2.3591459,0.0015257555,1.5751376,0.7896554,0.039999913,0.04,-0.019264817536823742,-0.0358856074423956,0.010222087596978291,-0.008461266012730236,-0.012882406569432212,-0.006876095833450051,0.9999993092244291,-0.000720458460242568,-0.0005511551638373556,-0.0007474745861314652
388.49999999997533,0.0028816047,-0.7827715,0.004619186,-2.359381,0.0016422359,1.5754765,0.7899526,0.039999906,0.03999999,-0.02183787416318861,-0.03670306222337081,0.009974078458352409,-0.008911721976887731,-0.012845216584623802,-0.007238608956321875,0.9999991952164348,-0.0007957768072464586,-0.000564777979823897,-0.0008107598838478514
388.516666666642,0.003096876,-0.7826329,0.004981522,-2.359628,0.0017647626,1.5758332,0.79026514,0.0399999,0.039999995,-0.02280275128518916,-0.03749412882888721,0.01089286929016886,-0.009372572973996837,-0.01280561077151129,-0.007611778911082733,0.9999990646583773,-0.0008750669010738149,-0.0005789953903923263,-0.0008773281183141547
388.53333333330863,0.0033230528,-0.78248805,0.00536218,-2.3598871,0.0018934758,1.5762078,0.7905935,0.0399999,0.04,-0.022211818794648508,-0.03829783440868484,0.010273670887817055,-0.009842325004720553,-0.012765199046925971,-0.007991396605707949,0.9999989160627831,-0.000958366637585672,-0.0005934167603921103,-0.0009472397769990892
388.5499999999753,0.0035603568,-0.78233624,0.005761531,-2.3601584,0.0020285272,1.5766009,0.7909381,0.0399999,0.04,-0.022879413433818385,-0.03909802548853203,0.011134004107482554,-0.010321145531046367,-0.012721252891888475,-0.008375754751863215,0.9999987476174446,-0.0010457078268418377,-0.0006080685142136974,-0.0010205446415450352
388.56666666664194,0.003809006,-0.78217787,0.006179941,-2.360443,0.002170032,1.5770127,0.79129887,0.039999895,0.039999995,-0.024480527736958635,-0.039840961677692875,0.010241604239680235,-0.010809685874943634,-0.012672963959838919,-0.008767855516111138,0.9999985569246216,-0.00113732425219365,-0.0006233345629692844,-0.0010973131924862552
388.5833333333086,0.0040692114,-0.7820121,0.006617764,-2.3607402,0.0023180987,1.5774436,0.7916766,0.03999989,0.039999995,-0.023635493410445463,-0.04058780283866369,0.011467729803560367,-0.01130563985584165,-0.012624539445477818,-0.009167356341894261,0.9999983422978561,-0.0012330890166808816,-0.0006388531645812561,-0.0011776075962205777
388.59999999997524,0.0043411795,-0.7818394,0.0070753484,-2.3610501,0.0024728375,1.5778941,0.7920713,0.039999887,0.04,-0.023912159233496766,-0.041302937490630375,0.011155099064064089,-0.01181104374319308,-0.012570833950680035,-0.00957404030962931,0.9999981014486444,-0.0013331950476138475,-0.0006544712777510773,-0.0012614901578965566
388.6166666666419,0.0046251114,-0.7816593,0.0075530303,-2.3613741,0.002634356,1.5783644,0.7924834,0.03999988,0.04,-0.02630519530320008,-0.04198695618200424,0.010847016841930568,-0.012324363344757238,-0.012513284136621037,-0.009987639514348633,0.999997831634158,-0.0014376484241201638,-0.0006708400460542664,-0.0013490246934559226
388.63333333330854,0.0049212025,-0.78147185,0.008051138,-2.3617122,0.002802774,1.5788548,0.79291296,0.039999876,0.04,-0.026305438042828477,-0.04267850813210461,0.01100086131449185,-0.01284568131057669,-0.012456274054740871,-0.010406290930563564,0.9999975302502955,-0.0015466302943941605,-0.0006878060037783672,-0.0014402607204599726
388.6499999999752,0.005229643,-0.78127664,0.008569994,-2.362064,0.002978224,1.5793656,0.7933604,0.03999987,0.039999995,-0.025865843812811207,-0.04337195914548182,0.011443428972413017,-0.013374373676035868,-0.012398694269921923,-0.010828296604375513,0.9999971948463634,-0.0016601385943620908,-0.0007051854759045383,-0.0015352370162945899
388.66666666664185,0.0055506183,-0.7810738,0.009109907,-2.3624296,0.003160776,1.5798972,0.79382604,0.03999986,0.04,-0.026483678847344372,-0.04398628024691112,0.011262313538762392,-0.01391023291792651,-0.012338130666564626,-0.011258939984471316,0.9999968225989534,-0.0017782223131369724,-0.0007229731103208263,-0.0016340218125981524
388.6833333333085,0.0058843093,-0.7808629,0.009671177,-2.3628097,0.0033505363,1.5804496,0.79431003,0.039999854,0.04,-0.027370100736834324,-0.0446129858298526,0.01130114564449336,-0.014453604978934286,-0.012275541623472656,-0.011694685566559615,0.9999964102628522,-0.0019009847993762105,-0.0007414317607968734,-0.0017366626459447763
388.69999999997515,0.00623089,-0.78064424,0.010254097,-2.3632045,0.003547617,1.5810233,0.79481274,0.039999854,0.04,-0.02782364463327358,-0.04522455824213685,0.011123430522474997,-0.015003293390595456,-0.012214100397427735,-0.012133807492173044,0.9999959548975491,-0.002028432791214777,-0.0007604364734705333,-0.0018431997504811954
388.7166666666418,0.0065905256,-0.78041744,0.010858952,-2.3636136,0.0037521347,1.5816187,0.7953344,0.039999846,0.039999995,-0.027328951504812515,-0.045835799632092805,0.011498454433001015,-0.01555993000476701,-0.01215018119992602,-0.01257615274289598,0.9999954534083927,-0.0021606279009179856,-0.0007797727846167539,-0.001953664255001561
388.73333333330845,0.0069633853,-0.7801825,0.011486016,-2.3640378,0.0039641378,1.5822359,0.79587525,0.03999984,0.04,-0.028562583038538314,-0.04636647217754336,0.011267570617734535,-0.016123361639970555,-0.012084775422380723,-0.013026944680365918,0.9999949021612153,-0.002297626742126866,-0.00079964273157879,-0.0020681234095102133
388.7499999999751,0.00734962,-0.7799391,0.012135551,-2.3644767,0.0041837394,1.5828754,0.7964354,0.039999828,0.039999995,-0.02841320853896878,-0.04692809836222382,0.011480107432082498,-0.016692817614187498,-0.012017159071137831,-0.013479530733608825,0.9999942975699069,-0.0024395344562880934,-0.0008199208135058324,-0.0021866021963120805
388.76666666664175,0.007749387,-0.7796874,0.012807815,-2.3649313,0.0044110115,1.5835372,0.79701513,0.039999824,0.04,-0.02996384877818059,-0.0474329140182448,0.010961850905188975,-0.017267971985072933,-0.011947989447061134,-0.013937779226662266,0.9999936355914191,-0.0025863940390104777,-0.0008409278232635259,-0.0023091519930795042
388.7833333333084,0.008162834,-0.7794272,0.013503056,-2.3654017,0.004646075,1.5842215,0.79761463,0.039999824,0.04,-0.030235369492292996,-0.0479678021292014,0.010831108339015572,-0.01784855934284115,-0.011879081688179333,-0.01439661408413357,0.9999929122826764,-0.0027382423937441407,-0.0008627462299730217,-0.002435791852249529
388.79999999997506,0.008590099,-0.7791584,0.014221513,-2.3658876,0.0048889806,1.5849286,0.79823416,0.039999817,0.04,-0.02975421230499986,-0.048443163189004074,0.011061261859457439,-0.018434185062863345,-0.011812813585932478,-0.01486134626635298,0.9999921238814399,-0.002895110816870822,-0.0008850107303359877,-0.0025665666662390077
388.8166666666417,0.009031322,-0.7788809,0.014963413,-2.3663888,0.0051397975,1.5856586,0.79887396,0.03999981,0.04,-0.029729482229212678,-0.04890932247977875,0.010968630572016913,-0.01902501302935817,-0.011744480144613316,-0.01533019442342832,0.999991266150658,-0.00305702510600064,-0.0009077730388306729,-0.002701512171939324
388.83333333330836,0.009486629,-0.77859473,0.015728977,-2.3669055,0.005398621,1.5864122,0.7995341,0.039999805,0.04,-0.02978266166646648,-0.04937903534106003,0.0112460297482464,-0.01962077424535976,-0.011674686108524547,-0.01580040059955957,0.9999903349304219,-0.0032240918737316488,-0.0009306082481903391,-0.0028406417621390863
388.849999999975,0.009956148,-0.7782997,0.016518416,-2.3674388,0.005665516,1.5871891,0.80021507,0.039999794,0.039999995,-0.03231252453426148,-0.04976461216748343,0.01018977987727876,-0.020220806225595744,-0.011600828538049598,-0.01627363933578716,0.9999893253225208,-0.0033961708257110685,-0.0009544609426401327,-0.00298400218514673
388.86666666664166,0.010440002,-0.77799565,0.017331932,-2.3679886,0.005940557,1.5879897,0.8009166,0.039999794,0.04,-0.03197654197648614,-0.05018912764247485,0.010443207547128353,-0.020826381135549493,-0.011529673604500065,-0.016749328075397918,0.9999882321044847,-0.003573537949462946,-0.0009790251923915176,-0.0031316112057322067
388.8833333333083,0.010938305,-0.77768266,0.018169725,-2.3685548,0.0062238155,1.5888144,0.8016388,0.039999794,0.04,-0.03188763064159161,-0.050596115934929686,0.010387832433433886,-0.02143515311895522,-0.011460930626598621,-0.017226624151809592,0.999987050330186,-0.0037562861488423392,-0.0010040836762010112,-0.003283489344165796
388.89999999997497,0.01145117,-0.7773604,0.019031966,-2.3691373,0.0065153274,1.5896631,0.802382,0.03999979,0.04,-0.03197355049222583,-0.05093841028098456,0.010397022216768192,-0.022046376721909802,-0.011391189251132285,-0.017708384890648025,0.9999857752997444,-0.003944317866486799,-0.0010296861405739328,-0.0034396658542490866
388.9166666666416,0.011978699,-0.7770292,0.019918846,-2.369736,0.006815172,1.590536,0.80314666,0.039999787,0.04,-0.0316037135677405,-0.05131636651136626,0.009861892601747968,-0.02266077733177537,-0.011320987020148394,-0.01819050847725214,0.9999844025555235,-0.004137536365970708,-0.0010556140444742117,-0.003600155202500142
388.93333333330827,0.012520992,-0.7766888,0.020830527,-2.3703518,0.0071234116,1.5914333,0.80393285,0.039999787,0.04,-0.0336138437066813,-0.05161809844280649,0.009546072972699271,-0.023279511970536786,-0.011249570484544842,-0.01867347461745911,0.9999829261152914,-0.004336007967319795,-0.0010823344064825554,-0.0037649787568383255
388.9499999999749,0.013078141,-0.7763392,0.021767166,-2.3709848,0.007440093,1.5923551,0.80474055,0.039999772,0.04,-0.03367824666784536,-0.05191482613717824,0.009303000997951116,-0.02390167939346964,-0.01117924561806631,-0.01915963532848651,0.9999813402235829,-0.004539826110424307,-0.0011097775716100095,-0.00393415521751199
388.9666666666416,0.013650237,-0.77598006,0.022728907,-2.3716347,0.007765247,1.5933015,0.8055698,0.039999772,0.04,-0.03364332469872888,-0.05219466716728932,0.009204122150241467,-0.024526946347238322,-0.011111646223757377,-0.019646765803965564,0.9999796389756488,-0.0047490520703684395,-0.0011379329568655112,-0.004107705825617253
388.9833333333082,0.014237367,-0.77561164,0.023715898,-2.3723009,0.008098937,1.5942729,0.80642086,0.03999976,0.04,-0.032219301501168474,-0.05252261230488525,0.009368362121464635,-0.025154264011182537,-0.011044855666220925,-0.020134860185480698,0.9999778173978898,-0.0049636888432231414,-0.001166164121548626,-0.004285623229096004
388.9999999999749,0.014839608,-0.7752338,0.024728274,-2.3729844,0.008441197,1.5952694,0.8072939,0.039999757,0.04,-0.03438178503920586,-0.05272380952793601,0.008761821089464661,-0.025783448273242734,-0.010975245877173467,-0.020623711142878018,0.9999758692384881,-0.005183689120105795,-0.0011949361917313038,-0.004467934123712155
389.0166666666415,0.015457039,-0.77484643,0.02576616,-2.3736851,0.008792096,1.5962911,0.80818886,0.039999742,0.04,-0.034297415128947684,-0.052982419663848146,0.008388808487858057,-0.026415328287473658,-0.010905744514389089,-0.021113169017071044,0.9999737878913649,-0.005409158402405614,-0.0012242980309381682,-0.004654635313822327
389.0333333333082,0.016089723,-0.77444947,0.026829666,-2.3744035,0.009151639,1.5973377,0.8091058,0.039999746,0.04,-0.03529252766791835,-0.05312810445409211,0.007805769842494925,-0.02704887295939823,-0.010837523901915842,-0.021602112259230505,0.9999715665238975,-0.005640125626610235,-0.0012545056975098424,-0.004845755061228993
389.04999999997483,0.01673772,-0.77404284,0.027918903,-2.3751388,0.009519892,1.5984097,0.81004494,0.039999735,0.04,-0.034183728874537245,-0.05338150211716963,0.007969116475314841,-0.02768325343501757,-0.010771850668187526,-0.02209179727194202,0.999969199540751,-0.005876567955816702,-0.0012851005433356193,-0.005041273200674139
389.0666666666415,0.017401095,-0.77362657,0.029033974,-2.3758914,0.009896872,1.5995071,0.8110064,0.039999727,0.04,-0.035042568864662726,-0.053530555173204875,0.0075101630550467036,-0.028318909618680804,-0.010707087626549684,-0.022581427786049508,0.9999666804318682,-0.006118451891271956,-0.0013161889223940995,-0.005241203988087687
389.08333333330813,0.01807991,-0.77320063,0.030174976,-2.376662,0.010282613,1.6006299,0.8119902,0.039999723,0.04,-0.036017040246649756,-0.053668788018462754,0.006770872591199684,-0.028956088935169752,-0.010641570417321791,-0.023070824759284576,0.9999640015855331,-0.006365859182277059,-0.0013480564065926034,-0.005445559093795245
389.0999999999748,0.018774208,-0.772765,0.031341977,-2.37745,0.010677141,1.6017784,0.8129964,0.039999716,0.04,-0.03532123246305918,-0.05380175899576678,0.006790569940551272,-0.029593571538117057,-0.010580589049777211,-0.02355945495788256,0.9999611568029658,-0.006618769752113693,-0.001380362420307527,-0.00565432328678354
389.11666666664144,0.01948403,-0.7723198,0.032535058,-2.3782551,0.011080489,1.6029524,0.814025,0.039999705,0.04,-0.034879161288392524,-0.05393005733521916,0.006291912646494424,-0.0302316750994778,-0.010519035417243784,-0.024047334624318815,0.9999581391008946,-0.006877224302503064,-0.00141294517613461,-0.00586748819327262
389.1333333333081,0.020209422,-0.77186495,0.033754297,-2.3790784,0.011492674,1.6041522,0.8150761,0.0399997,0.04,-0.03665823538283597,-0.0539941359902138,0.005703347873975417,-0.030869792309392692,-0.010458208664477088,-0.024534383799719152,0.99995494094264,-0.0071411969078839605,-0.0014461482861608166,-0.006085067481840635
389.14999999997474,0.020950416,-0.7714003,0.034999754,-2.379919,0.011913723,1.6053778,0.8161498,0.03999969,0.04,-0.03580940173426583,-0.05410489680994224,0.005608385736022292,-0.03150789447717269,-0.01039845829869436,-0.025020125066911078,0.9999515552161454,-0.00741071987190274,-0.0014797499395579079,-0.00630704304000318
389.1666666666414,0.021707047,-0.77092576,0.036271445,-2.3807771,0.012343633,1.606629,0.81724614,0.039999686,0.04,-0.035980026744186766,-0.05410020857201936,0.005059037156196489,-0.03214549624786836,-0.010339673360268115,-0.025504457899212286,0.9999479750446705,-0.007685715820657517,-0.001513795197958139,-0.006533406499364869
389.18333333330804,0.022479344,-0.7704413,0.037569452,-2.3816535,0.0127824405,1.6079062,0.81836516,0.03999968,0.04,-0.03776796438252905,-0.05414740666244283,0.004431837058738175,-0.03278296140175607,-0.01028194587310316,-0.02598734161698841,0.9999441918789627,-0.007966239453463295,-0.0015486275909179972,-0.006764163590792644
389.1999999999747,0.023267314,-0.7699472,0.03889379,-2.3825476,0.013230156,1.6092093,0.8195068,0.03999968,0.04,-0.036386671211685595,-0.05415352520169309,0.0040660843210416076,-0.033419698975219195,-0.010228775317087865,-0.026467399963588302,0.9999401988767163,-0.00825229241551516,-0.001583786233991049,-0.006999282923767722
389.21666666664134,0.02407099,-0.76944333,0.04024451,-2.3834596,0.013686794,1.6105381,0.8206713,0.039999668,0.04,-0.037039297724517084,-0.054172902820665,0.0033933086886372976,-0.034055303882278204,-0.010176263072610117,-0.026946537017123684,0.9999359884417858,-0.008543806027077312,-0.0016194641785229255,-0.0072387660063824915
389.233333333308,0.024890376,-0.76892966,0.041621614,-2.3843887,0.01415235,1.6118932,0.82185847,0.039999664,0.04,-0.035944086791772634,-0.054185819744757835,0.0036743429185248644,-0.03469039251115581,-0.010125496193733055,-0.027423301511631616,0.9999315530146006,-0.008840871526270317,-0.0016551113560896592,-0.007482571941777204
389.24999999997465,0.02572548,-0.7684061,0.043025117,-2.385336,0.014626842,1.6132742,0.8230684,0.03999965,0.04,-0.03785813507923841,-0.05406210244901233,0.0025338349848302855,-0.035323489915388084,-0.010071909530081108,-0.027898102989326747,0.9999268841237968,-0.009143412844019157,-0.0016913377259233893,-0.007730704025871766
389.2666666666413,0.026576314,-0.76787263,0.044455018,-2.3863013,0.015110249,1.6146814,0.8243011,0.03999964,0.04,-0.03796555205775043,-0.05398489751660268,0.00210275727889897,-0.035955250632064395,-0.010022377896251336,-0.02837033171286695,0.9999219740576062,-0.00945139469838759,-0.0017280676036886414,-0.007983152093767853
389.28333333330795,0.027442861,-0.76732934,0.04591133,-2.3872843,0.015602566,1.6161144,0.8255566,0.039999638,0.04,-0.037305652497154895,-0.053923053166411716,0.0016118614824867095,-0.03658550776283541,-0.009975502470499886,-0.02884040632870502,0.999916814432899,-0.009764865034577875,-0.0017651368662959255,-0.008239897879396805
389.2999999999746,0.02832513,-0.7667764,0.047394034,-2.3882847,0.016103819,1.6175742,0.8268348,0.039999638,0.04,-0.03654397572929735,-0.053903208969026395,0.0018202114727472463,-0.03721362999521362,-0.009930331403453438,-0.029306765217780355,0.9999113990248208,-0.010083782332044952,-0.0018018456176727075,-0.008500869748183364
389.31666666664125,0.029223105,-0.76621336,0.04890311,-2.3893032,0.016614005,1.6190585,0.82813567,0.039999627,0.04,-0.03913423931192206,-0.053599129886350294,-0.0006558665294864596,-0.037839725778429784,-0.009880007242293404,-0.029769994912178313,0.9999057154438525,-0.010408164030451614,-0.001839934568830156,-0.008766127138880957
389.3333333333079,0.030136772,-0.7656406,0.050438557,-2.3903394,0.017133113,1.6205686,0.82945925,0.039999623,0.04,-0.03761625425626747,-0.05357369389356326,-7.52489406785628e-05,-0.03846277858012956,-0.009841295027773686,-0.030229303788293367,0.9998997580437144,-0.010737965920181697,-0.0018782558862841664,-0.009035602184900815
389.34999999997456,0.031066116,-0.76505804,0.052000333,-2.391394,0.01766112,1.6221056,0.8308056,0.03999962,0.04,-0.038824792461578106,-0.05338366001135797,-0.00023447542567556212,-0.03908331897214164,-0.009802919609697702,-0.030686277861721054,0.9998935191687591,-0.011073120289807703,-0.0019167330214983891,-0.009309267741673437
389.3666666666412,0.032011114,-0.7644657,0.05358837,-2.3924658,0.018198028,1.623668,0.8321745,0.039999608,0.04,-0.03772517241176221,-0.0531827780076391,-0.0013950140153040635,-0.039701634969918104,-0.009767095257229769,-0.03113960540938944,0.9998869890469074,-0.011413701600942119,-0.0019555595249195214,-0.00958709222958801
389.38333333330786,0.03297173,-0.7638637,0.055202655,-2.3935552,0.018743802,1.6252565,0.8335661,0.039999597,0.04,-0.03748065503101916,-0.05303108002272794,-0.0014011398241642326,-0.04031597983163557,-0.009731329150427848,-0.031589376056029114,0.999880161775999,-0.011759555385190421,-0.0019942406347187424,-0.009869039884175135
389.3999999999745,0.033947952,-0.7632517,0.05684314,-2.3946629,0.019298421,1.6268706,0.83498025,0.03999959,0.04,-0.03982552470804812,-0.052702601175592945,-0.0028687550541084406,-0.04092797560883492,-0.009695154677483733,-0.032036423644671845,0.9998730249634776,-0.012110781053788208,-0.0020337421774551056,-0.01015513788226273
389.41666666664116,0.03493973,-0.76263005,0.058509745,-2.3957882,0.01986188,1.6285106,0.83641696,0.039999586,0.04,-0.03837132959612077,-0.052511717152067816,-0.002924535777548698,-0.0415361753861955,-0.009667008599244492,-0.03247796659577531,0.9998655729997838,-0.012467258509743057,-0.0020733925769172877,-0.010445306998226435
389.4333333333078,0.035947036,-0.7619987,0.06020242,-2.3969305,0.020434167,1.630176,0.8378762,0.03999957,0.04,-0.03738240128488002,-0.052338733013729266,-0.003519547666908096,-0.04214110037926158,-0.00963856772066081,-0.032915793259897665,0.9998577975838701,-0.012828980920223453,-0.002113026274299046,-0.010739505540083977
389.44999999997447,0.03696983,-0.7613577,0.06192109,-2.3980906,0.02101523,1.631867,0.83935773,0.03999956,0.04,-0.0390523994894032,-0.051949460234143596,-0.004350981593814751,-0.042742189298360087,-0.009611405612199184,-0.03335086861722578,0.9998496883120739,-0.013195991721268549,-0.0021529234031501137,-0.011037730996953165
389.4666666666411,0.03800804,-0.760707,0.06366568,-2.3992684,0.021605046,1.6335837,0.84086144,0.039999552,0.04,-0.038939310660501825,-0.051641667564392146,-0.004970226765155239,-0.04333886437921468,-0.009585658276266534,-0.03378072143411345,0.9998412362537267,-0.01356827762673641,-0.0021930969096129547,-0.011339949506434339
389.48333333330777,0.039061632,-0.76004666,0.06543608,-2.4004629,0.02220362,1.6353256,0.8423873,0.03999954,0.04,-0.03746501054011642,-0.05142436428749453,-0.005266584356622417,-0.043930529055924955,-0.00956473463935728,-0.034204107894947315,0.9998324346647169,-0.01394577571994142,-0.0022331442417422164,-0.011646072247288265
389.4999999999744,0.04013055,-0.7593768,0.06723223,-2.4016752,0.022810848,1.6370928,0.84393555,0.039999522,0.04,-0.03941390849673265,-0.05093069303459263,-0.006511128245367814,-0.04451749945513356,-0.009542239174674061,-0.03462820226671037,0.9998232749785698,-0.014328316250280167,-0.0022734888041739763,-0.011956145416332517
389.5166666666411,0.041214745,-0.75869745,0.06905401,-2.402905,0.02342672,1.6388851,0.8455059,0.039999504,0.04,-0.038926956667673096,-0.05061129106786744,-0.0071039655018534376,-0.045100756169539694,-0.009525134640734373,-0.03504530645288362,0.999813747896117,-0.014715942846103652,-0.002314085205629102,-0.012270108138524916
389.5333333333077,0.042314153,-0.7580084,0.070901304,-2.4041517,0.024051232,1.6407026,0.84709823,0.039999496,0.04,-0.038359490104333815,-0.05030923646533736,-0.007313194223201869,-0.045679609501371496,-0.009509914403413339,-0.035455738622022864,0.9998038457203592,-0.015108632736547731,-0.0023546797299126717,-0.012587882386715635
389.5499999999744,0.043428697,-0.75731,0.072774075,-2.405416,0.024684343,1.6425452,0.84871256,0.03999948,0.04,-0.039463250192461885,-0.049875766198481664,-0.008440910837492765,-0.04625305436999934,-0.009496214648341994,-0.03586128231065672,0.9997935595162916,-0.015506302628794428,-0.002395490275809691,-0.012909475390828535
389.566666666641,0.044558305,-0.75660205,0.074672095,-2.4066968,0.025326025,1.6444124,0.8503487,0.03999947,0.04,-0.037817280124818886,-0.04946058857817348,-0.008809358704708892,-0.046821841142621376,-0.009487325633096996,-0.036260497127366995,0.9997828821097154,-0.01590892821926511,-0.0024362345878180605,-0.013234780101612886
389.5833333333077,0.045702923,-0.75588477,0.07659529,-2.4079945,0.025976215,1.6463047,0.8520064,0.039999463,0.04,-0.03845930003605336,-0.04906818337004626,-0.009310935284378985,-0.04738559406412375,-0.009479441747702003,-0.036655381923684505,0.9997718033490285,-0.016316583129705617,-0.002476775538972836,-0.013563772562688734
389.59999999997433,0.046862464,-0.75515807,0.07854357,-2.4093091,0.026634874,1.6482216,0.8536857,0.03999946,0.04,-0.03886042529346323,-0.048606534075204544,-0.010353683328889751,-0.04794270596061238,-0.009471773633520683,-0.03704430219801886,0.9997603153688162,-0.016729113159153562,-0.0025174202277828996,-0.013896444939266051
389.616666666641,0.048036844,-0.75442225,0.08051674,-2.4106414,0.02730197,1.650163,0.85538644,0.039999455,0.04,-0.03988030205750448,-0.04794352046144368,-0.011507184911940804,-0.04849460734683973,-0.009466520548247856,-0.037427624063912576,0.9997484096424133,-0.017146458572291603,-0.0025583597842677467,-0.014232749948911267
389.63333333330763,0.04922598,-0.75367737,0.0825147,-2.41199,0.027977457,1.6521289,0.8571085,0.039999455,0.04,-0.037544783672616155,-0.04771799001477561,-0.011458538826780718,-0.049041053453683384,-0.009466948196456215,-0.03780404289673979,0.999736079023438,-0.01756864701289321,-0.0025988936358219486,-0.014572600757860632
389.6499999999743,0.050429784,-0.7529233,0.08453729,-2.4133549,0.02866131,1.6541188,0.85885185,0.039999448,0.04,-0.03837489644313852,-0.047128017031483616,-0.012512952502752306,-0.04958074904886653,-0.009466581327226165,-0.03817593491454282,0.9997233161462594,-0.017995519366827747,-0.002639419936327938,-0.014915961204156865
389.66666666664094,0.05164818,-0.75216013,0.08658433,-2.414736,0.029353442,1.6561328,0.8606163,0.03999944,0.04,-0.037958083393863085,-0.046626554329246006,-0.012849447019602778,-0.05011482760691602,-0.009469772104822416,-0.038542292306138266,0.9997101128621005,-0.018427085725091354,-0.002679653179994898,-0.015262772086398523
389.6833333333076,0.052881062,-0.75138783,0.088655695,-2.4161339,0.030053802,1.6581706,0.8624016,0.039999437,0.04,-0.039059102996752415,-0.045981393677793636,-0.01410002130992627,-0.050642975026467876,-0.009473930594681157,-0.03890211925658902,0.999696457859788,-0.018863364824057875,-0.002720051079612044,-0.015613037251984997
389.69999999997424,0.05412831,-0.7506063,0.090751216,-2.4175482,0.030762354,1.6602323,0.8642077,0.03999943,0.04,-0.03884596617096392,-0.045463612416352106,-0.014358205036724137,-0.051163880278350365,-0.009481812576477053,-0.039256449408535114,0.9996823456296308,-0.019304227534675873,-0.0027604182186019635,-0.015966675514558618
389.7166666666409,0.05538986,-0.74981606,0.09287072,-2.418979,0.031479005,1.6623175,0.86603445,0.039999425,0.04,-0.03850377984728759,-0.04482665834244226,-0.0155777428286763,-0.051678165147842736,-0.009493459060395296,-0.039603741243770245,0.999667768164871,-0.01974961312933726,-0.0028007038896906067,-0.016323667824035187
389.73333333330754,0.0566656,-0.749017,0.09501402,-2.4204252,0.032203708,1.6644261,0.8678819,0.039999418,0.04,-0.03717050051814663,-0.044384447730064225,-0.01568513005878458,-0.05218600038186602,-0.009509262466180377,-0.03994632725356864,0.9996527208907263,-0.020199407530252705,-0.0028405349868060774,-0.01668391177700727
389.7499999999742,0.057955407,-0.74820906,0.09718094,-2.421887,0.032936428,1.666558,0.86974967,0.039999403,0.04,-0.037363057484518514,-0.04377273943247384,-0.01627170118645438,-0.05268783827044929,-0.009524540849593852,-0.04028214837607154,0.9996371947372164,-0.020653645106694787,-0.0028799269660439997,-0.0170473417982273
389.76666666664084,0.059259187,-0.7473925,0.099371284,-2.4233644,0.033677053,1.6687129,0.8716374,0.039999392,0.04,-0.037761596389795926,-0.043017353747670795,-0.017477423925105207,-0.05318247010642986,-0.009540157714341996,-0.04061510547494268,0.9996211787833627,-0.02111236255894677,-0.0029190980111591085,-0.01741395824450607
389.7833333333075,0.060576804,-0.7465671,0.10158486,-2.4248579,0.034425564,1.6708905,0.8735454,0.039999377,0.04,-0.038530785156276615,-0.04231032378149702,-0.018237005119048355,-0.05366866884532025,-0.009558756028855114,-0.040938612977092836,0.9996046703121917,-0.021575247516986227,-0.002958296137911583,-0.017783707954072255
389.79999999997415,0.061908163,-0.74573326,0.10382147,-2.4263666,0.03518185,1.6730909,0.8754731,0.039999366,0.04,-0.03689920991636342,-0.04178134215269691,-0.01852091314473725,-0.05414911564224893,-0.009581520165210508,-0.04125677291690526,0.9995876594808845,-0.02204248289526287,-0.002996882481742852,-0.018156504529510648
389.8166666666408,0.063253134,-0.7448907,0.10608095,-2.427892,0.03594586,1.6753142,0.8774204,0.039999355,0.04,-0.039912130423847,-0.040831221514930904,-0.019903496777717855,-0.05462125909091227,-0.009604999455136709,-0.041567393911716724,0.9995701372495588,-0.022513888580790516,-0.0030357858456121125,-0.018532391755236192
389.83333333330745,0.06461161,-0.7440401,0.10836307,-2.4294324,0.036717538,1.6775593,0.8793874,0.03999934,0.04,-0.03662589072228606,-0.040342539681481604,-0.02053634499055157,-0.05508597943836209,-0.009636543158110453,-0.0418742106269471,0.9995521009924202,-0.022989368753461158,-0.0030742776955498975,-0.01891124381436924
389.8499999999741,0.06598345,-0.74318105,0.110667594,-2.4309878,0.037496798,1.6798263,0.8813735,0.039999332,0.04,-0.03710182758880354,-0.03960203402723628,-0.02087961981191988,-0.05554344333722318,-0.009669165280319997,-0.042170987024977465,0.9995335411815033,-0.023468971358213433,-0.0031124621520931236,-0.019293004325483785
389.86666666664075,0.06736853,-0.7423132,0.11299432,-2.432558,0.038283557,1.6821152,0.8833791,0.03999932,0.04,-0.037277621708264874,-0.03892715640012867,-0.021150798823166284,-0.055992901170512616,-0.009705387627228279,-0.04246193142362191,0.9995144557841332,-0.02395242901638797,-0.003150407749269958,-0.019677620632999875
389.8833333333074,0.06876671,-0.74143755,0.11534304,-2.4341426,0.03907776,1.684426,0.8854034,0.039999317,0.04,-0.035418316713298204,-0.03827695883476534,-0.02196033072228154,-0.056435783140017334,-0.009745013052199325,-0.04274501566384577,0.9994948353069479,-0.024439946590849707,-0.0031874207271098826,-0.0200649832913365
389.89999999997406,0.07017786,-0.7405539,0.1177135,-2.435742,0.03987935,1.6867579,0.88744646,0.039999306,0.04,-0.036712805018446204,-0.03731440593962576,-0.023176347860065505,-0.056869159174203765,-0.009781920362450125,-0.04302219523892477,0.9994746746010985,-0.02493129655164255,-0.003224105388253691,-0.020455083175772694
389.9166666666407,0.07160183,-0.73966223,0.12010549,-2.4373565,0.04068825,1.6891111,0.88950807,0.0399993,0.04,-0.03768460849353783,-0.036421354912696824,-0.024007372685419526,-0.05729491881198198,-0.00982222073537517,-0.0432924731301131,0.9994539658429887,-0.02542641929219056,-0.003260710426262602,-0.02084790469605903
389.93333333330736,0.07303849,-0.73876274,0.12251877,-2.4389846,0.041504323,1.6914853,0.89158815,0.039999288,0.04,-0.034704065023105635,-0.0359551225763588,-0.023829033347122497,-0.057712784027151603,-0.009869027102472325,-0.04355616710377136,0.99943270810884,-0.025925226623598488,-0.003296388268035901,-0.02124331450437294
389.949999999974,0.07448771,-0.7378554,0.1249531,-2.4406276,0.042327505,1.69388,0.8936863,0.039999284,0.04,-0.0370359309806334,-0.03481615367591506,-0.025430329604314572,-0.05812244951782286,-0.009913402398018412,-0.04381273296261802,0.9994108891351157,-0.026427717431861678,-0.0033319812677260435,-0.021641356942916103
389.96666666664066,0.07594933,-0.73694026,0.1274082,-2.4422848,0.043157775,1.6962951,0.8958022,0.039999276,0.04,-0.036151352401048165,-0.034098355361528165,-0.025731588421207263,-0.058524047187950554,-0.009965577086577193,-0.04406065378793228,0.9993885050578494,-0.026933858299441622,-0.0033671838311605767,-0.022041898928854473
389.9833333333073,0.077423185,-0.73601747,0.12988387,-2.443955,0.043994997,1.6987308,0.897936,0.039999273,0.04,-0.03370230115244954,-0.03357531218580734,-0.025402536750696036,-0.058916412057140335,-0.010020081891852078,-0.044302762225607556,0.9993655581973423,-0.0274434531028786,-0.003401236740691357,-0.022444811412399956
389.99999999997397,0.07890915,-0.7350871,0.13237983,-2.4456396,0.044839103,1.7011862,0.9000872,0.039999265,0.04,-0.036736037610696215,-0.032221109801278125,-0.027618003000751123,-0.05930073445944087,-0.010071663791113433,-0.04453888430235825,0.9993420339497988,-0.027956508894473445,-0.0034353059609046684,-0.02285019615818245
390.0166666666406,0.08040708,-0.7341493,0.13489583,-2.4473372,0.045689993,1.7036614,0.90225554,0.039999258,0.04,-0.033725169714693415,-0.031814581070749304,-0.02697469792234397,-0.05967636298615642,-0.01013174199891509,-0.04476781772311274,0.9993179321308422,-0.028473020620239164,-0.0034683740901649287,-0.02325785887969017
390.03333333330727,0.081916824,-0.7332042,0.13743164,-2.4490478,0.0465476,1.7061561,0.90444094,0.03999925,0.04,-0.03412543317486971,-0.030839546709049426,-0.028046152550165182,-0.06004268017397599,-0.010190052910804909,-0.04498952619036464,0.9992932481604302,-0.028992852446954938,-0.0035006903084287616,-0.023667780954931272
390.0499999999739,0.08343818,-0.73225176,0.13998689,-2.4507723,0.047411818,1.7086697,0.9066432,0.039999235,0.04,-0.03563447260428454,-0.029503453657853118,-0.029362783567377093,-0.06039989402520457,-0.010250245638298544,-0.045205404806825306,0.9992679767675561,-0.02951582181582794,-0.003532917780277233,-0.024079978433734706
390.0666666666406,0.084971026,-0.73129207,0.14256142,-2.4525096,0.048282523,1.7112024,0.9088625,0.039999224,0.04,-0.03387729757280411,-0.02903588100041099,-0.029038628117494802,-0.06074912896908316,-0.010316682496977703,-0.045414478104311,0.9992421200712043,-0.03004177154934908,-0.0035643549892603764,-0.02449434243437172
390.0833333333072,0.08651517,-0.7303255,0.14515494,-2.4542592,0.04915965,1.7137537,0.9110976,0.039999213,0.04,-0.03238201071127378,-0.028186265065704985,-0.029638622110383928,-0.061091161789177895,-0.010385545294275239,-0.04561443556376857,0.9992156633373065,-0.03057106398004082,-0.003594735801634759,-0.024910761992186625
390.0999999999739,0.08807048,-0.72935194,0.14776711,-2.456022,0.050043102,1.7163234,0.9133486,0.039999206,0.04,-0.0347246344124974,-0.026842108079389027,-0.030942601966876815,-0.06142143473093478,-0.010453068812852212,-0.04580888053946118,0.9991886034685351,-0.031103421729162774,-0.003624837018207859,-0.025329279735668845
390.1166666666405,0.08963678,-0.72837144,0.15039764,-2.457797,0.05093279,1.7189113,0.9156157,0.039999194,0.04,-0.032605652000561314,-0.026202716716483554,-0.030759846880812347,-0.06174215432377128,-0.010526435173998289,-0.0459947147395514,0.9991609464533697,-0.03163861770529877,-0.0036540539932464924,-0.02574973478540841
390.1333333333072,0.0912139,-0.7273842,0.15304632,-2.459584,0.05182862,1.7215168,0.9178983,0.039999183,0.04,-0.0321994331595965,-0.025302395621956686,-0.03155378310417678,-0.062054594330902046,-0.010600704030609809,-0.04617478399226334,0.9991326833924578,-0.032176715839605616,-0.003682461680658741,-0.02617211131595456
390.14999999997383,0.09280163,-0.7263903,0.15571287,-2.4613833,0.052730456,1.7241398,0.92019653,0.03999918,0.04,-0.03302919766170476,-0.02409386060259755,-0.03245350175575812,-0.0623576471746872,-0.010678638758410075,-0.046347520872083034,0.9991038143610078,-0.032717450693268084,-0.0037103621008652793,-0.026596423866728565
390.1666666666405,0.09439983,-0.7253902,0.15839684,-2.4631934,0.053638276,1.72678,0.9225099,0.039999172,0.04,-0.02964318339133687,-0.023516950740015696,-0.03201624467361608,-0.06265267573522626,-0.010759293062381048,-0.046510942843278724,0.9990743431707524,-0.03326086115883288,-0.0037367570020410655,-0.02702237184279592
390.18333333330713,0.096008316,-0.7243834,0.16109808,-2.4650161,0.05455192,1.7294375,0.924838,0.039999165,0.04,-0.033515884613644076,-0.02202510575831651,-0.03356727824279648,-0.06293825710701154,-0.010836313438592315,-0.046669819423752076,0.9990442537597171,-0.03380693182908494,-0.0037628595553811416,-0.027450159889517788
390.1999999999738,0.0976269,-0.72337043,0.16381624,-2.4668505,0.055471327,1.7321113,0.92718077,0.039999153,0.04,-0.031534664057031314,-0.02116222805397805,-0.034009574704851886,-0.06321447833484717,-0.01092151976624367,-0.04682032203011073,0.9990135505044947,-0.03435548441302759,-0.0037883048344247183,-0.027879658276799463
390.21666666664044,0.09925543,-0.7223513,0.16655102,-2.4686954,0.056396365,1.7348018,0.92953765,0.039999146,0.04,-0.029380588370608862,-0.020562555626163492,-0.033522851383605,-0.06348178259824597,-0.011010117384279178,-0.04696352196216469,0.9989822308214803,-0.03490663092641567,-0.0038124103688750976,-0.02831068963280227
390.2333333333071,0.1008937,-0.721326,0.16930212,-2.470552,0.0573269,1.7375082,0.93190885,0.039999142,0.04,-0.03164895691860625,-0.019015073331707377,-0.035040742839931305,-0.06373816913713948,-0.011096300542775828,-0.04710168170720695,0.9989502943759241,-0.035460012143202754,-0.0038360619222019337,-0.02874337374052714
390.24999999997374,0.10254153,-0.7202948,0.17206919,-2.4724185,0.058262892,1.7402307,0.9342937,0.03999914,0.04,-0.02838982426105474,-0.01857767547087663,-0.034287671324984004,-0.06398701598142145,-0.011189489337606245,-0.04723067499073054,0.9989177416893715,-0.0360157889032408,-0.003858236121874377,-0.029177427952290027
390.2666666666404,0.10419873,-0.7192578,0.174852,-2.4742956,0.059204202,1.7429682,0.936692,0.03999913,0.04,-0.02936955888928061,-0.017246999917980288,-0.035737155219495165,-0.06422469485600915,-0.01127830075848582,-0.04735517154304299,0.9988845659265102,-0.036573827166384194,-0.0038796169503308472,-0.029612964939860528
390.28333333330704,0.10586513,-0.7182151,0.17765014,-2.4761837,0.060150724,1.7457209,0.93910354,0.039999124,0.04,-0.029957234598576576,-0.015961560321514634,-0.036267050806904066,-0.06445313130133187,-0.011372384865111218,-0.047471116593935964,0.9988507681998118,-0.037133978300729606,-0.003900310131912027,-0.030049926839871174
390.2999999999737,0.10754049,-0.71716684,0.18046336,-2.478082,0.06110234,1.7484883,0.9415281,0.039999116,0.04,-0.028744324844542923,-0.015114668030818956,-0.03635083692434815,-0.06467223604262226,-0.011471117706014528,-0.047581291519570995,0.9988163489546471,-0.037696170023508745,-0.003920098546354205,-0.030488237959154445
390.31666666664034,0.10922468,-0.71611315,0.18329133,-2.4799898,0.062058948,1.7512702,0.94396526,0.039999105,0.04,-0.027375364660131574,-0.014311423209262264,-0.036465844281985405,-0.06488198817300639,-0.01157133564668869,-0.04768257891882678,0.9987813071811059,-0.038260409391401955,-0.003938710099191471,-0.030927787854263096
390.333333333307,0.11091747,-0.7150539,0.18613365,-2.4819071,0.06302045,1.7540662,0.9464149,0.039999098,0.04,-0.027523549211361242,-0.013108459740124312,-0.03680274271333772,-0.06508131663623429,-0.011672321645479211,-0.04777697782785888,0.99874564642926,-0.038826514917823116,-0.0039563150738108985,-0.03136850409203901
390.34999999997365,0.11261869,-0.71398973,0.18899006,-2.4838343,0.06398673,1.7568761,0.9488767,0.03999909,0.04,-0.027284306598640562,-0.011931835097706012,-0.03764296043913262,-0.06527147741358677,-0.0117751643065922,-0.047864920087053286,0.9987093647844362,-0.03939441630755529,-0.003972894899557777,-0.03181038763945221
390.3666666666403,0.114328116,-0.7129203,0.19186023,-2.4857705,0.06495767,1.7596996,0.95135033,0.039999086,0.04,-0.026427578118481954,-0.011082439530374355,-0.03743853958868559,-0.065452181755564,-0.01188025148717689,-0.04794565661363001,0.9986724630448091,-0.039964063839530266,-0.003988356982074835,-0.032253343486028256
390.38333333330695,0.11604558,-0.71184593,0.19474377,-2.487716,0.06593319,1.7625363,0.95383555,0.039999075,0.04,-0.02650806894648472,-0.009818456788301955,-0.03812389410842165,-0.0656232498458923,-0.01198692250546679,-0.048019661284909684,0.9986349425497562,-0.04053534457397752,-0.004002840811962487,-0.03269731830515031
390.3999999999736,0.11777081,-0.7107668,0.19764037,-2.4896708,0.066913135,1.7653859,0.9563319,0.039999075,0.04,-0.02633094619661769,-0.008584020590740593,-0.038574581510020245,-0.06578526457464479,-0.012097594068962575,-0.04808551213705793,0.9985968006526876,-0.041108212791134385,-0.004016421057678361,-0.03314231327506496
390.41666666664025,0.11950369,-0.7096829,0.2005497,-2.4916341,0.06789739,1.768248,0.95883936,0.039999064,0.04,-0.025137737830305262,-0.007789999059265584,-0.03852006763360727,-0.06593746783641358,-0.012211236184162089,-0.04814611792164142,0.9985580430855524,-0.04168253254962229,-0.004028911737184141,-0.03358822620526032
390.4333333333069,0.12124396,-0.70859426,0.20347144,-2.4936051,0.06888585,1.7711225,0.9613574,0.039999057,0.04,-0.023397661735691244,-0.007047141339777685,-0.038085602986148714,-0.06607996487787737,-0.012326055999245383,-0.04819780295639611,0.9985186723004807,-0.04225833298535859,-0.0040398772835181914,-0.03403489021750727
390.44999999997356,0.12299143,-0.7075011,0.20640518,-2.4955845,0.069878384,1.7740086,0.9638859,0.03999905,0.04,-0.024512604247806102,-0.005454295378398699,-0.039223668218602015,-0.06621258460641832,-0.012440340662932647,-0.0482456229018821,0.9984786881383243,-0.042835411821246054,-0.004049914966078245,-0.0344823870467635
390.4666666666402,0.12474591,-0.7064037,0.20935059,-2.4975715,0.070874885,1.7769061,0.96642447,0.039999045,0.04,-0.023023370380381714,-0.004619035827474471,-0.03915514900649786,-0.06633598007475017,-0.012557589967638422,-0.04828531980716777,0.9984380931608693,-0.0434137540228156,-0.0040587284248009585,-0.03493059991622851
390.48333333330686,0.12650715,-0.705302,0.21230733,-2.499566,0.07187525,1.7798148,0.9689727,0.039999038,0.04,-0.022886780675235308,-0.0034623932163357907,-0.03930125970623699,-0.06644959950934759,-0.012676541403278757,-0.04831843506340165,0.99839688843277,-0.043993305317576545,-0.004066344435916851,-0.03537947283278968
390.4999999999735,0.128275,-0.70419633,0.21527511,-2.5015678,0.072879404,1.7827346,0.9715305,0.03999903,0.04,-0.021728677547439013,-0.002701945076077905,-0.03921948112493023,-0.06655359193461055,-0.012797740215086645,-0.04834375871635391,0.9983550825777806,-0.04457392957110127,-0.00407246334227626,-0.03582888410248395
390.51666666664016,0.13004923,-0.7030868,0.21825348,-2.503577,0.07388715,1.7856655,0.9740975,0.03999902,0.04,-0.02185662627964824,-0.0013086960169050865,-0.03937148747583663,-0.06664809198046825,-0.012917327097530934,-0.04836423833550141,0.9983126779633091,-0.04515553682539271,-0.004077134027572222,-0.036278802210907644
390.5333333333068,0.13182965,-0.70197356,0.22124214,-2.5055928,0.074898385,1.788605,0.97667336,0.039999016,0.04,-0.021066228508415108,-8.954828973339879e-05,-0.04076599748230603,-0.06673288634560964,-0.013036544179849036,-0.048377789009757435,0.9982696663309552,-0.04573807188466607,-0.0040811337649134015,-0.03672936714605056
390.54999999997347,0.133616,-0.70085657,0.22424072,-2.507616,0.075912975,1.7915552,0.9792579,0.039999012,0.04,-0.02157333090269109,0.000962712200008875,-0.03964373059628379,-0.06680836971347615,-0.01316206964384481,-0.04838425469198582,0.9982260632782985,-0.046321378105714635,-0.004083787371226004,-0.03718036044747495
390.5666666666401,0.1354081,-0.69973594,0.22724885,-2.509646,0.07693083,1.7945136,0.98185045,0.03999901,0.04,-0.020831300647250472,0.0022567934377271115,-0.040955987064172916,-0.06687458416344433,-0.013288885720674937,-0.04838455467736989,0.99818185569978,-0.04690551941823622,-0.004085910190145678,-0.03763190850550876
390.58333333330677,0.13720575,-0.6986119,0.23026618,-2.5116816,0.0779518,1.7974828,0.9844508,0.039999,0.04,-0.018021473653173636,0.0022724881594993196,-0.03841838618774407,-0.06693177069397441,-0.013424426358316893,-0.04837576512016881,0.9981370682143885,-0.047490483663245306,-0.004085645002800668,-0.03808352035627874
390.5999999999734,0.13900867,-0.69748485,0.23329234,-2.513723,0.07897579,1.80046,0.9870589,0.039998993,0.04,-0.018334791804597295,0.004138919357243864,-0.04052285823656909,-0.06697750547498113,-0.013550697610012069,-0.048363748895835126,0.9980916976362817,-0.04807599068091686,-0.0040842586418307365,-0.03853545200098705
390.61666666664007,0.14081669,-0.6963545,0.23632696,-2.5157702,0.08000268,1.8034449,0.98967427,0.039998986,0.04,-0.018905406719316176,0.005326853782672281,-0.04062862476770235,-0.06701458879906713,-0.013680001451250728,-0.048343053893729324,0.9980457437789655,-0.048661988192272715,-0.004082037674458761,-0.03898770573258965
390.6333333333067,0.14262955,-0.695221,0.23936972,-2.5178232,0.0810323,1.806438,0.99229676,0.03999898,0.04,-0.018070292969363244,0.006220461325634474,-0.04001525823253971,-0.06704218818339011,-0.013815398788420141,-0.048318699597564865,0.9979992166604937,-0.049248375926238895,-0.004078566936971807,-0.03944016107230845
390.6499999999734,0.14444704,-0.69408464,0.24242021,-2.5198812,0.08206456,1.8094387,0.99492586,0.039998975,0.04,-0.016522166810295502,0.007094260652729112,-0.039861197152046834,-0.0670615997312573,-0.013952625339382435,-0.04828342989541781,0.9979521207646137,-0.04983516111278695,-0.004073652244422966,-0.03989269025352958
390.66666666664,0.14626896,-0.69294566,0.24547805,-2.5219438,0.08309934,1.812447,0.9975613,0.039998975,0.04,-0.015303908655339704,0.00796394364724895,-0.039492293404297385,-0.06707121758811363,-0.014090763152384167,-0.048242871175588814,0.9979044652884286,-0.050422270485515557,-0.004067004553064773,-0.040345164152181395
390.6833333333067,0.14809509,-0.6918041,0.24854292,-2.524012,0.08413651,1.8154624,1.0002027,0.03999897,0.04,-0.01718870255089655,0.009709826516324238,-0.040430634770505236,-0.06707144649258001,-0.014226704341529922,-0.048197441320336334,0.997856246001085,-0.051009582552467576,-0.00405933164887277,-0.040797752769111094
390.69999999997333,0.14992525,-0.69066006,0.25161442,-2.5260837,0.08517594,1.8184836,1.0028498,0.039998967,0.04,-0.013309767279912066,0.009813563368632483,-0.039498922010761106,-0.06706194502683502,-0.014366417679411964,-0.04814657395112247,0.9978074753997364,-0.05159707541465345,-0.004050098498576803,-0.04125021875348951
390.71666666664,0.15175916,-0.68951374,0.25469205,-2.5281594,0.086217515,1.8215115,1.0055023,0.03999896,0.04,-0.013782447387367114,0.011237277978237703,-0.03914688219666118,-0.06704334240208995,-0.014504867368512392,-0.048087292634050094,0.9977581670286092,-0.052184601430247834,-0.004039136607518587,-0.04170243250389654
390.73333333330663,0.15359661,-0.6883654,0.25777566,-2.53024,0.087261096,1.8245444,1.00816,0.039998952,0.04,-0.015458599314022159,0.013040570666711382,-0.04089675121914382,-0.06701542731736584,-0.014643074618067298,-0.048023882997524636,0.997708307463233,-0.052772032347577255,-0.0040275688259808935,-0.04215476853345464
390.7499999999733,0.15543734,-0.6872149,0.26086468,-2.5323234,0.088306546,1.8275839,1.0108225,0.039998945,0.04,-0.010906797525933598,0.012612024713587466,-0.03770344930924541,-0.06697965408733275,-0.014789019098279232,-0.04795325863578548,0.997657935036876,-0.05335932605046858,-0.004013588115418746,-0.04260654987013142
390.76666666663994,0.15728116,-0.6860625,0.26395878,-2.5344107,0.089353725,1.8306278,1.0134894,0.03999894,0.04,-0.013480519982289607,0.014910420762670462,-0.04004335313734231,-0.06693446048835686,-0.014925914772120269,-0.0478784706094101,0.9976070258276387,-0.05394645407142763,-0.0039987867284006955,-0.04305823750634664
390.7833333333066,0.15912788,-0.6849085,0.2670577,-2.5365014,0.09040255,1.8336762,1.0161601,0.03999894,0.04,-0.01171630689227321,0.015403451089834874,-0.03924476536563137,-0.06688045271500376,-0.01506969168468228,-0.04779457654494414,0.9975555901630636,-0.05453342376790124,-0.003982624576451199,-0.043509641782661014
390.79999999997324,0.16097726,-0.6837528,0.27016088,-2.538595,0.09145288,1.836729,1.0188348,0.039998937,0.04,-0.010866278428056653,0.01631712210707903,-0.03857561158564504,-0.06681704068982675,-0.015214683780297028,-0.047705456205706515,0.997503649559663,-0.0551199754498236,-0.00396499329047371,-0.0439606215808014
390.8166666666399,0.16282904,-0.6825956,0.27326804,-2.5406916,0.09250458,1.8397857,1.0215129,0.03999893,0.04,-0.010895135818134172,0.01765105417648183,-0.03886546394555879,-0.06674538474454839,-0.015361164974360048,-0.04761051802710037,0.9974512001864523,-0.055706127787937154,-0.003946149704252889,-0.04441124267560604
390.83333333330654,0.16468303,-0.68143713,0.27637887,-2.54279,0.0935575,1.842846,1.0241942,0.03999893,0.04,-0.008207172263197116,0.01774635444036221,-0.03761665265658021,-0.06666533778630918,-0.015510287595495525,-0.047509810258125965,0.9973982619739498,-0.05629177717760374,-0.003925406335401993,-0.044861275267573955
390.8499999999732,0.16653895,-0.68027747,0.27949288,-2.5448909,0.09461151,1.8459096,1.0268782,0.03999893,0.04,-0.009571431144062004,0.019583052924965205,-0.0382006960392367,-0.06657596961053588,-0.015655351504245046,-0.04740371066279736,0.9973448297781455,-0.05687690336591685,-0.003903401531013699,-0.04531083573267878
390.86666666663984,0.16839659,-0.67911685,0.28260973,-2.5469933,0.09566654,1.8489764,1.0295647,0.039998926,0.04,-0.007094976275490161,0.019792424088671545,-0.03699381898134568,-0.06647800043646168,-0.01580337747993607,-0.04728972439541758,0.9972909264617585,-0.05746139976734373,-0.0038794640705520304,-0.04575964698673075
390.8833333333065,0.17025577,-0.67795515,0.28572908,-2.5490975,0.096722424,1.852045,1.0322534,0.039998926,0.04,-0.008208498512107809,0.02135397274934947,-0.037843738771092816,-0.0663715078859056,-0.015947519441440905,-0.04717285385042497,0.9972365427458406,-0.05804519553297991,-0.0038544996346966567,-0.046207963820400336
390.89999999997315,0.17211625,-0.676793,0.28885046,-2.5512033,0.09777902,1.855116,1.0349437,0.039998922,0.04,-0.0063657246306192405,0.022028462014689332,-0.036852270201648274,-0.06625640281762402,-0.01609663738049935,-0.047047480590196145,0.997181695220173,-0.05862827874942579,-0.003827832226020822,-0.04665553931904627
390.9166666666398,0.17397776,-0.6756301,0.29197356,-2.55331,0.0988362,1.8581885,1.0376354,0.039998915,0.04,-0.005859922341566737,0.022865865844268196,-0.03650316516417007,-0.06613235343636514,-0.01624390335650283,-0.046919370498429994,0.9971263899852861,-0.059210554275353405,-0.0037996991916355517,-0.04710238787333039
390.93333333330645,0.17584011,-0.6744665,0.29509792,-2.5554173,0.099893816,1.8612622,1.0403286,0.03999891,0.04,-0.005322680054509199,0.023816859424752312,-0.03606524303041425,-0.0660001964873986,-0.016392179721987615,-0.046784120956253616,0.9970706470741528,-0.05979177218204341,-0.003770161956433591,-0.04754844478301427
390.9499999999731,0.17770305,-0.67330265,0.2982232,-2.5575256,0.10095177,1.864337,1.0430224,0.03999891,0.04,-0.004980051134473307,0.024892744826621183,-0.03590994587467922,-0.06586050737194887,-0.016541098344906052,-0.046642319607683294,0.9970144608494012,-0.060372089541166615,-0.003739172661407731,-0.04799368968332622
390.96666666663975,0.17956631,-0.6721388,0.30134898,-2.5596342,0.10200993,1.8674123,1.0457164,0.039998915,0.04,-0.0034131572630213824,0.02558291258126788,-0.03518104353199547,-0.06571208957769212,-0.016689622934182885,-0.04649408694668143,0.9969578450463148,-0.06095143672823043,-0.0037065198689057587,-0.04843799409383021
390.9833333333064,0.18142968,-0.67097485,0.30447492,-2.5617428,0.10306818,1.8704878,1.0484105,0.03999891,0.04,-0.0030745165189749457,0.026398742258282315,-0.03481141973062929,-0.06555457287780705,-0.016837955946464978,-0.046342650446316996,0.9969008112983593,-0.06152966760547209,-0.003672382215660172,-0.04888134660476489
390.99999999997306,0.18329307,-0.66981107,0.30760056,-2.5638514,0.10412637,1.873563,1.0511045,0.039998908,0.04,-0.0025794378331278622,0.027340176197787613,-0.03457587058823819,-0.06538856712562044,-0.016986474718638428,-0.0461869375026633,0.9968433697796902,-0.062106686363469624,-0.0036367869932345657,-0.04932372061784656
391.0166666666397,0.18515608,-0.66864747,0.3107257,-2.5659597,0.105184354,1.8766378,1.0537983,0.039998904,0.04,-0.0020616870498813,0.028168172637099698,-0.03396619304558701,-0.06521513292484454,-0.01713541047968231,-0.0460234992122428,0.996785534999434,-0.06268230886898214,-0.0035997333406743623,-0.04976512122583107
391.03333333330636,0.18701856,-0.6674843,0.31384975,-2.5680668,0.10624202,1.8797113,1.0564913,0.039998908,0.04,-0.00016662311790316409,0.0286930011217712,-0.03325382247345576,-0.06503526513790656,-0.017284640836852855,-0.04585415518673851,0.9967273147254847,-0.06325661055463211,-0.003561086418863157,-0.05020537784721579
391.049999999973,0.18888028,-0.6663215,0.3169724,-2.5701733,0.10729924,1.8827835,1.0591828,0.039998904,0.04,-0.0007005321586817104,0.029792744088263934,-0.03292693151895065,-0.06484691398039935,-0.017432791630898253,-0.04568102032562181,0.9966687072904731,-0.06382963724743435,-0.0035210245444400865,-0.05064452293146688
391.06666666663966,0.19074097,-0.6651596,0.32009333,-2.572279,0.10835588,1.8858542,1.0618728,0.0399989,0.04,-8.889182849802779e-05,0.030738812075814526,-0.03259901055057135,-0.06464988741645589,-0.017581978571062473,-0.045502637260538936,0.9966097331795175,-0.06440113258178384,-0.0034795129309167067,-0.05108254930793939
391.0833333333063,0.19260044,-0.6639983,0.32321203,-2.5743825,0.10941182,1.8889226,1.0645611,0.039998896,0.04,0.002088426780111341,0.030878749973684005,-0.03142288641788671,-0.0644456395680294,-0.017730409851061807,-0.04531738784415079,0.9965504071409111,-0.06497109845464696,-0.0034363962623090542,-0.05151925439686927
391.09999999997297,0.19445841,-0.662838,0.3263282,-2.5764852,0.110466905,1.8919885,1.0672473,0.039998896,0.04,0.0006917449097532113,0.03253384678958415,-0.03166979153264027,-0.06423401329711181,-0.017878193047904,-0.045128995629488994,0.9964907317832646,-0.0655393902481365,-0.0033920813253452177,-0.05195482249260724
391.1166666666396,0.19631469,-0.661679,0.32944146,-2.5785851,0.11152104,1.8950517,1.0699309,0.039998893,0.04,0.004057182641847845,0.03213714454752825,-0.0301113014772314,-0.06401643090554121,-0.018027815215962,-0.04493188988225004,0.996430726465194,-0.06610608614433211,-0.003345783494194371,-0.0523889154643772
391.13333333330627,0.19816908,-0.6605212,0.3325514,-2.580683,0.112574086,1.8981113,1.0726115,0.039998904,0.04,0.0030085320424921846,0.03356757343836447,-0.030292138942233926,-0.06378970622914681,-0.018173089651731422,-0.04473095304848301,0.9963703834116355,-0.06667118605743932,-0.0032982540689811975,-0.05282171456836066
391.1499999999729,0.20002131,-0.6593648,0.33565775,-2.5827785,0.1136259,1.9011674,1.0752889,0.039998904,0.04,0.00395264907124826,0.03406732312449812,-0.029488604074590086,-0.06355512340076888,-0.01831944757879231,-0.04452603989215373,0.9963097239046683,-0.06723450364110949,-0.0032492353098298567,-0.05325315054565795
391.16666666663957,0.20187117,-0.65821,0.33875996,-2.5848708,0.114676364,1.9042194,1.0779629,0.0399989,0.04,0.005414203431386433,0.03456680146428637,-0.02850103027565165,-0.06331278117416617,-0.018465058334229317,-0.04431539667871777,0.9962487675834282,-0.06779596107473221,-0.003198595633900513,-0.05368304887415349
391.1833333333062,0.20371836,-0.65705687,0.3418577,-2.5869606,0.115725316,1.9072672,1.080633,0.039998896,0.04,0.00503462981604752,0.035732108773534055,-0.028188541044560367,-0.06306414173027727,-0.018609891199670825,-0.044102658816306636,0.9961875216848722,-0.06835545125378939,-0.0031465309266453583,-0.05411148922706484
391.1999999999729,0.20556279,-0.6559055,0.34495068,-2.589047,0.116772674,1.9103109,1.083299,0.0399989,0.04,0.006419006970359575,0.03565708825503666,-0.02705678271330836,-0.06280870338961353,-0.018753130994752232,-0.043881640413722445,0.9961259961431915,-0.06891306301052043,-0.0030927346621352847,-0.05453828514494982
391.2166666666395,0.20740418,-0.654756,0.34803838,-2.5911298,0.11781827,1.9133486,1.0859607,0.0399989,0.04,0.0067858854785329825,0.03693618789414321,-0.02725558491001312,-0.06254505448333506,-0.01889397901882947,-0.04365762604678468,0.996064201628052,-0.06946853782066317,-0.003037860399053435,-0.05496362335514487
391.2333333333062,0.20924225,-0.6536086,0.3511206,-2.5932086,0.11886201,1.916381,1.0886176,0.039998904,0.04,0.008165053357434005,0.03689397671179373,-0.025715984645136025,-0.06227634536899149,-0.01903710312608292,-0.043426307960645893,0.9960021485111508,-0.0700220221823427,-0.0029812928048807115,-0.055387259039227796
391.24999999997283,0.21107693,-0.65246356,0.35419673,-2.5952837,0.11990376,1.9194081,1.0912691,0.039998908,0.04,0.007924189997576825,0.0379888877567236,-0.025368007941883874,-0.06199912869694346,-0.01917628084832057,-0.04319126728813999,0.9959398500622284,-0.07057340824834932,-0.0029232165344001515,-0.055809174078559065
391.2666666666395,0.21290782,-0.65132093,0.3572666,-2.5973547,0.12094339,1.9224286,1.0939156,0.039998908,0.04,0.009077862575845863,0.03847483019681075,-0.024858792368576133,-0.06171475821357325,-0.019313964303252662,-0.0429523058623045,0.9958773258402699,-0.07112242984039327,-0.002863804293842991,-0.05622944491810317
391.28333333330613,0.21473476,-0.65018064,0.36032966,-2.5994208,0.12198075,1.9254421,1.0965561,0.039998908,0.04,0.009865136278075504,0.03898769495916943,-0.023951571923408466,-0.06142587475504205,-0.019452136028665384,-0.04270842402155456,0.9958145736043545,-0.07166926765359133,-0.0028031632916409293,-0.05664797742846354
391.2999999999728,0.21655756,-0.64904296,0.36338562,-2.601482,0.12301576,1.928449,1.0991905,0.039998904,0.04,0.010933376418420515,0.039060001229540564,-0.022754372367517206,-0.06112922486174066,-0.019589230133010005,-0.04245937507063277,0.9957516183052332,-0.07221382840980917,-0.0027408365428207085,-0.05706457258188772
391.31666666663943,0.21837592,-0.64790833,0.36643425,-2.6035378,0.124048255,1.9314495,1.1018184,0.039998908,0.04,0.012034998075316494,0.039373702109213315,-0.02171118568747854,-0.06082663465616572,-0.01972364751427083,-0.042207416630956535,0.99568847283812,-0.07275610310866801,-0.0026764676740722083,-0.05747913568002672
391.3333333333061,0.2201897,-0.64677656,0.3694752,-2.605589,0.12507811,1.9344423,1.1044396,0.039998908,0.04,0.010910668915742328,0.04069055354480877,-0.022172406386711252,-0.0605156917832661,-0.019851222971663723,-0.04195327296242951,0.9956251273547263,-0.07329602635619634,-0.0026109869232707555,-0.057891977402429774
391.34999999997274,0.22199868,-0.6456478,0.3725079,-2.6076345,0.12610514,1.9374268,1.1070538,0.03999891,0.04,0.012420896921194746,0.04100453103661472,-0.021015850577987827,-0.06019813678424421,-0.01997913530297693,-0.04169228436118802,0.9955616053218143,-0.07383347623704227,-0.002544229287004708,-0.0583029561269526
391.3666666666394,0.22380258,-0.6445223,0.37553185,-2.609674,0.12712938,1.9404016,1.1096607,0.039998908,0.04,0.01361581635659359,0.04159425744931777,-0.020600088863331756,-0.05987470080420071,-0.020106418466200815,-0.04142846952775847,0.9954979324772277,-0.07436819670365719,-0.0024765579434237227,-0.05871204657788831
391.38333333330604,0.22560121,-0.6434002,0.37854704,-2.6117074,0.1281506,1.9433678,1.1122599,0.03999891,0.04,0.01392993274909049,0.04152512144159903,-0.019247296116109425,-0.059546877933067316,-0.020236599093513913,-0.04115796286009557,0.9954341000129807,-0.07490050233927428,-0.0024073846993487038,-0.05911913209427876
391.3999999999727,0.22739428,-0.6422814,0.38155288,-2.613735,0.12916866,1.9463259,1.1148511,0.03999892,0.04,0.014210617541499104,0.04218365603895213,-0.01805129922538562,-0.059211487512542016,-0.020363524567402508,-0.0408820971973628,0.9953701475607283,-0.07543006755257184,-0.0023366605045983587,-0.05952406464308853
391.41666666663934,0.22918168,-0.6411662,0.38454902,-2.6157565,0.13018353,1.9492736,1.1174339,0.039998922,0.04,0.014098876042045738,0.04328370493172917,-0.01872145445649398,-0.05887138895825392,-0.02048491808185529,-0.04060301645877007,0.9953060552713254,-0.07595695266544902,-0.00226529783795176,-0.05992717336665676
391.433333333306,0.2309632,-0.6400548,0.38753515,-2.617771,0.13119495,1.9522123,1.120008,0.039998926,0.04,0.01690388850634772,0.04216209688089334,-0.016034768798944832,-0.05852506779592562,-0.020611487389496128,-0.04031859979570229,0.995241857348444,-0.07648125283079488,-0.002191994289925104,-0.0603279247785356
391.44999999997265,0.23273861,-0.6389472,0.39051107,-2.619778,0.13220294,1.9551402,1.1225736,0.03999893,0.04,0.016849391500239896,0.04291595579668517,-0.01635186821347112,-0.05817167187981892,-0.020730972690919294,-0.04003113056297067,0.9951775688135021,-0.07700262663322731,-0.0021175769192392033,-0.06072658305900559
391.4666666666393,0.23450768,-0.6378437,0.3934762,-2.6217778,0.13320732,1.9580576,1.1251295,0.039998934,0.04,0.0173187341945491,0.04361170236454326,-0.015258676489726675,-0.057814656348347926,-0.020848574587058438,-0.039738582959363083,0.9951131789132796,-0.07752141076307972,-0.002041846117102382,-0.0611230144122771
391.48333333330595,0.23627017,-0.63674444,0.39643022,-2.6237702,0.13420792,1.9609642,1.1276765,0.039998937,0.04,0.0177963101299472,0.043909832152200234,-0.01444260941141362,-0.057448862807650686,-0.02096403945333418,-0.039443127207699546,0.9950487432945455,-0.07803696257032357,-0.001964837821190635,-0.061517236227580735
391.4999999999726,0.23802592,-0.6356494,0.39937282,-2.625755,0.13520472,1.9638596,1.1302133,0.039998934,0.04,0.0183466252204445,0.0441136039689205,-0.013663727599166897,-0.05708151449974333,-0.021077262959270246,-0.0391433501391997,0.9949842336723599,-0.07854979048695158,-0.001886663818204226,-0.06190917264444423
391.51666666663925,0.23977467,-0.6345587,0.40230373,-2.6277318,0.13619752,1.9667431,1.1327397,0.039998937,0.04,0.01925582060922082,0.04422991675432364,-0.012837948362176554,-0.05670614692642331,-0.021187950484783655,-0.038840212461426965,0.9949196611886298,-0.07905981688313321,-0.001807333473543833,-0.06229884975200474
391.5333333333059,0.24151629,-0.63347256,0.4052225,-2.6297007,0.13718626,1.9696147,1.1352558,0.03999895,0.04,0.019340011607194008,0.04481507792744033,-0.012190050645100037,-0.05632457825406109,-0.021297263313672335,-0.0385314908923759,0.9948550591908534,-0.07956672960745016,-0.0017269185986776574,-0.06268623847458166
391.54999999997256,0.24325049,-0.63239104,0.4081288,-2.6316612,0.1381708,1.9724747,1.1377615,0.039998952,0.04,0.020363132370504466,0.04467657179497708,-0.010726149075734881,-0.05593885884276542,-0.02140529399419379,-0.03821932796591501,0.9947904535719222,-0.08007045763269449,-0.0016451341092611912,-0.06307114102680204
391.5666666666392,0.24497713,-0.63131434,0.4110223,-2.633613,0.13915095,1.9753221,1.1402559,0.03999896,0.04,0.020970404731901482,0.04499085277931414,-0.01025509697540894,-0.055548781456532276,-0.021507553026378773,-0.03790521483214768,0.9947258280102235,-0.08057121463211277,-0.0015621670342972844,-0.06345365313548439
391.58333333330586,0.24669592,-0.63024265,0.41390258,-2.635556,0.14012669,1.9781563,1.1427392,0.039998956,0.04,0.021949366613061017,0.04522910470710073,-0.009356835088736304,-0.05515202773777181,-0.021607419305190778,-0.03758583398997564,0.994661217975477,-0.08106871459705173,-0.0014780971278938058,-0.06383369171528958
391.5999999999725,0.24840672,-0.6291759,0.4167694,-2.6374896,0.14109787,1.9809777,1.1452107,0.039998963,0.04,0.022510637645911658,0.044966428981330075,-0.00815861084391134,-0.054751092761000736,-0.02170474581391091,-0.03726404450366971,0.9945966263647049,-0.08156311511080827,-0.0013927139212628924,-0.0642111316307557
391.61666666663916,0.25010937,-0.62811434,0.4196223,-2.6394143,0.14206441,1.9837852,1.1476704,0.03999897,0.04,0.021971294733980073,0.04605076187690349,-0.008196980041530466,-0.054344846223703114,-0.02179748649796906,-0.03694035166761188,0.9945320595971769,-0.08205424250203733,-0.001306578153378,-0.06458619492076619
391.6333333333058,0.25180352,-0.62705797,0.4224611,-2.641329,0.14302613,1.9865786,1.1501178,0.03999898,0.04,0.023943912186363825,0.04532064912624589,-0.006511197361880328,-0.05393416992073788,-0.021889719297662924,-0.036610582754751875,0.9944675350178437,-0.08254215694228352,-0.0012193103965333638,-0.06495865919957383
391.64999999997247,0.25348923,-0.6260072,0.42528543,-2.643234,0.14398296,1.9893578,1.1525527,0.039998986,0.04,0.0241796812330497,0.0454889561188887,-0.006062819969665512,-0.05351858936480358,-0.021978208506049535,-0.03627906260617922,0.9944030638181597,-0.08302681833759375,-0.001130890156281153,-0.06532851745790455
391.6666666666391,0.2551661,-0.6249618,0.42809495,-2.6451292,0.14493483,1.9921225,1.154975,0.03999899,0.04,0.023982440068048838,0.04600818132671769,-0.005253654524817186,-0.05309737427437691,-0.02206311943090461,-0.035943247275594725,0.9943386663989813,-0.08350803952514525,-0.0010416452406840251,-0.06569580514579888
391.68333333330577,0.25683406,-0.6239221,0.43088928,-2.6470141,0.14588156,1.9948723,1.1573843,0.039998993,0.04,0.025232943071196168,0.045844598525912605,-0.004224091370086391,-0.05267269536886246,-0.02214532972925641,-0.03560540211965342,0.9942743483165486,-0.08398592222832668,-0.0009513892695039262,-0.06606042692579141
391.6999999999724,0.2584927,-0.6228884,0.43366826,-2.6488883,0.14682305,1.997607,1.1597801,0.039998993,0.04,0.026297861747437423,0.04562741013454108,-0.003105661906643853,-0.052242277509191165,-0.022224472301643816,-0.03526305785688098,0.9942101263399753,-0.08446041823451206,-0.0008599384024378389,-0.06642230755285164
391.71666666663907,0.26014206,-0.6218604,0.4364314,-2.6507523,0.14775918,2.000326,1.1621625,0.039999,0.04,0.02531529173908087,0.046406412669419694,-0.0030029524369146188,-0.051808204307574435,-0.022298791670816304,-0.03492052236022236,0.9941460076358334,-0.0849313803509944,-0.0007679181179707099,-0.06678163246860787
391.7333333333057,0.26178178,-0.62083846,0.43917856,-2.6526058,0.14868993,2.0030293,1.164531,0.03999901,0.04,0.026270525343097262,0.04616948621016803,-0.0017645135602650797,-0.05136971526905365,-0.022372256641737434,-0.03457270949742544,0.9940820069988161,-0.08539885669184864,-0.0006749948334996295,-0.06713823812780292
391.7499999999724,0.2634118,-0.6198225,0.44190934,-2.6544476,0.14961511,2.0057166,1.1668853,0.039999012,0.04,0.027970865582505056,0.045319322055992206,-0.0005215655783263884,-0.05092691450612252,-0.022441702118228185,-0.03421894485100635,0.9940181353596733,-0.08586292900968014,-0.0005810695286955009,-0.06749197253125579
391.766666666639,0.2650319,-0.6188128,0.44462332,-2.6562784,0.15053466,2.008387,1.169225,0.03999901,0.04,0.027243198888204923,0.0463895747934262,-0.0003612656370055589,-0.050479163266269444,-0.02250686592366162,-0.033866448152408676,0.9939544012741316,-0.08632344787281357,-0.00048656904949209376,-0.06784300837737167
391.7833333333057,0.2666419,-0.61780953,0.44732043,-2.6580975,0.15144844,2.0110414,1.1715504,0.039999012,0.04,0.02875757375990773,0.04535151181195296,0.0012123707869626799,-0.05002656139427422,-0.022570219851936496,-0.033509754451954116,0.9938908406183865,-0.08678029336284274,-0.0003908905530517127,-0.0681910904980377
391.79999999997233,0.2682417,-0.6168126,0.45000008,-2.6599052,0.15235631,2.013679,1.1738609,0.03999902,0.04,0.02834404534139967,0.04601299107551693,0.0017496073603906481,-0.04957099800202239,-0.022627481644331177,-0.03315162538485068,0.9938274543529002,-0.08723348095948265,-0.0002944689028227991,-0.06853629740649078
391.816666666639,0.269831,-0.6158225,0.45266214,-2.6617012,0.15325826,2.0162988,1.1761563,0.039999023,0.04,0.029076522770510316,0.046200643616522985,0.0020123672028748985,-0.04911169004093785,-0.022681145520907692,-0.03279084806234148,0.993764247227275,-0.08768293357830094,-0.0001975169347101766,-0.06887877088748934
391.83333333330563,0.27140963,-0.61483896,0.45530638,-2.6634843,0.15415418,2.018901,1.1784362,0.039999023,0.04,0.030823544501989986,0.04471837279773627,0.0039601225283014685,-0.04864902312536254,-0.02273290021588456,-0.03242621500270838,0.9937012386451501,-0.08812883217152255,-9.95078821287682e-05,-0.06921811434414625
391.8499999999723,0.27297738,-0.6138621,0.4579324,-2.6652558,0.15504389,2.0214856,1.1807002,0.03999903,0.04,0.029132797854702908,0.04629380870087019,0.003789433317136215,-0.048180896618369634,-0.02277657966471011,-0.03206232895346821,0.9936384241549719,-0.08857101673895638,-1.1302985262407633e-06,-0.06955470534316152
391.86666666663893,0.27453426,-0.61289215,0.46053997,-2.6670146,0.1559273,2.024052,1.1829485,0.039999034,0.04,0.030926319231516786,0.04516787186560345,0.00502687786156919,-0.04770938860276436,-0.022820276972061335,-0.03169329645548839,0.9935758334909656,-0.08900943463745017,9.799937996399349e-05,-0.06988829690567645
391.8833333333056,0.27607998,-0.6119293,0.46312878,-2.6687605,0.15680438,2.0266,1.1851807,0.039999045,0.04,0.031534136373134736,0.04502210927480599,0.005956510346361021,-0.047233827474659956,-0.022858324308338063,-0.03132160539041774,0.9935134816831955,-0.08944406117961962,0.00019790417150306367,-0.0702188184703358
391.89999999997224,0.27761444,-0.61097336,0.46569845,-2.6704943,0.15767506,2.0291288,1.187396,0.039999053,0.04,0.030174142743821797,0.04607550162375462,0.005845174187468771,-0.0467548041975189,-0.02289074469573328,-0.030948933819547497,0.9934513474207523,-0.08987498248537507,0.00029781616275141533,-0.07054657423772386
391.9166666666389,0.27913728,-0.6100247,0.4682489,-2.6722143,0.15853924,2.031639,1.1895953,0.039999057,0.04,0.03332374805218308,0.04402284620131924,0.008210037346767507,-0.04627175777679102,-0.022924848501474665,-0.030570809922185124,0.9933895105744187,-0.0903018398121259,0.0003988087262149855,-0.07087100224253913
391.93333333330554,0.28064847,-0.6090835,0.4707798,-2.673921,0.15939668,2.03413,1.1917776,0.03999906,0.04,0.03235304969149144,0.044990374900077956,0.008070221803224698,-0.04578708080791549,-0.022950115869375814,-0.03019499810305147,0.9933279270823939,-0.09072493225907811,0.000500320022364114,-0.07119245482953351
391.9499999999722,0.28214788,-0.6081495,0.47329086,-2.6756148,0.16024745,2.0366013,1.1939428,0.039999068,0.04,0.032116889878586186,0.04502769756263847,0.008504937114572897,-0.04529723083132836,-0.022970599668553318,-0.029815777401753424,0.9932666191404532,-0.09114407483707129,0.0006019890295894811,-0.0715109679181892
391.96666666663884,0.2836353,-0.6072231,0.4757818,-2.6772952,0.16109148,2.039053,1.1960905,0.039999068,0.04,0.03290217321314515,0.04459978693910349,0.009705075239851979,-0.04480529892941121,-0.022990217227318713,-0.029434221120791415,0.9932056014643146,-0.09155933315657773,0.0007040743878783747,-0.07182636014088584
391.9833333333055,0.2851106,-0.6063042,0.47825232,-2.678962,0.16192853,2.0414844,1.1982206,0.03999907,0.04,0.033251275433077154,0.04456123881660945,0.010243629199480075,-0.04430985278721736,-0.02300559595028434,-0.029049854506630765,0.993144881465906,-0.09197061523100061,0.0008063843114538006,-0.0721387558559555
391.99999999997215,0.28657374,-0.60539305,0.4807023,-2.6806145,0.16275859,2.0438957,1.2003331,0.03999908,0.04,0.03457480903579224,0.043301638526538344,0.011496804359922841,-0.04381147302794941,-0.023018239148323988,-0.028663692849115005,0.9930844785599363,-0.09237800481567435,0.0009093369955761096,-0.07244788317020037
392.0166666666388,0.28802434,-0.6044896,0.48313135,-2.6822534,0.16358165,2.046287,1.202428,0.039999086,0.04,0.03366414794425676,0.04422567786288578,0.012052426670283722,-0.043309150965977566,-0.023024933125091226,-0.02827585227908319,0.9930244346325465,-0.09278107935679217,0.0010125916319651243,-0.07275381910447612
392.03333333330545,0.28946242,-0.6035941,0.48553932,-2.6838772,0.1643975,2.048657,1.2045043,0.039999094,0.04,0.03571315194652591,0.04292119859627963,0.012767798490065374,-0.042806950821367054,-0.023027250708081592,-0.027887757366592145,0.9929646997573919,-0.09318044777526133,0.0011161715321004,-0.0730565763585003
392.0499999999721,0.29088777,-0.6027067,0.4879259,-2.6854873,0.16520609,2.0510056,1.2065623,0.0399991,0.04,0.03417590892484945,0.04405070490076657,0.01294597567687017,-0.04229853464156011,-0.023023269550628306,-0.027497627631456203,0.9929053164806539,-0.09357559729980613,0.0012197098772629086,-0.07335633852812175
392.06666666663875,0.2923003,-0.60182714,0.49029088,-2.6870828,0.16600746,2.0533333,1.2086018,0.039999105,0.04,0.0352308378300803,0.04281668084492596,0.01419460659712879,-0.04178918272146592,-0.023018674350947066,-0.027102799791654586,0.9928463037822423,-0.09396662963034462,0.0013234849389789584,-0.07365282051265475
392.0833333333054,0.2936999,-0.6009557,0.492634,-2.688663,0.16680142,2.0556395,1.2106225,0.039999112,0.04,0.03647343523265345,0.042101666259986015,0.015228534732836252,-0.041277749151334794,-0.023009767145231258,-0.026708319347893486,0.9927876675485199,-0.09435364106119506,0.0014276297226253512,-0.07394592250719245
392.09999999997206,0.29508626,-0.6000924,0.49495518,-2.690228,0.16758788,2.057924,1.2126237,0.039999116,0.04,0.03640863881961831,0.04197897870447109,0.015777801292471416,-0.04076302266685618,-0.02299520577785001,-0.02631518468431636,0.9927293850629065,-0.09473687889570097,0.0015319930019205032,-0.07423573807248601
392.1166666666387,0.29645935,-0.5992373,0.49725395,-2.6917782,0.1683668,2.0601866,1.214606,0.039999116,0.04,0.0358762055171713,0.04250602147539695,0.016143378771560357,-0.040242564077673265,-0.02297601518317309,-0.02592015306522201,0.9926715198485926,-0.09511570883805694,0.0016362956475172508,-0.0745223332315445
392.13333333330536,0.2978191,-0.5983912,0.4995304,-2.6933136,0.1691381,2.0624268,1.2165688,0.03999913,0.04,0.03649940848620137,0.042181582338940427,0.016380185910258582,-0.03972201610434142,-0.022954041495770794,-0.02552334128971584,0.9926140339339737,-0.09549050693322694,0.0017406557956585198,-0.07480583426685675
392.149999999972,0.29916528,-0.59755343,0.5017841,-2.6948338,0.1699017,2.064645,1.2185123,0.03999914,0.04,0.036856569271548345,0.041461623866601016,0.017866878870997915,-0.039198198745936635,-0.022926319277463414,-0.02512497651240453,0.9925569858302228,-0.09586096169592132,0.0018451552783350334,-0.07508595943553589
392.16666666663866,0.30049783,-0.5967238,0.5040149,-2.6963384,0.17065753,2.066841,1.2204357,0.039999142,0.04,0.03675743447097979,0.04099811772513284,0.01819509796879837,-0.03867307165412086,-0.022894266940352404,-0.024725779513808208,0.9925003424225475,-0.09622742800135786,0.0019494861432292768,-0.07536280180000417
392.1833333333053,0.3018166,-0.595903,0.50622255,-2.6978276,0.17140555,2.0690136,1.2223394,0.039999146,0.04,0.03743293735321007,0.041133017162953145,0.018640219891019605,-0.038144272641037424,-0.02286030182002803,-0.024327427853666803,0.9924441412294462,-0.09658955735661083,0.0020536457576879356,-0.07563640980442567
392.19999999997196,0.30312145,-0.59509075,0.5084068,-2.699301,0.17214563,2.0711634,1.2242228,0.039999153,0.04,0.03761221287583716,0.04054014510580517,0.019606347740341867,-0.03761538715181907,-0.022822058325688385,-0.023925573747572496,0.9923883801711432,-0.09694751691827944,0.0021576735740456332,-0.07590669476022718
392.2166666666386,0.30441245,-0.5942875,0.51056755,-2.7007582,0.17287776,2.0732903,1.2260861,0.039999157,0.04,0.03880252404107054,0.03942403540484474,0.02040203468997026,-0.03708293534384792,-0.02277942343860792,-0.023523264584018044,0.9923330894005973,-0.09730123072291696,0.0022619335629899887,-0.07617344574737737
392.23333333330527,0.30568922,-0.5934928,0.5127046,-2.7021997,0.17360185,2.0753937,1.2279289,0.03999917,0.04,0.03736996553085348,0.0402987027688817,0.02040794523412437,-0.036549257248696634,-0.02273129668126965,-0.023122543832083592,0.9922782476242764,-0.09765071455699605,0.0023656357013316386,-0.07643703948958074
392.2499999999719,0.30695185,-0.59270716,0.51481783,-2.7036252,0.1743179,2.0774739,1.2297512,0.039999176,0.04,0.03845313365165026,0.039227967494337435,0.0213361391666389,-0.036013384950276145,-0.02268033133379002,-0.022718023978853502,0.9922238909983014,-0.09799587838080998,0.0024693121537134517,-0.07669719975365395
392.26666666663857,0.30820012,-0.59193027,0.5169071,-2.7050343,0.17502572,2.0795302,1.2315526,0.03999918,0.04,0.03865134070282217,0.03883922997975908,0.021877247992785342,-0.03547595099960607,-0.022625000426732572,-0.022315355462463493,0.9921699954381991,-0.09833694943850875,0.0025726648486033396,-0.07695405072424134
392.2833333333052,0.3094339,-0.5911627,0.5189721,-2.706427,0.17572539,2.0815625,1.2333336,0.039999183,0.04,0.03886077433865598,0.03893462678481452,0.022314470071926884,-0.03493491130663795,-0.022565674014907708,-0.02191141100254758,0.9921166226587504,-0.09867339371705343,0.002675707708746228,-0.07720757090345129
392.2999999999719,0.31065318,-0.5904041,0.5210127,-2.7078037,0.17641674,2.0835705,1.2350932,0.03999919,0.04,0.038465508474216925,0.0386982926918189,0.0226237549041719,-0.03439603468907956,-0.02250201441131809,-0.02150798763575966,0.9920637234852335,-0.0990056800330863,0.002778151194785512,-0.07745789657445637
392.3166666666385,0.31185782,-0.58965445,0.52302885,-2.7091634,0.17709978,2.085555,1.2368318,0.0399992,0.04,0.03969105654604288,0.03700327641757983,0.024170525714906077,-0.03385408660234174,-0.022437577825729832,-0.021100307909480212,0.9920113495878163,-0.09933371147543874,0.002880615877768642,-0.07770455653073617
392.3333333333052,0.31304765,-0.58891416,0.5250203,-2.710507,0.17777453,2.087515,1.2385491,0.039999206,0.04,0.038775773635579824,0.03815686282098163,0.023677966150470464,-0.03330945519012643,-0.022365144030744702,-0.020695896226145594,0.9919594994934569,-0.09965725604405215,0.0029824565031778454,-0.07794798031807844
392.3499999999718,0.31422284,-0.5881833,0.526987,-2.7118332,0.17844081,2.0894508,1.2402449,0.039999217,0.04,0.04029073119418136,0.03629095712083252,0.02472773065799183,-0.03276616724254518,-0.02229150369415868,-0.020290452245972576,0.9919081588282862,-0.09997673059370965,0.0030841734746484815,-0.07818788693685376
392.3666666666385,0.31538317,-0.58746165,0.5289288,-2.7131429,0.17909865,2.0913618,1.241919,0.03999921,0.04,0.03925527813029017,0.03689208957404766,0.024735437043221786,-0.03221859483493017,-0.02221044001728059,-0.01988602769645617,0.9918573429851811,-0.1002918836876329,0.0031852285568579135,-0.07842450861690939
392.38333333330513,0.3165284,-0.5867494,0.53084534,-2.7144356,0.17974794,2.0932484,1.2435718,0.039999224,0.04,0.039918713522113514,0.0362680211344224,0.025971757952369945,-0.03166869313424708,-0.022127148537545417,-0.019480042510285567,0.9918071001720125,-0.10060249073848936,0.003285934016255153,-0.07865759685648226
392.3999999999718,0.3176586,-0.5860465,0.53273666,-2.7157116,0.18038864,2.0951102,1.2452027,0.039999228,0.04,0.03942914349219784,0.03622019406132049,0.025795464037403626,-0.031121161288371293,-0.022039870333496067,-0.0190759281799205,0.9917574005448578,-0.10090874347991012,0.0033859953431801663,-0.07888738168647756
392.41666666663843,0.31877366,-0.5853529,0.53460264,-2.71697,0.18102078,2.0969467,1.2468117,0.03999923,0.04,0.040492064247410475,0.034908308800896126,0.02655767437025336,-0.030571473772312147,-0.021948293444591427,-0.018670660691570973,0.991708262457879,-0.10121065378561468,0.003485445673867403,-0.07911369920258687
392.4333333333051,0.3198736,-0.5846687,0.5364432,-2.718211,0.1816443,2.098758,1.2483987,0.03999923,0.04,0.04030751596375559,0.034732833794670626,0.02679678964653265,-0.030020998242548336,-0.021853934238928424,-0.018267287429352727,0.9916596749440648,-0.1015083567453368,0.0035842367689523065,-0.0793365984113083
392.44999999997174,0.3209582,-0.58399415,0.53825814,-2.7194352,0.18225908,2.100544,1.2499635,0.039999235,0.04,0.039492777396743506,0.03542303379902023,0.027000219088924027,-0.02946834146138433,-0.021755503032999078,-0.01786336235168008,0.9916116548435657,-0.10180158549803878,0.0036821947965729805,-0.07955629836770155
392.4666666666384,0.32202747,-0.58332914,0.5400472,-2.720642,0.18286514,2.1023054,1.2515068,0.039999247,0.04,0.040621298342435885,0.033801547065936965,0.028302208810959684,-0.02891619581114266,-0.021656431245976708,-0.017459118011310282,0.9915642683109986,-0.10209011193892287,0.0037797948944076933,-0.07977232605188629
392.48333333330504,0.32308143,-0.5826737,0.54181063,-2.721831,0.18346252,2.1040409,1.2530276,0.03999925,0.04,0.04089451158586499,0.033294999646027446,0.027930578424895103,-0.02836591621907779,-0.021548979005339357,-0.01705606657620945,0.991517444277558,-0.10237448527243835,0.003876590825140424,-0.07998496422501895
392.4999999999717,0.32411987,-0.5820279,0.5435481,-2.723003,0.18405108,2.1057513,1.2545265,0.039999254,0.04,0.04009768288684157,0.033571111947350296,0.028668754177818556,-0.02781286816207694,-0.021440360857672945,-0.01665450277117614,0.9914712499675281,-0.10265414848104616,0.003972705230659694,-0.08019416375652835
392.51666666663834,0.32514286,-0.58139175,0.54525954,-2.7241573,0.18463089,2.107436,1.2560027,0.039999265,0.04,0.04029526640438874,0.03311071481792993,0.028670772008621004,-0.02726264068174067,-0.021327146659788826,-0.0162528415561021,0.9914256379988277,-0.10292956803956496,0.004067875433868795,-0.08040000454764103
392.533333333305,0.3261503,-0.58076555,0.546945,-2.7252936,0.18520182,2.1090949,1.257456,0.039999265,0.04,0.04158145691128823,0.031788207283944825,0.02954006804087861,-0.026711170159538652,-0.02121250490913941,-0.015852430621519448,0.9913806138629031,-0.10320087674618243,0.004162508377673348,-0.08060230157780042
392.54999999997165,0.3271421,-0.58014894,0.5486042,-2.726413,0.1857639,2.1107283,1.2588865,0.039999276,0.04,0.03951192313054186,0.03293924489007338,0.02932450998127667,-0.026156331959479112,-0.021092393557603034,-0.015454392450187524,0.9913361938663727,-0.10346777310406864,0.004256029391775873,-0.08080134202619908
392.5666666666383,0.32811826,-0.57954216,0.55023736,-2.7275138,0.18631709,2.1123357,1.2602944,0.039999276,0.04,0.0419597635936686,0.030424820637064975,0.03025710179634933,-0.025601990588289256,-0.020970344545971048,-0.015054857986509379,0.9912923942956043,-0.10373040382902106,0.004348990429905498,-0.08099678151258069
392.58333333330495,0.32907873,-0.5789451,0.5518441,-2.7285979,0.18686146,2.1139174,1.26168,0.03999928,0.04,0.039142599461694516,0.03254205678746569,0.029696443763649327,-0.0250457864988219,-0.020842335507717302,-0.014659040841783669,0.9912492370904104,-0.10398831124641514,0.004440640788654571,-0.08118904976155498
392.5999999999716,0.3300236,-0.578358,0.5534247,-2.7296646,0.18739688,2.1154733,1.2630429,0.039999284,0.04,0.040305445797717,0.030971013681857507,0.030218207653642803,-0.024493797246504953,-0.020716141171177108,-0.014261362464870628,0.9912066975448521,-0.10424186947250594,0.004531382768394847,-0.08137801890751216
392.61666666663825,0.33095267,-0.5777806,0.55497885,-2.7307131,0.18792334,2.1170027,1.2643833,0.03999929,0.04,0.04093125579114343,0.03027993963976572,0.03077889120802757,-0.023941392455755134,-0.02058642476607571,-0.013864299749175718,0.9911648047881804,-0.10449090627197595,0.004621022912474785,-0.08156363407126899
392.6333333333049,0.33186603,-0.5772129,0.55650663,-2.7317436,0.18844084,2.1185076,1.265701,0.039999302,0.04,0.04129667503560697,0.028728351941142982,0.031953252403116306,-0.023391084936607867,-0.020452963291080345,-0.01346865781655851,0.9911235799104359,-0.10473562164436967,0.004710332006936957,-0.08174540767941531
392.64999999997156,0.33276364,-0.57665503,0.5580082,-2.7327564,0.1889494,2.1199856,1.2669961,0.039999306,0.04,0.03995581382973956,0.030058524093568018,0.030427328857596248,-0.02283913827382804,-0.02031263247932208,-0.013078938662088355,0.9910829747383475,-0.1049759245835702,0.004798151885735492,-0.08192417335618282
392.6666666666382,0.3336455,-0.5761069,0.5594832,-2.7337508,0.189449,2.1214373,1.2682681,0.039999306,0.04,0.04121458508576925,0.028548785736437488,0.031769426099437226,-0.02228928864740548,-0.020173125005322687,-0.012685996579820724,0.9910430113890523,-0.1052120164825575,0.004884973799486817,-0.08209944089682449
392.68333333330486,0.33451158,-0.57556874,0.5609317,-2.7347276,0.1899396,2.1228628,1.2695173,0.03999931,0.04,0.04025935075213649,0.02896681005180035,0.03147538864235466,-0.021738738650502923,-0.020031131276993117,-0.012296486022848427,0.9910036969440144,-0.10544369334812993,0.004970621656831072,-0.08227145979467305
392.6999999999715,0.3353618,-0.57504046,0.56235373,-2.7356865,0.19042128,2.1242626,1.2707437,0.039999317,0.04,0.040582710332048855,0.028033738658650442,0.03212828344177909,-0.021189503935313922,-0.01988730186936044,-0.011907870449001379,0.9909650533663306,-0.10567095119194543,0.005055312083178132,-0.08244002001817416
392.71666666663816,0.33619615,-0.574522,0.5637493,-2.7366273,0.19089396,2.125636,1.2719474,0.039999325,0.04,0.04067505730211973,0.027602827431350008,0.032221932115095164,-0.020641847687793105,-0.019739836371756296,-0.01152167014886997,0.9909270753029433,-0.10589381650234049,0.0051388978311314795,-0.08260522251773676
392.7333333333048,0.3370149,-0.5740134,0.56511855,-2.7375507,0.19135769,2.1269841,1.273128,0.039999336,0.04,0.03970752958517565,0.027426546527675733,0.03198429606405817,-0.020095330778911374,-0.019588980203816338,-0.011137130861797073,0.9908897360607812,-0.1061125448652445,0.005221389447176709,-0.08276711837352786
392.74999999997146,0.3378178,-0.5735145,0.56646127,-2.738456,0.1918125,2.1283064,1.2742862,0.039999332,0.04,0.04053421848091432,0.02654093678073899,0.03281614636060359,-0.019548347492950632,-0.01943669881600895,-0.010754370373791663,0.9908530976656109,-0.10632675338859249,0.005302852810742646,-0.08292550941882852
392.7666666666381,0.33860484,-0.5730256,0.5677775,-2.7393436,0.19225828,2.1296027,1.2754214,0.039999343,0.04,0.03996022248957676,0.026835023653792867,0.03254819426279365,-0.019004167405309108,-0.019280145025833292,-0.010375964282379635,0.9908171229609792,-0.10653664078447811,0.005383124492732662,-0.08308065351441546
392.78333333330477,0.33937615,-0.5725464,0.5690674,-2.740214,0.19269511,2.1308727,1.2765336,0.039999347,0.04,0.03891008634093751,0.02705663054443086,0.0320453496564399,-0.018461805104951892,-0.019121721062238868,-0.009997623719895224,0.9907817885396628,-0.10674228939910724,0.005461815808592193,-0.0832328043505516
392.7999999999714,0.34013173,-0.5720771,0.570331,-2.7410653,0.19312303,2.1321168,1.2776233,0.03999935,0.04,0.042046114106808474,0.023674465836731606,0.033652846005871595,-0.017920536218458447,-0.01896456157613633,-0.009619573667220951,0.990747156272991,-0.10694371368523056,0.0055398331783051,-0.08338120105005466
392.81666666663807,0.34087157,-0.57161766,0.57156837,-2.7418997,0.19354202,2.1333346,1.2786902,0.03999936,0.04,0.0381542025691628,0.026816499608695032,0.031944745043399614,-0.01737945090243484,-0.018800616864044516,-0.00924867336757458,0.9907131683245756,-0.10714080118326533,0.0056161299311449555,-0.08352679758428418
392.8333333333047,0.3415957,-0.57116795,0.5727795,-2.742716,0.19395213,2.1345263,1.2797345,0.03999936,0.04,0.039985225531014024,0.024587854782209817,0.03296466605194892,-0.01684216880277071,-0.018639444852806525,-0.008873787825260514,0.9906798583137156,-0.10733362660426654,0.005691110286286568,-0.08366912330843167
392.8499999999714,0.3423043,-0.57072794,0.5739643,-2.7435153,0.19435336,2.1356924,1.2807561,0.039999366,0.04,0.038727869334853615,0.025003010120316915,0.03277963252055205,-0.01630606059496905,-0.01847663737255363,-0.00850274560021827,0.9906472218256911,-0.1075221871160091,0.005764703316323106,-0.08380828934243123
392.866666666638,0.34299713,-0.5702976,0.5751229,-2.744297,0.19474573,2.1368327,1.2817552,0.03999937,0.04,0.0388605953786092,0.024571021958075256,0.03302101679971692,-0.01577217463395384,-0.01831317316584874,-0.008133435519771075,0.990615273544839,-0.10770637896545804,0.00583684667552611,-0.08394430874525947
392.8833333333047,0.34367448,-0.56987715,0.57625544,-2.7450602,0.19512926,2.1379478,1.282732,0.039999373,0.04,0.04081665591675332,0.022060281151814465,0.033853100020242444,-0.015242310543841467,-0.01814906872873856,-0.0077659431771955265,0.9905840298635944,-0.10788642998328427,0.005908304684000139,-0.08407669082703302
