rsonawane2002/My_IMU/logs_2/traj_493/imu_493.csv
time,j1,j2,j3,j4,j5,j6,j7,gripper1,gripper2,imu_ax,imu_ay,imu_az,imu_gx,imu_gy,imu_gz
2675.1333333397847,0.00016700293,-0.785875,4.0107683e-05,-2.3551247,9.29385e-05,1.570997,0.786,0.04,0.04,-9.513739,-0.027936238795518875,0.119881175,-6.2253827e-07,-0.0011641273740679026,5.335212e-07
2675.1500000064516,0.00016700137,-0.78576016,4.012484e-05,-2.3552213,9.296655e-05,1.5709941,0.786,0.04,0.04,-9.83452,0.0006315300124697387,0.009057413,-1.5105211e-08,-0.0022390056401491165,1.4155405e-07
2675.1666666731185,0.00016696972,-0.7856542,4.0212097e-05,-2.35531,9.294024e-05,1.5709913,0.786,0.04,0.04,-9.832253,0.0006844405434094369,0.0076909247,7.7229834e-07,-0.003227426903322339,-5.284583e-06
2675.1833333397853,0.00016686105,-0.7855566,4.0485702e-05,-2.355391,9.27752e-05,1.5709884,0.786,0.04,0.04,-9.830857,0.0007675325032323599,0.006273707,2.6144596e-06,-0.004136964678764343,-2.0360236e-05
2675.2000000064522,0.00016660949,-0.7854666,4.1112475e-05,-2.3554645,9.235091e-05,1.5709856,0.786,0.04,0.04,-9.829233,0.0008839406655170023,0.0051211994,6.7433093e-06,-0.004970954731106758,-4.9234433e-05
2675.216666673119,0.00016613216,-0.78538334,4.230445e-05,-2.3555312,9.1522954e-05,1.5709827,0.786,0.04,0.039999995,-9.827753,0.001032959553413093,0.0040761624,1.3939009e-05,-0.0057328022085130215,-9.4876305e-05
2675.233333339786,0.00016533105,-0.78530633,4.4314813e-05,-2.355591,9.009077e-05,1.5709798,0.7860019,0.04,0.04,-9.826229,0.0011830218136310577,0.0032178839,2.5073949e-05,-0.006430299952626228,-0.0001629689
2675.250000006453,0.00016409426,-0.7852348,4.743296e-05,-2.3556483,8.786428e-05,1.570977,0.7860038,0.04,0.039999995,-9.825235,0.0013761024456471205,0.002316611,3.205869e-05,-0.00706302048638463,-0.0002533685
2675.2666666731197,0.00016229787,-0.785168,5.1981056e-05,-2.3556983,8.4599764e-05,1.570974,0.78600574,0.04,0.039999995,-9.824662,0.0015582964988425374,0.0015742718,4.5243258e-05,-0.007654663175344467,-0.00037111726
2675.2833333397866,0.00015980694,-0.78510535,5.8310292e-05,-2.3557413,8.0045014e-05,1.5709708,0.78600955,0.04,0.039999995,-9.823583,0.0017449517035856843,0.00088301604,6.518721e-05,-0.00818714126944542,-0.0005178115
2675.3000000064535,0.00015647693,-0.78504634,6.679759e-05,-2.3557787,7.392115e-05,1.5709671,0.78601336,0.04,0.04,-9.822428,0.0018982868641614914,0.00033174385,8.4281135e-05,-0.008663779124617577,-0.0006963131
2675.3166666731204,0.00015215468,-0.78499025,7.784232e-05,-2.355813,6.5953944e-05,1.5709604,0.7860191,0.04,0.039999995,-9.821931,0.002100893994793296,-0.00022021518,0.00011251949,-0.009095419198274612,-0.00090614415
2675.3333333397873,0.0001466798,-0.7849364,9.186393e-05,-2.3558402,5.5834364e-05,1.5709536,0.7860267,0.04,0.039999995,-9.821682,0.0022392370738089085,-0.00064606534,0.00014242087,-0.009505582973361015,-0.0011512913
2675.350000006454,0.00013988538,-0.7848844,0.00010929928,-2.3558602,4.3240452e-05,1.5709466,0.7860359,0.04,0.04,-9.820974,0.0023474220652133226,-0.0010996223,0.0001747596,-0.009867573156952858,-0.0014331536
2675.366666673121,0.00013159864,-0.7848335,0.00013059989,-2.3558753,2.7853412e-05,1.5709361,0.786047,0.04,0.04,-9.820129,0.0023895828053355217,-0.0014769608,0.00021282793,-0.01018123421818018,-0.0017513853
2675.383333339788,0.00012164237,-0.7847834,0.00015623034,-2.3558853,9.336983e-06,1.5709254,0.78606033,0.04,0.04,-9.8200865,0.0024571928661316633,-0.0017666987,0.00025585448,-0.010476429015398026,-0.0021078095
2675.400000006455,0.00010983498,-0.78473353,0.00018666605,-2.355889,-1.2647527e-05,1.5709118,0.7860756,0.04,0.04,-9.819838,0.0024362956173717976,-0.0020902948,0.0003036408,-0.01073751226067543,-0.0025033383
2675.4166666731217,9.599164e-05,-0.78468335,0.00022239126,-2.3558855,-3.8443846e-05,1.5708971,0.7860936,0.04,0.04,-9.81944,0.0023093470372259617,-0.0023389955,0.00035877313,-0.010973510332405567,-0.0029379285
2675.4333333397885,7.992496e-05,-0.7846322,0.00026389782,-2.355875,-6.842549e-05,1.570879,0.7861146,0.04,0.04,-9.819193,0.0022056647576391697,-0.002601316,0.00041866102,-0.011173103004693985,-0.0034144926
2675.4500000064554,6.144503e-05,-0.78458,0.00031168308,-2.355858,-0.000102940074,1.5708599,0.7861387,0.04,0.04,-9.819015,0.0019791212398558855,-0.0027892604,0.0004837665,-0.011352086439728737,-0.003931129
2675.4666666731223,4.0360523e-05,-0.78452605,0.00036624933,-2.355834,-0.00014234894,1.5708376,0.78616637,0.04,0.04,-9.818852,0.001665772870182991,-0.003002022,0.00055427785,-0.011500637046992779,-0.004488997
2675.483333339789,1.6478827e-05,-0.78446996,0.00042810128,-2.355803,-0.00018701695,1.5708117,0.7861977,0.04,0.04,-9.81863,0.0011817710474133492,-0.0031712581,0.0006296149,-0.011628860607743263,-0.0050883368
2675.500000006456,-1.0393303e-05,-0.7844111,0.00049774605,-2.3557642,-0.00023730239,1.5707833,0.786233,0.04,0.039999995,-9.818752,0.0007490781135857105,-0.0032961364,0.00071029784,-0.01174150314182043,-0.0057285163
2675.516666673123,-4.0449406e-05,-0.7843494,0.00057569204,-2.3557177,-0.00029358812,1.5707518,0.7862724,0.04,0.04,-9.818678,0.00012408150359988213,-0.003474738,0.0007963139,-0.01183169987052679,-0.0064119385
2675.53333333979,-7.388303e-05,-0.7842842,0.0006624468,-2.3556626,-0.0003562384,1.5707169,0.7863164,0.039999995,0.04,-9.818686,-0.0006058304570615292,-0.0036159607,0.0008882308,-0.011902990750968456,-0.0071369647
2675.5500000064567,-0.00011088746,-0.7842151,0.00075851736,-2.3555996,-0.0004256084,1.5706781,0.78636515,0.039999995,0.04,-9.818507,-0.0015564430505037308,-0.0037951223,0.0009849907,-0.011954170651733875,-0.007902739
2675.5666666731236,-0.00015165501,-0.78414184,0.00086440885,-2.3555279,-0.000502071,1.5706354,0.7864188,0.03999999,0.04,-9.818726,-0.00245567224919796,-0.0039010174,0.001086907,-0.011992296203970909,-0.008710675
2675.5833333397904,-0.00019637718,-0.7840639,0.0009806238,-2.3554475,-0.0005859841,1.5705885,0.78647774,0.039999988,0.04,-9.818817,-0.003588350024074316,-0.004038322,0.0011945928,-0.012016279622912407,-0.009559756
2675.6000000064573,-0.00024524415,-0.783981,0.0011076613,-2.355357,-0.0006777056,1.5705371,0.78654224,0.039999984,0.039999995,-9.818938,-0.00485463859513402,-0.004196907,0.0013072909,-0.012028457596898079,-0.010448824
2675.616666673124,-0.00029844476,-0.7838928,0.0012460168,-2.3552566,-0.00077759306,1.570481,0.78661233,0.03999998,0.03999999,-9.818764,-0.006405490450561047,-0.0044060852,0.0014248122,-0.012023094110190868,-0.01137837
2675.633333339791,-0.00035616593,-0.783799,0.0013961819,-2.3551466,-0.00088600046,1.5704199,0.78668845,0.039999977,0.039999988,-9.819026,-0.0078828614205122,-0.0045080488,0.0015486208,-0.012007152661681175,-0.012348026
2675.650000006458,-0.00041859306,-0.78369904,0.0015586417,-2.3550262,-0.0010032777,1.5703543,0.7867708,0.03999997,0.03999998,-9.819183,-0.009644517675042152,-0.004672238,0.0016771695,-0.011981123127043247,-0.013357332
2675.666666673125,-0.00048590908,-0.7835927,0.0017338772,-2.3548949,-0.0011297715,1.5702835,0.78685963,0.039999966,0.039999977,-9.81914,-0.011710082180798054,-0.0049567353,0.0018108332,-0.011941463686525822,-0.01440582
2675.6833333397917,-0.00055829476,-0.78347963,0.0019223635,-2.3547528,-0.0012658238,1.5702075,0.7869552,0.03999996,0.039999973,-9.819405,-0.013701812364161015,-0.005084862,0.0019497493,-0.011892405338585377,-0.01549296
2675.7000000064586,-0.0006359286,-0.78335935,0.0021245684,-2.3545985,-0.0014117723,1.5701258,0.7870578,0.039999958,0.03999997,-9.819561,-0.01601206138730049,-0.005310199,0.0020937482,-0.011833172291517258,-0.016618216
2675.7166666731255,-0.0007189864,-0.7832323,0.002340955,-2.354433,-0.0015679495,1.5700387,0.78716755,0.039999954,0.039999966,-9.819638,-0.018517937511205673,-0.005564121,0.0022421475,-0.011763371527194977,-0.017780986
2675.7333333397924,-0.00080764183,-0.78309745,0.0025719777,-2.3542552,-0.0017346835,1.5699452,0.7872847,0.039999954,0.03999997,-9.819625,-0.02138545736670494,-0.0058581065,0.0023956094,-0.011682529002428055,-0.018981539
2675.7500000064592,-0.00090206525,-0.78295463,0.002818084,-2.354065,-0.0019122972,1.569846,0.7874094,0.039999954,0.03999997,-9.819915,-0.02415022812783718,-0.0060489946,0.0025543019,-0.011594895273447037,-0.020217504
2675.766666673126,-0.0010024244,-0.7828038,0.0030797145,-2.3538628,-0.002101108,1.5697405,0.78754205,0.03999995,0.039999966,-9.820051,-0.027287986129522324,-0.0063487175,0.002717831,-0.011497781611979008,-0.021489106
2675.783333339793,-0.001108884,-0.7826439,0.0033573024,-2.3536475,-0.002301428,1.5696285,0.7876828,0.03999995,0.039999966,-9.820277,-0.030655615031719208,-0.006653652,0.0028860294,-0.011395873501896858,-0.022796566
2675.80000000646,-0.0012216063,-0.7824757,0.0036512723,-2.353418,-0.002513562,1.56951,0.7878317,0.03999995,0.03999997,-9.82031,-0.03440365567803383,-0.0071239253,0.0030585006,-0.011289572343230247,-0.024137326
2675.8166666731267,-0.0013407494,-0.7822985,0.003962041,-2.3531756,-0.0027378122,1.5693847,0.7879893,0.03999995,0.03999998,-9.820494,-0.03808140382170677,-0.007372453,0.0032361664,-0.01117099542170763,-0.025515987
2675.8333333397936,-0.0014664696,-0.782112,0.004290016,-2.3529193,-0.0029744678,1.5692526,0.7881556,0.039999947,0.04,-9.820683,-0.04213419556617737,-0.0077539086,0.003417305,-0.011047706007957458,-0.026926083
2675.8500000064605,-0.0015989194,-0.7819158,0.004635599,-2.3526492,-0.003223805,1.5691135,0.7883308,0.039999947,0.04,-9.820849,-0.046426936984062195,-0.008175699,0.003603241,-0.010918989777565002,-0.028365571
2675.8666666731274,-0.0017382469,-0.78170985,0.004999181,-2.3523653,-0.003486114,1.5689671,0.78851515,0.039999947,0.04,-9.820882,-0.051168426871299744,-0.0087368805,0.0037932296,-0.010786979459226131,-0.029836098
2675.8833333397943,-0.001884599,-0.78149396,0.0053811446,-2.3520665,-0.0037616743,1.5688133,0.7887088,0.039999947,0.04,-9.821275,-0.05580196529626846,-0.009110514,0.0039875004,-0.010652783326804638,-0.03133716
2675.900000006461,-0.002038118,-0.781268,0.0057818657,-2.3517525,-0.0040507563,1.568652,0.788912,0.039999947,0.04,-9.821387,-0.06087978929281235,-0.009617694,0.0041856123,-0.010512742213904858,-0.032867964
2675.916666673128,-0.0021989434,-0.78103155,0.0062017064,-2.351423,-0.0043536136,1.568483,0.78912485,0.039999947,0.04,-9.821326,-0.06642001122236252,-0.010247624,0.004387692,-0.010367552749812603,-0.034427777
2675.933333339795,-0.0023672103,-0.7807844,0.006641027,-2.3510776,-0.004670513,1.5683059,0.78934747,0.03999995,0.04,-9.821595,-0.0718410313129425,-0.010708535,0.0045939675,-0.010217530652880669,-0.036015857
2675.950000006462,-0.002543052,-0.7805265,0.0071001723,-2.3507159,-0.0050016893,1.5681208,0.78958017,0.039999947,0.04,-9.82167,-0.07774405181407928,-0.011297118,0.0048042526,-0.01006270106881857,-0.037632115
2675.9666666731287,-0.002726596,-0.78025746,0.007579482,-2.350338,-0.005347419,1.5679276,0.78982335,0.039999936,0.04,-9.821693,-0.08392641693353653,-0.01191478,0.0050178724,-0.009901602752506733,-0.039276585
2675.9833333397955,-0.002917969,-0.77997696,0.008079288,-2.349944,-0.0057079205,1.5677264,0.7900768,0.039999932,0.04,-9.821622,-0.09058679640293121,-0.012689013,0.005233927,-0.00973772257566452,-0.040945064
2676.0000000064624,-0.0031172934,-0.77968526,0.008599907,-2.349534,-0.0060834256,1.5675168,0.7903407,0.039999925,0.04,-9.821971,-0.09713923186063766,-0.013270975,0.0054539833,-0.00957279559224844,-0.042639315
2676.0166666731293,-0.0033246872,-0.7793817,0.009141658,-2.3491073,-0.0064741685,1.5672985,0.7906153,0.039999917,0.04,-9.822044,-0.10418528318405151,-0.013971407,0.005677905,-0.00940463226288557,-0.044357628
2676.033333339796,-0.0035402647,-0.77906656,0.009704838,-2.3486629,-0.006880376,1.5670718,0.79090077,0.039999913,0.04,-9.82217,-0.11153550446033478,-0.014737301,0.005905048,-0.009237173944711685,-0.046099074
2676.050000006463,-0.003764139,-0.7787394,0.010289737,-2.348201,-0.0073022307,1.5668362,0.79119724,0.03999991,0.04,-9.821925,-0.11939965188503265,-0.015628688,0.00613524,-0.009063206613063812,-0.047862154
2676.06666667313,-0.0039964193,-0.7783999,0.010896645,-2.347722,-0.0077399574,1.5665917,0.79150486,0.03999991,0.04,-9.822145,-0.12713903188705444,-0.016325902,0.0063683777,-0.008886496536433697,-0.04964767
2676.083333339797,-0.004237208,-0.77804834,0.011525835,-2.3472257,-0.008193727,1.5663384,0.79182374,0.039999906,0.04,-9.82223,-0.13540585339069366,-0.017183835,0.006604638,-0.008711233735084534,-0.051453188
2676.1000000064637,-0.0044866074,-0.77768415,0.012177573,-2.3467112,-0.008663746,1.5660759,0.792154,0.039999902,0.04,-9.822249,-0.1439875066280365,-0.018047445,0.0068436465,-0.008533773943781853,-0.05327863
2676.1166666731306,-0.004744715,-0.7773074,0.012852118,-2.3461783,-0.00915022,1.5658042,0.7924959,0.0399999,0.04,-9.822022,-0.15312683582305908,-0.019118901,0.007085529,-0.008354851976037025,-0.055123992
2676.1333333397974,-0.0050116265,-0.77691776,0.013549716,-2.3456275,-0.009653295,1.5655233,0.79284936,0.039999895,0.04,-9.822163,-0.16210736334323883,-0.019919368,0.007329624,-0.008173605427145958,-0.05698681
2676.1500000064643,-0.0052874326,-0.7765153,0.014270607,-2.3450584,-0.010173151,1.565233,0.7932146,0.03999989,0.04,-9.822213,-0.17165811359882355,-0.020921571,0.0075769657,-0.007995592430233955,-0.058867067
2676.166666673131,-0.0055722203,-0.77609974,0.01501502,-2.3444705,-0.010709958,1.5649333,0.7935918,0.039999887,0.04,-9.821926,-0.18177540600299835,-0.022081416,0.0078265285,-0.007815287448465824,-0.060764927
2676.183333339798,-0.005866073,-0.77567106,0.015783178,-2.343864,-0.01126389,1.5646242,0.79398113,0.039999887,0.04,-9.822028,-0.19173738360404968,-0.02299428,0.008078429,-0.007634446024894714,-0.06267932
2676.200000006465,-0.0061690733,-0.77522904,0.016575294,-2.3432386,-0.011835079,1.5643053,0.7943826,0.039999884,0.04,-9.821959,-0.2022663652896881,-0.024088267,0.008331522,-0.007453363388776779,-0.064607754
2676.216666673132,-0.006481296,-0.77477366,0.017391566,-2.3425934,-0.012423683,1.5639765,0.7947963,0.039999876,0.04,-9.821873,-0.21313780546188354,-0.025212493,0.008587125,-0.007275143638253212,-0.06655033
2676.2333333397987,-0.0068028164,-0.7743047,0.01823219,-2.3419294,-0.013029848,1.5636381,0.7952223,0.039999865,0.04,-9.821386,-0.22460122406482697,-0.026500957,0.00884438,-0.00709349662065506,-0.06850782
2676.2500000064656,-0.0071337046,-0.7738222,0.019097354,-2.341246,-0.0136536695,1.5632898,0.7956608,0.039999865,0.04,-9.821503,-0.23588131368160248,-0.027551357,0.009103812,-0.006914721801877022,-0.07047453
2676.2666666731325,-0.0074740266,-0.7733259,0.019987239,-2.3405428,-0.014295305,1.5629314,0.79611176,0.03999986,0.04,-9.821291,-0.24778065085411072,-0.028771415,0.009364264,-0.0067361206747591496,-0.07245463
2676.2833333397994,-0.007823849,-0.77281594,0.020902,-2.3398201,-0.014954877,1.5625632,0.7965753,0.039999854,0.04,-9.821072,-0.2600134313106537,-0.030017298,0.009626839,-0.006559434812515974,-0.074446335
2676.3000000064662,-0.00818323,-0.77229196,0.021841807,-2.3390772,-0.015632492,1.5621849,0.79705167,0.03999985,0.04,-9.820565,-0.272849440574646,-0.031451773,0.00989095,-0.006382331717759371,-0.07644741
2676.316666673133,-0.008552231,-0.7717539,0.022806812,-2.3383145,-0.016328288,1.5617964,0.7975406,0.039999858,0.04,-9.820473,-0.28556761145591736,-0.032624923,0.010155784,-0.006206321530044079,-0.07846681
2676.3333333398,-0.008930902,-0.7712017,0.02379715,-2.3375323,-0.017042318,1.5613978,0.7980425,0.03999985,0.04,-9.82016,-0.2987857162952423,-0.033975657,0.010422746,-0.006032322067767382,-0.080485344
2676.350000006467,-0.009319294,-0.7706353,0.024812965,-2.3367293,-0.017774696,1.5609889,0.7985572,0.039999846,0.04,-9.819891,-0.31241339445114136,-0.035357308,0.0106903585,-0.005863244645297527,-0.082511514
2676.3666666731338,-0.009717457,-0.7700548,0.025854373,-2.3359063,-0.018525505,1.5605696,0.7990849,0.039999843,0.04,-9.819182,-0.3266438841819763,-0.036925994,0.010959458,-0.005693232640624046,-0.08454384
2676.3833333398006,-0.010125432,-0.76946,0.026921494,-2.3350635,-0.019294852,1.5601401,0.7996256,0.039999835,0.04,-9.81901,-0.3407227098941803,-0.038198613,0.011229392,-0.005526839755475521,-0.086584605
2676.4000000064675,-0.010543263,-0.76885086,0.028014438,-2.3341997,-0.020082803,1.5597001,0.80017936,0.039999828,0.04,-9.818593,-0.3554048538208008,-0.039673507,0.0115003195,-0.005363868549466133,-0.08863057
2676.4166666731344,-0.0109709855,-0.7682273,0.029133301,-2.333315,-0.020889409,1.5592498,0.80074626,0.03999982,0.04,-9.817794,-0.3706871271133423,-0.04132007,0.011771748,-0.005201973952353001,-0.09067855
2676.4333333398013,-0.011408637,-0.7675893,0.03027818,-2.33241,-0.02171475,1.5587889,0.8013264,0.03999982,0.04,-9.817426,-0.38581785559654236,-0.042688385,0.012043847,-0.005041155498474836,-0.09273115
2676.450000006468,-0.011856249,-0.7669365,0.031449154,-2.3314853,-0.022558909,1.5583175,0.8019197,0.03999981,0.04,-9.816911,-0.4015768766403198,-0.044238426,0.012316379,-0.00488587049767375,-0.09478826
2676.466666673135,-0.0123138465,-0.7662693,0.03264631,-2.3305392,-0.023421919,1.5578357,0.80252624,0.039999798,0.04,-9.81636,-0.41767603158950806,-0.045840792,0.012589375,-0.004737348295748234,-0.09684661
2676.483333339802,-0.01278146,-0.7655874,0.033869702,-2.3295724,-0.02430385,1.5573435,0.803146,0.03999979,0.04,-9.815339,-0.4343966543674469,-0.047584374,0.012862861,-0.004588155075907707,-0.09890639
2676.500000006469,-0.013259107,-0.76489097,0.03511939,-2.328585,-0.02520472,1.5568404,0.80377924,0.039999787,0.04,-9.814869,-0.4509370028972626,-0.049081467,0.013137,-0.0044427732937037945,-0.10096594
2676.5166666731357,-0.01374681,-0.76418,0.036395445,-2.327577,-0.026124557,1.5563265,0.8044257,0.039999783,0.04,-9.814114,-0.46811017394065857,-0.050711583,0.0134103615,-0.004303448833525181,-0.10302535
2676.5333333398025,-0.014244587,-0.7634541,0.03769788,-2.3265479,-0.02706341,1.5558022,0.8050856,0.03999977,0.04,-9.81332,-0.48565295338630676,-0.052385,0.013684573,-0.004170154221355915,-0.10508549
2676.5500000064694,-0.014752445,-0.76271355,0.03902676,-2.3254976,-0.028021311,1.5552672,0.80575895,0.039999757,0.04,-9.812128,-0.503798246383667,-0.05425481,0.013958265,-0.0040384698659181595,-0.107143305
2676.5666666731363,-0.015270402,-0.7619583,0.0403821,-2.3244267,-0.028998276,1.5547217,0.8064456,0.03999975,0.04,-9.811416,-0.5217633247375488,-0.05582007,0.014231308,-0.0039108432829380035,-0.10919877
2676.583333339803,-0.015798463,-0.7611883,0.041763917,-2.3233345,-0.029994313,1.5541656,0.8071455,0.03999974,0.04,-9.810446,-0.5403580665588379,-0.057561822,0.014504672,-0.003788520349189639,-0.111251056
2676.60000000647,-0.016336631,-0.76040363,0.043172225,-2.3222222,-0.031009424,1.5535989,0.80785877,0.03999973,0.04,-9.809312,-0.5593053102493286,-0.059323095,0.0147785125,-0.003667898243293166,-0.11329958
2676.616666673137,-0.016884917,-0.75960404,0.04460704,-2.3210886,-0.032043625,1.5530212,0.808586,0.039999723,0.04,-9.808092,-0.5788857936859131,-0.061240636,0.015051936,-0.0035575043875724077,-0.11534371
2676.633333339804,-0.017443309,-0.75878996,0.04606836,-2.3199337,-0.033096902,1.552433,0.809327,0.039999716,0.04,-9.807077,-0.5982679128646851,-0.06289331,0.015322633,-0.0034509324468672276,-0.117383316
2676.6500000064707,-0.018011805,-0.75796103,0.04755617,-2.3187573,-0.03416926,1.5518343,0.81008047,0.039999705,0.04,-9.805778,-0.6182676553726196,-0.06468756,0.015590689,-0.003346929792314768,-0.11941633
2676.6666666731376,-0.018590394,-0.757117,0.049070455,-2.3175611,-0.03526069,1.5512248,0.8108474,0.039999697,0.04,-9.80415,-0.6388962268829346,-0.066670865,0.015862284,-0.0032452642917633057,-0.12144278
2676.6833333398044,-0.01917908,-0.7562588,0.050611198,-2.316344,-0.03637119,1.5506047,0.81162786,0.03999969,0.04,-9.803171,-0.6593522429466248,-0.06837613,0.016133355,-0.003156793536618352,-0.12346416
2676.7000000064713,-0.01977785,-0.75538534,0.05217836,-2.3151057,-0.03750071,1.549974,0.81242174,0.039999682,0.04,-9.801659,-0.6803857088088989,-0.07018611,0.0164026,-0.003071077400818467,-0.12547502
2676.716666673138,-0.020386675,-0.7544976,0.05377191,-2.313846,-0.038649235,1.5493327,0.813229,0.039999675,0.04,-9.800137,-0.7017883658409119,-0.07209303,0.016671006,-0.002993085654452443,-0.12747806
2676.733333339805,-0.021005549,-0.7535952,0.055391807,-2.312566,-0.039816704,1.548681,0.81404966,0.039999664,0.04,-9.798174,-0.7237940430641174,-0.074083,0.016937878,-0.0029162410646677017,-0.12947032
2676.750000006472,-0.021634446,-0.7526781,0.057037987,-2.3112652,-0.041003123,1.5480187,0.81488353,0.03999965,0.04,-9.796767,-0.7456228733062744,-0.07580717,0.017203482,-0.002846579998731613,-0.13145508
2676.766666673139,-0.022273354,-0.75174636,0.058710396,-2.3099442,-0.042208415,1.5473456,0.8157307,0.03999964,0.04,-9.795009,-0.7680673599243164,-0.07769343,0.01746828,-0.002783643314614892,-0.13343138
2676.7833333398057,-0.022922238,-0.7508001,0.060408965,-2.3086016,-0.043432586,1.5466621,0.8165911,0.039999645,0.04,-9.79322,-0.7908492684364319,-0.07958071,0.01773168,-0.002730655949562788,-0.13539813
2676.8000000064726,-0.023581075,-0.7498391,0.062133636,-2.3072386,-0.044675518,1.545968,0.8174647,0.039999645,0.04,-9.79094,-0.8141892552375793,-0.081615105,0.017993765,-0.00268083019182086,-0.13734877
2676.8166666731395,-0.02424983,-0.7488636,0.06388431,-2.3058558,-0.045937173,1.5452632,0.8183515,0.039999638,0.04,-9.789162,-0.8373512029647827,-0.08337374,0.018254641,-0.0026383691001683474,-0.13928542
2676.8333333398064,-0.024928475,-0.74787384,0.06566092,-2.3044524,-0.047217485,1.5445484,0.81925136,0.039999623,0.04,-9.787198,-0.8611329793930054,-0.085279815,0.01851411,-0.002609552349895239,-0.14120933
2676.8500000064732,-0.02561697,-0.7468696,0.06746338,-2.3030276,-0.048516396,1.5438226,0.82016426,0.039999615,0.04,-9.784924,-0.8852196931838989,-0.087173425,0.018772027,-0.0025825819466263056,-0.14311825
2676.86666667314,-0.026315274,-0.74585116,0.06929157,-2.3015838,-0.049833845,1.5430872,0.82109016,0.03999959,0.04,-9.782278,-0.9099217653274536,-0.08920697,0.019028366,-0.0025623280089348555,-0.14501584
2676.883333339807,-0.027023356,-0.74481833,0.071145415,-2.300119,-0.05116977,1.5423417,0.8220292,0.03999959,0.04,-9.780253,-0.9344010353088379,-0.09097349,0.019283304,-0.0025506895035505295,-0.1468973
2676.900000006474,-0.027741171,-0.7437713,0.07302475,-2.298634,-0.05252404,1.541585,0.82298106,0.039999574,0.04,-9.777681,-0.9594652056694031,-0.092867285,0.019536138,-0.002543673850595951,-0.14876258
2676.9166666731408,-0.02846867,-0.7427102,0.074929506,-2.2971294,-0.053896606,1.5408186,0.8239458,0.039999567,0.04,-9.774863,-0.9850982427597046,-0.09486972,0.019787025,-0.0025480291806161404,-0.15061012
2676.9333333398076,-0.029205814,-0.74163496,0.07685956,-2.2956047,-0.055287365,1.5400422,0.82492334,0.03999955,0.04,-9.772466,-1.010570764541626,-0.09661772,0.020036208,-0.0025600430089980364,-0.15244491
2676.9500000064745,-0.029952534,-0.7405457,0.07881476,-2.2940598,-0.056696236,1.5392555,0.8259136,0.03999953,0.04,-9.769613,-1.036573886871338,-0.09848635,0.020283686,-0.0025774419773370028,-0.1542606
2676.9666666731414,-0.030708792,-0.7394426,0.08079497,-2.2924955,-0.058123123,1.5384588,0.8269166,0.03999952,0.04,-9.766702,-1.062880516052246,-0.10033957,0.020528674,-0.002603130415081978,-0.15605769
2676.9833333398083,-0.031474542,-0.7383256,0.08280007,-2.2909112,-0.059567925,1.5376523,0.8279322,0.039999507,0.04,-9.763469,-1.0897835493087769,-0.10230875,0.020771937,-0.0026374966837465763,-0.15783797
2677.000000006475,-0.032249693,-0.7371949,0.0848299,-2.2893076,-0.06103052,1.5368357,0.82896024,0.039999504,0.04,-9.760526,-1.1164166927337646,-0.10400076,0.021012403,-0.0026773829013109207,-0.1595959
2677.016666673142,-0.033034228,-0.73605067,0.08688428,-2.287685,-0.06251079,1.5360091,0.83000076,0.039999485,0.04,-9.757335,-1.1436767578125,-0.10580237,0.02125152,-0.0027277618646621704,-0.16133851
2677.033333339809,-0.033828065,-0.73489267,0.08896308,-2.2860425,-0.064008616,1.5351726,0.8310537,0.039999474,0.04,-9.753994,-1.1711711883544922,-0.10758602,0.021488324,-0.0027866128366440535,-0.16305785
2677.050000006476,-0.034631137,-0.7337212,0.09106614,-2.2843819,-0.06552393,1.5343266,0.8321188,0.03999945,0.04,-9.750253,-1.1992394924163818,-0.10949142,0.021722514,-0.0028538787737488747,-0.16475916
2677.0666666731427,-0.035443403,-0.73253626,0.093193285,-2.2827015,-0.06705656,1.5334707,0.8331961,0.039999444,0.04,-9.74704,-1.2270869016647339,-0.11112574,0.02195522,-0.0029330668039619923,-0.16643816
2677.0833333398095,-0.036264762,-0.73133814,0.095344365,-2.281002,-0.06860642,1.5326054,0.83428556,0.039999425,0.04,-9.74322,-1.2554644346237183,-0.11285465,0.022185218,-0.003017526352778077,-0.16809757
2677.1000000064764,-0.037095178,-0.7301267,0.09751914,-2.279284,-0.07017331,1.5317305,0.8353869,0.039999418,0.04,-9.739327,-1.2840944528579712,-0.11454684,0.02241276,-0.0031081081833690405,-0.16973071
2677.1166666731433,-0.037934564,-0.7289022,0.099717475,-2.2775474,-0.07175719,1.5308459,0.83650017,0.039999396,0.04,-9.735174,-1.313310980796814,-0.1163699,0.022638466,-0.0032088635489344597,-0.17134966
2677.13333333981,-0.03878283,-0.72766465,0.10193913,-2.2757928,-0.07335785,1.5299519,0.8376252,0.039999392,0.04,-9.731358,-1.3422340154647827,-0.11787185,0.022861881,-0.0033206013031303883,-0.17294039
2677.150000006477,-0.03963993,-0.726414,0.10418399,-2.2740197,-0.07497521,1.5290487,0.83876204,0.039999396,0.04,-9.727194,-1.3717141151428223,-0.11951174,0.0230833,-0.003442504210397601,-0.174511
2677.166666673144,-0.040505763,-0.7251508,0.10645176,-2.2722287,-0.07660899,1.5281365,0.83991045,0.039999384,0.04,-9.722577,-1.4016364812850952,-0.12123618,0.02330181,-0.003572339192032814,-0.17605181
2677.183333339811,-0.041380268,-0.72387505,0.10874229,-2.2704194,-0.07825916,1.5272149,0.8410703,0.03999936,0.04,-9.718366,-1.4314038753509521,-0.1226687,0.023518084,-0.0037104482762515545,-0.17757286
2677.2000000064777,-0.042263336,-0.7225864,0.11105536,-2.2685924,-0.079925545,1.5262843,0.8422417,0.03999935,0.04,-9.7136965,-1.46159029006958,-0.124176,0.023731887,-0.0038559187669306993,-0.17906472
2677.2166666731446,-0.043154914,-0.72128564,0.11339071,-2.2667475,-0.08160797,1.525345,0.8434244,0.039999332,0.04,-9.70901,-1.4920974969863892,-0.12569137,0.023943257,-0.004012871067970991,-0.18053475
2677.2333333398115,-0.044054896,-0.7199725,0.11574817,-2.2648852,-0.0833063,1.5243968,0.84461826,0.03999932,0.04,-9.703809,-1.5230003595352173,-0.12722902,0.024151178,-0.004174557980149984,-0.18197694
2677.2500000064783,-0.044963215,-0.7186471,0.11812747,-2.2630062,-0.08502036,1.5234398,0.84582305,0.039999295,0.04,-9.699053,-1.5537387132644653,-0.12852848,0.024356889,-0.004346151370555162,-0.1833947
2677.266666673145,-0.045879763,-0.71730983,0.12052842,-2.2611098,-0.086749956,1.5224742,0.8470389,0.039999284,0.04,-9.693954,-1.5849218368530273,-0.12988813,0.02456106,-0.004529363010078669,-0.18478571
2677.283333339812,-0.046804458,-0.71596056,0.12295077,-2.2591963,-0.08849497,1.5214999,0.8482656,0.03999927,0.04,-9.688593,-1.6163209676742554,-0.13120155,0.0247617,-0.004718422424048185,-0.18615037
2677.300000006479,-0.047737207,-0.71459955,0.12539425,-2.257266,-0.09025516,1.5205168,0.8495028,0.039999247,0.04,-9.682904,-1.6481516361236572,-0.13257965,0.024959788,-0.004917114973068237,-0.18748753
2677.316666673146,-0.048677918,-0.7132268,0.12785864,-2.2553198,-0.09203046,1.5195256,0.85075057,0.03999923,0.04,-9.677527,-1.679776906967163,-0.13368745,0.025156142,-0.005124986637383699,-0.1887984
2677.3333333398127,-0.0496265,-0.7118426,0.13034366,-2.2533572,-0.09382056,1.5185261,0.8520088,0.03999921,0.04,-9.671904,-1.711837887763977,-0.13489038,0.025350297,-0.005344418343156576,-0.19008008
2677.3500000064796,-0.05058284,-0.71044725,0.13284911,-2.2513788,-0.09562531,1.5175183,0.8532774,0.039999194,0.04,-9.665972,-1.7440619468688965,-0.13600504,0.025541717,-0.005571385845541954,-0.19133142
2677.3666666731465,-0.05154685,-0.7090407,0.13537474,-2.249384,-0.09744456,1.5165025,0.85455614,0.039999176,0.04,-9.659721,-1.7767444849014282,-0.13716723,0.025730535,-0.005807850509881973,-0.19255841
2677.3833333398134,-0.05251842,-0.70762306,0.13792025,-2.2473733,-0.09927811,1.5154787,0.85584486,0.03999916,0.04,-9.653736,-1.8091825246810913,-0.13809234,0.025916692,-0.00605161115527153,-0.19375402
2677.4000000064802,-0.05349747,-0.7061943,0.14048536,-2.2453473,-0.101125754,1.514447,0.85714364,0.03999914,0.04,-9.647342,-1.8420166969299316,-0.13905114,0.026100734,-0.006301926914602518,-0.19492196
2677.416666673147,-0.054483883,-0.70475495,0.14306982,-2.2433057,-0.102987334,1.5134076,0.8584521,0.03999912,0.04,-9.640701,-1.8752272129058838,-0.14006536,0.02628177,-0.006564025767147541,-0.19606124
2677.433333339814,-0.05547754,-0.7033048,0.1456734,-2.241249,-0.10486259,1.5123603,0.8597702,0.039999112,0.04,-9.634226,-1.9081965684890747,-0.1408071,0.02646036,-0.006831755395978689,-0.19716617
2677.450000006481,-0.056478348,-0.7018444,0.1482957,-2.239178,-0.10675135,1.5113057,0.86109763,0.039999083,0.04,-9.627439,-1.9416052103042603,-0.14159517,0.026636653,-0.007109719328582287,-0.1982474
2677.4666666731478,-0.05748619,-0.7003737,0.15093656,-2.2370925,-0.108653426,1.5102437,0.86243457,0.039999068,0.04,-9.620546,-1.9751043319702148,-0.14231585,0.02681136,-0.00739741325378418,-0.19929452
2677.4833333398146,-0.05850097,-0.69889283,0.15359564,-2.2349927,-0.1105686,1.5091743,0.86378074,0.039999045,0.04,-9.613246,-2.0089821815490723,-0.1430609,0.026982892,-0.007693671155720949,-0.20031226
2677.5000000064815,-0.059522573,-0.69740194,0.15627265,-2.2328794,-0.11249667,1.5080978,0.8651359,0.03999902,0.04,-9.606218,-2.0426626205444336,-0.14358065,0.027152386,-0.007998897694051266,-0.20130076
2677.5166666731484,-0.060550876,-0.6959013,0.15896726,-2.230752,-0.11443745,1.5070142,0.8665001,0.039999012,0.04,-9.5988865,-2.0766594409942627,-0.14411375,0.027319767,-0.008315944112837315,-0.20225805
2677.5333333398153,-0.061585784,-0.69439113,0.16167921,-2.2286105,-0.11639063,1.5059235,0.8678729,0.03999899,0.04,-9.591287,-2.1107704639434814,-0.14457989,0.02748404,-0.008640095591545105,-0.20318264
2677.550000006482,-0.06262716,-0.6928714,0.16440818,-2.2264552,-0.11835605,1.5048262,0.86925435,0.039998982,0.04,-9.583305,-2.14518141746521,-0.1450372,0.027646514,-0.008970667608082294,-0.20407507
2677.566666673149,-0.06367493,-0.69134223,0.1671539,-2.2242868,-0.12033351,1.5037221,0.8706443,0.039998956,0.04,-9.575559,-2.1794235706329346,-0.14528506,0.02780618,-0.009306509047746658,-0.20493953
2677.583333339816,-0.064728916,-0.6898041,0.16991602,-2.2221057,-0.12232277,1.5026113,0.8720425,0.03999894,0.04,-9.567556,-2.2139291763305664,-0.14554636,0.027963528,-0.009651951491832733,-0.20577024
2677.600000006483,-0.06578905,-0.688257,0.1726943,-2.219912,-0.12432359,1.501494,0.8734487,0.03999893,0.04,-9.559381,-2.2485592365264893,-0.14571233,0.02811869,-0.010006188414990902,-0.20656843
2677.6166666731497,-0.06685517,-0.6867011,0.17548835,-2.2177057,-0.12633575,1.5003706,0.8748632,0.0399989,0.04,-9.550819,-2.283442497253418,-0.1458637,0.028272135,-0.010368557646870613,-0.20733464
2677.6333333398165,-0.06792717,-0.6851367,0.17829789,-2.2154875,-0.12835902,1.4992409,0.87628543,0.039998885,0.04,-9.542481,-2.3181331157684326,-0.14581893,0.028422087,-0.010736901313066483,-0.20806652
2677.6500000064834,-0.0690049,-0.6835636,0.18112257,-2.213257,-0.13039318,1.498105,0.87771523,0.039998867,0.04,-9.533813,-2.353087902069092,-0.14575544,0.028570201,-0.011113328859210014,-0.20876755
2677.6666666731503,-0.07008829,-0.68198234,0.1839621,-2.2110152,-0.13243803,1.4969634,0.87915254,0.03999884,0.04,-9.524819,-2.388262987136841,-0.14568967,0.028716994,-0.011499335058033466,-0.20943654
2677.683333339817,-0.07117719,-0.6803931,0.18681619,-2.2087617,-0.13449332,1.4958156,0.88059735,0.039998814,0.04,-9.5160055,-2.4232540130615234,-0.14542216,0.028861336,-0.011890915222465992,-0.21007279
2677.700000006484,-0.0722715,-0.67879605,0.18968445,-2.2064972,-0.13655871,1.4946625,0.8820489,0.039998796,0.04,-9.506844,-2.45843505859375,-0.14510606,0.029002707,-0.012289864011108875,-0.21067344
2677.716666673151,-0.07337106,-0.67719114,0.19256654,-2.2042212,-0.13863404,1.4935036,0.88350743,0.039998766,0.04,-9.497554,-2.4937314987182617,-0.14472158,0.029144118,-0.012695495039224625,-0.21124393
2677.733333339818,-0.07447572,-0.6755789,0.19546218,-2.2019358,-0.14071907,1.4923394,0.8849731,0.03999875,0.04,-9.487857,-2.529162645339966,-0.14429793,0.029283449,-0.013107446022331715,-0.21177928
2677.7500000064847,-0.0755854,-0.6739594,0.19837098,-2.1996388,-0.14281358,1.4911702,0.88644516,0.039998725,0.04,-9.478524,-2.5644912719726562,-0.14369883,0.029419933,-0.013528643175959587,-0.2122839
2677.7666666731516,-0.07669992,-0.6723327,0.20129259,-2.1973324,-0.14491734,1.4899956,0.88792413,0.039998706,0.04,-9.4685955,-2.5999085903167725,-0.14305422,0.029554853,-0.013949982821941376,-0.2127545
2677.7833333398185,-0.07781923,-0.67069894,0.20422675,-2.195016,-0.14703,1.488816,0.88940907,0.039998695,0.04,-9.45877,-2.635420083999634,-0.14231862,0.029686281,-0.014382151886820793,-0.2131898
2677.8000000064853,-0.07894313,-0.6690587,0.20717303,-2.1926894,-0.14915131,1.4876317,0.8908999,0.039998658,0.04,-9.448463,-2.6710877418518066,-0.14155355,0.029817577,-0.014818836003541946,-0.21359509
2677.816666673152,-0.080071494,-0.667412,0.2101311,-2.1903543,-0.1512811,1.4864424,0.8923967,0.039998632,0.04,-9.438334,-2.7065398693084717,-0.14058481,0.029947473,-0.015258772298693657,-0.2139661
2677.833333339819,-0.08120422,-0.6657588,0.21310064,-2.18801,-0.15341917,1.4852486,0.89389926,0.039998606,0.04,-9.428018,-2.7421741485595703,-0.13957559,0.030075863,-0.015707537531852722,-0.21430504
2677.850000006486,-0.08234115,-0.6640996,0.21608128,-2.185657,-0.15556511,1.4840503,0.89540756,0.039998583,0.04,-9.417436,-2.7777881622314453,-0.13849618,0.030202463,-0.016160571947693825,-0.21460801
2677.866666673153,-0.08348212,-0.66243434,0.21907263,-2.1832962,-0.15771875,1.4828477,0.8969215,0.039998565,0.04,-9.406583,-2.813511371612549,-0.13732167,0.030326895,-0.01661890186369419,-0.21487798
2677.8833333398197,-0.08462707,-0.6607633,0.22207439,-2.180927,-0.15987988,1.4816412,0.8984403,0.039998535,0.04,-9.395998,-2.8491265773773193,-0.13603865,0.03044927,-0.017085786908864975,-0.21511641
2677.9000000064866,-0.0857758,-0.65908647,0.2250862,-2.17855,-0.16204824,1.4804304,0.89996433,0.03999852,0.04,-9.384943,-2.884758949279785,-0.134683,0.030571226,-0.017554868012666702,-0.21531951
2677.9166666731535,-0.086928196,-0.6574045,0.22810765,-2.176165,-0.16422348,1.4792159,0.90149313,0.039998494,0.04,-9.373697,-2.9205074310302734,-0.1332508,0.0306914,-0.01803131215274334,-0.21549065
2677.9333333398204,-0.088084124,-0.655717,0.2311384,-2.1737728,-0.16640538,1.4779977,0.9030268,0.039998464,0.04,-9.362519,-2.956084728240967,-0.13166803,0.030810148,-0.018509572371840477,-0.21562873
2677.9500000064872,-0.089243405,-0.6540248,0.2341781,-2.171374,-0.16859365,1.4767758,0.90456486,0.039998442,0.04,-9.351093,-2.9917256832122803,-0.13004214,0.030926744,-0.01899275928735733,-0.21573307
2677.966666673154,-0.09040595,-0.65232795,0.23722641,-2.1689682,-0.17078802,1.4755507,0.9061071,0.03999842,0.04,-9.33957,-3.027348279953003,-0.12827794,0.031042974,-0.019481336697936058,-0.21580416
2677.983333339821,-0.0915716,-0.65062666,0.24028295,-2.166556,-0.17298828,1.4743221,0.90765345,0.039998386,0.04,-9.327641,-3.062978982925415,-0.12643838,0.031157445,-0.019969789311289787,-0.21584333
2678.000000006488,-0.0927402,-0.64892083,0.24334727,-2.1641374,-0.17519413,1.4730906,0.9092039,0.039998367,0.04,-9.315941,-3.09848952293396,-0.12447253,0.031271324,-0.020462779328227043,-0.21584772
2678.0166666731548,-0.09391162,-0.64721096,0.24641909,-2.1617124,-0.17740531,1.4718561,0.910758,0.039998338,0.04,-9.303943,-3.1340246200561523,-0.122450426,0.03138297,-0.020958218723535538,-0.21582203
2678.0333333398216,-0.09508575,-0.64549726,0.24949804,-2.1592824,-0.17962158,1.4706187,0.9123157,0.039998315,0.04,-9.291741,-3.1694624423980713,-0.12030334,0.031493172,-0.021453507244586945,-0.21576096
2678.0500000064885,-0.0962624,-0.6437797,0.25258365,-2.1568472,-0.18184263,1.4693786,0.913877,0.039998293,0.04,-9.279411,-3.204918384552002,-0.118051104,0.03160218,-0.02195356786251068,-0.21566847
2678.0666666731554,-0.09744144,-0.6420585,0.25567576,-2.1544068,-0.18406825,1.4681361,0.9154412,0.039998267,0.04,-9.26719,-3.240283250808716,-0.11572756,0.03170935,-0.022458255290985107,-0.21554494
2678.0833333398223,-0.09862274,-0.6403341,0.25877377,-2.1519618,-0.18629813,1.466891,0.9170086,0.039998237,0.04,-9.254606,-3.2755961418151855,-0.11330179,0.031817034,-0.02296161651611328,-0.21538828
2678.100000006489,-0.09980615,-0.6386067,0.2618773,-2.1495125,-0.18853198,1.465644,0.9185786,0.03999822,0.04,-9.242001,-3.3108248710632324,-0.11075579,0.031922646,-0.023468943312764168,-0.21519868
2678.116666673156,-0.10099156,-0.6368764,0.2649862,-2.1470592,-0.1907695,1.4643946,0.92015123,0.03999819,0.04,-9.229104,-3.345975160598755,-0.10811468,0.03202744,-0.02397666871547699,-0.2149787
2678.133333339823,-0.102178745,-0.63514334,0.26809984,-2.144602,-0.1930105,1.4631436,0.9217264,0.03999816,0.04,-9.216322,-3.3810784816741943,-0.10539031,0.03213159,-0.024486210197210312,-0.21472614
2678.15000000649,-0.103367634,-0.6334079,0.271218,-2.1421418,-0.19525465,1.4618905,0.9233038,0.039998133,0.04,-9.203306,-3.4160678386688232,-0.10257361,0.03223417,-0.02499566227197647,-0.21444167
2678.1666666731567,-0.10455803,-0.63167024,0.27434015,-2.139678,-0.19750166,1.460636,0.9248831,0.039998107,0.04,-9.190119,-3.4509708881378174,-0.09961005,0.032336295,-0.025508640334010124,-0.21412526
2678.1833333398235,-0.10574979,-0.6299307,0.27746612,-2.1372118,-0.19975129,1.45938,0.9264643,0.039998077,0.04,-9.176936,-3.485790252685547,-0.09660413,0.03243719,-0.026019172742962837,-0.21377923
2678.2000000064904,-0.1069428,-0.62818915,0.28059536,-2.1347423,-0.2020033,1.4581226,0.92804706,0.039998055,0.04,-9.163606,-3.5205206871032715,-0.09347067,0.032537546,-0.02653140388429165,-0.21340166
2678.2166666731573,-0.10813691,-0.6264462,0.28372756,-2.1322708,-0.20425741,1.4568642,0.92963123,0.03999803,0.04,-9.1500845,-3.5551035404205322,-0.090253115,0.032637175,-0.027041563764214516,-0.21299371
2678.233333339824,-0.10933195,-0.62470174,0.28686225,-2.1297977,-0.20651326,1.4556049,0.93121666,0.039998002,0.04,-9.136431,-3.5895588397979736,-0.08688125,0.032735936,-0.027551285922527313,-0.21255483
2678.250000006491,-0.11052779,-0.6229561,0.28999913,-2.1273227,-0.20877059,1.4543445,0.93280315,0.039997976,0.04,-9.122871,-3.6239712238311768,-0.08350175,0.03283419,-0.028060732409358025,-0.2120846
2678.266666673158,-0.11172429,-0.62120956,0.29313773,-2.1248467,-0.21102916,1.4530835,0.9343906,0.039997943,0.04,-9.109069,-3.658233642578125,-0.07998303,0.03293144,-0.028569260612130165,-0.21158679
2678.283333339825,-0.1129213,-0.61946243,0.29627785,-2.1223693,-0.21328864,1.4518219,0.9359787,0.039997913,0.04,-9.095246,-3.692350149154663,-0.07636423,0.033027876,-0.029078129678964615,-0.21105675
2678.3000000064917,-0.11411868,-0.6177146,0.29941902,-2.1198916,-0.21554886,1.4505601,0.9375672,0.039997887,0.04,-9.081121,-3.72627329826355,-0.07259211,0.03312276,-0.029582727700471878,-0.21049757
2678.3166666731586,-0.11531628,-0.6159665,0.30256075,-2.1174128,-0.2178094,1.449298,0.93915594,0.03999786,0.04,-9.067199,-3.7602102756500244,-0.06884408,0.033218812,-0.030087416991591454,-0.2099086
2678.3333333398255,-0.11651392,-0.6142185,0.3057027,-2.114934,-0.22007017,1.448036,0.94074476,0.039997827,0.04,-9.052943,-3.793905258178711,-0.064929046,0.033312522,-0.030586479231715202,-0.20929396
2678.3500000064923,-0.11771148,-0.6124704,0.3088445,-2.1124558,-0.22233075,1.4467739,0.94233346,0.039997797,0.04,-9.038717,-3.8274636268615723,-0.060917113,0.03340575,-0.031083155423402786,-0.20864874
2678.366666673159,-0.11890881,-0.6107226,0.31198585,-2.1099782,-0.22459085,1.445512,0.94392186,0.03999777,0.04,-9.02441,-3.86080265045166,-0.056779545,0.0334992,-0.03158067911863327,-0.20797358
2678.383333339826,-0.12010576,-0.60897547,0.3151262,-2.1075015,-0.22685027,1.4442506,0.9455098,0.039997734,0.04,-9.010052,-3.8941566944122314,-0.052644823,0.033591975,-0.03207411244511604,-0.20727205
2678.400000006493,-0.121302195,-0.6072289,0.31826535,-2.1050258,-0.22910868,1.4429897,0.9470972,0.03999772,0.04,-8.995561,-3.927238941192627,-0.048359957,0.033683848,-0.03256426006555557,-0.2065421
2678.41666667316,-0.12249795,-0.6054834,0.32140285,-2.1025512,-0.2313658,1.4417297,0.94868356,0.039997682,0.04,-8.98097,-3.9600911140441895,-0.043948468,0.03377453,-0.033051326870918274,-0.20578665
2678.4333333398267,-0.12369288,-0.60373914,0.32453835,-2.1000779,-0.23362143,1.4404705,0.9502688,0.039997652,0.04,-8.96634,-3.9929285049438477,-0.03952751,0.033865068,-0.03353249654173851,-0.20500258
2678.4500000064936,-0.12488685,-0.6019963,0.32767123,-2.097607,-0.23587523,1.4392122,0.9518528,0.039997626,0.04,-8.951573,-4.0255208015441895,-0.034967437,0.033954795,-0.034006789326667786,-0.20419315
2678.4666666731605,-0.12607972,-0.600255,0.3308014,-2.0951383,-0.23812693,1.4379554,0.95343524,0.039997596,0.04,-8.936874,-4.05792236328125,-0.030324953,0.034043368,-0.03447874262928963,-0.20335707
2678.4833333398274,-0.12727135,-0.5985156,0.33392838,-2.0926723,-0.24037632,1.4366996,0.955016,0.039997566,0.04,-8.922048,-4.090051174163818,-0.02553178,0.034132402,-0.03494611382484436,-0.20249584
2678.5000000064942,-0.12846155,-0.59677833,0.3370518,-2.0902092,-0.24262303,1.4354454,0.956595,0.039997544,0.04,-8.907155,-4.1221923828125,-0.020768546,0.034220353,-0.03540755435824394,-0.20160736
2678.516666673161,-0.12965022,-0.59504324,0.34017104,-2.087749,-0.2448668,1.4341928,0.95817184,0.039997514,0.04,-8.892204,-4.1540679931640625,-0.015848398,0.034307156,-0.03586319833993912,-0.20069654
2678.533333339828,-0.1308372,-0.59331053,0.34328613,-2.0852928,-0.2471074,1.4329419,0.9597464,0.039997496,0.04,-8.877197,-4.185658931732178,-0.010863766,0.034392964,-0.03631215915083885,-0.1997585
2678.550000006495,-0.13202237,-0.59158057,0.34639645,-2.0828402,-0.24934447,1.431693,0.9613186,0.039997466,0.04,-8.862237,-4.217044353485107,-0.005732021,0.03447948,-0.03675806522369385,-0.19879696
2678.5666666731618,-0.13320552,-0.5898535,0.34950152,-2.0803921,-0.2515778,1.4304464,0.96288836,0.03999744,0.04,-8.847131,-4.248415946960449,-0.0006372584,0.034564227,-0.037196818739175797,-0.19781135
2678.5833333398286,-0.13438658,-0.5881297,0.3526011,-2.0779479,-0.2538071,1.4292016,0.96445495,0.03999741,0.04,-8.832057,-4.279467582702637,0.0045965966,0.03464792,-0.03762976825237274,-0.19680163
2678.6000000064955,-0.13556536,-0.5864089,0.35569486,-2.0755088,-0.25603223,1.4279594,0.9660189,0.03999739,0.04,-8.816805,-4.310276031494141,0.009937226,0.034730673,-0.03805350139737129,-0.19576897
2678.6166666731624,-0.1367417,-0.58469176,0.35878238,-2.0730748,-0.25825268,1.42672,0.9675794,0.039997358,0.04,-8.801744,-4.3408074378967285,0.015378152,0.034812618,-0.03847407177090645,-0.19471459
2678.6333333398293,-0.13791554,-0.5829784,0.36186326,-2.0706456,-0.26046836,1.4254831,0.96913636,0.039997336,0.04,-8.786489,-4.371367931365967,0.020777065,0.03489467,-0.03888515755534172,-0.19363716
2678.650000006496,-0.13908663,-0.5812691,0.3649372,-2.068222,-0.26267886,1.4242489,0.9706898,0.03999731,0.04,-8.771164,-4.401534080505371,0.026350643,0.034975443,-0.039286889135837555,-0.19253826
2678.666666673163,-0.14025488,-0.579564,0.36800373,-2.0658047,-0.26488402,1.4230179,0.9722395,0.03999728,0.04,-8.755943,-4.431345462799072,0.032063574,0.035055455,-0.03968178480863571,-0.19141813
2678.68333333983,-0.14142016,-0.577863,0.37106258,-2.0633938,-0.2670834,1.4217899,0.97378516,0.039997254,0.04,-8.740659,-4.461273670196533,0.037689418,0.035134073,-0.040068890899419785,-0.19027552
2678.700000006497,-0.1425823,-0.5761669,0.37411326,-2.0609891,-0.26927698,1.4205652,0.97532654,0.039997227,0.04,-8.725383,-4.490826606750488,0.043435477,0.035213448,-0.040449514985084534,-0.18911333
2678.7166666731637,-0.14374118,-0.57447517,0.37715548,-2.058591,-0.27146435,1.4193442,0.9768637,0.039997198,0.04,-8.710045,-4.52010440826416,0.049302306,0.035291392,-0.04082011431455612,-0.18793105
2678.7333333398306,-0.14489664,-0.5727886,0.38018885,-2.0562,-0.2736454,1.4181266,0.9783967,0.03999718,0.04,-8.694725,-4.5489606857299805,0.05525571,0.035367668,-0.04117994382977486,-0.18672812
2678.7500000064974,-0.14604859,-0.5711074,0.38321304,-2.053816,-0.27581972,1.4169128,0.97992444,0.03999714,0.04,-8.679396,-4.57797908782959,0.061163846,0.035441414,-0.04153303802013397,-0.18550475
2678.7666666731643,-0.14719686,-0.56943166,0.38622767,-2.05144,-0.2779872,1.4157029,0.9814479,0.03999711,0.04,-8.6639805,-4.606557369232178,0.06723068,0.035515547,-0.04187311232089996,-0.18426357
2678.783333339831,-0.14834131,-0.56776154,0.38923234,-2.0490723,-0.2801473,1.4144969,0.98296565,0.039997067,0.04,-8.648674,-4.634915351867676,0.07334187,0.035586063,-0.04220450296998024,-0.1830046
2678.800000006498,-0.14948183,-0.566097,0.3922266,-2.0467129,-0.28230003,1.413295,0.98447835,0.03999705,0.04,-8.633481,-4.662821292877197,0.07959819,0.03565811,-0.04252932220697403,-0.1817243
2678.816666673165,-0.15061826,-0.56443834,0.39521036,-2.0443616,-0.284445,1.4120976,0.9859857,0.039997023,0.04,-8.61814,-4.690903663635254,0.08570523,0.035728596,-0.04284600913524628,-0.18042904
2678.833333339832,-0.15175043,-0.56278586,0.39818308,-2.0420191,-0.28658193,1.4109045,0.98748744,0.039997,0.04,-8.602771,-4.718521595001221,0.09199133,0.03579731,-0.0431501567363739,-0.17911652
2678.8500000064987,-0.15287828,-0.56113976,0.40114453,-2.0396852,-0.28871065,1.4097162,0.9889833,0.03999697,0.04,-8.587501,-4.745891571044922,0.098316364,0.035865195,-0.04344469681382179,-0.17778684
2678.8666666731656,-0.15400158,-0.5595003,0.40409416,-2.037361,-0.29083088,1.4085325,0.9904732,0.039996948,0.04,-8.572272,-4.772793292999268,0.104810394,0.03593151,-0.04372695833444595,-0.17644161
2678.8833333398325,-0.15512025,-0.5578676,0.40703166,-2.0350463,-0.29294235,1.4073538,0.99195707,0.039996926,0.04,-8.556957,-4.799867630004883,0.11116183,0.03599561,-0.04399983584880829,-0.17508079
2678.9000000064993,-0.15623419,-0.55624205,0.40995684,-2.0327415,-0.29504484,1.40618,0.9934346,0.0399969,0.04,-8.5417385,-4.826478004455566,0.11766551,0.036057584,-0.0442616306245327,-0.17370471
2678.916666673166,-0.15734327,-0.5546234,0.41286927,-2.030447,-0.297138,1.4050117,0.99490553,0.03999687,0.04,-8.526637,-4.852621078491211,0.1243195,0.036118064,-0.044511884450912476,-0.17231536
2678.933333339833,-0.15844731,-0.5530122,0.4157686,-2.0281632,-0.2992218,1.4038485,0.9963699,0.039996848,0.04,-8.5114,-4.878951549530029,0.13077998,0.03617774,-0.04475151002407074,-0.17091052
2678.9500000065,-0.15954617,-0.55140847,0.41865447,-2.0258892,-0.3012958,1.4026906,0.99782753,0.03999682,0.04,-8.496305,-4.904804229736328,0.13742456,0.03623525,-0.044981636106967926,-0.16949154
2678.966666673167,-0.16063976,-0.5498125,0.42152652,-2.0236268,-0.3033598,1.4015384,0.9992779,0.039996795,0.04,-8.4811125,-4.930358409881592,0.14411058,0.03628976,-0.04519633948802948,-0.16805927
2678.9833333398337,-0.161728,-0.54822433,0.42438447,-2.0213752,-0.3054135,1.4003919,1.0007211,0.039996773,0.04,-8.466283,-4.9554524421691895,0.1509256,0.036344353,-0.04540340229868889,-0.16661462
2679.0000000065006,-0.16281065,-0.5466444,0.42722812,-2.019135,-0.30745685,1.3992512,1.0021573,0.03999675,0.04,-8.451129,-4.980747699737549,0.15757287,0.036396034,-0.04559723287820816,-0.1651577
2679.0166666731675,-0.16388766,-0.54507273,0.43005693,-2.016907,-0.3094894,1.3981165,1.0035859,0.03999673,0.04,-8.436143,-5.005542278289795,0.16438872,0.03644393,-0.045777931809425354,-0.1636882
2679.0333333398344,-0.16495892,-0.5435095,0.43287063,-2.0146906,-0.3115111,1.3969879,1.005007,0.039996702,0.04,-8.421316,-5.03009557723999,0.17120667,0.036491275,-0.04594927653670311,-0.16220658
2679.0500000065013,-0.16602428,-0.5419547,0.43566892,-2.0124872,-0.31352168,1.3958656,1.0064198,0.039996684,0.04,-8.406576,-5.054079532623291,0.17816724,0.036535308,-0.04610711708664894,-0.16071382
2679.066666673168,-0.16708359,-0.54040897,0.43845156,-2.0102959,-0.31552088,1.3947498,1.0078247,0.03999665,0.04,-8.391742,-5.07839298248291,0.18493357,0.036579926,-0.046256668865680695,-0.15921251
2679.083333339835,-0.16813673,-0.5388723,0.4412181,-2.008117,-0.31750846,1.39364,1.0092213,0.039996628,0.04,-8.376949,-5.102097511291504,0.19186836,0.036621556,-0.04639044776558876,-0.15769829
2679.100000006502,-0.16918361,-0.53734475,0.44396818,-2.005952,-0.3194841,1.3925372,1.0106096,0.03999661,0.04,-8.362256,-5.125530242919922,0.19883507,0.036660004,-0.04651188850402832,-0.15617234
2679.1166666731688,-0.17022413,-0.53582656,0.44670153,-2.0037997,-0.3214477,1.3914413,1.0119896,0.039996583,0.04,-8.347934,-5.148501396179199,0.20588423,0.036697827,-0.04662424325942993,-0.15463872
2679.1333333398356,-0.17125815,-0.53431785,0.44941795,-2.0016608,-0.32339898,1.3903522,1.0133609,0.03999655,0.04,-8.333185,-5.171687602996826,0.21276209,0.03673078,-0.04672130569815636,-0.1530983
2679.1500000065025,-0.17228554,-0.5328187,0.4521171,-1.9995362,-0.3253378,1.3892702,1.0147232,0.039996527,0.04,-8.318746,-5.194355010986328,0.21976803,0.036762737,-0.04680635780096054,-0.15154889
2679.1666666731694,-0.17330615,-0.5313292,0.45479873,-1.9974251,-0.32726392,1.388195,1.0160767,0.039996505,0.04,-8.304598,-5.21648645401001,0.22688805,0.036792904,-0.046880993992090225,-0.14999017
2679.1833333398363,-0.17431995,-0.52985,0.4574625,-1.9953277,-0.32917714,1.3871269,1.017421,0.03999649,0.04,-8.290094,-5.238890171051025,0.23381552,0.03682056,-0.04694262892007828,-0.14842322
2679.200000006503,-0.17532682,-0.5283808,0.460108,-1.993245,-0.3310772,1.3860663,1.0187562,0.039996456,0.04,-8.275815,-5.2607293128967285,0.2408907,0.036845103,-0.046989548951387405,-0.14685087
2679.21666667317,-0.17632665,-0.5269221,0.46273515,-1.9911768,-0.33296385,1.3850132,1.0200818,0.039996434,0.04,-8.261729,-5.282333850860596,0.24794212,0.03686642,-0.04702601581811905,-0.1452731
2679.233333339837,-0.17731926,-0.5254739,0.46534353,-1.9891236,-0.334837,1.3839678,1.021398,0.03999642,0.04,-8.247844,-5.303350925445557,0.25513548,0.036885068,-0.04704742506146431,-0.14368773
2679.250000006504,-0.17830458,-0.52403617,0.46793288,-1.9870853,-0.33669636,1.3829299,1.0227045,0.0399964,0.04,-8.233698,-5.3246846199035645,0.26210785,0.036901012,-0.04705711081624031,-0.14209689
2679.2666666731707,-0.17928258,-0.5226094,0.47050276,-1.9850626,-0.33854187,1.3818997,1.0240014,0.039996378,0.04,-8.219831,-5.345475673675537,0.2691778,0.036914073,-0.04705386981368065,-0.14050183
2679.2833333398376,-0.18025307,-0.5211936,0.47305316,-1.9830554,-0.3403731,1.3808774,1.0252879,0.039996356,0.04,-8.206091,-5.365970611572266,0.27628022,0.036922656,-0.04703981801867485,-0.13890083
2679.3000000065044,-0.18121596,-0.51978874,0.47558367,-1.9810638,-0.34219012,1.3798631,1.0265646,0.039996345,0.04,-8.192621,-5.385915279388428,0.28347516,0.036930732,-0.04701310768723488,-0.13729407
2679.3166666731713,-0.18217117,-0.5183951,0.47809404,-1.9790884,-0.3439925,1.3788569,1.0278312,0.03999631,0.04,-8.178854,-5.4062089920043945,0.2904322,0.03693437,-0.0469745434820652,-0.1356853
2679.333333339838,-0.18311857,-0.517013,0.48058408,-1.9771289,-0.34578004,1.377859,1.0290874,0.03999629,0.04,-8.165393,-5.425888538360596,0.29750583,0.03693427,-0.046924203634262085,-0.1340704
2679.350000006505,-0.18405809,-0.5156423,0.48305345,-1.9751858,-0.34755284,1.3768694,1.0303329,0.039996266,0.04,-8.151979,-5.445343971252441,0.3045971,0.036931127,-0.046859726309776306,-0.13245496
2679.366666673172,-0.18498968,-0.51428336,0.48550192,-1.9732592,-0.34931046,1.3758882,1.0315678,0.03999625,0.04,-8.138961,-5.464205741882324,0.31175262,0.036926165,-0.046783603727817535,-0.13083479
2679.383333339839,-0.18591315,-0.51293623,0.4879292,-1.9713492,-0.3510529,1.3749156,1.032792,0.039996237,0.04,-8.125591,-5.483383655548096,0.31869826,0.03691666,-0.04669541120529175,-0.12921154
2679.4000000065057,-0.1868284,-0.5116009,0.49033505,-1.9694562,-0.35277984,1.3739518,1.0340054,0.039996218,0.04,-8.11251,-5.502039432525635,0.32574782,0.03690443,-0.046594154089689255,-0.12758753
2679.4166666731726,-0.18773542,-0.51027787,0.49271935,-1.9675806,-0.35449117,1.3729964,1.035208,0.03999619,0.04,-8.09982,-5.520118236541748,0.3328685,0.036888197,-0.0464799664914608,-0.12596393
2679.4333333398395,-0.18863408,-0.50896686,0.49508184,-1.9657222,-0.35618675,1.3720499,1.0363996,0.039996177,0.04,-8.086797,-5.538527965545654,0.3397936,0.03686839,-0.04635614901781082,-0.12433645
2679.4500000065063,-0.18952432,-0.5076682,0.49742225,-1.9638809,-0.35786638,1.3711125,1.0375799,0.03999617,0.04,-8.074099,-5.556371212005615,0.3467578,0.03684454,-0.04622010514140129,-0.12270618
2679.466666673173,-0.19040604,-0.5063821,0.49974024,-1.9620577,-0.35952988,1.370184,1.038749,0.039996147,0.04,-8.061446,-5.573945045471191,0.3537305,0.036817454,-0.04606941342353821,-0.12107733
2679.48333333984,-0.19127913,-0.5051087,0.50203586,-1.9602523,-0.36117715,1.3692646,1.0399064,0.03999613,0.04,-8.049288,-5.590959072113037,0.36080083,0.036786236,-0.04590892046689987,-0.119446956
2679.500000006507,-0.19214356,-0.5038479,0.5043087,-1.9584647,-0.36280796,1.3683542,1.0410522,0.039996095,0.04,-8.03666,-5.608351230621338,0.36761665,0.03675289,-0.04573553428053856,-0.11781819
2679.516666673174,-0.19299918,-0.50259984,0.50655836,-1.9566954,-0.3644223,1.367453,1.0421864,0.03999608,0.04,-8.02444,-5.6251420974731445,0.37450242,0.036716294,-0.045551642775535583,-0.116188146
2679.5333333398407,-0.19384605,-0.50136465,0.50878483,-1.9549447,-0.3660199,1.3665613,1.0433089,0.039996065,0.04,-8.012373,-5.641635894775391,0.38135812,0.03667473,-0.04535721242427826,-0.11455847
2679.5500000065076,-0.1946839,-0.5001426,0.51098806,-1.9532124,-0.36760062,1.3656788,1.0444196,0.039996054,0.04,-8.000712,-5.657647132873535,0.3882945,0.03663019,-0.04515204578638077,-0.11293056
2679.5666666731745,-0.19551277,-0.4989337,0.51316786,-1.9514987,-0.36916432,1.3648059,1.0455186,0.039996028,0.04,-7.9885716,-5.673989295959473,0.3949911,0.036581583,-0.04493603855371475,-0.11130478
2679.5833333398414,-0.19633253,-0.4977381,0.5153239,-1.9498038,-0.37071082,1.3639427,1.0466053,0.039996017,0.04,-7.9768558,-5.689774990081787,0.4017632,0.036529213,-0.044707681983709335,-0.109678924
2679.6000000065083,-0.19714321,-0.49655575,0.517456,-1.9481277,-0.37224022,1.363089,1.0476801,0.039996002,0.04,-7.965256,-5.7053070068359375,0.4084927,0.036474176,-0.044468022882938385,-0.10805722
2679.616666673175,-0.19794472,-0.4953869,0.5195638,-1.9464709,-0.37375215,1.3622452,1.0487424,0.039995976,0.04,-7.9540935,-5.720246315002441,0.41528732,0.036413357,-0.04421865940093994,-0.10643807
2679.633333339842,-0.19873694,-0.4942317,0.5216473,-1.9448332,-0.37524652,1.3614111,1.0497929,0.03999596,0.04,-7.9425178,-5.735569477081299,0.42180872,0.03635091,-0.043958183377981186,-0.104821645
2679.650000006509,-0.19951978,-0.49309006,0.5237063,-1.9432145,-0.37672326,1.3605865,1.0508305,0.039995953,0.04,-7.9313326,-5.750307083129883,0.42842132,0.036281362,-0.04368742182850838,-0.10320703
2679.6666666731758,-0.20029324,-0.49196225,0.52574086,-1.9416151,-0.37818235,1.3597721,1.0518557,0.039995942,0.04,-7.9205503,-5.764505863189697,0.4351039,0.03620979,-0.04340629279613495,-0.101596035
2679.6833333398426,-0.20105724,-0.49084818,0.52775055,-1.9400356,-0.37962344,1.3589678,1.0528686,0.039995924,0.04,-7.909301,-5.779094696044922,0.44151902,0.03613433,-0.04311265051364899,-0.099990524
2679.7000000065095,-0.20181178,-0.48974803,0.5297353,-1.9384757,-0.3810467,1.3581733,1.0538687,0.039995894,0.04,-7.898587,-5.793125629425049,0.44798377,0.036054328,-0.042810793966054916,-0.09838958
2679.7166666731764,-0.20255671,-0.4886618,0.531695,-1.9369354,-0.38245183,1.3573887,1.054856,0.03999589,0.04,-7.887974,-5.806884288787842,0.4544007,0.03597152,-0.04250039905309677,-0.09678887
2679.7333333398433,-0.20329206,-0.48758957,0.53362936,-1.9354154,-0.3838388,1.356615,1.0558304,0.039995875,0.04,-7.877759,-5.820120334625244,0.46087933,0.035885338,-0.042179353535175323,-0.09519595
2679.75000000651,-0.2040177,-0.4865315,0.53553843,-1.9339155,-0.38520753,1.3558509,1.0567921,0.039995868,0.04,-7.867144,-5.8337082862854,0.46705753,0.03579523,-0.041848260909318924,-0.09360741
2679.766666673177,-0.20473367,-0.48548764,0.537422,-1.9324352,-0.38655782,1.3550972,1.0577409,0.03999585,0.04,-7.85697,-5.846800804138184,0.47333553,0.035701636,-0.04151055961847305,-0.09202342
2679.783333339844,-0.20543993,-0.48445806,0.5392799,-1.9309757,-0.3878897,1.3543538,1.0586767,0.039995834,0.04,-7.846842,-5.859569549560547,0.47954586,0.035603575,-0.041161734610795975,-0.09044616
2679.800000006511,-0.20613633,-0.4834428,0.54111224,-1.9295361,-0.38920313,1.3536205,1.0595998,0.039995823,0.04,-7.8373246,-5.871860027313232,0.48579097,0.035502322,-0.04080679267644882,-0.0888731
2679.8166666731777,-0.20682292,-0.4824419,0.5429188,-1.9281164,-0.39049783,1.3528978,1.0605093,0.03999581,0.04,-7.827184,-5.8845086097717285,0.4917881,0.03539611,-0.04044175520539284,-0.08730573
2679.8333333398446,-0.20749958,-0.48145548,0.5446995,-1.926717,-0.3917739,1.3521855,1.0614063,0.039995797,0.04,-7.817513,-5.896604537963867,0.4978186,0.03528811,-0.04006648063659668,-0.08574589
2679.8500000065114,-0.20816627,-0.48048353,0.54645395,-1.9253393,-0.39303136,1.3514836,1.0622897,0.039995786,0.04,-7.808007,-5.9084858894348145,0.5037951,0.035173662,-0.0396815650165081,-0.08419311
2679.8666666731783,-0.20882307,-0.47952616,0.5481823,-1.9239817,-0.39427003,1.3507918,1.06316,0.03999578,0.04,-7.7991395,-5.919847011566162,0.5097961,0.03505865,-0.039294056594371796,-0.08264309
2679.883333339845,-0.20946987,-0.47858337,0.54988456,-1.9226447,-0.3954898,1.3501114,1.064017,0.039995767,0.04,-7.7895923,-5.9315385818481445,0.5155286,0.0349386,-0.03889889642596245,-0.081100926
2679.900000006512,-0.2101067,-0.47765517,0.5515604,-1.9213289,-0.39669064,1.3494407,1.0648608,0.03999575,0.04,-7.7805433,-5.94277811050415,0.52129096,0.03481582,-0.03849257156252861,-0.079568766
2679.916666673179,-0.21073343,-0.4767415,0.55321014,-1.9200333,-0.39787254,1.3487811,1.0656912,0.03999574,0.04,-7.7720504,-5.95342493057251,0.52711797,0.034689043,-0.03808477148413658,-0.07804071
2679.933333339846,-0.21135011,-0.47584262,0.55483335,-1.918759,-0.3990354,1.348132,1.0665078,0.039995726,0.04,-7.7629166,-5.964491844177246,0.5326292,0.0345601,-0.037665292620658875,-0.076522216
2679.9500000065127,-0.21195677,-0.47495845,0.55643016,-1.9175053,-0.4001794,1.3474934,1.0673119,0.039995715,0.04,-7.754398,-5.975019931793213,0.53820276,0.03442985,-0.03724254295229912,-0.07501064
2679.9666666731796,-0.21255328,-0.47408882,0.55800056,-1.9162726,-0.40130413,1.3468654,1.0681022,0.039995704,0.04,-7.745923,-5.985301971435547,0.5437021,0.034291733,-0.03681164234876633,-0.07350571
2679.9833333398465,-0.2131397,-0.47323412,0.5595444,-1.9150609,-0.40240997,1.3462483,1.0688791,0.0399957,0.04,-7.7380047,-5.995134353637695,0.54921204,0.034153532,-0.036376357078552246,-0.072007924
2680.0000000065133,-0.21371606,-0.4723942,0.56106156,-1.91387,-0.40349653,1.3456417,1.0696427,0.03999568,0.04,-7.7295175,-6.005298137664795,0.55446297,0.034011632,-0.03593403473496437,-0.07052067
2680.01666667318,-0.21428224,-0.471569,0.5625521,-1.9127,-0.4045639,1.345046,1.0703926,0.03999567,0.04,-7.7215447,-6.014947891235352,0.55974317,0.03386579,-0.035487137734889984,-0.069042526
2680.033333339847,-0.2148383,-0.4707586,0.5640161,-1.9115514,-0.40561217,1.3444608,1.0711293,0.039995655,0.04,-7.713707,-6.024402141571045,0.56492954,0.033717748,-0.03503420576453209,-0.06757429
2680.050000006514,-0.21538422,-0.469963,0.5654533,-1.9104234,-0.40664148,1.3438863,1.0718526,0.039995648,0.04,-7.706379,-6.033360481262207,0.57015526,0.033566613,-0.034576985985040665,-0.06611238
2680.066666673181,-0.21591994,-0.46918225,0.56686413,-1.9093164,-0.40765154,1.3433225,1.0725623,0.03999564,0.04,-7.6984987,-6.042637348175049,0.57510304,0.033411276,-0.03411495313048363,-0.06465904
2680.0833333398477,-0.21644557,-0.46841636,0.5682481,-1.9082305,-0.40864247,1.3427697,1.0732589,0.03999563,0.04,-7.6911077,-6.051519870758057,0.5800806,0.033255044,-0.03364782780408859,-0.06321732
2680.1000000065146,-0.21696106,-0.4676652,0.5696056,-1.9071653,-0.40961412,1.3422275,1.0739416,0.03999562,0.04,-7.6838865,-6.060112953186035,0.5849616,0.033093426,-0.03317577764391899,-0.061785977
2680.1166666731815,-0.2174664,-0.46692884,0.57093626,-1.9061214,-0.41056675,1.3416957,1.0746111,0.039995603,0.04,-7.677092,-6.068254470825195,0.5898876,0.032930944,-0.03269927203655243,-0.060365245
2680.1333333398484,-0.21796167,-0.46620724,0.5722405,-1.9050982,-0.4115003,1.3411744,1.0752671,0.039995596,0.04,-7.669895,-6.0767364501953125,0.5945084,0.032765593,-0.03222155198454857,-0.058953032
2680.1500000065153,-0.21844685,-0.46550038,0.5735183,-1.9040959,-0.4124148,1.3406639,1.0759096,0.0399956,0.04,-7.6630855,-6.084747791290283,0.59916735,0.032597378,-0.031739845871925354,-0.057548128
2680.166666673182,-0.21892191,-0.4648082,0.5747694,-1.9031144,-0.41331026,1.3401641,1.0765389,0.03999559,0.04,-7.6567817,-6.092334747314453,0.60383487,0.032428052,-0.03125491738319397,-0.056157004
2680.183333339849,-0.21938694,-0.46413082,0.5759941,-1.9021538,-0.41418678,1.3396747,1.0771546,0.039995585,0.04,-7.6499743,-6.1002068519592285,0.6082155,0.032255087,-0.030766848474740982,-0.054775555
2680.200000006516,-0.2198419,-0.46346802,0.5771924,-1.9012139,-0.41504428,1.3391962,1.0777571,0.03999558,0.04,-7.6436396,-6.107638359069824,0.6126302,0.032080464,-0.030276669189333916,-0.05340502
2680.2166666731828,-0.2202868,-0.46281987,0.57836455,-1.9002948,-0.4158828,1.3387282,1.0783465,0.039995573,0.04,-7.6374435,-6.11489725112915,0.61694145,0.03190421,-0.02978307195007801,-0.052044854
2680.2333333398497,-0.22072172,-0.46218628,0.57951033,-1.8993963,-0.4167024,1.3382705,1.0789226,0.039995566,0.04,-7.6317353,-6.121715068817139,0.6212826,0.031725742,-0.029287684708833694,-0.050697237
2680.2500000065165,-0.22114667,-0.4615672,0.5806299,-1.8985183,-0.41750315,1.3378235,1.0794857,0.039995555,0.04,-7.6255136,-6.12883996963501,0.62534815,0.03154515,-0.02879125066101551,-0.049360696
2680.2666666731834,-0.2215617,-0.46096262,0.58172333,-1.8976612,-0.41828525,1.337387,1.0800354,0.03999554,0.04,-7.6197805,-6.135532379150391,0.6294083,0.03136223,-0.028293658047914505,-0.04803818
2680.2833333398503,-0.22196689,-0.46037254,0.58279073,-1.8968244,-0.41904873,1.3369609,1.0805721,0.039995536,0.04,-7.6142087,-6.142027854919434,0.6333939,0.031178188,-0.027795415371656418,-0.04672479
2680.300000006517,-0.22236222,-0.45979673,0.58383226,-1.8960079,-0.41979358,1.3365451,1.0810956,0.03999552,0.04,-7.6090784,-6.1480913162231445,0.63738614,0.030992195,-0.027295589447021484,-0.045424324
2680.316666673184,-0.22274773,-0.45923513,0.5848481,-1.8952119,-0.42052,1.3361394,1.0816059,0.039995518,0.04,-7.6034527,-6.154485702514648,0.6411049,0.030806055,-0.0267960038036108,-0.044135746
2680.333333339851,-0.2231235,-0.45868787,0.5858384,-1.8944361,-0.42122796,1.335744,1.0821035,0.039995514,0.04,-7.5983324,-6.160486698150635,0.6448333,0.030620532,-0.02629837580025196,-0.042858142
2680.350000006518,-0.22348958,-0.4581548,0.58680296,-1.8936801,-0.42191768,1.3353592,1.0825881,0.03999551,0.04,-7.59329,-6.166275978088379,0.64848226,0.030432323,-0.02579992637038231,-0.04159378
2680.3666666731847,-0.22384597,-0.45763564,0.5877423,-1.8929442,-0.4225892,1.3349847,1.0830599,0.039995506,0.04,-7.588722,-6.1716227531433105,0.6521244,0.030242728,-0.025299545377492905,-0.04034299
2680.3833333398516,-0.22419283,-0.45713058,0.5886565,-1.8922281,-0.42324263,1.33462,1.083519,0.039995503,0.04,-7.583689,-6.177363872528076,0.6555052,0.030053992,-0.024800695478916168,-0.03910447
2680.4000000065184,-0.22453016,-0.45663938,0.58954537,-1.8915318,-0.423878,1.3342652,1.0839654,0.039995495,0.04,-7.579082,-6.182626247406006,0.6589022,0.02986312,-0.024302642792463303,-0.037880264
2680.4166666731853,-0.22485805,-0.456162,0.5904095,-1.8908551,-0.42449567,1.3339206,1.0843996,0.039995484,0.04,-7.5749907,-6.187511920928955,0.66228485,0.029672103,-0.023808320984244347,-0.036670655
2680.433333339852,-0.22517653,-0.45569834,0.591249,-1.8901975,-0.42509553,1.3335859,1.0848211,0.039995484,0.04,-7.5703497,-6.192697048187256,0.66541326,0.029479573,-0.023313960060477257,-0.035471737
2680.450000006519,-0.22548573,-0.45524827,0.592064,-1.8895596,-0.4256779,1.3332608,1.0852302,0.039995477,0.04,-7.566141,-6.197488784790039,0.66856235,0.029287526,-0.022820601239800453,-0.034287795
2680.466666673186,-0.22578566,-0.45481157,0.5928545,-1.8889406,-0.42624268,1.3329453,1.0856273,0.039995477,0.04,-7.56216,-6.202138423919678,0.6716026,0.029096395,-0.022331243380904198,-0.03311602
2680.483333339853,-0.22607645,-0.45438832,0.593621,-1.8883408,-0.42679027,1.3326396,1.086012,0.039995473,0.04,-7.558557,-6.206362724304199,0.67464453,0.028903265,-0.021844971925020218,-0.031960614
2680.5000000065197,-0.22635813,-0.45397836,0.59436363,-1.8877596,-0.4273206,1.3323432,1.0863843,0.03999547,0.04,-7.5545025,-6.210923671722412,0.6774546,0.02871162,-0.02136160433292389,-0.030818086
2680.5166666731866,-0.22663082,-0.45358157,0.59508246,-1.8871969,-0.42783397,1.3320566,1.086745,0.03999546,0.04,-7.5508504,-6.215088367462158,0.6802558,0.028521838,-0.02088145539164543,-0.029691566
2680.5333333398535,-0.22689463,-0.45319766,0.59577805,-1.8866527,-0.42833054,1.3317792,1.0870942,0.03999546,0.04,-7.547352,-6.219090461730957,0.6829598,0.028330533,-0.02040310576558113,-0.028579751
2680.5500000065203,-0.22714965,-0.45282665,0.5964502,-1.8861269,-0.42881057,1.3315115,1.0874314,0.039995454,0.04,-7.544272,-6.222775936126709,0.6856848,0.028139746,-0.01992948353290558,-0.027483117
2680.5666666731872,-0.2273959,-0.45246834,0.5970997,-1.8856189,-0.42927408,1.3312526,1.0877571,0.039995443,0.04,-7.5407605,-6.226686954498291,0.68813676,0.027949378,-0.019458865746855736,-0.026403913
2680.583333339854,-0.22763352,-0.45212257,0.5977264,-1.8851285,-0.42972136,1.3310031,1.0880713,0.039995436,0.04,-7.5376296,-6.230273723602295,0.6906321,0.027761357,-0.01899309642612934,-0.025337813
2680.600000006521,-0.22786267,-0.45178926,0.5983306,-1.8846562,-0.43015268,1.330762,1.0883743,0.039995436,0.04,-7.5346117,-6.233684539794922,0.6930125,0.027573297,-0.01852923445403576,-0.024289053
2680.616666673188,-0.22808343,-0.45146817,0.5989127,-1.884201,-0.43056804,1.3305304,1.0886661,0.039995432,0.04,-7.532115,-6.23680305480957,0.6954073,0.027387002,-0.018074775114655495,-0.02325504
2680.6333333398547,-0.22829588,-0.45115915,0.5994732,-1.8837628,-0.43096784,1.3303075,1.0889469,0.03999543,0.04,-7.529057,-6.2401323318481445,0.69755596,0.02720146,-0.017622394487261772,-0.022239488
2680.6500000065216,-0.22850016,-0.45086208,0.6000118,-1.8833421,-0.43135205,1.3300928,1.0892172,0.039995432,0.04,-7.526411,-6.243167400360107,0.6997193,0.027018124,-0.017173392698168755,-0.021239009
2680.6666666731885,-0.22869639,-0.45057675,0.60052955,-1.8829373,-0.43172106,1.3298868,1.0894768,0.039995432,0.04,-7.5242987,-6.245863914489746,0.70186967,0.026835032,-0.01673629879951477,-0.020255655
2680.6833333398554,-0.22888471,-0.45030293,0.60102606,-1.8825495,-0.4320752,1.3296894,1.0897256,0.039995424,0.04,-7.521532,-6.24880313873291,0.7038162,0.02665292,-0.01629965379834175,-0.019292368
2680.7000000065223,-0.22906522,-0.45004052,0.601502,-1.8821776,-0.4324146,1.3294998,1.089964,0.03999542,0.04,-7.5193825,-6.25142765045166,0.70571864,0.026474297,-0.015872085466980934,-0.01834531
2680.716666673189,-0.22923815,-0.4497893,0.60195786,-1.8818213,-0.4327395,1.3293184,1.0901923,0.039995413,0.04,-7.5172048,-6.253901958465576,0.7075924,0.026297351,-0.015451101586222649,-0.017416563
2680.733333339856,-0.22940351,-0.4495491,0.6023939,-1.8814806,-0.43305013,1.3291451,1.0904106,0.039995413,0.04,-7.5154133,-6.256080627441406,0.7094445,0.026122285,-0.015036432072520256,-0.016505644
2680.750000006523,-0.22956143,-0.4493197,0.6028104,-1.8811554,-0.43334693,1.3289795,1.0906191,0.039995413,0.04,-7.513225,-6.258529186248779,0.71109873,0.025949828,-0.01462688110768795,-0.015613835
2680.76666667319,-0.22971207,-0.44910088,0.60320777,-1.8808451,-0.43362987,1.3288214,1.090818,0.039995413,0.04,-7.5114746,-6.260665416717529,0.71273303,0.02578017,-0.014226751402020454,-0.014739844
2680.7833333398567,-0.22985563,-0.44889238,0.60358644,-1.8805496,-0.4338995,1.328671,1.0910075,0.03999541,0.04,-7.509742,-6.262685775756836,0.71432656,0.02561247,-0.013833841308951378,-0.013886605
2680.8000000065235,-0.22999223,-0.4486939,0.6039467,-1.8802686,-0.43415597,1.3285279,1.091188,0.03999541,0.04,-7.508398,-6.264434337615967,0.7158891,0.025448758,-0.0134488046169281,-0.013052451
2680.8166666731904,-0.23012201,-0.44850555,0.60428905,-1.8800015,-0.43439955,1.328392,1.0913591,0.03999541,0.04,-7.5067115,-6.2663750648498535,0.7172515,0.025286213,-0.013073298148810863,-0.012238176
2680.8333333398573,-0.2302452,-0.44832686,0.6046137,-1.8797481,-0.43463078,1.328263,1.0915216,0.03999541,0.04,-7.505303,-6.268058776855469,0.7186506,0.0251286,-0.012704663909971714,-0.011444381
2680.850000006524,-0.2303619,-0.4481575,0.60492134,-1.8795084,-0.43484965,1.3281411,1.0916754,0.039995406,0.04,-7.504016,-6.269600868225098,0.7199591,0.024972178,-0.012345509603619576,-0.010671035
2680.866666673191,-0.2304723,-0.44799742,0.6052123,-1.8792815,-0.43505666,1.3280256,1.0918206,0.039995402,0.04,-7.5030756,-6.270953178405762,0.7212544,0.024821276,-0.011996094137430191,-0.00991887
2680.883333339858,-0.23057655,-0.44784623,0.60548717,-1.8790673,-0.435252,1.3279161,1.0919578,0.039995402,0.04,-7.5017443,-6.272442817687988,0.72240984,0.024673687,-0.011655498296022415,-0.009187984
2680.900000006525,-0.23067486,-0.4477038,0.60574615,-1.8788657,-0.43543613,1.3278135,1.092087,0.039995402,0.04,-7.500758,-6.273734092712402,0.7235483,0.024529828,-0.011326058767735958,-0.008478439
2680.9166666731917,-0.2307674,-0.44756982,0.60599005,-1.8786758,-0.43560937,1.3277166,1.0922085,0.039995402,0.04,-7.500058,-6.274772644042969,0.724659,0.024390465,-0.011005680076777935,-0.0077918284
2680.9333333398586,-0.23085432,-0.447444,0.60621935,-1.8784977,-0.43577203,1.3276256,1.0923225,0.0399954,0.04,-7.4990125,-6.275987148284912,0.7256509,0.02425523,-0.010695534758269787,-0.0071276342
2680.9500000065254,-0.23093583,-0.44732612,0.6064342,-1.8783307,-0.43592453,1.3275406,1.0924292,0.039995395,0.04,-7.4982934,-6.277021408081055,0.7266337,0.024125397,-0.010396330617368221,-0.006485912
2680.9666666731923,-0.23101217,-0.4472158,0.6066351,-1.8781747,-0.43606713,1.3274609,1.0925303,0.039995395,0.04,-7.497634,-6.277900695800781,0.7275337,0.024000326,-0.010106276720762253,-0.0058669113
2680.983333339859,-0.23108347,-0.44711283,0.60682267,-1.8780288,-0.43620032,1.3273865,1.092624,0.039995395,0.04,-7.497257,-6.278588771820068,0.7284476,0.023872728,-0.009829503484070301,-0.0052728374
2681.000000006526,-0.23114996,-0.44701684,0.606998,-1.8778926,-0.4363244,1.3273172,1.0927105,0.03999539,0.04,-7.4965806,-6.279428958892822,0.72922975,0.02375306,-0.009562810882925987,-0.004703573
2681.016666673193,-0.23121187,-0.44692758,0.6071609,-1.8777663,-0.43643972,1.3272526,1.0927923,0.03999539,0.04,-7.496101,-6.280144691467285,0.7300218,0.023642683,-0.009305560030043125,-0.0041584778
2681.03333333986,-0.23126937,-0.4468447,0.607312,-1.8776488,-0.43654683,1.3271928,1.092867,0.039995395,0.04,-7.495799,-6.280701160430908,0.73075944,0.02353089,-0.0090622054412961,-0.0036386386
2681.0500000065267,-0.23132275,-0.44676787,0.6074523,-1.8775402,-0.436646,1.3271376,1.0929374,0.039995395,0.04,-7.495652,-6.281094074249268,0.73147595,0.023428675,-0.008830155245959759,-0.003144929
2681.0666666731936,-0.23137218,-0.4466969,0.60758203,-1.8774396,-0.43673775,1.3270864,1.093001,0.039995395,0.04,-7.4953146,-6.281694412231445,0.7320931,0.023328083,-0.008610284887254238,-0.0026773303
2681.0833333398605,-0.23141788,-0.4466313,0.6077019,-1.8773466,-0.4368224,1.3270396,1.0930604,0.03999539,0.04,-7.4951367,-6.282037734985352,0.7327189,0.023238327,-0.00840186607092619,-0.0022361306
2681.1000000065274,-0.23146,-0.44657102,0.6078124,-1.877261,-0.4369004,1.3269962,1.0931154,0.03999539,0.04,-7.4950304,-6.282358169555664,0.7332985,0.02315083,-0.008204546757042408,-0.0018228043
2681.1166666731942,-0.23149887,-0.44651544,0.6079144,-1.8771825,-0.43697223,1.326956,1.0931667,0.03999539,0.04,-7.4951153,-6.282543182373047,0.7339142,0.023067687,-0.008021284826099873,-0.0014367123
2681.133333339861,-0.23153475,-0.44646427,0.6080081,-1.8771101,-0.43703836,1.326919,1.0932139,0.03999539,0.04,-7.495058,-6.282864570617676,0.7344166,0.022989484,-0.007852747105062008,-0.0010776939
2681.150000006528,-0.23156787,-0.44641715,0.60809445,-1.8770432,-0.4370992,1.326885,1.0932573,0.039995387,0.04,-7.4951406,-6.282984733581543,0.73490655,0.022915866,-0.007698896806687117,-0.0007476994
2681.166666673195,-0.23159835,-0.44637382,0.60817415,-1.876982,-0.43715516,1.3268539,1.093297,0.039995387,0.04,-7.4952536,-6.283060073852539,0.73539066,0.022847947,-0.007555394433438778,-0.00044405248
2681.1833333398617,-0.23162645,-0.446334,0.60824716,-1.8769257,-0.43720672,1.326825,1.093333,0.039995387,0.04,-7.495241,-6.283286094665527,0.7357997,0.022787802,-0.007423182483762503,-0.00016431861
2681.2000000065286,-0.23165244,-0.44629723,0.60831434,-1.8768736,-0.43725404,1.3267986,1.0933658,0.039995387,0.04,-7.495333,-6.283365249633789,0.73618186,0.022733437,-0.007303349208086729,9.351022e-05
2681.2166666731955,-0.2316764,-0.44626346,0.60837656,-1.8768256,-0.43729767,1.3267745,1.0933964,0.039995387,0.04,-7.4953737,-6.28345251083374,0.73651606,0.022684466,-0.007192743942141533,0.0003294591
2681.2333333398624,-0.23169848,-0.4462324,0.60843384,-1.8767811,-0.43733776,1.3267521,1.0934247,0.039995387,0.04,-7.495428,-6.283552646636963,0.73688096,0.022638008,-0.007087947800755501,0.0005469807
2681.2500000065293,-0.23171881,-0.44620383,0.60848653,-1.8767403,-0.43737474,1.3267317,1.0934503,0.039995387,0.04,-7.4953933,-6.283669471740723,0.7371833,0.022594443,-0.006991679314523935,0.0007468339
2681.266666673196,-0.23173757,-0.44617757,0.60853475,-1.8767031,-0.4374088,1.3267127,1.0934745,0.039995387,0.04,-7.495453,-6.283759117126465,0.7374576,0.022556182,-0.006902636028826237,0.00093101047
2681.283333339863,-0.23175488,-0.44615328,0.6085792,-1.8766693,-0.43744007,1.326695,1.0934963,0.039995387,0.04,-7.4955525,-6.2838134765625,0.73770833,0.022517363,-0.006823374889791012,0.0011010596
2681.30000000653,-0.23177084,-0.44613087,0.6086203,-1.8766379,-0.43746874,1.326679,1.0935167,0.039995387,0.04,-7.49568,-6.283891677856445,0.7379543,0.022485057,-0.006753676105290651,0.0012583369
2681.316666673197,-0.23178554,-0.44611034,0.6086583,-1.8766085,-0.43749523,1.3266642,1.0935351,0.039995387,0.04,-7.4956346,-6.28400182723999,0.7381519,0.022454223,-0.006687357556074858,0.0014020003
2681.3333333398637,-0.23179913,-0.4460915,0.6086932,-1.8765823,-0.4375196,1.3266503,1.093552,0.039995387,0.04,-7.4955707,-6.284050941467285,0.73836774,0.022427104,-0.006623231340199709,0.00153408
2681.3500000065305,-0.23181166,-0.44607416,0.60872525,-1.8765574,-0.43754205,1.3266377,1.0935677,0.039995387,0.04,-7.495711,-6.284130096435547,0.7385548,0.022402663,-0.0065694511868059635,0.0016575014
2681.3666666731974,-0.23182322,-0.44605818,0.60875475,-1.8765352,-0.4375627,1.3266263,1.0935822,0.03999539,0.04,-7.495673,-6.284111499786377,0.7387228,0.022377852,-0.006515513639897108,0.0017698823
2681.3833333398643,-0.23183389,-0.44604352,0.6087821,-1.876514,-0.43758172,1.3266156,1.0935954,0.03999539,0.04,-7.495752,-6.284226894378662,0.7388618,0.022356661,-0.006468846928328276,0.0018740072
2681.400000006531,-0.2318437,-0.44602996,0.60880715,-1.8764954,-0.4375991,1.3266058,1.093608,0.03999539,0.04,-7.4956646,-6.284241676330566,0.7390251,0.022336278,-0.006422791630029678,0.001969062
2681.416666673198,-0.2318528,-0.44601753,0.6088303,-1.8764777,-0.43761516,1.3265969,1.0936193,0.03999539,0.04,-7.495832,-6.284312725067139,0.7391413,0.02231706,-0.006384570151567459,0.0020571675
2681.433333339865,-0.23186114,-0.44600612,0.60885155,-1.8764616,-0.43762982,1.3265886,1.0936297,0.03999539,0.04,-7.495748,-6.284332275390625,0.7392643,0.022299549,-0.006346685346215963,0.0021377082
2681.450000006532,-0.23186886,-0.44599557,0.6088711,-1.876447,-0.43764335,1.326581,1.0936391,0.03999539,0.04,-7.4957776,-6.284377574920654,0.73937976,0.022284124,-0.006312432233244181,0.0022115572
2681.4666666731987,-0.23187597,-0.44598582,0.60888916,-1.876433,-0.4376559,1.326574,1.0936481,0.03999539,0.04,-7.495819,-6.2844157218933105,0.7394693,0.022270601,-0.006281958427280188,0.0022801151
2681.4833333398656,-0.2318825,-0.44597697,0.60890585,-1.8764203,-0.43766746,1.3265674,1.0936562,0.03999539,0.04,-7.4957967,-6.284411430358887,0.73957294,0.022256302,-0.006252132821828127,0.0023427398
2681.5000000065324,-0.23188849,-0.44596875,0.60892105,-1.876409,-0.4376781,1.3265615,1.0936633,0.03999539,0.04,-7.4957848,-6.284459114074707,0.73967606,0.022243815,-0.006224590353667736,0.0024009347
2681.5166666731993,-0.23189403,-0.44596127,0.6089351,-1.8763983,-0.4376878,1.3265561,1.0936701,0.03999539,0.04,-7.4958725,-6.284499168395996,0.7397317,0.022234412,-0.006201841402798891,0.002455019
2681.533333339866,-0.23189916,-0.44595432,0.6089482,-1.8763883,-0.43769675,1.3265511,1.0936764,0.03999539,0.04,-7.495817,-6.2845048904418945,0.7398102,0.022224057,-0.006178280338644981,0.0025036784
2681.550000006533,-0.23190385,-0.44594795,0.6089601,-1.8763793,-0.43770495,1.3265463,1.0936823,0.03999539,0.04,-7.3429227,-5.704147815704346,0.8057603,0.0,-0.0,0.0
2681.5666666732,-0.23190385,-0.44594795,0.6089601,-1.8763793,-0.43770495,1.3265463,1.0936823,0.03999539,0.04,-7.4966984,-6.283935546875,0.74011785,0.0,-0.0,0.0
2681.583333339867,-0.23190385,-0.44594795,0.6089601,-1.8763793,-0.43770495,1.3265463,1.0936823,0.03999539,0.04,-7.4966984,-6.283935546875,0.74011785,0.0,-0.0,0.0
2681.6000000065337,-0.23190385,-0.44594795,0.6089601,-1.8763793,-0.43770495,1.3265463,1.0936823,0.03999539,0.04,-7.4966984,-6.283935546875,0.74011785,0.0,-0.0,0.0
2681.6166666732006,-0.23190385,-0.44594795,0.6089601,-1.8763793,-0.43770495,1.3265463,1.0936823,0.03999539,0.04,-7.4966984,-6.283935546875,0.74011785,0.0,-0.0,0.0
2681.6333333398675,-0.23190385,-0.44594795,0.6089601,-1.8763793,-0.43770495,1.3265463,1.0936823,0.03999539,0.04,-7.4966984,-6.283935546875,0.74011785,0.0,-0.0,0.0
2681.6500000065344,-0.23190385,-0.44594795,0.6089601,-1.8763793,-0.43770495,1.3265463,1.0936823,0.03999539,0.04,-7.4966984,-6.283935546875,0.74011785,0.0,-0.0,0.0
2681.6666666732012,-0.23190385,-0.44594795,0.6089601,-1.8763793,-0.43770495,1.3265463,1.0936823,0.03999539,0.04,-7.4966984,-6.283935546875,0.74011785,0.0,-0.0,0.0
2681.683333339868,-0.23190385,-0.44594795,0.6089601,-1.8763793,-0.43770495,1.3265463,1.0936823,0.03999539,0.04,-7.4966984,-6.283935546875,0.74011785,0.0,-0.0,0.0
2681.700000006535,-0.23190385,-0.44594795,0.6089601,-1.8763793,-0.43770495,1.3265463,1.0936823,0.03999539,0.04,-7.4966984,-6.283935546875,0.74011785,0.0,-0.0,0.0
2681.716666673202,-0.23190385,-0.44594795,0.6089601,-1.8763793,-0.43770495,1.3265463,1.0936823,0.03999539,0.04,-7.4966984,-6.283935546875,0.74011785,0.0,-0.0,0.0
2681.7333333398688,-0.23190385,-0.44594795,0.6089601,-1.8763793,-0.43770495,1.3265463,1.0936823,0.03999539,0.04,-7.4966984,-6.283935546875,0.74011785,0.0,-0.0,0.0
2681.7500000065356,-0.23190385,-0.44594795,0.6089601,-1.8763793,-0.43770495,1.3265463,1.0936823,0.03999539,0.04,-7.4966984,-6.283935546875,0.74011785,0.0,-0.0,0.0
2681.7666666732025,-0.23190385,-0.44594795,0.6089601,-1.8763793,-0.43770495,1.3265463,1.0936823,0.03999539,0.04,-7.4966984,-6.283935546875,0.74011785,0.0,-0.0,0.0
2681.7833333398694,-0.23190385,-0.44594795,0.6089601,-1.8763793,-0.43770495,1.3265463,1.0936823,0.03999539,0.04,-7.4966984,-6.283935546875,0.74011785,0.0,-0.0,0.0
2681.8000000065363,-0.23190385,-0.44594795,0.6089601,-1.8763793,-0.43770495,1.3265463,1.0936823,0.03999539,0.04,-7.4966984,-6.283935546875,0.74011785,0.0,-0.0,0.0
2681.816666673203,-0.23190385,-0.44594795,0.6089601,-1.8763793,-0.43770495,1.3265463,1.0936823,0.03999539,0.04,-7.4966984,-6.283935546875,0.74011785,0.0,-0.0,0.0
2681.83333333987,-0.23190385,-0.44594795,0.6089601,-1.8763793,-0.43770495,1.3265463,1.0936823,0.03999539,0.04,-7.4966984,-6.283935546875,0.74011785,0.0,-0.0,0.0
2681.850000006537,-0.23190385,-0.44594795,0.6089601,-1.8763793,-0.43770495,1.3265463,1.0936823,0.03999539,0.04,-7.4966984,-6.283935546875,0.74011785,0.0,-0.0,0.0
2681.866666673204,-0.23190385,-0.44594795,0.6089601,-1.8763793,-0.43770495,1.3265463,1.0936823,0.03999539,0.04,-7.4966984,-6.283935546875,0.74011785,0.0,-0.0,0.0
2681.8833333398707,-0.23190385,-0.44594795,0.6089601,-1.8763793,-0.43770495,1.3265463,1.0936823,0.03999539,0.04,-7.4966984,-6.283935546875,0.74011785,0.0,-0.0,0.0
2681.9000000065375,-0.23190385,-0.44594795,0.6089601,-1.8763793,-0.43770495,1.3265463,1.0936823,0.03999539,0.04,-7.4966984,-6.283935546875,0.74011785,0.0,-0.0,0.0
2681.9166666732044,-0.23190385,-0.44594795,0.6089601,-1.8763793,-0.43770495,1.3265463,1.0936823,0.03999539,0.04,-7.4966984,-6.283935546875,0.74011785,0.0,-0.0,0.0
2681.9333333398713,-0.23190385,-0.44594795,0.6089601,-1.8763793,-0.43770495,1.3265463,1.0936823,0.03999539,0.04,-7.4966984,-6.283935546875,0.74011785,0.0,-0.0,0.0
2681.950000006538,-0.23190385,-0.44594795,0.6089601,-1.8763793,-0.43770495,1.3265463,1.0936823,0.03999539,0.04,-7.4966984,-6.283935546875,0.74011785,0.0,-0.0,0.0
2681.966666673205,-0.23190385,-0.44594795,0.6089601,-1.8763793,-0.43770495,1.3265463,1.0936823,0.03999539,0.04,-7.4966984,-6.283935546875,0.74011785,0.0,-0.0,0.0
2681.983333339872,-0.23190385,-0.44594795,0.6089601,-1.8763793,-0.43770495,1.3265463,1.0936823,0.03999539,0.04,-7.4966984,-6.283935546875,0.74011785,0.0,-0.0,0.0
2682.000000006539,-0.23190385,-0.44594795,0.6089601,-1.8763793,-0.43770495,1.3265463,1.0936823,0.03999539,0.04,-7.4966984,-6.283935546875,0.74011785,0.0,-0.0,0.0
2682.0166666732057,-0.23190385,-0.44594795,0.6089601,-1.8763793,-0.43770495,1.3265463,1.0936823,0.03999539,0.04,-7.4966984,-6.283935546875,0.74011785,0.0,-0.0,0.0
2682.0333333398726,-0.23190385,-0.44594795,0.6089601,-1.8763793,-0.43770495,1.3265463,1.0936823,0.03999539,0.04,-7.4966984,-6.283935546875,0.74011785,0.0,-0.0,0.0
2682.0500000065394,-0.23190385,-0.44594795,0.6089601,-1.8763793,-0.43770495,1.3265463,1.0936823,0.03999539,0.04,-7.4966984,-6.283935546875,0.74011785,0.0,-0.0,0.0
2682.0666666732063,-0.23190385,-0.44594795,0.6089601,-1.8763793,-0.43770495,1.3265463,1.0936823,0.03999539,0.04,-7.4966984,-6.283935546875,0.74011785,0.0,-0.0,0.0
2682.083333339873,-0.23190385,-0.44594795,0.6089601,-1.8763793,-0.43770495,1.3265463,1.0936823,0.03999539,0.04,-7.4966984,-6.283935546875,0.74011785,0.0,-0.0,0.0
2682.10000000654,-0.23190385,-0.44594795,0.6089601,-1.8763793,-0.43770495,1.3265463,1.0936823,0.03999539,0.04,-7.4966984,-6.283935546875,0.74011785,0.0,-0.0,0.0
2682.116666673207,-0.23190385,-0.44594795,0.6089601,-1.8763793,-0.43770495,1.3265463,1.0936823,0.03999539,0.04,-7.4966984,-6.283935546875,0.74011785,0.0,-0.0,0.0
2682.133333339874,-0.23190385,-0.44594795,0.6089601,-1.8763793,-0.43770495,1.3265463,1.0936823,0.03999539,0.04,-7.4966984,-6.283935546875,0.74011785,0.0,-0.0,0.0
2682.1500000065407,-0.23190385,-0.44594795,0.6089601,-1.8763793,-0.43770495,1.3265463,1.0936823,0.03999539,0.04,-7.4966984,-6.283935546875,0.74011785,0.0,-0.0,0.0
2682.1666666732076,-0.23190385,-0.44594795,0.6089601,-1.8763793,-0.43770495,1.3265463,1.0936823,0.03999539,0.04,-7.4966984,-6.283935546875,0.74011785,0.0,-0.0,0.0
2682.1833333398745,-0.23190385,-0.44594795,0.6089601,-1.8763793,-0.43770495,1.3265463,1.0936823,0.03999539,0.04,-7.4966984,-6.283935546875,0.74011785,0.0,-0.0,0.0
2682.2000000065414,-0.23190385,-0.44594795,0.6089601,-1.8763793,-0.43770495,1.3265463,1.0936823,0.03999539,0.04,-7.4966984,-6.283935546875,0.74011785,0.0,-0.0,0.0
2682.2166666732082,-0.23190385,-0.44594795,0.6089601,-1.8763793,-0.43770495,1.3265463,1.0936823,0.03999539,0.04,-7.4966984,-6.283935546875,0.74011785,0.0,-0.0,0.0
2682.233333339875,-0.23190385,-0.44594795,0.6089601,-1.8763793,-0.43770495,1.3265463,1.0936823,0.03999539,0.04,-7.4966984,-6.283935546875,0.74011785,0.0,-0.0,0.0
2682.250000006542,-0.23190385,-0.44594795,0.6089601,-1.8763793,-0.43770495,1.3265463,1.0936823,0.03999539,0.04,-7.4966984,-6.283935546875,0.74011785,0.0,-0.0,0.0
2682.266666673209,-0.23190385,-0.44594795,0.6089601,-1.8763793,-0.43770495,1.3265463,1.0936823,0.03999539,0.04,-7.4966984,-6.283935546875,0.74011785,0.0,-0.0,0.0
2682.2833333398758,-0.23190385,-0.44594795,0.6089601,-1.8763793,-0.43770495,1.3265463,1.0936823,0.03999539,0.04,-7.4966984,-6.283935546875,0.74011785,0.0,-0.0,0.0
2682.3000000065426,-0.23190385,-0.44594795,0.6089601,-1.8763793,-0.43770495,1.3265463,1.0936823,0.03999539,0.04,-7.4966984,-6.283935546875,0.74011785,0.0,-0.0,0.0
2682.3166666732095,-0.23190385,-0.44594795,0.6089601,-1.8763793,-0.43770495,1.3265463,1.0936823,0.03999539,0.04,-7.4966984,-6.283935546875,0.74011785,0.0,-0.0,0.0
2682.3333333398764,-0.23190385,-0.44594795,0.6089601,-1.8763793,-0.43770495,1.3265463,1.0936823,0.03999539,0.04,-7.4966984,-6.283935546875,0.74011785,0.0,-0.0,0.0
2682.3500000065433,-0.23190385,-0.44594795,0.6089601,-1.8763793,-0.43770495,1.3265463,1.0936823,0.03999539,0.04,-7.4966984,-6.283935546875,0.74011785,0.0,-0.0,0.0
2682.36666667321,-0.23190385,-0.44594795,0.6089601,-1.8763793,-0.43770495,1.3265463,1.0936823,0.03999539,0.04,-7.4966984,-6.283935546875,0.74011785,0.0,-0.0,0.0
2682.383333339877,-0.23190385,-0.44594795,0.6089601,-1.8763793,-0.43770495,1.3265463,1.0936823,0.03999539,0.04,-7.4966984,-6.283935546875,0.74011785,0.0,-0.0,0.0
2682.400000006544,-0.23190385,-0.44594795,0.6089601,-1.8763793,-0.43770495,1.3265463,1.0936823,0.03999539,0.04,-7.4966984,-6.283935546875,0.74011785,0.0,-0.0,0.0
2682.416666673211,-0.23190385,-0.44594795,0.6089601,-1.8763793,-0.43770495,1.3265463,1.0936823,0.03999539,0.04,-7.4966984,-6.283935546875,0.74011785,0.0,-0.0,0.0
2682.4333333398777,-0.23190385,-0.44594795,0.6089601,-1.8763793,-0.43770495,1.3265463,1.0936823,0.03999539,0.04,-7.4966984,-6.283935546875,0.74011785,0.0,-0.0,0.0
2682.4500000065445,-0.23190385,-0.44594795,0.6089601,-1.8763793,-0.43770495,1.3265463,1.0936823,0.03999539,0.04,-7.4966984,-6.283935546875,0.74011785,0.0,-0.0,0.0
2682.4666666732114,-0.23190385,-0.44594795,0.6089601,-1.8763793,-0.43770495,1.3265463,1.0936823,0.03999539,0.04,-7.4966984,-6.283935546875,0.74011785,0.0,-0.0,0.0
2682.4833333398783,-0.23190385,-0.44594795,0.6089601,-1.8763793,-0.43770495,1.3265463,1.0936823,0.03999539,0.04,-7.4966984,-6.283935546875,0.74011785,0.0,-0.0,0.0
2682.500000006545,-0.23190385,-0.44594795,0.6089601,-1.8763793,-0.43770495,1.3265463,1.0936823,0.03999539,0.04,-7.4966984,-6.283935546875,0.74011785,0.0,-0.0,0.0
2682.516666673212,-0.23190385,-0.44594795,0.6089601,-1.8763793,-0.43770495,1.3265463,1.0936823,0.03999539,0.04,-7.4966984,-6.283935546875,0.74011785,0.0,-0.0,0.0
2682.533333339879,-0.23190385,-0.44594795,0.6089601,-1.8763793,-0.43770495,1.3265463,1.0936823,0.03999539,0.04,-7.4966984,-6.283935546875,0.74011785,0.0,-0.0,0.0
2682.550000006546,-0.23190385,-0.44594795,0.6089601,-1.8763793,-0.43770495,1.3265463,1.0936823,0.03999539,0.04,-7.4966984,-6.283935546875,0.74011785,0.0,-0.0,0.0
2682.5666666732127,-0.23190385,-0.44594795,0.6089601,-1.8763793,-0.43770495,1.3265463,1.0936823,0.03999539,0.04,-7.4966984,-6.283935546875,0.74011785,0.0,-0.0,0.0
2682.5833333398796,-0.23190385,-0.44594795,0.6089601,-1.8763793,-0.43770495,1.3265463,1.0936823,0.03999539,0.04,-7.4966984,-6.283935546875,0.74011785,0.0,-0.0,0.0
2682.6000000065465,-0.23190385,-0.44594795,0.6089601,-1.8763793,-0.43770495,1.3265463,1.0936823,0.03999539,0.04,-7.4966984,-6.283935546875,0.74011785,0.0,-0.0,0.0
2682.6166666732133,-0.23190385,-0.44594795,0.6089601,-1.8763793,-0.43770495,1.3265463,1.0936823,0.03999539,0.04,-7.4966984,-6.283935546875,0.74011785,0.0,-0.0,0.0
2682.63333333988,-0.23190385,-0.44594795,0.6089601,-1.8763793,-0.43770495,1.3265463,1.0936823,0.03999539,0.04,-7.4966984,-6.283935546875,0.74011785,0.0,-0.0,0.0
2682.650000006547,-0.23190385,-0.44594795,0.6089601,-1.8763793,-0.43770495,1.3265463,1.0936823,0.03999539,0.04,-7.4966984,-6.283935546875,0.74011785,0.0,-0.0,0.0
2682.666666673214,-0.23190385,-0.44594795,0.6089601,-1.8763793,-0.43770495,1.3265463,1.0936823,0.03999539,0.04,-7.4966984,-6.283935546875,0.74011785,0.0,-0.0,0.0
2682.683333339881,-0.23190385,-0.44594795,0.6089601,-1.8763793,-0.43770495,1.3265463,1.0936823,0.03999539,0.04,-7.4966984,-6.283935546875,0.74011785,0.0,-0.0,0.0
2682.7000000065477,-0.23190385,-0.44594795,0.6089601,-1.8763793,-0.43770495,1.3265463,1.0936823,0.03999539,0.04,-7.4966984,-6.283935546875,0.74011785,0.0,-0.0,0.0
2682.7166666732146,-0.23190385,-0.44594795,0.6089601,-1.8763793,-0.43770495,1.3265463,1.0936823,0.03999539,0.04,-7.4966984,-6.283935546875,0.74011785,0.0,-0.0,0.0
2682.7333333398815,-0.23190385,-0.44594795,0.6089601,-1.8763793,-0.43770495,1.3265463,1.0936823,0.03999539,0.04,-7.4966984,-6.283935546875,0.74011785,0.0,-0.0,0.0
2682.7500000065484,-0.23190385,-0.44594795,0.6089601,-1.8763793,-0.43770495,1.3265463,1.0936823,0.03999539,0.04,-7.4966984,-6.283935546875,0.74011785,0.0,-0.0,0.0
2682.7666666732152,-0.23190385,-0.44594795,0.6089601,-1.8763793,-0.43770495,1.3265463,1.0936823,0.03999539,0.04,-7.4966984,-6.283935546875,0.74011785,0.0,-0.0,0.0
2682.783333339882,-0.23190385,-0.44594795,0.6089601,-1.8763793,-0.43770495,1.3265463,1.0936823,0.03999539,0.04,-7.4966984,-6.283935546875,0.74011785,0.0,-0.0,0.0
2682.800000006549,-0.23190385,-0.44594795,0.6089601,-1.8763793,-0.43770495,1.3265463,1.0936823,0.03999539,0.04,-7.4966984,-6.283935546875,0.74011785,0.0,-0.0,0.0
2682.816666673216,-0.23190385,-0.44594795,0.6089601,-1.8763793,-0.43770495,1.3265463,1.0936823,0.03999539,0.04,-7.4966984,-6.283935546875,0.74011785,0.0,-0.0,0.0
2682.8333333398828,-0.23190385,-0.44594795,0.6089601,-1.8763793,-0.43770495,1.3265463,1.0936823,0.03999539,0.04,-7.4966984,-6.283935546875,0.74011785,0.0,-0.0,0.0
2682.8500000065496,-0.23190385,-0.44594795,0.6089601,-1.8763793,-0.43770495,1.3265463,1.0936823,0.03999539,0.04,-7.4966984,-6.283935546875,0.74011785,0.0,-0.0,0.0
2682.8666666732165,-0.23190385,-0.44594795,0.6089601,-1.8763793,-0.43770495,1.3265463,1.0936823,0.03999539,0.04,-7.4966984,-6.283935546875,0.74011785,0.0,-0.0,0.0
2682.8833333398834,-0.23190385,-0.44594795,0.6089601,-1.8763793,-0.43770495,1.3265463,1.0936823,0.03999539,0.04,-7.4966984,-6.283935546875,0.74011785,0.0,-0.0,0.0
2682.9000000065503,-0.23190385,-0.44594795,0.6089601,-1.8763793,-0.43770495,1.3265463,1.0936823,0.03999539,0.04,-7.4966984,-6.283935546875,0.74011785,0.0,-0.0,0.0
2682.916666673217,-0.23190385,-0.44594795,0.6089601,-1.8763793,-0.43770495,1.3265463,1.0936823,0.03999539,0.04,-7.4966984,-6.283935546875,0.74011785,0.0,-0.0,0.0
2682.933333339884,-0.23190385,-0.44594795,0.6089601,-1.8763793,-0.43770495,1.3265463,1.0936823,0.03999539,0.04,-7.4966984,-6.283935546875,0.74011785,0.0,-0.0,0.0
2682.950000006551,-0.23190385,-0.44594795,0.6089601,-1.8763793,-0.43770495,1.3265463,1.0936823,0.03999539,0.04,-7.4966984,-6.283935546875,0.74011785,0.0,-0.0,0.0
2682.966666673218,-0.23190385,-0.44594795,0.6089601,-1.8763793,-0.43770495,1.3265463,1.0936823,0.03999539,0.04,-7.4966984,-6.283935546875,0.74011785,0.0,-0.0,0.0
2682.9833333398847,-0.23190385,-0.44594795,0.6089601,-1.8763793,-0.43770495,1.3265463,1.0936823,0.03999539,0.04,-7.4966984,-6.283935546875,0.74011785,0.0,-0.0,0.0
2683.0000000065515,-0.23190385,-0.44594795,0.6089601,-1.8763793,-0.43770495,1.3265463,1.0936823,0.03999539,0.04,-7.4966984,-6.283935546875,0.74011785,0.0,-0.0,0.0
2683.0166666732184,-0.23190385,-0.44594795,0.6089601,-1.8763793,-0.43770495,1.3265463,1.0936823,0.03999539,0.04,-7.4966984,-6.283935546875,0.74011785,0.0,-0.0,0.0
2683.0333333398853,-0.23190385,-0.44594795,0.6089601,-1.8763793,-0.43770495,1.3265463,1.0936823,0.03999539,0.04,-7.4966984,-6.283935546875,0.74011785,0.0,-0.0,0.0
2683.050000006552,-0.23190385,-0.44594795,0.6089601,-1.8763793,-0.43770495,1.3265463,1.0936823,0.03999539,0.04,-7.4966984,-6.283935546875,0.74011785,0.0,-0.0,0.0
2683.066666673219,-0.23190385,-0.44594795,0.6089601,-1.8763793,-0.43770495,1.3265463,1.0936823,0.03999539,0.04,-7.4966984,-6.283935546875,0.74011785,0.0,-0.0,0.0
2683.083333339886,-0.23190385,-0.44594795,0.6089601,-1.8763793,-0.43770495,1.3265463,1.0936823,0.03999539,0.04,-7.4966984,-6.283935546875,0.74011785,0.0,-0.0,0.0
2683.100000006553,-0.23190385,-0.44594795,0.6089601,-1.8763793,-0.43770495,1.3265463,1.0936823,0.03999539,0.04,-7.4966984,-6.283935546875,0.74011785,0.0,-0.0,0.0
2683.1166666732197,-0.23190385,-0.44594795,0.6089601,-1.8763793,-0.43770495,1.3265463,1.0936823,0.03999539,0.04,-7.4966984,-6.283935546875,0.74011785,0.0,-0.0,0.0
2683.1333333398866,-0.23190385,-0.44594795,0.6089601,-1.8763793,-0.43770495,1.3265463,1.0936823,0.03999539,0.04,-7.4966984,-6.283935546875,0.74011785,0.0,-0.0,0.0
2683.1500000065535,-0.23190385,-0.44594795,0.6089601,-1.8763793,-0.43770495,1.3265463,1.0936823,0.03999539,0.04,-7.4966984,-6.283935546875,0.74011785,0.0,-0.0,0.0
