rsonawane2002/My_IMU/logs_2/traj_284/clean_284.csv
time,j1,j2,j3,j4,j5,j6,j7,gripper1,gripper2,imu_ax,imu_ay,imu_az,imu_gx,imu_gy,imu_gz,quat_x,quat_y,quat_z,quat_w
365.6833333333294,0.00016700293,-0.785875,4.0107683e-05,-2.3551247,9.29385e-05,1.570997,0.786,0.04,0.04,0.0,-0.0,0.0,2.875329272945135e-08,-0.0011641195053377316,4.421952117202833e-08,0.9999995971961153,0.00020320632366974898,0.0008736418299892524,3.263050917662294e-05
365.69999999999607,0.00016699966,-0.78576016,4.0124476e-05,-2.3552213,9.296844e-05,1.5709941,0.786,0.04,0.04,-0.2919984611077009,-3.604316314745164e-05,0.020128408253161645,-2.8590155752104006e-08,-0.0022381619682054375,-6.423995973146625e-07,0.9999996850590676,0.00020320676808176512,0.0007665025211789998,3.2598468735891175e-05
365.7166666666627,0.00016695516,-0.7856542,4.0208783e-05,-2.35531,9.295716e-05,1.5709913,0.786,0.04,0.04,0.023196967469285568,-3.804371970624271e-06,-0.0016027170888444076,5.209616063519493e-07,-0.0032294293189394055,-5.606622968291492e-06,0.9999997558883829,0.00020320357263981385,0.0006677376706394072,3.252515744374648e-05
365.73333333332937,0.00016680355,-0.7855566,4.0472536e-05,-2.355391,9.2841765e-05,1.5709884,0.786,0.04,0.04,0.022263094168195607,-1.652723879847222e-05,-0.0014234214137376355,1.5015424593150636e-06,-0.004143735940958068,-1.8773645882326475e-05,0.9999998123754082,0.000203190105976301,0.0005769896803048074,3.2339418514074514e-05
365.749999999996,0.00016645185,-0.7854666,4.107635e-05,-2.3554652,9.253246e-05,1.5709856,0.786,0.04,0.04,0.02012364483250373,-3.673069595523724e-05,-0.0012561654854303939,3.877894645857069e-06,-0.004989244469831757,-4.3681269339836774e-05,0.999999857090635,0.00020315609500361955,0.0004934837305928655,3.193928875425013e-05
365.7666666666627,0.00016578258,-0.7853832,4.2224307e-05,-2.355532,9.192392e-05,1.570986,0.786,0.04,0.039999995,0.020938335346154524,-7.027513339343525e-05,0.001995531428899966,7.556674907013597e-06,-0.005770127838983517,-8.27520612005499e-05,0.9999998912567915,0.00020308812807339846,0.0004186503813755078,3.120056883019624e-05
365.7833333333293,0.00016465629,-0.7853061,4.4160053e-05,-2.3555963,9.087072e-05,1.5709869,0.786,0.04,0.039999995,0.011085707389257848,-9.474677762175035e-05,-0.002251033852318507,1.3031998682385403e-05,-0.006476829748883127,-0.00014041753284257773,0.9999999182902393,0.00020296984006920043,0.00034831736926961104,2.996279397790354e-05
365.799999999996,0.00016291377,-0.78523415,4.7162317e-05,-2.3556545,8.921749e-05,1.5709878,0.786,0.04,0.039999995,0.01630706072195398,-0.00013299775650817266,-0.00010782698034450533,2.1106099488976645e-05,-0.007146911140487557,-0.00021842387695206395,0.9999999387931078,0.000202782107326043,0.0002837364580851172,2.8050308059275386e-05
365.8166666666626,0.00016037821,-0.78516716,5.1541112e-05,-2.3557062,8.679016e-05,1.5709921,0.7860019,0.04,0.039999995,0.017468577147194964,-0.00017472584397797987,0.0025390269738689852,3.2063564696514065e-05,-0.007772392871842203,-0.0003190548863774413,0.9999999533283533,0.00020345733458462093,0.00022651702193158765,2.526742846883999e-05
365.8333333333293,0.00015685712,-0.78510416,5.7634425e-05,-2.3557563,8.339998e-05,1.5709969,0.7860038,0.04,0.039999995,0.007402310988768868,-0.0002196764371930921,-0.0011813117734016387,3.7441645301132776e-05,-0.008337577285111074,-0.00044435017449556116,0.9999999641039604,0.00020401859218228773,0.00017236763584410348,2.139836463859129e-05
365.84999999999593,0.0001521442,-0.78504467,6.580501e-05,-2.3558004,7.88452e-05,1.5710051,0.78600574,0.04,0.039999995,0.015112654641313839,-0.00027107550481860897,0.003235222059649878,4.690501246347769e-05,-0.008882798382361768,-0.0005961000034252826,0.9999999711972879,0.00020444050478725235,0.00012468584835126126,1.6215504092446035e-05
365.8666666666626,0.0001460208,-0.7849878,7.64373e-05,-2.3558428,7.290981e-05,1.5710137,0.78600764,0.04,0.039999995,0.005848052640144985,-0.00032157862708242623,-0.0004865893654004694,6.0541060428369016e-05,-0.009378508134620699,-0.0007758947798253478,0.9999999758582542,0.000204696407700018,7.932922362088959e-05,9.473437655561737e-06
365.88333333332923,0.00013825762,-0.78493303,8.993508e-05,-2.3558815,6.536887e-05,1.5710261,0.78601146,0.04,0.039999995,0.009996626214614501,-0.0003784631686516249,0.0033573787358243123,7.928428975902424e-05,-0.0098628137005962,-0.0009851172826339644,0.9999999780870253,0.00020571158389968725,3.8831044159300357e-05,9.181992475693578e-07
365.8999999999959,0.00012861601,-0.78487986,0.00010671864,-2.3559167,5.5987988e-05,1.5710423,0.7860153,0.04,0.039999995,0.008658281831697145,-0.0004366153124023937,0.0034163420394639488,9.47655661452068e-05,-0.010314197376779475,-0.001224984766293671,0.9999999786274139,0.00020650278696161952,2.714577754551464e-06,-9.716071944933761e-06
365.91666666666254,0.00011684931,-0.78482777,0.0001272226,-2.355951,4.452291e-05,1.5710623,0.786021,0.04,0.039999995,0.0040131320552694305,-0.0004949804334192101,0.0026526104822677254,0.00011590532528816047,-0.010737544920097737,-0.001496535348356171,0.9999999776471425,0.00020799307731338176,-3.0480381997619364e-05,-2.2705517036615064e-05
365.9333333333292,0.00010270383,-0.78477615,0.00015189411,-2.3559813,3.0725332e-05,1.5710862,0.7860267,0.04,0.039999995,0.008620298835348983,-0.0005586418223274179,0.004382062816410404,0.00013519151474368575,-0.011146249701036635,-0.0018006612003890767,0.9999999756134079,0.00020919699135316311,-5.950205170874685e-05,-3.8331559251433814e-05
365.94999999999584,8.59201e-05,-0.7847244,0.00018119074,-2.356009,1.4340086e-05,1.5711141,0.78603435,0.04,0.039999995,0.005605382450002416,-0.0006222087118073235,0.004256886843223562,0.0001613035256227497,-0.011531451861471245,-0.002138120648065067,0.9999999724807986,0.00021103566332118575,-8.524437099130357e-05,-5.6883633924888125e-05
365.9666666666625,6.623377e-05,-0.7846719,0.00021557843,-2.3560362,-4.893315e-06,1.5711483,0.786042,0.04,0.04,0.0019509509206150355,-0.000686333723078444,0.005353579419575816,0.0001864767205517502,-0.01190133834051028,-0.002509530571828094,0.9999999684943893,0.0002125222065103688,-0.00010797551098157996,-7.865634731507317e-05
365.98333333332914,4.3376738e-05,-0.78461844,0.0002555306,-2.356063,-2.7246842e-05,1.5711875,0.7860515,0.04,0.04,0.0013372689685597905,-0.0007464693396254255,0.004477835026572841,0.00021968941018455789,-0.012258121758032125,-0.002916169524377044,0.9999999633269454,0.00021457620011182507,-0.00012844037373932785,-0.00010395303176796872
365.9999999999958,1.7077396e-05,-0.7845633,0.00030152622,-2.356086,-5.2980617e-05,1.5712334,0.78606296,0.04,0.04,0.006340699918916393,-0.000820186181725856,0.007519111568576875,0.0002526495500503284,-0.012610994426965585,-0.0033568508186496574,0.9999999571097408,0.00021716294476485702,-0.00014461228557884856,-0.00013307163019630214
366.01666666666245,-1.2937994e-05,-0.78450596,0.00035404816,-2.3561072,-8.2358165e-05,1.5712857,0.7860758,0.04,0.039999995,0.0028353845959117052,-0.000891629232052817,0.006896053926497281,0.00028613003266741586,-0.012940776699149155,-0.0038319034079163684,0.9999999495376086,0.00021997924386691064,-0.00015771307224787958,-0.0001663144589560984
366.0333333333291,-4.694473e-05,-0.7844457,0.00041358278,-2.3561273,-0.00011566575,1.5713451,0.7860901,0.04,0.04,0.0010169421946537582,-0.000948999265638819,0.007423797068883964,0.00032309505443724846,-0.013260777542274267,-0.0043438744836431726,0.9999999401785302,0.00022304895273807037,-0.00016815987000708948,-0.00020399597749227506
366.04999999999575,-8.521946e-05,-0.78438264,0.0004806179,-2.3561468,-0.00015316732,1.5714122,0.7861061,0.039999995,0.039999995,0.00015881465442735276,-0.001023264288970712,0.007568092451926134,0.0003634979992017571,-0.013574931068509957,-0.004890514067723235,0.9999999285284286,0.0002264554961295898,-0.00017589297330637975,-0.00024641978022681686
366.0666666666624,-0.00012803901,-0.784316,0.00055564276,-2.3561661,-0.00019514095,1.5714873,0.7861241,0.039999995,0.04,-0.001028774636679941,-0.001088636807518561,0.008076627043362983,0.00040675652193266536,-0.013883029526679695,-0.00547344756888297,0.9999999138626929,0.0002302815207102125,-0.00018129970228237315,-0.00029389699862633937
366.08333333332905,-0.00017568032,-0.7842454,0.0006391458,-2.3561852,-0.00024185529,1.5715706,0.7861442,0.03999999,0.04,-0.001415960918516035,-0.0011601741450109507,0.008489968818570226,0.0004522816092055415,-0.014189491846381658,-0.006091905441780869,0.9999998953665895,0.00023455012827091628,-0.00018446936868617248,-0.0003467334701915328
366.0999999999957,-0.00022841983,-0.7841701,0.00073161494,-2.3562043,-0.00029358114,1.5716628,0.7861664,0.039999988,0.03999999,-0.0023589936316348314,-0.0012302119227846568,0.009197208415057112,0.0005000357709292943,-0.01449573908419268,-0.006744031541447025,0.9999998720561658,0.00023925405600689996,-0.00018555090330619098,-0.00040523574757521657
366.11666666666235,-0.00028653265,-0.78409,0.00083353627,-2.356222,-0.00035059202,1.5717651,0.78619087,0.039999988,0.039999995,0.00028758293846298244,-0.001299776696920055,0.010919105128870399,0.0005499964569299341,-0.01480506245602519,-0.007433101867380776,0.9999998430314162,0.0002443854599450235,-0.00018326273574847908,-0.0004697101868342781
366.133333333329,-0.00035029286,-0.78400475,0.00094539364,-2.3562381,-0.00041315667,1.5718771,0.78621787,0.039999984,0.03999999,-0.00015685236329776586,-0.0013699912157612455,0.0108210783307916,0.0006026903552922237,-0.015104699908282877,-0.008156337522806636,0.9999998068497467,0.00025008566223147353,-0.00017793255431362867,-0.0005404605787844369
366.14999999999566,-0.00041997232,-0.78391373,0.0010676675,-2.3562539,-0.0004815437,1.5719995,0.7862473,0.03999998,0.039999988,-0.002315969319921507,-0.001437998062555311,0.011206253889639584,0.0006567105474128154,-0.015398555730746919,-0.008914334173896178,0.9999997618730473,0.00025625696020735575,-0.00017006697744903842,-0.0006177891566524888
366.1666666666623,-0.0004958412,-0.78381675,0.0012008344,-2.3562694,-0.0005560197,1.5721327,0.78627914,0.039999977,0.039999984,-0.002807871012100449,-0.001505677001372238,0.011466011718486158,0.0007131178389282117,-0.015692975865763934,-0.0097067819658479,0.9999997063096117,0.0002628315701079848,-0.00015969580757959722,-0.0007019953739449689
366.18333333332896,-0.0005781669,-0.78371334,0.001345367,-2.3562846,-0.00063684804,1.5722774,0.786314,0.039999973,0.03999998,-0.0030736985235035874,-0.0015751488285276408,0.012356751832154345,0.0007727067560726641,-0.01598819540859748,-0.010533326728734041,0.9999996380495747,0.000270098429982073,-0.0001466399867813595,-0.0007933752404032495
366.1999999999956,-0.0006672145,-0.78360295,0.0015017334,-2.3562999,-0.0007242906,1.5724342,0.78635144,0.03999997,0.039999977,-0.003924283172218601,-0.0016423823939896239,0.012906958347302933,0.0008326988468159598,-0.016282320104326422,-0.01139358945211695,0.999999554801976,0.0002777801181532562,-0.00013104869242710687,-0.0008922221113227697
366.21666666666226,-0.00076324586,-0.783485,0.0016703961,-2.3563151,-0.0008186051,1.5726032,0.7863921,0.039999966,0.039999973,-0.004511646184046647,-0.0017102754262431335,0.013420335019276308,0.0008960656109640495,-0.01657862421089025,-0.012287134675954912,0.9999994538330981,0.00028616511449615925,-0.00011310046481177271,-0.0009988249685061446
366.2333333333289,-0.00086651946,-0.7833599,0.0018518117,-2.3563304,-0.00092004676,1.572785,0.78643566,0.039999966,0.039999973,-0.003902020588042454,-0.0017779190158170454,0.013539330910017355,0.0009597823779466572,-0.016877844345092145,-0.01321350412828395,0.9999993322971404,0.00029506507470483824,-9.234841613119362e-05,-0.0011134691934903207
366.24999999999557,-0.0009772903,-0.78322655,0.0020464314,-2.3563461,-0.0010288677,1.5729803,0.78648245,0.03999996,0.03999997,-0.005677619349064855,-0.0018440361560690343,0.014461741111437831,0.0010257017770897974,-0.017178351027980206,-0.01417221271651964,0.9999991868306187,0.00030458818909846503,-6.920965870351362e-05,-0.001236436071739009
366.2666666666622,-0.0010958109,-0.7830853,0.0022547005,-2.356362,-0.0011453157,1.5731893,0.78653246,0.03999996,0.03999997,-0.004870870195783361,-0.001911304819888636,0.014577622864431206,0.0010926710492442514,-0.017483633928361244,-0.015162746295793122,0.9999990138305477,0.0003146945563812267,-4.329680962891658e-05,-0.0013680024322392825
366.28333333332887,-0.0012223287,-0.7829357,0.0024770556,-2.3563783,-0.0012696348,1.5734122,0.78658587,0.039999958,0.039999966,-0.00526179576649799,-0.0019764144447050914,0.014989530885323177,0.001161503151412245,-0.017789042189432287,-0.0161845613674059,0.9999988092429304,0.00032543300310435155,-1.4699225637395743e-05,-0.001508439595942653
366.2999999999955,-0.0013570872,-0.78277695,0.002713929,-2.3563952,-0.0014020667,1.5736496,0.78664285,0.039999958,0.03999997,-0.006747022492503696,-0.0020415554309830214,0.015653847573582347,0.0012312868000273537,-0.01809874797689043,-0.017237939231069543,0.9999985686250822,0.0003368503408170378,1.6255330701998235e-05,-0.0016580155002613982
366.3166666666622,-0.0015003271,-0.78260934,0.0029657425,-2.356413,-0.0015428475,1.5739021,0.78670347,0.039999954,0.039999966,-0.006337173426418374,-0.002103897549250158,0.01587293131692924,0.0013019887097836151,-0.018414992957891962,-0.018320597800185398,0.9999982871449469,0.00034893589441913796,4.9924452983095815e-05,-0.0018169915967909303
366.3333333333288,-0.0016522837,-0.7824321,0.0032329147,-2.3564317,-0.0016922088,1.5741704,0.78676766,0.039999954,0.039999966,-0.007786072034110525,-0.002170126796659103,0.016625042247064847,0.0013729508450576484,-0.018733741472877447,-0.019432768068736776,0.9999979595607801,0.00036161560736516914,8.603974854014959e-05,-0.0019856247355878602
366.3499999999955,-0.0018131887,-0.7822451,0.0035158542,-2.3564508,-0.0018503799,1.5744543,0.7868356,0.039999954,0.039999966,-0.006237206741288581,-0.002235903233203853,0.01708797060011591,0.0014452807315574606,-0.01905928932384575,-0.02057383874466171,0.9999975800814207,0.00037493636699363023,0.00012504827158484256,-0.002164166572412667
366.3666666666621,-0.001983269,-0.78204805,0.003814962,-2.3564699,-0.0020175863,1.5747545,0.7869075,0.039999954,0.039999973,-0.006084093160074744,-0.0022996852845654295,0.017750936047256083,0.0015182974382073064,-0.01938778504459957,-0.021745842220563746,0.9999971424080115,0.0003889435040321797,0.000167128872646467,-0.002352863511094873
366.3833333333288,-0.0021627473,-0.78184056,0.0041306294,-2.356489,-0.0021940449,1.5750711,0.7869833,0.03999995,0.039999973,-0.006412635703445524,-0.0023623830152113678,0.018128190116439846,0.0015911290680514006,-0.019717537039198058,-0.02294368384898478,0.9999966397974497,0.0004035933502745616,0.00021222177340653623,-0.0025519537880074965
366.39999999999543,-0.002351841,-0.7816223,0.0044632447,-2.3565083,-0.0023799695,1.5754048,0.7870632,0.03999995,0.039999988,-0.007034058887356309,-0.002430557518015748,0.01866350317152321,0.0016644111423542484,-0.020050641807482516,-0.02417176977023759,0.9999960649526768,0.0004188981829114588,0.0002603269187142162,-0.002761672205297605
366.4166666666621,-0.0025507638,-0.78139323,0.0048131812,-2.3565278,-0.0025755647,1.575756,0.7871473,0.039999954,0.04,-0.006891488660532019,-0.0024931087672386016,0.019016400516869147,0.0017376920690909373,-0.020385673654831318,-0.025422706416199214,0.9999954099587417,0.0004349030943785346,0.0003116827515374529,-0.0029822432176091467
366.43333333332873,-0.002759724,-0.781153,0.005180811,-2.3565478,-0.0027810247,1.576125,0.7872356,0.03999995,0.04,-0.00758997742975609,-0.0025671056563399044,0.019373322033411355,0.0018105309972911206,-0.02072252551757939,-0.026698518339398306,0.999994666464819,0.00045155957404692477,0.0003661698281611759,-0.0032138848024618138
366.4499999999954,-0.002978925,-0.7809014,0.0055664936,-2.356568,-0.0029965695,1.5765117,0.78732836,0.03999995,0.04,-0.007601106716648154,-0.002614273053519727,0.019468908248554406,0.0018825828896799758,-0.02106171904650951,-0.027999148675549597,0.9999938254957114,0.00046891006300388716,0.0004236391798593307,-0.003456822768219362
366.46666666666204,-0.0032085665,-0.7806381,0.005970579,-2.3565893,-0.0032223945,1.576917,0.78742546,0.03999995,0.04,-0.00872478575266733,-0.002670443189136708,0.019951633441772643,0.0019540074433117166,-0.021404837469601513,-0.02932394989139639,0.9999928775145751,0.0004868762269270379,0.00048412022547232586,-0.0037112665314023544
366.4833333333287,-0.0034488435,-0.7803629,0.006393411,-2.3566117,-0.0034586824,1.5773414,0.78752697,0.03999995,0.04,-0.009322167806691262,-0.0027356770480466835,0.020361981317651434,0.00202466757402134,-0.021752960958022743,-0.030672217312139614,0.9999918123904403,0.0005054379776452808,0.0005475829252895321,-0.003977415929129289
366.49999999999534,-0.0036999432,-0.78007555,0.0068353266,-2.3566358,-0.0037056296,1.5777848,0.7876331,0.039999954,0.04,-0.010449325969696943,-0.0027875074975758363,0.02018548023829947,0.0020944166773652346,-0.022106224036363774,-0.03204330912720722,0.9999906195281627,0.000524662924393954,0.0006136101854050221,-0.004255474948523081
366.516666666662,-0.0039620516,-0.77977586,0.007296647,-2.3566613,-0.0039634067,1.5782475,0.7877439,0.039999954,0.04,-0.010104938679211806,-0.0028504122776482066,0.02074464253496444,0.0021623536647197785,-0.022468687670993418,-0.033437173323226356,0.9999892874532714,0.0005445013888095425,0.0006824698694891887,-0.0045456277688892864
366.53333333332864,-0.004235348,-0.77946347,0.007777693,-2.3566878,-0.004232186,1.5787297,0.7878595,0.039999947,0.04,-0.009706101039697046,-0.0029198455920942303,0.021157941305971484,0.0022288447625594407,-0.022837597043054717,-0.03485235467480251,0.999987804078305,0.0005649591740228183,0.0007542214704762478,-0.0048480579364142485
366.5499999999953,-0.0045200065,-0.7791385,0.00827877,-2.3567147,-0.0045121643,1.5792325,0.78797996,0.03999994,0.04,-0.008435487147595566,-0.002966476893906736,0.022103041919940836,0.002293283779979449,-0.0232135718648294,-0.036288824486045104,0.999986155931529,0.0005860413185781023,0.0008296993716625763,-0.005162954562005081
366.56666666666194,-0.004816198,-0.7788004,0.008800184,-2.356742,-0.0048034936,1.5797553,0.7881052,0.039999936,0.04,-0.008756717238322942,-0.003042386125591155,0.022242221823942643,0.002354999550878506,-0.02358964307238931,-0.03774420826301783,0.9999843298076724,0.0006076324676950569,0.0009085750059393879,-0.005490483889714609
366.5833333333286,-0.005124086,-0.7784492,0.0093422225,-2.3567696,-0.005106348,1.5802991,0.7882355,0.03999993,0.04,-0.008980205178077405,-0.003090285632295544,0.022783263964432088,0.0024152480289457087,-0.023967091463151045,-0.039219429845838365,0.9999823111411498,0.0006298250731072929,0.0009911169440071622,-0.005830815756425771
366.59999999999525,-0.0054438305,-0.77808464,0.009905168,-2.3567975,-0.0054209013,1.580864,0.7883707,0.039999917,0.04,-0.008724404552196141,-0.003141518622320951,0.022954311636858016,0.0024719676010653115,-0.024345424534540947,-0.040713656179120594,0.9999800848881535,0.0006525021253457552,0.001077384009646127,-0.006184117702121128
366.6166666666619,-0.0057755867,-0.77770656,0.010489294,-2.3568268,-0.0057472927,1.5814497,0.78851104,0.03999991,0.04,-0.01103934102910653,-0.003193646046518398,0.02253577565578535,0.002526382103423549,-0.024724413916537652,-0.04222439360747302,0.9999776361714632,0.0006756658476510273,0.0011666607721354271,-0.006550537019062243
366.63333333332855,-0.0061195022,-0.7773143,0.011094866,-2.3568583,-0.0060856636,1.5820572,0.78865653,0.03999991,0.04,-0.01278277658982585,-0.0032485216886409506,0.02309947132093093,0.002577422986675827,-0.025110291504151686,-0.04375101527530181,0.9999749491634782,0.0006993119363779162,0.0012586192720349893,-0.006930215425426696
366.6499999999952,-0.0064757257,-0.77690846,0.01172214,-2.356891,-0.006436151,1.5826865,0.7888072,0.039999906,0.04,-0.01047608894013674,-0.0033206291976250503,0.023284453152183637,0.0026247537580640183,-0.025505766538568293,-0.04529444552271028,0.9999720058918752,0.000723383268252651,0.00135409339426264,-0.00732329026505302
366.66666666666185,-0.006844393,-0.7764883,0.01237136,-2.3569252,-0.006798892,1.5833377,0.78896326,0.039999906,0.04,-0.01211032138870305,-0.003369890508800582,0.023457413406102745,0.0026686848793321186,-0.025903628894304535,-0.04685221366835702,0.9999687893567549,0.0007479044319469808,0.0014524872039413026,-0.007729892125308842
366.6833333333285,-0.0072256406,-0.77605397,0.013042775,-2.3569598,-0.007174013,1.5840112,0.78912455,0.039999902,0.04,-0.009372930416406966,-0.0034670228664802905,0.02448524060045809,0.0027077274301416784,-0.026310849439850743,-0.048424471732556915,0.999965279576787,0.0007727480006717944,0.0015548725186734166,-0.008150145575161251
366.69999999999516,-0.007619598,-0.77560526,0.013736605,-2.356995,-0.0075616543,1.584707,0.7892912,0.039999902,0.04,-0.010447322888396116,-0.003498219407650164,0.024269561089607095,0.00274324158526731,-0.026715390575444115,-0.050010360230163226,0.999961457680668,0.0007979122557070763,0.0016608617477528672,-0.008584173078435989
366.7166666666618,-0.008026389,-0.7751419,0.014453071,-2.3570309,-0.007961917,1.5854256,0.78946334,0.0399999,0.04,-0.010248054331540857,-0.0035804920896844415,0.024893129307268502,0.002774077040051323,-0.02712416207829979,-0.051609218213133135,0.9999573032915015,0.0008233873431261701,0.0017706633398467302,-0.009032074989074441
366.73333333332846,-0.008446138,-0.77466404,0.0151923895,-2.3570669,-0.0083749425,1.5861666,0.7896409,0.039999895,0.04,-0.009781164087474536,-0.0036242465336969176,0.02462992027030264,0.002799907034137154,-0.027531579610739633,-0.05322040106798573,0.9999527953659633,0.0008490792456917308,0.001884306184873709,-0.00949397147837893
366.7499999999951,-0.008878959,-0.7741712,0.015954765,-2.3571053,-0.008800841,1.5869312,0.789824,0.03999989,0.04,-0.013688843024906028,-0.0036529210354878903,0.02481329563399637,0.002821020953747042,-0.02794092074689081,-0.054843637820316586,0.9999479137119786,0.0008749714856953514,0.002001045061114545,-0.009969960211766356
366.76666666666176,-0.009324959,-0.7736634,0.016740395,-2.3571455,-0.009239716,1.5877192,0.7900127,0.039999884,0.04,-0.012848313878421891,-0.0037278117734637975,0.024778325174668048,0.002836367104832549,-0.02835672225264107,-0.05647758202264158,0.999942635794158,0.0009010219026423792,0.002121058384686601,-0.010460133454772518
366.7833333333284,-0.009784246,-0.7731407,0.017549463,-2.3571875,-0.009691684,1.5885308,0.790207,0.03999988,0.04,-0.012395940391751736,-0.003773247352792386,0.0250546752107228,0.0028458562644122576,-0.02877951000512742,-0.058121305998163605,0.9999369381010529,0.0009271612245794521,0.0022445838217380904,-0.010964581005308168
366.79999999999507,-0.010256924,-0.7726027,0.018382147,-2.35723,-0.010156844,1.589366,0.790407,0.039999872,0.04,-0.010929746568799636,-0.0038520137099306087,0.02586340785457608,0.002849578337951194,-0.029205767821484083,-0.059774918241306665,0.9999307960259256,0.0009533434501841653,0.002371978563870151,-0.011483379856000156
366.8166666666617,-0.0107430825,-0.7720492,0.019238621,-2.357273,-0.0106353,1.590225,0.79061276,0.039999872,0.04,-0.011360078719113709,-0.003913051877630497,0.025952500956472058,0.0028468603449614627,-0.02963236347957218,-0.06143591268236045,0.9999241849001672,0.000979547766624841,0.002503212776589468,-0.012016607828510313
366.83333333332837,-0.011242815,-0.7714803,0.020119041,-2.3573165,-0.011127107,1.5911082,0.7908242,0.039999865,0.04,-0.010398870889583023,-0.004006348941047559,0.026397105139541743,0.0028372479901430728,-0.030059324927960523,-0.06310457279001415,0.999917078492842,0.0010056391505434453,0.00263873188973574,-0.012564311451599839
366.849999999995,-0.01175621,-0.7708961,0.021023564,-2.3573608,-0.011632372,1.5920155,0.79104143,0.039999858,0.04,-0.011692494585746616,-0.004035872681482783,0.025963514838078794,0.002821208716567986,-0.030484957909480977,-0.06478009632720863,0.9999094514580995,0.001031629606998532,0.0027781189876358993,-0.01312656390708789
366.8666666666617,-0.0122833485,-0.77029616,0.021952335,-2.3574073,-0.012151175,1.5929469,0.7912644,0.039999854,0.04,-0.014101340818428731,-0.0040600582222560105,0.025557560090860854,0.0027979093389076237,-0.03091015188091871,-0.06646161723794083,0.9999012792028489,0.001057379750172917,0.002920627422309167,-0.013703420450034002
366.8833333333283,-0.012824305,-0.7696806,0.022905488,-2.3574567,-0.012683589,1.5939027,0.7914933,0.039999843,0.04,-0.015180796627767279,-0.0041043839867555,0.0254384966163812,0.0027675680724977506,-0.031343216643520445,-0.06814846651470371,0.9998925349244181,0.0010828960204675075,0.003066108509865522,-0.014294926275981433
366.899999999995,-0.013379157,-0.7690492,0.023883155,-2.3575068,-0.013229679,1.5948832,0.7917282,0.039999843,0.04,-0.011748962928548323,-0.004228682471510425,0.026739428318345304,0.0027288944214383954,-0.031786818121321433,-0.06983909260550666,0.9998831874317359,0.001108151135209997,0.003215635140236327,-0.014901113483847267
366.9166666666616,-0.01394797,-0.7684019,0.024885455,-2.3575573,-0.013789511,1.5958884,0.7919689,0.03999984,0.04,-0.01144981053649019,-0.004298128385715576,0.026871261949956704,0.0026814303816519967,-0.03222765146365986,-0.07153441630932766,0.9998732076538478,0.0011329415547195957,0.003369294099576274,-0.015522013938582227
366.9333333333283,-0.01453081,-0.7677387,0.025912497,-2.3576083,-0.014363146,1.5969185,0.79221547,0.039999828,0.04,-0.01141503247086284,-0.004360982431850582,0.02703503217773573,0.0026266030908285356,-0.0326689247475213,-0.07323283491223388,0.9998625655070363,0.0011572408841542797,0.0035272045056707626,-0.016157652044727026
366.94999999999493,-0.015127731,-0.7670593,0.026964394,-2.3576605,-0.014950671,1.5979735,0.7924682,0.039999817,0.04,-0.012951039632924655,-0.004393065589631054,0.026814349818349292,0.0025634200172705256,-0.03310570721411904,-0.0749344097244469,0.9998512319673829,0.0011810746010264932,0.003688890715353573,-0.016808065962025956
366.9666666666616,-0.015738782,-0.7663639,0.02804124,-2.3577135,-0.015552156,1.5990535,0.7927268,0.03999981,0.04,-0.012007221057430684,-0.004466121900961219,0.027046845616962578,0.002490384909490693,-0.03354607239119793,-0.07663917444436902,0.99983917489661,0.001204232244153465,0.0038547075961796228,-0.017473276627923796
366.98333333332823,-0.016364023,-0.7656523,0.029143117,-2.357769,-0.016167592,1.6001586,0.7929914,0.03999981,0.04,-0.015521122551009903,-0.004483708223535984,0.026223174245454395,0.0024085646484005,-0.033984634596074884,-0.07834302119269186,0.9998263673132917,0.0012266613929111999,0.004023611390452681,-0.01815326632627301
366.9999999999949,-0.017003495,-0.76492465,0.030270105,-2.3578267,-0.016797058,1.6012888,0.793262,0.039999817,0.04,-0.014513049226794195,-0.004542577272262371,0.026418642863146324,0.002317775221063051,-0.034430100350234964,-0.08005076030097358,0.999812775655609,0.0012482980996157535,0.0041959892003930865,-0.018848051950050237
367.01666666666154,-0.017657239,-0.76418066,0.031422284,-2.357885,-0.017440593,1.6024442,0.79353875,0.039999817,0.04,-0.012046936641252337,-0.004676164186737976,0.027358097669494263,0.0022169337115919008,-0.03488131910473223,-0.08175784423438581,0.9997983645580255,0.0012691016742296028,0.004372526728335595,-0.01955762301630551
367.0333333333282,-0.018325297,-0.76342034,0.032599725,-2.357944,-0.0180982,1.6036248,0.7938215,0.039999813,0.04,-0.012877007692946307,-0.0047526020069785235,0.027201551180322525,0.0021055753488907793,-0.03532941096934611,-0.08345830125990625,0.9997831018550117,0.0012889178696350887,0.0045530429558012925,-0.020281955915033144
367.04999999999484,-0.019007696,-0.76264375,0.033802472,-2.3580036,-0.018769927,1.604831,0.7941103,0.03999981,0.04,-0.011967694297765341,-0.004822253621360878,0.027555447307725522,0.001984624781872413,-0.03577858329855662,-0.08515764415394508,0.9997669519643346,0.0013076500056692893,0.0047379243648679676,-0.021021034325625527
367.0666666666615,-0.019704461,-0.7618508,0.03503057,-2.3580635,-0.019455805,1.6060627,0.79440516,0.039999798,0.04,-0.011748908980102613,-0.0048965023087124,0.027717331057530714,0.0018531267333293001,-0.03622283893524481,-0.08685526553781667,0.9997498801620078,0.0013252293783217023,0.004927230236805966,-0.021774831465235876
367.08333333332814,-0.020415626,-0.7610413,0.03628408,-2.358126,-0.020155855,1.6073198,0.7947062,0.039999783,0.04,-0.016026123846391016,-0.004875024484627538,0.026616755886732513,0.0017112750279402733,-0.03666214894339653,-0.08854959130167031,0.9997318575104376,0.0013416151557591736,0.005119709255641029,-0.022543329936846587
367.0999999999948,-0.021141194,-0.7602155,0.037563037,-2.3581915,-0.020870129,1.6086022,0.7950133,0.039999776,0.04,-0.016745299467446628,-0.004898715200041953,0.02596445887772525,0.001557733639371622,-0.03710865135438801,-0.09023961711597225,0.9997128504688311,0.0013566174450882242,0.00531506083702503,-0.02332651548969184
367.11666666666144,-0.021881185,-0.75937307,0.038867455,-2.358258,-0.021598594,1.6099102,0.79532653,0.039999776,0.04,-0.013415392422344574,-0.00508787935084784,0.027643543628164124,0.0013930870885005744,-0.037565054414578136,-0.09192393406822824,0.9996928185306968,0.0013701873031484026,0.005514447390456447,-0.024124303821737553
367.1333333333281,-0.02263562,-0.7585147,0.04019736,-2.3583248,-0.022341283,1.6112438,0.79564583,0.03999977,0.04,-0.011437445864603824,-0.005183853273841091,0.02736834310339553,0.0012172043400593847,-0.03801951800170789,-0.09360282489137345,0.9996717216672286,0.001382204037940893,0.005718492952038457,-0.024936664757616522
367.14999999999475,-0.023404494,-0.7576393,0.041552767,-2.3583922,-0.023098215,1.612603,0.79597133,0.03999976,0.04,-0.013616460075871473,-0.005221847614439792,0.027733544264507692,0.0010295465944517926,-0.03846725955794144,-0.09527713572950919,0.9996495278641694,0.0013926044876446447,0.005926393948331734,-0.02576353912903492
367.1666666666614,-0.024187816,-0.7567477,0.042933676,-2.3584597,-0.023869373,1.6139876,0.7963029,0.03999975,0.04,-0.011426763052369004,-0.005352605539211963,0.027571706785689543,0.0008300300191512039,-0.03891487620653907,-0.09694380470166107,0.9996261957123722,0.0014012376932326428,0.006138952235850832,-0.026604861284794962
367.18333333332805,-0.024985583,-0.7558399,0.044340096,-2.358529,-0.024654768,1.6153978,0.7966407,0.03999974,0.04,-0.01486183211856229,-0.00533124678132775,0.026772580669609525,0.0006185606626494984,-0.03935432041391524,-0.09860378502476642,0.999601693253784,0.0014080512600306845,0.006355215017375534,-0.027460580436325363
367.1999999999947,-0.0257978,-0.75491536,0.045772012,-2.3586028,-0.025454378,1.6168339,0.79698443,0.039999735,0.04,-0.019427824857265463,-0.0052616531499263125,0.02597902810714814,0.00039404207818963255,-0.0397967038578435,-0.10025306791566772,0.9995759920670093,0.0014128195273749864,0.006573896615906842,-0.028330617845726724
367.21666666666135,-0.026624437,-0.75397444,0.0472294,-2.3586771,-0.026268207,1.6182946,0.7973344,0.03999972,0.04,-0.013442947110875458,-0.0055050280417408975,0.026562839391264248,0.00015754534406593051,-0.04024991381997689,-0.10189598320981999,0.999549046690412,0.00141556383465636,0.006796281380636103,-0.029214893440056414
367.233333333328,-0.027465485,-0.75301725,0.048712246,-2.358752,-0.027096225,1.6197815,0.7976904,0.039999712,0.04,-0.012422720905957974,-0.005659555382682771,0.027826104085115766,-9.221719372465645e-05,-0.04070507365469207,-0.10352765583948043,0.9995208129606452,0.0014160907410624504,0.007023379585195635,-0.030113307435520043
367.24999999999466,-0.028320936,-0.7520436,0.050220516,-2.358827,-0.02793845,1.621294,0.7980526,0.039999697,0.04,-0.01248363552011078,-0.005701595515001864,0.027573218810994504,-0.00035462208145418256,-0.04115071665262749,-0.10515187477270063,0.9994912537627645,0.001414358872254881,0.007254924227391066,-0.031025784682621602
367.2666666666613,-0.02919076,-0.75105363,0.05175419,-2.3589025,-0.028794847,1.622832,0.7984206,0.039999686,0.04,-0.012497071870942733,-0.005825153089373744,0.02730626946576553,-0.0006299478779963896,-0.041590273445787196,-0.10676343584159982,0.9994603312938077,0.0014100410644108756,0.007490848591613019,-0.031952232185657105
367.28333333332796,-0.030074941,-0.75004715,0.05331319,-2.3589783,-0.029665405,1.624395,0.7987951,0.03999968,0.04,-0.013265279943697195,-0.0058137899178106744,0.027081130195538705,-0.0009170448862307109,-0.04202422440364538,-0.10836436402636845,0.9994280092685541,0.0014034032492345673,0.007730835458749946,-0.032892536112690975
367.2999999999946,-0.030973451,-0.7490245,0.054897487,-2.35906,-0.030550059,1.6259836,0.7991756,0.03999967,0.04,-0.022244084795319807,-0.005600279995012641,0.024394761661716835,-0.0012200086110469317,-0.04245434852095585,-0.10995178841722833,0.9993942677790628,0.0013940920569446875,0.007972492348604714,-0.03384661583436386
367.31666666666126,-0.03188625,-0.7479856,0.05650704,-2.3591418,-0.031448796,1.6275971,0.7995621,0.039999664,0.04,-0.012408050215695354,-0.006063675616899827,0.026941493637622216,-0.0015367302974743247,-0.04290351014794703,-0.1115279949568333,0.9993590491480635,0.0013819534595240542,0.008218440393689809,-0.03481434083836091
367.3333333333279,-0.0328133,-0.7469303,0.05814176,-2.359224,-0.032361586,1.6292362,0.79995453,0.039999653,0.04,-0.01321172983275165,-0.0061104506190120395,0.027267443586453943,-0.0018667958451496318,-0.043346642813097115,-0.11309095142725129,0.9993223145995682,0.0013668657659966544,0.008468738315579366,-0.03579558202741782
367.34999999999457,-0.033754565,-0.7458589,0.059801593,-2.359307,-0.03328838,1.6309006,0.80035305,0.03999964,0.04,-0.013473765080651567,-0.006194787801396678,0.026691996563621423,-0.002209924894012784,-0.043782210405665,-0.11463915273321859,0.999284026425635,0.0013487811010108575,0.008723238514820915,-0.036790221933633634
367.3666666666612,-0.034710005,-0.7447713,0.061486468,-2.3593903,-0.034229122,1.6325896,0.8007575,0.039999627,0.04,-0.013110421719453313,-0.006305085649407904,0.02643397033983419,-0.0025672993379737222,-0.04421348333161439,-0.1161729578268173,0.9992441479374808,0.001327532792388382,0.008981759776457512,-0.03779812774068245
367.38333333332787,-0.035679564,-0.74366766,0.06319627,-2.3594742,-0.0351838,1.6343039,0.801168,0.039999615,0.04,-0.013530332819544633,-0.006346033457967429,0.026682732200944415,-0.0029386311186854006,-0.044639379675116296,-0.1176926742473697,0.9992026382544804,0.0013030275052860855,0.009244570804822707,-0.03881916711163389
367.3999999999945,-0.036663193,-0.7425479,0.06493095,-2.3595607,-0.036152344,1.6360432,0.8015844,0.039999608,0.04,-0.017132159653932,-0.00631752648109149,0.0253606993209754,-0.0033239927883924932,-0.04505927695795844,-0.11919583434463418,0.9991594699829979,0.0012750870461582817,0.009510447360523434,-0.03985321928429461
367.4166666666612,-0.03766085,-0.7414122,0.06669043,-2.3596506,-0.03713472,1.6378071,0.8020068,0.039999593,0.04,-0.01839493707935791,-0.006327831959565197,0.024713003253196142,-0.003723743706156692,-0.04548260798387226,-0.12068454901553284,0.9991146091404544,0.0012436310471527251,0.009778973058893133,-0.040900157332818265
367.4333333333278,-0.038672462,-0.7402605,0.06847457,-2.3597407,-0.03813083,1.6395959,0.80243504,0.039999582,0.04,-0.013175799322184822,-0.006667364166268452,0.0263628497590096,-0.004138606041623317,-0.04591435401736331,-0.12215521513355987,0.9990680052590972,0.0012085098271996041,0.010051725658612233,-0.04195978053910442
367.4499999999945,-0.039697967,-0.739093,0.070283264,-2.3598313,-0.039140686,1.6414092,0.80286944,0.03999957,0.04,-0.01340131361122765,-0.006706407172640122,0.025871350341444277,-0.004567474253054659,-0.04633872028756162,-0.12360957956961233,0.9990196197759494,0.0011697289919484185,0.010328621140553614,-0.043031972092126475
367.4666666666611,-0.04073732,-0.7379098,0.072116375,-2.3599222,-0.040164176,1.6432469,0.8033097,0.03999956,0.04,-0.01312254559915349,-0.00679494417137258,0.025867605553764328,-0.005011747547230581,-0.04675582787068993,-0.12504425208992248,0.9989694163319469,0.001127044440179452,0.010609712093775613,-0.04411653900212877
367.4833333333278,-0.041790437,-0.73671097,0.07397383,-2.3600137,-0.04120122,1.645109,0.8037557,0.039999545,0.04,-0.013900618219886418,-0.006936667176479089,0.02552156082029633,-0.005470460369707927,-0.04716604393731369,-0.12646222474842922,0.9989173594206691,0.0010802874856250953,0.010894818553507756,-0.04521332719091159
367.49999999999443,-0.04285724,-0.7354964,0.07585547,-2.3601058,-0.042251762,1.6469954,0.80420744,0.03999954,0.04,-0.013802320019706826,-0.007011705971762816,0.02549046883510986,-0.005943585452184277,-0.04757005213956923,-0.12785861612545876,0.9988634133381595,0.0010293160371745496,0.011183879962078352,-0.046322163506581054
367.5166666666611,-0.043937672,-0.73426634,0.07776119,-2.3602035,-0.04331574,1.6489061,0.8046649,0.039999522,0.04,-0.022637945168635376,-0.006606193908971492,0.02269509442776041,-0.0064309763338617106,-0.04796712944919293,-0.1292395993410999,0.9988075677436515,0.000974027747043367,0.011474452460078017,-0.04744292179767639
367.53333333332773,-0.045031637,-0.733021,0.07969083,-2.3603017,-0.04439307,1.6508403,0.80512816,0.039999515,0.04,-0.013673724691720679,-0.007167369411013869,0.024611469143875908,-0.0069341020873526,-0.04838323870503841,-0.13059726902915275,0.998749763168139,0.0009143444602562685,0.01176886240388983,-0.04857538907216954
367.5499999999944,-0.04613907,-0.73176026,0.081644274,-2.3604,-0.045483667,1.6527987,0.80559707,0.039999496,0.04,-0.012926131807522445,-0.007365876800627391,0.025438674849009857,-0.007451729993836755,-0.048791532748909516,-0.13193727939425415,0.9986899591822482,0.0008500638090964383,0.012067613190804112,-0.049719367775112475
367.56666666666104,-0.04725987,-0.7304842,0.083621375,-2.360499,-0.046587463,1.6547807,0.80607164,0.039999492,0.04,-0.014278265812084356,-0.007383827196184856,0.024608287306282506,-0.00798384320797374,-0.049189692174313224,-0.13325352847908967,0.998628126543286,0.0007810763300851344,0.012370169438999342,-0.050874686283690226
367.5833333333277,-0.048393972,-0.729193,0.08562196,-2.3605978,-0.047704346,1.6567866,0.8065518,0.039999474,0.04,-0.012931559737228149,-0.007545751963292102,0.02484333475079037,-0.00853024719189251,-0.04958220564077216,-0.13455118502191488,0.9985642268014817,0.0007072522948472652,0.012676976170409901,-0.05204112817498569
367.59999999999434,-0.04954126,-0.7278866,0.087645896,-2.3606975,-0.04883424,1.6588155,0.80703765,0.03999947,0.04,-0.014470589382953314,-0.007598140077245269,0.02398334014306336,-0.009090825517863962,-0.04996497191314751,-0.13582242001525216,0.9984982335028111,0.0006285001591130001,0.01298738118324233,-0.05321851754151705
367.616666666661,-0.050701655,-0.72656536,0.08969297,-2.3607986,-0.049977027,1.6608673,0.8075291,0.039999444,0.04,-0.015607605622913745,-0.007563052704987611,0.02325645935150611,-0.009666398727962525,-0.050343056075722994,-0.13707503612300004,0.9984301194952349,0.0005447107102404664,0.013301025486877515,-0.054406640182707564
367.63333333332764,-0.051875062,-0.72522926,0.091763064,-2.360904,-0.05113267,1.6629424,0.808026,0.039999444,0.04,-0.020476678407677085,-0.007368185423651391,0.021918789214647738,-0.010257277343613452,-0.05071915157876629,-0.13830654052357175,0.9983598664820917,0.0004556901745326125,0.01361668530806529,-0.05560535249007889
367.6499999999943,-0.053061392,-0.7238785,0.09385601,-2.3610098,-0.052301057,1.6650405,0.8085284,0.03999943,0.04,-0.013849598733650659,-0.007902556685953493,0.0236098534904583,-0.010863488860670687,-0.05110500136437525,-0.1395155536824378,0.9982874203235523,0.00036132583440798543,0.013936238218828561,-0.056814409542795444
367.66666666666094,-0.0542605,-0.7225132,0.09597156,-2.361116,-0.053482078,1.6671613,0.8090363,0.039999414,0.04,-0.013477755981061712,-0.008014705932318095,0.02344793858697347,-0.011483867405118768,-0.05148157122648696,-0.1406988387907954,0.9982127505375982,0.0002615124794883509,0.014259745899822849,-0.05803357581829851
367.6833333333276,-0.055472318,-0.7211333,0.0981096,-2.3612225,-0.054675594,1.6693045,0.8095495,0.039999407,0.04,-0.014237652261761546,-0.00812503273156448,0.02294940571958559,-0.012118756041694417,-0.051850238605744337,-0.1418572050383094,0.9981358325890578,0.0001560575330758779,0.014586816375507926,-0.0592626369293679
367.69999999999425,-0.056696724,-0.7197392,0.10026989,-2.3613296,-0.055881556,1.6714699,0.810068,0.03999939,0.04,-0.01383706372122262,-0.008165934383635998,0.022681675603508644,-0.012767019448293952,-0.05221186551646663,-0.14299377218001413,0.998056633190571,4.486826932807264e-05,0.014917659536785114,-0.06050139143098323
367.7166666666609,-0.057933614,-0.7183308,0.10245227,-2.3614373,-0.05709984,1.6736573,0.8105919,0.039999384,0.04,-0.014629025249979222,-0.008275024771827594,0.022297011683791723,-0.013429333384211598,-0.052564753443386056,-0.14410355015203563,0.9979751291205559,-7.214082011920799e-05,0.015251921504227807,-0.06174961816028494
367.73333333332755,-0.059182875,-0.7169082,0.10465652,-2.361546,-0.058330312,1.675867,0.8111209,0.039999377,0.04,-0.01489315131979474,-0.008367650129611354,0.02231156480250185,-0.014106461019502801,-0.05291241757556864,-0.14518616445854893,0.9978912928509176,-0.00019516637608454944,0.01558971663120942,-0.0630070654591101
367.7499999999942,-0.06044438,-0.71547174,0.10688244,-2.3616593,-0.059572857,1.678098,0.8116551,0.03999936,0.04,-0.021172393731427874,-0.007979965607769757,0.019453812502701062,-0.014797116159769532,-0.05325328922874181,-0.14624416000500476,0.9978051280133597,-0.00032430900817626983,0.015928930278514084,-0.06427355999236538
367.76666666666085,-0.06171801,-0.7140215,0.10912986,-2.361773,-0.06082737,1.6803505,0.81219465,0.039999336,0.04,-0.014033283269032637,-0.008673479126719563,0.021698488551136208,-0.01550272172446279,-0.05360528554273983,-0.14727667042930956,0.9977165769998502,-0.00045959001146865107,0.016271776672155035,-0.06554883706561841
367.7833333333275,-0.06300365,-0.7125574,0.11139851,-2.361887,-0.062093727,1.6826246,0.8127391,0.039999325,0.04,-0.013917120181483611,-0.00872271083707174,0.02174191009629567,-0.016222646746143078,-0.05394874640122968,-0.14827961508125892,0.9976256173021321,-0.0006013250112462652,0.016618241937615845,-0.06683262785252092
367.79999999999416,-0.064301185,-0.7110798,0.11368818,-2.3620017,-0.06337181,1.6849195,0.8132886,0.039999306,0.04,-0.014552740589590663,-0.008757600869865878,0.020770949600490418,-0.016954754225026243,-0.054284913972465224,-0.1492588672711052,0.9975322292562816,-0.0007494697825416518,0.01696800821752294,-0.06812471348320277
367.8166666666608,-0.06561049,-0.7095889,0.11599864,-2.3621166,-0.06466153,1.6872355,0.81384313,0.039999288,0.04,-0.013537376573724558,-0.008920838201561393,0.02105640896703509,-0.017700726625201613,-0.054613328947689624,-0.1502110030067992,0.9974363817303606,-0.0009042197786621987,0.01732151822286812,-0.06942486437648293
367.83333333332746,-0.0669314,-0.70808476,0.1183297,-2.362232,-0.0659627,1.689572,0.8144026,0.039999276,0.04,-0.014204700948883264,-0.009104432572180216,0.020393219188941103,-0.01845943690107581,-0.05493068165550474,-0.15113385005924854,0.9973380612498008,-0.00106568206539273,0.017678388540004628,-0.0707328105114778
367.8499999999941,-0.068263784,-0.7065673,0.12068109,-2.362348,-0.06727522,1.6919289,0.8149669,0.039999258,0.04,-0.014920155217312825,-0.009109001436048703,0.020169010628423578,-0.019230904799815565,-0.05524076233911071,-0.15203066532920045,0.9972372515560349,-0.0012339739335990205,0.018038381731416156,-0.07204830464215217
367.86666666666076,-0.06960754,-0.7050369,0.12305261,-2.3624654,-0.068598926,1.6943059,0.8155361,0.03999925,0.04,-0.015440605054140022,-0.009164563307814677,0.019450867481674017,-0.020015146226547872,-0.05554395674970572,-0.15289783380965832,0.997133935624984,-0.0014091953895970985,0.01840134798596811,-0.07337110456905717
367.8833333333274,-0.07096252,-0.7034937,0.12544401,-2.3625872,-0.069933705,1.6967026,0.81611,0.03999922,0.04,-0.021307468330133972,-0.008727889670970962,0.017070531437402003,-0.0208124481326149,-0.05584250461908079,-0.15373870088552677,0.9970281258405337,-0.001591444608029893,0.01876547189070769,-0.07470100837131655
367.89999999999407,-0.072328575,-0.7019377,0.12785508,-2.362709,-0.071279444,1.6991191,0.81668866,0.03999921,0.04,-0.013656664103378624,-0.009563776859924239,0.019670756002665435,-0.0216234294846483,-0.05615195778493122,-0.15454932410653277,0.9969197671792186,-0.0017808852346572232,0.019133019132995907,-0.07603771323474773
367.9166666666607,-0.073705584,-0.7003695,0.13028547,-2.362831,-0.07263597,1.7015551,0.81727207,0.03999919,0.04,-0.013383022316348914,-0.009541209279157609,0.018937699771548466,-0.022445651631120687,-0.056451853980756375,-0.15533120515147575,0.9968088431500016,-0.001977499465209257,0.019504111614700403,-0.07738093656671412
367.93333333332737,-0.07509337,-0.69878864,0.13273495,-2.362954,-0.07400319,1.7040101,0.8178598,0.039999176,0.04,-0.015121589878663855,-0.00954239087538472,0.01839895037485384,-0.02328058083460932,-0.056738907831152055,-0.15608587920349476,0.9966953524842143,-0.0021816017650774654,0.01987796617290408,-0.07873043509936567
367.949999999994,-0.07649181,-0.6971959,0.13520333,-2.3630767,-0.07538089,1.706484,0.81845224,0.03999916,0.04,-0.013160840790171768,-0.00990489686241297,0.018289477924748887,-0.024125756720800647,-0.05702146470991437,-0.15680761713626634,0.9965792693865343,-0.0023931174977582822,0.020255250698914602,-0.08008593907027196
367.9666666666607,-0.07790074,-0.69559115,0.1376903,-2.3632004,-0.07676898,1.7089763,0.8190492,0.03999914,0.04,-0.015128796535135436,-0.009763447665270264,0.01744354617450039,-0.024982475779273816,-0.05729296957435294,-0.15750351423964148,0.9964605938108341,-0.0026121699280328876,0.020635280960939036,-0.08144720210105529
367.9833333333273,-0.079320036,-0.6939746,0.14019567,-2.3633246,-0.078167275,1.711487,0.81965053,0.03999912,0.04,-0.014203970022164114,-0.01002004066641693,0.01755117060007194,-0.025851013379596596,-0.057559266639896495,-0.15816751877658616,0.9963393086814726,-0.002838901606729707,0.021018382100175953,-0.08281394947521477
367.999999999994,-0.0807495,-0.69234633,0.14271902,-2.363449,-0.079575635,1.714016,0.82025605,0.039999098,0.04,-0.013944159095991004,-0.010045672222157298,0.017319399890647347,-0.026729578398532093,-0.05781666638112179,-0.15880356237330376,0.9962154082173301,-0.003073472821614215,0.021404520801980857,-0.08418586986205512
368.0166666666606,-0.082189016,-0.69070655,0.14526021,-2.3635747,-0.08099392,1.716563,0.82086587,0.039999083,0.04,-0.015439732382405147,-0.010110464346048398,0.016577649718563237,-0.027617959739696343,-0.058063454453247204,-0.15940885427874774,0.9960888868608091,-0.0033159209590680385,0.02179334701424235,-0.08556274987694273
368.0333333333273,-0.08363839,-0.68905586,0.14781892,-2.363704,-0.08242196,1.7191273,0.82148,0.039999075,0.04,-0.019252217192855525,-0.009720250342976078,0.01420980079622769,-0.028516592397446094,-0.05830493014464759,-0.15998071291980107,0.9959597640203122,-0.0035662495062622943,0.022183555928820098,-0.08694435095747241
368.04999999999393,-0.0850975,-0.6873938,0.15039483,-2.3638337,-0.08385958,1.7217087,0.82209814,0.039999045,0.04,-0.014646018602104682,-0.010266490375782089,0.015972171964628856,-0.029426440497797617,-0.05855111557083012,-0.16052469436515343,0.9958280158932475,-0.003824639259590097,0.022576333980199124,-0.08833031212820681
368.0666666666606,-0.086566165,-0.6857208,0.15298778,-2.363964,-0.0853067,1.7243073,0.8227203,0.039999027,0.04,-0.014503951863131803,-0.010511724834359748,0.015695916997726655,-0.03034581279447671,-0.05879124829342999,-0.1610400273304534,0.9956936249055798,-0.004091243847138046,0.022971921832639637,-0.0897204427847133
368.08333333332723,-0.08804423,-0.6840371,0.15559733,-2.3640947,-0.08676307,1.7269225,0.82334644,0.03999902,0.04,-0.013804773391012937,-0.010500367644196429,0.015280655088867334,-0.03127332421704143,-0.05902221330831925,-0.1615194510928779,0.9955565969309357,-0.004366021125174582,0.023370293376961594,-0.09111437622188887
368.0999999999939,-0.08953155,-0.6823427,0.15822329,-2.3642256,-0.08822853,1.7295542,0.8239766,0.039998993,0.04,-0.013897481183455795,-0.010721178006466159,0.01508322279915042,-0.032209573721518406,-0.05924537483782784,-0.1619711684155074,0.9954169290012543,-0.004649061992318391,0.023771424612900854,-0.09251185357659142
368.11666666666054,-0.09102793,-0.68063825,0.1608653,-2.364357,-0.089703016,1.7322017,0.82461065,0.039998967,0.04,-0.013862598346436883,-0.010642832361956733,0.014141246889076697,-0.03315425734232604,-0.05945803202035829,-0.16239410874460988,0.995274617750474,-0.004940396186378505,0.024175200083270017,-0.09391265861481872
368.1333333333272,-0.092533186,-0.6789235,0.16352311,-2.3644884,-0.09118627,1.7348651,0.8252484,0.039998956,0.04,-0.013460640152906933,-0.010947188691196041,0.014449526378812472,-0.03410743811650711,-0.05966287125090457,-0.1627816981008178,0.9951296671252063,-0.005240225302966324,0.024581734753003362,-0.09531644119764002
368.14999999999384,-0.09404717,-0.67719865,0.16619648,-2.3646202,-0.09267819,1.737544,0.8258899,0.039998937,0.04,-0.014230069856457916,-0.010987663646308543,0.01370946855498989,-0.035067526419972975,-0.059856560289762675,-0.16314143260234815,0.9949820798096399,-0.005548606324514003,0.024990737275341256,-0.09672299042096248
368.1666666666605,-0.09556971,-0.67546403,0.16888496,-2.364753,-0.09417855,1.7402381,0.82653505,0.03999891,0.04,-0.01487348216808737,-0.010806148291549189,0.013018249115503977,-0.03603373569857801,-0.060042858435780944,-0.163470470601039,0.9948318713311199,-0.005865494125007402,0.025402002651546886,-0.09813196229456642
368.18333333332714,-0.097100616,-0.6737198,0.17158836,-2.364887,-0.0956872,1.7429471,0.8271837,0.039998896,0.04,-0.015307234887829146,-0.010986161230816527,0.012437462719727677,-0.037008412250963615,-0.060222878877733074,-0.16376372891161434,0.9946790466625103,-0.00619105673093235,0.02581532246813315,-0.09954312669883562
368.1999999999938,-0.09863975,-0.6719662,0.17430629,-2.3650243,-0.09720393,1.7456707,0.82783586,0.03999887,0.04,-0.01906732459202587,-0.010480406359958394,0.010701670399848595,-0.037989133335392944,-0.06039805234827404,-0.16402855613738299,0.9945236440567765,-0.006525285610348614,0.026229536462896753,-0.10095619583103962
368.21666666666044,-0.10018691,-0.6702034,0.17703852,-2.3651624,-0.09872862,1.7484086,0.8284914,0.03999884,0.04,-0.014371292782011658,-0.011218913935064079,0.011893953762087683,-0.03897712148114897,-0.060577725876437546,-0.16426363566533586,0.9943656362121273,-0.006868289043510951,0.026645960941278322,-0.10237089865573139
368.2333333333271,-0.10174192,-0.6684318,0.17978469,-2.3653007,-0.100261115,1.7511601,0.8291502,0.03999883,0.04,-0.013305420767562026,-0.01127447805681775,0.01146278547341506,-0.03997047737317112,-0.06075008169256392,-0.1644649811684334,0.9942050273922082,-0.007220090924581702,0.027064745068643488,-0.10378696146177786
368.24999999999375,-0.10330458,-0.6666513,0.18254451,-2.365439,-0.10180114,1.7539256,0.8298124,0.039998807,0.04,-0.013204991913129405,-0.011590638128740338,0.011682139273139214,-0.04096906078487085,-0.06091385485240261,-0.16463413234058338,0.9940418326067564,-0.007580706211471054,0.027485992278507596,-0.10520403105205914
368.2666666666604,-0.104874715,-0.6648624,0.18531762,-2.3655777,-0.10334858,1.7567043,0.8304779,0.039998785,0.04,-0.01360374401067066,-0.011426295654486107,0.010704703669284221,-0.04197177565953797,-0.06106741279515433,-0.164773921830853,0.9938760650620171,-0.007950149159443566,0.027909494599697483,-0.10662186706475078
368.28333333332705,-0.106452145,-0.66306514,0.1881037,-2.3657165,-0.10490328,1.759496,0.83114624,0.039998773,0.04,-0.012959260689560104,-0.011590033943001399,0.010530610243209004,-0.0429795139598229,-0.0612110819070531,-0.16488059278358225,0.9937077343918005,-0.008328638177733782,0.0283352688765602,-0.10804020054457757
368.2999999999937,-0.10803667,-0.6612597,0.19090246,-2.3658557,-0.106464975,1.7623003,0.8318178,0.03999875,0.04,-0.013761829691016914,-0.011647092341007803,0.009883598656901249,-0.043989503072585735,-0.061344599009873074,-0.16495707900072049,0.993536867240807,-0.008716003647760932,0.02876307381111335,-0.10945871504211903
368.31666666666035,-0.10962814,-0.6594462,0.19371355,-2.3659947,-0.10803357,1.7651169,0.8324925,0.039998725,0.04,-0.012603641510655628,-0.011766403360034816,0.010034115424750745,-0.04500351419677427,-0.06147157792961434,-0.16500437840336235,0.9933634692136778,-0.009112297357892674,0.029193178958939445,-0.11087714990429409
368.333333333327,-0.111226335,-0.65762496,0.19653665,-2.3661344,-0.10960883,1.7679455,0.8331697,0.0399987,0.04,-0.014004356956087705,-0.011687423809510211,0.008806365872526811,-0.046020693103524045,-0.06158733633762317,-0.16501766435639864,0.9931875684241572,-0.009517770793597604,0.029625057730691788,-0.11229524442862021
368.34999999999366,-0.11283109,-0.6557963,0.19937138,-2.3662748,-0.11119058,1.7707859,0.83385,0.039998684,0.04,-0.01382819097708321,-0.011668839605309678,0.008511875543004699,-0.04703880813121515,-0.0616955238654191,-0.1649998768554375,0.9930091857740987,-0.009932120230824138,0.03005880515435121,-0.11371270020835351
368.3666666666603,-0.11444222,-0.65396047,0.20221746,-2.3664157,-0.112778634,1.7736377,0.83453274,0.039998665,0.04,-0.01328535179367929,-0.011816978365206121,0.00807969133598263,-0.04806075463146569,-0.06179717527621269,-0.1649543040283361,0.9928283347343811,-0.010355684974777244,0.030494419658852637,-0.11512926607482783
368.38333333332696,-0.11605951,-0.65211767,0.20507453,-2.3665574,-0.11437279,1.7765003,0.83521837,0.039998643,0.04,-0.013687506063964072,-0.011825424806365115,0.007488377079223341,-0.049082363540842465,-0.061889566489546896,-0.1648738429207484,0.9926450458263733,-0.010788178683595594,0.030931733400484888,-0.11654465266965061
368.3999999999936,-0.117682785,-0.6502679,0.20794228,-2.3666997,-0.11597287,1.7793736,0.8359064,0.03999862,0.04,-0.013902371423268889,-0.011844034096249179,0.007127606993817537,-0.05010661250634673,-0.0619759225882789,-0.1647645632049101,0.9924593445749986,-0.011229847891187252,0.031370547029901774,-0.11795858875533267
368.41666666666026,-0.11931182,-0.6484116,0.21082032,-2.3668435,-0.11757867,1.782257,0.8365965,0.0399986,0.04,-0.014902791720872166,-0.011680777718582613,0.0059496206049836076,-0.0511305870441105,-0.062055732337165784,-0.16462470276904217,0.9922712649891918,-0.011680778872120335,0.03181040630971809,-0.11937082613478187
368.4333333333269,-0.12094643,-0.6465487,0.21370837,-2.366989,-0.11919005,1.7851505,0.8372894,0.039998572,0.04,-0.015327185282565381,-0.011739463199919586,0.00586171179914885,-0.0521536022519809,-0.06213376848307482,-0.1644569186615165,0.9920808339340982,-0.012140646504365239,0.03225136297418811,-0.12078109632466309
368.44999999999357,-0.12258645,-0.6446797,0.21660604,-2.367135,-0.12080677,1.7880534,0.83798486,0.039998557,0.04,-0.01344052833269771,-0.011866893903358933,0.005459292785836567,-0.05317902291310385,-0.06221025115809359,-0.16425349886136148,0.9918880731073279,-0.01260943673931331,0.0326936489943558,-0.12218910691212789
368.4666666666602,-0.124231644,-0.6428047,0.21951295,-2.367281,-0.12242866,1.7909658,0.83868223,0.039998535,0.04,-0.011759446726178346,-0.012232147504448454,0.006138593839644102,-0.05420466359659917,-0.06227960083222822,-0.16402430444076363,0.9916929898792175,-0.013087498439184974,0.03313783190744576,-0.12359456017760762
368.48333333332687,-0.1258818,-0.64092404,0.22242883,-2.3674269,-0.12405549,1.7938865,0.8393815,0.03999851,0.04,-0.012050512143346737,-0.01219924165435371,0.004814278257248006,-0.05522705670509871,-0.062338269294552634,-0.16376121797749474,0.9914956237384692,-0.013574728594988232,0.03358344647301742,-0.12499722786538263
368.4999999999935,-0.12753679,-0.6390379,0.22535327,-2.3675733,-0.1256871,1.7968172,0.8400829,0.03999848,0.04,-0.012259766292155305,-0.01221134845106886,0.005471583935134916,-0.05624662135089404,-0.062389843025838526,-0.16347026789153984,0.9912959894765964,-0.014071072441409923,0.03403109853462027,-0.1263967978253062
368.51666666666017,-0.12919639,-0.63714635,0.22828595,-2.3677197,-0.1273233,1.7997558,0.8407863,0.039998453,0.04,-0.012078026768724826,-0.01217430955973986,0.004277256637275073,-0.057262429142748886,-0.06242860245883208,-0.16314917271527912,0.9910941376784588,-0.01457642070934182,0.03448011873646864,-0.12779303435874595
368.5333333333268,-0.13086037,-0.6352498,0.2312265,-2.367866,-0.1289638,1.8027022,0.8414916,0.039998423,0.04,-0.011685463534405471,-0.012286634512491401,0.0038170913751800484,-0.058275405082043596,-0.062458857844874566,-0.1628007435717596,0.9908901001594768,-0.015090766077890406,0.034930598100838484,-0.12918564742819597
368.5499999999935,-0.13252851,-0.6333485,0.23417458,-2.3680127,-0.13060854,1.8056562,0.8421986,0.039998405,0.04,-0.011792980498737116,-0.012229443505736015,0.0033499562456018595,-0.059285197223610316,-0.06248102867161259,-0.16242068711180274,0.9906838990789247,-0.01561416697994336,0.035382508403428665,-0.13057445383528374
368.5666666666601,-0.13420065,-0.6314426,0.23712981,-2.3681595,-0.13225724,1.8086171,0.8429075,0.03999838,0.04,-0.012037192499558813,-0.012158315522570184,0.00270451260266924,-0.060289904269789515,-0.06249480981808021,-0.16201455210684612,0.9904755882304292,-0.016146440627226564,0.035835539771170606,-0.13195914391949312
368.5833333333268,-0.13587657,-0.6295324,0.24009186,-2.3683064,-0.13390972,1.8115833,0.84361804,0.039998356,0.04,-0.011772051947644968,-0.012052095249530381,0.0014103656248876106,-0.06129114255618816,-0.06250114256968745,-0.1615792298781194,0.9902652114334738,-0.016687518433263694,0.03628916334909209,-0.13333954543412838
368.59999999999343,-0.13755608,-0.627618,0.24306032,-2.3684533,-0.13556579,1.8145568,0.8443302,0.03999833,0.04,-0.010923187838640658,-0.01233422702742043,0.0027970564780321894,-0.06228916153499443,-0.06250565762222432,-0.16111584876298274,0.9900527760883947,-0.017237492385537595,0.03674450385044328,-0.1347152955410266
368.6166666666601,-0.13923892,-0.6256997,0.24603486,-2.3686008,-0.13722518,1.8175368,0.84504354,0.039998308,0.04,-0.01225809968350422,-0.0121781361478987,0.00142606896831321,-0.06328053470287756,-0.06249672136826649,-0.16062207262213962,0.9898383395900467,-0.017796470157973955,0.03720083539817021,-0.1360861674572913
368.63333333332673,-0.14092502,-0.6237776,0.24901514,-2.3687484,-0.13888775,1.8205218,0.84575826,0.039998285,0.04,-0.011296192672460847,-0.012029837659172093,0.0007067775508851071,-0.06426475292358438,-0.062482463855730336,-0.16010312059537007,0.9896219463072099,-0.018364157690057892,0.03765791346429095,-0.1374519648931235
368.6499999999934,-0.14261408,-0.6218524,0.25200087,-2.3688962,-0.14055334,1.823512,0.84647447,0.039998263,0.04,-0.01092028389315658,-0.01221687605293259,0.0002778389598390163,-0.06524307881036462,-0.0624624978190626,-0.15955741864761208,0.9894036169776212,-0.01894048406868235,0.03811599665909275,-0.13881250510501097
368.66666666666003,-0.14430581,-0.6199238,0.2549915,-2.3690448,-0.14222176,1.8265084,0.8471918,0.039998244,0.04,-0.011683803397577464,-0.012143239761555624,0.0008019859158769904,-0.06621563144403643,-0.06243478848137757,-0.15898200375503724,0.989183395313771,-0.019525632460518492,0.038575310484709975,-0.14016741965786825
368.6833333333267,-0.14600012,-0.6179922,0.25798675,-2.369193,-0.14389265,1.8295087,0.84791005,0.039998215,0.04,-0.010304795553461865,-0.01211240346438991,-0.0006504216743197233,-0.06717839013131403,-0.062397863016270524,-0.15838361931736772,0.9889613409657784,-0.02011940675322713,0.03903531347578568,-0.14151650027086873
368.69999999999334,-0.14769676,-0.61605793,0.26098636,-2.3693416,-0.14556587,1.8325129,0.8486298,0.039998196,0.04,-0.010894902964397879,-0.012129446439221314,-0.001059853420426471,-0.06813341494534478,-0.06235491546223526,-0.15775485091079772,0.9887374951871721,-0.020721502973787477,0.03949597327290103,-0.14285955698072922
368.71666666666,-0.1493956,-0.6141212,0.26398978,-2.3694901,-0.14724126,1.8355211,0.84934986,0.03999817,0.04,-0.010028854825994138,-0.011910425142946934,-0.0010285376854213268,-0.06908147771115841,-0.062306684724412184,-0.15710411983581182,0.9885118837876353,-0.021332300767319273,0.039957539552143186,-0.14419633694214318
368.73333333332664,-0.15109627,-0.6121822,0.26699686,-2.3696387,-0.14891861,1.8385328,0.8500713,0.03999814,0.04,-0.01005483850380351,-0.012337344098684033,-0.0016399417384072024,-0.07001879078353701,-0.062250032598517746,-0.1564258382623026,0.9882845573777487,-0.021951330443842173,0.04041990348932543,-0.14552664409765817
368.7499999999933,-0.15279865,-0.6102413,0.27000698,-2.3697875,-0.15059772,1.8415483,0.85079306,0.039998118,0.04,-0.009846002228730555,-0.011863421307772848,-0.0017840538168778508,-0.07094764454158858,-0.06218501052714702,-0.15572218967648174,0.9880555521385088,-0.022578891632738126,0.040883222243479,-0.1468502014976279
368.76666666665994,-0.15450256,-0.60829854,0.27301985,-2.369936,-0.1522783,1.8445657,0.8515156,0.039998088,0.04,-0.00962469285530343,-0.011792457234292841,-0.0029404047560799285,-0.07186386260855065,-0.06211193680166008,-0.15499606624396123,0.9878249444756343,-0.02321453175500688,0.04134686875158636,-0.14816680138122987
368.7833333333266,-0.1562078,-0.60635424,0.27603528,-2.3700848,-0.15396024,1.847586,0.85223883,0.039998073,0.04,-0.009759321326474613,-0.01198350174396734,-0.0028046119274982573,-0.07277128714449191,-0.06203307809781547,-0.15424242522641662,0.9875927516430509,-0.023858317008324807,0.041811229723069145,-0.1494762813314612
368.79999999999325,-0.15791413,-0.60440844,0.2790527,-2.3702338,-0.1556433,1.8506076,0.8529624,0.039998043,0.04,-0.01019561817012793,-0.011492859425381308,-0.004028878223638621,-0.07366758013503408,-0.06194768275996722,-0.15346788672766326,0.987359053571721,-0.024510174247020778,0.042275553886840136,-0.15077840771110657
368.8166666666599,-0.15962128,-0.60246193,0.28207177,-2.370383,-0.1573273,1.8536317,0.85368633,0.039998025,0.04,-0.008729116248429314,-0.011822229107197324,-0.0035924272001164326,-0.07455307277749776,-0.06185938047768133,-0.1526663755838254,0.987123855065271,-0.025170022007689693,0.04274083062130244,-0.1520729632479474
368.83333333332655,-0.16132917,-0.6005145,0.2850922,-2.3705328,-0.15901197,1.8566566,0.8544107,0.039998006,0.04,-0.010115980571212546,-0.011361533908757493,-0.005024356104965655,-0.07542487460786546,-0.06175907537102615,-0.15184282240696984,0.9868872485676046,-0.025837618033087137,0.04320594986068919,-0.15335977962189146
368.8499999999932,-0.1630375,-0.5985663,0.28811362,-2.3706825,-0.16069716,1.859682,0.8551352,0.03999797,0.04,-0.00898169530589854,-0.011539000113888753,-0.004967704233771464,-0.07628618880210514,-0.06165922514430204,-0.15099831245527912,0.9866492665336637,-0.026513012015132516,0.04367120311830605,-0.15463864672412456
368.86666666665985,-0.16474605,-0.59661776,0.29113552,-2.3708324,-0.16238266,1.8627079,0.8558598,0.03999795,0.04,-0.008918970358462452,-0.011241350984032839,-0.005449835189930141,-0.0771343320699608,-0.061553882655176584,-0.15012897724243895,0.9864099620719652,-0.027196011426649992,0.044136599094939624,-0.1559093464420859
368.8833333333265,-0.16645461,-0.59466916,0.2941577,-2.3709826,-0.1640683,1.8657349,0.85658467,0.039997928,0.04,-0.008280265920324048,-0.01160653457371319,-0.005155989853466991,-0.0779697812257853,-0.061443941169552596,-0.14924015307841015,0.9861693561353528,-0.027886567584733752,0.04460265838889246,-0.15717169984628124
368.89999999999316,-0.16816302,-0.59272087,0.29717976,-2.3711329,-0.1657538,1.8687608,0.8573094,0.0399979,0.04,-0.008167219489707556,-0.011077999250930226,-0.0069008937154668715,-0.07879022625683064,-0.06132368065861499,-0.14832672136228464,0.9859275300926613,-0.028584471194118246,0.045068482841044366,-0.15842558273947824
368.9166666666598,-0.16987105,-0.59077287,0.30020112,-2.3712828,-0.16743898,1.8717861,0.8580341,0.039997876,0.04,-0.007489756987211216,-0.010975353875318505,-0.006389249197913394,-0.07959759534971164,-0.061201068382119014,-0.14739381742060342,0.9856845320278923,-0.029289554213821286,0.04553450039770376,-0.1596707067950851
368.93333333332646,-0.17157848,-0.58882535,0.30322167,-2.3714325,-0.16912355,1.8748109,0.85875845,0.039997857,0.04,-0.0072439916611211075,-0.011386518709048665,-0.006474023334224199,-0.08039089793559848,-0.06107162080918821,-0.14643978844638078,0.9854404004512474,-0.030001910810727665,0.04600085140754804,-0.16090688044944232
368.9499999999931,-0.1732851,-0.5868789,0.30624086,-2.3715823,-0.1708074,1.8778349,0.8594822,0.03999783,0.04,-0.006870758277122135,-0.010878173837576555,-0.007194659446008167,-0.0811676863297437,-0.0609350477493205,-0.145467157956002,0.9851951746837255,-0.03072143010810929,0.04646751997570412,-0.16213399119038469
368.96666666665976,-0.17499068,-0.58493346,0.30925846,-2.371732,-0.1724903,1.8808563,0.86020577,0.03999781,0.04,-0.007573127342630492,-0.010691667433893048,-0.008521088331536752,-0.08192747160749117,-0.060788650268158606,-0.14447316558643675,0.9849489453653061,-0.03144772626428287,0.04693364292211054,-0.16335191672777483
368.9833333333264,-0.17669502,-0.5829892,0.31227398,-2.3718812,-0.17417201,1.8838766,0.8609287,0.03999778,0.04,-0.005896215998446586,-0.010958268392602388,-0.007231659002626678,-0.08267256602739798,-0.06064247029086954,-0.1434627010112992,0.9847017288639024,-0.032180907690738794,0.04740028714098003,-0.16456034495465324
368.99999999999307,-0.17839794,-0.58104676,0.31528714,-2.3720305,-0.17585243,1.8868936,0.86165124,0.039997764,0.04,-0.00659738841997104,-0.010318500654965534,-0.009377825641232462,-0.08339928374145913,-0.06048387232432732,-0.14243141419474326,0.9844535964788839,-0.03292056067252449,0.04786647829616154,-0.165759323479316
369.0166666666597,-0.18009917,-0.5791061,0.3182975,-2.3721795,-0.17753127,1.8899077,0.86237305,0.039997734,0.04,-0.006051841454168816,-0.010388491709617531,-0.009119123835255039,-0.08411111863557927,-0.06032371687793027,-0.14138459426934558,0.9842046019680912,-0.03366669927602742,0.04833244253489306,-0.16694858437045845
369.03333333332637,-0.18179859,-0.57716745,0.32130474,-2.3723285,-0.17920832,1.8929195,0.86309403,0.039997708,0.04,-0.0058533491693602,-0.010335105363573627,-0.008948432932043282,-0.0848057526570725,-0.06015782716381382,-0.1403182495314596,0.9839547828538715,-0.0344192655005791,0.04879852258377661,-0.16812793835359996
369.049999999993,-0.18349597,-0.5752311,0.32430854,-2.372477,-0.18088348,1.8959275,0.8638142,0.03999769,0.04,-0.005147937048244344,-0.01015967466578005,-0.009841143282485199,-0.08548154647698021,-0.05998363863390592,-0.1392338938595748,0.9837041927787676,-0.035178018231259114,0.049264329923785675,-0.169297353611788
369.06666666665967,-0.185191,-0.5732973,0.3273085,-2.3726256,-0.18255639,1.8989317,0.86453336,0.039997667,0.04,-0.005449945025470804,-0.01004921692782379,-0.010406998809320278,-0.08613888990400483,-0.05980404992243003,-0.13813495429317557,0.9834528974426213,-0.03594284354797634,0.049729804288649586,-0.1704566134675072
369.0833333333263,-0.18688363,-0.57136637,0.33030418,-2.372774,-0.18422689,1.9019321,0.86525154,0.039997637,0.04,-0.004693199783800672,-0.009718046354359466,-0.01034529624885927,-0.08677742003700276,-0.059618791623426454,-0.13701764478767098,0.9832009457129232,-0.036713513760583065,0.050195146374205545,-0.17160555217427262
369.099999999993,-0.18857354,-0.5694384,0.33329532,-2.3729222,-0.18589486,1.9049264,0.86596864,0.039997615,0.04,-0.005569057062104754,-0.009264883524473522,-0.012236128294396131,-0.08739744084888805,-0.05942583892495451,-0.13588585329115546,0.98294841588059,-0.037489808861904256,0.050659236014529416,-0.1727442264035497
369.1166666666596,-0.19026053,-0.56751364,0.3362815,-2.37307,-0.18755999,1.907916,0.86668456,0.039997596,0.04,-0.0038935536652795477,-0.009643092141997656,-0.01112100313997999,-0.08800060584692354,-0.05923559422751498,-0.13473632413512676,0.9826953355074503,-0.038271689176670155,0.05112306455647923,-0.17387233146713743
369.1333333333263,-0.19194448,-0.56559247,0.3392623,-2.3732178,-0.18922216,1.9109011,0.867399,0.039997566,0.04,-0.003998313308439805,-0.009156164433093972,-0.011393714082608142,-0.08858353257265594,-0.05903768051652977,-0.13357406027197205,0.9824417447313354,-0.03905908206055083,0.051586719643312046,-0.17498976162701346
369.14999999999293,-0.1936251,-0.56367505,0.34223738,-2.3733654,-0.19088109,1.9138792,0.8681123,0.039997533,0.04,-0.004158395657616332,-0.008716870674024824,-0.013175682683685963,-0.08914477533047382,-0.05883367945161727,-0.1324012028224503,0.9821877491904443,-0.039851419297505575,0.05204917974227119,-0.17609648664394198
369.1666666666596,-0.19530219,-0.5617614,0.3452064,-2.3735127,-0.19253658,1.9168527,0.86882406,0.039997518,0.04,-0.003234038900079561,-0.009255416170497743,-0.011489457465030384,-0.08968972382125862,-0.05862770566268499,-0.13120789399641758,0.9819333491156116,-0.04064905084431049,0.05251163315249863,-0.17719221468143653
369.18333333332623,-0.19697557,-0.559852,0.348169,-2.3736596,-0.19418854,1.9198188,0.8695341,0.03999749,0.04,-0.0029509253520743073,-0.008360221787800937,-0.013604608808903684,-0.09021070582045412,-0.05841336235494407,-0.13000898174093894,0.981678621260586,-0.041451537336281666,0.052973000500799845,-0.17827707600899267
369.1999999999929,-0.19864503,-0.55794704,0.35112488,-2.3738065,-0.19583666,1.9227773,0.87024266,0.039997455,0.04,-0.003568191860980896,-0.00826176039608606,-0.014064543831371346,-0.09071184944710176,-0.05819603459038415,-0.1287954970967624,0.9814236383988061,-0.042258598698904984,0.05343314138100413,-0.1793509192343658
369.21666666665953,-0.2003104,-0.5560466,0.35407352,-2.3739529,-0.19748077,1.9257286,0.8709495,0.039997436,0.04,-0.0023467463374560182,-0.008031641037217763,-0.01360866276327588,-0.09119417741846864,-0.05797992662819988,-0.12756966886903862,0.9811684455692055,-0.04307012057398019,0.053892444756954164,-0.18041355417808966
369.2333333333262,-0.20197143,-0.5541511,0.35701478,-2.3740988,-0.19912066,1.9286724,0.8716547,0.039997414,0.04,-0.0017375627508808833,-0.00824844746817599,-0.013888154212859938,-0.09165559142857489,-0.05775837760271929,-0.1263330249619074,0.9809130724734488,-0.0438859758385948,0.05435107592395355,-0.18146494405614905
369.24999999999284,-0.20362793,-0.5522606,0.35994825,-2.3742447,-0.20075615,1.9316087,0.8723579,0.03999739,0.04,-0.0025442071571513125,-0.0077687302070361675,-0.014449172277264388,-0.0920955135782715,-0.05753092388547856,-0.12508339054613882,0.9806575864495042,-0.04470610332954651,0.05480866484865759,-0.18250499368956588
369.2666666666595,-0.20527968,-0.5503754,0.3628735,-2.3743906,-0.20238706,1.934537,0.8730591,0.039997358,0.04,-0.0019015642454656145,-0.007464490284855851,-0.014788591152870012,-0.09251281507566309,-0.05730180196325518,-0.12382781608826128,0.9804020342932049,-0.04553027566516055,0.0552653008305749,-0.1835336254633081
369.28333333332614,-0.20692647,-0.54849577,0.36579013,-2.3745363,-0.20401312,1.9374574,0.87375826,0.039997343,0.04,-0.0011691476622832653,-0.007387843447204112,-0.01478818107290003,-0.09290771362878306,-0.05706732329186803,-0.12255848010031911,0.9801464739485081,-0.046358267307352194,0.055721138131480816,-0.18455068524364554
369.2999999999928,-0.20856819,-0.5466219,0.36869785,-2.3746817,-0.20563419,1.9403677,0.8744553,0.039997324,0.04,-0.001437420372130127,-0.0065822891635758385,-0.0163627363216845,-0.09327971118200179,-0.05682769884327814,-0.12128182684149244,0.9798909853609064,-0.04718972389301791,0.05617524040682423,-0.18555626945098935
369.31666666665944,-0.21020457,-0.5447541,0.3715963,-2.3748267,-0.20725012,1.9432695,0.87515014,0.03999729,0.04,1.4462314146257427e-05,-0.007017677296122793,-0.01513308537102187,-0.09363105642699705,-0.05659062360449199,-0.12000133730333264,0.9796355723683322,-0.04802464206030747,0.05662866905730934,-0.18655018881348587
369.3333333333261,-0.21183538,-0.5428925,0.37448525,-2.3749712,-0.20886065,1.9461609,0.87584263,0.039997272,0.04,-0.00020386451327070176,-0.006606823885429991,-0.01656056066638989,-0.09395931888840592,-0.05634521478305264,-0.11870765715670126,0.9793803115512079,-0.048862816159692374,0.05708060236640407,-0.18753249152158033
369.34999999999275,-0.21346052,-0.5410374,0.3773642,-2.375114,-0.21046562,1.949043,0.8765327,0.039997254,0.04,0.0026739808453468683,-0.006843785439633598,-0.014947064070058858,-0.0942648235190369,-0.05609941583778266,-0.11740620753647088,0.9791252127587976,-0.04970406705423197,0.057532234249125805,-0.1885029588112911
369.3666666666594,-0.21507975,-0.53918886,0.38023287,-2.3752549,-0.21206485,1.9519145,0.87722003,0.039997224,0.04,0.003010463844810296,-0.006627465718447856,-0.015733858478483853,-0.09454448037461702,-0.05584089839630292,-0.1160998442359384,0.978870332049838,-0.05054824709641576,0.05798312285922427,-0.1894616193628981
369.38333333332605,-0.21669285,-0.53734744,0.38309094,-2.375395,-0.21365812,1.9547753,0.87790495,0.0399972,0.04,0.0016916501955233088,-0.005968301889552885,-0.01690483327001502,-0.09479947212981144,-0.05557483216858372,-0.11478752409603145,0.9786157384536369,-0.051395019581872765,0.058432877924512426,-0.19040847457631935
369.3999999999927,-0.21829966,-0.5355129,0.38593796,-2.375535,-0.21524526,1.9576252,0.8785874,0.03999718,0.04,0.0006723025060662025,-0.005263712765782302,-0.017376264673529818,-0.09503056753099129,-0.05530265862271462,-0.11346942911283497,0.978361522174336,-0.05224412327620194,0.058881065476773305,-0.19134341807372698
369.41666666665935,-0.21989998,-0.5336858,0.38877374,-2.3756742,-0.21682605,1.9604634,0.8792669,0.03999717,0.04,0.0020913953297174714,-0.005381917871660757,-0.017576895089010947,-0.09523975813049566,-0.05502952718521993,-0.11214635120056163,0.9781076954836311,-0.05309560224255376,0.05932781924848589,-0.19226648933555723
369.433333333326,-0.2214936,-0.5318662,0.39159784,-2.375813,-0.21840033,1.9632901,0.87994367,0.03999714,0.04,0.002012607073997863,-0.0049515561634905225,-0.017792869422228463,-0.09542440954511372,-0.0547545561213557,-0.11081930932575113,0.9778543246779672,-0.053949113496031674,0.059773110497020984,-0.19317760771657758
369.44999999999266,-0.22308038,-0.5300544,0.39440998,-2.3759515,-0.21996787,1.9661046,0.88061774,0.03999712,0.04,0.0019414367605552485,-0.0045177368646065474,-0.018477907940939176,-0.09558447706690883,-0.05447493425413885,-0.10948699578267627,0.9776014713772093,-0.05480435195263273,0.060216681325061604,-0.19407678237842665
369.4666666666593,-0.22466005,-0.5282506,0.39720976,-2.3760898,-0.2215285,1.9689066,0.8812886,0.0399971,0.04,0.0022446102720508065,-0.0042012107079963945,-0.01877221055921474,-0.09572257203605641,-0.05419380342907132,-0.1081498284779843,0.9773491782922759,-0.0556613417833917,0.06065840586653069,-0.19496398775162757
369.48333333332596,-0.22623254,-0.5264549,0.39999682,-2.3762279,-0.22308208,1.9716961,0.8819566,0.039997075,0.04,0.0026669967008841056,-0.0037523618528129132,-0.018794617147399606,-0.09583573524400296,-0.05391275662155269,-0.1068103267292615,0.9770975016975666,-0.05651964410508776,0.06109840120220252,-0.19583918754208227
369.4999999999926,-0.22779761,-0.5246677,0.402771,-2.3763654,-0.22462836,1.9744724,0.8826212,0.039997052,0.04,0.003282945601967846,-0.0038214248002238493,-0.019175169682283943,-0.09592598931561955,-0.05362915490807668,-0.10546816738495621,0.976846474081269,-0.05737930212933694,0.06153651913393641,-0.19670241120795035
369.51666666665926,-0.22935513,-0.5228889,0.40553185,-2.376503,-0.22616722,1.9772354,0.8832829,0.03999704,0.04,0.0027245081340998567,-0.0030895079875914444,-0.019532703067381973,-0.0959916507309557,-0.05334460230242778,-0.10412116308709667,0.976596172031787,-0.05823987865175851,0.061972587996778204,-0.19755361713841244
369.5333333333259,-0.2309048,-0.52111906,0.40827915,-2.3766398,-0.22769846,1.9799845,0.88394123,0.03999702,0.04,0.00456270726700847,-0.003289150801472074,-0.019587671019372088,-0.09603397096043248,-0.05305984918180341,-0.10277504044294322,0.976346605580423,-0.059101324557106365,0.06240682499013949,-0.19839286126731412
369.54999999999256,-0.23244652,-0.51935834,0.41101253,-2.3767762,-0.22922191,1.9827199,0.88459617,0.039996993,0.04,0.004646778278960539,-0.0028741273985777305,-0.019630060957731565,-0.09605228866348918,-0.052774993030511086,-0.10142816581796606,0.9760978220662797,-0.059963439545384044,0.06283930445251058,-0.19922010313037447
369.5666666666592,-0.23398012,-0.5176067,0.41373152,-2.3769126,-0.23073734,1.9854406,0.8852476,0.039996978,0.04,0.003589745165721858,-0.0018900066511340352,-0.020600764094802493,-0.09604531993587276,-0.05248416813941448,-0.10007594082426224,0.9758499229669472,-0.060825912638047964,0.06326928974788695,-0.20003532980938568
369.58333333332587,-0.23550542,-0.51586443,0.41643605,-2.3770447,-0.23224466,1.988147,0.8858957,0.03999695,0.04,0.01187526822197249,-0.004118519398871312,-0.016971693099687712,-0.09601486643380071,-0.052197130536601785,-0.0987269073149907,0.9756028126069399,-0.06168855002916894,0.06369929414450157,-0.20083842947558397
369.5999999999925,-0.23702219,-0.5141319,0.41912562,-2.3771758,-0.2337437,1.9908384,0.8865401,0.039996926,0.04,0.0064221890291760175,-0.0019091639886503753,-0.02017467570782916,-0.0959570626068725,-0.05189108362157635,-0.09738157253418768,0.9753566172189386,-0.06255124534677811,0.064127410439038,-0.2016295766577394
369.61666666665917,-0.23853026,-0.5124092,0.42180002,-2.3773065,-0.23523419,1.9935145,0.8871809,0.03999692,0.04,0.005792311949281981,-0.0015789408907590508,-0.020731724208755686,-0.09587397015466673,-0.051581265907870655,-0.09603219643395829,0.975111408767839,-0.0634137137966624,0.0645533640686852,-0.20240875618592008
369.6333333333258,-0.24002951,-0.51069653,0.42445904,-2.3774369,-0.23671602,1.996175,0.8878181,0.039996892,0.04,0.005669915613815135,-0.0011423811669880601,-0.021165643215881325,-0.09576690944184463,-0.051271220104916776,-0.09468891071511712,0.9748672281196055,-0.06427577063971486,0.06497694526300819,-0.20317605526084004
369.6499999999925,-0.24151972,-0.50899416,0.4271022,-2.3775668,-0.23818906,1.9988197,0.8884514,0.039996866,0.04,0.006658175055096471,-0.00074941652156435,-0.02115563409414989,-0.09563597922638742,-0.05096102862478813,-0.09334418418675242,0.974624108335908,-0.06513724128593658,0.06539828120497937,-0.20393148865128374
369.6666666666591,-0.24300079,-0.50730217,0.42972937,-2.3776968,-0.23965311,2.0014482,0.88908076,0.039996848,0.04,0.005912943931685177,-0.000265837474458519,-0.021753624578080277,-0.0954813803149231,-0.05064916505215675,-0.09199780576208068,0.974382108381011,-0.06599794820796966,0.06581698225651161,-0.20467511462305288
369.6833333333258,-0.2444725,-0.50562054,0.43234012,-2.3778262,-0.24110794,2.0040605,0.88970625,0.039996825,0.04,0.006968311707056252,-0.00020715700245199642,-0.0212323239494161,-0.09530240596742492,-0.050340332042600314,-0.0906543800823289,0.974141280571193,-0.06685764192198755,0.06623335503179151,-0.20540682531254906
369.69999999999243,-0.24593472,-0.5039498,0.4349341,-2.377955,-0.24255347,2.0066557,0.89032763,0.039996807,0.04,0.008010910757150214,0.0003835598777340854,-0.02182703267807895,-0.09509853452696393,-0.050030431027684175,-0.08931840884054806,0.973901647332804,-0.06771607071071858,0.06664723022480583,-0.20612680998189775
369.7166666666591,-0.2473873,-0.5022903,0.4375112,-2.3780835,-0.24398953,2.0092342,0.890945,0.039996788,0.04,0.007897791880884242,0.0005203563760380892,-0.021928549897909377,-0.09487218730884028,-0.04972122690827968,-0.08798278068013135,0.9736632370774299,-0.0685730667438468,0.06705875433432086,-0.20683510037799127
369.73333333332573,-0.24883005,-0.50064147,0.44007102,-2.3782117,-0.24541597,2.011795,0.8915582,0.039996773,0.04,0.006998202880792448,0.0012445493297430499,-0.022342555517895768,-0.09462102678486005,-0.04940950802406663,-0.08664935665100937,0.9734261454970191,-0.06942848073362443,0.0674672016675433,-0.20753168920670362
369.7499999999924,-0.2502628,-0.49900413,0.44261336,-2.3783355,-0.24683256,2.0143383,0.8921674,0.039996747,0.04,0.01586731513700812,-0.0008451467919001754,-0.018959161667009283,-0.09434631680647616,-0.04910369941260459,-0.08532469434005019,0.9731902738939765,-0.07028191248734737,0.06787512844003468,-0.20821649914100618
369.76666666665903,-0.25168523,-0.4973784,0.44513783,-2.3784583,-0.24823922,2.0168638,0.89277226,0.03999673,0.04,0.009990408837001752,0.0011569111807552268,-0.021868146597947558,-0.09404578733386562,-0.04877823695832184,-0.08400395917448616,0.9729557344788353,-0.07113341253551982,0.06828078545073928,-0.2088897094258875
369.7833333333257,-0.25309756,-0.49576443,0.4476442,-2.3785803,-0.24963582,2.0193708,0.8933726,0.039996717,0.04,0.009594087072595237,0.002329661200650701,-0.022599255547928188,-0.09371977046721926,-0.048448925045022004,-0.08268616847584818,0.9727225910781031,-0.07198263008012146,0.06868359950518836,-0.2095514851583275
369.79999999999234,-0.25449944,-0.49416235,0.45013234,-2.3787022,-0.2510221,2.02186,0.8939684,0.039996695,0.04,0.009327986576757041,0.0020563868465300894,-0.022531476635445635,-0.09337133706624406,-0.04812301672103836,-0.08137601905107913,0.9724908705743666,-0.07282958307605318,0.06908376731968058,-0.21020178774548795
369.816666666659,-0.25589067,-0.49257228,0.45260176,-2.378824,-0.25239804,2.0243301,0.8945598,0.039996665,0.04,0.009022280341830502,0.003083935448561226,-0.02328162222349217,-0.09299750706082896,-0.047797291730220695,-0.08007516658860445,0.9722606439362533,-0.0736738592264452,0.06948078555540314,-0.21084075307669506
369.83333333332564,-0.2572712,-0.49099433,0.4550523,-2.3789449,-0.25376335,2.0267818,0.8951468,0.03999665,0.04,0.01106057871052002,0.002745653293947936,-0.02227968439258987,-0.09260224490130302,-0.04747356470829234,-0.07877517646011818,0.9720319317067153,-0.07451525201448422,0.06987528652333899,-0.21146830801094207
369.8499999999923,-0.2586408,-0.4894287,0.45748377,-2.3790655,-0.25511795,2.0292137,0.89572924,0.03999664,0.04,0.009839013181789369,0.003497557801554474,-0.02363961032125772,-0.0921837072222185,-0.047146497116030917,-0.07748184004284016,0.9718047863824868,-0.07535360899153179,0.0702664291342669,-0.2120846993839007
369.86666666665894,-0.25999936,-0.48787573,0.4598958,-2.379186,-0.25646165,2.0316265,0.8963068,0.03999662,0.04,0.010795817388453699,0.0038206851755123727,-0.02314577248543337,-0.09174361228685773,-0.04682627672682241,-0.0761964675827161,0.971579220521045,-0.07618885626566049,0.07065467257992816,-0.21268990026626217
369.8833333333256,-0.26134676,-0.48633543,0.46228823,-2.3793058,-0.2577945,2.0340195,0.89687985,0.039996605,0.04,0.01115924199246443,0.004105252366573553,-0.023310959654576635,-0.09128021499463002,-0.046506331258284836,-0.07491685067059844,0.9713552660339538,-0.07702066606123668,0.07103984158277851,-0.21328409470817103
369.89999999999225,-0.26268288,-0.4848079,0.4646607,-2.379421,-0.25911632,2.0363925,0.8974482,0.03999658,0.04,0.018966371785711367,0.0025418456824605196,-0.019742590824955997,-0.09079405537263921,-0.04618765002229379,-0.07364778399739552,0.9711328589685103,-0.07784878462590225,0.071423983572265,-0.21386713523724513
369.9166666666589,-0.26400757,-0.48329338,0.46701318,-2.3795357,-0.26042673,2.038745,0.8980115,0.039996576,0.04,0.011655474189797843,0.004648143833904661,-0.023685092488290316,-0.09028284877484463,-0.045849087169435504,-0.07238106897794859,0.9709121499058474,-0.07867320884611384,0.07180479929717622,-0.21443925520518228
369.93333333332555,-0.26532063,-0.48179206,0.46934515,-2.3796494,-0.26172587,2.0410774,0.89857,0.03999655,0.04,0.013255144164081578,0.004976479582244342,-0.022853064606498386,-0.08974966868802556,-0.04551729156673481,-0.07113018622724479,0.9706931345477036,-0.079493663226943,0.07218287799359409,-0.21500053063487334
369.9499999999922,-0.26662195,-0.48030412,0.47165656,-2.3797631,-0.26301348,2.0433893,0.89912355,0.039996527,0.04,0.01178181133494327,0.0055959743117089955,-0.023946017780263062,-0.08919340748100084,-0.04518216599593135,-0.06988668676117005,0.9704758748875525,-0.08031001973131249,0.07255758279823679,-0.2155510941064152
369.96666666665885,-0.2679115,-0.4788296,0.47394714,-2.3798761,-0.2642895,2.0456803,0.8996722,0.039996512,0.04,0.01311286205258888,0.005921509080700216,-0.023515529479656294,-0.08861557658178369,-0.044849860502138766,-0.06865155100235096,0.9702604004488108,-0.0811219673953565,0.07292905178260498,-0.21609103436494118
369.9833333333255,-0.26918906,-0.4773687,0.47621673,-2.3799887,-0.2655537,2.0479498,0.90021557,0.039996505,0.04,0.01301623945006991,0.006198787129121919,-0.0240064261977313,-0.08801862359857239,-0.04451890654848305,-0.06741906373148382,0.9700467343717509,-0.08192952619041045,0.07329700883661949,-0.21662048464658437
369.99999999999216,-0.27045447,-0.47592148,0.47846505,-2.380101,-0.26680598,2.0501978,0.9007541,0.039996497,0.04,0.012776585543750052,0.006630195383816595,-0.02409543263555136,-0.08739911630042294,-0.04419016550873382,-0.06619649796128435,0.9698349458956791,-0.08273228754985401,0.0736613891893999,-0.21713946223333339
370.0166666666588,-0.27170768,-0.47448814,0.48069176,-2.3802116,-0.26804635,2.0524247,0.90128696,0.039996468,0.04,0.015940941697056843,0.00646257194656108,-0.022597029761972642,-0.08675998048861977,-0.043867731289024256,-0.0649899943008174,0.9696249673706019,-0.08353042629680708,0.07402302869064105,-0.2176480685825112
370.03333333332546,-0.27294865,-0.47306877,0.4828968,-2.3803182,-0.2692746,2.0546296,0.9018153,0.039996445,0.04,0.020100722129967608,0.005541075367043735,-0.020927345039889467,-0.08609685438874679,-0.043540735447067755,-0.06379125911154424,0.96941683098906,-0.08432314019376073,0.07438292546170833,-0.2181462725392059
370.0499999999921,-0.2741771,-0.4716636,0.48507988,-2.3804245,-0.27049056,2.0568123,0.9023381,0.03999644,0.04,0.01383345956345039,0.007773488111481597,-0.024299095431978834,-0.08541458964119,-0.04319970109606493,-0.06260058397230991,0.9692106294581017,-0.08511077171274611,0.0747390651705052,-0.21863436239834327
370.06666666665876,-0.27539307,-0.47027266,0.48724088,-2.3805306,-0.27169415,2.0589728,0.9028551,0.039996427,0.04,0.014061432836309784,0.008166849344343197,-0.024169028675213866,-0.08471110410416928,-0.04286235547377838,-0.06142193379870004,0.9690063781589707,-0.08589324806666014,0.07509143280331984,-0.21911244999620083
370.0833333333254,-0.27659634,-0.46889618,0.48937953,-2.3806357,-0.2728853,2.0611107,0.90336746,0.039996415,0.04,0.01564492004146878,0.008188737200046092,-0.0237862656823129,-0.08398751324636294,-0.04253102425074319,-0.060251462009136086,0.9688041352877567,-0.08666980546569601,0.07544038296175636,-0.21958060225908838
370.09999999999206,-0.2777868,-0.46753427,0.4914958,-2.3807404,-0.2740638,2.0632267,0.9038742,0.039996393,0.04,0.015311748494517552,0.008161436758288843,-0.023661080252490585,-0.08324662217744538,-0.042199407934707694,-0.059095611485835184,0.9686038739347732,-0.08744089437037308,0.0757859672184416,-0.22003888875156682
370.1166666666587,-0.2789644,-0.466187,0.4935893,-2.380845,-0.27522978,2.06532,0.90437526,0.03999637,0.04,0.01458344703717529,0.009422727764527017,-0.024357731404456295,-0.0824854510833061,-0.041869152196688394,-0.05794816327464554,0.968405636266941,-0.08820627255717667,0.0761276149357459,-0.22048755831607578
370.13333333332537,-0.28012916,-0.46485457,0.49565998,-2.3809478,-0.27638295,2.0673904,0.90487087,0.039996367,0.04,0.018235886780026966,0.008733386384673913,-0.022781437785823755,-0.08170435143009297,-0.04154306121014123,-0.0568080217863217,0.968209426795926,-0.088965523438347,0.07646626708261756,-0.22092657490961792
370.149999999992,-0.28128076,-0.46353695,0.4977075,-2.3810482,-0.27752316,2.0694377,0.90536135,0.039996356,0.04,0.01911628209327887,0.008633414664971362,-0.022401896272805644,-0.08090469627251992,-0.04121232832567957,-0.05568031707791945,0.9680152881238547,-0.08971837340259811,0.076802083719863,-0.22135594721798127
370.16666666665867,-0.2824191,-0.46223438,0.49973187,-2.3811467,-0.27865043,2.0714617,0.90584606,0.03999634,0.04,0.018675980662363756,0.008983996577596742,-0.02289030087716526,-0.08008718349064711,-0.04087754857050141,-0.05456933026226428,0.9678231902255393,-0.09046506857193648,0.07713475362716808,-0.22177595363972688
370.1833333333253,-0.28354433,-0.4609468,0.5017328,-2.3812444,-0.27976474,2.073462,0.90632516,0.039996322,0.04,0.01662123276253702,0.010648057311904435,-0.023851853283063384,-0.07924902543722925,-0.040540327896211356,-0.05347077059893289,0.9676332271622117,-0.09120519417501036,0.07746352901727754,-0.2221867500984967
370.199999999992,-0.28465623,-0.45967448,0.5037102,-2.3813417,-0.28086588,2.075439,0.9067985,0.039996307,0.04,0.016789522983695626,0.010588123376589764,-0.023874925622102694,-0.07839509058125194,-0.04020650215165755,-0.0523812949434941,0.9674454052311491,-0.09193877176276734,0.077788516780666,-0.2225884022157393
370.2166666666586,-0.2857547,-0.45841748,0.505664,-2.3814385,-0.28195378,2.0773919,0.90726614,0.039996296,0.04,0.01675667954732507,0.010978094477501199,-0.024216612220917533,-0.07752390520182634,-0.03987315170327188,-0.05130116892260038,0.9672597566410088,-0.0926655734481265,0.07810941304531176,-0.22298110743743085
370.2333333333253,-0.2868395,-0.45717567,0.5075938,-2.3815348,-0.2830283,2.0793211,0.907728,0.03999629,0.04,0.01691299908423982,0.0110215407339187,-0.023761098940022762,-0.07663697655618248,-0.039545701125526606,-0.05023155257552693,0.9670763123724759,-0.09338558646277233,0.07842638926957718,-0.22336481315371495
370.2499999999919,-0.2879108,-0.45594937,0.5094997,-2.3816288,-0.2840895,2.0812259,0.9081842,0.039996274,0.04,0.020485880370868514,0.010831770462296775,-0.022566274870938763,-0.07573310133377775,-0.039222882878232,-0.04917840686792224,0.9668950281700448,-0.09409846615457552,0.07874005042782085,-0.22373977658438093
370.2666666666586,-0.2889684,-0.45473883,0.51138145,-2.3817205,-0.28513715,2.0831068,0.90863454,0.03999626,0.04,0.02083599256510471,0.010896145714325844,-0.022244897381318296,-0.0748124306450343,-0.03889582601418039,-0.048136136890799215,0.9667159210426772,-0.09480413074086315,0.07905073093215811,-0.22410597211178718
370.28333333332523,-0.29001233,-0.45354396,0.5132388,-2.3818107,-0.2861714,2.0849636,0.9090792,0.03999624,0.04,0.019992131466906038,0.011748797985514092,-0.0225995582166183,-0.07387511790746148,-0.038564149310091916,-0.047108805922334504,0.9665390159410797,-0.0955024271716864,0.07935804484080954,-0.22446362241354448
370.2999999999919,-0.29104236,-0.45236468,0.51507187,-2.3819003,-0.28719196,2.0867958,0.90951806,0.039996225,0.04,0.017622747009671258,0.012179045038024361,-0.023882664077179427,-0.07292177976198583,-0.03822849975681089,-0.04609274082353047,0.9663643898248501,-0.09619334332883533,0.0796611285065709,-0.22481283633886617
370.31666666665853,-0.29205865,-0.45120135,0.5168805,-2.3819895,-0.2881988,2.0886028,0.90995103,0.039996225,0.04,0.018078642567975756,0.01314212509258006,-0.024210033010740872,-0.07195442813015698,-0.03789621515855464,-0.045084968918692986,0.9661920573587837,-0.09687658687046456,0.07995976162494568,-0.22515388456345153
370.3333333333252,-0.29306084,-0.45005387,0.5186644,-2.382078,-0.28919187,2.0903857,0.91037786,0.039996218,0.04,0.018918199156825466,0.012620873403168531,-0.023100464584202562,-0.07097510572795386,-0.03757147367233768,-0.04409021048884648,0.9660219958722729,-0.09755236343423114,0.08025458310124084,-0.22548667759003413
370.34999999999184,-0.29404908,-0.4489224,0.5204235,-2.3821652,-0.29017115,2.092144,0.91079885,0.039996207,0.04,0.01994570150023467,0.013132738395310595,-0.022818302741112184,-0.06997971539540791,-0.03724891549399706,-0.04310938953984486,0.9658542329625497,-0.0982202455415278,0.08054567515624608,-0.2258113775869396
370.3666666666585,-0.29502347,-0.44780684,0.5221578,-2.3822503,-0.29113647,2.0938768,0.9112139,0.03999619,0.04,0.021201036593310185,0.01306274297140364,-0.02242652590154215,-0.06897143894590958,-0.036926595523235795,-0.0421440537915448,0.9656887829265163,-0.0988800835852107,0.08083298475090261,-0.22612813220903294
370.38333333332514,-0.29598364,-0.44670737,0.52386713,-2.382333,-0.29208803,2.0955849,0.9116228,0.039996184,0.04,0.02231562255483599,0.012696174304932528,-0.021649833061898605,-0.06795117596596133,-0.03660326626553565,-0.04118832799849195,0.9655255855985766,-0.09953202741046382,0.0811170687586995,-0.22643705577949252
370.3999999999918,-0.29692954,-0.44562408,0.5255514,-2.3824148,-0.2930257,2.0972674,0.9120259,0.039996166,0.04,0.019825385432326037,0.01398953249600321,-0.023253555621249866,-0.0669143739288941,-0.036275280046183626,-0.04024946001180847,0.9653647328216425,-0.10017576250553233,0.08139693632933023,-0.2267383690221687
370.41666666665844,-0.29786122,-0.44455692,0.52721065,-2.382496,-0.29394925,2.0989256,0.91242313,0.039996155,0.04,0.019290734434052048,0.013802632874249099,-0.02279891047032301,-0.0658676762478352,-0.035949852949545204,-0.03932006213373283,0.9652062354759704,-0.10081137484476588,0.08167285822779169,-0.22703201080269847
370.4333333333251,-0.29877877,-0.44350603,0.5288445,-2.382577,-0.29485878,2.1005585,0.9128142,0.039996147,0.04,0.019461838906242868,0.015279238809473572,-0.023177517047212604,-0.06480840031875074,-0.03562625903929254,-0.03840203557623219,0.9650501301218056,-0.10143854626925952,0.08194439896001306,-0.227318242034702
370.44999999999175,-0.29968205,-0.4424715,0.5304532,-2.382657,-0.29575422,2.1021662,0.9131991,0.039996136,0.04,0.019975473145783518,0.014494632464553958,-0.02293375635018524,-0.06373938889302458,-0.035306500461901924,-0.03749644705334101,0.9648963792346704,-0.10205741845751201,0.08221172884129228,-0.22759721509398376
370.4666666666584,-0.30057096,-0.44145325,0.53203684,-2.3827348,-0.29663557,2.103748,0.913578,0.039996125,0.04,0.022685489682161553,0.013780190668430392,-0.021592637842537954,-0.06265874339999826,-0.03499114847667058,-0.036606223219780264,0.9647449535799388,-0.10266787308959431,0.0824754200033596,-0.22786901384911917
370.48333333332505,-0.30144548,-0.44045138,0.53359485,-2.3828108,-0.2975027,2.1053045,0.9139508,0.039996114,0.04,0.021904393512417464,0.014994265280449115,-0.021890870168372878,-0.06156580518790905,-0.03467342870457801,-0.035727615944867,0.9645959260803602,-0.10326958013037418,0.08273526841703215,-0.22813366382195835
370.4999999999917,-0.30230564,-0.43946588,0.5351276,-2.382885,-0.2983557,2.1068354,0.91431737,0.039996106,0.04,0.022273562420660475,0.014565740100058733,-0.021562311183953575,-0.06046432722162731,-0.03435638496040405,-0.0348635293710315,0.9644492409122346,-0.10386276490377709,0.0829913508869692,-0.22839138216735147
370.51666666665835,-0.30315143,-0.4384968,0.5366347,-2.3829584,-0.29919437,2.108341,0.914678,0.0399961,0.04,0.020497750996351094,0.015788493391677427,-0.022318851090674663,-0.05935129323616163,-0.0340375082713852,-0.03400998815696993,0.9643049995102781,-0.10444704649106273,0.08324322386028771,-0.22864218350978502
370.533333333325,-0.30398282,-0.43754426,0.5381164,-2.3830316,-0.30001885,2.1098206,0.9150324,0.039996088,0.04,0.019658492218477264,0.01615032024448182,-0.023105788794275384,-0.05823090664158166,-0.03372080496013087,-0.03317128332577933,0.9641631750512891,-0.10502254958360346,0.0834903447569814,-0.22888643097907133
370.54999999999166,-0.3047997,-0.4366081,0.5395725,-2.383104,-0.30082905,2.1112752,0.9153807,0.039996076,0.04,0.02069746745592127,0.015822212539226554,-0.021903746272755598,-0.0571027724156207,-0.03341137347143894,-0.0323405379278082,0.9640237740651028,-0.10558920661072366,0.08373334370768125,-0.22912400493209986
370.5666666666583,-0.30560222,-0.43568847,0.5410029,-2.3831747,-0.3016251,2.1127045,0.9157228,0.039996065,0.04,0.022976285167253252,0.015684060484980056,-0.02081164102432087,-0.0559662649519761,-0.033103952507839804,-0.03152572095408148,0.9638867434254055,-0.1061469472406553,0.08397271169311939,-0.22935508525245402
370.58333333332496,-0.30639037,-0.43478534,0.5424078,-2.3832436,-0.30240688,2.1141076,0.91605884,0.039996058,0.04,0.022285112322495415,0.016222460246329007,-0.02151142120991878,-0.05482076895988867,-0.032794215957170705,-0.030722971168630334,0.9637521407659462,-0.10669549176521852,0.08420789650358793,-0.22957986273293873
370.5999999999916,-0.30716395,-0.43389866,0.5437872,-2.3833103,-0.30317438,2.1154854,0.9163888,0.039996054,0.04,0.023382459556975377,0.015299084683617625,-0.020384663662254,-0.05367047039139891,-0.032486893043287175,-0.029931820242952246,0.9636199131017067,-0.10723505656915121,0.08443956758613445,-0.2297983140546005
370.61666666665826,-0.30792314,-0.43302855,0.5451408,-2.383376,-0.3039275,2.1168368,0.9167125,0.039996043,0.04,0.02163802058110509,0.017101097920346753,-0.021813203136566983,-0.052510330009094025,-0.032174732093314506,-0.029156174777601802,0.9634901473706087,-0.10776531561357613,0.08466668505756726,-0.23001070651565747
370.6333333333249,-0.30866787,-0.43217498,0.54646873,-2.3834412,-0.3046664,2.118163,0.9170301,0.039996035,0.04,0.020462945788435327,0.017091627934051612,-0.021647290569881683,-0.05134766907230099,-0.0318679183117332,-0.028390987652610646,0.963362820921353,-0.10828643056550441,0.08488945374571714,-0.2302170820434251
370.64999999999156,-0.3093983,-0.43133786,0.5477712,-2.383506,-0.30539095,2.1194637,0.9173417,0.039996028,0.04,0.020492181518672048,0.017238642899677914,-0.021754434065357486,-0.0501786552831861,-0.031564553866735554,-0.02763780321833507,0.9632379626372581,-0.10879820550757213,0.08510761276422939,-0.2304176036294321
370.6666666666582,-0.31011415,-0.43051717,0.5490481,-2.383569,-0.30610126,2.1207387,0.9176471,0.039996017,0.04,0.023131704739465242,0.01625206792308931,-0.020195963098679215,-0.04900731754836311,-0.03126849313939157,-0.02689701550815255,0.9631154980245205,-0.10930081266136099,0.0853219677313987,-0.2306122972414697
370.68333333332487,-0.31081557,-0.4297129,0.5502996,-2.3836303,-0.30679736,2.1219888,0.9179464,0.03999601,0.04,0.0228991268125478,0.016409812422527037,-0.019969142344700153,-0.04782970142383276,-0.030969963692896785,-0.02616718624895596,0.9629954197346253,-0.10979422754663949,0.08553260995491486,-0.2308012603992231
370.6999999999915,-0.31150267,-0.4289252,0.5515254,-2.38369,-0.30747923,2.1232128,0.91823965,0.03999601,0.04,0.022514747345692143,0.017493606951399232,-0.020629753737089196,-0.04664584489317353,-0.03066897438436947,-0.025450459466380852,0.9628777788011423,-0.11027809435901427,0.08573903026345542,-0.23098472608595758
370.71666666665817,-0.31217533,-0.42815384,0.55272573,-2.3837478,-0.3081469,2.124411,0.9185267,0.039996006,0.04,0.023546210795943878,0.01680249099178799,-0.019706566902510936,-0.0454606678966252,-0.030370743510796612,-0.024745323853081633,0.9627625386744926,-0.11075259235672369,0.08594158830972198,-0.23116271500852756
370.7333333333248,-0.3128337,-0.42739877,0.5539007,-2.3838053,-0.3088004,2.1255841,0.9188077,0.039995994,0.04,0.020259297330338377,0.01779678004777685,-0.02100758137286718,-0.04427193889034078,-0.030072078900976754,-0.024053653800551973,0.9626497426983558,-0.11121775369661764,0.08613952065158222,-0.23133539964169708
370.7499999999915,-0.31347778,-0.42666012,0.55505025,-2.3838623,-0.30943987,2.1267323,0.9190825,0.039995983,0.04,0.021162204222990866,0.017871766818944312,-0.020356891742290273,-0.04308109862820741,-0.029780404045527877,-0.023375424389381436,0.9625393541143797,-0.11167356231847009,0.08633321964074382,-0.23150287783662327
370.7666666666581,-0.31410757,-0.42593777,0.5561746,-2.383918,-0.31006515,2.1278546,0.9193514,0.03999598,0.04,0.02179950498815142,0.017603500663154747,-0.020379640595491466,-0.04188844463071011,-0.029490044273545152,-0.022705379803081367,0.9624314002353536,-0.11211984154528246,0.08652244402990077,-0.23166529229034344
