rsonawane2002/My_IMU/logs_2/traj_284/imu_400hz_284.csv
time,j1,j2,j3,j4,j5,j6,j7,gripper1,gripper2,imu_ax,imu_ay,imu_az,imu_gx,imu_gy,imu_gz
0.0,0.00016700293,-0.785875,4.0107683e-05,-2.3551247,9.29385e-05,1.570997,0.786,0.04,0.04,-9.50448,-0.0005574994720518,0.08855829,-4.592815e-07,-0.0011641273740679,5.384454e-07
0.0025,0.0001670024395,-0.785857774,4.0110201950000004e-05,-2.35513919,9.2942991e-05,1.570996565,0.786,0.04,0.04,-9.553967850000044,-0.0003788258647544125,0.07663850504998916,-4.166008554999612e-07,-0.0013252422912047616,4.976106239999628e-07
0.005,0.00016700194899999998,-0.785840548,4.0112720900000006e-05,-2.3551536800000004,9.294748200000002e-05,1.57099613,0.786,0.04,0.04,-9.603455700000088,-0.00020015225745702498,0.06471872009997831,-3.7392021099992236e-07,-0.0014863572083416232,4.5677584799992574e-07
0.0075,0.0001670014585,-0.7858233219999999,4.011523985000001e-05,-2.3551681700000002,9.295197300000001e-05,1.570995695,0.786,0.04,0.04,-9.652943550000135,-2.1478650159637513e-05,0.052798935149967474,-3.3123956649988354e-07,-0.0016474721254784847,4.159410719998886e-07
0.01,0.000167000968,-0.785806096,4.011775880000001e-05,-2.35518266,9.295646400000001e-05,1.5709952600000001,0.786,0.04,0.04,-9.70243140000018,0.00015719495713775007,0.04087915019995663,-2.885589219998447e-07,-0.0018085870426153463,3.7510629599985144e-07
0.0125,0.00016700047749999998,-0.78578887,4.012027775000001e-05,-2.3551971500000004,9.296095500000002e-05,1.570994825,0.786,0.04,0.04,-9.751919250000224,0.00033586856443513754,0.028959365249945787,-2.458782774998059e-07,-0.0019697019597522077,3.342715199998143e-07
0.015,0.000166999987,-0.785771644,4.012279670000001e-05,-2.3552116400000003,9.296544600000002e-05,1.57099439,0.786,0.04,0.04,-9.801407100000269,0.000514542171732525,0.01703958029993495,-2.0319763299976708e-07,-0.0021308168768890694,2.9343674399977713e-07
0.0175,0.00016699743499999994,-0.7857548619999999,4.012869135000008e-05,-2.3552257350000003,9.296787599999999e-05,1.57099396,0.786,0.04,0.04,-9.834300899999997,0.0006356546480674131,0.009020632399998616,-1.5080043799954266e-07,-0.0022877866169446317,3.80882819956425e-08
0.02,0.00016699075999999994,-0.7857389679999999,4.014133740000009e-05,-2.3552390400000003,9.296618399999999e-05,1.5709935400000001,0.786,0.04,0.04,-9.834006599999997,0.0006416448624804435,0.00880335859999842,-7.897014199947736e-08,-0.002436466002837822,-6.462875520049795e-07
0.0225,0.00016698408499999994,-0.7857230739999999,4.0153983450000106e-05,-2.3552523450000002,9.296449199999999e-05,1.57099312,0.786,0.04,0.04,-9.833712299999997,0.000647635076893474,0.008586084799998221,-7.139845999412073e-09,-0.0025851453887310123,-1.3306633860056016e-06
0.025,0.00016697740999999994,-0.7857071799999998,4.0166629500000115e-05,-2.35526565,9.296279999999998e-05,1.5709927,0.786,0.04,0.04,-9.833417999999996,0.0006536252913065045,0.008368810999998024,6.46904500006533e-08,-0.0027338247746242026,-2.015039220006224e-06
0.0275,0.00016697073499999995,-0.7856912859999998,4.0179275550000124e-05,-2.355278955,9.296110799999998e-05,1.57099228,0.786,0.04,0.04,-9.833123699999998,0.0006596155057195349,0.008151537199997826,1.3652074600071856e-07,-0.0028825041605173925,-2.6994150540068463e-06
0.03,0.00016696405999999992,-0.7856753919999998,4.019192160000014e-05,-2.35529226,9.295941599999998e-05,1.57099186,0.786,0.04,0.04,-9.832829399999998,0.0006656057201325654,0.00793426339999763,2.0835104200078388e-07,-0.003031183546410583,-3.3837908880074684e-06
0.0325,0.00016695738499999992,-0.7856594979999998,4.020456765000015e-05,-2.355305565,9.295772399999998e-05,1.57099144,0.786,0.04,0.04,-9.832535099999998,0.0006715959345455958,0.007716989599997431,2.8018133800084925e-07,-0.003179862932303773,-4.068166722008091e-06
0.035,0.0001669399989999997,-0.7856444399999998,4.0235158300000505e-05,-2.3553181,9.294562049999977e-05,1.57099101,0.786,0.04,0.04,-9.832246299999996,0.0006799209746532409,0.007520593599997632,3.948999630017339e-07,-0.0033208549721183566,-5.576025500024444e-06
0.0375,0.0001669172574999997,-0.7856297999999998,4.027472125000054e-05,-2.35533025,9.292831124999976e-05,1.570990575,0.786,0.04,0.04,-9.831960249999996,0.0006894134276081295,0.007334636499997463,5.310627525018575e-07,-0.003458003338893846,-7.495625750026186e-06
0.04,0.00016689451599999968,-0.7856151599999998,4.031428420000058e-05,-2.3553424,9.291100199999974e-05,1.57099014,0.786,0.04,0.04,-9.831674199999997,0.0006989058805630182,0.007148679399997294,6.672255420019815e-07,-0.003595151705669336,-9.415226000027934e-06
0.0425,0.00016687177449999967,-0.7856005199999998,4.035384715000061e-05,-2.35535455,9.289369274999973e-05,1.5709897050000001,0.786,0.04,0.04,-9.831388149999995,0.0007083983335179068,0.0069627222999971245,8.033883315021054e-07,-0.0037323000724448258,-1.133482625002968e-05
0.045,0.00016684903299999963,-0.7855858799999997,4.039341010000065e-05,-2.3553667000000003,9.287638349999971e-05,1.57098927,0.786,0.04,0.04,-9.831102099999995,0.0007178907864727954,0.006776765199996955,9.395511210022289e-07,-0.0038694484392203152,-1.3254426500031422e-05
0.0475,0.0001668262914999996,-0.7855712399999998,4.0432973050000684e-05,-2.35537885,9.285907424999969e-05,1.570988835,0.786,0.04,0.04,-9.830816049999994,0.000727383239427684,0.006590808099996786,1.0757139105023528e-06,-0.004006596805995805,-1.517402675003317e-05
0.05,0.00016680354999999906,-0.7855565999999998,4.047253600000165e-05,-2.355391,9.284176499999915e-05,1.5709884,0.786,0.04,0.04,-9.830529999999994,0.0007368756923826443,0.006404850999997082,1.2118767000062835e-06,-0.004143745172771107,-1.7093627000067037e-05
0.0525,0.000166750794999999,-0.7855430999999998,4.056310810000173e-05,-2.3554021300000003,9.279536924999912e-05,1.57098798,0.786,0.04,0.04,-9.830273649999995,0.0007503011176597464,0.006244457199996937,1.557294705006597e-06,-0.004270570003429952,-2.077877345007038e-05
0.055,0.00016669803999999895,-0.7855295999999997,4.065368020000181e-05,-2.35541326,9.274897349999906e-05,1.57098756,0.786,0.04,0.04,-9.830017299999994,0.0007637265429368486,0.006084063399996791,1.9027127100069115e-06,-0.004397394834088798,-2.4463919900073737e-05
0.0575,0.0001666452849999989,-0.7855160999999997,4.0744252300001896e-05,-2.35542439,9.270257774999903e-05,1.57098714,0.786,0.04,0.04,-9.829760949999994,0.0007771519682139509,0.005923669599996645,2.2481307150072263e-06,-0.004524219664747643,-2.814906635007709e-05
0.06,0.00016659252999999885,-0.7855025999999997,4.083482440000198e-05,-2.3554355200000003,9.265618199999899e-05,1.57098672,0.786,0.04,0.04,-9.829504599999995,0.0007905773934910531,0.005763275799996499,2.59354872000754e-06,-0.004651044495406488,-3.1834212800080434e-05
0.0625,0.0001665397749999988,-0.7854890999999997,4.092539650000206e-05,-2.35544665,9.260978624999895e-05,1.5709863,0.786,0.04,0.04,-9.829248249999994,0.0008040028187681553,0.005602881999996353,2.938966725007854e-06,-0.004777869326065333,-3.551935925008379e-05
0.065,0.00016648701999999875,-0.7854755999999997,4.1015968600002145e-05,-2.35545778,9.25633904999989e-05,1.57098588,0.786,0.04,0.04,-9.828991899999993,0.0008174282440452576,0.005442488199996207,3.2843847300081685e-06,-0.004904694156724179,-3.9204505700087145e-05
0.0675,0.00016641838649999753,-0.7854624299999997,4.113374785000423e-05,-2.35546854,9.250203299999777e-05,1.57098562,0.786,0.04,0.03999999975,-9.828736299999994,0.00083228372677732,0.005288664799996545,3.694979465013285e-06,-0.005028291046622236,-4.359909500014277e-05
0.07,0.00016631799599999743,-0.7854499199999997,4.130594140000439e-05,-2.3554785600000003,9.241075199999768e-05,1.57098568,0.786,0.04,0.039999999,-9.828482199999993,0.0008499993244189912,0.005147982199996418,4.235927660013777e-06,-0.005145432054999423,-4.941257000014806e-05
0.0725,0.00016621760549999733,-0.7854374099999997,4.1478134950004545e-05,-2.3554885800000003,9.23194709999976e-05,1.57098574,0.786,0.04,0.03999999825,-9.828228099999993,0.0008677149220606622,0.00500729959999629,4.776875855014267e-06,-0.005262573063376609,-5.522604500015332e-05
0.075,0.00016611721499999724,-0.7854248999999996,4.16503285000047e-05,-2.3554986,9.222818999999752e-05,1.5709858,0.786,0.04,0.0399999975,-9.827973999999994,0.0008854305197023333,0.004866616999996162,5.317824050014759e-06,-0.0053797140717537955,-6.103952000015861e-05
0.0775,0.00016601682449999717,-0.7854123899999996,4.1822522050004856e-05,-2.35550862,9.213690899999743e-05,1.57098586,0.786,0.04,0.03999999675,-9.827719899999993,0.0009031461173440045,0.004725934399996034,5.858772245015251e-06,-0.005496855080130983,-6.68529950001639e-05
0.08,0.00016591643399999708,-0.7853998799999996,4.199471560000501e-05,-2.3555186400000006,9.204562799999735e-05,1.57098592,0.786,0.04,0.039999996,-9.827465799999993,0.0009208617149856756,0.004585251799995906,6.399720440015744e-06,-0.005613996088508169,-7.26664700001692e-05
0.0825,0.00016581604349999698,-0.7853873699999996,4.216690915000517e-05,-2.3555286600000005,9.195434699999727e-05,1.57098598,0.786,0.04,0.03999999525,-9.827211699999992,0.0009385773126273468,0.0044445691999957775,6.940668635016237e-06,-0.0057311370968853555,-7.84799450001745e-05
0.085,0.00016566995099999478,-0.7853754899999996,4.241788160000898e-05,-2.3555384300000006,9.181859999999512e-05,1.5709860900000001,0.786,0.04,0.039999995,-9.826954399999993,0.0009566382388589338,0.004311149959995987,7.662382130025114e-06,-0.005840849457311898,-8.615613000026619e-05
0.08750000000000001,0.00016550100749999463,-0.7853639249999996,4.2708243500009244e-05,-2.3555480750000006,9.166061999999497e-05,1.570986225,0.786,0.04,0.039999995,-9.826695499999992,0.0009748718293854555,0.004181362399995868,8.474478275025853e-06,-0.0059468474937636245,-9.476367000027403e-05
0.09,0.00016533206399999448,-0.7853523599999996,4.2998605400009506e-05,-2.3555577200000006,9.150263999999483e-05,1.57098636,0.786,0.04,0.039999995,-9.826436599999992,0.000993105419911977,0.0040515748399957505,9.286574420026588e-06,-0.00605284553021535,-0.00010337121000028181
0.0925,0.0001651631204999943,-0.7853407949999995,4.3288967300009774e-05,-2.3555673650000006,9.134465999999469e-05,1.570986495,0.786,0.04,0.039999995,-9.826177699999992,0.0010113390104384986,0.003921787279995633,1.0098670565027329e-05,-0.006158843566667077,-0.00011197875000028965
0.095,0.00016499417699999416,-0.7853292299999995,4.3579329200010036e-05,-2.3555770100000006,9.118667999999454e-05,1.5709866300000002,0.786,0.04,0.039999995,-9.825918799999991,0.0010295726009650202,0.0037919997199955145,1.0910766710028068e-05,-0.006264841603118803,-0.00012058629000029749
0.0975,0.000164825233499994,-0.7853176649999996,4.3869691100010305e-05,-2.3555866550000006,9.10286999999944e-05,1.570986765,0.786,0.04,0.039999995,-9.825659899999991,0.001047806191491542,0.003662212159995396,1.1722862855028808e-05,-0.00637083963957053,-0.00012919383000030532
0.1,0.0001646562899999905,-0.7853060999999996,4.416005300001639e-05,-2.3555963000000006,9.087071999999097e-05,1.5709869,0.786,0.04,0.039999995,-9.825400999999994,0.0010660397820181381,0.0035324245999964967,1.2534959000043814e-05,-0.006476837676022058,-0.00013780137000042424
0.10250000000000001,0.00016439491199999026,-0.7852953074999997,4.4610392600016795e-05,-2.3556050300000004,9.062273549999075e-05,1.5709870350000001,0.786,0.04,0.039999995,-9.825244699999994,0.0010863307630650217,0.0034361285449964088,1.3739222450044911e-05,-0.006577367288995479,-0.00014946249450043488
0.105,0.00016413353399999001,-0.7852845149999996,4.50607322000172e-05,-2.3556137600000007,9.037475099999053e-05,1.57098717,0.786,0.04,0.039999995,-9.825088399999993,0.001106621744111905,0.0033398324899963218,1.4943485900046001e-05,-0.0066778969019689,-0.0001611236190004454
0.1075,0.00016387215599998977,-0.7852737224999996,4.551107180001761e-05,-2.3556224900000005,9.012676649999031e-05,1.570987305,0.786,0.04,0.039999995,-9.824932099999993,0.0011269127251587886,0.003243536434996234,1.6147749350047098e-05,-0.006778426514942321,-0.00017278474350045604
0.11,0.00016361077799998953,-0.7852629299999996,4.5961411400018025e-05,-2.3556312200000002,8.987878199999008e-05,1.57098744,0.786,0.04,0.039999995,-9.824775799999992,0.0011472037062056721,0.0031472403799961465,1.7352012800048194e-05,-0.0068789561279157425,-0.00018444586800046666
0.1125,0.00016334939999998932,-0.7852521374999996,4.641175100001843e-05,-2.3556399500000005,8.963079749998985e-05,1.570987575,0.786,0.04,0.039999995,-9.824619499999994,0.0011674946872525555,0.0030509443249960586,1.8556276250049288e-05,-0.006979485740889165,-0.00019610699250047727
0.115,0.00016308802199998908,-0.7852413449999995,4.686209060001884e-05,-2.3556486800000003,8.938281299998963e-05,1.57098771,0.786,0.04,0.039999995,-9.824463199999993,0.001187785668299439,0.002954648269995971,1.9760539700050384e-05,-0.007080015353862585,-0.0002077681170004879
0.11750000000000001,0.00016278699199998375,-0.7852308004999995,4.738125675002808e-05,-2.3556570850000003,8.909612349998444e-05,1.570988015,0.786000095,0.04,0.039999995,-9.82428884999999,0.001208392181434638,0.0028620114149963526,2.1110230150070134e-05,-0.007178309489976811,-0.0002205614400006437
0.12,0.0001624066579999834,-0.7852207519999995,4.8038076000028675e-05,-2.35566484,8.87320239999841e-05,1.57098866,0.78600038,0.04,0.039999995,-9.82407839999999,0.001229629758746347,0.0027766929599962755,2.2750774600071616e-05,-0.007272132672373495,-0.00023561916000065734
0.1225,0.00016202632399998305,-0.7852107034999996,4.869489525002927e-05,-2.3556725950000006,8.836792449998377e-05,1.570989305,0.7860006650000001,0.04,0.039999995,-9.82386794999999,0.0012508673360580565,0.002691374504996198,2.4391319050073108e-05,-0.007365955854770181,-0.00025067688000067104
0.125,0.0001616459899999827,-0.7852006549999995,4.935171450002987e-05,-2.3556803500000005,8.800382499998344e-05,1.57098995,0.78600095,0.04,0.039999995,-9.82365749999999,0.0012721049133697657,0.0026060560499961203,2.60318635000746e-05,-0.0074597790371668665,-0.00026573460000068477
0.1275,0.00016126565599998237,-0.7851906064999995,5.000853375003047e-05,-2.3556881050000005,8.763972549998311e-05,1.570990595,0.7860012350000001,0.04,0.039999995,-9.82344704999999,0.0012933424906814751,0.0025207375949960423,2.7672407950076096e-05,-0.007553602219563552,-0.00028079232000069844
0.13,0.000160885321999982,-0.7851805579999995,5.0665353000031065e-05,-2.3556958600000004,8.727562599998277e-05,1.5709912400000001,0.78600152,0.04,0.039999995,-9.823236599999989,0.0013145800679931843,0.0024354191399959648,2.931295240007759e-05,-0.007647425401960238,-0.00029585004000071217
0.1325,0.00016050498799998167,-0.7851705094999994,5.132217225003166e-05,-2.3557036150000004,8.691152649998244e-05,1.570991885,0.786001805,0.04,0.039999995,-9.82302614999999,0.0013358176453048937,0.002350100684995887,3.095349685007908e-05,-0.007741248584356923,-0.0003109077600007259
0.135,0.00016002610099997405,-0.7851608599999995,5.215044330004489e-05,-2.3557112100000004,8.645114199997503e-05,1.57099258,0.7860020900000001,0.04,0.039999995,-9.822800899999988,0.0013566819368871356,0.002273541719996455,3.203994350003975e-05,-0.007829045038674435,-0.00032843235000092134
0.1375,0.00015949793749997357,-0.7851514099999995,5.306444025004572e-05,-2.3557187250000005,8.594261499997456e-05,1.5709933,0.786002375,0.04,0.039999995,-9.822568249999987,0.0013773595856046844,0.002201362499996389,3.284934125004049e-05,-0.007913828128953016,-0.00034719037500093844
0.14,0.0001589697739999731,-0.7851419599999995,5.3978437200046555e-05,-2.3557262400000005,8.54340879999741e-05,1.57099402,0.7860026600000001,0.04,0.039999995,-9.822335599999988,0.0013980372343222333,0.0021291832799963236,3.365873900004123e-05,-0.007998611219231599,-0.0003659484000009555
0.14250000000000002,0.00015844161049997262,-0.7851325099999995,5.489243415004739e-05,-2.3557337550000006,8.492556099997364e-05,1.57099474,0.786002945,0.04,0.039999995,-9.822102949999987,0.001418714883039782,0.002057004059996258,3.4468136750041964e-05,-0.00808339430951018,-0.0003847064250009726
0.145,0.00015791344699997214,-0.7851230599999995,5.580643110004821e-05,-2.35574127,8.441703399997318e-05,1.57099546,0.78600323,0.04,0.039999995,-9.821870299999988,0.0014393925317573307,0.001984824839996193,3.52775345000427e-05,-0.008168177399788762,-0.00040346445000098946
0.1475,0.00015738528349997167,-0.7851136099999996,5.6720428050049046e-05,-2.3557487850000003,8.390850699997272e-05,1.57099618,0.7860035150000001,0.04,0.039999995,-9.821637649999987,0.0014600701804748796,0.001912645619996127,3.608693225004343e-05,-0.008252960490067345,-0.0004222224750010065
0.15,0.00015685711999996143,-0.7851041599999996,5.7634425000066875e-05,-2.3557563000000004,8.339997999996272e-05,1.5709969,0.7860038,0.04,0.039999995,-9.821404999999993,0.0014807478291923712,0.0018404663999972543,3.689633000007798e-05,-0.008337743580345763,-0.0004409805000012402
0.1525,0.00015615018199996078,-0.7850952364999996,5.886001275006799e-05,-2.355762915,8.27167629999621e-05,1.57099813,0.786004091,0.04,0.039999995,-9.821279749999993,0.001500376517652604,0.0017901489599972083,3.8325272000079276e-05,-0.008419545227666232,-0.0004637085450012609
0.155,0.00015544324399996014,-0.7850863129999995,6.008560050006911e-05,-2.3557695300000003,8.203354599996148e-05,1.57099936,0.786004382,0.04,0.039999995,-9.821154499999993,0.001520005206112837,0.0017398315199971626,3.9754214000080574e-05,-0.008501346874986703,-0.0004864365900012816
0.1575,0.0001547363059999595,-0.7850773894999995,6.131118825007022e-05,-2.3557761450000005,8.135032899996086e-05,1.5710005900000001,0.786004673,0.04,0.039999995,-9.821029249999993,0.0015396338945730698,0.0016895140799971168,4.118315600008188e-05,-0.008583148522307172,-0.0005091646350013023
0.16,0.00015402936799995885,-0.7850684659999995,6.253677600007134e-05,-2.3557827600000003,8.066711199996023e-05,1.57100182,0.7860049640000001,0.04,0.039999995,-9.820903999999993,0.0015592625830333027,0.001639196639997071,4.261209800008318e-05,-0.008664950169627641,-0.000531892680001323
0.1625,0.00015332242999995823,-0.7850595424999994,6.376236375007245e-05,-2.3557893750000005,7.998389499995961e-05,1.57100305,0.7860052550000001,0.04,0.039999995,-9.820778749999993,0.0015788912714935354,0.001588879199997025,4.4041040000084476e-05,-0.008746751816948112,-0.0005546207250013437
0.165,0.00015261549199995758,-0.7850506189999995,6.498795150007358e-05,-2.3557959900000003,7.930067799995898e-05,1.5710042800000001,0.786005546,0.04,0.039999995,-9.820653499999992,0.0015985199599537685,0.0015385617599969793,4.5469982000085775e-05,-0.008828553464268581,-0.0005773487700013644
0.1675,0.00015183802999994405,-0.7850418264999994,6.63366245000972e-05,-2.3558025200000006,7.854843049994574e-05,1.57100553,0.786005835,0.04,0.039999995,-9.820500524999987,0.0016177179932138925,0.001489712894997202,4.711037575012574e-05,-0.008907877514143342,-0.0006014801780016416
0.17,0.0001509195199999432,-0.7850332959999995,6.793146800009863e-05,-2.3558088800000005,7.765812199994493e-05,1.57100682,0.78600612,0.04,0.039999995,-9.820292099999987,0.0016360547160740341,0.0014438011799971602,4.917367300012762e-05,-0.00898224636912804,-0.0006284183120016661
0.17250000000000001,0.00015000100999994236,-0.7850247654999994,6.952631150010009e-05,-2.3558152400000005,7.676781349994412e-05,1.5710081100000002,0.7860064050000001,0.04,0.039999995,-9.820083674999987,0.0016543914389341757,0.0013978894649971185,5.1236970250129496e-05,-0.009056615224112738,-0.0006553564460016906
0.17500000000000002,0.00014908249999994152,-0.7850162349999995,7.112115500010154e-05,-2.3558216000000005,7.587750499994332e-05,1.5710094000000001,0.78600669,0.04,0.039999995,-9.819875249999987,0.0016727281617943176,0.0013519777499970767,5.3300267500131374e-05,-0.009130984079097435,-0.0006822945800017151
0.1775,0.00014816398999994068,-0.7850077044999995,7.271599850010298e-05,-2.3558279600000005,7.498719649994252e-05,1.57101069,0.786006975,0.04,0.039999995,-9.819666824999986,0.001691064884654459,0.0013060660349970355,5.5363564750133226e-05,-0.009205352934082133,-0.0007092327140017394
0.18,0.00014724547999993984,-0.7849991739999994,7.431084200010443e-05,-2.3558343200000005,7.40968879999417e-05,1.57101198,0.78600726,0.04,0.039999995,-9.819458399999986,0.0017094016075146006,0.0012601543199969936,5.7426862000135105e-05,-0.00927972178906683,-0.0007361708480017639
0.1825,0.00014632696999993902,-0.7849906434999995,7.590568550010588e-05,-2.3558406800000005,7.32065794999409e-05,1.5710132700000001,0.786007545,0.04,0.039999995,-9.819249974999986,0.0017277383303747423,0.0012142426049969518,5.9490159250136984e-05,-0.009354090644051528,-0.0007631089820017885
0.185,0.00014524448199991898,-0.7849823229999995,7.778707800014086e-05,-2.3558466700000005,7.21557159999213e-05,1.5710149400000002,0.7860080220000001,0.04,0.039999995,-9.819106949999993,0.0017437448375868525,0.0011828838299983244,6.207157150019763e-05,-0.009427318722014634,-0.0007929905540021814
0.1875,0.00014408000499991394,-0.7849741074999994,7.981174500014961e-05,-2.3558524750000003,7.102457499991642e-05,1.5710168000000002,0.7860085950000001,0.04,0.039999995,-9.818996624999992,0.0017585862369752967,0.0011588015249982203,6.49120412502099e-05,-0.00949997641146712,-0.0008243438450023169
0.19,0.0001429155279999089,-0.7849658919999993,8.183641200015836e-05,-2.3558582800000005,6.989343399991152e-05,1.5710186600000002,0.7860091680000001,0.04,0.039999995,-9.818886299999992,0.0017734276363637407,0.0011347192199981163,6.775251100022217e-05,-0.009572634100919603,-0.0008556971360024523
0.1925,0.00014175105099990386,-0.7849576764999994,8.386107900016711e-05,-2.3558640850000008,6.876229299990663e-05,1.5710205200000003,0.7860097410000001,0.04,0.039999995,-9.81877597499999,0.001788269035752185,0.0011106369149980122,7.059298075023445e-05,-0.009645291790372088,-0.0008870504270025878
0.195,0.00014058657399989885,-0.7849494609999993,8.588574600017587e-05,-2.3558698900000006,6.763115199990175e-05,1.5710223800000003,0.7860103140000001,0.04,0.039999995,-9.818665649999991,0.001803110435140629,0.001086554609997908,7.343345050024673e-05,-0.00971794947982457,-0.0009184037180027233
0.1975,0.00013942209699989382,-0.7849412454999993,8.79104130001846e-05,-2.355875695000001,6.650001099989687e-05,1.5710242400000003,0.7860108870000001,0.04,0.039999995,-9.81855532499999,0.0018179518345290732,0.001062472304997804,7.627392025025899e-05,-0.009790607169277056,-0.0009497570090028588
0.2,0.00013825761999986186,-0.7849330299999993,8.993508000024043e-05,-2.3558815000000006,6.536886999986561e-05,1.5710261000000003,0.78601146,0.04,0.039999995,-9.818444999999985,0.0018327932339171453,0.0010383899999974841,7.911439000022568e-05,-0.009863264858729067,-0.0009811103000034332
0.2025,0.00013681137849986548,-0.7849250544999993,9.245261400023413e-05,-2.3558867800000005,6.396173769986913e-05,1.5710285300000002,0.786012036,0.04,0.039999995,-9.818286749999986,0.001843740069308348,0.00101204669999755,8.147746450021977e-05,-0.009930982813245308,-0.0010170597650033433
0.20500000000000002,0.0001353651369998691,-0.7849170789999993,9.497014800022784e-05,-2.3558920600000004,6.255460539987265e-05,1.5710309600000003,0.786012612,0.04,0.039999995,-9.818128499999986,0.0018546869046995507,0.0009857033999976159,8.384053900021386e-05,-0.009998700767761548,-0.0010530092300032534
0.20750000000000002,0.00013391889549987273,-0.7849091034999993,9.748768200022154e-05,-2.3558973400000003,6.114747309987617e-05,1.5710333900000002,0.7860131880000001,0.04,0.039999995,-9.817970249999986,0.0018656337400907532,0.0009593600999976817,8.620361350020795e-05,-0.01006641872227779,-0.0010889586950031636
0.21,0.00013247265399987635,-0.7849011279999993,0.00010000521600021522,-2.3559026200000006,5.9740340799879705e-05,1.5710358200000003,0.786013764,0.04,0.039999995,-9.817811999999986,0.0018765805754819558,0.0009330167999977479,8.856668800020202e-05,-0.010134136676794029,-0.0011249081600030733
0.2125,0.00013102641249987997,-0.7848931524999994,0.00010252275000020893,-2.3559079000000005,5.8333208499883224e-05,1.5710382500000002,0.78601434,0.04,0.039999995,-9.817653749999987,0.0018875274108731584,0.0009066734999978138,9.09297625001961e-05,-0.01020185463131027,-0.0011608576250029833
0.215,0.0001295801709998836,-0.7848851769999994,0.00010504028400020262,-2.3559131800000004,5.692607619988674e-05,1.5710406800000003,0.7860149160000001,0.04,0.039999995,-9.817495499999987,0.001898474246264361,0.0008803301999978796,9.32928370001902e-05,-0.010269572585826512,-0.0011968070900028936
0.2175,0.00012802767499986035,-0.7848772554999993,0.00010774383800024335,-2.355918415,5.541473409986392e-05,1.5710433000000001,0.786015585,0.04,0.039999995,-9.817340599999987,0.001907930098241687,0.0008592988019991765,9.594342325025524e-05,-0.010335891926666072,-0.0012343413900032208
0.22,0.00012626266999985874,-0.7848694419999994,0.00011081943200024616,-2.3559235600000004,5.369497239986236e-05,1.5710463000000001,0.78601644,0.04,0.039999995,-9.817192399999987,0.0019144039833923182,0.000848891207999167,9.916903300025816e-05,-0.010399414040153264,-0.0012750453600032577
0.2225,0.00012449766499985713,-0.7848616284999994,0.00011389502600024896,-2.355928705,5.1975210699860794e-05,1.5710493000000003,0.7860172950000001,0.04,0.039999995,-9.817044199999987,0.001920877868542949,0.0008384836139991575,0.0001023946427502611,-0.010462936153640457,-0.0013157493300032948
0.225,0.0001227326599998555,-0.7848538149999994,0.00011697062000025175,-2.3559338500000004,5.0255448999859224e-05,1.5710523000000003,0.7860181500000001,0.04,0.039999995,-9.816895999999987,0.0019273517536935799,0.000828076019999148,0.00010562025250026405,-0.010526458267127649,-0.001356453300003332
0.2275,0.00012096765499985391,-0.7848460014999994,0.00012004621400025456,-2.3559389950000003,4.853568729985766e-05,1.5710553000000003,0.786019005,0.04,0.039999995,-9.816747799999987,0.0019338256388442107,0.0008176684259991385,0.00010884586225026697,-0.010589980380614842,-0.0013971572700033688
0.23,0.00011920264999985231,-0.7848381879999994,0.00012312180800025738,-2.3559441400000005,4.68159255998561e-05,1.5710583000000002,0.78601986,0.04,0.039999995,-9.816599599999988,0.0019402995239948416,0.0008072608319991292,0.00011207147200026991,-0.010653502494102036,-0.001437861240003406
0.2325,0.0001174376449998507,-0.7848303744999994,0.00012619740200026016,-2.3559492850000003,4.5096163899854534e-05,1.5710613000000002,0.786020715,0.04,0.039999995,-9.816451399999988,0.0019467734091454724,0.0007968532379991197,0.00011529708175027286,-0.010717024607589228,-0.001478565210003443
0.23500000000000001,0.00011543476199981858,-0.7848226079999994,0.0001296897510003164,-2.3559540300000004,4.3143152199823054e-05,1.5710646900000003,0.7860215700000001,0.04,0.039999995,-9.816333199999992,0.001948846783488949,0.0007945970530001556,0.00011834828750025342,-0.010779086686676003,-0.0015225256800038976
0.23750000000000002,0.00011331293999981666,-0.7848148649999993,0.00013339047750031977,-2.3559585750000003,4.1073515499821166e-05,1.5710682750000002,0.7860224250000001,0.04,0.039999995,-9.81622999999999,0.001948719902429689,0.0007964165725001572,0.00012131229125025611,-0.01084041874856285,-0.0015681144000039393
0.24,0.00011119111799981475,-0.7848071219999994,0.0001370912040003231,-2.35596312,3.9003878799819305e-05,1.5710718600000002,0.78602328,0.04,0.039999995,-9.81612679999999,0.0019485930213704288,0.0007982360920001588,0.00012427629500025877,-0.010901750810449693,-0.0016137031200039802
0.2425,0.00010906929599981282,-0.7847993789999993,0.00014079193050032648,-2.3559676650000005,3.693424209981742e-05,1.5710754450000004,0.786024135,0.04,0.039999995,-9.81602359999999,0.0019484661403111688,0.0008000556115001605,0.0001272402987502615,-0.01096308287233654,-0.0016592918400040217
0.245,0.00010694747399981088,-0.7847916359999993,0.00014449265700032984,-2.3559722100000005,3.4864605399815535e-05,1.5710790300000004,0.78602499,0.04,0.039999995,-9.81592039999999,0.0019483392592519087,0.0008018751310001622,0.00013020430250026418,-0.011024414934223386,-0.001704880560004063
0.2475,0.00010482565199980895,-0.7847838929999993,0.0001481933835003332,-2.3559767550000004,3.2794968699813653e-05,1.5710826150000003,0.7860258450000001,0.04,0.039999995,-9.81581719999999,0.0019482123781926486,0.0008036946505001638,0.00013316830625026687,-0.011085746996110231,-0.0017504692800041047
0.25,0.00010270382999977103,-0.7847761499999993,0.00015189411000039965,-2.3559813000000003,3.072533199977647e-05,1.5710862000000005,0.7860267000000001,0.04,0.039999995,-9.815713999999986,0.0019480854971328063,0.0008055141700009586,0.00013613231000036424,-0.011147079057996754,-0.001796058000004601
0.2525,0.00010018627049976874,-0.7847683874999993,0.00015628860450040368,-2.3559854550000003,2.826754509977423e-05,1.5710903850000004,0.7860278475000001,0.04,0.039999995,-9.815564299999986,0.0019415580376510653,0.0008160540985009682,0.00014013725450036789,-0.011204853281384037,-0.0018466482150046471
0.255,9.766871099976644e-05,-0.7847606249999993,0.00016068309900040768,-2.3559896100000004,2.5809758199771992e-05,1.5710945700000005,0.7860289950000001,0.04,0.039999995,-9.815414599999986,0.0019350305781693244,0.0008265940270009778,0.00014414219900037154,-0.01126262750477132,-0.0018972384300046932
0.2575,9.515115149976415e-05,-0.7847528624999993,0.00016507759350041168,-2.355993765,2.3351971299769754e-05,1.5710987550000004,0.7860301425000001,0.04,0.039999995,-9.815264899999987,0.0019285031186875834,0.0008371339555009874,0.0001481471435003752,-0.011320401728158602,-0.0019478286450047393
0.26,9.263359199976185e-05,-0.7847450999999993,0.00016947208800041568,-2.35599792,2.0894184399767517e-05,1.5711029400000005,0.78603129,0.04,0.039999995,-9.815115199999987,0.0019219756592058425,0.0008476738840009969,0.00015215208800037884,-0.011378175951545885,-0.0019984188600047853
0.2625,9.011603249975956e-05,-0.7847373374999993,0.00017386658250041968,-2.356002075,1.843639749976528e-05,1.5711071250000004,0.7860324375000001,0.04,0.039999995,-9.814965499999985,0.0019154481997241016,0.0008582138125010066,0.0001561570325003825,-0.011435950174933167,-0.0020490090750048314
0.265,8.759847299975728e-05,-0.7847295749999993,0.00017826107700042368,-2.35600623,1.597861059976304e-05,1.5711113100000005,0.7860335850000001,0.04,0.039999995,-9.814815799999986,0.0019089207402423606,0.0008687537410010162,0.00016016197700038614,-0.01149372439832045,-0.0020995992900048775
0.2675,8.49357834997126e-05,-0.7847217749999992,0.000182910124500502,-2.3560103600000004,1.3378415949719224e-05,1.5711158100000004,0.7860347325000001,0.04,0.03999999525,-9.81467549999999,0.0018997336854212183,0.0008826906220020176,0.00016412644750037796,-0.011550744529818854,-0.0021518866400054193
0.27,8.198283399970993e-05,-0.7847138999999992,0.00018806827800050668,-2.3560144400000005,1.0493405799716598e-05,1.5711209400000004,0.7860358800000001,0.04,0.039999996,-9.814553999999989,0.0018852274399235951,0.0009034214080020364,0.0001680099700003815,-0.011606256477540154,-0.00220756826000547
0.2725,7.902988449970723e-05,-0.7847060249999992,0.00019322643150051138,-2.35601852,7.608395649713971e-06,1.5711260700000005,0.7860370275000002,0.04,0.03999999675,-9.814432499999988,0.0018707211944259717,0.0009241521940020553,0.00017189349250038504,-0.011661768425261454,-0.0022632498800055204
0.275,7.607693499970454e-05,-0.7846981499999992,0.0001983845850005161,-2.3560226,4.723385499711345e-06,1.5711312000000004,0.7860381750000002,0.04,0.0399999975,-9.814310999999988,0.0018562149489283486,0.0009448829800020743,0.00017577701500038855,-0.011717280372982754,-0.002318931500005571
0.2775,7.312398549970186e-05,-0.7846902749999992,0.0002035427385005208,-2.3560266800000003,1.8383753497087187e-06,1.5711363300000005,0.7860393225000001,0.04,0.03999999825,-9.814189499999987,0.0018417087034307254,0.0009656137660020931,0.0001796605375003921,-0.011772792320704054,-0.0023746131200056216
0.28,7.017103599969917e-05,-0.7846823999999992,0.00020870089200052548,-2.3560307600000003,-1.0466348002939072e-06,1.5711414600000004,0.7860404700000001,0.04,0.039999999,-9.814067999999986,0.0018272024579331022,0.0009863445520021119,0.00018354406000039563,-0.011828304268425356,-0.0024302947400056726
0.28250000000000003,6.721808649969648e-05,-0.7846745249999991,0.00021385904550053018,-2.3560348400000004,-3.931644950296535e-06,1.5711465900000006,0.7860416175000001,0.04,0.03999999975,-9.813946499999988,0.0018126962124354789,0.0010070753380021307,0.00018742758250039915,-0.011883816216146656,-0.002485976360005723
0.28500000000000003,6.394806679964447e-05,-0.7846665539999992,0.00021957364700062143,-2.3560388800000007,-7.128667700347691e-06,1.5711522200000005,0.7860429500000001,0.04,0.04,-9.81384789999999,0.0017910010879832775,0.0010267550100019863,0.00019212909300052991,-0.011938022170221363,-0.002545181420006322
0.28750000000000003,6.0519511999641354e-05,-0.7846585349999992,0.00022556647250062688,-2.3560429000000003,-1.0481696750350744e-05,1.5711581000000006,0.7860443750000001,0.04,0.04,-9.813760749999991,0.0017657115240554545,0.0010459091250020036,0.00019723959750053458,-0.011991575127473076,-0.0026061482000063773
0.29,5.709095719963831e-05,-0.7846505159999991,0.0002315592980006322,-2.3560469200000003,-1.383472580035372e-05,1.5711639800000006,0.7860458000000001,0.04,0.04,-9.81367359999999,0.0017404219601276322,0.0010650632400020206,0.00020235010200053913,-0.012045128084724788,-0.0026671149800064314
0.2925,5.366240239963519e-05,-0.7846424969999991,0.00023755212350063767,-2.3560509400000003,-1.7187754850356775e-05,1.5711698600000006,0.7860472250000001,0.04,0.04,-9.81358644999999,0.0017151323961998091,0.0010842173550020381,0.0002074606065005438,-0.012098681041976502,-0.002728081760006487
0.295,5.023384759963206e-05,-0.7846344779999992,0.00024354494900064312,-2.3560549600000003,-2.0540783900359826e-05,1.5711757400000006,0.7860486500000001,0.04,0.04,-9.813499299999991,0.0016898428322719861,0.0011033714700020556,0.00021257111100054843,-0.012152233999228216,-0.0027890485400065427
0.2975,4.680529279962894e-05,-0.7846264589999992,0.0002495377745006486,-2.3560589800000002,-2.389381295036288e-05,1.5711816200000006,0.7860500750000001,0.04,0.04,-9.81341214999999,0.0016645532683441631,0.001122525585002073,0.0002176816155005531,-0.01220578695647993,-0.002850015320006598
0.3,4.3376737999569475e-05,-0.7846184399999991,0.000255530600000753,-2.3560630000000002,-2.7246842000421266e-05,1.5711875000000006,0.7860515000000002,0.04,0.04,-9.813324999999992,0.0016392637044156796,0.0011416797000042996,0.00022279212000055615,-0.01225933991373158,-0.0029109821000072107
0.3025,3.943183669956588e-05,-0.7846101689999991,0.00026242994300075924,-2.35606645,-3.110690825042478e-05,1.5711943850000007,0.7860532190000002,0.04,0.04,-9.813247749999991,0.0016079232795129061,0.0011810759400043354,0.00022788797700056077,-0.012312295101588771,-0.002977054235007271
0.305,3.548693539956229e-05,-0.7846018979999991,0.0002693292860007655,-2.3560699,-3.496697450042829e-05,1.5712012700000006,0.7860549380000001,0.04,0.04,-9.813170499999993,0.0015765828546101326,0.0012204721800043712,0.00023298383400056541,-0.012365250289445965,-0.003043126370007331
0.3075,3.15420340995587e-05,-0.7845936269999991,0.00027622862900077177,-2.3560733500000004,-3.882704075043181e-05,1.5712081550000008,0.7860566570000002,0.04,0.04,-9.813093249999993,0.0015452424297073592,0.001259868420004407,0.00023807969100057006,-0.012418205477303159,-0.003109198505007391
0.31,2.7597132799555105e-05,-0.784585355999999,0.0002831279720007781,-2.3560768000000003,-4.268710700043532e-05,1.5712150400000007,0.7860583760000002,0.04,0.04,-9.813015999999992,0.0015139020048045855,0.0012992646600044429,0.0002431755480005747,-0.01247116066516035,-0.003175270640007451
0.3125,2.3652231499551516e-05,-0.784577084999999,0.00029002731500078435,-2.35608025,-4.6547173250438837e-05,1.5712219250000008,0.7860600950000002,0.04,0.04,-9.812938749999992,0.001482561579901812,0.0013386609000044787,0.00024827140500057935,-0.012524115853017544,-0.003241342775007511
0.315,1.9707330199547924e-05,-0.784568813999999,0.0002969266580007906,-2.3560837,-5.040723950044235e-05,1.5712288100000007,0.7860618140000002,0.04,0.04,-9.812861499999991,0.0014512211549990385,0.0013780571400045147,0.000253367262000584,-0.012577071040874738,-0.0033074149100075717
0.3175,1.5576626499485067e-05,-0.784560432999999,0.00030415231700090103,-2.35608706,-5.444949440050399e-05,1.5712360150000009,0.7860636020000002,0.04,0.03999999975,-9.812762349999984,0.001415690698190138,0.0014169069000043181,0.0002584969520005944,-0.01262887232006153,-0.003375205100008146
0.32,1.1074317999496323e-05,-0.784551831999999,0.00031203060800088134,-2.3560902400000003,-5.8856126600492974e-05,1.5712438600000007,0.7860655280000002,0.04,0.039999999,-9.812619399999985,0.0013717801775733277,0.0014546637000042238,0.00026369430800058145,-0.012678365781908717,-0.003446431400007968
0.3225,6.572009499507579e-06,-0.784543230999999,0.00031990889900086164,-2.35609342,-6.326275880048195e-05,1.5712517050000008,0.7860674540000002,0.04,0.03999999825,-9.812476449999984,0.0013278696569565174,0.0014924205000041294,0.00026889166400056845,-0.012727859243755902,-0.00351765770000779
0.325,2.069700999518837e-06,-0.784534629999999,0.00032778719000084195,-2.3560966000000003,-6.766939100047094e-05,1.5712595500000008,0.7860693800000002,0.04,0.0399999975,-9.812333499999985,0.0012839591363397072,0.001530177300004035,0.00027408902000055545,-0.012777352705603089,-0.0035888840000076116
0.3275,-2.4326075004699084e-06,-0.784526028999999,0.00033566548100082225,-2.35609978,-7.207602320045992e-05,1.5712673950000007,0.7860713060000002,0.04,0.03999999675,-9.812190549999984,0.001240048615722897,0.0015679341000039407,0.00027928637600054245,-0.012826846167450275,-0.0036601103000074337
0.33,-6.934916000458649e-06,-0.7845174279999991,0.00034354377200080256,-2.3561029600000003,-7.648265540044891e-05,1.5712752400000007,0.7860732320000002,0.04,0.039999996,-9.812047599999985,0.0011961380951060869,0.0016056909000038463,0.00028448373200052945,-0.012876339629297462,-0.0037313366000072557
0.3325,-1.1437224500447393e-05,-0.7845088269999991,0.00035142206300078286,-2.35610614,-8.088928760043788e-05,1.5712830850000008,0.7860751580000002,0.04,0.03999999525,-9.811904649999986,0.0011522275744892765,0.001643447700003752,0.00028968108800051645,-0.012925833091144647,-0.0038025629000070778
0.335,-1.6338667600517326e-05,-0.7844999339999991,0.0003600016220009057,-2.35610921,-8.56889235005067e-05,1.571291640000001,0.7860772300000002,0.04,0.0399999955,-9.81179109999999,0.0010994685348064406,0.001689867690005147,0.0002952433060005826,-0.01297435509041433,-0.003877481060007785
0.3375,-2.1439678000539367e-05,-0.784490894999999,0.00036893181500094425,-2.356112225,-9.068506125052828e-05,1.571300550000001,0.7860793750000002,0.04,0.03999999625,-9.81169224999999,0.0010422852355925535,0.0017406192750053662,0.0003009879550006074,-0.01302239135839548,-0.0039542451500081165
0.34,-2.6540688400561412e-05,-0.784481855999999,0.0003778620080009828,-2.3561152400000003,-9.568119900054987e-05,1.571309460000001,0.7860815200000002,0.04,0.039999997,-9.811593399999989,0.0009851019363786664,0.0017913708600055857,0.00030673260400063227,-0.013070427626376627,-0.004031009240008448
0.3425,-3.1641698800583456e-05,-0.7844728169999989,0.00038679220100102144,-2.356118255,-0.00010067733675057146,1.571318370000001,0.7860836650000003,0.04,0.03999999775,-9.811494549999988,0.0009279186371647794,0.0018421224450058048,0.00031247725300065707,-0.013118463894357774,-0.00410777333000878
0.34500000000000003,-3.674270920060549e-05,-0.7844637779999989,0.00039572239400106,-2.35612127,-0.00010567347450059304,1.571327280000001,0.7860858100000002,0.04,0.0399999985,-9.811395699999988,0.0008707353379508923,0.0018928740300060243,0.00031822190200068187,-0.013166500162338923,-0.004184537420009112
0.34750000000000003,-4.184371960062754e-05,-0.7844547389999988,0.0004046525870010986,-2.3561242850000004,-0.00011066961225061463,1.5713361900000011,0.7860879550000003,0.04,0.03999999925,-9.811296849999987,0.0008135520387370053,0.0019436256150062435,0.0003239665510007067,-0.01321453643032007,-0.004261301510009443
0.35000000000000003,-4.69447300007311e-05,-0.7844456999999988,0.00041358278000128043,-2.3561273000000003,-0.00011566575000071633,1.5713451000000014,0.7860901000000003,0.04,0.04,-9.811197999999989,0.0007563687395216488,0.00199437720000686,0.00032971120000080086,-0.013262572698301106,-0.004338065600010437
0.3525,-5.26859395007362e-05,-0.7844362409999988,0.00042363804800128936,-2.3561302250000002,-0.00012129098550072132,1.5713551650000013,0.7860925000000003,0.03999999925,0.03999999925,-9.811112049999988,0.0006876465282314328,0.002048248155006908,0.00033600023500080645,-0.013309730123734537,-0.004420027970010509
0.355,-5.842714900074143e-05,-0.7844267819999988,0.00043369331600129856,-2.3561331500000002,-0.00012691622100072646,1.5713652300000014,0.7860949000000004,0.0399999985,0.0399999985,-9.811026099999989,0.0006189243169412151,0.002102119110006957,0.0003422892700008122,-0.013356887549167971,-0.004501990340010585
0.3575,-6.416835850074665e-05,-0.7844173229999988,0.0004437485840013077,-2.356136075,-0.00013254145650073157,1.5713752950000013,0.7860973000000003,0.03999999775,0.03999999775,-9.810940149999988,0.0005502021056509976,0.002155990065007006,0.0003485783050008179,-0.013404044974601403,-0.004583952710010659
0.36,-6.990956800075187e-05,-0.7844078639999987,0.00045380385200131685,-2.356139,-0.0001381666920007367,1.5713853600000014,0.7860997000000003,0.039999997,0.039999997,-9.810854199999989,0.00048147989436078003,0.002209861020007055,0.00035486734000082364,-0.013451202400034837,-0.004665915080010734
0.3625,-7.56507775007571e-05,-0.7843984049999988,0.000463859120001326,-2.356141925,-0.0001437919275007418,1.5713954250000013,0.7861021000000004,0.03999999625,0.03999999625,-9.810768249999988,0.00041275768307056244,0.002263731975007104,0.0003611563750008294,-0.01349835982546827,-0.004747877450010808
0.365,-8.139198700076234e-05,-0.7843889459999988,0.00047391438800133514,-2.35614485,-0.00014941716300074693,1.5714054900000012,0.7861045000000003,0.0399999955,0.0399999955,-9.81068229999999,0.0003440354717803449,0.002317602930007153,0.0003674454100008351,-0.013545517250901702,-0.004829839820010883
0.3675,-8.73604375008587e-05,-0.7843793079999987,0.00048436914300150453,-2.3561477650000002,-0.00015526600150084173,1.5714159550000015,0.7861070000000004,0.039999995,0.03999999525,-9.81059909999999,0.0002702345140165453,0.0023755796150088486,0.00037388673350090187,-0.01359237479046599,-0.004913616595011685
0.37,-9.378337000086455e-05,-0.7843693119999987,0.0004956228720015148,-2.3561506600000004,-0.00016156204600084747,1.5714272200000015,0.7861097000000004,0.039999995,0.039999996,-9.81052139999999,0.0001862760633116789,0.002441767760008909,0.00038063263400090803,-0.013638632558292348,-0.005001022180011765
0.3725,-0.00010020630250087039,-0.7843593159999986,0.000506876601001525,-2.356153555,-0.0001678580905008532,1.5714384850000014,0.7861124000000004,0.039999995,0.03999999675,-9.81044369999999,0.00010231761260681246,0.0025079559050089693,0.0003873785345009142,-0.013684890326118705,-0.005088427765011844
0.375,-0.00010662923500087625,-0.7843493199999987,0.0005181303300015352,-2.3561564500000003,-0.00017415413500085895,1.5714497500000015,0.7861151000000004,0.039999995,0.0399999975,-9.81036599999999,1.8359161901946024e-05,0.0025741440500090295,0.0003941244350009203,-0.01373114809394506,-0.005175833350011924
0.3775,-0.00011305216750088209,-0.7843393239999986,0.0005293840590015456,-2.356159345,-0.00018045017950086466,1.5714610150000015,0.7861178000000004,0.039999995,0.03999999825,-9.81028829999999,-6.559928880292044e-05,0.00264033219500909,0.00040087033550092647,-0.013777405861771418,-0.0052632389350120035
0.38,-0.00011947510000088793,-0.7843293279999987,0.0005406377880015558,-2.35616224,-0.0001867462240008704,1.5714722800000016,0.7861205000000003,0.039999995,0.039999999,-9.810210599999989,-0.00014955773950778685,0.00270652034000915,0.0004076162360009326,-0.013823663629597775,-0.005350644520012084
0.3825,-0.0001258980325008938,-0.7843193319999986,0.000551891517001566,-2.3561651350000004,-0.00019304226850087614,1.5714835450000015,0.7861232000000004,0.039999995,0.03999999975,-9.81013289999999,-0.00023351619021265332,0.0027727084850092108,0.00041436213650093874,-0.013869921397424132,-0.005438050105012163
0.385,-0.00013280314100100094,-0.7843089399999985,0.0005639930640017544,-2.35616801,-0.00019981238400098146,1.5714956300000018,0.7861261100000004,0.039999994500000004,0.04,-9.810061999999991,-0.0003268749918925247,0.00284165300000985,0.00042135554700099685,-0.013916010130203164,-0.005529007100012989
0.3875,-0.00013994933750100745,-0.7842983499999985,0.0005765185200017658,-2.356170875,-0.00020681953500098783,1.5715081250000018,0.7861291250000004,0.039999993750000004,0.04,-9.809994499999991,-0.000424933969056949,0.002911975700009914,0.00042847271250100335,-0.013962014345458585,-0.005621739800013073
0.39,-0.00014709553400101395,-0.7842877599999984,0.0005890439760017772,-2.3561737400000005,-0.00021382668600099423,1.5715206200000018,0.7861321400000004,0.039999993000000005,0.04,-9.809926999999991,-0.0005229929462213733,0.002982298400009978,0.00043558987800100985,-0.014008018560714007,-0.005714472500013158
0.3925,-0.00015424173050102046,-0.7842771699999985,0.0006015694320017885,-2.3561766050000004,-0.0002208338370010006,1.5715331150000018,0.7861351550000004,0.03999999225,0.04,-9.809859499999991,-0.0006210519233857976,0.003052621100010042,0.0004427070435010163,-0.014054022775969429,-0.005807205200013242
0.395,-0.00016138792700102697,-0.7842665799999985,0.0006140948880018,-2.3561794700000003,-0.00022784098800100698,1.5715456100000018,0.7861381700000004,0.0399999915,0.04,-9.809791999999991,-0.0007191109005502219,0.003122943800010106,0.0004498242090010228,-0.01410002699122485,-0.005899937900013326
0.3975,-0.00016853412350103345,-0.7842559899999985,0.0006266203440018113,-2.3561823350000006,-0.00023484813900101335,1.5715581050000018,0.7861411850000004,0.03999999075,0.04,-9.80972449999999,-0.000817169877714646,0.0031932665000101697,0.00045694137450102924,-0.014146031206480272,-0.005992670600013411
0.4,-0.00017568032000115125,-0.7842453999999983,0.0006391458000020185,-2.3561852000000005,-0.00024185529000112914,1.571570600000002,0.7861442000000004,0.03999999,0.04,-9.80965699999999,-0.0009152288548812946,0.003263589200010735,0.0004640585400010892,-0.014192035421735692,-0.00608540330001423
0.4025,-0.00018359124650115845,-0.7842341049999983,0.0006530161710020312,-2.3561880650000004,-0.0002496141675011362,1.5715844300000021,0.7861475300000005,0.0399999897,0.0399999985,-9.80959294999999,-0.0010285718832330627,0.003337353770010802,0.000471542799001096,-0.014238018123439639,-0.006183183905014319
0.405,-0.00019150217300116566,-0.7842228099999983,0.0006668865420020438,-2.3561909300000003,-0.00025737304500114325,1.571598260000002,0.7861508600000005,0.0399999894,0.039999997,-9.80952889999999,-0.001141914911584831,0.003411118340010869,0.0004790270580011028,-0.014284000825143585,-0.006280964510014408
0.40750000000000003,-0.00019941309950117285,-0.7842115149999983,0.0006807569130020565,-2.3561937950000003,-0.00026513192250115033,1.5716120900000021,0.7861541900000005,0.0399999891,0.0399999955,-9.80946484999999,-0.0012552579399365991,0.0034848829100109363,0.0004865113170011096,-0.014329983526847532,-0.006378745115014497
0.41000000000000003,-0.00020732402600118005,-0.7842002199999983,0.000694627284002069,-2.3561966600000006,-0.00027289080000115736,1.571625920000002,0.7861575200000005,0.0399999888,0.039999994,-9.80940079999999,-0.0013686009682883672,0.0035586474800110035,0.0004939955760011165,-0.014375966228551479,-0.006476525720014586
0.41250000000000003,-0.00021523495250118726,-0.7841889249999983,0.0007084976550020816,-2.3561995250000005,-0.00028064967750116444,1.5716397500000021,0.7861608500000006,0.0399999885,0.0399999925,-9.80933674999999,-0.0014819439966401355,0.0036324120500110706,0.0005014798350011232,-0.014421948930255425,-0.006574306325014675
0.41500000000000004,-0.00022314587900119446,-0.7841776299999983,0.0007223680260020943,-2.3562023900000004,-0.0002884085550011715,1.571653580000002,0.7861641800000005,0.0399999882,0.039999991,-9.80927269999999,-0.0015952870249919036,0.0037061766200111377,0.0005089640940011301,-0.014467931631959372,-0.006672086930014764
0.4175,-0.00023132547100131399,-0.7841660949999981,0.0007367110065023046,-2.3562051850000003,-0.0002964316840012891,1.5716679150000021,0.7861676235000006,0.039999988,0.03999999025,-9.809211649999991,-0.0017144128214764557,0.0037823488500122082,0.0005165702070011833,-0.01451406762935912,-0.0067717138250155745
0.42,-0.0002400423940012922,-0.7841540799999982,0.0007519992060022664,-2.35620784,-0.0003049833160012677,1.5716832600000021,0.7861712940000006,0.039999988,0.039999991,-9.80915659999999,-0.0018451041542186938,0.0038633364000120055,0.0005244200280011637,-0.014560510218150264,-0.0068750333000153156
0.4225,-0.0002487593170012704,-0.7841420649999982,0.0007672874055022281,-2.3562104950000005,-0.0003135349480012463,1.5716986050000021,0.7861749645000006,0.039999988,0.03999999175,-9.809101549999992,-0.0019757954869609323,0.003944323950011803,0.0005322698490011441,-0.014606952806941409,-0.0069783527750150575
0.425,-0.0002574762400012486,-0.7841300499999982,0.0007825756050021899,-2.3562131500000003,-0.00032208658000122496,1.5717139500000021,0.7861786350000005,0.039999988,0.039999992500000005,-9.809046499999992,-0.0021064868197031702,0.004025311500011601,0.0005401196700011244,-0.014653395395732552,-0.0070816722500147995
0.4275,-0.0002661931630012268,-0.7841180349999983,0.0007978638045021516,-2.356215805,-0.00033063821200120355,1.5717292950000021,0.7861823055000006,0.039999988,0.039999993250000004,-9.808991449999992,-0.0022371781524454086,0.0041062990500113986,0.0005479694910011048,-0.014699837984523696,-0.0071849917250145405
0.43,-0.000274910086001205,-0.7841060199999983,0.0008131520040021135,-2.35621846,-0.0003391898440011822,1.5717446400000021,0.7861859760000005,0.039999988,0.039999994000000004,-9.808936399999993,-0.002367869485187647,0.004187286600011196,0.0005558193120010852,-0.01474628057331484,-0.0072883112000142825
0.4325,-0.0002836270090011832,-0.7840940049999984,0.0008284402035020752,-2.3562211150000003,-0.00034774147600116084,1.571759985000002,0.7861896465000004,0.039999988,0.039999994750000004,-9.808881349999993,-0.002498560817929885,0.004268274150010994,0.0005636691330010655,-0.014792723162105984,-0.0073916306750140244
0.435,-0.0002929086710013178,-0.7840814749999983,0.0008447220070023118,-2.3562236100000002,-0.00035684848500129314,1.5717763000000022,0.7861935700000006,0.0399999876,0.039999994500000004,-9.808803099999988,-0.002640657220056085,0.004350777300011472,0.0005718141000011426,-0.014838181436068016,-0.007498366750014942
0.4375,-0.00030247270250135914,-0.7840686874999981,0.0008615006125023844,-2.3562260250000002,-0.00036623318250133364,1.5717931000000023,0.7861976200000006,0.039999987,0.039999993750000004,-9.808713249999988,-0.0027884561568708036,0.004434038250011832,0.0005801066400011784,-0.01488314755261579,-0.007606811125015411
0.44,-0.0003120367340014005,-0.7840558999999981,0.0008782792180024568,-2.35622844,-0.0003756178800013742,1.5718099000000023,0.7862016700000006,0.0399999864,0.039999993000000005,-9.808623399999988,-0.002936255093685522,0.004517299200012192,0.0005883991800012143,-0.014928113669163565,-0.007715255500015879
0.4425,-0.00032160076550144176,-0.784043112499998,0.0008950578235025294,-2.356230855,-0.00038500257750141476,1.5718267000000026,0.7862057200000006,0.0399999858,0.03999999225,-9.808533549999986,-0.003084054030500241,0.004600560150012552,0.0005966917200012501,-0.014973079785711338,-0.007823699875016348
0.445,-0.0003311647970014831,-0.784030324999998,0.0009118364290026019,-2.3562332700000006,-0.0003943872750014553,1.5718435000000026,0.7862097700000006,0.039999985200000004,0.0399999915,-9.808443699999986,-0.0032318529673149594,0.0046838211000129115,0.0006049842600012859,-0.015018045902259114,-0.007932144250016817
0.4475,-0.00034072882850152443,-0.784017537499998,0.0009286150345026744,-2.3562356850000006,-0.00040377197250149587,1.5718603000000027,0.7862138200000006,0.0399999846,0.03999999075,-9.808353849999985,-0.003379651904129678,0.004767082050013271,0.0006132768000013218,-0.015063012018806887,-0.008040588625017286
0.45,-0.00035029286000171116,-0.7840047499999978,0.0009453936400030027,-2.3562381000000006,-0.0004131566700016794,1.5718771000000031,0.7862178700000008,0.039999984,0.03999999,-9.808263999999985,-0.0035274508409476432,0.004850343000015932,0.0006215693400013959,-0.015107978135354529,-0.008149033000018607
0.4525,-0.00036074477900172063,-0.7839910969999978,0.0009637347190030194,-2.3562404700000004,-0.0004234147245016887,1.571895460000003,0.7862222845000008,0.0399999834,0.0399999897,-9.808173849999985,-0.003695082338554421,0.00494765764501602,0.0006300957090014037,-0.015152129810310649,-0.00826268845001871
0.455,-0.00037119669800173016,-0.7839774439999978,0.000982075798003036,-2.3562428400000006,-0.00043367277900169807,1.5719138200000031,0.7862266990000008,0.0399999828,0.0399999894,-9.808083699999985,-0.0038627138361611987,0.005044972290016109,0.0006386220780014115,-0.015196281485266768,-0.008376343900018814
0.4575,-0.0003816486170017397,-0.7839637909999977,0.0010004168770030527,-2.3562452100000004,-0.00044393083350170736,1.571932180000003,0.7862311135000007,0.0399999822,0.0399999891,-9.807993549999985,-0.004030345333767976,0.0051422869350161975,0.0006471484470014192,-0.015240433160222888,-0.008489999350018918
0.46,-0.00039210053600174916,-0.7839501379999977,0.0010187579560030694,-2.3562475800000002,-0.0004541888880017167,1.5719505400000031,0.7862355280000007,0.0399999816,0.0399999888,-9.807903399999985,-0.004197976831374754,0.005239601580016286,0.000655674816001427,-0.01528458483517901,-0.00860365480001902
0.4625,-0.0004025524550017587,-0.7839364849999977,0.0010370990350030862,-2.3562499500000005,-0.00046444694250172606,1.571968900000003,0.7862399425000007,0.039999981,0.0399999885,-9.807813249999985,-0.004365608328981531,0.005336916225016375,0.0006642011850014348,-0.01532873651013513,-0.008717310250019124
0.465,-0.0004130043740017682,-0.7839228319999977,0.001055440114003103,-2.3562523200000003,-0.0004747049970017354,1.571987260000003,0.7862443570000007,0.039999980399999996,0.0399999882,-9.807723099999984,-0.00453323982658831,0.005434230870016463,0.0006727275540014425,-0.015372888185091249,-0.008830965700019228
0.4675,-0.0004237657640019356,-0.7839088809999974,0.0010743258450033974,-2.356254675,-0.0004852675000019001,1.5720061600000035,0.7862488920000008,0.03999997985,0.0399999878,-9.80764269999999,-0.004707034304769627,0.005532135655016853,0.0006813852775015173,-0.015417058579631134,-0.00894634310002021
0.47000000000000003,-0.000435146096001946,-0.7838943339999975,0.0010943008800034157,-2.3562570000000003,-0.0004964389000019102,1.5720261400000035,0.7862536680000008,0.039999979399999996,0.0399999872,-9.807581799999989,-0.004893154744090606,0.005631220720016943,0.0006903057100015253,-0.01546126641333852,-0.009065164400020318
0.47250000000000003,-0.00044652642800195635,-0.7838797869999975,0.0011142759150034338,-2.3562593250000003,-0.0005076103000019205,1.5720461200000035,0.7862584440000008,0.03999997895,0.0399999866,-9.80752089999999,-0.005079275183411586,0.005730305785017034,0.0006992261425015335,-0.015505474247045905,-0.009183985700020426
0.47500000000000003,-0.0004579067600019667,-0.7838652399999975,0.001134250950003452,-2.3562616500000004,-0.0005187817000019306,1.5720661000000036,0.7862632200000008,0.0399999785,0.039999986,-9.80745999999999,-0.005265395622732564,0.005829390850017124,0.0007081465750015416,-0.01554968208075329,-0.009302807000020534
0.47750000000000004,-0.00046928709200197704,-0.7838506929999974,0.00115422598500347,-2.3562639750000005,-0.0005299531000019408,1.5720860800000036,0.7862679960000009,0.039999978049999996,0.0399999854,-9.807399099999989,-0.005451516062053545,0.005928475915017214,0.0007170670075015498,-0.015593889914460674,-0.009421628300020642
0.48,-0.00048066742400198716,-0.7838361459999974,0.001174201020003488,-2.3562663000000006,-0.0005411245000019507,1.5721060600000036,0.7862727720000008,0.0399999776,0.0399999848,-9.80733819999999,-0.00563763650137452,0.006027560980017301,0.0007259874400015576,-0.01563809774816806,-0.009540449600020748
0.4825,-0.0004920477560019976,-0.7838215989999974,0.001194176055003506,-2.3562686250000002,-0.0005522959000019608,1.5721260400000034,0.7862775480000008,0.03999997715,0.039999984200000005,-9.807277299999988,-0.005823756940695498,0.006126646045017392,0.0007349078725015658,-0.015682305581875444,-0.009659270900020856
0.485,-0.0005040737700021787,-0.7838064089999972,0.001215287660003825,-2.3562709200000005,-0.0005641025340021391,1.5721471700000038,0.7862826260000009,0.0399999766,0.039999983600000004,-9.807216699999989,-0.006024341611228267,0.006233293490019483,0.000744172145001665,-0.01572660300881452,-0.009781499900021865
0.4875,-0.00051642262500219,-0.7837908974999972,0.0012369675500038448,-2.3562732000000004,-0.0005762267850021502,1.5721688750000038,0.7862878550000009,0.039999976,0.039999983,-9.80715624999999,-0.006232158397361205,0.006343722125019584,0.0007536083375016735,-0.015770945232369413,-0.009905432750021979
0.49,-0.0005287714800022012,-0.7837753859999972,0.0012586474400038646,-2.3562754800000003,-0.0005883510360021612,1.5721905800000038,0.7862930840000009,0.0399999754,0.0399999824,-9.807095799999988,-0.006439975183494145,0.006454150760019685,0.0007630445300016821,-0.015815287455924303,-0.010029365600022091
0.4925,-0.0005411203350022125,-0.7837598744999972,0.0012803273300038844,-2.35627776,-0.0006004752870021723,1.572212285000004,0.7862983130000009,0.0399999748,0.0399999818,-9.807035349999989,-0.006647791969627084,0.006564579395019785,0.0007724807225016907,-0.015859629679479195,-0.010153298450022205
0.495,-0.0005534691900022237,-0.7837443629999972,0.0013020072200039042,-2.3562800400000006,-0.0006125995380021833,1.572233990000004,0.7863035420000009,0.0399999742,0.0399999812,-9.80697489999999,-0.006855608755760023,0.0066750080300198855,0.0007819169150016992,-0.015903971903034084,-0.010277231300022317
0.4975,-0.000565818045002235,-0.7837288514999973,0.001323687110003924,-2.3562823200000005,-0.0006247237890021944,1.572255695000004,0.786308771000001,0.0399999736,0.0399999806,-9.806914449999988,-0.007063425541892963,0.006785436665019986,0.0007913531075017078,-0.015948314126588974,-0.010401164150022431
0.5,-0.0005781669000024296,-0.783713339999997,0.0013453670000042664,-2.3562846000000004,-0.0006368480400023859,1.5722774000000042,0.786314000000001,0.039999973,0.03999998,-9.806853999999987,-0.007271242328029684,0.0068958653000204635,0.0008007893000017347,-0.015992656350143835,-0.010525097000023463
0.5025000000000001,-0.0005915240400024421,-0.783696781499997,0.0013688219600042884,-2.356286895,-0.0006499644240023981,1.5723009200000042,0.786319616000001,0.03999997255,0.039999979549999995,-9.806790099999988,-0.007499853847590113,0.0070083637100205685,0.0008103258950017436,-0.016036824230112746,-0.010654085900023584
0.505,-0.000604881180002454,-0.783680222999997,0.0013922769200043093,-2.3562891900000005,-0.0006630808080024098,1.5723244400000043,0.786325232000001,0.0399999721,0.0399999791,-9.806726199999988,-0.007728465367150531,0.007120862120020668,0.000819862490001752,-0.016080992110081654,-0.010783074800023698
0.5075000000000001,-0.0006182383200024664,-0.783663664499997,0.001415731880004331,-2.3562914850000003,-0.000676197192002422,1.5723479600000043,0.786330848000001,0.03999997165,0.03999997865,-9.806662299999989,-0.007957076886710959,0.007233360530020773,0.0008293990850017609,-0.016125159990050566,-0.010912063700023818
0.51,-0.0006315954600024783,-0.783647105999997,0.001439186840004352,-2.35629378,-0.0006893135760024337,1.5723714800000044,0.786336464000001,0.039999971200000005,0.0399999782,-9.806598399999988,-0.008185688406271378,0.007345858940020873,0.0008389356800017694,-0.016169327870019474,-0.011041052600023932
0.5125,-0.0006449526000024901,-0.7836305474999969,0.0014626418000043726,-2.3562960750000004,-0.0007024299600024453,1.5723950000000044,0.786342080000001,0.03999997075,0.03999997775,-9.806534499999989,-0.008414299925831795,0.007458357350020973,0.0008484722750017778,-0.016213495749988385,-0.011170041500024047
0.515,-0.0006583097400025026,-0.7836139889999969,0.0014860967600043946,-2.35629837,-0.0007155463440024576,1.5724185200000045,0.7863476960000011,0.0399999703,0.039999977299999996,-9.806470599999988,-0.008642911445392223,0.007570855760021079,0.0008580088700017867,-0.016257663629957297,-0.011299030400024166
0.5175,-0.0006720160680026953,-0.7835970524999967,0.001510166535004734,-2.35630066,-0.0007290063250026471,1.5724426500000048,0.7863534730000011,0.0399999698,0.039999976799999996,-9.80641044999999,-0.008879042696254693,0.007684631615021767,0.0008677281185018869,-0.01630194187165131,-0.01142968297502507
0.52,-0.0006864207720026596,-0.7835793599999967,0.001535465940004671,-2.3563029400000004,-0.0007431535000026121,1.5724680000000046,0.7863595720000012,0.0399999692,0.0399999762,-9.80635779999999,-0.009130213409708555,0.007800962360021479,0.000877812674001862,-0.016346440836795356,-0.011563662900024738
0.5225,-0.0007008254760026232,-0.7835616674999968,0.0015607653450046073,-2.3563052200000003,-0.0007573006750025764,1.5724933500000047,0.7863656710000011,0.0399999686,0.0399999756,-9.806305149999991,-0.009381384123162407,0.007917293105021185,0.0008878972295018365,-0.0163909398019394,-0.011697642825024399
0.525,-0.0007152301800025876,-0.7835439749999968,0.0015860647500045447,-2.3563075,-0.0007714478500025413,1.5725187000000047,0.7863717700000011,0.039999968,0.039999975,-9.80625249999999,-0.009632554836616269,0.008033623850020898,0.0008979817850018114,-0.016435438767083442,-0.011831622750024067
0.5275,-0.0007296348840025512,-0.7835262824999969,0.001611364155004481,-2.3563097800000006,-0.0007855950250025056,1.5725440500000045,0.7863778690000011,0.0399999674,0.0399999744,-9.806199849999992,-0.00988372555007012,0.008149954595020603,0.0009080663405017861,-0.016479937732227487,-0.011965602675023728
0.53,-0.0007440395880025155,-0.783508589999997,0.001636663560004418,-2.3563120600000005,-0.0007997422000024705,1.5725694000000046,0.7863839680000011,0.0399999668,0.0399999738,-9.806147199999991,-0.010134896263523983,0.008266285340020314,0.000918150896001761,-0.016524436697371532,-0.012099582600023397
0.5325,-0.0007584442920024792,-0.7834908974999969,0.0016619629650043543,-2.3563143400000004,-0.0008138893750024349,1.5725947500000044,0.7863900670000011,0.0399999662,0.039999973200000004,-9.80609454999999,-0.010386066976977835,0.008382616085020021,0.0009282354515017356,-0.016568935662515574,-0.01223356252502306
0.535,-0.0007735732200026982,-0.7834724899999967,0.0016885376600047398,-2.3563166300000007,-0.0008287492660026503,1.5726213800000048,0.7863964560000012,0.039999966,0.039999973,-9.80604349999999,-0.010654215887237035,0.00850054970002068,0.0009383816930017726,-0.01661373581738054,-0.012370822550024193
0.5375,-0.0007890642600027648,-0.7834537249999967,0.0017157500000048568,-2.3563189250000005,-0.0008439655150027157,1.572648650000005,0.7864029900000012,0.039999966,0.039999973,-9.805993249999991,-0.010930853895892349,0.00861928475002119,0.0009485587775018164,-0.016658686567105847,-0.01250972262502479
0.54,-0.0008045553000028321,-0.7834349599999966,0.0017429623400049752,-2.3563212200000008,-0.0008591817640027818,1.5726759200000051,0.7864095240000012,0.039999966,0.039999973,-9.80594299999999,-0.011207491904547676,0.008738019800021707,0.0009587358620018606,-0.016703637316831155,-0.012648622700025394
0.5425,-0.0008200463400028987,-0.7834161949999965,0.001770174680005092,-2.3563235150000006,-0.0008743980130028473,1.5727031900000052,0.7864160580000013,0.039999966,0.039999973,-9.805892749999991,-0.01148412991320299,0.008856754850022217,0.0009689129465019044,-0.016748588066556463,-0.01278752277502599
0.545,-0.000835537380002966,-0.7833974299999964,0.0017973870200052103,-2.3563258100000004,-0.0008896142620029133,1.5727304600000054,0.7864225920000012,0.039999966,0.039999973,-9.80584249999999,-0.011760767921858317,0.008975489900022733,0.0009790900310019486,-0.016793538816281775,-0.012926422850026594
0.5475,-0.0008510284200030326,-0.7833786649999963,0.0018245993600053273,-2.3563281050000007,-0.0009048305110029788,1.5727577300000055,0.7864291260000013,0.039999966,0.039999973,-9.80579224999999,-0.01203740593051363,0.009094224950023244,0.0009892671155019924,-0.016838489566007083,-0.013065322925027191
0.55,-0.0008665194600033249,-0.783359899999996,0.0018518117000058418,-2.3563304000000005,-0.0009200467600032664,1.5727850000000059,0.7864356600000014,0.039999966,0.039999973,-9.80574199999999,-0.012314043939172922,0.009212960000027802,0.0009994442000021114,-0.016883440315732433,-0.013204223000028764
0.5525,-0.0008831350860032829,-0.783339897499996,0.001881004655005768,-2.3563327550000004,-0.0009363699010032252,1.572814295000006,0.7864426785000014,0.0399999651,0.03999997255,-9.80568634999999,-0.012610494811146393,0.009351898775027451,0.0010099955900020848,-0.016928580496469097,-0.013347970475028401
0.555,-0.0008997507120032418,-0.7833198949999961,0.001910197610005696,-2.3563351100000007,-0.0009526930420031847,1.5728435900000057,0.7864496970000013,0.0399999642,0.0399999721,-9.80563069999999,-0.01290694568311988,0.009490837550027107,0.0010205469800020587,-0.016973720677205765,-0.013491717950028046
0.5575,-0.0009163663380031998,-0.7832998924999961,0.0019393905650056222,-2.3563374650000006,-0.0009690161830031435,1.5728728850000058,0.7864567155000014,0.0399999633,0.03999997165,-9.80557504999999,-0.013203396555093352,0.009629776325026757,0.001031098370002032,-0.017018860857942433,-0.013635465425027683
0.56,-0.0009329819640031586,-0.7832798899999962,0.0019685835200055498,-2.3563398200000005,-0.000985339324003103,1.5729021800000056,0.7864637340000014,0.0399999624,0.039999971200000005,-9.805519399999989,-0.013499847427066837,0.009768715100026413,0.0010416497600020057,-0.0170640010386791,-0.013779212900027326
0.5625,-0.0009495975900031167,-0.7832598874999962,0.001997776475005476,-2.3563421750000004,-0.0010016624650030618,1.5729314750000054,0.7864707525000013,0.0399999615,0.03999997075,-9.805463749999989,-0.01379629829904031,0.009907653875026063,0.0010522011500019792,-0.017109141219415768,-0.013922960375026964
0.5650000000000001,-0.0009662132160030755,-0.7832398849999963,0.002026969430005404,-2.3563445300000003,-0.0010179856060030215,1.5729607700000054,0.7864777710000014,0.0399999606,0.0399999703,-9.805408099999989,-0.014092749171013795,0.010046592650025717,0.001062752540001953,-0.017154281400152436,-0.014066707850026608
0.5675,-0.0009832163300032863,-0.783219487499996,0.0020568448550057753,-2.3563468950000006,-0.0010346901000032288,1.5729907500000058,0.7864849505000014,0.03999996,0.03999997,-9.805357599999992,-0.0143984566443267,0.010183710275024674,0.0010733717900019881,-0.01719966027886521,-0.014212045525027455
0.5700000000000001,-0.0010009944200033635,-0.7831982999999959,0.0020880852200059106,-2.3563492800000003,-0.0010521573000033047,1.573022100000006,0.7864924520000015,0.03999996,0.03999997,-9.805317399999993,-0.014722677320303204,0.010317185600025253,0.0010841267600020348,-0.017245516553529815,-0.0143605636000281
0.5725,-0.00101877251000344,-0.7831771124999959,0.002119325585006045,-2.3563516650000005,-0.0010696245000033798,1.573053450000006,0.7864999535000015,0.03999996,0.03999997,-9.805277199999992,-0.015046897996279692,0.010450660925025827,0.001094881730002081,-0.01729137282819442,-0.014509081675028738
0.5750000000000001,-0.0010365506000035172,-0.7831559249999958,0.0021505659500061806,-2.3563540500000006,-0.0010870917000034557,1.5730848000000062,0.7865074550000015,0.03999996,0.03999997,-9.805236999999993,-0.015371118672256195,0.010584136250026407,0.0011056367000021278,-0.017337229102859023,-0.014657599750029383
0.5775,-0.0010543286900035938,-0.7831347374999957,0.002181806315006315,-2.3563564350000004,-0.001104558900003531,1.5731161500000064,0.7865149565000016,0.03999996,0.03999997,-9.805196799999992,-0.015695339348232685,0.010717611575026981,0.001116391670002174,-0.017383085377523623,-0.01480611782503002
0.58,-0.0010721067800036701,-0.7831135499999956,0.0022130466800064494,-2.3563588200000005,-0.001122026100003606,1.5731475000000064,0.7865224580000015,0.03999996,0.03999997,-9.805156599999993,-0.01601956002420917,0.010851086900027555,0.0011271466400022202,-0.017428941652188227,-0.01495463590003066
0.5825,-0.0010898848700037474,-0.7830923624999955,0.0022442870450065846,-2.3563612050000002,-0.001139493300003682,1.5731788500000066,0.7865299595000016,0.03999996,0.03999997,-9.805116399999992,-0.016343780700185676,0.010984562225028135,0.0011379016100022668,-0.01747479792685283,-0.015103153975031305
0.585,-0.0011084626800040387,-0.7830703399999952,0.002276936010007098,-2.35636363,-0.0011577476100039685,1.573211590000007,0.7865378010000017,0.0399999598,0.039999969600000004,-9.805065199999989,-0.016684722155406884,0.011126754300031187,0.001148870450002357,-0.017520674876878486,-0.015254799200032605
0.5875,-0.0011274403500040563,-0.7830478999999952,0.0023102892750071287,-2.3563660750000004,-0.0011763954750039858,1.573245025000007,0.7865458125000017,0.0399999595,0.039999969,-9.805008499999989,-0.017034024000242485,0.011273304750031323,0.0011599462250023672,-0.01756656216458466,-0.015408008000032747
0.59,-0.0011464180200040732,-0.7830254599999952,0.0023436425400071583,-2.35636852,-0.0011950433400040024,1.5732784600000072,0.7865538240000017,0.039999959200000004,0.0399999684,-9.804951799999989,-0.01738332584507807,0.011419855200031455,0.001171022000002377,-0.01761244945229083,-0.015561216800032883
0.5925,-0.0011653956900040908,-0.7830030199999951,0.0023769958050071896,-2.3563709650000004,-0.0012136912050040199,1.5733118950000071,0.7865618355000017,0.0399999589,0.0399999678,-9.804895099999987,-0.017732627689913672,0.011566405650031591,0.0011820977750023874,-0.017658336739997,-0.015714425600033027
0.595,-0.0011843733600041078,-0.7829805799999952,0.002410349070007219,-2.3563734100000002,-0.0012323390700040363,1.573345330000007,0.7865698470000018,0.0399999586,0.0399999672,-9.804838399999987,-0.018081929534749255,0.01171295610003172,0.0011931735500023974,-0.01770422402770317,-0.01586763440003316
0.5975,-0.0012033510300041253,-0.7829581399999951,0.00244370233500725,-2.3563758550000005,-0.0012509869350040537,1.5733787650000073,0.7865778585000017,0.0399999583,0.0399999666,-9.804781699999987,-0.01843123137958486,0.011859506550031857,0.0012042493250024077,-0.017750111315409343,-0.016020843200033306
0.6,-0.001222328700004412,-0.7829356999999948,0.0024770556000077554,-2.3563783000000003,-0.001269634800004336,1.5734122000000077,0.7865858700000019,0.039999958,0.039999966,-9.80472499999999,-0.018780533224426514,0.012006057000033602,0.0012153251000024594,-0.017795998603115655,-0.016174052000034474
0.6025,-0.0012425424750044309,-0.7829118874999947,0.0025125866100077885,-2.3563808350000004,-0.0012894995850043544,1.5734478100000078,0.7865944170000019,0.039999958,0.0399999666,-9.80468059999999,-0.019157644547604682,0.012159998550033744,0.00122659305500247,-0.0178425176069242,-0.01633199135003462
0.605,-0.0012627562500044489,-0.7828880749999948,0.0025481176200078197,-2.3563833700000005,-0.0013093643700043721,1.5734834200000078,0.7866029640000018,0.039999958,0.0399999672,-9.80463619999999,-0.01953475587078283,0.012313940100033881,0.00123786101000248,-0.01788903661073275,-0.016489930700034763
0.6075,-0.0012829700250044677,-0.7828642624999947,0.002583648630007853,-2.3563859050000007,-0.0013292291550043905,1.573519030000008,0.7866115110000019,0.039999958,0.0399999678,-9.80459179999999,-0.019911867193960996,0.012467881650034025,0.0012491289650024904,-0.0179355556145413,-0.01664787005003491
0.61,-0.0013031838000044857,-0.7828404499999947,0.0026191796400078845,-2.3563884400000004,-0.0013490939400044083,1.5735546400000078,0.7866200580000019,0.039999958,0.0399999684,-9.80454739999999,-0.020288978517139147,0.012621823200034162,0.0012603969200025004,-0.017982074618349844,-0.016805809400035048
0.6125,-0.0013233975750045045,-0.7828166374999947,0.002654710650007918,-2.3563909750000005,-0.0013689587250044267,1.5735902500000079,0.7866286050000019,0.039999958,0.039999969,-9.80450299999999,-0.020666089840317314,0.012775764750034304,0.001271664875002511,-0.018028593622158393,-0.016963748750035194
0.615,-0.0013436113500045225,-0.7827928249999947,0.0026902416600079492,-2.3563935100000006,-0.0013888235100044445,1.573625860000008,0.786637152000002,0.039999958,0.039999969600000004,-9.804458599999991,-0.021043201163495465,0.012929706300034441,0.001282932830002521,-0.01807511262596694,-0.017121688100035334
0.6175,-0.001364249195004827,-0.7827685694999944,0.002726519675008486,-2.356396090000001,-0.0014091057400047442,1.5736622250000085,0.7866458810000021,0.0399999578,0.0399999698,-9.804417499999992,-0.021428632643164077,0.013083813050034697,0.0012942629850025734,-0.018121964205067103,-0.017281090650036468
0.62,-0.0013857351800048462,-0.7827434279999944,0.0027642917000085193,-2.3563987600000007,-0.001430222860004763,1.5737001000000086,0.7866549740000021,0.0399999572,0.0399999692,-9.804382999999993,-0.02183070443579677,0.013238250200034832,0.0013057175400025835,-0.018169480934749817,-0.017443419600036612
0.6225,-0.0014072211650048663,-0.7827182864999943,0.002802063725008555,-2.3564014300000005,-0.0014513399800047827,1.5737379750000084,0.786664067000002,0.0399999566,0.0399999686,-9.804348499999993,-0.02223277622842948,0.013392687350034977,0.0013171720950025943,-0.01821699766443254,-0.017605748550036764
0.625,-0.0014287071500048852,-0.7826931449999943,0.0028398357500085884,-2.3564041000000007,-0.0014724571000048015,1.5737758500000085,0.7866731600000021,0.039999955999999996,0.039999968,-9.804313999999993,-0.022634848021062172,0.013547124500035115,0.0013286266500026043,-0.018264514394115257,-0.017768077500036908
0.6275000000000001,-0.0014501931350049053,-0.7826680034999943,0.0028776077750086236,-2.3564067700000004,-0.0014935742200048211,1.5738137250000086,0.786682253000002,0.0399999554,0.0399999674,-9.804279499999993,-0.023036919813694882,0.01370156165003526,0.001340081205002615,-0.018312031123797975,-0.01793040645003706
0.63,-0.0014716791200049244,-0.7826428619999942,0.002915379800008657,-2.3564094400000006,-0.00151469134000484,1.5738516000000087,0.786691346000002,0.0399999548,0.0399999668,-9.804244999999993,-0.02343899160632757,0.013855998800035395,0.0013515357600026253,-0.018359547853480693,-0.018092735400037207
0.6325000000000001,-0.0014931651050049445,-0.7826177204999942,0.0029531518250086927,-2.3564121100000004,-0.0015358084600048596,1.5738894750000088,0.7867004390000021,0.0399999542,0.0399999662,-9.804210499999993,-0.02384106339896028,0.01401043595003554,0.0013629903150026359,-0.01840706458316341,-0.018255064350037358
0.635,-0.0015155227600052656,-0.7825916159999939,0.002992459720009258,-2.3564148700000005,-0.0015577836300051757,1.5739289300000092,0.7867098890000022,0.039999954,0.039999966,-9.80416919999999,-0.02426315527419288,0.014171830400038088,0.0013745037200026664,-0.018454835191380067,-0.018420342800038524
0.6375000000000001,-0.001538316250005287,-0.7825650299999939,0.0030325355500092958,-2.3564176750000003,-0.0015801878250051966,1.5739691750000093,0.7867195175000022,0.039999954,0.039999966,-9.80412449999999,-0.024695257190715074,0.014336703500038241,0.0013860465500026772,-0.01850273273886356,-0.018587096000038678
0.64,-0.001561109740005307,-0.7825384439999938,0.003072611380009331,-2.3564204800000006,-0.0016025920200052164,1.5740094200000094,0.7867291460000022,0.039999954,0.039999966,-9.80407979999999,-0.02512735910723725,0.014501576600038387,0.0013975893800026876,-0.018550630286347052,-0.018753849200038825
0.6425,-0.0015839032300053273,-0.7825118579999938,0.003112687210009367,-2.3564232850000004,-0.0016249962150052364,1.5740496650000095,0.7867387745000022,0.039999954,0.039999966,-9.80403509999999,-0.025559461023759424,0.014666449700038534,0.0014091322100026977,-0.018598527833830546,-0.018920602400038976
0.645,-0.0016066967200053487,-0.7824852719999937,0.003152763040009404,-2.3564260900000007,-0.0016474004100052572,1.5740899100000094,0.7867484030000023,0.039999954,0.039999966,-9.80399039999999,-0.025991562940281616,0.014831322800038687,0.0014206750400027085,-0.01864642538131404,-0.01908735560003913
0.6475,-0.001629490210005369,-0.7824586859999937,0.00319283887000944,-2.3564288950000005,-0.0016698046050052772,1.5741301550000095,0.7867580315000022,0.039999954,0.039999966,-9.80394569999999,-0.02642366485680379,0.014996195900038834,0.0014322178700027187,-0.018694322928797535,-0.019254108800039277
0.65,-0.0016522837000057075,-0.7824320999999933,0.0032329147000100364,-2.356431700000001,-0.0016922088000056105,1.57417040000001,0.7867676600000024,0.039999954,0.039999966,-9.803900999999994,-0.026855766773333362,0.015161069000038219,0.0014437607000027902,-0.018742220476281265,-0.019420862000040458
0.6525,-0.001676419450005729,-0.7824040499999934,0.0032753556250100743,-2.3564345650000007,-0.0017159344650056316,1.5742129850000102,0.7867778510000024,0.039999954,0.039999966,-9.803876699999995,-0.027319066412856807,0.015322690250038363,0.0014555602400028007,-0.018791121896367925,-0.019591947800040612
0.655,-0.0017005552000057516,-0.7823759999999933,0.003317796550010114,-2.3564374300000006,-0.0017396601300056539,1.5742555700000103,0.7867880420000024,0.039999954,0.039999966,-9.803852399999995,-0.027782366052380273,0.015484311500038513,0.0014673597800028118,-0.018840023316454586,-0.01976303360004077
0.6575,-0.0017246909500057731,-0.7823479499999932,0.0033602374750101513,-2.3564402950000005,-0.001763385795005675,1.5742981550000101,0.7867982330000024,0.039999954,0.039999966,-9.803828099999993,-0.02824566569190372,0.015645932750038657,0.0014791593200028223,-0.018888924736541243,-0.01993411940004092
0.66,-0.0017488267000057955,-0.7823198999999933,0.003402678400010191,-2.356443160000001,-0.001787111460005697,1.5743407400000102,0.7868084240000024,0.039999954,0.039999966,-9.803803799999994,-0.028708965331427187,0.015807554000038807,0.0014909588600028332,-0.018937826156627903,-0.020105205200041082
0.6625,-0.001772962450005817,-0.7822918499999932,0.0034451193250102288,-2.3564460250000008,-0.001810837125005718,1.5743833250000103,0.7868186150000024,0.039999954,0.039999966,-9.803779499999994,-0.029172264970950636,0.015969175250038953,0.0015027584000028437,-0.01898672757671456,-0.020276291000041233
0.665,-0.0017970982000058396,-0.7822637999999932,0.0034875602500102684,-2.3564488900000007,-0.0018345627900057402,1.5744259100000102,0.7868288060000025,0.039999954,0.039999966,-9.803755199999994,-0.0296355646104741,0.016130796500039103,0.0015145579400028548,-0.019035628996801224,-0.020447376800041394
0.6675,-0.001821692715006195,-0.7822352474999928,0.003530809590010895,-2.356451755000001,-0.0018587402200060904,1.574469310000011,0.7868391950000025,0.039999954,0.03999996635,-9.803722999999989,-0.030107808485746155,0.016298759950043866,0.0015264087000029026,-0.019084684364509576,-0.02062000780004267
0.67,-0.0018472047600062188,-0.7822056899999928,0.0035756757600109365,-2.356454620000001,-0.0018838211800061137,1.574514340000011,0.7868499800000026,0.039999954,0.039999967399999996,-9.803674999999988,-0.030597940832495917,0.016479407800044036,0.0015383619000029138,-0.019134047627460994,-0.020795729200042835
0.6725,-0.0018727168050062415,-0.7821761324999927,0.0036205419300109763,-2.356457485000001,-0.001908902140006136,1.5745593700000111,0.7868607650000026,0.039999954,0.03999996845,-9.803626999999988,-0.031088073179245657,0.016660055650044196,0.0015503151000029244,-0.01918341089041241,-0.02097145060004299
0.675,-0.0018982288500062655,-0.7821465749999927,0.0036654081000110183,-2.3564603500000008,-0.0019339831000061594,1.574604400000011,0.7868715500000026,0.039999954,0.0399999695,-9.803578999999988,-0.03157820552599542,0.016840703500044366,0.0015622683000029356,-0.019232774153363823,-0.021147172000043155
0.6775,-0.001923740895006288,-0.7821170174999927,0.003710274270011058,-2.3564632150000007,-0.001959064060006182,1.5746494300000111,0.7868823350000026,0.039999954,0.03999997055,-9.803530999999989,-0.032068337872745156,0.017021351350044525,0.0015742215000029462,-0.019282137416315237,-0.02132289340004331
0.68,-0.0019492529400063118,-0.7820874599999927,0.0037551404400110997,-2.3564660800000006,-0.001984145020006205,1.5746944600000112,0.7868931200000027,0.039999954,0.0399999716,-9.803482999999988,-0.03255847021949492,0.01720199920004469,0.0015861747000029572,-0.01933150067926665,-0.021498614800043475
0.6825,-0.0019747649850063347,-0.7820579024999926,0.0038000066100111396,-2.356468945000001,-0.0020092259800062275,1.5747394900000113,0.7869039050000026,0.039999954,0.03999997265,-9.803434999999988,-0.033048602566244666,0.01738264705004485,0.001598127900002968,-0.019380863942218066,-0.02167433620004363
0.685,-0.0020012168300067097,-0.7820273009999923,0.0038465287400118006,-2.356471810000001,-0.0020352321600065966,1.574786160000012,0.7869150800000029,0.0399999536,0.039999973,-9.803383499999986,-0.03355826139463015,0.01756441590004544,0.0016100938900029838,-0.019430362992000922,-0.02185263990004476
0.6875,-0.0020281385750067337,-0.7819961774999922,0.003893878850011843,-2.3564746750000007,-0.0020617009500066203,1.574833650000012,0.7869264500000028,0.039999953,0.039999973,-9.803330249999986,-0.03407768346382254,0.017746745250045604,0.0016220662750029945,-0.01947992993519942,-0.02203223475004492
0.6900000000000001,-0.0020550603200067586,-0.7819650539999922,0.0039412289600118874,-2.3564775400000006,-0.002088169740006645,1.574881140000012,0.7869378200000029,0.0399999524,0.039999973,-9.803276999999985,-0.03459710553301496,0.017929074600045773,0.0016340386600030056,-0.019529496878397924,-0.022211829600045085
0.6925,-0.0020819820650067825,-0.7819339304999922,0.003988579070011929,-2.3564804050000006,-0.002114638530006668,1.574928630000012,0.7869491900000029,0.039999951799999996,0.039999973,-9.803223749999987,-0.035116527602207355,0.018111403950045932,0.0016460110450030162,-0.019579063821596424,-0.022391424450045248
0.6950000000000001,-0.002108903810006808,-0.7819028069999922,0.004035929180011973,-2.3564832700000005,-0.002141107320006693,1.574976120000012,0.7869605600000029,0.0399999512,0.039999973,-9.803170499999986,-0.035635949671399776,0.018293733300046106,0.0016579834300030274,-0.019628630764794923,-0.022571019300045413
0.6975,-0.0021358255550068318,-0.7818716834999921,0.004083279290012016,-2.3564861350000004,-0.0021675761100067165,1.5750236100000121,0.7869719300000029,0.0399999506,0.039999973,-9.803117249999985,-0.03615537174059217,0.018476062650046265,0.001669955815003038,-0.019678197707993422,-0.022750614150045572
0.7000000000000001,-0.002162747300007224,-0.7818405599999917,0.004130629400012707,-2.3564890000000007,-0.0021940449000071027,1.5750711000000126,0.786983300000003,0.03999995,0.039999973,-9.803063999999987,-0.0366747938097935,0.018658392000048613,0.001681928200003079,-0.019727764651192047,-0.022930209000046897
0.7025,-0.002191111355007346,-0.7818078209999916,0.004180521695012922,-2.3564918950000004,-0.0022219335900072225,1.5751211550000128,0.7869952850000032,0.03999995,0.03999997525,-9.803016749999987,-0.03722921144231608,0.01884926385004943,0.001694018335003131,-0.019777820259345602,-0.023114338050047686
0.705,-0.002219475410007468,-0.7817750819999914,0.004230413990013136,-2.3564947900000006,-0.0022498222800073427,1.5751712100000133,0.7870072700000031,0.03999995,0.0399999775,-9.802969499999987,-0.03778362907483865,0.019040135700050254,0.001706108470003183,-0.019827875867499158,-0.023298467100048476
0.7075,-0.002247839465007591,-0.7817423429999912,0.0042803062850133525,-2.356497685000001,-0.0022777109700074637,1.5752212650000135,0.7870192550000032,0.03999995,0.039999979750000005,-9.802922249999988,-0.03833804670736125,0.019231007550051082,0.0017181986050032357,-0.019877931475652717,-0.023482596150049277
0.71,-0.0022762035200077128,-0.7817096039999911,0.004330198580013567,-2.3565005800000005,-0.0023055996600075835,1.5752713200000137,0.7870312400000032,0.03999995,0.039999982,-9.802874999999988,-0.03889246433988382,0.0194218794000519,0.0017302887400032876,-0.019927987083806272,-0.02366672520005007
0.7125,-0.002304567575007836,-0.781676864999991,0.004380090875013783,-2.3565034750000007,-0.002333488350007705,1.575321375000014,0.7870432250000033,0.03999995,0.03999998425,-9.802827749999986,-0.039446881972406415,0.01961275125005273,0.0017423788750033401,-0.019978042691959828,-0.023850854250050867
0.715,-0.002332931630007958,-0.7816441259999908,0.004429983170013998,-2.3565063700000004,-0.0023613770400078248,1.5753714300000141,0.7870552100000033,0.03999995,0.0399999865,-9.802780499999987,-0.040001299604928986,0.01980362310005355,0.001754469010003392,-0.020028098300113383,-0.02403498330005166
0.7175,-0.0023617871400084334,-0.7816108464999902,0.004480741525014835,-2.3565092750000005,-0.0023897492600082927,1.575422360000015,0.7870674050000035,0.0399999502,0.0399999886,-9.802732949999987,-0.040564789064392835,0.019995870450055114,0.0017665763450034316,-0.020078254956766257,-0.02422025395005301
0.72,-0.002391625560008358,-0.7815764859999904,0.004533232000014703,-2.3565122000000005,-0.0024190885400082185,1.5754750400000148,0.7870800200000035,0.039999950799999996,0.0399999904,-9.802684799999987,-0.041146422177716024,0.02019086880005462,0.001778718080003401,-0.020128613710417506,-0.024407807800052535
0.7225,-0.002421463980008284,-0.7815421254999905,0.004585722475014573,-2.3565151250000005,-0.0024484278200081456,1.5755277200000146,0.7870926350000035,0.0399999514,0.0399999922,-9.802636649999988,-0.04172805529103923,0.020385867150054138,0.001790859815003371,-0.020178972464068756,-0.02459536165005207
0.725,-0.002451302400008209,-0.7815077649999905,0.0046382129500144404,-2.3565180500000005,-0.0024777671000080718,1.5755804000000144,0.7871052500000034,0.039999952,0.039999994000000004,-9.802588499999988,-0.04230968840436242,0.020580865500053648,0.0018030015500033402,-0.020229331217720005,-0.024782915500051596
0.7275,-0.002481140820008135,-0.7814734044999907,0.00469070342501431,-2.3565209750000005,-0.002507106380007999,1.5756330800000142,0.7871178650000035,0.0399999526,0.0399999958,-9.802540349999987,-0.04289132151768563,0.020775863850053165,0.0018151432850033102,-0.020279689971371254,-0.024970469350051133
0.73,-0.00251097924000806,-0.7814390439999908,0.004743193900014178,-2.3565239000000004,-0.002536445660007925,1.5756857600000143,0.7871304800000034,0.0399999532,0.039999997600000003,-9.802492199999987,-0.04347295463100881,0.020970862200052672,0.0018272850200032795,-0.0203300487250225,-0.025158023200050658
0.7325,-0.0025408176600079857,-0.7814046834999908,0.004795684375014048,-2.3565268250000004,-0.002565784940007852,1.575738440000014,0.7871430950000033,0.039999953799999995,0.0399999994,-9.802444049999988,-0.04405458774433202,0.02116586055005219,0.0018394267550032495,-0.020380407478673753,-0.025345577050050194
0.735,-0.002571659820008381,-0.7813692069999905,0.0048499441800147446,-2.3565298000000006,-0.0025961107000082406,1.5757929000000148,0.7871561300000035,0.0399999536,0.04,-9.802397899999988,-0.044658862799570626,0.021368000400055005,0.001851557420003242,-0.020430939272059554,-0.025535615800051144
0.7375,-0.00260300385000841,-0.7813331724999903,0.004905088650014796,-2.3565328000000005,-0.0026269297000082693,1.5758482500000148,0.7871693750000036,0.039999953,0.04,-9.802352749999988,-0.04527445882575338,0.021573711000055198,0.0018636825500032534,-0.020481557585312532,-0.025726897000051322
0.74,-0.002634347880008438,-0.7812971379999903,0.004960233120014845,-2.3565358000000005,-0.0026577487000082967,1.5759036000000148,0.7871826200000036,0.0399999524,0.04,-9.802307599999988,-0.045890054851936105,0.02177942160005538,0.0018758076800032642,-0.020532175898565506,-0.025918178200051493
0.7425,-0.002665691910008467,-0.7812611034999902,0.005015377590014896,-2.356538800000001,-0.0026885677000083254,1.5759589500000148,0.7871958650000036,0.039999951799999996,0.04,-9.802262449999988,-0.04650565087811886,0.02198513220005557,0.0018879328100032755,-0.020582794211818484,-0.02610945940005167
0.745,-0.002697035940008495,-0.7812250689999902,0.005070522060014945,-2.356541800000001,-0.002719386700008353,1.576014300000015,0.7872091100000036,0.0399999512,0.04,-9.802217299999988,-0.047121246904301584,0.022190842800055753,0.0019000579400032863,-0.02063341252507146,-0.02630074060005184
0.7475,-0.0027283799700085244,-0.7811890344999902,0.005125666530014996,-2.356544800000001,-0.0027502057000083815,1.576069650000015,0.7872223550000036,0.0399999506,0.04,-9.802172149999988,-0.04773684293048434,0.022396553400055946,0.0019121830700032977,-0.020684030838324437,-0.02649202180005202
0.75,-0.002759724000008971,-0.7811529999999897,0.005180811000015785,-2.356547800000001,-0.0027810247000088213,1.5761250000000158,0.7872356000000038,0.03999995,0.04,-9.802126999999988,-0.04835243895667631,0.022602264000058,0.0019243082000032891,-0.02073464915157751,-0.026683303000053206
0.7525000000000001,-0.002792604150009002,-0.7811152599999897,0.005238663390015838,-2.3565508300000007,-0.0028133564200088514,1.5761830050000158,0.7872495140000039,0.03999995,0.04,-9.802082449999988,-0.04900192972290415,0.022814830200058197,0.0019363628450033005,-0.02078563207761844,-0.026878306450053388
0.755,-0.002825484300009031,-0.7810775199999896,0.00529651578001589,-2.356553860000001,-0.0028456881400088802,1.576241010000016,0.7872634280000038,0.03999995,0.04,-9.802037899999988,-0.049651420489131966,0.023027396400058384,0.0019484174900033112,-0.020836615003659374,-0.02707330990005356
0.7575000000000001,-0.0028583644500090617,-0.7810397799999895,0.005354368170015944,-2.356556890000001,-0.0028780198600089103,1.576299015000016,0.7872773420000039,0.03999995,0.04,-9.801993349999988,-0.050300911255359806,0.023239962600058586,0.0019604721350033223,-0.020887597929700307,-0.027268313350053742
0.76,-0.002891244600009091,-0.7810020399999895,0.005412220560015995,-2.356559920000001,-0.002910351580008939,1.576357020000016,0.7872912560000038,0.03999995,0.04,-9.801948799999987,-0.05095040202158762,0.023452528800058773,0.0019725267800033332,-0.020938580855741237,-0.027463316800053917
0.7625000000000001,-0.0029241247500091214,-0.7809642999999895,0.00547007295001605,-2.356562950000001,-0.0029426833000089692,1.576415025000016,0.7873051700000039,0.03999995,0.04,-9.801904249999989,-0.05159989278781546,0.02366509500005897,0.001984581425003344,-0.02098956378178217,-0.0276583202500541
0.765,-0.0029570049000091506,-0.7809265599999895,0.005527925340016101,-2.356565980000001,-0.002975015020008998,1.576473030000016,0.7873190840000038,0.03999995,0.04,-9.801859699999989,-0.05224938355404327,0.02387766120005916,0.001996636070003355,-0.0210405467078231,-0.02785332370005427
0.7675000000000001,-0.0029904070750095798,-0.7808882349999889,0.005586697870016857,-2.3565690650000013,-0.0030078607500094202,1.576531965000017,0.787333215000004,0.03999995,0.04,-9.801814699999987,-0.05291017554719374,0.024093333350061707,0.002008678060003342,-0.021091723814620947,-0.02804953460005524
0.77,-0.0030248533000094926,-0.780848739999989,0.0056473106800167035,-2.356572260000001,-0.003041734500009335,1.5765927600000167,0.7873477800000039,0.03999995,0.04,-9.801768799999987,-0.05359356999416105,0.024315217400061147,0.0020206947400033116,-0.02114328928293213,-0.028248160400054737
0.7725,-0.003059299525009406,-0.7808092449999892,0.005707923490016551,-2.356575455000001,-0.0030756082500092495,1.5766535550000165,0.7873623450000039,0.03999995,0.04,-9.801722899999987,-0.05427696444112837,0.024537101450060588,0.0020327114200032813,-0.021194854751243317,-0.02844678620005424
0.775,-0.0030937457500093204,-0.7807697499999893,0.005768536300016401,-2.3565786500000008,-0.0031094820000091656,1.5767143500000165,0.7873769100000039,0.03999995,0.04,-9.801676999999989,-0.054960358888095716,0.02475898550006004,0.0020447281000032513,-0.021246420219554505,-0.028645412000053744
0.7775,-0.0031281919750092337,-0.7807302549999894,0.005829149110016248,-2.356581845000001,-0.0031433557500090805,1.5767751450000163,0.787391475000004,0.03999995,0.04,-9.80163109999999,-0.05564375333506304,0.02498086955005948,0.0020567447800032214,-0.02129798568786569,-0.028844037800053245
0.78,-0.0031626382000091483,-0.7806907599999895,0.0058897619200160975,-2.356585040000001,-0.003177229500008996,1.576835940000016,0.7874060400000039,0.03999995,0.04,-9.80158519999999,-0.05632714778203038,0.025202753600058928,0.0020687614600031915,-0.021349551156176875,-0.029042663600052754
0.7825,-0.0031970844250090616,-0.7806512649999896,0.005950374730015945,-2.3565882350000007,-0.003211103250008911,1.5768967350000158,0.7874206050000039,0.03999995,0.04,-9.80153929999999,-0.0570105422289977,0.025424637650058368,0.002080778140003161,-0.02140111662448806,-0.029241289400052252
0.785,-0.003232594200009556,-0.7806105799999891,0.006012862200016816,-2.356591540000001,-0.0032460232900093974,1.5769594400000169,0.787435611000004,0.03999995,0.04,-9.801504799999993,-0.057718973607016,0.02564825730005952,0.0020927538300031696,-0.021453212946667223,-0.029442258500053595
0.7875,-0.003268635750009711,-0.7805692999999889,0.006076287000017088,-2.356594900000001,-0.0032814664750095493,1.577023100000017,0.7874508375000041,0.03999995,0.04,-9.801475999999992,-0.058439923450544974,0.025872744750060482,0.002104709025003221,-0.021505574695780058,-0.029644399250054465
0.79,-0.003304677300009867,-0.7805280199999887,0.006139711800017364,-2.356598260000001,-0.0033169096600097034,1.5770867600000174,0.7874660640000042,0.03999995,0.04,-9.801447199999993,-0.059160873294073976,0.02609723220006146,0.002116664220003273,-0.021557936444892897,-0.029846540000055342
0.7925,-0.003340718850010022,-0.7804867399999885,0.006203136600017637,-2.356601620000001,-0.0033523528450098558,1.5771504200000177,0.7874812905000043,0.03999995,0.04,-9.801418399999992,-0.05988182313760295,0.026321719650062424,0.0021286194150033242,-0.02161029819400573,-0.03004868075005621
0.795,-0.0033767604000101785,-0.7804454599999883,0.006266561400017912,-2.356604980000001,-0.0033877960300100094,1.5772140800000178,0.7874965170000043,0.03999995,0.04,-9.801389599999993,-0.06060277298113195,0.026546207100063397,0.002140574610003376,-0.021662659943118567,-0.030250821500057087
0.7975,-0.0034128019500103335,-0.7804041799999881,0.006329986200018184,-2.356608340000001,-0.003423239215010162,1.5772777400000182,0.7875117435000044,0.03999995,0.04,-9.801360799999992,-0.06132372282466093,0.026770694550064363,0.0021525298050034274,-0.0217150216922314,-0.030452962250057957
0.8,-0.0034488435000109624,-0.7803628999999874,0.0063934110000192935,-2.356611700000001,-0.0034586824000107813,1.5773414000000192,0.7875269700000047,0.03999995,0.04,-9.801331999999991,-0.06204467266819842,0.02699518200006992,0.0021644850000034585,-0.021767383441344455,-0.03065510300005983
0.8025,-0.003486508455010996,-0.7803197974999874,0.006459698340019352,-2.3566153150000013,-0.003495724480010814,1.5774079100000193,0.7875428895000047,0.0399999506,0.04,-9.801298999999991,-0.06279478147647814,0.027235414200070134,0.0021763673550034687,-0.021820485312507142,-0.030860662550060012
0.805,-0.003524173410011031,-0.7802766949999873,0.006525985680019414,-2.356618930000001,-0.0035327665600108486,1.5774744200000195,0.7875588090000046,0.0399999512,0.04,-9.801265999999991,-0.06354489028475789,0.027475646400070358,0.00218824971000348,-0.021873587183669833,-0.031066222100060204
0.8075,-0.0035618383650110647,-0.7802335924999872,0.006592273020019473,-2.356622545000001,-0.003569808640010882,1.5775409300000196,0.7875747285000047,0.039999951799999996,0.04,-9.801232999999991,-0.0642949990930376,0.027715878600070572,0.0022001320650034905,-0.02192668905483252,-0.031271781650060386
0.81,-0.0035995033200110996,-0.7801904899999873,0.006658560360019535,-2.356626160000001,-0.0036068507200109163,1.5776074400000195,0.7875906480000047,0.0399999524,0.04,-9.80119999999999,-0.06504510790131734,0.027956110800070797,0.0022120144200035016,-0.021979790925995207,-0.03147734120006058
0.8125,-0.0036371682750111333,-0.7801473874999872,0.0067248477000195934,-2.356629775000001,-0.003643892800010949,1.5776739500000196,0.7876065675000047,0.039999953,0.04,-9.80116699999999,-0.06579521670959707,0.02819634300007101,0.0022238967750035123,-0.022032892797157894,-0.031682900750060757
0.8150000000000001,-0.0036748332300111683,-0.7801042849999872,0.006791135040019655,-2.356633390000001,-0.0036809348800109836,1.5777404600000198,0.7876224870000047,0.0399999536,0.04,-9.80113399999999,-0.06654532551787681,0.028436575200071233,0.0022357791300035234,-0.022085994668320584,-0.03188846030006095
0.8175,-0.0037130486200116926,-0.7800605654999866,0.0068583926200205805,-2.356637075000001,-0.0037185184550114995,1.5778079350000207,0.7876386400000049,0.039999954,0.04,-9.801105749999994,-0.06730844751023872,0.02867771480007226,0.0022475925800034724,-0.022139562014506488,-0.03209515740006215
0.8200000000000001,-0.0037523648800117295,-0.7800156119999866,0.006927590680020645,-2.356640900000001,-0.0037571850200115355,1.5778773400000208,0.787655260000005,0.039999954,0.04,-9.801086999999994,-0.06809759587073025,0.028920669200072482,0.0022592682200034834,-0.02219406031073758,-0.03230412960006234
0.8225,-0.003791681140011764,-0.7799706584999865,0.0069967887400207065,-2.356644725000001,-0.00379585158501157,1.5779467450000209,0.787671880000005,0.039999954,0.04,-9.801068249999995,-0.06888674423122174,0.0291636236000727,0.002270943860003494,-0.022248558606968668,-0.03251310180006253
0.8250000000000001,-0.003830997400011801,-0.7799257049999865,0.007065986800020771,-2.356648550000001,-0.003834518150011606,1.578016150000021,0.787688500000005,0.039999954,0.04,-9.801049499999994,-0.06967589259171326,0.029406578000072927,0.0022826195000035044,-0.022303056903199756,-0.032722074000062724
0.8275,-0.0038703136600118358,-0.7798807514999865,0.007135184860020832,-2.356652375000001,-0.00387318471501164,1.578085555000021,0.787705120000005,0.039999954,0.04,-9.801030749999994,-0.07046504095220477,0.02964953240007314,0.002294295140003515,-0.022357555199430848,-0.03293104620006291
0.8300000000000001,-0.003909629920011873,-0.7798357979999864,0.007204382920020897,-2.356656200000001,-0.003911851280011676,1.578154960000021,0.787721740000005,0.039999954,0.04,-9.801011999999993,-0.07125418931269628,0.029892486800073368,0.002305970780003526,-0.022412053495661936,-0.03314001840006311
0.8325,-0.003948946180011907,-0.7797908444999864,0.007273580980020958,-2.356660025000001,-0.0039505178450117105,1.578224365000021,0.7877383600000051,0.039999954,0.04,-9.800993249999994,-0.07204333767318778,0.030135441200073585,0.002317646420003536,-0.022466551791893025,-0.03334899060006329
0.835,-0.003989381240012452,-0.7797446209999858,0.007344751600021918,-2.356663950000001,-0.0039902846300122466,1.578295720000022,0.7877554600000053,0.039999953299999995,0.04,-9.800969499999992,-0.07285600751663449,0.03038258470007571,0.002329222470003501,-0.02252169921995891,-0.03356009120006445
0.8375,-0.00403037570001249,-0.7796977624999857,0.0074169085000219855,-2.356667925000001,-0.004030601525012284,1.5783680500000221,0.7877728000000054,0.03999995225,0.04,-9.80094324999999,-0.0736804381015428,0.030631822750075942,0.002340748725003512,-0.022577171213941753,-0.03377225600006464
0.84,-0.004071370160012527,-0.7796509039999857,0.007489065400022049,-2.356671900000001,-0.00407091842001232,1.5784403800000222,0.7877901400000054,0.0399999512,0.04,-9.800916999999991,-0.07450486868645106,0.03088106080007616,0.002352274980003522,-0.02263264320792459,-0.033984420800064835
0.8425,-0.004112364620012565,-0.7796040454999856,0.007561222300022117,-2.356675875000001,-0.004111235315012358,1.5785127100000222,0.7878074800000053,0.03999995015,0.04,-9.800890749999992,-0.07532929927135938,0.031130298850076392,0.0023638012350035327,-0.022688115201907433,-0.034196585600065034
