rsonawane2002/My_IMU/logs_2/traj_396/clean_396.csv
time,j1,j2,j3,j4,j5,j6,j7,gripper1,gripper2,imu_ax,imu_ay,imu_az,imu_gx,imu_gy,imu_gz,quat_x,quat_y,quat_z,quat_w
1603.283333332204,0.00016700293,-0.785875,4.0107683e-05,-2.3551247,9.29385e-05,1.570997,0.786,0.04,0.04,0.0,-0.0,0.0,2.875329272945135e-08,-0.0011641195053377316,4.421952117202833e-08,0.9999995971961153,0.00020320632366974898,0.0008736418299892524,3.263050917662294e-05
1603.2999999988706,0.00016700088,-0.78576016,4.0115e-05,-2.3552213,9.297192e-05,1.5709941,0.786,0.04,0.04,-0.2919984601580605,-2.8772348703673834e-05,0.02012841003253829,5.4656646784325984e-08,-0.00223758513526424,-5.5028136408451144e-08,0.9999996850583464,0.0002032095078699772,0.0007665025193341818,3.260355740441032e-05
1603.3166666655372,0.00016696514,-0.7856543,4.0124556e-05,-2.35531,9.298806e-05,1.5709913,0.786,0.04,0.04,0.02332872431232147,4.725364547982858e-05,-0.001670423009914046,4.9669216349838433e-08,-0.00322586960672432,-9.760712759751932e-07,0.9999997558420815,0.00020322836291104007,0.0006677972588880044,3.257039962955404e-05
1603.333333332204,0.0001668399,-0.785557,4.0140807e-05,-2.355391,9.296304e-05,1.5709884,0.786,0.04,0.04,0.02239486786335121,0.00012145592311787589,-0.0014910178511851058,-1.488828298209467e-07,-0.004133872536429973,-3.4679731937115235e-06,0.999999812246338,0.0002032892345225181,0.000577168429829993,3.251736784767163e-05
1603.3499999988705,0.00016654492,-0.7854673,4.0169904e-05,-2.3554652,9.287255e-05,1.5709856,0.786,0.04,0.039999995,0.020255439635374906,0.0002210084374844074,-0.0013236585239884135,-5.769674785729319e-07,-0.004963416357210962,-7.447134566116857e-06,0.9999998568426823,0.00020343010793988234,0.0004938411809172576,3.242983123499959e-05
1603.3666666655372,0.00016597823,-0.785385,4.0219897e-05,-2.355532,9.265105e-05,1.5709827,0.786,0.04,0.04,0.020669420996366483,0.0003729316935386143,-0.0008965352400469584,-1.6749064710525822e-06,-0.005722075739407526,-1.5841435458874783e-05,0.9999998914227691,0.00020369911046970392,0.0004178751339641563,3.227219936162589e-05
1603.3833333322038,0.00016501742,-0.78530926,4.0299914e-05,-2.3555942,9.2268776e-05,1.5709797,0.7859981,0.04,0.039999995,0.014911474173628925,0.0005199335935616295,-0.0018152994765374686,-4.0125781414239575e-06,-0.006407249352874221,-2.6067499013796203e-05,0.9999999185010665,0.00020320062515429636,0.00034739278352049753,3.2025303809283435e-05
1603.3999999988705,0.00016352313,-0.7852399,4.0420895e-05,-2.3556519,9.164392e-05,1.5709765,0.7859962,0.04,0.04,0.01467544326081427,0.0007220289853124956,-0.0017957428230408468,5.074910642303222e-07,-0.007034927640986974,-4.1740776616108e-05,0.9999999390729607,0.00020295413818784965,0.0002822451070101258,3.164478272496768e-05
1603.4166666655372,0.00016133959,-0.7851762,4.0594456e-05,-2.3557029,9.07218e-05,1.5709728,0.7859943,0.04,0.04,0.017521259236286113,0.000920894545825842,-0.0006347545145501954,3.1470074699099467e-06,-0.007605960647270383,-6.09274191583605e-05,0.999999954027712,0.00020303334921262145,0.00022305796732208458,3.109945837907672e-05
1603.4333333322038,0.00015829725,-0.7851176,4.0833547e-05,-2.3557508,8.942985e-05,1.5709661,0.7859913,0.04,0.04,0.009924559364127283,0.0011477958224991296,-0.0037235000684754382,2.479096550697343e-06,-0.00811343512228602,-8.482754628189618e-05,0.9999999650835787,0.00020298206954951666,0.0001664637358358801,3.03470836747515e-05
1603.4499999988705,0.00015421401,-0.7850643,4.115196e-05,-2.3557937,8.769125e-05,1.5709593,0.7859875,0.04,0.04,0.014270677242311791,0.0013894381283470264,-0.0008347378822159968,3.2949018291166866e-06,-0.008587735722951146,-0.00011378285995959698,0.9999999723586309,0.00020300564699026835,0.00011493601702618974,2.9345471250710754e-05
1603.466666665537,0.00014889687,-0.78501546,4.156417e-05,-2.3558311,8.542331e-05,1.5709509,0.7859818,0.04,0.04,0.013798684658494764,0.0016473532775919712,-0.0013660205155030525,3.449671297297305e-06,-0.009005116113904286,-0.00014810153318265814,0.9999999767877475,0.0002026589765273433,6.758077109957448e-05,2.8047869199638583e-05
1603.4833333322038,0.00014214312,-0.78497106,4.2085565e-05,-2.355866,8.2539525e-05,1.5709403,0.78597605,0.04,0.04,0.008653886173859426,0.0019180786012530226,-0.0029325190286089153,7.0323172057546336e-06,-0.009372974358000191,-0.00018804789549282835,0.9999999787916173,0.00020299170163200214,2.2669448253034547e-05,2.640512193007244e-05
1603.4999999988704,0.00013374178,-0.7849307,4.2732045e-05,-2.3558955,7.8949735e-05,1.570926,0.7859684,0.04,0.04,0.012224190388532286,0.002199468686300187,-0.002706389815054777,4.353047533608252e-06,-0.009704802882511104,-0.00023385237804256264,0.9999999788792245,0.00020314991530800063,-1.944028906381875e-05,2.436673331057082e-05
1603.516666665537,0.00012347457,-0.78489417,4.3520206e-05,-2.3559225,7.454975e-05,1.5709108,0.7859589,0.039999995,0.04,0.008410533842173606,0.002498703442932075,-0.0016127995944748008,3.2112392478518157e-06,-0.009999186849571642,-0.000286522238642498,0.9999999773824193,0.0002032369801019287,-5.874843788055924e-05,2.1874912181307147e-05
1603.5333333322037,0.00011111684,-0.78486127,4.446688e-05,-2.3559446,6.9254784e-05,1.5708923,0.78594744,0.03999999,0.03999999,0.011065948023314398,0.0027902527296882217,-0.0024127083305236496,3.121168836083812e-06,-0.010252711919301724,-0.0003437006316819205,0.9999999745819236,0.00020335918729857483,-9.552322739943354e-05,1.8881371578111715e-05
1603.5499999988704,9.6439e-05,-0.7848318,4.5589295e-05,-2.355964,6.296587e-05,1.5708703,0.7859337,0.039999988,0.039999984,0.007551989792520253,0.0030975298454347902,-0.0033431056093435885,2.446758486531744e-06,-0.010467414313953722,-0.00040725341505397014,0.9999999706223837,0.0002034166755692896,-0.00013092695993835012,1.533033094670207e-05
1603.566666665537,7.920697e-05,-0.78480554,4.6905265e-05,-2.355979,5.5582157e-05,1.5708444,0.78591716,0.039999984,0.03999998,0.009577818480321909,0.003410055566268695,-0.002708912197957325,2.5272900396779282e-06,-0.01065420597792694,-0.0004781553386477937,0.9999999657376689,0.00020331155665294365,-0.00016451262676017998,1.1165454519535374e-05
1603.5833333322037,5.9183138e-05,-0.78478235,4.8432637e-05,-2.355991,4.7002846e-05,1.5708146,0.7858981,0.03999998,0.039999977,0.007448809309362758,0.0037266693302084454,-0.0032979549149603216,4.100772438524539e-06,-0.01080861011474461,-0.0005556481836128587,0.9999999599277887,0.00020324579824864813,-0.0001969657271416248,6.330007209535353e-06
1603.5999999988703,3.612698e-05,-0.7847621,5.018946e-05,-2.3559995,3.7125323e-05,1.5707808,0.7858762,0.039999973,0.039999966,0.007618633014261356,0.004047385769356982,-0.0031778967853224316,5.403327825073689e-06,-0.010934425750078589,-0.0006389488690351525,0.9999999532875898,0.0002032141186969822,-0.00022831612385950886,7.665428922948595e-07
1603.616666665537,9.796083e-06,-0.7847446,5.2194086e-05,-2.3560038,2.5845215e-05,1.5707425,0.7858511,0.039999966,0.039999958,0.008994035000964296,0.0043710525956581064,-0.0029483297199650593,6.556554073410209e-06,-0.011031756526260532,-0.0007298348805389546,0.9999999459889729,0.00020312268268377228,-0.00025832548112265344,-5.583268498549684e-06
1603.6333333322036,-2.005364e-05,-0.7847298,5.446475e-05,-2.3560052,1.3058599e-05,1.5706989,0.7858229,0.03999996,0.039999954,0.006064350691614706,0.004696504103323413,-0.00420005324599515,8.188047638449944e-06,-0.01109788133616435,-0.0008274857360373748,0.9999999377326902,0.00020314682006656812,-0.0002882754063610001,-1.2777914254919924e-05
1603.6499999988703,-5.366718e-05,-0.78471774,5.7020097e-05,-2.3560026,-1.3393062e-06,1.5706494,0.78579116,0.039999966,0.039999958,0.008136582975781792,0.005022749834205282,-0.004121483473706888,8.984306486357636e-06,-0.011142815073868443,-0.0009319255826662075,0.9999999286715786,0.00020316414499955707,-0.00031771900267704386,-2.087589780581109e-05
1603.666666665537,-9.129003e-05,-0.7847082,5.9878475e-05,-2.3559973,-1.7453156e-05,1.5705948,0.78575563,0.039999966,0.039999954,0.005603349837524085,0.005349899503946457,-0.00406249188569241,9.793419590418094e-06,-0.011163041278829278,-0.001042303442838597,0.9999999186453555,0.00020320169215826147,-0.0003471630804178981,-2.993576546747088e-05
1603.6833333322036,-0.00013316747,-0.784701,6.305836e-05,-2.3559875,-3.5388603e-05,1.5705336,0.78571594,0.03999997,0.039999958,0.008193707075032641,0.0056770976089986465,-0.004171744003245159,1.0342097999857785e-05,-0.011162506473999682,-0.0011603360433963498,0.9999999077002608,0.00020316717030131808,-0.00037645884050257545,-4.001639893686175e-05
1603.6999999988702,-0.00017954438,-0.7846963,6.657827e-05,-2.3559759,-5.524996e-05,1.5704662,0.78567195,0.03999997,0.039999958,0.0040116692587854885,0.006002836663282559,-0.005273995569265999,1.1975960946633904e-05,-0.011137937469989636,-0.001285142947731589,0.9999998953560145,0.00020311713226342742,-0.0004067092203508159,-5.117617191730903e-05
1603.7166666655369,-0.0002306648,-0.784694,7.045661e-05,-2.355959,-7.71416e-05,1.5703921,0.7856235,0.039999973,0.03999996,0.009540792564788347,0.006327513557893554,-0.003920173631910551,1.3560222720007068e-05,-0.011100577307094985,-0.0014167023988528645,0.999999882145113,0.0002030779977487452,-0.00043639460021761443,-6.347314298165823e-05
1603.7333333322035,-0.00028677133,-0.78469396,7.47116e-05,-2.3559396,-0.000101167185,1.5703108,0.78557026,0.039999973,0.03999996,0.004191312424528526,0.006650253890540525,-0.005605057201574226,1.5578991394996078e-05,-0.011033525648384081,-0.001554965175345152,0.9999998671884498,0.00020301599592165815,-0.0004674226828720221,-7.696507981207223e-05
1603.7499999988702,-0.00034810515,-0.7846961,7.936144e-05,-2.3559153,-0.00012743007,1.5702218,0.78551215,0.039999973,0.03999996,0.00849576051829004,0.006970929983542641,-0.004784649061750912,1.7680401185179214e-05,-0.010954400922151834,-0.001699890623726601,0.9999998508316772,0.00020298613735064995,-0.0004987209905100988,-9.17094598967789e-05
1603.7666666655368,-0.00041490584,-0.7847006,8.442417e-05,-2.355888,-0.0001560317,1.5701247,0.7854489,0.039999973,0.039999958,0.005312514079647279,0.007288357474686574,-0.005888806854748019,1.9496275709471236e-05,-0.010854034965798617,-0.0018505540792244232,0.9999998324509389,0.00020298311846181607,-0.0005313032737643822,-0.00010776260432715348
1603.7833333322035,-0.0004874101,-0.78470725,8.991763e-05,-2.3558555,-0.00018707475,1.5700196,0.7853801,0.039999977,0.03999996,0.008383100401254673,0.007603814774488913,-0.0050564470306824205,2.145762131196792e-05,-0.010740372252397472,-0.0020086141321222694,0.9999998123410052,0.00020291100424427828,-0.0005643356195200932,-0.00012518141702148687
1603.7999999988701,-0.00056585285,-0.7847162,9.5859636e-05,-2.3558195,-0.000220659,1.5699062,0.78530574,0.039999977,0.039999958,0.005981771416796455,0.007914627655388739,-0.005824640180573937,2.40055690987704e-05,-0.010604435758876327,-0.0021722703658437303,0.9999997899152662,0.00020285175032815712,-0.0005985636929672242,-0.00014402116596725205
1603.8166666655368,-0.0006504659,-0.7847272,0.00010226754,-2.355779,-0.00025688417,1.5697839,0.7852255,0.039999977,0.039999958,0.007178315080746955,0.008222439836548393,-0.005832157818486117,2.6716195435719237e-05,-0.01045237639574284,-0.0023431611888083486,0.9999997649817903,0.00020279673778963555,-0.0006339583877884263,-0.00016433687934714708
1603.8333333322034,-0.00074147875,-0.7847405,0.000109158726,-2.3557343,-0.00029584797,1.5696523,0.78513926,0.03999998,0.03999996,0.00645337179554506,0.008525673350791747,-0.0064182295834047665,2.9726489619744806e-05,-0.010284233412238076,-0.002520338525954779,0.9999997370922675,0.0002027660321747812,-0.0006708483064333186,-0.0001861823880967674
1603.84999999887,-0.0008391175,-0.78475595,0.000116550145,-2.355686,-0.00033764745,1.5695109,0.78504676,0.03999998,0.03999996,0.00576667286362742,0.008824837115846071,-0.006817946854087431,3.262310029309226e-05,-0.01010157776270059,-0.0027036999978754667,0.9999997056754927,0.0002027484163789819,-0.0007096515545392823,-0.0002096107792905685
1603.8666666655367,-0.00094360515,-0.78477347,0.00012445866,-2.355633,-0.00038237745,1.5693599,0.7849478,0.03999998,0.039999958,0.0069536370002065695,0.00911917806019148,-0.006379416263246895,3.551488717131856e-05,-0.009907802733171893,-0.0028923024935672993,0.9999996706716544,0.00020276107506351552,-0.0007499816669700211,-0.00023467430241036637
1603.8833333322034,-0.0010551615,-0.7847934,0.00013290091,-2.355576,-0.00043013305,1.5691988,0.78484225,0.039999984,0.03999996,0.00636059089138552,0.009409476958592688,-0.007034485008494684,3.848256090334054e-05,-0.009700297433224054,-0.0030886803333131556,0.9999996315430396,0.0002028197939267962,-0.000792107932059159,-0.0002614248268174853
1603.89999999887,-0.0011740027,-0.7848155,0.00014189303,-2.3555145,-0.0004810054,1.5690271,0.7847297,0.039999984,0.03999996,0.006747613314295187,0.009693311984111195,-0.007258975727708616,4.134578177341416e-05,-0.009479625888766564,-0.0032899921196748658,0.9999995877527106,0.00020284951382076773,-0.0008362401664980714,-0.00028991182702793746
1603.9166666655367,-0.0013003412,-0.78483987,0.00015145114,-2.3554482,-0.0005350864,1.5688446,0.78461015,0.039999984,0.03999996,0.007218826123667199,0.009973496728820494,-0.007192765222630015,4.504904796524649e-05,-0.009247256871589324,-0.003497151741782344,0.999999538986347,0.0002029224231603548,-0.0008822306373487748,-0.00032018539372159993
1603.9333333322033,-0.0014343861,-0.78486633,0.00016159103,-2.3553777,-0.00059246435,1.568651,0.78448325,0.039999988,0.039999966,0.006099641749490736,0.010246863597458038,-0.0075796833034047495,4.8271715806700276e-05,-0.009000814701381775,-0.0037098513229946784,0.9999994843458067,0.00020298989783052097,-0.0009305874167595483,-0.00035229289246102547
1603.94999999887,-0.0015763417,-0.7848949,0.0001723281,-2.355302,-0.000653228,1.5684459,0.78434885,0.039999988,0.039999966,0.007201968708003825,0.01051568984578771,-0.007533896181510791,5.221425850494496e-05,-0.008745500545432137,-0.003928075814970899,0.9999994234647465,0.00020306103372730934,-0.0009811332363231,-0.00038628223339830855
1603.9666666655366,-0.0017264095,-0.7849258,0.00018367765,-2.355222,-0.0007174624,1.5682293,0.7842067,0.039999988,0.03999996,0.006684607246532082,0.010777894942697692,-0.008014396162514537,5.6403439051947585e-05,-0.008478516196245643,-0.00415082356762727,0.9999993556487736,0.00020311384486211383,-0.0010340187977800608,-0.000422198921343835
1603.9833333322033,-0.0018847873,-0.7849591,0.00019565441,-2.3551366,-0.0007852537,1.5680003,0.7840568,0.03999999,0.039999973,0.007570761137998261,0.0110370223515956,-0.008292246665919656,6.115878274027577e-05,-0.008201862389081023,-0.004382265999344291,0.9999992801790691,0.000203244181638292,-0.001089335289064086,-0.0004600888764949219
1603.99999999887,-0.0020516673,-0.7849948,0.000208273,-2.355046,-0.00085668283,1.5677593,0.7838988,0.03999999,0.03999997,0.00781584454556672,0.011286366988113444,-0.00810376736954943,6.581332797907583e-05,-0.00791341420910909,-0.0046154007151577164,0.999999196694829,0.00020336624763993652,-0.0011468462912728342,-0.000499995450368474
1604.0166666655366,-0.0022272393,-0.78503263,0.00022154771,-2.3549504,-0.000931831,1.5675058,0.78373253,0.039999995,0.03999997,0.006970568298569901,0.011532993929638411,-0.008319841056492194,7.092233620871122e-05,-0.007614058094371014,-0.004852672837200613,0.9999991040044722,0.00020351256577951193,-0.0012070009403731072,-0.0005419609010528188
1604.0333333322033,-0.0024116877,-0.7850726,0.00023549248,-2.3548498,-0.0010107791,1.5672395,0.78355795,0.039999995,0.03999998,0.006821552897351424,0.011772742224808548,-0.008687644976612674,7.649982658249586e-05,-0.0073040610641901,-0.0050999223420779595,0.9999990010353534,0.0002037133571068152,-0.0012700399096422339,-0.0005860271249537894
1604.04999999887,-0.0026051928,-0.7851151,0.0002501209,-2.3547435,-0.0010936004,1.5669601,0.78337485,0.03999999,0.03999999,0.008355903690970834,0.012002501835272315,-0.008761228791054343,8.210729582404895e-05,-0.006987534135950751,-0.00535088987744598,0.999998887493763,0.00020396745261149624,-0.00133554839413551,-0.0006322333441171156
1604.0666666655366,-0.0028079306,-0.78516006,0.0002654462,-2.3546329,-0.0011803757,1.5666674,0.783183,0.039999988,0.039999954,0.005826470611580703,0.012231919154799889,-0.00947043999521835,8.802702289955992e-05,-0.006658404545248166,-0.0055972846071338156,0.9999987614440692,0.0002042414915915534,-0.0014043336782710275,-0.0006806193215988526
1604.0833333322032,-0.0030200747,-0.7852074,0.00028148154,-2.3545165,-0.001271171,1.5663608,0.78298223,0.039999977,0.039999932,0.007964424463535735,0.012448704602329424,-0.009345092964063717,9.454147731815209e-05,-0.006325252237737371,-0.005850455015982713,0.9999986223428049,0.00020456158745012763,-0.001476070684688395,-0.0007312197912482921
1604.0999999988699,-0.0032417912,-0.7852569,0.0002982394,-2.3543937,-0.0013660647,1.5660408,0.78277236,0.03999997,0.039999925,0.009132091954233701,0.012668053722925815,-0.008584219511820201,0.00010097281420002636,-0.005984991672805858,-0.006112210361269844,0.9999984699749518,0.00020489030010682714,-0.0015502557598775408,-0.0007840757611987737
1604.1166666655365,-0.003473245,-0.7853091,0.0003157324,-2.3542662,-0.0014651263,1.5657065,0.7825533,0.039999977,0.039999932,0.006537187898003616,0.012873917234350243,-0.010117582522584101,0.00010860448256463061,-0.005630321077906734,-0.006378240651294392,0.9999983017944556,0.0002052792614785083,-0.0016278754702273473,-0.000839219925371221
1604.1333333322032,-0.0037145938,-0.7853637,0.00033397242,-2.3541331,-0.0015684227,1.565358,0.78232497,0.03999998,0.039999936,0.007555264253222838,0.013073705813821095,-0.009714142864702957,0.00011625818347966131,-0.005272489535773271,-0.0066490263984763966,0.9999981170414294,0.00020574707702687275,-0.0017086648908677467,-0.0008966861362270103
1604.1499999988698,-0.0039659925,-0.7854208,0.00035297108,-2.353994,-0.0016760209,1.564995,0.782087,0.039999984,0.03999994,0.00872335966681792,0.013269978143062681,-0.009714476936872884,0.00012408541752441556,-0.0049074162693444855,-0.006923739892934083,0.9999979148972429,0.00020622238090102079,-0.0017924189805166078,-0.0009565080734068698
1604.1666666655365,-0.004227592,-0.78548044,0.0003727398,-2.3538487,-0.0017879839,1.5646172,0.7818394,0.03999999,0.039999954,0.008273992968166333,0.013457097622661222,-0.01014189572103863,0.00013318057822209878,-0.004532145417960258,-0.007202892657882483,0.9999976936495332,0.0002067212576516344,-0.0018794096521084285,-0.0010187155125223701
1604.1833333322031,-0.004499538,-0.7855426,0.00039328955,-2.3536983,-0.0019043738,1.5642246,0.781582,0.04,0.039999988,0.007072377829975274,0.013637618633276054,-0.01027010268348505,0.00014270048318716297,-0.004151527777409611,-0.007488911490998302,0.9999974514262804,0.00020731616714818262,-0.001969908952029481,-0.001083337284327362
1604.1999999988698,-0.0047819708,-0.78560734,0.00041463083,-2.3535423,-0.0020252422,1.5638168,0.78131473,0.04,0.039999995,0.007357502107163683,0.013804883360320035,-0.010664311756269917,0.00015265214647271902,-0.0037640132327394077,-0.007773308426764142,0.999997186467424,0.0002079893763846783,-0.002064069988761998,-0.0011503967737098374
1604.2166666655364,-0.005075028,-0.78567487,0.00043677428,-2.3533792,-0.0021506657,1.5633936,0.7810374,0.04,0.04,0.010413950750542966,0.013988469577600696,-0.010168803375543156,0.00016298842115410744,-0.0033734524456859316,-0.008061774294796301,0.9999968991259852,0.00020872210282527206,-0.002161003073066264,-0.001219934103243064
1604.233333332203,-0.0053788424,-0.78574467,0.00045972972,-2.35321,-0.0022806844,1.5629549,0.78075,0.04,0.039999995,0.008171461983663697,0.014137770788327265,-0.01040228442124036,0.00017402538739539827,-0.0029703500289757004,-0.008352446968945219,0.9999965862170261,0.00020958126034939617,-0.002261517256152233,-0.0012919635015575387
1604.2499999988697,-0.0056935446,-0.78581727,0.00048350688,-2.353035,-0.0024153602,1.5625007,0.7804522,0.04,0.039999995,0.007955985389695996,0.014299539944480702,-0.010945322535116375,0.00018534627672570428,-0.002562111959783814,-0.008646036665759634,0.9999962461596373,0.00021048533489562965,-0.0023655875876831796,-0.0013665130525925535
1604.2666666655364,-0.0060192547,-0.7858925,0.00050811516,-2.352854,-0.002554746,1.5620302,0.78014404,0.04,0.039999995,0.007904601467179084,0.014442029199296207,-0.011387110784499832,0.0001977398375791091,-0.002148013487000295,-0.008942392788375017,0.9999958762655727,0.00021149681527512113,-0.002473606350613191,-0.0014436040207277897
1604.283333332203,-0.0063560945,-0.7859704,0.0005335637,-2.3526676,-0.0026989053,1.5615441,0.7798253,0.039999995,0.039999995,0.0073892124387242575,0.014596870414135266,-0.011126614758349973,0.00021050349290785073,-0.0017311367131182254,-0.009242164017362456,0.9999954750014034,0.00021258899754142914,-0.002585429771522455,-0.0015232647610285686
1604.2999999988697,-0.006704179,-0.7860511,0.00055986136,-2.352474,-0.0028478864,1.5610417,0.7794959,0.03999999,0.03999999,0.010163839974453026,0.014732709496289784,-0.010927417827599761,0.00022397542278481883,-0.0013111338845464178,-0.009544355528915732,0.9999950420393913,0.00021373426198781806,-0.002700467253701617,-0.0016055188921649712
1604.3166666655363,-0.007063618,-0.7861343,0.0005870163,-2.3522737,-0.0030017304,1.5605227,0.77915573,0.039999984,0.039999954,0.008881937536053819,0.014854124448922257,-0.011356332560530369,0.00023888471663740043,-0.0008803836852628415,-0.00984390942553298,0.9999945738169966,0.0002149905029133544,-0.0028193501345358234,-0.0016903787936282785
1604.333333332203,-0.0074345195,-0.7862205,0.0006150364,-2.3520665,-0.0031604727,1.5599873,0.7788046,0.039999988,0.039999943,0.009924130164451483,0.014971391485478491,-0.01128748451366679,0.000254600088206873,-0.00044644069457717983,-0.010146280643802356,0.9999940698442422,0.00021629665762712305,-0.0029415478950716232,-0.0017778605360759152
1604.3499999988696,-0.007816984,-0.7863092,0.0006439296,-2.3518531,-0.003324164,1.5594352,0.77844286,0.03999999,0.039999958,0.008080391854425883,0.015089545051509556,-0.01163277449627298,0.00027161861471917265,-2.8423766152696484e-06,-0.010456615806569225,0.9999935257438114,0.0002178851894732482,-0.0030678410290863544,-0.001867979637360102
1604.3666666655363,-0.008211112,-0.786401,0.00067370327,-2.3516333,-0.003492846,1.5588664,0.7780699,0.04,0.03999998,0.009104615533694904,0.01519719148310155,-0.011990588323840257,0.0002876665476217906,0.00044418362957784896,-0.010769387360813096,0.9999929403926272,0.00021951280335463444,-0.0031978786332776533,-0.00196075273391081
1604.383333332203,-0.008616994,-0.7864953,0.00070436427,-2.3514068,-0.0036665525,1.5582803,0.77768594,0.04,0.04,0.008811180041390365,0.015296119814668836,-0.011881435060812073,0.0003056076611013016,0.0008956194305669851,-0.01108219090165916,0.9999923104294455,0.0002213200488756395,-0.003331994735462209,-0.002056188342175317
1604.3999999988696,-0.009034721,-0.7865926,0.00073591946,-2.351175,-0.0038453182,1.5576773,0.7772906,0.039999995,0.039999995,0.006823599733651875,0.015384012114994135,-0.012665530668853897,0.0003239131884658422,0.0013501286947473976,-0.011395047251070494,0.9999916317871206,0.0002231769218295982,-0.0034706731282051336,-0.0021542924198944035
1604.4166666655362,-0.009464376,-0.7866925,0.0007683756,-2.3509362,-0.004029197,1.5570569,0.776884,0.039999995,0.039999995,0.009654441879147768,0.015489427642771322,-0.011867979950785923,0.00034420063347414404,0.0018032735139338826,-0.011709102102242037,0.9999909041459508,0.0002252211510687341,-0.003613235123739491,-0.002255090405541329
1604.433333332203,-0.009906046,-0.78679544,0.0008017385,-2.3506904,-0.0042182133,1.5564193,0.7764662,0.039999995,0.039999995,0.009711900926467898,0.015570233287493657,-0.012251750366631953,0.00036496481379331633,0.002262093271049516,-0.012024443785704563,0.9999901253214025,0.00022747337432753935,-0.0037595984176211007,-0.0023585875620994903
1604.4499999988695,-0.010359801,-0.78690106,0.00083601417,-2.3504374,-0.004412407,1.5557642,0.77603686,0.039999995,0.039999995,0.009689769519760638,0.01564605011812291,-0.012071967338767031,0.0003862301947891236,0.0027263933694243805,-0.012340834434974777,0.9999892923002512,0.0002298550676930353,-0.003909889816851071,-0.002464794740008729
1604.4666666655362,-0.010825715,-0.78700966,0.0008712076,-2.350177,-0.0046117995,1.5550916,0.77559596,0.039999995,0.039999995,0.01038591984354742,0.015708657919730022,-0.01226918237886565,0.0004089364301642813,0.0031968055223869016,-0.012658077547323914,0.9999884032501313,0.00023238070688969039,-0.004063908282324188,-0.0025737159774870825
1604.4833333322028,-0.011303856,-0.78712124,0.00090732443,-2.3499095,-0.004816426,1.5544014,0.7751435,0.03999999,0.03999999,0.009949209837389894,0.01577553186114418,-0.0125073421247901,0.0004328806128472383,0.003672633312820542,-0.01297608367860647,0.9999874547432775,0.0002350916684637538,-0.004221840406330017,-0.002685358738116973
1604.4999999988695,-0.011794291,-0.7872356,0.0009443696,-2.3496351,-0.0050263344,1.5536934,0.7746794,0.039999988,0.03999999,0.009317487695192916,0.01585045784897078,-0.012643914934651335,0.000458164508298442,0.004154406147025544,-0.01329538116097189,0.9999864427650405,0.0002379988605247005,-0.004383962558636797,-0.002799734799455381
1604.5166666655361,-0.012297078,-0.7873529,0.0009823474,-2.349354,-0.005241528,1.5529675,0.77420366,0.039999988,0.03999999,0.009012355553239537,0.015878363315717514,-0.012951800155769355,0.0004842586185978548,0.004640189166033606,-0.013614235288584062,0.9999853637853787,0.00024110868750617357,-0.0045504020927935995,-0.0029168343145583586
1604.5333333322028,-0.012812276,-0.7874732,0.0010212621,-2.3490665,-0.0054620276,1.552224,0.77371603,0.039999988,0.03999999,0.008753304841158105,0.015924972247487873,-0.01295913884302724,0.0005115663934801319,0.005127538564301988,-0.013933419853032224,0.999984214803162,0.00024436955756021905,-0.004721137866633578,-0.003036656922849672
1604.5499999988695,-0.013339935,-0.78759634,0.0010611179,-2.3487723,-0.0056878505,1.5514627,0.7732168,0.039999988,0.03999999,0.008956825656358802,0.015955394111743723,-0.013012175773674528,0.0005407215100455796,0.005616759615062153,-0.014252777090524853,0.9999829922746175,0.00024793371233658895,-0.00489623770519713,-0.003159200327718926
1604.566666665536,-0.013880101,-0.78772247,0.0011019183,-2.3484712,-0.0059190355,1.5506829,0.77270573,0.03999999,0.039999995,0.009347293486627883,0.01599626464038016,-0.013382633487180051,0.000570140475441485,0.006108085313620525,-0.01457207795393281,0.9999816925462385,0.00025174572590539975,-0.005075770407806811,-0.0032844712233225763
1604.5833333322028,-0.014432825,-0.7878515,0.0011436664,-2.3481634,-0.0061555845,1.5498852,0.77218276,0.03999999,0.039999995,0.008995291970692598,0.016017878130852523,-0.013235770586539353,0.0006007302440395566,0.006599952910065612,-0.014891256624503205,0.9999803123557424,0.0002557794160549088,-0.005259715312076847,-0.0034124584449247005
1604.5999999988694,-0.014998141,-0.78798366,0.0011863654,-2.3478487,-0.006397509,1.5490692,0.7716479,0.039999995,0.039999995,0.009524452115394766,0.01602310955588944,-0.01346466571658933,0.000632892789674537,0.007094219329293772,-0.015209347307477363,0.9999788486710152,0.00026006215631289034,-0.005447992219465186,-0.0035431566494443993
1604.616666665536,-0.015576087,-0.78811866,0.001230018,-2.3475268,-0.0066448394,1.5482349,0.77110106,0.039999995,0.039999995,0.00967196931065395,0.016053053142537146,-0.013276864217437456,0.0006664135964255559,0.007590435473051285,-0.015527827622011253,0.9999772979084386,0.00026462350022257215,-0.005640610680929259,-0.0036765681398817055
1604.6333333322027,-0.016166698,-0.7882566,0.0012746268,-2.3471975,-0.0068975883,1.5473826,0.77054226,0.039999995,0.039999995,0.010181123222485766,0.016062838260787193,-0.013172910371106461,0.0007011227483243315,0.008089535428012384,-0.015845686606563793,0.9999756576451722,0.0002694614556548242,-0.00583737186218538,-0.003812688994917043
1604.6499999988694,-0.016769996,-0.7883976,0.001320194,-2.3468611,-0.0071557737,1.5465117,0.7699715,0.039999995,0.039999995,0.009831865661413808,0.016053130020225737,-0.013793156344488189,0.0007371217313462131,0.008592397175835167,-0.016162761730808484,0.9999739226726884,0.00027459853023404236,-0.006038553830072743,-0.003951510835716062
1604.666666665536,-0.017386012,-0.78854144,0.0013667216,-2.3465176,-0.007419413,1.5456222,0.7693887,0.039999995,0.039999995,0.009549563019750629,0.01606372726296844,-0.01358925031262892,0.0007745254531236895,0.009097575647223077,-0.01647891802551168,0.9999720886016853,0.0002800310871020855,-0.0062442561994750095,-0.00409302634842072
1604.6833333322027,-0.018014766,-0.7886884,0.0014142109,-2.3461668,-0.0076884986,1.5447147,0.7687938,0.03999999,0.03999999,0.01005431016882774,0.01603970706752951,-0.013586196674086892,0.0008133640333098727,0.009604360090904838,-0.01679400882997942,0.99997015378306,0.0002857808029727938,-0.0064541314979380884,-0.004237223032072994
1604.6999999988693,-0.018656278,-0.7888383,0.0014626633,-2.3458087,-0.007963037,1.5437887,0.76818687,0.03999999,0.03999999,0.010092102336423103,0.016023319847885756,-0.013672447675827648,0.0008535276959365651,0.010114040439246727,-0.01710788855294705,0.9999681132282404,0.0002918396387354059,-0.00666836903767237,-0.0043840860798401125
1604.716666665536,-0.019310553,-0.7889913,0.0015120794,-2.3454435,-0.008243033,1.5428442,0.7675678,0.039999995,0.03999999,0.009825526750417701,0.015987962368856773,-0.013905392957891394,0.000895328416714726,0.01062616086445102,-0.017420485023498557,0.9999659625304581,0.00029822259732540545,-0.006887038964562899,-0.004533601009956201
1604.7333333322026,-0.019977605,-0.7891472,0.0015624604,-2.345071,-0.008528491,1.5418811,0.76693666,0.039999995,0.03999999,0.009730054206746885,0.015963433705834182,-0.014022058334051124,0.000938604042836931,0.011140762167304696,-0.017731632741848396,0.9999636969372919,0.0003049496366357869,-0.007110241437352316,-0.004685752866470067
1604.7499999988693,-0.020657443,-0.7893061,0.0016138069,-2.344691,-0.008819433,1.5408999,0.76629347,0.04,0.04,0.010685001510979397,0.01595297800206265,-0.013522041133007257,0.0009837685799815102,0.011654693392631026,-0.01804203343874064,0.999961315586287,0.0003120671268106917,-0.007337510682353376,-0.004840545634221742
1604.766666665536,-0.021350069,-0.78946817,0.0016661189,-2.3443043,-0.009115837,1.5399,0.7656382,0.04,0.04,0.009096431337574096,0.015879964588890946,-0.01454787290493531,0.0010301286993477585,0.012175512469465959,-0.01834975002909542,0.9999588094111151,0.0003195602348261906,-0.007569542993539082,-0.004997937697739985
1604.7833333322026,-0.022055484,-0.7896329,0.0017193964,-2.34391,-0.00941772,1.5388815,0.7649707,0.04,0.04,0.01026392305147894,0.015863162476555115,-0.01374620370071522,0.001077968704694239,0.012694576733623515,-0.01865645950727438,0.9999561765739957,0.00032741285971162325,-0.007805992384047623,-0.005157927416658223
1604.7999999988692,-0.022773677,-0.78980076,0.0017736398,-2.3435087,-0.009725084,1.5378447,0.7642912,0.039999995,0.04,0.009518907338157412,0.015794484124493496,-0.014362395756295498,0.0011276705217850153,0.013215260010344773,-0.0189610661730241,0.9999534114804869,0.0003356923924600404,-0.008047018920482488,-0.005320494868623738
1604.8166666655359,-0.023504645,-0.78997165,0.0018288478,-2.3431003,-0.010037932,1.5367897,0.7635996,0.03999999,0.04,0.009970748017429365,0.015754842397367602,-0.014024000276458004,0.0011788451550859072,0.013737280724710726,-0.019265290522664614,0.9999505117527134,0.00034435117050690234,-0.008292366387380857,-0.0054856291758924825
1604.8333333322025,-0.024248373,-0.7901456,0.0018850189,-2.342685,-0.010356236,1.535716,0.762896,0.039999995,0.04,0.009430625425377315,0.01566483218637671,-0.014551187748135241,0.0012322371610087104,0.014260601814164199,-0.019562751662701803,0.999947469960156,0.0003535170777162954,-0.008542403050609989,-0.00565329073015725
1604.8499999988692,-0.025004847,-0.7903224,0.0019421529,-2.342263,-0.010679984,1.5346242,0.7621799,0.039999995,0.04,0.00901660474503796,0.01559406000427449,-0.014383355315183977,0.0012863817092194224,0.014784687211591173,-0.0198596725516814,0.9999442814519928,0.00036289704438138853,-0.008797142287843169,-0.005823451275705505
1604.8666666655358,-0.02577405,-0.7905022,0.0020002474,-2.3418338,-0.0110091735,1.5335137,0.76145226,0.039999995,0.04,0.00968020470482056,0.015522745817812128,-0.014606353233914682,0.0013442533367272053,0.015306641225760247,-0.02015417346831378,0.9999409411921152,0.00037297742073670283,-0.009056593274502325,-0.005996093222312529
1604.8833333322025,-0.02655596,-0.790685,0.002059302,-2.3413973,-0.011343803,1.532385,0.7607129,0.03999999,0.04,0.010397057394428977,0.015454116984102428,-0.014197551759043137,0.0014018505217478425,0.015827967621207667,-0.020446842871722572,0.9999374486062089,0.0003837006827665472,-0.00932029168568178,-0.0061712082759551624
1604.8999999988691,-0.027350543,-0.7908707,0.0021193144,-2.3409536,-0.011683859,1.5312383,0.75996125,0.039999995,0.04,0.00991003642427657,0.015363181327010533,-0.014211216531156978,0.0014595566520753597,0.01635301929196281,-0.02073500883581575,0.9999337980775327,0.00039473856344229824,-0.009588370715710058,-0.006348762928699656
1604.9166666655358,-0.028157778,-0.7910595,0.0021802818,-2.340503,-0.012029323,1.5300732,0.7591971,0.03999999,0.04,0.009500624344038755,0.015261832446753637,-0.014812330999758316,0.0015204685137830479,0.016878877939038694,-0.02102192452625605,0.9999299819788776,0.0004060366388332266,-0.009861140876498654,-0.006528719214613259
1604.9333333322024,-0.028977636,-0.79125124,0.0022422022,-2.3400455,-0.012380192,1.5288898,0.7584212,0.03999999,0.04,0.009515645593882738,0.015181797787972018,-0.014671145159339538,0.001585595962550819,0.01740507984500919,-0.02130502366653148,0.9999259959436232,0.000417923990362593,-0.01013852314448241,-0.006711059837333875
1604.949999998869,-0.029810082,-0.7914459,0.0023050732,-2.3395808,-0.012736464,1.5276884,0.7576335,0.039999988,0.04,0.009930353458531549,0.015095737912820817,-0.014429447164721054,0.001651891353340533,0.0179297909523315,-0.02158579053340115,0.999921836955403,0.0004304288295278576,-0.010420321271762688,-0.006895767930298319
1604.9666666655357,-0.030655073,-0.7916437,0.0023688918,-2.339109,-0.013098099,1.526469,0.756834,0.039999988,0.04,0.010128948409615646,0.014964019577550641,-0.014608050401321293,0.0017190471016561293,0.018456323428113222,-0.021862423622402535,0.9999175010720955,0.00044348714288795717,-0.010706458373524883,-0.0070828043870838015
1604.9833333322024,-0.03151257,-0.79184425,0.002433655,-2.3386302,-0.013465083,1.5252314,0.7560228,0.039999988,0.04,0.009343668495120916,0.01485547880575519,-0.01478764170754765,0.0017882451855663062,0.018983537247800067,-0.02213566768762145,0.9999129790866211,0.0004572146272920469,-0.01099733333092146,-0.007272129571965836
1604.999999998869,-0.03238252,-0.79204786,0.0024993587,-2.3381443,-0.013837395,1.5239756,0.7551996,0.039999988,0.04,0.0100424339522176,0.014732073183271882,-0.01481273691745777,0.001858194910613932,0.019510135945726488,-0.022405454473110265,0.9999082690416666,0.0004713961453242435,-0.011292662232627742,-0.007463716733100309
1605.0166666655357,-0.033264887,-0.79225415,0.0025659995,-2.3376517,-0.0142150195,1.5227017,0.75436485,0.03999999,0.04,0.00886694552661993,0.014620203324070685,-0.014878721488664759,0.0019309861051148708,0.0200372429485028,-0.022671630101373564,0.9999033609113871,0.0004862632330052804,-0.011592872958743722,-0.007657524583235061
1605.0333333322023,-0.034159623,-0.7924634,0.0026335742,-2.337152,-0.014597918,1.5214103,0.7535183,0.03999999,0.04,0.010171068010023099,0.014501031247039081,-0.014481670232990851,0.002005059391504471,0.020559622783430043,-0.022934296196490116,0.9998982572045315,0.0005016935160328901,-0.011897293699473933,-0.007853530771886507
1605.049999998869,-0.03506667,-0.79267544,0.002702078,-2.3366458,-0.014986081,1.5201012,0.75266016,0.039999988,0.04,0.008653987859119638,0.014367081980760227,-0.014896566339461792,0.0020813482277045672,0.02108534339543572,-0.023193046432998625,0.9998929456545784,0.000517792290655171,-0.012206532000844223,-0.008051689131251942
1605.0666666655356,-0.035985954,-0.7928904,0.0027715075,-2.3361328,-0.015379505,1.5187743,0.75179046,0.039999984,0.04,0.009715141908150926,0.014222500637699892,-0.014913628586676886,0.0021593739457318045,0.02160786060857245,-0.023448800693980008,0.9998874249178797,0.0005345411258504893,-0.012520243303282644,-0.00825198548853025
1605.0833333322023,-0.036917426,-0.79310817,0.002841858,-2.3356128,-0.015778147,1.5174295,0.7509092,0.039999984,0.04,0.009431228516554313,0.014085712430819686,-0.01493992946295375,0.002238863341278048,0.02213027961828814,-0.02369958971955837,0.9998816874582561,0.0005519350284791085,-0.012838618665388648,-0.0084543671625528
1605.099999998869,-0.03786103,-0.7933289,0.0029131242,-2.3350859,-0.016181968,1.5160676,0.7500164,0.039999984,0.04,0.009941670156909943,0.013952408534054911,-0.014530943973078969,0.002320687000961018,0.022649576551674655,-0.023946431571025627,0.9998757346293388,0.0005699617894305672,-0.013161134499872051,-0.008658809483707328
1605.1166666655356,-0.038816717,-0.7935522,0.0029853014,-2.334552,-0.016590953,1.5146883,0.7491121,0.039999984,0.04,0.009424242899069846,0.013822458546321886,-0.014756691441797365,0.002404647352316845,0.023171762861900494,-0.024189713377044186,0.9998695557203904,0.0005886740600574234,-0.013488220076409761,-0.008865265113374713
1605.1333333322023,-0.039784383,-0.79377854,0.0030583844,-2.3340118,-0.017005082,1.5132914,0.74819654,0.039999984,0.04,0.009017289636581438,0.013627428508433681,-0.01524356263156168,0.0024908392613124455,0.023693093436116565,-0.02442785772699131,0.9998631442743923,0.0006081001023341235,-0.01381994704483504,-0.009073698235522676
1605.149999998869,-0.04076399,-0.7940076,0.0031323677,-2.3334644,-0.017424298,1.5118777,0.74726975,0.039999984,0.04,0.010175582943450223,0.013509790386277698,-0.014345849153207801,0.0025786456097224852,0.024211117701769994,-0.02466254378760033,0.9998565029158191,0.0006282953395352107,-0.014155731441269765,-0.009284077190423786
1605.1666666655356,-0.041755427,-0.79423964,0.0032072463,-2.3329103,-0.017848592,1.5104462,0.7463319,0.03999998,0.04,0.009358113777491184,0.013292193832489807,-0.015481140194584242,0.002667833015420583,0.024731691391754705,-0.024892553571527982,0.9998496179368932,0.000649288767789235,-0.01449618096945556,-0.009496350501403494
1605.1833333322022,-0.04275864,-0.7944744,0.0032830138,-2.33235,-0.018277925,1.5089986,0.7453828,0.03999998,0.04,0.008809375853791046,0.013181846800240649,-0.014357282077614997,0.0027586685341788597,0.02524870056349022,-0.025117247375871624,0.9998424905160227,0.0006710005800861529,-0.014840832166244277,-0.009710490077839867
1605.1999999988689,-0.04377354,-0.79471177,0.0033596638,-2.3317833,-0.018712254,1.5075328,0.7444226,0.039999977,0.04,0.008391054129130993,0.012948439055159022,-0.015845958090277,0.0028517400432013784,0.025766007510471624,-0.02533796165220329,0.9998350999038288,0.0006934757823227565,-0.015190738636111244,-0.009926406768273877
1605.2166666655355,-0.044800054,-0.7949519,0.0034371908,-2.3312104,-0.019151548,1.5060515,0.74345154,0.039999977,0.04,0.009063261354214092,0.012843732762316679,-0.014097702480198038,0.0029468228017341044,0.02627568649709447,-0.025553483823224345,0.9998274603010999,0.0007167733404325878,-0.015544542302213152,-0.010144114966108632
1605.2333333322022,-0.04583809,-0.79519475,0.0035155884,-2.3306308,-0.019595768,1.5045539,0.7424695,0.039999977,0.04,0.009491152805285452,0.012642786340545664,-0.014536920681007537,0.0030436651961169917,0.026786755645286896,-0.025764071335148922,0.9998195629614227,0.0007408417592600047,-0.015902493756043676,-0.010363559497409086
1605.2499999988688,-0.04688756,-0.7954404,0.0035948497,-2.3300445,-0.020044893,1.5030383,0.7414766,0.039999973,0.04,0.009134596081339375,0.012419136102566342,-0.015946022888124745,0.0031426179319984024,0.02730022247252563,-0.025970276896313423,0.9998113901622183,0.0007657258885767372,-0.01626537874903575,-0.010584669097635101
1605.2666666655355,-0.04794837,-0.79568833,0.0036749674,-2.3294523,-0.020498853,1.5015067,0.7404729,0.039999973,0.04,0.008040943471465667,0.012262068129975656,-0.01449958051105149,0.0032433535005765082,0.027805264043070765,-0.02617101696217937,0.9998029425999377,0.0007914109953992453,-0.016632791436869836,-0.01080739960210168
1605.2833333322021,-0.049020424,-0.79593915,0.003755935,-2.3288538,-0.020957641,1.4999592,0.73945856,0.03999997,0.04,0.009048008430290189,0.012080921386957433,-0.014711472228823297,0.003346448162753056,0.02830712204132159,-0.026367605263793115,0.9997942215994325,0.0008179317024995766,-0.017004297226851685,-0.011031741473389685
1605.2999999988688,-0.050103657,-0.7961927,0.003837745,-2.3282492,-0.021421215,1.4983957,0.7384337,0.03999997,0.04,0.008858306428782825,0.011913282762138211,-0.014898592047263293,0.003451897190162423,0.028809132828838138,-0.02655812747774737,0.9997852187094634,0.0008453660728410738,-0.01738008557047821,-0.0112576388215401
1605.3166666655354,-0.051197942,-0.7964486,0.0039203903,-2.3276384,-0.021889511,1.4968163,0.7373984,0.039999966,0.04,0.008493546617627246,0.011686425710881465,-0.0145410533184398,0.003558312169093754,0.029310255682685152,-0.026744159239902414,0.9997759269474839,0.0008736657881571852,-0.017760256664502563,-0.011485028846334257
1605.333333332202,-0.05230319,-0.7967072,0.0040038633,-2.327021,-0.022362487,1.4952211,0.7363526,0.039999966,0.04,0.009766610163408629,0.01149074028515551,-0.014586951008688231,0.003667083524485887,0.029806386507503016,-0.026924373111563506,0.9997663494805475,0.000902839701006873,-0.01814431565653136,-0.011713886467349574
1605.3499999988687,-0.05341929,-0.79696834,0.0040881555,-2.3263974,-0.02284011,1.4936103,0.7352967,0.039999966,0.04,0.008333829027273865,0.011276576392972582,-0.014807324715970793,0.00377804802172748,0.030305255346205012,-0.027099021058733172,0.999756472398427,0.0009329945390755458,-0.018532748424374756,-0.011944147289870907
1605.3666666655354,-0.054546136,-0.79723185,0.0041732606,-2.325768,-0.023322321,1.4919838,0.7342306,0.039999966,0.04,0.00824973271535967,0.011067925391958222,-0.01471946924167522,0.0038901635233739504,0.030799651329153216,-0.02726833444964779,0.9997462901272576,0.0009640393487633541,-0.01892556638396189,-0.01217575221354778
1605.383333332202,-0.05568363,-0.797498,0.004259169,-2.325133,-0.023809081,1.4903418,0.7331545,0.03999996,0.04,0.007751781873599484,0.010851678368445361,-0.015039007238937252,0.004004569956301621,0.031290965450951724,-0.027432266919174463,0.9997357956372149,0.0009960897485696675,-0.01932283825310218,-0.01240865217024564
1605.3999999988687,-0.05683166,-0.7977666,0.0043458734,-2.324492,-0.02430036,1.4886848,0.7320681,0.039999954,0.04,0.008956441671914561,0.01067424694619068,-0.01439418464561637,0.004120152751980487,0.0317765267535321,-0.02759243255610431,0.9997249933418487,0.0010289605072494,-0.019724041404956528,-0.012642828740852314
1605.4166666655353,-0.057990097,-0.7980375,0.004433364,-2.3238444,-0.024796119,1.4870129,0.73097223,0.039999958,0.04,0.009140717328248726,0.010459678664810623,-0.014137415675130605,0.0042390427033154945,0.03226167954316435,-0.027745361784817863,0.9997138787358466,0.001062963126773529,-0.020129122518025667,-0.01287824518225614
1605.433333332202,-0.059158847,-0.79831105,0.0045216326,-2.3231916,-0.02529627,1.485326,0.72986656,0.039999958,0.04,0.007547018817888329,0.010198297323327221,-0.014901504267728072,0.004358075584009517,0.03274600123032205,-0.027892498016287362,0.9997024387667652,0.0010979482109824234,-0.02053850896284265,-0.0131148039669386
1605.4499999988686,-0.060337774,-0.79858685,0.004610671,-2.3225331,-0.02580079,1.4836243,0.7287513,0.03999995,0.04,0.007968789923129549,0.009986555415657239,-0.014564536723660204,0.004479099225418941,0.033225858839246405,-0.02803559182084396,0.9996906687096545,0.001133956169094929,-0.02095215059660111,-0.013352468821447475
1605.4666666655353,-0.06152678,-0.798865,0.0047004707,-2.3218699,-0.026309613,1.4819082,0.7276264,0.039999954,0.04,0.00665997904785165,0.009760041363454652,-0.01472359846883542,0.004601763941866351,0.03370108711259606,-0.028170678781962492,0.9996785594118629,0.001170918012987208,-0.02137023580730257,-0.01359116715995743
1605.483333332202,-0.06272574,-0.79914546,0.004791021,-2.3212001,-0.026822675,1.4801776,0.72649187,0.039999954,0.04,0.00929967668352738,0.009549832845037742,-0.014060583443153973,0.0047266570354132925,0.034170272026742415,-0.0283011144255834,0.9996661213446819,0.001208829981195476,-0.02179199998363984,-0.013830882201401929
1605.4999999988686,-0.06393451,-0.7994282,0.0048823147,-2.3205254,-0.027339939,1.478433,0.7253482,0.039999954,0.04,0.00710630572386961,0.009292986189980701,-0.014457742876494706,0.004854267557204507,0.03463848459653082,-0.028425681688308935,0.9996533384176137,0.0012478402744028278,-0.022217955636625483,-0.014071543358793338
1605.5166666655352,-0.06515299,-0.7997134,0.0049743396,-2.3198452,-0.027861353,1.4766742,0.72419536,0.039999958,0.04,0.007927823696318725,0.009069503575866167,-0.014465063432056446,0.0049830788443789645,0.03510090561764291,-0.028545361315757807,0.9996402095987749,0.0012879453832689712,-0.022647903170722683,-0.014313106999411422
1605.533333332202,-0.06638105,-0.8000008,0.0050670863,-2.3191597,-0.028386863,1.4749017,0.7230334,0.03999995,0.04,0.007551169530062296,0.008861749807240193,-0.014191862160850555,0.005113013367119855,0.03556035157070775,-0.02865989873145816,0.9996267309225988,0.0013291023868146617,-0.02308179200704992,-0.014555520931487305
1605.5499999988685,-0.06761856,-0.8002903,0.0051605473,-2.3184686,-0.028916426,1.4731156,0.7218626,0.039999947,0.04,0.008190613559788673,0.008624389098389751,-0.01386984054188023,0.0052447393767894035,0.03601569139720945,-0.02876702689353617,0.9996129016378663,0.0013713751285126467,-0.02351942103294697,-0.014798751422243952
1605.5666666655352,-0.068865374,-0.800582,0.0052547134,-2.3177726,-0.029449958,1.4713159,0.720683,0.039999947,0.04,0.00674739059745022,0.008336994190917546,-0.014376946363814369,0.005378041107473475,0.0364689319803313,-0.028868128285714223,0.9995987074062725,0.0014147426716514888,-0.02396121344809613,-0.015042702715169842
1605.5833333322018,-0.07012138,-0.80087566,0.005349572,-2.3170714,-0.029987412,1.4695029,0.7194947,0.039999947,0.04,0.007392580735965382,0.008136972581741786,-0.013837127213434108,0.005512869728269407,0.03691538915754557,-0.02896354031654203,0.9995841495674208,0.0014592489341326248,-0.02440687867979205,-0.015287341143381952
1605.5999999988685,-0.07138641,-0.80117154,0.0054451125,-2.3163648,-0.030528726,1.4676771,0.7182979,0.039999947,0.04,0.008137021497001129,0.007871225912996216,-0.013680682164718405,0.005649240999901009,0.03735688718050513,-0.02905315836850632,0.9995692329003156,0.0015048942816114324,-0.024856007036859508,-0.015532638103668325
1605.6166666655351,-0.072660394,-0.8014695,0.005541325,-2.3156536,-0.031073866,1.4658386,0.71709263,0.03999994,0.04,0.0064830408681437746,0.007683166141266018,-0.0139507819666429,0.005786796051531609,0.03779741958346691,-0.02913806969169591,0.9995539410554944,0.0015516783754503907,-0.025309082174574577,-0.01577851622076569
1605.6333333322018,-0.07394309,-0.8017696,0.0056382013,-2.3149376,-0.031622767,1.463987,0.715879,0.039999936,0.04,0.006875181104026851,0.0073158120843797025,-0.014125368391559867,0.005926049711636142,0.03823228084490121,-0.02921622782942691,0.9995382696579199,0.0015995667121813306,-0.025766079458357606,-0.016024918874372962
1605.6499999988685,-0.07523443,-0.80207175,0.0057357294,-2.3142161,-0.03217535,1.4621232,0.71465725,0.03999994,0.04,0.008130722395360834,0.007156024082199952,-0.013297306905379891,0.006066974613065504,0.03866078835218356,-0.029287115519197243,0.9995222300205705,0.0016486229004510566,-0.02622635011216705,-0.016271825252005594
1605.666666665535,-0.07653427,-0.80237585,0.005833898,-2.3134906,-0.032731548,1.460247,0.7134274,0.039999936,0.04,0.005723950599501038,0.006879604142986939,-0.013863726358720463,0.006209522005538412,0.03908797609581603,-0.02935256704553333,0.9995057989442794,0.0016988502269124804,-0.026690642239981237,-0.016519122297552886
1605.6833333322018,-0.07784246,-0.8026819,0.0059326957,-2.31276,-0.03329131,1.4583589,0.71218973,0.039999936,0.04,0.007360537575840098,0.006638703693810644,-0.01337165380181915,0.006353196057171218,0.03950727597461633,-0.029412981827859265,0.9994889864487003,0.0017502790782035094,-0.02715836623424043,-0.01676680155500741
1605.6999999988684,-0.07915881,-0.8029899,0.006032113,-2.3120248,-0.03385458,1.4564589,0.71094424,0.03999993,0.04,0.006977699783172753,0.00635240107543511,-0.01329433933778823,0.006498085194274306,0.039923314671250806,-0.029468104910413215,0.9994717872911062,0.0018028623126910323,-0.027629556945988547,-0.017014807656027264
1605.716666665535,-0.08048324,-0.80329984,0.00613214,-2.311285,-0.03442131,1.4545473,0.70969117,0.03999993,0.04,0.006684781025922959,0.006150802001800293,-0.013388815010872968,0.0066446134609578905,0.04033620949784872,-0.029515499488559083,0.9994541959164586,0.0018566893974118045,-0.028104248253537835,-0.017263087776239795
1605.7333333322017,-0.08181556,-0.80361146,0.006232761,-2.310541,-0.034991413,1.4526243,0.7084306,0.039999925,0.04,0.006090703373251571,0.005863039659020908,-0.013065666235534401,0.006792188470339244,0.04074339963036629,-0.02955688309761684,0.9994362056973006,0.0019117062982101582,-0.028582532516523453,-0.01751156633068929
1605.7499999988684,-0.08315562,-0.8039249,0.006333969,-2.309793,-0.035564814,1.4506903,0.70716274,0.039999925,0.04,0.005563224835603009,0.005564779289943256,-0.013219547029641454,0.006941243502835981,0.04114375794165839,-0.029592445238120435,0.9994178112169754,0.0019679640151684216,-0.029064441358657045,-0.01776017985309804
1605.766666665535,-0.08450326,-0.8042402,0.0064357487,-2.3090403,-0.036141463,1.4487451,0.7058877,0.039999925,0.04,0.00712671802092224,0.005343763902738996,-0.012910140202682108,0.007091160874492075,0.04153731685536349,-0.02962226289825292,0.9993990211453694,0.0020254473887597554,-0.029549503744617525,-0.018008912376926086
1605.7833333322017,-0.085858375,-0.8045574,0.0065380917,-2.3082836,-0.036721297,1.4467891,0.7046056,0.039999917,0.04,0.006025115120023017,0.005092863915202861,-0.013043779485721885,0.007242351394034882,0.0419283044908977,-0.029647307603352085,0.9993798246102374,0.0020841895397589517,-0.03003795986346654,-0.018257691070185846
1605.7999999988683,-0.08722077,-0.8048762,0.0066409856,-2.3075228,-0.03730425,1.4448224,0.7033166,0.039999917,0.04,0.005878394019553923,0.004811397639478687,-0.012880330252773575,0.0073942970909551264,0.04231307381633474,-0.02966480193333467,0.9993602164975671,0.002144203424583279,-0.03052984079195612,-0.018506455490655688
1605.816666665535,-0.08859033,-0.8051968,0.006744417,-2.3067582,-0.037890263,1.4428456,0.70202094,0.039999917,0.04,0.005776566118242954,0.004597389386797046,-0.012634638589958946,0.007547438074342092,0.04269113660282933,-0.029676593378676196,0.9993401994152183,0.002205494959265004,-0.03102491164695403,-0.018755172140904434
1605.8333333322016,-0.089966856,-0.8055189,0.006848375,-2.3059897,-0.038479257,1.4408588,0.70071864,0.039999917,0.04,0.005540311982787927,0.004303172468468619,-0.012298180657643876,0.007700924921173455,0.0430628237525844,-0.02968312463105663,0.9993197687822153,0.0022680350777228345,-0.031523202642685766,-0.01900377418025406
1605.8499999988683,-0.091350175,-0.80584276,0.006952848,-2.3052173,-0.03907115,1.4388623,0.69940984,0.039999913,0.04,0.0062048281380899795,0.004002782487716461,-0.012303855529616214,0.007855628876895254,0.043429546570702846,-0.029682989799883007,0.9992989298767225,0.0023318148925356172,-0.032024417373797694,-0.019252222687595962
1605.866666665535,-0.09274016,-0.80616796,0.0070578223,-2.3044412,-0.039665893,1.4368559,0.69809467,0.039999913,0.04,0.005035405439812735,0.003779910644885476,-0.012383690647133072,0.008011526367047758,0.043792965927759775,-0.02967745143867627,0.9992776643859954,0.0023968400219055944,-0.032529032327213186,-0.019500427509016427
1605.8833333322016,-0.0941366,-0.80649483,0.007163287,-2.3036616,-0.04026338,1.4348402,0.6967735,0.03999991,0.04,0.005499702266797968,0.0034353606986614604,-0.012141369877283203,0.008168577456398735,0.04414585327458867,-0.029665771532282927,0.9992559822595434,0.002463219643534942,-0.03303659773873559,-0.0197483588521129
1605.8999999988682,-0.095539376,-0.80682313,0.007269229,-2.302878,-0.040863596,1.4328154,0.6954464,0.039999906,0.04,0.006100704033551452,0.0032819905582487374,-0.01167475646337568,0.008325620018739849,0.044494408213445316,-0.029648851283926577,0.9992338872328119,0.0025308800498308995,-0.03354688034399001,-0.01999600137436388
1605.9166666655349,-0.09694834,-0.80715287,0.0073756375,-2.3020914,-0.04146644,1.4307818,0.6941134,0.039999906,0.04,0.004227016856139798,0.0029876091092062573,-0.011955001096675133,0.008483741828505503,0.04483875620605332,-0.029625871925752913,0.999211361152747,0.0025998377418294193,-0.034060352765609196,-0.020243244712073567
1605.9333333322015,-0.09836329,-0.807484,0.007482497,-2.3013012,-0.042071868,1.4287397,0.69277465,0.039999902,0.04,0.005395309581102126,0.0027224290537170015,-0.011498445545110592,0.008642070839565488,0.045174847449353406,-0.029596590292994673,0.9991884147422865,0.002670066382115366,-0.03457656939137811,-0.0204900814892193
1605.9499999988682,-0.09978406,-0.80781645,0.0075897994,-2.300508,-0.042679764,1.4266889,0.69143045,0.0399999,0.04,0.004620465644489258,0.0024043287007585734,-0.011692011636665889,0.008801573936512319,0.045505641105318906,-0.029562100735728118,0.9991650374237231,0.002741611543082078,-0.03509576309981813,-0.02073641648497236
1605.9666666655348,-0.10121049,-0.8081503,0.0076975287,-2.2997115,-0.043290086,1.4246302,0.690081,0.0399999,0.04,0.00516774785084273,0.0021881211827196045,-0.011175712207855959,0.008961360085349451,0.045828412916580394,-0.02952143537803044,0.9991412394314764,0.0028145166508137956,-0.03561751668640248,-0.020982246506256262
1605.9833333322015,-0.10264244,-0.8084854,0.0078056715,-2.2989118,-0.04390274,1.4225632,0.6887263,0.03999989,0.04,0.004597147083407194,0.0019138925347050861,-0.01138945483205589,0.009121039798271863,0.04614559221030401,-0.02947566333250439,0.9991170084020203,0.0028887249572656887,-0.03614212471153294,-0.021227473030357994
1605.9999999988681,-0.104079686,-0.8088217,0.007914216,-2.2981093,-0.044517674,1.4204884,0.6873665,0.039999887,0.04,0.004247788424205368,0.0016148927819481518,-0.011175440733812714,0.009281360914064701,0.046455538199086044,-0.029424379801027554,0.9990923421883612,0.002964189347132015,-0.036669555075878456,-0.021472053758922877
1606.0166666655348,-0.105522096,-0.8091593,0.008023149,-2.297304,-0.045134816,1.4184062,0.68600184,0.039999887,0.04,0.004525065396787653,0.0014041614446930195,-0.010817049416989022,0.009442552151913586,0.04675734517252868,-0.029367694746545495,0.9990672500002316,0.0030409972556493347,-0.037199447493691314,-0.021715971514762265
1606.0333333322014,-0.10696948,-0.809498,0.0081324605,-2.2964954,-0.045754075,1.4163171,0.6846324,0.039999884,0.04,0.004792744286241657,0.001125734884835361,-0.010445457861862906,0.009603767625420381,0.04705263406289034,-0.029304712646612264,0.9990417351022707,0.0031190911032028964,-0.037731649678344116,-0.021959175919989988
1606.049999998868,-0.108421646,-0.80983794,0.008242132,-2.2956843,-0.04637539,1.4142209,0.6832586,0.039999884,0.04,0.004080579152976327,0.0008179854122547514,-0.010661007966827896,0.009765407768701648,0.047343577297486616,-0.029235962340779527,0.9990157874662232,0.003198557831887687,-0.03826636251525623,-0.02220160176403804
1606.0666666655347,-0.1098785,-0.8101789,0.008352155,-2.2948704,-0.046998683,1.4121182,0.68188024,0.039999884,0.04,0.0044113182163130205,0.0006726263475698158,-0.010118214793419789,0.009926923590948336,0.04762681365742995,-0.029161961824537935,0.9989894147638372,0.003279299247760218,-0.03880331833027498,-0.022443214404558876
1606.0833333322014,-0.11133976,-0.8105209,0.008462514,-2.2940543,-0.047623876,1.410009,0.68049777,0.039999876,0.04,0.00334603511458198,0.0002634014248714678,-0.010306037155483061,0.010088735296972073,0.047904300022048374,-0.02908385160904817,0.9989626050180924,0.0033613803554351437,-0.03934277384156132,-0.022683938018443192
1606.099999998868,-0.112805314,-0.8108639,0.008573197,-2.293236,-0.04825092,1.4078937,0.67911124,0.03999987,0.04,0.0033498153319211355,8.752977830039921e-05,-0.010098594146912276,0.010250300167741547,0.04817218231019692,-0.02900063580522251,0.9989353589755801,0.0034447813272281305,-0.03988463737064456,-0.02292373817135182
1606.1166666655347,-0.114274964,-0.81120783,0.008684187,-2.2924151,-0.0488797,1.4057723,0.67772084,0.03999987,0.04,0.004058783303451108,-0.0001967056922097532,-0.009669503029474669,0.01041216554251266,0.048432719891374015,-0.028910678628903667,0.9989076863639736,0.003529502072397864,-0.040428603685621275,-0.02316257201014562
1606.1333333322013,-0.11574857,-0.8115527,0.008795477,-2.2915921,-0.049510177,1.4036453,0.6763267,0.039999865,0.04,0.0034111501427513957,-0.00041946919610291733,-0.00969760749702786,0.010573409389445232,0.04868732883957147,-0.02881601662602105,0.9988795816424753,0.003615532425062046,-0.04097475770548864,-0.023400396022577
1606.149999998868,-0.1172259,-0.8118985,0.008907051,-2.2907672,-0.050142232,1.4015127,0.674929,0.039999865,0.04,0.003085572822847382,-0.0007650290508587343,-0.009583232371457306,0.010734929726916531,0.04893295322966876,-0.028715824331136352,0.9988510436728256,0.0037028765520286844,-0.04152308836046695,-0.023637140096809884
1606.1666666655346,-0.118706815,-0.81224513,0.009018892,-2.28994,-0.05077581,1.3993753,0.673528,0.03999987,0.04,0.0034446056627057686,-0.0009229222487749933,-0.008930969059894878,0.01089617941110893,0.04917072152937267,-0.028609921698643126,0.9988220833217284,0.0037915537110000145,-0.04207326360622682,-0.02387279788419507
1606.1833333322013,-0.120191105,-0.81259274,0.009130989,-2.289111,-0.051410824,1.3972331,0.6721237,0.039999865,0.039999995,0.003705528524422519,-0.001246258808301759,-0.008982023257364524,0.011056837369568917,0.04940255915806041,-0.028499666620098025,0.998792707121467,0.0038814671848632558,-0.04262509871087016,-0.0241073302825693
1606.199999998868,-0.1216786,-0.8129409,0.009243326,-2.2882798,-0.052047223,1.3950863,0.67071635,0.03999986,0.039999995,0.002881531677267901,-0.0014483585924845999,-0.008655334858231889,0.011217828801737814,0.04962939724544649,-0.02838486072553948,0.9987629016279584,0.003972707437603742,-0.04317888005203252,-0.024340670589948286
1606.2166666655346,-0.12316915,-0.8132897,0.009355894,-2.2874477,-0.052684896,1.3929349,0.6693062,0.039999858,0.039999995,0.0014965341006423216,-0.0017501529298552532,-0.008951590971673085,0.011378064900044393,0.04984772062354868,-0.028265212770148446,0.9987326515502878,0.0040652806456830184,-0.04373495181899498,-0.024572712711328548
1606.2333333322013,-0.1246625,-0.81363934,0.009468678,-2.2866144,-0.05332381,1.3907795,0.66789335,0.039999846,0.039999995,0.00217649156337707,-0.002020273835848241,-0.00860015170558448,0.01153726323023277,0.05005497548944518,-0.0281426157424337,0.9987019733539712,0.004159100710039012,-0.044292863686790675,-0.024803478114794095
1606.249999998868,-0.1261586,-0.81398946,0.009581662,-2.2857783,-0.053963836,1.3886201,0.6664778,0.03999985,0.04,0.004521961569992072,-0.0021355086209373653,-0.007709045202597409,0.011696492027522376,0.05025201857200365,-0.028013352475541965,0.9986708967161746,0.004254174840999513,-0.04485189546254087,-0.025032968700322098
1606.2666666655346,-0.12765712,-0.81434023,0.0096948305,-2.284941,-0.054604925,1.3864571,0.66506016,0.03999985,0.04,0.0020815820691133524,-0.0025474691904947555,-0.008169074571395818,0.011855517221035769,0.05044691129966472,-0.02787901841320179,0.9986393944984002,0.004350634463637385,-0.04541265247435766,-0.025261091244749182
1606.2833333322012,-0.12915786,-0.8146916,0.009808175,-2.284103,-0.055247005,1.3842908,0.6636403,0.03999985,0.04,0.0013789220081772413,-0.0028101315509815317,-0.007895751735831347,0.01201265095817304,0.0506315405868331,-0.02774105235851565,0.998607465333853,0.004448305004895195,-0.04597515724532463,-0.025487794693705653
1606.2999999988679,-0.13066079,-0.8150434,0.009921677,-2.2832637,-0.055889986,1.3821217,0.6622185,0.03999985,0.04,0.0020525983880581578,-0.0028733958428117656,-0.007343137738069494,0.012169941795272518,0.05080782868909513,-0.027597904307997877,0.9985751224869496,0.004547292010226733,-0.04653907347230028,-0.025713061386918316
1606.3166666655345,-0.1321657,-0.8153957,0.010035329,-2.2824237,-0.05653378,1.3799496,0.66079485,0.03999985,0.04,0.0013728148593905587,-0.0032118852602819326,-0.007636609261352234,0.01232552117009307,0.050975251524172316,-0.02745041749349357,0.9985423558017401,0.004647549111882092,-0.04710462554123833,-0.025936811866212266
1606.3333333322012,-0.1336723,-0.8157485,0.010149109,-2.2815826,-0.057178307,1.3777751,0.6593695,0.03999985,0.04,0.0022201275885702643,-0.00350855037523079,-0.006936448216210422,0.01248015136638106,0.05113303068692866,-0.027298905478917987,0.9985091875562142,0.004749016561825808,-0.047671297325283614,-0.026159063799171035
1606.3499999988678,-0.1351804,-0.8161015,0.010263008,-2.2807407,-0.05782351,1.3755984,0.6579427,0.03999985,0.04,0.0012263776558274486,-0.0037194755526048784,-0.006683008934849077,0.012634103656074938,0.05128396603291285,-0.027143070906397657,0.9984756059772211,0.004851682329720464,-0.04823934325678125,-0.026379749982647863
1606.3666666655345,-0.13668992,-0.81645495,0.01037701,-2.2798972,-0.05846927,1.3734196,0.6565143,0.03999985,0.04,0.003025412560075935,-0.003913809480804442,-0.00654703900733189,0.012787437163140139,0.05142577444847363,-0.02698329118578261,0.9984416404461295,0.004955458058423343,-0.048808132929073815,-0.02659887626669405
1606.3833333322011,-0.13820063,-0.81680864,0.010491103,-2.2790534,-0.05911555,1.3712393,0.6550851,0.039999846,0.04,0.0006616900583455987,-0.004146178041197768,-0.006360107002456594,0.012940711475414438,0.05156379507110241,-0.026819779580221755,0.9984072655037358,0.0050606211799571945,-0.04937817810678705,-0.026816372414627584
1606.3999999988678,-0.13971238,-0.81716245,0.010605271,-2.2782092,-0.059762254,1.3690573,0.6536547,0.039999843,0.04,0.0008907505880895172,-0.004375949006452107,-0.006258055095731407,0.013091243270282868,0.051691613290507504,-0.026652317725769013,0.998372483325567,0.0051668909919054835,-0.04994947155612797,-0.027032167265712257
1606.4166666655344,-0.14122492,-0.8175165,0.010719503,-2.2773643,-0.060409322,1.3668739,0.65222377,0.039999835,0.04,0.001438931877650873,-0.004662271321634326,-0.006026888534438335,0.013241292950025615,0.05180864556653905,-0.026482223684823024,0.9983373067450836,0.005274470406495206,-0.050521698087117206,-0.02724628314647863
1606.433333332201,-0.14273809,-0.81787086,0.010833782,-2.2765188,-0.061056674,1.36469,0.6507917,0.03999983,0.04,0.0013445917799170815,-0.004817430767151132,-0.0053735356114748,0.013389103204042227,0.05191720846828267,-0.026307441186063332,0.9983017569878426,0.005382962577627466,-0.05109447061999169,-0.027458710474767622
1606.4499999988677,-0.14425169,-0.8182253,0.010948093,-2.2756734,-0.061704207,1.3625054,0.6493595,0.03999983,0.04,0.00037883088586099234,-0.005098278142931512,-0.005447832189364732,0.013537782672457463,0.05202119121640522,-0.026128732943440335,0.9982658155022481,0.005492766805401638,-0.05166814461936572,-0.027669368334773358
1606.4666666655344,-0.1457656,-0.81857985,0.0110624265,-2.2748277,-0.06235184,1.3603201,0.64792717,0.03999983,0.04,0.0006352865941305907,-0.0053011820083659345,-0.0054759221896905075,0.013684078711154096,0.05211517434237972,-0.025945845667165027,0.9982294824054672,0.005603796492756898,-0.05224273793062361,-0.027878203939515282
1606.483333332201,-0.14727958,-0.8189344,0.011176765,-2.273982,-0.0629995,1.3581346,0.6464948,0.03999983,0.04,0.0003688162275583551,-0.005535571978723675,-0.004902287732555521,0.013827912415400073,0.052197990465165545,-0.025759814980799912,0.9981927690821366,0.00571599780714472,-0.05281802780163744,-0.02808521070510906
1606.4999999988677,-0.14879344,-0.81928873,0.011291093,-2.2731361,-0.0636471,1.3559493,0.64506257,0.03999983,0.04,0.000625529745601483,-0.005716219259882527,-0.0044742786066143125,0.013969886042367194,0.052272641158605956,-0.0255703394101469,0.9981556846523737,0.0058293412308850455,-0.05339385101789734,-0.02829036320805123
1606.5166666655343,-0.150307,-0.819643,0.011405403,-2.2722907,-0.0642946,1.3537648,0.6436304,0.039999828,0.04,-0.00022302556801356843,-0.005912341314279201,-0.004175178006926572,0.014110024183172865,0.052339630625419756,-0.025378352279257305,0.9981182337182093,0.005943671483641448,-0.05397013918057818,-0.028493654826392403
1606.533333332201,-0.1518201,-0.8199974,0.011519674,-2.2714458,-0.0649419,1.351581,0.6421985,0.039999828,0.04,-0.00014743065248623566,-0.00615223895880368,-0.004292968462316082,0.0142494999140836,0.05239799467644174,-0.02518300437360224,0.9980804184595911,0.006059033536975162,-0.05454687320732199,-0.028695034821893686
1606.5499999988676,-0.15333253,-0.8203516,0.011633896,-2.270601,-0.06558885,1.3493978,0.6407678,0.039999824,0.04,1.8576615845589117e-05,-0.006439588827178433,-0.0041197521342350996,0.014387921363102199,0.05244608046254755,-0.02498428243900543,0.99804223851276,0.006175768363036791,-0.05512404991748307,-0.028894448433224387
1606.5666666655343,-0.15484409,-0.82070553,0.011748052,-2.269757,-0.06623549,1.347216,0.63933754,0.039999824,0.04,-0.0007029779962142158,-0.006519990325287717,-0.0034533817507620412,0.014521853356782494,0.052486637928295346,-0.02478237435294414,0.9980037012538202,0.006293359473563407,-0.055701585610433084,-0.029091910743292256
1606.583333332201,-0.15635464,-0.8210592,0.011862129,-2.2689135,-0.0668816,1.345036,0.6379086,0.039999824,0.04,-0.0002024070798967159,-0.00678357835349197,-0.0030719433552928166,0.014655600635711447,0.052515528554863924,-0.02457745715325843,0.9979648261803867,0.006412165508022792,-0.05627911852181455,-0.029287380535920546
1606.5999999988676,-0.15786391,-0.8214126,0.011976114,-2.2680712,-0.06752722,1.3428576,0.63648033,0.03999982,0.04,-0.001441667857493556,-0.0070122156893059895,-0.0033703974799070835,0.014785547799046464,0.05253872581191153,-0.02437133336793606,0.9979255900255155,0.006531761121256565,-0.05685715049018939,-0.02948079556283222
1606.6166666655342,-0.15937185,-0.82176566,0.012089992,-2.2672296,-0.068172276,1.3406811,0.63505375,0.03999982,0.04,-0.0006699659443221151,-0.007078131577753499,-0.0028613283270750856,0.01491546497745902,0.05254878473839317,-0.02416193895956571,0.9978860123550239,0.006652577893388082,-0.05743527053369601,-0.029672196620447757
1606.633333332201,-0.1608781,-0.8221184,0.012203747,-2.2663884,-0.06881662,1.3385068,0.6336288,0.039999817,0.04,-0.0001682522865031899,-0.007458506329924286,-0.0024477542159173638,0.015041556174579293,0.05255070878555798,-0.023950331718928904,0.9978461158489905,0.006774401356606579,-0.05801313246444382,-0.02986156447685596
1606.6499999988675,-0.1623827,-0.82247066,0.012317371,-2.265548,-0.06946018,1.3363352,0.63220555,0.039999817,0.04,-0.000635362743617307,-0.007419455520588092,-0.0020956356344248306,0.015165127338283846,0.05254545683025158,-0.02373548147885993,0.9978059012636172,0.00689728546739508,-0.058590752692240906,-0.03004886945691057
1606.6666666655342,-0.1638853,-0.8228226,0.012430849,-2.2647083,-0.0701029,1.3341664,0.6307841,0.039999813,0.04,-0.00047768316542295963,-0.007779516686221011,-0.0018884060934976077,0.015285833989820391,0.05253124232540646,-0.02351910481555573,0.9977653823899957,0.007021072056422207,-0.05916793538441786,-0.0302341144019411
1606.6833333322008,-0.1653857,-0.823174,0.0125441635,-2.2638702,-0.07074471,1.3320007,0.6293646,0.03999981,0.04,-0.0020370271609504442,-0.007959494162093628,-0.0018384571768947922,0.015404540433401726,0.052510926290141494,-0.023299993076123078,0.9977245398594857,0.007145735015172403,-0.05974507438156091,-0.030417217499502953
1606.6999999988675,-0.16688377,-0.8235248,0.012657302,-2.2630332,-0.07138553,1.3298382,0.6279473,0.039999805,0.04,-0.0010920740236119997,-0.008077841884215897,-0.0014344954050615755,0.01552141712956738,0.05247971323686115,-0.02307910137771643,0.9976833912060165,0.007271295657478357,-0.06032188605450915,-0.03059819004371216
1606.7166666655341,-0.16837932,-0.82387507,0.01277025,-2.2621977,-0.07202524,1.3276793,0.6265321,0.03999981,0.04,-0.0019188642834677694,-0.008314474944837169,-0.001223078803436195,0.015635874125132718,0.052439838237390374,-0.02285492940978612,0.9976419433818394,0.007397624742362035,-0.06089832009310067,-0.030776981062412972
1606.7333333322008,-0.16987222,-0.8242247,0.0128829945,-2.261364,-0.07266382,1.3255244,0.62511975,0.039999805,0.04,-0.0020071269642318867,-0.008357680041287674,-0.0007628588570840478,0.01574867193678782,0.052390410281918154,-0.022630452981748105,0.9976002014125407,0.007524998338873698,-0.06147426623368108,-0.03095362874831546
1606.7499999988675,-0.17136227,-0.8245737,0.012995521,-2.2605317,-0.07330117,1.3233739,0.62371004,0.039999798,0.04,-0.0015917376712692999,-0.008572610971591121,-0.0004168009811289508,0.015857181784315777,0.052331114170609885,-0.02240472301063387,0.9975581848079097,0.00765317946723926,-0.06204947264915428,-0.031128117687264867
1606.766666665534,-0.1728492,-0.8249218,0.013107817,-2.2597013,-0.0739372,1.3212277,0.6223033,0.039999798,0.04,-0.002566902140443972,-0.008820262514214194,-0.0002933345882194516,0.015963577734014994,0.052264212837568144,-0.022175859801722486,0.9975158770210938,0.0077821974058451164,-0.06262426748748348,-0.031300377250613465
1606.7833333322008,-0.1743329,-0.8252692,0.013219868,-2.258873,-0.07457184,1.3190862,0.6208994,0.039999794,0.04,-0.002617334274113148,-0.008927241598380431,-8.794794432720465e-05,0.01606706345491174,0.052186759964945664,-0.021946321908375747,0.9974732965660561,0.007911891629077102,-0.06319840192935847,-0.031470408355622426
1606.7999999988674,-0.17581323,-0.825616,0.013331662,-2.2580462,-0.07520501,1.3169495,0.6194989,0.039999794,0.04,-0.0015134090304957937,-0.009078639712700731,0.00020371035678312666,0.016168915190870117,0.05209924047043504,-0.02171507326157177,0.9974304661790409,0.008042507532348473,-0.06377149558297102,-0.031638261038883404
1606.816666665534,-0.17728986,-0.82596177,0.013443183,-2.2572212,-0.07583664,1.314818,0.6181019,0.039999794,0.04,-0.002488444239467924,-0.009296531178620837,0.0007936822593146431,0.01626655835929905,0.052005037779253305,-0.021481921853374827,0.9973873814008526,0.008173853607055638,-0.06434370457826502,-0.03180388688046959
1606.8333333322007,-0.17876273,-0.82630676,0.013554421,-2.256399,-0.076466665,1.3126923,0.6167084,0.03999979,0.04,-0.0032820922311938006,-0.009363596285288933,0.0008566871502191375,0.016361414491199863,0.05190156944575343,-0.0212482719419579,0.9973440463851745,0.008305901269618603,-0.06491501310665548,-0.031967267908109234
1606.8499999988674,-0.18023168,-0.8266508,0.0136653595,-2.2555788,-0.07709499,1.3105719,0.6153187,0.03999979,0.04,-0.002797440767832171,-0.00955501612888987,0.0009366944583977244,0.01645348751276826,0.05178876569276504,-0.02101288371492888,0.9973004637495007,0.008438708816536435,-0.06548542509854943,-0.032128372168581484
1606.866666665534,-0.18169647,-0.82699376,0.013775984,-2.2547603,-0.077721514,1.3084576,0.61393285,0.03999979,0.04,-0.0020172900098369695,-0.00965721467576508,0.0018065354223550933,0.016541874658041078,0.0516650367289809,-0.020776768564528272,0.9972566713427303,0.008572147706323436,-0.0660543923139684,-0.03228725758175867
1606.8833333322007,-0.18315697,-0.8273358,0.01388628,-2.2539442,-0.0783462,1.3063498,0.61255103,0.039999787,0.04,-0.0029476848661946775,-0.009787416207895916,0.001882740094627522,0.016627804214268085,0.05153709967277345,-0.02053979085636776,0.9972126663162804,0.008706228425509418,-0.06662201286050759,-0.03244390740018983
1606.8999999988673,-0.18461294,-0.82767683,0.01399624,-2.2531312,-0.07896895,1.304248,0.61117345,0.039999787,0.04,-0.004148698535910711,-0.010074828556966287,0.0015151436338567414,0.01671060406180032,0.05139949852987642,-0.020301378350405335,0.9971684219345976,0.008840915010224614,-0.06718878995127406,-0.03259820582685249
1606.916666665534,-0.18606424,-0.8280167,0.014105845,-2.25232,-0.0795897,1.3021531,0.6098003,0.039999787,0.04,-0.0023423975699099486,-0.0100398593350981,0.0027488963019850488,0.01679038434902007,0.05125001163130276,-0.020062987402738517,0.9971239969339126,0.008976200169395846,-0.06775382422095601,-0.03275029576192297
1606.9333333322006,-0.18751073,-0.8283555,0.0142150875,-2.2515118,-0.08020839,1.3000652,0.60843164,0.039999787,0.04,-0.003721613717200256,-0.010211090638759246,0.002488964431657248,0.016867005639148842,0.051094379665860515,-0.019823520292505163,0.9970793712430336,0.009112048424738726,-0.06831750663572775,-0.03290009577766155
1606.9499999988673,-0.18895221,-0.8286931,0.014323951,-2.2507071,-0.08082493,1.2979845,0.6070678,0.039999783,0.04,-0.0048673965793888385,-0.010358977116048385,0.002756198699671586,0.016940315832533213,0.050930123873217395,-0.019584093863860376,0.9970345352301758,0.009248473538985662,-0.06888004600731129,-0.0330475499481698
1606.966666665534,-0.19038853,-0.8290295,0.014432424,-2.2499049,-0.08143925,1.2959113,0.60570884,0.03999978,0.04,-0.002981904059673468,-0.01041306208257875,0.0033644363210405537,0.01700966393056568,0.050752930697503806,-0.01934504939681663,0.9969895388103686,0.009385402069967479,-0.06944072185658501,-0.03319276847010316
1606.9833333322006,-0.1918195,-0.8293647,0.014540491,-2.2491057,-0.08205128,1.2938459,0.6043549,0.03999978,0.04,-0.004046721935546671,-0.010580077335631266,0.0034578248217731478,0.017075825204513194,0.050569324027628704,-0.019105263995439794,0.99694437296899,0.009522823364901295,-0.06999974443342505,-0.03333569888098244
1606.9999999988672,-0.19324495,-0.82969856,0.0146481395,-2.2483096,-0.08266095,1.2917883,0.60300636,0.03999978,0.04,-0.004192336176611633,-0.010685086355960438,0.003778421742384186,0.017138658393364453,0.05037682709783825,-0.018864670751071434,0.996899040623195,0.009660775490070349,-0.07055711963893105,-0.03347633626521215
1607.0166666655339,-0.1946647,-0.83003116,0.014755358,-2.2475169,-0.083268166,1.2897391,0.6016632,0.03999978,0.04,-0.004360809220926853,-0.01081086716557822,0.004105126686382299,0.017197329175605618,0.050175357031228385,-0.018624020141158895,0.9968535602939663,0.009799144760997783,-0.07111265063598134,-0.03361468445072009
1607.0333333322005,-0.19607855,-0.8303623,0.014862135,-2.246727,-0.08387291,1.2876986,0.6003255,0.039999776,0.04,-0.0037174364043046637,-0.010853853400399904,0.004740170140804523,0.017252359619021176,0.04996574643079728,-0.018383974092540785,0.9968079578088729,0.009937901566009122,-0.07166599797327142,-0.03375082363237438
1607.0499999988672,-0.19748637,-0.83069205,0.014968457,-2.2459404,-0.08447504,1.2856666,0.59899354,0.039999772,0.04,-0.00452031976010403,-0.011055812584226388,0.004536095539686702,0.017304297377640672,0.049749635968453054,-0.018142891776774576,0.9967622179898695,0.010077012580086085,-0.07221748589735345,-0.03388464749768315
1607.0666666655338,-0.198888,-0.83102053,0.015074312,-2.2451575,-0.08507452,1.2836435,0.5976674,0.039999772,0.04,-0.004631973043522919,-0.011123479523253432,0.004812122366881777,0.017352840797491498,0.04952313548009325,-0.017902463746428805,0.9967163595205718,0.01021646701773552,-0.0727668908313223,-0.03401620296970825
1607.0833333322005,-0.20028326,-0.8313473,0.015179686,-2.2443779,-0.085671276,1.2816294,0.59634715,0.03999977,0.04,-0.004679576864008439,-0.011186813447183752,0.005417836037302504,0.017397605442783785,0.04928946677454468,-0.017662818958895113,0.9966703856725929,0.010356170937452952,-0.07331424953429443,-0.03414546619951539
1607.0999999988671,-0.20167197,-0.83167267,0.015284569,-2.2436025,-0.08626523,1.279625,0.5950332,0.03999977,0.04,-0.005705372600761649,-0.011317416056111362,0.0054806672689200475,0.01743913432276864,0.04904671072178106,-0.0174231116902802,0.9966243012871694,0.010496209265143658,-0.07385953656890948,-0.03427244567797168
1607.1166666655338,-0.20305406,-0.8319965,0.015388947,-2.2428305,-0.08685633,1.2776301,0.5937257,0.03999977,0.04,-0.00446420456921004,-0.011336229528041697,0.005765949453995223,0.01747655333131066,0.048794608752692814,-0.017183995956522626,0.9965781301907348,0.010636570072161402,-0.07440247042577068,-0.034397182983221995
1607.1333333322004,-0.20442924,-0.8323186,0.015492808,-2.2420626,-0.087444484,1.2756453,0.59242463,0.039999764,0.04,-0.00557956329179099,-0.011460339777769057,0.006391099889813123,0.017509481524752464,0.048534573464276046,-0.016945317772296603,0.9965318742721032,0.010777124121720504,-0.07494311491854357,-0.034519656453970746
1607.149999998867,-0.20579743,-0.83263916,0.015596143,-2.241298,-0.08802964,1.2736704,0.5911301,0.03999976,0.04,-0.004362222972842389,-0.011527707016956157,0.006453339664447277,0.017538817727197648,0.04826482866247099,-0.016708320835624024,0.996485566313855,0.010917828958794423,-0.07548107307311143,-0.034639929946718606
1607.1666666655337,-0.20715849,-0.83295786,0.015698934,-2.240538,-0.08861176,1.271706,0.5898424,0.039999757,0.04,-0.006383470831927696,-0.011538759493240347,0.006728906242303712,0.017564674430487134,0.04799052965336352,-0.016471362724480333,0.9964391729491403,0.01105873792326175,-0.07601687813678216,-0.03475792235326223
1607.1833333322004,-0.20851222,-0.833275,0.015801167,-2.2397816,-0.089190714,1.269752,0.58856153,0.039999757,0.04,-0.005016671820357033,-0.011729752194594711,0.006925686950831622,0.017586516835157884,0.04770453821223351,-0.016235285130786314,0.9963927417709478,0.011199746355737594,-0.07654994963496967,-0.034873701246412064
1607.199999998867,-0.20985848,-0.83359045,0.015902838,-2.2390294,-0.08976647,1.2678088,0.58728784,0.039999757,0.04,-0.005498230098410772,-0.011740105826946179,0.007275548716390023,0.017604680070184744,0.04741300593699521,-0.015999811561035835,0.9963462717446224,0.011340904132174161,-0.07708035540359971,-0.034987276043023194
1607.2166666655337,-0.21119712,-0.8339041,0.016003935,-2.2382817,-0.090338975,1.2658764,0.5860213,0.039999757,0.04,-0.006264138796474583,-0.011819948535640723,0.007396841562856693,0.017618442321550506,0.04711228500882486,-0.015765481584831445,0.9962997559950993,0.011482104858349752,-0.07760828153424172,-0.035098605519724324
1607.2333333322003,-0.21252795,-0.83421594,0.01610444,-2.2375379,-0.090908155,1.2639555,0.5847622,0.039999753,0.04,-0.005060438799997513,-0.011845136910276777,0.008160962773462455,0.017628432941013662,0.04680331069145405,-0.015533065938256537,0.9962532463980341,0.011623374318984884,-0.07813306176680819,-0.03520782398505622
1607.249999998867,-0.21385084,-0.83452594,0.01620435,-2.236799,-0.09147393,1.2620461,0.58351046,0.039999753,0.04,-0.006917284139085211,-0.011933098883981641,0.008098316566540475,0.01763433217296416,0.046488287911152754,-0.015300668254568526,0.9962067123587655,0.011764549121395466,-0.07865523368128108,-0.035314810630289746
1607.2666666655336,-0.21516567,-0.83483404,0.016303647,-2.2360647,-0.09203624,1.2601483,0.58226657,0.03999975,0.04,-0.006254168854002984,-0.01197082027379337,0.008368707472705683,0.017636786578417142,0.04616470501727678,-0.015070391774694217,0.996160172964624,0.011905819993578462,-0.0791745649599435,-0.0354196204493327
1607.2833333322003,-0.21647233,-0.83514017,0.016402327,-2.235335,-0.09259501,1.2582625,0.58103037,0.03999975,0.04,-0.006581488963819382,-0.011972737714949222,0.008826820024399051,0.01763456904181119,0.045832194049302916,-0.01484104354496698,0.9961136434952115,0.012046997037993421,-0.07969095350331065,-0.03552226111601663
1607.299999998867,-0.21777052,-0.8354444,0.01650038,-2.2346098,-0.09315021,1.2563887,0.5798021,0.039999746,0.039999995,-0.005838235146526927,-0.012157924235567386,0.008952894083291696,0.017628404349594118,0.0454918486105437,-0.014613362889433077,0.9960671452781021,0.012188054345383439,-0.0802041733281908,-0.035622801820571655
1607.3166666655336,-0.21906023,-0.8357465,0.016597783,-2.2338896,-0.09370178,1.2545272,0.5785818,0.039999746,0.04,-0.006994654878500484,-0.012037893329902571,0.009346439806201534,0.017618362436084403,0.04514468082935233,-0.014387449183423034,0.9960206708022481,0.012328966468247934,-0.08071441100425739,-0.03572119506259814
1607.3333333322003,-0.22034131,-0.83604676,0.016694527,-2.2331736,-0.094249636,1.2526783,0.5773697,0.039999742,0.039999995,-0.005741410460657903,-0.012114521698852743,0.009603479603348397,0.017604637502140058,0.044789430610276376,-0.01416276000475463,0.9959742637714123,0.012469741254881305,-0.08122114918847628,-0.03581754294383038
1607.349999998867,-0.22161353,-0.83634496,0.016790614,-2.2324631,-0.09479374,1.2508417,0.576166,0.039999742,0.04,-0.007687063286310192,-0.012306123978045314,0.009439444991954371,0.0175868909975075,0.04442978851635025,-0.01393969404951879,0.9959278793878166,0.012610332556062635,-0.0817250647277641,-0.035911730202747856
1607.3666666655336,-0.22287683,-0.8366408,0.016886022,-2.2317579,-0.095334016,1.2490184,0.57497084,0.039999742,0.04,-0.007476056344790649,-0.012092284100040374,0.010484718659575787,0.017564606576922173,0.04405994569703153,-0.013718190853161647,0.9958815501091026,0.012750761879204887,-0.0822257890020404,-0.036003831001476104
1607.3833333322002,-0.22413097,-0.8369346,0.016980745,-2.2310572,-0.095870405,1.247208,0.57378423,0.03999974,0.039999995,-0.006115699575959255,-0.012359824216851,0.010227738896106953,0.017537931385330892,0.04368106682256756,-0.013498818150800047,0.9958353135832355,0.012890885218286678,-0.08272292385971886,-0.03609392146839947
1607.3999999988669,-0.22537597,-0.83722645,0.017074771,-2.230362,-0.096402854,1.2454109,0.5726062,0.03999974,0.04,-0.0075241861485331185,-0.012234965867791159,0.01047624512230394,0.017507675025954926,0.04329652145272153,-0.013281626508365,0.9957891570563777,0.013030686534050918,-0.08321671721225693,-0.036181955085584444
1607.4166666655335,-0.2266116,-0.83751595,0.017168092,-2.2296715,-0.09693127,1.2436274,0.5714371,0.03999974,0.04,-0.006666768357765918,-0.012267723891534743,0.011183202128439707,0.017473861979043596,0.042905292935791484,-0.013065878918505504,0.9957431121389393,0.013170214713459577,-0.08370682102012525,-0.03626800500393899
1607.4333333322002,-0.22783774,-0.83780336,0.017260699,-2.2289863,-0.097455636,1.2418575,0.57027715,0.03999974,0.04,-0.007189435920595955,-0.012352285053957024,0.01100093336016128,0.01743552826394417,0.04250881162135145,-0.012851670885288116,0.9956971762171197,0.013309471096985949,-0.0841933352178656,-0.03635207775718692
1607.4499999988668,-0.22905433,-0.8380884,0.017352577,-2.2283065,-0.0979759,1.2401015,0.56912607,0.039999735,0.04,-0.007768195876156625,-0.012248243232249045,0.011430832472070218,0.01739257558132725,0.04210609204649429,-0.012639938046876555,0.9956513474457128,0.013448269683593679,-0.08467639493377827,-0.0364341393897616
1607.4666666655335,-0.23026116,-0.83837116,0.017443724,-2.227633,-0.09849199,1.2383596,0.56798416,0.039999735,0.04,-0.008683072186466134,-0.012372827069495607,0.011586516155814852,0.017346090057883623,0.0416936396665059,-0.012430371021530766,0.995605624113284,0.013586607283934186,-0.08515609160854522,-0.036514180785929475
1607.4833333322001,-0.23145811,-0.8386516,0.017534122,-2.2269642,-0.09900387,1.2366319,0.5668517,0.03999973,0.04,-0.0065874476693483786,-0.012324422485004982,0.012070911692696473,0.017296019318080398,0.04127444406631889,-0.012223739847613355,0.9955600639091623,0.013724554870229345,-0.08563173785868312,-0.036592365516602006
1607.4999999988668,-0.23264505,-0.83892965,0.017623767,-2.2263007,-0.09951149,1.2349185,0.5657284,0.03999973,0.04,-0.007343794548875238,-0.01235632626602201,0.012202024988017257,0.017241225103768958,0.04084998880439798,-0.012018321578454772,0.9955146606362028,0.013861920105843693,-0.08610352562237418,-0.036668658344182384
1607.5166666655334,-0.23382193,-0.83920544,0.01771265,-2.225643,-0.10001481,1.2332199,0.56461483,0.03999973,0.04,-0.007873960952053949,-0.012279398515302464,0.012455056391846853,0.01718366566058959,0.04042047843362648,-0.011814905963166799,0.9954694235621828,0.013998848506221188,-0.08657137705965277,-0.03674310366954396
1607.5333333322,-0.23498857,-0.83947873,0.017800761,-2.224991,-0.10051373,1.2315359,0.5635111,0.039999735,0.04,-0.008475661751639052,-0.01238991654557986,0.012614235832475451,0.0171218871369115,0.03998519468074632,-0.01161287462236315,0.9954243391545923,0.014135303092678424,-0.08703555534751811,-0.03681562617246206
1607.5499999988667,-0.23614489,-0.83974963,0.017888095,-2.224345,-0.10100819,1.2298669,0.562417,0.03999974,0.04,-0.007976252150365681,-0.0123634894884872,0.012864763040754124,0.017054901869045222,0.03954167347531991,-0.01141371367477892,0.9953794390182787,0.014271130775472336,-0.08749576088292503,-0.03688629872410333
1607.5666666655334,-0.23729074,-0.8400182,0.017974636,-2.2237046,-0.10149817,1.2282128,0.56133294,0.03999974,0.04,-0.00791150280607944,-0.012375997013253093,0.013017925358083104,0.016984710331054004,0.039092982487354336,-0.011217580113179491,0.9953347353162377,0.014406453519427095,-0.08795188444853236,-0.0369551727353477
1607.5833333322,-0.238426,-0.8402841,0.018060379,-2.2230706,-0.10198366,1.2265742,0.5602588,0.039999735,0.04,-0.00922382982633252,-0.012287654625597888,0.013491235942908464,0.016909506424597362,0.03863814646245757,-0.011024903748698573,0.9952902087853752,0.014541062915040502,-0.08840426741507659,-0.03702219993556304
1607.5999999988667,-0.23955068,-0.8405477,0.018145317,-2.2224424,-0.102464564,1.224951,0.55919486,0.03999974,0.04,-0.00783677938382965,-0.01225689406399999,0.013566503377193673,0.01683138673536816,0.03817620357630321,-0.010833262916277741,0.995245911974472,0.014675109527317222,-0.08885230808642146,-0.037087507413929216
1607.6166666655333,-0.2406645,-0.84080887,0.018229442,-2.2218208,-0.10294086,1.2233434,0.5581411,0.039999735,0.04,-0.009324118848619278,-0.012419669534802225,0.013536119917745282,0.016748040075399595,0.037709853121910504,-0.01064491043929391,0.9952018142704807,0.014808411705315447,-0.08929648350638765,-0.03715101410329202
1607.6333333322,-0.24176742,-0.8410673,0.018312741,-2.221205,-0.103412494,1.2217515,0.5570976,0.039999735,0.04,-0.008162083967500067,-0.012230006126773274,0.01427868809769084,0.016661533990013612,0.0372357594038225,-0.01045907575728336,0.9951579557016098,0.01494096758574784,-0.08973637377285475,-0.03721281920914948
1607.6499999988666,-0.24285936,-0.8413231,0.018395215,-2.2205954,-0.10387944,1.2201755,0.55606455,0.03999973,0.04,-0.008786532000781833,-0.01221431184030286,0.014407014321937694,0.016571233683152463,0.036756221065063654,-0.010275804493499772,0.9951143355575041,0.015072783834837318,-0.0901720511597297,-0.03727293314272947
1607.6666666655333,-0.2439402,-0.8415765,0.018476855,-2.2199912,-0.104341626,1.2186155,0.5550419,0.039999727,0.04,-0.007426853906666864,-0.012286865249933054,0.014412910095606968,0.016476806804659287,0.0362720843493175,-0.010095478107957656,0.9950710051645675,0.015203804320724903,-0.09060297874825647,-0.03733147809687399
1607.6833333322,-0.24500985,-0.84182733,0.018557645,-2.2193933,-0.10479905,1.2170717,0.5540298,0.039999727,0.04,-0.008732174157755068,-0.012200758148384061,0.014647672321965732,0.01637920228000494,0.035786079481427216,-0.009916498606118743,0.9950279356782936,0.015334001517635785,-0.09102957842685017,-0.03738838681570418
1607.6999999988666,-0.24606816,-0.84207547,0.018637583,-2.218802,-0.10525162,1.215544,0.55302846,0.039999727,0.04,-0.009482857802201039,-0.01226122373692018,0.014796514622150703,0.016277844952343752,0.035295194908266894,-0.009740087808689086,0.9949851184609945,0.015463347350315388,-0.09145203177588579,-0.03744362180594658
1607.7166666655332,-0.2471151,-0.84232074,0.018716665,-2.2182176,-0.10569933,1.214032,0.55203795,0.039999723,0.04,-0.010083865053767127,-0.012245038235281225,0.014584119272842422,0.016172626648997476,0.03479717956705455,-0.009567437456335084,0.9949425226717455,0.015591871658982872,-0.09187076106548181,-0.03749711160878762
1607.7333333322,-0.24815057,-0.8425633,0.01879488,-2.21764,-0.10614213,1.2125382,0.5510581,0.039999723,0.04,-0.009178174179869103,-0.011845289595091568,0.016477101262202254,0.01606313407511746,0.03428766695849422,-0.009398509243352669,0.9949002684928625,0.015719352878627996,-0.09228443173552957,-0.03754918583881234
1607.7499999988665,-0.2491745,-0.8428034,0.018872218,-2.2170677,-0.106580004,1.2110606,0.5500893,0.03999972,0.04,-0.00747731714505484,-0.012164775935324945,0.015096678315351664,0.015951531441989367,0.0337788943243202,-0.009231633438911918,0.9948583462383546,0.01584601309840055,-0.0926931948073647,-0.03759981948328233
1607.7666666655332,-0.25018677,-0.8430408,0.018948678,-2.2165022,-0.10701289,1.2095985,0.54913163,0.03999972,0.04,-0.009698483298858918,-0.012306285392377214,0.014655836492705188,0.01583558314773585,0.03327019291606264,-0.009065662760636447,0.994816671391729,0.015971806019295223,-0.09309813045827528,-0.03764876941862256
1607.7833333321998,-0.25118735,-0.8432755,0.01902426,-2.215943,-0.10744075,1.2081544,0.54818493,0.03999972,0.04,-0.008873831539979449,-0.011797552065712091,0.016702874544471946,0.01571492390070902,0.032749588205376004,-0.008904293290014199,0.9947753643352485,0.01609654384906347,-0.09349790947503454,-0.037696375310989155
1607.7999999988665,-0.2521761,-0.84350723,0.019098943,-2.2153904,-0.107863575,1.206727,0.54724944,0.039999716,0.04,-0.00927877433487545,-0.01198984557257976,0.015924154939472857,0.015591611480213194,0.03223068453989973,-0.008744847354289598,0.994734369804388,0.01622029371185099,-0.09389323577068441,-0.03774249433038178
1607.8166666655331,-0.253153,-0.84373623,0.019172724,-2.2148447,-0.10828132,1.205317,0.5463252,0.039999716,0.04,-0.009710769864623714,-0.01186917853811531,0.016316179932440722,0.01546478197890655,0.031704529269157095,-0.008588295594278275,0.9946937118671741,0.0163430205933011,-0.09428389699313108,-0.0377871938304355
1607.8333333321998,-0.2541179,-0.8439624,0.0192456,-2.2143059,-0.108693935,1.2039242,0.5454123,0.039999712,0.04,-0.009863769106699394,-0.011917946727352247,0.01632447247789104,0.01533435340924802,0.031175431593790284,-0.008434860862038852,0.9946533835852082,0.01646467529681483,-0.09467005093309484,-0.03783044337821732
1607.8499999988665,-0.25507078,-0.84418577,0.019317575,-2.213774,-0.10910141,1.2025489,0.5445108,0.039999716,0.04,-0.009700771105203287,-0.01183033856942406,0.016589688304591288,0.015200574724541817,0.030641042841180202,-0.008283475906864348,0.9946134104175784,0.01658523197576372,-0.09505146001010718,-0.03787233618052349
1607.866666665533,-0.2560116,-0.8444063,0.01938864,-2.2132485,-0.1095037,1.2011908,0.5436207,0.039999716,0.04,-0.009145609986127567,-0.0117558067387169,0.016661551915853057,0.015063784853830746,0.03010304097536086,-0.008135372993432246,0.9945738038543557,0.01670471503247731,-0.0954280545902626,-0.037912894633346746
1607.8833333321998,-0.25694028,-0.84462404,0.019458782,-2.2127295,-0.109900795,1.1998506,0.5427421,0.039999712,0.04,-0.009014036041588014,-0.011673803902045865,0.017072366941550676,0.014923093181687622,0.02956143166269487,-0.007990651105642323,0.9945345939465661,0.0168230378135074,-0.09579956608650167,-0.037952206522179475
1607.8999999988664,-0.2578567,-0.84483874,0.019528002,-2.2122178,-0.110292666,1.1985278,0.54187506,0.039999712,0.04,-0.010674115356001934,-0.0116894745860463,0.016950386539871243,0.014779790822195521,0.029019797902982966,-0.007847384255641441,0.9944957262478763,0.016940202984526895,-0.09616667463295422,-0.03799013934683176
1607.916666665533,-0.25876084,-0.84505075,0.0195963,-2.2117124,-0.110679284,1.1972226,0.5410197,0.03999971,0.04,-0.008619762992978508,-0.01166921080764105,0.017009848353843893,0.014633150354079374,0.028469625532087227,-0.007708777431447208,0.9944572724310335,0.01705621359219015,-0.09652862123100005,-0.038026887463597274
1607.9333333321997,-0.25965255,-0.84525967,0.019663662,-2.2112143,-0.111060634,1.1959354,0.5401759,0.039999712,0.04,-0.010644986265262446,-0.011549724063841804,0.017527459248789512,0.014483227630848007,0.027921151003145676,-0.007571079897508479,0.9944191922950305,0.017170927036520876,-0.09688594622166101,-0.038062352590702626
1607.9499999988664,-0.26053187,-0.84546584,0.019730087,-2.210723,-0.11143667,1.194666,0.53934395,0.03999971,0.04,-0.009321913949555949,-0.011530386057945208,0.017377866616608006,0.014331146899296793,0.02736573226336566,-0.007437786798610473,0.9943815311114236,0.01728445641524047,-0.09723817542514049,-0.03809665852696608
1607.966666665533,-0.2613988,-0.84566903,0.019795574,-2.2102387,-0.11180738,1.1934146,0.53852373,0.03999971,0.04,-0.010228058829486741,-0.011409473292495198,0.017511145924498095,0.014175802232014138,0.02681061903691532,-0.007305874112979482,0.9943442649610542,0.017396736612162917,-0.09758565019184538,-0.03812974129131342
1607.9833333321997,-0.26225322,-0.8458695,0.019860115,-2.2097611,-0.112172745,1.1921813,0.5377154,0.039999705,0.04,-0.00926741551059429,-0.011356329614437,0.017787843902727918,0.014017243202161314,0.02625001367767097,-0.007178041163461265,0.9943074454043465,0.0175077735661555,-0.09792784190020404,-0.038161756497931264
1607.9999999988663,-0.26309508,-0.8460669,0.01992371,-2.2092903,-0.11253278,1.1909662,0.5369189,0.039999705,0.04,-0.009536436949320048,-0.011274912614994692,0.017989618589686618,0.0138562649560596,0.02569143264918694,-0.007051288058360498,0.9942710602522281,0.01761750522911786,-0.09826494878017807,-0.0381926968888197
1608.016666665533,-0.26392442,-0.8462612,0.019986356,-2.2088268,-0.11288741,1.1897694,0.53613424,0.0399997,0.04,-0.01062865907806021,-0.011175097194665584,0.018027349978100293,0.013692422262142533,0.025130708677584733,-0.0069270459997444085,0.9942350883762004,0.017725913845562408,-0.09859727750468403,-0.038222478838675626
1608.0333333321996,-0.26474106,-0.8464529,0.020048046,-2.2083704,-0.11323664,1.1885905,0.5353616,0.0399997,0.04,-0.009932611279062087,-0.011344803144008875,0.017638429087407648,0.013526020777554711,0.024565575134580638,-0.006806735191701685,0.9941995557742997,0.017832984873946457,-0.09892458718690081,-0.03825119604106461
1608.0499999988663,-0.26554507,-0.8466414,0.020108784,-2.207921,-0.11358046,1.1874301,0.5346009,0.039999697,0.04,-0.009937950815075425,-0.011011751129941239,0.018488328572796586,0.0133569409005809,0.023998115242602397,-0.0066887024787790905,0.9941644754255949,0.017938704665829346,-0.09924678865135735,-0.03827889260488825
1608.066666665533,-0.26633635,-0.846827,0.020168563,-2.207479,-0.11391883,1.186288,0.5338523,0.039999697,0.04,-0.01054223514564967,-0.011096758768819326,0.01815303347221242,0.013185303044331891,0.023431046108020992,-0.0065733170059457235,0.9941298299952656,0.018043043534327022,-0.09956413169655687,-0.038305526665395793
1608.0833333321996,-0.26711503,-0.8470096,0.020227378,-2.2070441,-0.11425181,1.1851642,0.5331156,0.039999697,0.04,-0.010119634139460487,-0.010858288159509843,0.018252603560786618,0.013011812789743664,0.02285986298779484,-0.006460108515990279,0.9940956408213648,0.01814602827987113,-0.09987641906647557,-0.03833118145953452
1608.0999999988662,-0.26788095,-0.84718907,0.020285234,-2.2066164,-0.114579305,1.1840587,0.5323907,0.0399997,0.04,-0.010345637139774766,-0.010920189819657589,0.018446723873610793,0.012835289643535006,0.022286245106064667,-0.006349657140273088,0.9940619030589293,0.0182474358724951,-0.10018381321396,-0.03835580191900044
1608.1166666655329,-0.26863414,-0.8473657,0.020342126,-2.2061958,-0.114901334,1.1829717,0.5316782,0.039999705,0.04,-0.010039281274698553,-0.010789079126205525,0.018532973306206735,0.012658140156004003,0.021709979627702353,-0.006242672360182954,0.9940286435365826,0.01834759367761297,-0.10048598489082726,-0.03837953198754613
1608.1333333321995,-0.26937464,-0.84753925,0.020398054,-2.2057827,-0.11521792,1.1819032,0.5309777,0.0399997,0.04,-0.010557149351519968,-0.010651933791966384,0.018558404267243755,0.012476928099802765,0.021135015844661237,-0.0061384516873373846,0.9939958458337298,0.018446321336579908,-0.10078319968591047,-0.03840232226709181
1608.1499999988662,-0.27010202,-0.8477098,0.020453013,-2.2053764,-0.11552898,1.1808532,0.5302892,0.0399997,0.04,-0.009866881358755464,-0.010922990063144677,0.01883295238678251,0.012293623825104776,0.020557050239324866,-0.0060367462802525425,0.9939635429895681,0.018543340231316395,-0.10107520966256099,-0.03842423366002491
1608.1666666655328,-0.2708167,-0.84787744,0.020507012,-2.2049773,-0.115834564,1.1798216,0.52961314,0.0399997,0.04,-0.010090663181827608,-0.01055824813003814,0.018477628573509985,0.012110882460292547,0.019978848972494932,-0.0059377978915397134,0.993931720676358,0.018639149001503777,-0.10136210081465175,-0.03844530239540647
1608.1833333321995,-0.27151856,-0.8480421,0.02056004,-2.2045848,-0.11613468,1.1788085,0.5289489,0.039999697,0.04,-0.009517158649563484,-0.010497354842575746,0.01887746868403095,0.011923553497222843,0.019400012036971018,-0.005841616770729663,0.9939004099266082,0.018733311021246632,-0.10164368032281888,-0.03846557495129614
1608.1999999988661,-0.27220765,-0.84820366,0.020612093,-2.2042,-0.116429344,1.1778135,0.52829707,0.039999697,0.04,-0.010959371244911864,-0.010405252290740519,0.01851630736777743,0.011736357804480377,0.018822177109716523,-0.0057471283800936725,0.9938695554474642,0.01882614234216064,-0.10192051232581599,-0.03848496182167383
1608.2166666655328,-0.27288386,-0.8483622,0.020663183,-2.2038221,-0.11671851,1.1768374,0.5276571,0.039999697,0.04,-0.009809518003089934,-0.010321039631694395,0.01920308590062092,0.011545382757767769,0.018241428256016885,-0.005655477544528224,0.9938392271436519,0.018917293005445132,-0.10219196758415938,-0.03850361511770876
1608.2333333321994,-0.2735473,-0.8485177,0.020713305,-2.2034516,-0.1170022,1.17588,0.52702945,0.039999694,0.04,-0.010551111837830973,-0.010209660297888501,0.018933475278792855,0.011354701497416061,0.017662467813496473,-0.005566603838900739,0.9938093915107112,0.019007033221685284,-0.10245838302957402,-0.038521497636833116
1608.249999998866,-0.27419785,-0.84867024,0.020762462,-2.203088,-0.11728043,1.1749408,0.52641374,0.039999694,0.04,-0.00984652265763053,-0.010230983273923355,0.01886165776235904,0.011161420806283257,0.017082286230230198,-0.005479644992527958,0.9937800699918978,0.019095122472352538,-0.10271962085029873,-0.038538659512694085
1608.2666666655327,-0.27483565,-0.84881985,0.02081065,-2.2027316,-0.117553145,1.1740202,0.52581036,0.039999694,0.04,-0.010135488846607643,-0.010105987780917314,0.01887833655770388,0.010967812994961895,0.01650370356695445,-0.005394791164573578,0.9937512611485814,0.019181799063426427,-0.10297569456426393,-0.03855510185827371
1608.2833333321994,-0.27546063,-0.8489664,0.020857872,-2.2023828,-0.117820375,1.1731179,0.5252189,0.039999697,0.04,-0.01094810787027889,-0.010060366718489533,0.018829667332453948,0.010771559970143094,0.01592511636228166,-0.005312328576975538,0.993722940181017,0.01926680800843645,-0.10322695814031867,-0.03857075809804486
1608.299999998866,-0.27607292,-0.84911007,0.020904131,-2.202041,-0.11808217,1.172234,0.5246397,0.039999697,0.04,-0.009780287040239699,-0.009839682084072932,0.018962771860353556,0.010575022705275858,0.015344842585317972,-0.005233029343868266,0.9936951473629277,0.01935039914939961,-0.10347295210884305,-0.0385858049288767
