rsonawane2002/My_IMU/logs_2/traj_396/imu_396.csv
time,j1,j2,j3,j4,j5,j6,j7,gripper1,gripper2,imu_ax,imu_ay,imu_az,imu_gx,imu_gy,imu_gz
1603.283333332204,0.00016700293,-0.785875,4.0107683e-05,-2.3551247,9.29385e-05,1.570997,0.786,0.04,0.04,-9.493864,0.06560997664928436,0.08970168,-1.8032829e-07,-0.0011641276068985462,-2.8892828e-07
1603.2999999988706,0.00016700088,-0.78576016,4.0115e-05,-2.3552213,9.297192e-05,1.5709941,0.786,0.04,0.04,-9.834318,0.0006223267409950495,0.009117773,-9.052449e-08,-0.002237650565803051,8.532e-07
1603.3166666655372,0.00016696514,-0.7856543,4.0124556e-05,-2.35531,9.298806e-05,1.5709913,0.786,0.04,0.04,-9.832567,0.0005950842751190066,0.007526011,-1.6055884e-07,-0.0032258275896310806,3.3323323e-07
1603.333333332204,0.0001668399,-0.785557,4.0140807e-05,-2.355391,9.296304e-05,1.5709884,0.786,0.04,0.04,-9.83066,0.000530698336660862,0.0061918683,-4.199322e-07,-0.004133930429816246,-1.7905801e-06
1603.3499999988705,0.00016654492,-0.7854673,4.0169904e-05,-2.3554652,9.287255e-05,1.5709856,0.786,0.04,0.039999995,-9.829134,0.00044505822006613016,0.0048512034,-9.0494365e-07,-0.0049634515307843685,-5.433475e-06
1603.3666666655372,0.00016597823,-0.785385,4.0219897e-05,-2.355532,9.265105e-05,1.5709827,0.786,0.04,0.04,-9.827546,0.0003150601696688682,0.0036873403,-2.0544594e-06,-0.005722135305404663,-1.351884e-05
1603.3833333322038,0.00016501742,-0.78530926,4.0299914e-05,-2.3555942,9.2268776e-05,1.5709797,0.7859981,0.04,0.039999995,-9.826176,0.00018729071598500013,0.002526119,-4.441357e-06,-0.006407234352082014,-2.3464769e-05
1603.3999999988705,0.00016352313,-0.7852399,4.0420895e-05,-2.3556519,9.164392e-05,1.5709765,0.7859962,0.04,0.04,-9.825035,1.7632904928177595e-05,0.0015075216,3.8341742e-08,-0.0070350333116948605,-3.889827e-05
1603.4166666655372,0.00016133959,-0.7851762,4.0594456e-05,-2.3557029,9.07218e-05,1.5709728,0.7859943,0.04,0.04,-9.82406,-0.00015710294246673584,0.0005184463,2.6440266e-06,-0.007605958729982376,-5.786324e-05
1603.4333333322038,0.00015829725,-0.7851176,4.0833547e-05,-2.3557508,8.942985e-05,1.5709661,0.7859913,0.04,0.04,-9.822957,-0.0003644737880676985,-0.00045312103,1.953505e-06,-0.008113464340567589,-8.1563725e-05
1603.4499999988705,0.00015421401,-0.7850643,4.115196e-05,-2.3557937,8.769125e-05,1.5709593,0.7859875,0.04,0.04,-9.8223,-0.0005773550365120173,-0.0012789222,2.760933e-06,-0.008587752468883991,-0.000110337256
1603.466666665537,0.00014889687,-0.78501546,4.156417e-05,-2.3558311,8.542331e-05,1.5709509,0.7859818,0.04,0.04,-9.821486,-0.0008211370441131294,-0.0021695208,2.9167818e-06,-0.009005207568407059,-0.0001444967
1603.4833333322038,0.00014214312,-0.78497106,4.2085565e-05,-2.355866,8.2539525e-05,1.5709403,0.78597605,0.04,0.04,-9.820571,-0.001064546057023108,-0.0029420727,6.5189115e-06,-0.009373019449412823,-0.00018431425
1603.4999999988704,0.00013374178,-0.7849307,4.2732045e-05,-2.3558955,7.8949735e-05,1.570926,0.7859684,0.04,0.04,-9.820191,-0.0013485627714544535,-0.0037227944,3.87643e-06,-0.00970488227903843,-0.00022999656
1603.516666665537,0.00012347457,-0.78489417,4.3520206e-05,-2.3559225,7.454975e-05,1.5709108,0.7859589,0.039999995,0.04,-9.819463,-0.0016263416036963463,-0.0043993406,2.7947071e-06,-0.009999323636293411,-0.00028256173
1603.5333333322037,0.00011111684,-0.78486127,4.446688e-05,-2.3559446,6.9254784e-05,1.5708923,0.78594744,0.03999999,0.03999999,-9.819123,-0.0019267862662672997,-0.005183984,2.779249e-06,-0.010252869687974453,-0.00033965567
1603.5499999988704,9.6439e-05,-0.7848318,4.5589295e-05,-2.355964,6.296587e-05,1.5708703,0.7859337,0.039999988,0.039999984,-9.818497,-0.0022304507438093424,-0.0058226194,2.2121465e-06,-0.01046761590987444,-0.00040314623
1603.566666665537,7.920697e-05,-0.78480554,4.6905265e-05,-2.355979,5.5582157e-05,1.5708444,0.78591716,0.039999984,0.03999998,-9.818279,-0.0025827570352703333,-0.006512111,2.416967e-06,-0.010654419660568237,-0.00047400055
1603.5833333322037,5.9183138e-05,-0.78478235,4.8432637e-05,-2.355991,4.7002846e-05,1.5708146,0.7858981,0.03999998,0.039999977,-9.817829,-0.0029116664081811905,-0.007139911,4.151344e-06,-0.010808841325342655,-0.00055146473
1603.5999999988703,3.612698e-05,-0.7847621,5.018946e-05,-2.3559995,3.7125323e-05,1.5707808,0.7858762,0.039999973,0.039999966,-9.817627,-0.0032945601269602776,-0.007810792,5.6411673e-06,-0.010934743098914623,-0.0006347495
1603.616666665537,9.796083e-06,-0.7847446,5.2194086e-05,-2.3560038,2.5845215e-05,1.5707425,0.7858511,0.039999966,0.039999958,-9.817335,-0.0036539165303111076,-0.008429917,7.013136e-06,-0.011032030917704105,-0.00072563335
1603.6333333322036,-2.005364e-05,-0.7847298,5.446475e-05,-2.3560052,1.3058599e-05,1.5706989,0.7858229,0.03999996,0.039999954,-9.81706,-0.004081473220139742,-0.00909703,8.898829e-06,-0.011098199523985386,-0.00082330004
1603.6499999988703,-5.366718e-05,-0.78471774,5.7020097e-05,-2.3560026,-1.3393062e-06,1.5706494,0.78579116,0.039999966,0.039999958,-9.816912,-0.004467354621738195,-0.009704887,9.985967e-06,-0.011143269948661327,-0.0009277639
1603.666666665537,-9.129003e-05,-0.7847082,5.9878475e-05,-2.3559973,-1.7453156e-05,1.5705948,0.78575563,0.039999966,0.039999954,-9.816678,-0.0048893773928284645,-0.010313608,1.11161025e-05,-0.011163443326950073,-0.0010381832
1603.6833333322036,-0.00013316747,-0.784701,6.305836e-05,-2.3559875,-3.5388603e-05,1.5705336,0.78571594,0.03999997,0.039999958,-9.816713,-0.005379159469157457,-0.011002773,1.2027429e-05,-0.011162896640598774,-0.0011562657
1603.6999999988702,-0.00017954438,-0.7846963,6.657827e-05,-2.3559759,-5.524996e-05,1.5704662,0.78567195,0.03999997,0.039999958,-9.816455,-0.0058190785348415375,-0.011631964,1.4072531e-05,-0.0111385527998209,-0.001281143
1603.7166666655369,-0.0002306648,-0.784694,7.045661e-05,-2.355959,-7.71416e-05,1.5703921,0.7856235,0.039999973,0.03999996,-9.81664,-0.006345457397401333,-0.012322903,1.6108e-05,-0.011101200245320797,-0.0014127741
1603.7333333322035,-0.00028677133,-0.78469396,7.47116e-05,-2.3559396,-0.000101167185,1.5703108,0.78557026,0.039999973,0.03999996,-9.816293,-0.006819579750299454,-0.012986044,1.8620796e-05,-0.01103426143527031,-0.0015511302
1603.7499999988702,-0.00034810515,-0.7846961,7.936144e-05,-2.3559153,-0.00012743007,1.5702218,0.78551215,0.039999973,0.03999996,-9.816456,-0.00739953201264143,-0.013718992,2.1267555e-05,-0.010955140925943851,-0.0016961489
1603.7666666655368,-0.00041490584,-0.7847006,8.442417e-05,-2.355888,-0.0001560317,1.5701247,0.7854489,0.039999973,0.039999958,-9.816249,-0.00790308602154255,-0.014404556,2.3669423e-05,-0.010854849591851234,-0.0018469255
1603.7833333322035,-0.0004874101,-0.78470725,8.991763e-05,-2.3558555,-0.00018707475,1.5700196,0.7853801,0.039999977,0.03999996,-9.816387,-0.008532975800335407,-0.015174841,2.6264084e-05,-0.010741221718490124,-0.0020051019
1603.7999999988701,-0.00056585285,-0.7847162,9.5859636e-05,-2.3558195,-0.000220659,1.5699062,0.78530574,0.039999977,0.039999958,-9.816176,-0.0090875793248415,-0.015907304,2.9504368e-05,-0.010605371557176113,-0.0021688899
1603.8166666655368,-0.0006504659,-0.7847272,0.00010226754,-2.355779,-0.00025688417,1.5697839,0.7852255,0.039999977,0.039999958,-9.816249,-0.009770467877388,-0.016732182,3.2950138e-05,-0.010453333146870136,-0.0023399186
1603.8333333322034,-0.00074147875,-0.7847405,0.000109158726,-2.3557343,-0.00029584797,1.5696523,0.78513926,0.03999998,0.03999996,-9.816193,-0.010371917858719826,-0.017517852,3.674857e-05,-0.010285314172506332,-0.0025172513
1603.84999999887,-0.0008391175,-0.78475595,0.000116550145,-2.355686,-0.00033764745,1.5695109,0.78504676,0.03999998,0.03999996,-9.816256,-0.011106723919510841,-0.01839827,4.048816e-05,-0.010102697648108006,-0.002700771
1603.8666666655367,-0.00094360515,-0.78477347,0.00012445866,-2.355633,-0.00038237745,1.5693599,0.7849478,0.03999998,0.039999958,-9.8162985,-0.011755885556340218,-0.019225439,4.4282122e-05,-0.009909062646329403,-0.0028895442
1603.8833333322034,-0.0010551615,-0.7847934,0.00013290091,-2.355576,-0.00043013305,1.5691988,0.78484225,0.039999984,0.03999996,-9.816378,-0.01256285235285759,-0.020197598,4.8212303e-05,-0.009701715782284737,-0.0030860933
1603.89999999887,-0.0011740027,-0.7848155,0.00014189303,-2.3555145,-0.0004810054,1.5690271,0.7847297,0.039999984,0.03999996,-9.816406,-0.013258550316095352,-0.021100549,5.207977e-05,-0.009480996988713741,-0.0032875908
1603.9166666655367,-0.0013003412,-0.78483987,0.00015145114,-2.3554482,-0.0005350864,1.5688446,0.78461015,0.039999984,0.03999996,-9.816445,-0.014054691419005394,-0.022080114,5.686856e-05,-0.009248766116797924,-0.0034949314
1603.9333333322033,-0.0014343861,-0.78486633,0.00016159103,-2.3553777,-0.00059246435,1.568651,0.78448325,0.039999988,0.039999966,-9.816498,-0.014940597116947174,-0.023158394,6.1212144e-05,-0.009002427570521832,-0.0037078417
1603.94999999887,-0.0015763417,-0.7848949,0.0001723281,-2.355302,-0.000653228,1.5684459,0.78434885,0.039999988,0.039999966,-9.816587,-0.01573600433766842,-0.024195194,6.6354e-05,-0.008747166022658348,-0.0039262665
1603.9666666655366,-0.0017264095,-0.7849258,0.00018367765,-2.355222,-0.0007174624,1.5682293,0.7842067,0.039999988,0.03999996,-9.816668,-0.016689486801624298,-0.025369251,7.181393e-05,-0.008480307646095753,-0.004149226
1603.9833333322033,-0.0018847873,-0.7849591,0.00019565441,-2.3551366,-0.0007852537,1.5680003,0.7840568,0.03999999,0.039999973,-9.816715,-0.017562782391905785,-0.026481709,7.789133e-05,-0.008203762583434582,-0.0043808827
1603.99999999887,-0.0020516673,-0.7849948,0.000208273,-2.355046,-0.00085668283,1.5677593,0.7838988,0.03999999,0.03999997,-9.81676,-0.018567316234111786,-0.027736146,8.3924155e-05,-0.007915318012237549,-0.00461423
1604.0166666655366,-0.0022272393,-0.78503263,0.00022154771,-2.3549504,-0.000931831,1.5675058,0.78373253,0.039999995,0.03999997,-9.816777,-0.019487757235765457,-0.028937962,9.048107e-05,-0.007616144139319658,-0.004851736
1604.0333333322033,-0.0024116877,-0.7850726,0.00023549248,-2.3548498,-0.0010107791,1.5672395,0.78355795,0.039999995,0.03999998,-9.816883,-0.02061302214860916,-0.03030397,9.756981e-05,-0.007306255400180817,-0.005099223
1604.04999999887,-0.0026051928,-0.7851151,0.0002501209,-2.3547435,-0.0010936004,1.5669601,0.78337485,0.03999999,0.03999999,-9.81695,-0.021593589335680008,-0.031632975,0.000104759194,-0.006989871617406607,-0.0053504156
1604.0666666655366,-0.0028079306,-0.78516006,0.0002654462,-2.3546329,-0.0011803757,1.5666674,0.783183,0.039999988,0.039999954,-9.816978,-0.02272208034992218,-0.033082277,0.00011232017,-0.006660810671746731,-0.005597063
1604.0833333322032,-0.0030200747,-0.7852074,0.00028148154,-2.3545165,-0.001271171,1.5663608,0.78298223,0.039999977,0.039999932,-9.817135,-0.0237932987511158,-0.034498267,0.00012053342,-0.0063277664594352245,-0.00585048
1604.0999999988699,-0.0032417912,-0.7852569,0.0002982394,-2.3543937,-0.0013660647,1.5660408,0.78277236,0.03999997,0.039999925,-9.817235,-0.025074053555727005,-0.03607485,0.00012874784,-0.005987614393234253,-0.006112464
1604.1166666655365,-0.003473245,-0.7853091,0.0003157324,-2.3542662,-0.0014651263,1.5657065,0.7825533,0.039999977,0.039999932,-9.817118,-0.02621302381157875,-0.037631825,0.00013822346,-0.005633116699755192,-0.006378755
1604.1333333322032,-0.0037145938,-0.7853637,0.00033397242,-2.3541331,-0.0015684227,1.565358,0.78232497,0.03999998,0.039999936,-9.817356,-0.027553733438253403,-0.039305996,0.00014780997,-0.005275420844554901,-0.0066497973
1604.1499999988698,-0.0039659925,-0.7854208,0.00035297108,-2.353994,-0.0016760209,1.564995,0.782087,0.039999984,0.03999994,-9.817367,-0.02876502275466919,-0.04096292,0.00015763337,-0.0049103302881121635,-0.0069247503
1604.1666666655365,-0.004227592,-0.78548044,0.0003727398,-2.3538487,-0.0017879839,1.5646172,0.7818394,0.03999999,0.039999954,-9.817366,-0.030106451362371445,-0.04272843,0.00016879466,-0.004535228479653597,-0.007204159
1604.1833333322031,-0.004499538,-0.7855426,0.00039328955,-2.3536983,-0.0019043738,1.5642246,0.781582,0.04,0.039999988,-9.8174925,-0.03158868849277496,-0.04459952,0.00018046905,-0.004154730588197708,-0.0074904296
1604.1999999988698,-0.0047819708,-0.78560734,0.00041463083,-2.3535423,-0.0020252422,1.5638168,0.78131473,0.04,0.039999995,-9.817527,-0.03289622440934181,-0.04644768,0.00019262971,-0.003767231712117791,-0.0077750925
1604.2166666655364,-0.005075028,-0.78567487,0.00043677428,-2.3533792,-0.0021506657,1.5633936,0.7810374,0.04,0.04,-9.817719,-0.034449558705091476,-0.048464652,0.00020524998,-0.003376844571903348,-0.008063779
1604.233333332203,-0.0053788424,-0.78574467,0.00045972972,-2.35321,-0.0022806844,1.5629549,0.78075,0.04,0.039999995,-9.81755,-0.03586186468601227,-0.050407037,0.00021864897,-0.002973792375996709,-0.008354708
1604.2499999988697,-0.0056935446,-0.78581727,0.00048350688,-2.353035,-0.0024153602,1.5625007,0.7804522,0.04,0.039999995,-9.817676,-0.037499286234378815,-0.052587643,0.00023236558,-0.0025657331570982933,-0.008648543
1604.2666666655364,-0.0060192547,-0.7858925,0.00050811516,-2.352854,-0.002554746,1.5620302,0.78014404,0.04,0.039999995,-9.817693,-0.039003532379865646,-0.05466426,0.00024725942,-0.002151693683117628,-0.008945149
1604.283333332203,-0.0063560945,-0.7859704,0.0005335637,-2.3526676,-0.0026989053,1.5615441,0.7798253,0.039999995,0.039999995,-9.817833,-0.04073571041226387,-0.056953404,0.00026259784,-0.0017349675763398409,-0.009245162
1604.2999999988697,-0.006704179,-0.7860511,0.00055986136,-2.352474,-0.0028478864,1.5610417,0.7794959,0.03999999,0.03999999,-9.817924,-0.04232972487807274,-0.05920443,0.00027872727,-0.0013149924343451858,-0.009547566
1604.3166666655363,-0.007063618,-0.7861343,0.0005870163,-2.3522737,-0.0030017304,1.5605227,0.77915573,0.039999984,0.039999954,-9.817879,-0.04412521421909332,-0.061620746,0.00029633022,-0.0008843165705911815,-0.009847356
1604.333333332203,-0.0074345195,-0.7862205,0.0006150364,-2.3520665,-0.0031604727,1.5599873,0.7788046,0.039999988,0.039999943,-9.817853,-0.045810915529727936,-0.064010814,0.00031478834,-0.0004504336975514889,-0.0101499185
1604.3499999988696,-0.007816984,-0.7863092,0.0006439296,-2.3518531,-0.003324164,1.5594352,0.77844286,0.03999999,0.039999958,-9.817856,-0.04776199907064438,-0.06657411,0.00033465514,-7.058829396555666e-06,-0.010460468
1604.3666666655363,-0.008211112,-0.786401,0.00067370327,-2.3516333,-0.003492846,1.5588664,0.7780699,0.04,0.03999998,-9.817846,-0.04953654482960701,-0.06910415,0.0003536161,0.00043992939754389226,-0.010773438
1604.383333332203,-0.008616994,-0.7864953,0.00070436427,-2.3514068,-0.0036665525,1.5582803,0.77768594,0.04,0.04,-9.817942,-0.05153519660234451,-0.071802355,0.00037454336,0.0008913287310861051,-0.011086438
1604.3999999988696,-0.009034721,-0.7865926,0.00073591946,-2.351175,-0.0038453182,1.5576773,0.7772906,0.039999995,0.039999995,-9.817907,-0.053394466638565063,-0.0744818,0.00039590476,0.0013457629829645157,-0.011399512
1604.4166666655362,-0.009464376,-0.7866925,0.0007683756,-2.3509362,-0.004029197,1.5570569,0.776884,0.039999995,0.039999995,-9.81808,-0.05540353059768677,-0.07728747,0.0004193629,0.0017989302286878228,-0.011713709
1604.433333332203,-0.009906046,-0.78679544,0.0008017385,-2.3506904,-0.0042182133,1.5564193,0.7764662,0.039999995,0.039999995,-9.818091,-0.05755430832505226,-0.080262735,0.0004433112,0.0022576344199478626,-0.012029204
1604.4499999988695,-0.010359801,-0.78690106,0.00083601417,-2.3504374,-0.004412407,1.5557642,0.77603686,0.039999995,0.039999995,-9.818004,-0.059564027935266495,-0.08315261,0.0004678687,0.002722014207392931,-0.012345716
1604.4666666655362,-0.010825715,-0.78700966,0.0008712076,-2.350177,-0.0046117995,1.5550916,0.77559596,0.039999995,0.039999995,-9.817984,-0.06181275099515915,-0.086285695,0.0004938754,0.0031922729685902596,-0.01266307
1604.4833333322028,-0.011303856,-0.78712124,0.00090732443,-2.3499095,-0.004816426,1.5544014,0.7751435,0.03999999,0.03999999,-9.817873,-0.0639178529381752,-0.089331925,0.00052119564,0.003668170189484954,-0.012981161
1604.4999999988695,-0.011794291,-0.7872356,0.0009443696,-2.3496351,-0.0050263344,1.5536934,0.7746794,0.039999988,0.03999999,-9.817852,-0.06626682728528976,-0.09258247,0.0005498716,0.004149909131228924,-0.013300552
1604.5166666655361,-0.012297078,-0.7873529,0.0009823474,-2.349354,-0.005241528,1.5529675,0.77420366,0.039999988,0.03999999,-9.817754,-0.06846310198307037,-0.09579268,0.0005794609,0.0046356613747775555,-0.013619473
1604.5333333322028,-0.012812276,-0.7874732,0.0010212621,-2.3490665,-0.0054620276,1.552224,0.77371603,0.039999988,0.03999999,-9.81783,-0.07090555131435394,-0.09922161,0.00061030115,0.005123078357428312,-0.013938696
1604.5499999988695,-0.013339935,-0.78759634,0.0010611179,-2.3487723,-0.0056878505,1.5514627,0.7732168,0.039999988,0.03999999,-9.8178005,-0.0732017457485199,-0.10258518,0.0006430408,0.005612284876406193,-0.014258059
1604.566666665536,-0.013880101,-0.78772247,0.0011019183,-2.3484712,-0.0059190355,1.5506829,0.77270573,0.03999999,0.039999995,-9.81785,-0.0757470428943634,-0.10618829,0.0006761366,0.006103578023612499,-0.014577364
1604.5833333322028,-0.014432825,-0.7878515,0.0011436664,-2.3481634,-0.0061555845,1.5498852,0.77218276,0.03999999,0.039999995,-9.817769,-0.07813682407140732,-0.109707825,0.0007104585,0.006595599465072155,-0.01489652
1604.5999999988694,-0.014998141,-0.78798366,0.0011863654,-2.3478487,-0.006397509,1.5490692,0.7716479,0.039999995,0.039999995,-9.817801,-0.08077365905046463,-0.11348295,0.000746418,0.007089949678629637,-0.015214534
1604.616666665536,-0.015576087,-0.78811866,0.001230018,-2.3475268,-0.0066448394,1.5482349,0.77110106,0.039999995,0.039999995,-9.817701,-0.08326520025730133,-0.11716805,0.00078377617,0.0075862230733036995,-0.015532933
1604.6333333322027,-0.016166698,-0.7882566,0.0012746268,-2.3471975,-0.0068975883,1.5473826,0.77054226,0.039999995,0.039999995,-9.817673,-0.0860036239027977,-0.121119075,0.00082238234,0.008085516281425953,-0.015850613
1604.6499999988694,-0.016769996,-0.7883976,0.001320194,-2.3468611,-0.0071557737,1.5465117,0.7699715,0.039999995,0.039999995,-9.817524,-0.0885867029428482,-0.12499468,0.0008622961,0.008588510565459728,-0.016167548
1604.666666665536,-0.017386012,-0.78854144,0.0013667216,-2.3465176,-0.007419413,1.5456222,0.7693887,0.039999995,0.039999995,-9.817408,-0.09132657945156097,-0.1290014,0.0009036688,0.009093795903027058,-0.0164835
1604.6833333322027,-0.018014766,-0.7886884,0.0014142109,-2.3461668,-0.0076884986,1.5447147,0.7687938,0.03999999,0.03999999,-9.8173895,-0.09420554339885712,-0.13320038,0.0009465321,0.009600775316357613,-0.016798345
1604.6999999988693,-0.018656278,-0.7888383,0.0014626633,-2.3458087,-0.007963037,1.5437887,0.76818687,0.03999999,0.03999999,-9.81723,-0.09693428128957748,-0.137309,0.0009906797,0.010110631585121155,-0.017111953
1604.716666665536,-0.019310553,-0.7889913,0.0015120794,-2.3454435,-0.008243033,1.5428442,0.7675678,0.039999995,0.03999999,-9.817158,-0.09991244226694107,-0.14167297,0.0010365399,0.010622980073094368,-0.017424209
1604.7333333322026,-0.019977605,-0.7891472,0.0015624604,-2.345071,-0.008528491,1.5418811,0.76693666,0.039999995,0.03999999,-9.816971,-0.10273364931344986,-0.14594871,0.0010839027,0.011137890629470348,-0.017734999
1604.7499999988693,-0.020657443,-0.7893061,0.0016138069,-2.344691,-0.008819433,1.5408999,0.76629347,0.04,0.04,-9.816956,-0.10581205040216446,-0.15047882,0.0011331855,0.0116520831361413,-0.018044947
1604.766666665536,-0.021350069,-0.78946817,0.0016661189,-2.3443043,-0.009115837,1.5399,0.7656382,0.04,0.04,-9.816664,-0.10872860252857208,-0.15494102,0.0011836251,0.01217324286699295,-0.018352207
1604.7833333322026,-0.022055484,-0.7896329,0.0017193964,-2.34391,-0.00941772,1.5388815,0.7649707,0.04,0.04,-9.816651,-0.11189436167478561,-0.1596135,0.0012356109,0.012692522257566452,-0.018658407
1604.7999999988692,-0.022773677,-0.78980076,0.0017736398,-2.3435087,-0.009725084,1.5378447,0.7642912,0.039999995,0.04,-9.816423,-0.11490615457296371,-0.16426402,0.0012894769,0.013213698752224445,-0.018962441
1604.8166666655359,-0.023504645,-0.78997165,0.0018288478,-2.3431003,-0.010037932,1.5367897,0.7635996,0.03999999,0.04,-9.816334,-0.1181783676147461,-0.16913423,0.0013448504,0.013736060820519924,-0.019265994
1604.8333333322025,-0.024248373,-0.7901456,0.0018850189,-2.342685,-0.010356236,1.535716,0.762896,0.039999995,0.04,-9.816148,-0.12125692516565323,-0.17392956,0.0014023511,0.014259827323257923,-0.019562773
1604.8499999988692,-0.025004847,-0.7903224,0.0019421529,-2.342263,-0.010679984,1.5346242,0.7621799,0.039999995,0.04,-9.816023,-0.1246136873960495,-0.17896557,0.0014606558,0.014784418977797031,-0.019858962
1604.8666666655358,-0.02577405,-0.7905022,0.0020002474,-2.3418338,-0.0110091735,1.5335137,0.76145226,0.039999995,0.04,-9.815877,-0.1278102993965149,-0.18395507,0.0015227424,0.015306890942156315,-0.02015259
1604.8833333322025,-0.02655596,-0.790685,0.002059302,-2.3413973,-0.011343803,1.532385,0.7607129,0.03999999,0.04,-9.815759,-0.13125747442245483,-0.1891788,0.0015845195,0.015828801319003105,-0.020444328
1604.8999999988691,-0.027350543,-0.7908707,0.0021193144,-2.3409536,-0.011683859,1.5312383,0.75996125,0.039999995,0.04,-9.815453,-0.13452740013599396,-0.19432847,0.0016463436,0.016354385763406754,-0.02073157
1604.9166666655358,-0.028157778,-0.7910595,0.0021802818,-2.340503,-0.012029323,1.5300732,0.7591971,0.03999999,0.04,-9.815257,-0.1379651576280594,-0.19965589,0.0017114009,0.01688094437122345,-0.021017468
1604.9333333322024,-0.028977636,-0.79125124,0.0022422022,-2.3400455,-0.012380192,1.5288898,0.7584212,0.03999999,0.04,-9.815094,-0.14153093099594116,-0.20512739,0.0017806103,0.017407750710844994,-0.021299418
1604.949999998869,-0.029810082,-0.7914459,0.0023050732,-2.3395808,-0.012736464,1.5276884,0.7576335,0.039999988,0.04,-9.814854,-0.14495399594306946,-0.21053056,0.0018510387,0.017933299764990807,-0.021578927
1604.9666666655357,-0.030655073,-0.7916437,0.0023688918,-2.339109,-0.013098099,1.526469,0.756834,0.039999988,0.04,-9.814656,-0.14859727025032043,-0.2161998,0.0019222103,0.018460553139448166,-0.02185428
1604.9833333322024,-0.03151257,-0.79184425,0.002433655,-2.3386302,-0.013465083,1.5252314,0.7560228,0.039999988,0.04,-9.814354,-0.15210269391536713,-0.22176526,0.0019953896,0.018988605588674545,-0.022126134
1604.999999998869,-0.03238252,-0.79204786,0.0024993587,-2.3381443,-0.013837395,1.5239756,0.7551996,0.039999988,0.04,-9.814151,-0.15583603084087372,-0.22760051,0.002069302,0.019516155123710632,-0.02239448
1605.0166666655357,-0.033264887,-0.79225415,0.0025659995,-2.3376517,-0.0142150195,1.5227017,0.75436485,0.03999999,0.04,-9.813816,-0.15942001342773438,-0.23334426,0.0021459775,0.020044179633259773,-0.022659099
1605.0333333322023,-0.034159623,-0.7924634,0.0026335742,-2.337152,-0.014597918,1.5214103,0.7535183,0.03999999,0.04,-9.813681,-0.16323289275169373,-0.23937611,0.0022239436,0.02056751772761345,-0.02292007
1605.049999998869,-0.03506667,-0.79267544,0.002702078,-2.3366458,-0.014986081,1.5201012,0.75266016,0.039999988,0.04,-9.813286,-0.1669004112482071,-0.24528953,0.0023040003,0.02109430357813835,-0.023177143
1605.0666666655356,-0.035985954,-0.7928904,0.0027715075,-2.3361328,-0.015379505,1.5187743,0.75179046,0.039999984,0.04,-9.8131075,-0.17079561948776245,-0.25149176,0.0023858012,0.021617962047457695,-0.023430984
1605.0833333322023,-0.036917426,-0.79310817,0.002841858,-2.3356128,-0.015778147,1.5174295,0.7509092,0.039999984,0.04,-9.812749,-0.1745310127735138,-0.25758502,0.002468968,0.022141486406326294,-0.023679854
1605.099999998869,-0.03786103,-0.7933289,0.0029131242,-2.3350859,-0.016181968,1.5160676,0.7500164,0.039999984,0.04,-9.812504,-0.17849929630756378,-0.26394632,0.002554437,0.022662121802568436,-0.023924576
1605.1166666655356,-0.038816717,-0.7935522,0.0029853014,-2.334552,-0.016590953,1.5146883,0.7491121,0.039999984,0.04,-9.8120775,-0.1823219358921051,-0.2702118,0.0026418972,0.023185566067695618,-0.024165716
1605.1333333322023,-0.039784383,-0.79377854,0.0030583844,-2.3340118,-0.017005082,1.5132914,0.74819654,0.039999984,0.04,-9.811786,-0.18634968996047974,-0.27676597,0.0027314876,0.023708386346697807,-0.024401538
1605.149999998869,-0.04076399,-0.7940076,0.0031323677,-2.3334644,-0.017424298,1.5118777,0.74726975,0.039999984,0.04,-9.811419,-0.1902526170015335,-0.2831841,0.0028226236,0.02422783151268959,-0.024633707
1605.1666666655356,-0.041755427,-0.79423964,0.0032072463,-2.3329103,-0.017848592,1.5104462,0.7463319,0.03999998,0.04,-9.811003,-0.19426298141479492,-0.28980538,0.00291496,0.024749882519245148,-0.024861228
1605.1833333322022,-0.04275864,-0.7944744,0.0032830138,-2.33235,-0.018277925,1.5089986,0.7453828,0.03999998,0.04,-9.810695,-0.19839879870414734,-0.2965561,0.0030088678,0.025268426164984703,-0.025083272
1605.1999999988689,-0.04377354,-0.79471177,0.0033596638,-2.3317833,-0.018712254,1.5075328,0.7444226,0.039999977,0.04,-9.810297,-0.20240651071071625,-0.3032672,0.003104901,0.02578740008175373,-0.025301285
1605.2166666655355,-0.044800054,-0.7949519,0.0034371908,-2.3312104,-0.019151548,1.5060515,0.74345154,0.039999977,0.04,-9.809977,-0.20660357177257538,-0.31021386,0.003202941,0.026298873126506805,-0.025513772
1605.2333333322022,-0.04583809,-0.79519475,0.0035155884,-2.3306308,-0.019595768,1.5045539,0.7424695,0.039999977,0.04,-9.809575,-0.21067112684249878,-0.3170984,0.0033025215,0.026811759918928146,-0.025721304
1605.2499999988688,-0.04688756,-0.7954404,0.0035948497,-2.3300445,-0.020044893,1.5030383,0.7414766,0.039999973,0.04,-9.80912,-0.21493728458881378,-0.3242335,0.0034039745,0.02732720412313938,-0.025924347
1605.2666666655355,-0.04794837,-0.79568833,0.0036749674,-2.3294523,-0.020498853,1.5015067,0.7404729,0.039999973,0.04,-9.808669,-0.21906034648418427,-0.33121067,0.0035072172,0.02783416584134102,-0.026121758
1605.2833333322021,-0.049020424,-0.79593915,0.003755935,-2.3288538,-0.020957641,1.4999592,0.73945856,0.03999997,0.04,-9.808345,-0.2233850210905075,-0.33854726,0.0036127393,0.02833818830549717,-0.026314793
1605.2999999988688,-0.050103657,-0.7961927,0.003837745,-2.3282492,-0.021421215,1.4983957,0.7384337,0.03999997,0.04,-9.807822,-0.22757230699062347,-0.34573126,0.0037203594,0.028842419385910034,-0.026501665
1605.3166666655354,-0.051197942,-0.7964486,0.0039203903,-2.3276384,-0.021889511,1.4968163,0.7373984,0.039999966,0.04,-9.807384,-0.23194879293441772,-0.35318142,0.0038288014,0.029345734044909477,-0.026683923
1605.333333332202,-0.05230319,-0.7967072,0.0040038633,-2.327021,-0.022362487,1.4952211,0.7363526,0.039999966,0.04,-9.806918,-0.23619043827056885,-0.36056045,0.0039394153,0.02984420768916607,-0.026860118
1605.3499999988687,-0.05341929,-0.79696834,0.0040881555,-2.3263974,-0.02284011,1.4936103,0.7352967,0.039999966,0.04,-9.806355,-0.24061644077301025,-0.3681687,0.004051971,0.030345506966114044,-0.027030602
1605.3666666655354,-0.054546136,-0.79723185,0.0041732606,-2.325768,-0.023322321,1.4919838,0.7342306,0.039999966,0.04,-9.805832,-0.24491891264915466,-0.37567464,0.0041654753,0.03084249421954155,-0.027195688
1605.383333332202,-0.05568363,-0.797498,0.004259169,-2.325133,-0.023809081,1.4903418,0.7331545,0.03999996,0.04,-9.805364,-0.24939219653606415,-0.3834656,0.0042811246,0.03133642300963402,-0.027355175
1605.3999999988687,-0.05683166,-0.7977666,0.0043458734,-2.324492,-0.02430036,1.4886848,0.7320681,0.039999954,0.04,-9.804863,-0.25375014543533325,-0.3911386,0.004397899,0.03182469308376312,-0.027510667
1605.4166666655353,-0.057990097,-0.7980375,0.004433364,-2.3238444,-0.024796119,1.4870129,0.73097223,0.039999958,0.04,-9.804262,-0.2581861615180969,-0.39898106,0.0045175757,0.03231269121170044,-0.027658736
1605.433333332202,-0.059158847,-0.79831105,0.0045216326,-2.3231916,-0.02529627,1.485326,0.72986656,0.039999958,0.04,-9.803698,-0.2627246677875519,-0.40700415,0.0046371915,0.03279993310570717,-0.027800981
1605.4499999988686,-0.060337774,-0.79858685,0.004610671,-2.3225331,-0.02580079,1.4836243,0.7287513,0.03999995,0.04,-9.803122,-0.26715633273124695,-0.4148923,0.0047586397,0.03328292816877365,-0.027938934
1605.4666666655353,-0.06152678,-0.798865,0.0047004707,-2.3218699,-0.026309613,1.4819082,0.7276264,0.039999954,0.04,-9.802573,-0.27171963453292847,-0.4230645,0.004881503,0.03376130014657974,-0.028068773
1605.483333332202,-0.06272574,-0.79914546,0.004791021,-2.3212001,-0.026822675,1.4801776,0.72649187,0.039999954,0.04,-9.80204,-0.2761886417865753,-0.43114337,0.005006481,0.03423381969332695,-0.028193604
1605.4999999988686,-0.06393451,-0.7994282,0.0048823147,-2.3205254,-0.027339939,1.478433,0.7253482,0.039999954,0.04,-9.801371,-0.2807924151420593,-0.43946823,0.0051337816,0.03470534458756447,-0.028312445
1605.5166666655352,-0.06515299,-0.7997134,0.0049743396,-2.3198452,-0.027861353,1.4766742,0.72419536,0.039999958,0.04,-9.800779,-0.28530353307724,-0.44768083,0.005262155,0.035171400755643845,-0.028426183
1605.533333332202,-0.06638105,-0.8000008,0.0050670863,-2.3191597,-0.028386863,1.4749017,0.7230334,0.03999995,0.04,-9.800136,-0.28994715213775635,-0.4561426,0.005391461,0.03563445061445236,-0.028534599
1605.5499999988685,-0.06761856,-0.8002903,0.0051605473,-2.3184686,-0.028916426,1.4731156,0.7218626,0.039999947,0.04,-9.799459,-0.29447147250175476,-0.46450454,0.0055222674,0.036093514412641525,-0.02863543
1605.5666666655352,-0.068865374,-0.800582,0.0052547134,-2.3177726,-0.029449958,1.4713159,0.720683,0.039999947,0.04,-9.79877,-0.29913902282714844,-0.4731381,0.0056543294,0.036550577729940414,-0.028730018
1605.5833333322018,-0.07012138,-0.80087566,0.005349572,-2.3170714,-0.029987412,1.4695029,0.7194947,0.039999947,0.04,-9.79811,-0.3037068545818329,-0.4816463,0.005787699,0.03700106963515282,-0.028818764
1605.5999999988685,-0.07138641,-0.80117154,0.0054451125,-2.3163648,-0.030528726,1.4676771,0.7182979,0.039999947,0.04,-9.797453,-0.3084016442298889,-0.49042037,0.005922312,0.03744661062955856,-0.028901396
1605.6166666655351,-0.072660394,-0.8014695,0.005541325,-2.3156536,-0.031073866,1.4658386,0.71709263,0.03999994,0.04,-9.7966385,-0.3130042850971222,-0.49907494,0.0060578673,0.03789135441184044,-0.02897924
1605.6333333322018,-0.07394309,-0.8017696,0.0056382013,-2.3149376,-0.031622767,1.463987,0.715879,0.039999936,0.04,-9.795961,-0.3177068531513214,-0.5079633,0.006194775,0.038330547511577606,-0.029050143
1605.6499999988685,-0.07523443,-0.80207175,0.0057357294,-2.3142161,-0.03217535,1.4621232,0.71465725,0.03999994,0.04,-9.795227,-0.3223201632499695,-0.51675254,0.0063331863,0.03876350820064545,-0.029113403
1605.666666665535,-0.07653427,-0.80237585,0.005833898,-2.3134906,-0.032731548,1.460247,0.7134274,0.039999936,0.04,-9.794373,-0.32699909806251526,-0.5256943,0.0064727175,0.039195310324430466,-0.029171148
1605.6833333322018,-0.07784246,-0.8026819,0.0059326957,-2.31276,-0.03329131,1.4583589,0.71218973,0.039999936,0.04,-9.793718,-0.3317412734031677,-0.53480566,0.0066132504,0.039619360119104385,-0.029223574
1605.6999999988684,-0.07915881,-0.8029899,0.006032113,-2.3120248,-0.03385458,1.4564589,0.71094424,0.03999993,0.04,-9.792853,-0.3363878130912781,-0.5437924,0.00675467,0.04004019498825073,-0.029270498
1605.716666665535,-0.08048324,-0.80329984,0.00613214,-2.311285,-0.03442131,1.4545473,0.70969117,0.03999993,0.04,-9.792011,-0.341120183467865,-0.5530216,0.0068973224,0.040458109229803085,-0.029309487
1605.7333333322017,-0.08181556,-0.80361146,0.006232761,-2.310541,-0.034991413,1.4526243,0.7084306,0.039999925,0.04,-9.7911825,-0.3457809090614319,-0.5621383,0.007040665,0.04087035730481148,-0.029342266
1605.7499999988684,-0.08315562,-0.8039249,0.006333969,-2.309793,-0.035564814,1.4506903,0.70716274,0.039999925,0.04,-9.790406,-0.3505409061908722,-0.5715156,0.0071853325,0.04127601161599159,-0.029368982
1605.766666665535,-0.08450326,-0.8042402,0.0064357487,-2.3090403,-0.036141463,1.4487451,0.7058877,0.039999925,0.04,-9.789583,-0.35520994663238525,-0.58076614,0.0073305503,0.041674837470054626,-0.029389722
1605.7833333322017,-0.085858375,-0.8045574,0.0065380917,-2.3082836,-0.036721297,1.4467891,0.7046056,0.039999917,0.04,-9.788646,-0.35997286438941956,-0.5902438,0.0074766735,0.042071450501680374,-0.029405478
1605.7999999988683,-0.08722077,-0.8048762,0.0066409856,-2.3075228,-0.03730425,1.4448224,0.7033166,0.039999917,0.04,-9.787756,-0.364639014005661,-0.5996025,0.0076231966,0.04246173053979874,-0.029413484
1605.816666665535,-0.08859033,-0.8051968,0.006744417,-2.3067582,-0.037890263,1.4428456,0.70202094,0.039999917,0.04,-9.786862,-0.3693895637989044,-0.60919803,0.007770566,0.042845625430345535,-0.029415563
1605.8333333322016,-0.089966856,-0.8055189,0.006848375,-2.3059897,-0.038479257,1.4408588,0.70071864,0.039999917,0.04,-9.785969,-0.3740721344947815,-0.618693,0.007918107,0.043223101645708084,-0.029412122
1605.8499999988683,-0.091350175,-0.80584276,0.006952848,-2.3052173,-0.03907115,1.4388623,0.69940984,0.039999913,0.04,-9.785037,-0.3788186013698578,-0.62842923,0.008066373,0.043595846742391586,-0.029401762
1605.866666665535,-0.09274016,-0.80616796,0.0070578223,-2.3044412,-0.039665893,1.4368559,0.69809467,0.039999913,0.04,-9.78403,-0.38349977135658264,-0.6380304,0.008215459,0.0439654178917408,-0.0293859
1605.8833333322016,-0.0941366,-0.80649483,0.007163287,-2.3036616,-0.04026338,1.4348402,0.6967735,0.03999991,0.04,-9.783146,-0.3882383108139038,-0.6478621,0.008365533,0.04432455822825432,-0.029363511
1605.8999999988682,-0.095539376,-0.80682313,0.007269229,-2.302878,-0.040863596,1.4328154,0.6954464,0.039999906,0.04,-9.782104,-0.3929206132888794,-0.6575726,0.008515247,0.04467956721782684,-0.029335724
1605.9166666655349,-0.09694834,-0.80715287,0.0073756375,-2.3020914,-0.04146644,1.4307818,0.6941134,0.039999906,0.04,-9.781073,-0.39761775732040405,-0.66743374,0.008665597,0.045030366629362106,-0.029301696
1605.9333333322015,-0.09836329,-0.807484,0.007482497,-2.3013012,-0.042071868,1.4287397,0.69277465,0.039999902,0.04,-9.780118,-0.40233227610588074,-0.6774212,0.008815817,0.04537321254611015,-0.029261088
1605.9499999988682,-0.09978406,-0.80781645,0.0075897994,-2.300508,-0.042679764,1.4266889,0.69143045,0.0399999,0.04,-9.779048,-0.40699657797813416,-0.6873044,0.008966886,0.04571079835295677,-0.029215043
1605.9666666655348,-0.10121049,-0.8081503,0.0076975287,-2.2997115,-0.043290086,1.4246302,0.690081,0.0399999,0.04,-9.77804,-0.41169673204421997,-0.6973974,0.009117868,0.04604049772024155,-0.029162563
1605.9833333322015,-0.10264244,-0.8084854,0.0078056715,-2.2989118,-0.04390274,1.4225632,0.6887263,0.03999989,0.04,-9.776959,-0.41634824872016907,-0.70736516,0.009268455,0.04636463522911072,-0.029104939
1605.9999999988681,-0.104079686,-0.8088217,0.007914216,-2.2981093,-0.044517674,1.4204884,0.6873665,0.039999887,0.04,-9.775868,-0.42103052139282227,-0.71754026,0.009419358,0.04668174684047699,-0.02904149
1606.0166666655348,-0.105522096,-0.8091593,0.008023149,-2.297304,-0.045134816,1.4184062,0.68600184,0.039999887,0.04,-9.774775,-0.4256616532802582,-0.7276248,0.009570904,0.046990856528282166,-0.02897228
1606.0333333322014,-0.10696948,-0.809498,0.0081324605,-2.2964954,-0.045754075,1.4163171,0.6846324,0.039999884,0.04,-9.773685,-0.43030762672424316,-0.73788744,0.009721972,0.04729348048567772,-0.028896706
1606.049999998868,-0.108421646,-0.80983794,0.008242132,-2.2956843,-0.04637539,1.4142209,0.6832586,0.039999884,0.04,-9.772496,-0.4349224269390106,-0.74806094,0.009873025,0.04759214445948601,-0.028815072
1606.0666666655347,-0.1098785,-0.8101789,0.008352155,-2.2948704,-0.046998683,1.4121182,0.68188024,0.039999884,0.04,-9.771356,-0.4395526051521301,-0.75840116,0.010023653,0.047882918268442154,-0.028728014
1606.0833333322014,-0.11133976,-0.8105209,0.008462514,-2.2940543,-0.047623876,1.410009,0.68049777,0.039999876,0.04,-9.770177,-0.4441424608230591,-0.76866555,0.0101742605,0.04816817119717598,-0.02863662
1606.099999998868,-0.112805314,-0.8108639,0.008573197,-2.293236,-0.04825092,1.4078937,0.67911124,0.03999987,0.04,-9.76906,-0.44874855875968933,-0.77909684,0.010324447,0.04844393581151962,-0.028539965
1606.1166666655347,-0.114274964,-0.81120783,0.008684187,-2.2924151,-0.0488797,1.4057723,0.67772084,0.03999987,0.04,-9.767868,-0.45329487323760986,-0.78943104,0.010474373,0.048712506890296936,-0.02843627
1606.1333333322013,-0.11574857,-0.8115527,0.008795477,-2.2915921,-0.049510177,1.4036453,0.6763267,0.039999865,0.04,-9.766619,-0.4578602612018585,-0.7999428,0.010623447,0.04897520691156387,-0.02832777
1606.149999998868,-0.1172259,-0.8118985,0.008907051,-2.2907672,-0.050142232,1.4015127,0.674929,0.039999865,0.04,-9.765435,-0.4623774588108063,-0.81035537,0.010772403,0.04922907054424286,-0.02821346
1606.1666666655346,-0.118706815,-0.81224513,0.009018892,-2.28994,-0.05077581,1.3993753,0.673528,0.03999987,0.04,-9.7642,-0.46689751744270325,-0.82086486,0.010920822,0.049475181847810745,-0.02809324
1606.1833333322013,-0.120191105,-0.81259274,0.009130989,-2.289111,-0.051410824,1.3972331,0.6721237,0.039999865,0.039999995,-9.762914,-0.47140952944755554,-0.83147013,0.011068284,0.04971547797322273,-0.02796852
1606.199999998868,-0.1216786,-0.8129409,0.009243326,-2.2882798,-0.052047223,1.3950863,0.67071635,0.03999986,0.039999995,-9.761618,-0.4758874475955963,-0.8419686,0.0112155955,0.04995086044073105,-0.027839076
1606.2166666655346,-0.12316915,-0.8132897,0.009355894,-2.2874477,-0.052684896,1.3929349,0.6693062,0.039999858,0.039999995,-9.760318,-0.48035189509391785,-0.85265756,0.011361936,0.05017780140042305,-0.027704602
1606.2333333322013,-0.1246625,-0.81363934,0.009468678,-2.2866144,-0.05332381,1.3907795,0.66789335,0.039999846,0.039999995,-9.759106,-0.48479804396629333,-0.8632444,0.011507232,0.05039367452263832,-0.027566995
1606.249999998868,-0.1261586,-0.81398946,0.009581662,-2.2857783,-0.053963836,1.3886201,0.6664778,0.03999985,0.04,-9.757839,-0.48921069502830505,-0.87396663,0.011652157,0.05059957876801491,-0.027422432
1606.2666666655346,-0.12765712,-0.81434023,0.0096948305,-2.284941,-0.054604925,1.3864571,0.66506016,0.03999985,0.04,-9.756358,-0.493596613407135,-0.88460577,0.011796298,0.0508035309612751,-0.027272668
1606.2833333322012,-0.12915786,-0.8146916,0.009808175,-2.284103,-0.055247005,1.3842908,0.6636403,0.03999985,0.04,-9.755049,-0.49797433614730835,-0.8953673,0.011938484,0.050997018814086914,-0.027119225
1606.2999999988679,-0.13066079,-0.8150434,0.009921677,-2.2832637,-0.055889986,1.3821217,0.6622185,0.03999985,0.04,-9.753731,-0.5023393034934998,-0.9060685,0.012080458,0.05118253454566002,-0.026960315
1606.3166666655345,-0.1321657,-0.8153957,0.010035329,-2.2824237,-0.05653378,1.3799496,0.66079485,0.03999985,0.04,-9.752359,-0.5066491961479187,-0.91690373,0.012220531,0.051359131932258606,-0.026797004
1606.3333333322012,-0.1336723,-0.8157485,0.010149109,-2.2815826,-0.057178307,1.3777751,0.6593695,0.03999985,0.04,-9.751023,-0.5109591484069824,-0.92764133,0.012359454,0.05152610316872597,-0.026629446
1606.3499999988678,-0.1351804,-0.8161015,0.010263008,-2.2807407,-0.05782351,1.3755984,0.6579427,0.03999985,0.04,-9.749582,-0.5152251124382019,-0.9385087,0.01249741,0.051686253398656845,-0.02645744
1606.3666666655345,-0.13668992,-0.81645495,0.01037701,-2.2798972,-0.05846927,1.3734196,0.6565143,0.03999985,0.04,-9.748202,-0.5194896459579468,-0.9493114,0.012634433,0.05183758959174156,-0.026281243
1606.3833333322011,-0.13820063,-0.81680864,0.010491103,-2.2790534,-0.05911555,1.3712393,0.6550851,0.039999846,0.04,-9.746615,-0.5236990451812744,-0.9601635,0.012771022,0.05198512226343155,-0.02610124
1606.3999999988678,-0.13971238,-0.81716245,0.010605271,-2.2782092,-0.059762254,1.3690573,0.6536547,0.039999843,0.04,-9.745262,-0.5279067754745483,-0.9710052,0.012904683,0.052122436463832855,-0.025917212
1606.4166666655344,-0.14122492,-0.8175165,0.010719503,-2.2773643,-0.060409322,1.3668739,0.65222377,0.039999835,0.04,-9.743831,-0.5320725440979004,-0.9818899,0.01303788,0.05224905535578728,-0.025730211
1606.433333332201,-0.14273809,-0.81787086,0.010833782,-2.2765188,-0.061056674,1.36469,0.6507917,0.03999983,0.04,-9.742321,-0.5361904501914978,-0.9928317,0.013168584,0.052367229014635086,-0.025538549
1606.4499999988677,-0.14425169,-0.8182253,0.010948093,-2.2756734,-0.061704207,1.3625054,0.6493595,0.03999983,0.04,-9.740794,-0.5403225421905518,-1.0036759,0.0132997185,0.05248117819428444,-0.02534272
1606.4666666655344,-0.1457656,-0.81857985,0.0110624265,-2.2748277,-0.06235184,1.3603201,0.64792717,0.03999983,0.04,-9.739319,-0.5443764328956604,-1.0146364,0.013428233,0.05258487910032272,-0.0251427
1606.483333332201,-0.14727958,-0.8189344,0.011176765,-2.273982,-0.0629995,1.3581346,0.6464948,0.03999983,0.04,-9.737855,-0.5484454035758972,-1.0255108,0.013554255,0.05267743766307831,-0.02493949
1606.4999999988677,-0.14879344,-0.81928873,0.011291093,-2.2731361,-0.0636471,1.3559493,0.64506257,0.03999983,0.04,-9.736294,-0.5524340867996216,-1.0364832,0.013678241,0.052761826664209366,-0.0247328
1606.5166666655343,-0.150307,-0.819643,0.011405403,-2.2722907,-0.0642946,1.3537648,0.6436304,0.039999828,0.04,-9.734749,-0.5564520955085754,-1.0474004,0.013800318,0.05283872410655022,-0.024523413
1606.533333332201,-0.1518201,-0.8199974,0.011519674,-2.2714458,-0.0649419,1.351581,0.6421985,0.039999828,0.04,-9.733208,-0.560375988483429,-1.058395,0.013921491,0.0529070608317852,-0.024310576
1606.5499999988676,-0.15333253,-0.8203516,0.011633896,-2.270601,-0.06558885,1.3493978,0.6407678,0.039999824,0.04,-9.731711,-0.5643251538276672,-1.0692965,0.014041461,0.0529651902616024,-0.024094142
1606.5666666655343,-0.15484409,-0.82070553,0.011748052,-2.269757,-0.06623549,1.347216,0.63933754,0.039999824,0.04,-9.730064,-0.5681840777397156,-1.0802662,0.014156791,0.05301548168063164,-0.023874814
1606.583333332201,-0.15635464,-0.8210592,0.011862129,-2.2689135,-0.0668816,1.345036,0.6379086,0.039999824,0.04,-9.728592,-0.5720709562301636,-1.0912148,0.014271977,0.05305427685379982,-0.023652077
1606.5999999988676,-0.15786391,-0.8214126,0.011976114,-2.2680712,-0.06752722,1.3428576,0.63648033,0.03999982,0.04,-9.726913,-0.5758686661720276,-1.1021895,0.014383258,0.05308735370635986,-0.023428474
1606.6166666655342,-0.15937185,-0.82176566,0.012089992,-2.2672296,-0.068172276,1.3406811,0.63505375,0.03999982,0.04,-9.725418,-0.5796903371810913,-1.1131227,0.014494628,0.05310738831758499,-0.023201166
1606.633333332201,-0.1608781,-0.8221184,0.012203747,-2.2663884,-0.06881662,1.3385068,0.6336288,0.039999817,0.04,-9.723754,-0.5834077596664429,-1.1241006,0.0146021275,0.0531192272901535,-0.022971785
1606.6499999988675,-0.1623827,-0.82247066,0.012317371,-2.265548,-0.06946018,1.3363352,0.63220555,0.039999817,0.04,-9.722108,-0.5871644020080566,-1.1349996,0.01470681,0.05312378332018852,-0.022739226
1606.6666666655342,-0.1638853,-0.8228226,0.012430849,-2.2647083,-0.0701029,1.3341664,0.6307841,0.039999813,0.04,-9.720467,-0.5908418297767639,-1.1459345,0.014808648,0.05311937630176544,-0.022505242
1606.6833333322008,-0.1653857,-0.823174,0.0125441635,-2.2638702,-0.07074471,1.3320007,0.6293646,0.03999981,0.04,-9.718731,-0.594453752040863,-1.1568671,0.014908283,0.05310877040028572,-0.022268526
1606.6999999988675,-0.16688377,-0.8235248,0.012657302,-2.2630332,-0.07138553,1.3298382,0.6279473,0.039999805,0.04,-9.717153,-0.5981132984161377,-1.1677657,0.015006199,0.05308740958571434,-0.022029879
1606.7166666655341,-0.16837932,-0.82387507,0.01277025,-2.2621977,-0.07202524,1.3276793,0.6265321,0.03999981,0.04,-9.715414,-0.6016325950622559,-1.1786842,0.015101521,0.05305735394358635,-0.021787938
1606.7333333322008,-0.16987222,-0.8242247,0.0128829945,-2.261364,-0.07266382,1.3255244,0.62511975,0.039999805,0.04,-9.713805,-0.6052327752113342,-1.1895543,0.015195471,0.05301768332719803,-0.021545634
1606.7499999988675,-0.17136227,-0.8245737,0.012995521,-2.2605317,-0.07330117,1.3233739,0.62371004,0.039999798,0.04,-9.712132,-0.6086911559104919,-1.2004765,0.015285296,0.05296797305345535,-0.021302203
1606.766666665534,-0.1728492,-0.8249218,0.013107817,-2.2597013,-0.0739372,1.3212277,0.6223033,0.039999798,0.04,-9.710445,-0.6121947765350342,-1.2113106,0.015372801,0.05291065573692322,-0.021055786
1606.7833333322008,-0.1743329,-0.8252692,0.013219868,-2.258873,-0.07457184,1.3190862,0.6208994,0.039999794,0.04,-9.708735,-0.615580677986145,-1.2221949,0.015457625,0.05284275487065315,-0.020808648
1606.7999999988674,-0.17581323,-0.825616,0.013331662,-2.2580462,-0.07520501,1.3169495,0.6194989,0.039999794,0.04,-9.707102,-0.6190186738967896,-1.233017,0.015540966,0.05276467651128769,-0.020559667
1606.816666665534,-0.17728986,-0.82596177,0.013443183,-2.2572212,-0.07583664,1.314818,0.6181019,0.039999794,0.04,-9.705285,-0.6223184466362,-1.2438091,0.0156199895,0.052679963409900665,-0.020309044
1606.8333333322007,-0.17876273,-0.82630676,0.013554421,-2.256399,-0.076466665,1.3126923,0.6167084,0.03999979,0.04,-9.703595,-0.6256963014602661,-1.2546034,0.01569649,0.05258582904934883,-0.020058004
1606.8499999988674,-0.18023168,-0.8266508,0.0136653595,-2.2555788,-0.07709499,1.3105719,0.6153187,0.03999979,0.04,-9.7018795,-0.6289181709289551,-1.2653837,0.015770204,0.05248218774795532,-0.019805366
1606.866666665534,-0.18169647,-0.82699376,0.013775984,-2.2547603,-0.077721514,1.3084576,0.61393285,0.03999979,0.04,-9.700198,-0.6322095990180969,-1.2761198,0.015840655,0.052367620170116425,-0.019551994
1606.8833333322007,-0.18315697,-0.8273358,0.01388628,-2.2539442,-0.0783462,1.3063498,0.61255103,0.039999787,0.04,-9.698306,-0.6353614926338196,-1.286836,0.015908414,0.05224870517849922,-0.019297928
1606.8999999988673,-0.18461294,-0.82767683,0.01399624,-2.2531312,-0.07896895,1.304248,0.61117345,0.039999787,0.04,-9.696634,-0.6385736465454102,-1.297531,0.015973246,0.052119966596364975,-0.01904256
1606.916666665534,-0.18606424,-0.8280167,0.014105845,-2.25232,-0.0795897,1.3021531,0.6098003,0.039999787,0.04,-9.69494,-0.6417080163955688,-1.3081837,0.0160356,0.05197932571172714,-0.01878719
1606.9333333322006,-0.18751073,-0.8283555,0.0142150875,-2.2515118,-0.08020839,1.3000652,0.60843164,0.039999787,0.04,-9.693061,-0.6447333693504333,-1.3188094,0.016094692,0.05183248966932297,-0.018530952
1606.9499999988673,-0.18895221,-0.8286931,0.014323951,-2.2507071,-0.08082493,1.2979845,0.6070678,0.039999783,0.04,-9.691348,-0.6478402018547058,-1.3294146,0.016150868,0.051676828414201736,-0.018274954
1606.966666665534,-0.19038853,-0.8290295,0.014432424,-2.2499049,-0.08143925,1.2959113,0.60570884,0.03999978,0.04,-9.6896515,-0.6507924795150757,-1.339996,0.016203605,0.05150805041193962,-0.018019412
1606.9833333322006,-0.1918195,-0.8293647,0.014540491,-2.2491057,-0.08205128,1.2938459,0.6043549,0.03999978,0.04,-9.687862,-0.6538239121437073,-1.3505309,0.016253272,0.05133277177810669,-0.017763307
1606.9999999988672,-0.19324495,-0.82969856,0.0146481395,-2.2483096,-0.08266095,1.2917883,0.60300636,0.03999978,0.04,-9.686046,-0.6566842198371887,-1.3610188,0.016299834,0.0511484332382679,-0.0175066
1607.0166666655339,-0.1946647,-0.83003116,0.014755358,-2.2475169,-0.083268166,1.2897391,0.6016632,0.03999978,0.04,-9.684313,-0.6596387028694153,-1.3715073,0.016342605,0.050954919308423996,-0.017249977
1607.0333333322005,-0.19607855,-0.8303623,0.014862135,-2.246727,-0.08387291,1.2876986,0.6003255,0.039999776,0.04,-9.682502,-0.662434995174408,-1.3819218,0.016382018,0.05075320228934288,-0.01699424
1607.0499999988672,-0.19748637,-0.83069205,0.014968457,-2.2459404,-0.08447504,1.2856666,0.59899354,0.039999772,0.04,-9.68071,-0.6653046607971191,-1.3923272,0.016418444,0.050544705241918564,-0.01673771
1607.0666666655338,-0.198888,-0.83102053,0.015074312,-2.2451575,-0.08507452,1.2836435,0.5976674,0.039999772,0.04,-9.678909,-0.6680202484130859,-1.4026515,0.016451927,0.05032573267817497,-0.016481949
1607.0833333322005,-0.20028326,-0.8313473,0.015179686,-2.2443779,-0.085671276,1.2816294,0.59634715,0.03999977,0.04,-9.677141,-0.670828640460968,-1.4129641,0.016482085,0.05009947717189789,-0.016227143
1607.0999999988671,-0.20167197,-0.83167267,0.015284569,-2.2436025,-0.08626523,1.279625,0.5950332,0.03999977,0.04,-9.675298,-0.6734541654586792,-1.4232101,0.01650934,0.04986393451690674,-0.015972488
1607.1166666655338,-0.20305406,-0.8319965,0.015388947,-2.2428305,-0.08685633,1.2776301,0.5937257,0.03999977,0.04,-9.673614,-0.6761810779571533,-1.4334706,0.016532954,0.049618806689977646,-0.015718691
1607.1333333322004,-0.20442924,-0.8323186,0.015492808,-2.2420626,-0.087444484,1.2756453,0.59242463,0.039999764,0.04,-9.67174,-0.6787261366844177,-1.443596,0.016552487,0.04936552047729492,-0.015465664
1607.149999998867,-0.20579743,-0.83263916,0.015596143,-2.241298,-0.08802964,1.2736704,0.5911301,0.03999976,0.04,-9.670048,-0.6813889145851135,-1.4537863,0.016569024,0.049102358520030975,-0.015214483
1607.1666666655337,-0.20715849,-0.83295786,0.015698934,-2.240538,-0.08861176,1.271706,0.5898424,0.039999757,0.04,-9.668159,-0.6839215159416199,-1.4638333,0.01658226,0.048834335058927536,-0.014963763
1607.1833333322004,-0.20851222,-0.833275,0.015801167,-2.2397816,-0.089190714,1.269752,0.58856153,0.039999757,0.04,-9.666399,-0.6863563656806946,-1.4738709,0.016592143,0.04855463653802872,-0.014713919
1607.199999998867,-0.20985848,-0.83359045,0.015902838,-2.2390294,-0.08976647,1.2678088,0.58728784,0.039999757,0.04,-9.664602,-0.6888852119445801,-1.4838492,0.01659861,0.04826895892620087,-0.0144652175
1607.2166666655337,-0.21119712,-0.8339041,0.016003935,-2.2382817,-0.090338975,1.2658764,0.5860213,0.039999757,0.04,-9.662782,-0.6912487149238586,-1.493748,0.016601367,0.047974005341529846,-0.014217881
1607.2333333322003,-0.21252795,-0.83421594,0.01610444,-2.2375379,-0.090908155,1.2639555,0.5847622,0.039999753,0.04,-9.661032,-0.69371098279953,-1.5036488,0.01660093,0.04767053201794624,-0.013972693
1607.249999998867,-0.21385084,-0.83452594,0.01620435,-2.236799,-0.09147393,1.2620461,0.58351046,0.039999753,0.04,-9.659177,-0.6959850192070007,-1.513423,0.016596664,0.04736063629388809,-0.0137280505
1607.2666666655336,-0.21516567,-0.83483404,0.016303647,-2.2360647,-0.09203624,1.2601483,0.58226657,0.03999975,0.04,-9.657473,-0.6983786821365356,-1.5232449,0.016589664,0.04704215005040169,-0.01348559
1607.2833333322003,-0.21647233,-0.83514017,0.016402327,-2.235335,-0.09259501,1.2582625,0.58103037,0.03999975,0.04,-9.655651,-0.7005753517150879,-1.5329083,0.016578566,0.046714454889297485,-0.013244461
1607.299999998867,-0.21777052,-0.8354444,0.01650038,-2.2346098,-0.09315021,1.2563887,0.5798021,0.039999746,0.039999995,-9.653956,-0.702889621257782,-1.5426201,0.016564159,0.04637859761714935,-0.013005349
1607.3166666655336,-0.21906023,-0.8357465,0.016597783,-2.2338896,-0.09370178,1.2545272,0.5785818,0.039999746,0.04,-9.652082,-0.7050217390060425,-1.5521499,0.016546426,0.0460357591509819,-0.012768331
1607.3333333322003,-0.22034131,-0.83604676,0.016694527,-2.2331736,-0.094249636,1.2526783,0.5773697,0.039999742,0.039999995,-9.650392,-0.7072542905807495,-1.561747,0.016525635,0.04568452760577202,-0.012532757
1607.349999998867,-0.22161353,-0.83634496,0.016790614,-2.2324631,-0.09479374,1.2508417,0.576166,0.039999742,0.04,-9.648495,-0.7093011736869812,-1.5711393,0.016501175,0.045328691601753235,-0.012299351
1607.3666666655336,-0.22287683,-0.8366408,0.016886022,-2.2317579,-0.095334016,1.2490184,0.57497084,0.039999742,0.04,-9.646835,-0.7114753127098083,-1.5805998,0.016472995,0.04496238753199577,-0.012067797
1607.3833333322002,-0.22413097,-0.8369346,0.016980745,-2.2310572,-0.095870405,1.247208,0.57378423,0.03999974,0.039999995,-9.645091,-0.7134501338005066,-1.5899459,0.016441245,0.04458669200539589,-0.011838705
1607.3999999988669,-0.22537597,-0.83722645,0.017074771,-2.230362,-0.096402854,1.2454109,0.5726062,0.03999974,0.04,-9.643331,-0.7155571579933167,-1.5992444,0.016406497,0.04420514404773712,-0.011612228
1607.4166666655335,-0.2266116,-0.83751595,0.017168092,-2.2296715,-0.09693127,1.2436274,0.5714371,0.03999974,0.04,-9.641596,-0.7175338268280029,-1.6084557,0.016368767,0.04381655901670456,-0.01138741
1607.4333333322002,-0.22783774,-0.83780336,0.017260699,-2.2289863,-0.097455636,1.2418575,0.57027715,0.03999974,0.04,-9.639752,-0.7194019556045532,-1.617538,0.016327022,0.043422501534223557,-0.011164707
1607.4499999988668,-0.22905433,-0.8380884,0.017352577,-2.2283065,-0.0979759,1.2401015,0.56912607,0.039999735,0.04,-9.638057,-0.7214012145996094,-1.6266693,0.01628135,0.04302181676030159,-0.010944964
1607.4666666655335,-0.23026116,-0.83837116,0.017443724,-2.227633,-0.09849199,1.2383596,0.56798416,0.039999735,0.04,-9.636333,-0.723189115524292,-1.6356347,0.016233064,0.04261130094528198,-0.010727617
1607.4833333322001,-0.23145811,-0.8386516,0.017534122,-2.2269642,-0.09900387,1.2366319,0.5668517,0.03999973,0.04,-9.634699,-0.7251201868057251,-1.6446686,0.016182005,0.042193591594696045,-0.010513407
1607.4999999988668,-0.23264505,-0.83892965,0.017623767,-2.2263007,-0.09951149,1.2349185,0.5657284,0.03999973,0.04,-9.632877,-0.726837158203125,-1.6534556,0.01612664,0.04177046939730644,-0.010301039
1607.5166666655334,-0.23382193,-0.83920544,0.01771265,-2.225643,-0.10001481,1.2332199,0.56461483,0.03999973,0.04,-9.631182,-0.7286980152130127,-1.662312,0.016069153,0.041342005133628845,-0.0100909015
1607.5333333322,-0.23498857,-0.83947873,0.017800761,-2.224991,-0.10051373,1.2315359,0.5635111,0.039999735,0.04,-9.6294365,-0.7303505539894104,-1.6709676,0.01600793,0.04090750217437744,-0.0098827295
1607.5499999988667,-0.23614489,-0.83974963,0.017888095,-2.224345,-0.10100819,1.2298669,0.562417,0.03999974,0.04,-9.627845,-0.7321446537971497,-1.6797084,0.015942574,0.04046427085995674,-0.009677852
1607.5666666655334,-0.23729074,-0.8400182,0.017974636,-2.2237046,-0.10149817,1.2282128,0.56133294,0.03999974,0.04,-9.626095,-0.7337377667427063,-1.6882087,0.015874606,0.04001570865511894,-0.009476355
1607.5833333322,-0.238426,-0.8402841,0.018060379,-2.2230706,-0.10198366,1.2265742,0.5602588,0.039999735,0.04,-9.624479,-0.7354801893234253,-1.6967764,0.015802732,0.03956048563122749,-0.009278972
1607.5999999988667,-0.23955068,-0.8405477,0.018145317,-2.2224424,-0.102464564,1.224951,0.55919486,0.03999974,0.04,-9.622806,-0.7369908094406128,-1.7051553,0.015728487,0.039098046720027924,-0.009082776
1607.6166666655333,-0.2406645,-0.84080887,0.018229442,-2.2218208,-0.10294086,1.2233434,0.5581411,0.039999735,0.04,-9.621174,-0.7386545538902283,-1.7135693,0.015649756,0.03863077983260155,-0.008890586
1607.6333333322,-0.24176742,-0.8410673,0.018312741,-2.221205,-0.103412494,1.2217515,0.5570976,0.039999735,0.04,-9.619555,-0.7401238083839417,-1.7217765,0.015568818,0.03815549984574318,-0.008701116
1607.6499999988666,-0.24285936,-0.8413231,0.018395215,-2.2205954,-0.10387944,1.2201755,0.55606455,0.03999973,0.04,-9.61796,-0.7417148351669312,-1.7300644,0.01548486,0.03767453879117966,-0.008514667
1607.6666666655333,-0.2439402,-0.8415765,0.018476855,-2.2199912,-0.104341626,1.2186155,0.5550419,0.039999727,0.04,-9.616315,-0.7432020902633667,-1.7381965,0.015397474,0.03718859702348709,-0.0083316015
1607.6833333322,-0.24500985,-0.84182733,0.018557645,-2.2193933,-0.10479905,1.2170717,0.5540298,0.039999727,0.04,-9.614586,-0.7445709705352783,-1.7460988,0.015307258,0.03670048713684082,-0.008150416
1607.6999999988666,-0.24606816,-0.84207547,0.018637583,-2.218802,-0.10525162,1.215544,0.55302846,0.039999727,0.04,-9.613034,-0.7460759282112122,-1.7541316,0.015213953,0.03620722144842148,-0.0079722805
1607.7166666655332,-0.2471151,-0.84232074,0.018716665,-2.2182176,-0.10569933,1.214032,0.55203795,0.039999723,0.04,-9.611451,-0.7473997473716736,-1.7619394,0.015117997,0.03570650517940521,-0.0077983346
1607.7333333322,-0.24815057,-0.8425633,0.01879488,-2.21764,-0.10614213,1.2125382,0.5510581,0.039999723,0.04,-9.610021,-0.7488445043563843,-1.7698455,0.015019201,0.035193927586078644,-0.007628162
1607.7499999988665,-0.2491745,-0.8428034,0.018872218,-2.2170677,-0.106580004,1.2110606,0.5500893,0.03999972,0.04,-9.608399,-0.7500932812690735,-1.7775203,0.014918469,0.034681983292102814,-0.0074605215
1607.7666666655332,-0.25018677,-0.8430408,0.018948678,-2.2165022,-0.10701289,1.2095985,0.54913163,0.03999972,0.04,-9.606773,-0.7514774799346924,-1.785156,0.014813548,0.03416967764496803,-0.007294742
1607.7833333321998,-0.25118735,-0.8432755,0.01902426,-2.215943,-0.10744075,1.2081544,0.54818493,0.03999972,0.04,-9.605266,-0.7526881694793701,-1.7925848,0.01470555,0.03364497423171997,-0.0071337014
1607.7999999988665,-0.2521761,-0.84350723,0.019098943,-2.2153904,-0.107863575,1.206727,0.54724944,0.039999716,0.04,-9.6037445,-0.7540147304534912,-1.8001592,0.014595068,0.033121902495622635,-0.0069752163
1607.8166666655331,-0.253153,-0.84373623,0.019172724,-2.2148447,-0.10828132,1.205317,0.5463252,0.039999716,0.04,-9.602218,-0.7551543712615967,-1.8074379,0.0144820465,0.03259114921092987,-0.006819943
1607.8333333321998,-0.2541179,-0.8439624,0.0192456,-2.2143059,-0.108693935,1.2039242,0.5454123,0.039999712,0.04,-9.600775,-0.7564346790313721,-1.8148271,0.014366186,0.032057274132966995,-0.0066682757
1607.8499999988665,-0.25507078,-0.84418577,0.019317575,-2.213774,-0.10910141,1.2025489,0.5445108,0.039999716,0.04,-9.59928,-0.7575238943099976,-1.8219429,0.014247745,0.03151775151491165,-0.0065190503
1607.866666665533,-0.2560116,-0.8444063,0.01938864,-2.2132485,-0.1095037,1.2011908,0.5436207,0.039999716,0.04,-9.597887,-0.7587565183639526,-1.8291568,0.014127052,0.030974240973591805,-0.006373561
1607.8833333321998,-0.25694028,-0.84462404,0.019458782,-2.2127295,-0.109900795,1.1998506,0.5427421,0.039999712,0.04,-9.596371,-0.759792149066925,-1.836072,0.01400338,0.03042689338326454,-0.006231886
1607.8999999988664,-0.2578567,-0.84483874,0.019528002,-2.2122178,-0.110292666,1.1985278,0.54187506,0.039999712,0.04,-9.594922,-0.760960578918457,-1.8430854,0.013877277,0.029879173263907433,-0.006092265
1607.916666665533,-0.25876084,-0.84505075,0.0195963,-2.2117124,-0.110679284,1.1972226,0.5410197,0.03999971,0.04,-9.593621,-0.7620362639427185,-1.8499887,0.013749307,0.029322633519768715,-0.005957436
1607.9333333321997,-0.25965255,-0.84525967,0.019663662,-2.2112143,-0.111060634,1.1959354,0.5401759,0.039999712,0.04,-9.592048,-0.7629936933517456,-1.856581,0.0136180995,0.02876751497387886,-0.005824255
1607.9499999988664,-0.26053187,-0.84546584,0.019730087,-2.210723,-0.11143667,1.194666,0.53934395,0.03999971,0.04,-9.590813,-0.7641090154647827,-1.8634151,0.013485992,0.028205309063196182,-0.0056955134
1607.966666665533,-0.2613988,-0.84566903,0.019795574,-2.2102387,-0.11180738,1.1934146,0.53852373,0.03999971,0.04,-9.589329,-0.7650170922279358,-1.8698438,0.013350891,0.027642980217933655,-0.0055688745
1607.9833333321997,-0.26225322,-0.8458695,0.019860115,-2.2097611,-0.112172745,1.1921813,0.5377154,0.039999705,0.04,-9.588094,-0.7660762071609497,-1.8764776,0.0132136755,0.027074921876192093,-0.0054465723
1607.9999999988663,-0.26309508,-0.8460669,0.01992371,-2.2092903,-0.11253278,1.1909662,0.5369189,0.039999705,0.04,-9.586621,-0.7669458985328674,-1.8827202,0.013074102,0.026508672162890434,-0.0053259344
1608.016666665533,-0.26392442,-0.8462612,0.019986356,-2.2088268,-0.11288741,1.1897694,0.53613424,0.0399997,0.04,-9.585344,-0.7679522037506104,-1.8891401,0.012932269,0.02593998797237873,-0.005208326
1608.0333333321996,-0.26474106,-0.8464529,0.020048046,-2.2083704,-0.11323664,1.1885905,0.5353616,0.0399997,0.04,-9.584058,-0.7687811851501465,-1.8952861,0.012788918,0.02536654844880104,-0.0050948365
1608.0499999988663,-0.26554507,-0.8466414,0.020108784,-2.207921,-0.11358046,1.1874301,0.5346009,0.039999697,0.04,-9.58282,-0.7697510719299316,-1.9014856,0.012643487,0.024790599942207336,-0.004984067
1608.066666665533,-0.26633635,-0.846827,0.020168563,-2.207479,-0.11391883,1.186288,0.5338523,0.039999697,0.04,-9.581478,-0.7705344557762146,-1.90742,0.012495997,0.024214737117290497,-0.0048764613
1608.0833333321996,-0.26711503,-0.8470096,0.020227378,-2.2070441,-0.11425181,1.1851642,0.5331156,0.039999697,0.04,-9.58033,-0.7714597582817078,-1.9134867,0.012347295,0.023634616285562515,-0.0047711646
1608.0999999988662,-0.26788095,-0.84718907,0.020285234,-2.2066164,-0.114579305,1.1840587,0.5323907,0.0399997,0.04,-9.579078,-0.7721934914588928,-1.9192314,0.012196298,0.02305179089307785,-0.004669171
1608.1166666655329,-0.26863414,-0.8473657,0.020342126,-2.2061958,-0.114901334,1.1829717,0.5316782,0.039999705,0.04,-9.577921,-0.773078203201294,-1.9251145,0.012045512,0.022466035559773445,-0.004570591
1608.1333333321995,-0.26937464,-0.84753925,0.020398054,-2.2057827,-0.11521792,1.1819032,0.5309777,0.0399997,0.04,-9.576656,-0.7737883925437927,-1.9306518,0.0118911145,0.02188136614859104,-0.0044756206
1608.1499999988662,-0.27010202,-0.8477098,0.020453013,-2.2053764,-0.11552898,1.1808532,0.5302892,0.0399997,0.04,-9.575575,-0.774624228477478,-1.9363662,0.0117353685,0.02129337750375271,-0.004383389
1608.1666666655328,-0.2708167,-0.84787744,0.020507012,-2.2049773,-0.115834564,1.1798216,0.52961314,0.0399997,0.04,-9.574401,-0.7753902077674866,-1.9418603,0.011580642,0.020705202594399452,-0.004293822
1608.1833333321995,-0.27151856,-0.8480421,0.02056004,-2.2045848,-0.11613468,1.1788085,0.5289489,0.039999697,0.04,-9.573228,-0.7760393619537354,-1.9471282,0.0114219645,0.02011587657034397,-0.004207883
1608.1999999988661,-0.27220765,-0.84820366,0.020612093,-2.2042,-0.116429344,1.1778135,0.52829707,0.039999697,0.04,-9.572109,-0.7768251895904541,-1.9525186,0.011263619,0.019527582451701164,-0.0041236766
1608.2166666655328,-0.27288386,-0.8483622,0.020663183,-2.2038221,-0.11671851,1.1768374,0.5276571,0.039999697,0.04,-9.57101,-0.7774356007575989,-1.9576157,0.011102322,0.018935928121209145,-0.004042947
1608.2333333321994,-0.2735473,-0.8485177,0.020713305,-2.2034516,-0.1170022,1.17588,0.52702945,0.039999694,0.04,-9.569963,-0.7781992554664612,-1.9628556,0.0109417075,0.018346117809414864,-0.0039649797
1608.249999998866,-0.27419785,-0.84867024,0.020762462,-2.203088,-0.11728043,1.1749408,0.52641374,0.039999694,0.04,-9.568894,-0.7787725925445557,-1.9677811,0.010778924,0.017754778265953064,-0.0038894124
1608.2666666655327,-0.27483565,-0.84881985,0.02081065,-2.2027316,-0.117553145,1.1740202,0.52581036,0.039999694,0.04,-9.56786,-0.7794981002807617,-1.9728068,0.010616091,0.01716500148177147,-0.0038160584
1608.2833333321994,-0.27546063,-0.8489664,0.020857872,-2.2023828,-0.117820375,1.1731179,0.5252189,0.039999697,0.04,-9.566817,-0.7800462245941162,-1.9775349,0.010451131,0.01657477580010891,-0.0037456916
1608.299999998866,-0.27607292,-0.84911007,0.020904131,-2.202041,-0.11808217,1.172234,0.5246397,0.039999697,0.04,-9.56591,-0.7807437777519226,-1.9824135,0.010286594,0.015982987359166145,-0.003678388
1608.3166666655327,-0.27667236,-0.84925056,0.020949421,-2.2017062,-0.118338495,1.1713686,0.5240723,0.039999697,0.04,-9.564869,-0.7812536358833313,-1.9869428,0.010120108,0.01539253443479538,-0.003613347
1608.3333333321993,-0.27725917,-0.8493882,0.020993756,-2.2013783,-0.11858938,1.1705217,0.5235172,0.039999694,0.04,-9.56397,-0.7819142937660217,-1.9916422,0.009954771,0.014802282676100731,-0.0035514552
1608.349999998866,-0.27783322,-0.84952277,0.021037135,-2.2010574,-0.11883486,1.169693,0.5229739,0.039999694,0.04,-9.562956,-0.7824075818061829,-1.995989,0.009787021,0.014215412549674511,-0.0034909623
1608.3666666655326,-0.27839458,-0.8496545,0.021079551,-2.2007432,-0.119074926,1.1688827,0.52244276,0.03999969,0.04,-9.562072,-0.7830317616462708,-2.0004823,0.009619809,0.013628916814923286,-0.0034328871
1608.3833333321993,-0.2789433,-0.8497833,0.021121016,-2.200436,-0.11930959,1.1680906,0.52192354,0.039999686,0.04,-9.561096,-0.7835103869438171,-2.0046427,0.009451448,0.013046902604401112,-0.0033769552
1608.399999998866,-0.27947947,-0.849909,0.021161536,-2.2001364,-0.11953887,1.1673167,0.5214162,0.039999686,0.04,-9.560254,-0.7841044664382935,-2.0089362,0.009282654,0.01246642041951418,-0.0033227531
1608.4166666655326,-0.28000316,-0.85003185,0.021201102,-2.199844,-0.119762816,1.1665602,0.5209207,0.039999686,0.04,-9.559458,-0.7846169471740723,-2.0130835,0.009114079,0.011885065585374832,-0.0032712882
1608.4333333321993,-0.2805143,-0.8501517,0.02123973,-2.1995585,-0.11998138,1.1658227,0.52043694,0.039999686,0.04,-9.55861,-0.7850448489189148,-2.0169704,0.008945176,0.011302788741886616,-0.0032227505
1608.449999998866,-0.281013,-0.85026866,0.021277416,-2.1992803,-0.12019463,1.165103,0.5199651,0.039999686,0.04,-9.557856,-0.7856065034866333,-2.0210621,0.008776863,0.010724963620305061,-0.00317576
1608.4666666655326,-0.2814994,-0.85038275,0.021314166,-2.1990087,-0.12040259,1.164401,0.5195049,0.039999682,0.04,-9.557036,-0.786016047000885,-2.0247977,0.008608149,0.01014829520136118,-0.0031316574
1608.4833333321992,-0.28197342,-0.8504939,0.021349989,-2.1987438,-0.1206053,1.1637167,0.5190564,0.039999682,0.04,-9.556286,-0.7865468859672546,-2.028652,0.008439193,0.009575235657393932,-0.0030887707
1608.4999999988659,-0.28243518,-0.8506022,0.02138489,-2.1984856,-0.120802745,1.1630499,0.51861954,0.039999682,0.04,-9.555471,-0.7869371175765991,-2.0321958,0.0082706455,0.009004815481603146,-0.0030478418
1608.5166666655325,-0.28288475,-0.85070777,0.021418866,-2.198234,-0.12099499,1.1624011,0.51819414,0.039999682,0.04,-9.554788,-0.787449300289154,-2.035891,0.008101937,0.008436454460024834,-0.0030091018
1608.5333333321992,-0.28332224,-0.8508104,0.021451928,-2.1979895,-0.12118206,1.1617699,0.5177801,0.03999968,0.04,-9.55399,-0.7878207564353943,-2.039253,0.007933757,0.00787542574107647,-0.0029717148
1608.5499999988658,-0.2837477,-0.85091025,0.021484079,-2.1977518,-0.12136399,1.1611556,0.51737756,0.03999968,0.04,-9.55336,-0.7883031964302063,-2.042783,0.00776646,0.0073167853988707066,-0.0029357565
1608.5666666655325,-0.28416118,-0.85100716,0.021515332,-2.1975207,-0.12154083,1.1605587,0.5169864,0.03999968,0.04,-9.552685,-0.7886529564857483,-2.0459952,0.0075992527,0.006759033538401127,-0.0029022365
1608.5833333321991,-0.28456274,-0.85110134,0.021545688,-2.1972964,-0.12171257,1.159979,0.5166064,0.03999968,0.04,-9.552084,-0.7891192436218262,-2.0493624,0.0074323397,0.006205132231116295,-0.0028701676
1608.5999999988658,-0.28495255,-0.85119283,0.021575158,-2.1970785,-0.12187926,1.1594161,0.5162376,0.03999968,0.04,-9.551397,-0.7894556522369385,-2.0524032,0.007267008,0.005656326189637184,-0.002839519
1608.6166666655324,-0.28533083,-0.85128164,0.02160374,-2.1968675,-0.12204099,1.1588702,0.5158798,0.03999968,0.04,-9.55083,-0.7899067997932434,-2.0555723,0.007101673,0.0051114484667778015,-0.0028107031
1608.633333332199,-0.28569743,-0.85136765,0.021631451,-2.1966624,-0.12219773,1.158341,0.5155329,0.03999968,0.04,-9.55026,-0.7902133464813232,-2.0584683,0.0069373245,0.004569279961287975,-0.0027837022
1608.6499999988657,-0.28605255,-0.85145104,0.021658309,-2.1964638,-0.12234959,1.1578286,0.515197,0.03999968,0.04,-9.549653,-0.7906423807144165,-2.061468,0.006774094,0.004034656099975109,-0.0027576222
1608.6666666655324,-0.28639627,-0.8515316,0.021684293,-2.1962714,-0.122496545,1.1573325,0.5148717,0.039999675,0.04,-9.549113,-0.7910146117210388,-2.0642967,0.0066118734,0.0035056089982390404,-0.002733091
1608.683333332199,-0.28672868,-0.8516096,0.021709427,-2.1960855,-0.12263872,1.1568526,0.51455706,0.039999675,0.04,-9.548556,-0.7912964224815369,-2.066949,0.006451133,0.0029810620471835136,-0.0027097545
1608.6999999988657,-0.28704998,-0.8516848,0.021733725,-2.1959062,-0.122776136,1.1563886,0.514253,0.039999675,0.04,-9.548094,-0.7917148470878601,-2.0697167,0.006292082,0.0024610350374132395,-0.0026876817
1608.7166666655323,-0.28736037,-0.85175765,0.021757184,-2.1957333,-0.12290884,1.1559408,0.5139594,0.03999967,0.04,-9.547622,-0.7919898629188538,-2.0722287,0.0061340756,0.001944428775459528,-0.0026679554
1608.733333332199,-0.28765976,-0.851828,0.021779822,-2.1955655,-0.1230369,1.1555084,0.5136759,0.03999967,0.04,-9.547205,-0.7923721075057983,-2.0748475,0.0059772097,0.0014331899583339691,-0.0026490167
1608.7499999988656,-0.28794843,-0.8518957,0.021801649,-2.1954038,-0.12316035,1.1550918,0.5134028,0.03999967,0.04,-9.546622,-0.7926433086395264,-2.0771337,0.0058226846,0.0009320235112681985,-0.002630256
1608.7666666655323,-0.28822646,-0.8519611,0.02182268,-2.1952481,-0.12327929,1.1546903,0.51313967,0.03999967,0.04,-9.546223,-0.7930188179016113,-2.079606,0.0056687463,0.00043732684571295977,-0.002612467
1608.783333332199,-0.28849414,-0.8520239,0.021842917,-2.1950994,-0.12339375,1.1543036,0.5128864,0.039999668,0.04,-9.545805,-0.7932848930358887,-2.0817883,0.0055169235,-5.149999924469739e-05,-0.00259635
1608.7999999988656,-0.2887515,-0.85208416,0.021862376,-2.1949558,-0.12350379,1.1539322,0.51264304,0.039999668,0.04,-9.545579,-0.7936379313468933,-2.08414,0.005367181,-0.0005410798476077616,-0.002582524
1608.8166666655322,-0.2889986,-0.85214216,0.021881068,-2.194817,-0.12360946,1.1535755,0.51240915,0.039999668,0.04,-9.545102,-0.7938693761825562,-2.0862007,0.005218252,-0.001019066316075623,-0.0025685078
1608.833333332199,-0.28923565,-0.85219777,0.021899002,-2.1946843,-0.12371086,1.1532332,0.5121846,0.039999664,0.04,-9.544657,-0.7942375540733337,-2.08831,0.005072013,-0.0014845876721665263,-0.002554805
1608.8499999988655,-0.28946283,-0.8522511,0.02191619,-2.1945581,-0.12380804,1.1529051,0.5119696,0.039999664,0.04,-9.544354,-0.7944656610488892,-2.090239,0.0049287216,-0.0019462343771010637,-0.002542121
1608.8666666655322,-0.28968033,-0.8523021,0.021932645,-2.194436,-0.12390107,1.152591,0.51176375,0.039999664,0.04,-9.544195,-0.7948146462440491,-2.0923202,0.004787579,-0.002404827857390046,-0.002531255
1608.8833333321988,-0.28988832,-0.8523508,0.021948382,-2.1943195,-0.12399004,1.1522908,0.5115669,0.039999664,0.04,-9.543715,-0.7950359582901001,-2.0940537,0.0046482007,-0.0028501872438937426,-0.0025200732
1608.8999999988655,-0.29008693,-0.8523974,0.021963408,-2.1942086,-0.12407497,1.1520041,0.5113789,0.039999664,0.04,-9.543478,-0.7953601479530334,-2.0959554,0.0045108716,-0.0032870846334844828,-0.0025094182
1608.9166666655321,-0.29027638,-0.85244185,0.021977745,-2.1941032,-0.12415601,1.1517304,0.5111996,0.039999664,0.04,-9.543253,-0.7956410050392151,-2.0976987,0.0043763095,-0.0037170960567891598,-0.002499923
1608.9333333321988,-0.29045686,-0.8524843,0.02199141,-2.194002,-0.12423322,1.1514698,0.51102877,0.039999664,0.04,-9.543024,-0.7958616614341736,-2.099304,0.004244418,-0.004141190554946661,-0.0024916863
1608.9499999988655,-0.29062858,-0.8525245,0.022004405,-2.193906,-0.12430666,1.1512219,0.5108662,0.03999966,0.04,-9.542716,-0.7961771488189697,-2.1009662,0.0041147396,-0.004551575053483248,-0.0024833793
1608.966666665532,-0.29079172,-0.85256284,0.022016754,-2.1938145,-0.124376416,1.1509864,0.51071185,0.03999966,0.04,-9.542571,-0.7963847517967224,-2.1024818,0.003988286,-0.004957030527293682,-0.0024761972
1608.9833333321988,-0.29094642,-0.85259926,0.022028469,-2.1937277,-0.12444261,1.1507629,0.5105654,0.03999966,0.04,-9.542279,-0.7966878414154053,-2.1040177,0.003863888,-0.0053475042805075645,-0.0024682195
1608.9999999988654,-0.29109296,-0.85263366,0.022039564,-2.1936464,-0.124505304,1.1505513,0.5104267,0.03999966,0.04,-9.542132,-0.7969077825546265,-2.10538,0.0037427424,-0.005731380078941584,-0.0024614276
1609.016666665532,-0.2912315,-0.8526662,0.022050062,-2.1935682,-0.12456458,1.1503512,0.5102956,0.03999966,0.04,-9.542059,-0.7972041964530945,-2.1068869,0.0036250271,-0.006108234636485577,-0.00245567
1609.0333333321987,-0.2913623,-0.85269696,0.022059975,-2.1934953,-0.12462054,1.1501622,0.5101718,0.03999966,0.04,-9.541749,-0.7974111437797546,-2.108091,0.0035092505,-0.006469810847193003,-0.002449315
1609.0499999988654,-0.29148555,-0.85272586,0.022069318,-2.1934257,-0.12467325,1.1499842,0.5100551,0.03999966,0.04,-9.541746,-0.7977074384689331,-2.1094825,0.003398273,-0.006825291085988283,-0.0024442112
1609.066666665532,-0.2916015,-0.85275304,0.02207811,-2.1933606,-0.12472285,1.1498168,0.50994533,0.03999966,0.04,-9.541481,-0.7979101538658142,-2.1106126,0.0032892649,-0.0071646380238235,-0.0024383836
1609.0833333321987,-0.29171035,-0.8527786,0.022086365,-2.1933002,-0.12476944,1.1496596,0.5098422,0.03999966,0.04,-9.541453,-0.7981972694396973,-2.1118712,0.0031840815,-0.007496163714677095,-0.002433598
1609.0999999988653,-0.29181245,-0.8528024,0.022094104,-2.1932428,-0.12481312,1.1495123,0.50974554,0.039999656,0.04,-9.54144,-0.7984160780906677,-2.1129942,0.0030833792,-0.007819157093763351,-0.0024301591
1609.116666665532,-0.29190797,-0.8528247,0.022101346,-2.1931899,-0.124853976,1.1493745,0.5096552,0.039999656,0.04,-9.541276,-0.7986806631088257,-2.1141212,0.0029854537,-0.00812805537134409,-0.0024259214
1609.1333333321986,-0.29199713,-0.85284567,0.022108112,-2.1931396,-0.1248921,1.1492456,0.5095708,0.039999656,0.04,-9.541288,-0.7988941669464111,-2.1151361,0.0028909813,-0.008429022505879402,-0.0024229225
1609.1499999988653,-0.29208016,-0.8528652,0.022114418,-2.1930928,-0.12492765,1.1491258,0.5094921,0.039999656,0.04,-9.541122,-0.7991645336151123,-2.1161468,0.0028000586,-0.00871256273239851,-0.0024189833
1609.166666665532,-0.29215738,-0.85288334,0.022120284,-2.1930494,-0.1249607,1.1490141,0.50941896,0.039999656,0.04,-9.541116,-0.7994133234024048,-2.1171272,0.002713401,-0.008984724059700966,-0.0024152861
1609.1833333321986,-0.29222906,-0.85290015,0.022125727,-2.193009,-0.12499138,1.1489105,0.50935113,0.039999656,0.04,-9.541081,-0.7996253371238708,-2.1180053,0.0026306254,-0.009246060624718666,-0.0024123585
1609.1999999988652,-0.2922954,-0.8529157,0.022130778,-2.1929727,-0.1250198,1.1488146,0.50928825,0.039999656,0.04,-9.541049,-0.7998930811882019,-2.1189497,0.0025514453,-0.009493234567344189,-0.0024093066
1609.2166666655319,-0.2923568,-0.8529301,0.02213544,-2.1929379,-0.12504609,1.1487257,0.50923014,0.039999653,0.04,-9.54118,-0.8001176714897156,-2.1198378,0.0024776475,-0.009733227081596851,-0.0024082756
1609.2333333321985,-0.29241344,-0.8529434,0.022139747,-2.192906,-0.12507032,1.1486439,0.5091765,0.039999653,0.04,-9.541033,-0.8003777265548706,-2.1206443,0.002406906,-0.009953885339200497,-0.0024056402
1609.2499999988652,-0.29246566,-0.8529555,0.022143727,-2.1928773,-0.12509266,1.1485686,0.5091271,0.039999653,0.04,-9.541068,-0.800597608089447,-2.1214294,0.0023404732,-0.010161427780985832,-0.0024033864
1609.2666666655318,-0.2925137,-0.85296685,0.022147382,-2.1928499,-0.12511323,1.148499,0.5090816,0.039999653,0.04,-9.541191,-0.8008639812469482,-2.122311,0.0022790525,-0.01035885326564312,-0.0024020453
1609.2833333321985,-0.29255792,-0.85297716,0.022150768,-2.1928248,-0.12513214,1.1484351,0.50903976,0.039999653,0.04,-9.541083,-0.8010928630828857,-2.1229503,0.002221362,-0.01053728349506855,-0.0023998232
1609.2999999988651,-0.2925986,-0.8529867,0.02215387,-2.1928039,-0.12514958,1.1483762,0.50900114,0.039999653,0.04,-9.541168,-0.8013513684272766,-2.1237452,0.0021684042,-0.01070284191519022,-0.0023980662
1609.3166666655318,-0.29263604,-0.8529954,0.022156728,-2.192783,-0.12516563,1.1483221,0.5089657,0.039999653,0.04,-9.541419,-0.8015687465667725,-2.1244736,0.0021212336,-0.010864411480724812,-0.0023985144
1609.3333333321984,-0.2926705,-0.8530035,0.02215936,-2.1927629,-0.12518038,1.148273,0.50893295,0.039999653,0.04,-9.541286,-0.8017848134040833,-2.1250868,0.002076772,-0.011006741784512997,-0.0023974257
1609.349999998865,-0.2927022,-0.853011,0.022161784,-2.1927445,-0.12519395,1.1482277,0.50890297,0.039999653,0.04,-9.541156,-0.801956057548523,-2.1255796,0.0020355762,-0.011128837242722511,-0.0023942632
1609.3666666655317,-0.2927313,-0.8530178,0.02216402,-2.1927283,-0.12520643,1.1481862,0.50887537,0.039999653,0.04,-9.541242,-0.8021498322486877,-2.126127,0.0019971498,-0.011242940090596676,-0.0023918343
1609.3833333321984,-0.29275814,-0.853024,0.022166079,-2.192715,-0.12521793,1.148148,0.50885004,0.039999653,0.04,-9.541344,-0.8023083806037903,-2.126634,0.0019625956,-0.01135050505399704,-0.0023902026
1609.399999998865,-0.29278287,-0.85302985,0.02216797,-2.1927016,-0.1252285,1.1481117,0.5088267,0.03999965,0.04,-9.541548,-0.8024797439575195,-2.127171,0.0019311688,-0.011457149870693684,-0.0023909097
1609.4166666655317,-0.2928056,-0.85303503,0.022169717,-2.1926885,-0.1252382,1.1480781,0.50880516,0.03999965,0.04,-9.541453,-0.8026127219200134,-2.127496,0.001901638,-0.011554361321032047,-0.0023912657
1609.4333333321983,-0.29282653,-0.85303986,0.022171322,-2.1926756,-0.12524715,1.1480482,0.50878537,0.03999965,0.04,-9.541387,-0.802725076675415,-2.1278434,0.0018743722,-0.011642282828688622,-0.0023913418
1609.449999998865,-0.29284576,-0.85304433,0.022172801,-2.192664,-0.12525542,1.1480204,0.5087671,0.03999965,0.04,-9.541303,-0.8028401732444763,-2.1281924,0.0018487523,-0.011714821681380272,-0.0023891553
1609.4666666655316,-0.29286346,-0.85304856,0.022174163,-2.1926532,-0.12526299,1.1479944,0.50875026,0.03999965,0.04,-9.541347,-0.8029457330703735,-2.1284895,0.0018254364,-0.011783349327743053,-0.0023874184
1609.4833333321983,-0.2928797,-0.85305244,0.022175418,-2.1926441,-0.12526995,1.147972,0.5087349,0.03999965,0.04,-9.541383,-0.8030599355697632,-2.1287727,0.0018043362,-0.011847683228552341,-0.0023864538
1609.499999998865,-0.29289466,-0.85305595,0.022176571,-2.1926365,-0.12527636,1.1479498,0.50872064,0.03999965,0.04,-9.541456,-0.8031376004219055,-2.1291025,0.0017849139,-0.011904080398380756,-0.0023845346
1609.5166666655316,-0.29290846,-0.8530591,0.022177637,-2.19263,-0.12528226,1.1479312,0.5087076,0.03999965,0.04,-9.541591,-0.8032426834106445,-2.1293597,0.0017678089,-0.011966110207140446,-0.002385421
1609.5333333321983,-0.29292116,-0.85306203,0.022178615,-2.1926243,-0.12528771,1.1479129,0.50869566,0.03999965,0.04,-9.541619,-0.8032950162887573,-2.1296554,0.001752035,-0.012018275447189808,-0.0023847397
1609.549999998865,-0.2929328,-0.85306466,0.022179518,-2.1926186,-0.1252927,1.1478946,0.50868464,0.03999965,0.04,-9.541673,-0.8033783435821533,-2.129855,0.0017371239,-0.012072542682290077,-0.0023857125
1609.5666666655316,-0.29294357,-0.8530671,0.022180349,-2.1926131,-0.1252973,1.14788,0.5086745,0.03999965,0.04,-9.541646,-0.8034428954124451,-2.1300116,0.0017236598,-0.012126694433391094,-0.002387955
1609.5833333321982,-0.29295352,-0.8530694,0.022181112,-2.1926076,-0.12530154,1.1478654,0.5086652,0.03999965,0.04,-9.541571,-0.8034863471984863,-2.130244,0.0017109303,-0.012165938504040241,-0.0023871595
1609.5999999988649,-0.29296264,-0.8530716,0.022181815,-2.1926022,-0.12530543,1.147851,0.5086563,0.03999965,0.04,-9.541553,-0.8035442233085632,-2.1303403,0.0016985524,-0.01220457162708044,-0.0023872647
1609.6166666655315,-0.29297093,-0.8530736,0.022182463,-2.1925967,-0.125309,1.14784,0.5086485,0.03999965,0.04,-9.5415325,-0.8036028146743774,-2.1304672,0.0016886244,-0.012242724187672138,-0.0023882226
1609.6333333321982,-0.2929785,-0.85307544,0.022183063,-2.1925914,-0.12531228,1.1478293,0.5086413,0.03999965,0.04,-9.541433,-0.8036410808563232,-2.1306307,0.0016780333,-0.012265329249203205,-0.0023855132
1609.6499999988648,-0.29298562,-0.85307705,0.022183616,-2.1925864,-0.12531535,1.1478186,0.5086344,0.03999965,0.04,-9.541452,-0.8036913871765137,-2.1307278,0.0016685813,-0.01228810753673315,-0.0023837057
1609.6666666655315,-0.29299206,-0.85307854,0.02218412,-2.1925817,-0.12531814,1.147808,0.5086282,0.03999965,0.04,-9.541471,-0.8037317991256714,-2.1308215,0.0016603359,-0.012312495149672031,-0.0023828743
1609.6833333321981,-0.29299814,-0.8530798,0.02218458,-2.1925771,-0.12532075,1.1478002,0.50862265,0.03999965,0.04,-9.541487,-0.8037751317024231,-2.1309023,0.001652505,-0.012337584048509598,-0.0023830389
1609.6999999988648,-0.29300356,-0.853081,0.022185013,-2.1925733,-0.12532309,1.1477932,0.50861746,0.03999965,0.04,-9.333721,-0.81910640001297,-1.9265192,0.0,-0.0,0.0
1609.7166666655314,-0.29300356,-0.853081,0.022185013,-2.1925733,-0.12532309,1.1477932,0.50861746,0.03999965,0.04,-9.541771,-0.8041461706161499,-2.1316824,0.0,-0.0,0.0
1609.733333332198,-0.29300356,-0.853081,0.022185013,-2.1925733,-0.12532309,1.1477932,0.50861746,0.03999965,0.04,-9.541771,-0.8041461706161499,-2.1316824,0.0,-0.0,0.0
1609.7499999988647,-0.29300356,-0.853081,0.022185013,-2.1925733,-0.12532309,1.1477932,0.50861746,0.03999965,0.04,-9.541771,-0.8041461706161499,-2.1316824,0.0,-0.0,0.0
1609.7666666655314,-0.29300356,-0.853081,0.022185013,-2.1925733,-0.12532309,1.1477932,0.50861746,0.03999965,0.04,-9.541771,-0.8041461706161499,-2.1316824,0.0,-0.0,0.0
1609.783333332198,-0.29300356,-0.853081,0.022185013,-2.1925733,-0.12532309,1.1477932,0.50861746,0.03999965,0.04,-9.541771,-0.8041461706161499,-2.1316824,0.0,-0.0,0.0
1609.7999999988647,-0.29300356,-0.853081,0.022185013,-2.1925733,-0.12532309,1.1477932,0.50861746,0.03999965,0.04,-9.541771,-0.8041461706161499,-2.1316824,0.0,-0.0,0.0
1609.8166666655313,-0.29300356,-0.853081,0.022185013,-2.1925733,-0.12532309,1.1477932,0.50861746,0.03999965,0.04,-9.541771,-0.8041461706161499,-2.1316824,0.0,-0.0,0.0
1609.833333332198,-0.29300356,-0.853081,0.022185013,-2.1925733,-0.12532309,1.1477932,0.50861746,0.03999965,0.04,-9.541771,-0.8041461706161499,-2.1316824,0.0,-0.0,0.0
1609.8499999988646,-0.29300356,-0.853081,0.022185013,-2.1925733,-0.12532309,1.1477932,0.50861746,0.03999965,0.04,-9.541771,-0.8041461706161499,-2.1316824,0.0,-0.0,0.0
1609.8666666655313,-0.29300356,-0.853081,0.022185013,-2.1925733,-0.12532309,1.1477932,0.50861746,0.03999965,0.04,-9.541771,-0.8041461706161499,-2.1316824,0.0,-0.0,0.0
1609.883333332198,-0.29300356,-0.853081,0.022185013,-2.1925733,-0.12532309,1.1477932,0.50861746,0.03999965,0.04,-9.541771,-0.8041461706161499,-2.1316824,0.0,-0.0,0.0
1609.8999999988646,-0.29300356,-0.853081,0.022185013,-2.1925733,-0.12532309,1.1477932,0.50861746,0.03999965,0.04,-9.541771,-0.8041461706161499,-2.1316824,0.0,-0.0,0.0
1609.9166666655312,-0.29300356,-0.853081,0.022185013,-2.1925733,-0.12532309,1.1477932,0.50861746,0.03999965,0.04,-9.541771,-0.8041461706161499,-2.1316824,0.0,-0.0,0.0
1609.933333332198,-0.29300356,-0.853081,0.022185013,-2.1925733,-0.12532309,1.1477932,0.50861746,0.03999965,0.04,-9.541771,-0.8041461706161499,-2.1316824,0.0,-0.0,0.0
1609.9499999988645,-0.29300356,-0.853081,0.022185013,-2.1925733,-0.12532309,1.1477932,0.50861746,0.03999965,0.04,-9.541771,-0.8041461706161499,-2.1316824,0.0,-0.0,0.0
1609.9666666655312,-0.29300356,-0.853081,0.022185013,-2.1925733,-0.12532309,1.1477932,0.50861746,0.03999965,0.04,-9.541771,-0.8041461706161499,-2.1316824,0.0,-0.0,0.0
1609.9833333321978,-0.29300356,-0.853081,0.022185013,-2.1925733,-0.12532309,1.1477932,0.50861746,0.03999965,0.04,-9.541771,-0.8041461706161499,-2.1316824,0.0,-0.0,0.0
1609.9999999988645,-0.29300356,-0.853081,0.022185013,-2.1925733,-0.12532309,1.1477932,0.50861746,0.03999965,0.04,-9.541771,-0.8041461706161499,-2.1316824,0.0,-0.0,0.0
1610.0166666655311,-0.29300356,-0.853081,0.022185013,-2.1925733,-0.12532309,1.1477932,0.50861746,0.03999965,0.04,-9.541771,-0.8041461706161499,-2.1316824,0.0,-0.0,0.0
1610.0333333321978,-0.29300356,-0.853081,0.022185013,-2.1925733,-0.12532309,1.1477932,0.50861746,0.03999965,0.04,-9.541771,-0.8041461706161499,-2.1316824,0.0,-0.0,0.0
1610.0499999988645,-0.29300356,-0.853081,0.022185013,-2.1925733,-0.12532309,1.1477932,0.50861746,0.03999965,0.04,-9.541771,-0.8041461706161499,-2.1316824,0.0,-0.0,0.0
1610.066666665531,-0.29300356,-0.853081,0.022185013,-2.1925733,-0.12532309,1.1477932,0.50861746,0.03999965,0.04,-9.541771,-0.8041461706161499,-2.1316824,0.0,-0.0,0.0
1610.0833333321978,-0.29300356,-0.853081,0.022185013,-2.1925733,-0.12532309,1.1477932,0.50861746,0.03999965,0.04,-9.541771,-0.8041461706161499,-2.1316824,0.0,-0.0,0.0
1610.0999999988644,-0.29300356,-0.853081,0.022185013,-2.1925733,-0.12532309,1.1477932,0.50861746,0.03999965,0.04,-9.541771,-0.8041461706161499,-2.1316824,0.0,-0.0,0.0
1610.116666665531,-0.29300356,-0.853081,0.022185013,-2.1925733,-0.12532309,1.1477932,0.50861746,0.03999965,0.04,-9.541771,-0.8041461706161499,-2.1316824,0.0,-0.0,0.0
1610.1333333321977,-0.29300356,-0.853081,0.022185013,-2.1925733,-0.12532309,1.1477932,0.50861746,0.03999965,0.04,-9.541771,-0.8041461706161499,-2.1316824,0.0,-0.0,0.0
1610.1499999988644,-0.29300356,-0.853081,0.022185013,-2.1925733,-0.12532309,1.1477932,0.50861746,0.03999965,0.04,-9.541771,-0.8041461706161499,-2.1316824,0.0,-0.0,0.0
1610.166666665531,-0.29300356,-0.853081,0.022185013,-2.1925733,-0.12532309,1.1477932,0.50861746,0.03999965,0.04,-9.541771,-0.8041461706161499,-2.1316824,0.0,-0.0,0.0
1610.1833333321977,-0.29300356,-0.853081,0.022185013,-2.1925733,-0.12532309,1.1477932,0.50861746,0.03999965,0.04,-9.541771,-0.8041461706161499,-2.1316824,0.0,-0.0,0.0
1610.1999999988643,-0.29300356,-0.853081,0.022185013,-2.1925733,-0.12532309,1.1477932,0.50861746,0.03999965,0.04,-9.541771,-0.8041461706161499,-2.1316824,0.0,-0.0,0.0
1610.216666665531,-0.29300356,-0.853081,0.022185013,-2.1925733,-0.12532309,1.1477932,0.50861746,0.03999965,0.04,-9.541771,-0.8041461706161499,-2.1316824,0.0,-0.0,0.0
1610.2333333321976,-0.29300356,-0.853081,0.022185013,-2.1925733,-0.12532309,1.1477932,0.50861746,0.03999965,0.04,-9.541771,-0.8041461706161499,-2.1316824,0.0,-0.0,0.0
1610.2499999988643,-0.29300356,-0.853081,0.022185013,-2.1925733,-0.12532309,1.1477932,0.50861746,0.03999965,0.04,-9.541771,-0.8041461706161499,-2.1316824,0.0,-0.0,0.0
1610.266666665531,-0.29300356,-0.853081,0.022185013,-2.1925733,-0.12532309,1.1477932,0.50861746,0.03999965,0.04,-9.541771,-0.8041461706161499,-2.1316824,0.0,-0.0,0.0
1610.2833333321976,-0.29300356,-0.853081,0.022185013,-2.1925733,-0.12532309,1.1477932,0.50861746,0.03999965,0.04,-9.541771,-0.8041461706161499,-2.1316824,0.0,-0.0,0.0
1610.2999999988642,-0.29300356,-0.853081,0.022185013,-2.1925733,-0.12532309,1.1477932,0.50861746,0.03999965,0.04,-9.541771,-0.8041461706161499,-2.1316824,0.0,-0.0,0.0
1610.3166666655309,-0.29300356,-0.853081,0.022185013,-2.1925733,-0.12532309,1.1477932,0.50861746,0.03999965,0.04,-9.541771,-0.8041461706161499,-2.1316824,0.0,-0.0,0.0
1610.3333333321975,-0.29300356,-0.853081,0.022185013,-2.1925733,-0.12532309,1.1477932,0.50861746,0.03999965,0.04,-9.541771,-0.8041461706161499,-2.1316824,0.0,-0.0,0.0
1610.3499999988642,-0.29300356,-0.853081,0.022185013,-2.1925733,-0.12532309,1.1477932,0.50861746,0.03999965,0.04,-9.541771,-0.8041461706161499,-2.1316824,0.0,-0.0,0.0
1610.3666666655308,-0.29300356,-0.853081,0.022185013,-2.1925733,-0.12532309,1.1477932,0.50861746,0.03999965,0.04,-9.541771,-0.8041461706161499,-2.1316824,0.0,-0.0,0.0
1610.3833333321975,-0.29300356,-0.853081,0.022185013,-2.1925733,-0.12532309,1.1477932,0.50861746,0.03999965,0.04,-9.541771,-0.8041461706161499,-2.1316824,0.0,-0.0,0.0
1610.3999999988641,-0.29300356,-0.853081,0.022185013,-2.1925733,-0.12532309,1.1477932,0.50861746,0.03999965,0.04,-9.541771,-0.8041461706161499,-2.1316824,0.0,-0.0,0.0
1610.4166666655308,-0.29300356,-0.853081,0.022185013,-2.1925733,-0.12532309,1.1477932,0.50861746,0.03999965,0.04,-9.541771,-0.8041461706161499,-2.1316824,0.0,-0.0,0.0
1610.4333333321974,-0.29300356,-0.853081,0.022185013,-2.1925733,-0.12532309,1.1477932,0.50861746,0.03999965,0.04,-9.541771,-0.8041461706161499,-2.1316824,0.0,-0.0,0.0
1610.449999998864,-0.29300356,-0.853081,0.022185013,-2.1925733,-0.12532309,1.1477932,0.50861746,0.03999965,0.04,-9.541771,-0.8041461706161499,-2.1316824,0.0,-0.0,0.0
1610.4666666655307,-0.29300356,-0.853081,0.022185013,-2.1925733,-0.12532309,1.1477932,0.50861746,0.03999965,0.04,-9.541771,-0.8041461706161499,-2.1316824,0.0,-0.0,0.0
1610.4833333321974,-0.29300356,-0.853081,0.022185013,-2.1925733,-0.12532309,1.1477932,0.50861746,0.03999965,0.04,-9.541771,-0.8041461706161499,-2.1316824,0.0,-0.0,0.0
1610.499999998864,-0.29300356,-0.853081,0.022185013,-2.1925733,-0.12532309,1.1477932,0.50861746,0.03999965,0.04,-9.541771,-0.8041461706161499,-2.1316824,0.0,-0.0,0.0
1610.5166666655307,-0.29300356,-0.853081,0.022185013,-2.1925733,-0.12532309,1.1477932,0.50861746,0.03999965,0.04,-9.541771,-0.8041461706161499,-2.1316824,0.0,-0.0,0.0
1610.5333333321973,-0.29300356,-0.853081,0.022185013,-2.1925733,-0.12532309,1.1477932,0.50861746,0.03999965,0.04,-9.541771,-0.8041461706161499,-2.1316824,0.0,-0.0,0.0
1610.549999998864,-0.29300356,-0.853081,0.022185013,-2.1925733,-0.12532309,1.1477932,0.50861746,0.03999965,0.04,-9.541771,-0.8041461706161499,-2.1316824,0.0,-0.0,0.0
1610.5666666655306,-0.29300356,-0.853081,0.022185013,-2.1925733,-0.12532309,1.1477932,0.50861746,0.03999965,0.04,-9.541771,-0.8041461706161499,-2.1316824,0.0,-0.0,0.0
1610.5833333321973,-0.29300356,-0.853081,0.022185013,-2.1925733,-0.12532309,1.1477932,0.50861746,0.03999965,0.04,-9.541771,-0.8041461706161499,-2.1316824,0.0,-0.0,0.0
1610.599999998864,-0.29300356,-0.853081,0.022185013,-2.1925733,-0.12532309,1.1477932,0.50861746,0.03999965,0.04,-9.541771,-0.8041461706161499,-2.1316824,0.0,-0.0,0.0
1610.6166666655306,-0.29300356,-0.853081,0.022185013,-2.1925733,-0.12532309,1.1477932,0.50861746,0.03999965,0.04,-9.541771,-0.8041461706161499,-2.1316824,0.0,-0.0,0.0
1610.6333333321973,-0.29300356,-0.853081,0.022185013,-2.1925733,-0.12532309,1.1477932,0.50861746,0.03999965,0.04,-9.541771,-0.8041461706161499,-2.1316824,0.0,-0.0,0.0
1610.649999998864,-0.29300356,-0.853081,0.022185013,-2.1925733,-0.12532309,1.1477932,0.50861746,0.03999965,0.04,-9.541771,-0.8041461706161499,-2.1316824,0.0,-0.0,0.0
1610.6666666655306,-0.29300356,-0.853081,0.022185013,-2.1925733,-0.12532309,1.1477932,0.50861746,0.03999965,0.04,-9.541771,-0.8041461706161499,-2.1316824,0.0,-0.0,0.0
1610.6833333321972,-0.29300356,-0.853081,0.022185013,-2.1925733,-0.12532309,1.1477932,0.50861746,0.03999965,0.04,-9.541771,-0.8041461706161499,-2.1316824,0.0,-0.0,0.0
1610.6999999988639,-0.29300356,-0.853081,0.022185013,-2.1925733,-0.12532309,1.1477932,0.50861746,0.03999965,0.04,-9.541771,-0.8041461706161499,-2.1316824,0.0,-0.0,0.0
1610.7166666655305,-0.29300356,-0.853081,0.022185013,-2.1925733,-0.12532309,1.1477932,0.50861746,0.03999965,0.04,-9.541771,-0.8041461706161499,-2.1316824,0.0,-0.0,0.0
1610.7333333321972,-0.29300356,-0.853081,0.022185013,-2.1925733,-0.12532309,1.1477932,0.50861746,0.03999965,0.04,-9.541771,-0.8041461706161499,-2.1316824,0.0,-0.0,0.0
1610.7499999988638,-0.29300356,-0.853081,0.022185013,-2.1925733,-0.12532309,1.1477932,0.50861746,0.03999965,0.04,-9.541771,-0.8041461706161499,-2.1316824,0.0,-0.0,0.0
1610.7666666655305,-0.29300356,-0.853081,0.022185013,-2.1925733,-0.12532309,1.1477932,0.50861746,0.03999965,0.04,-9.541771,-0.8041461706161499,-2.1316824,0.0,-0.0,0.0
1610.7833333321971,-0.29300356,-0.853081,0.022185013,-2.1925733,-0.12532309,1.1477932,0.50861746,0.03999965,0.04,-9.541771,-0.8041461706161499,-2.1316824,0.0,-0.0,0.0
1610.7999999988638,-0.29300356,-0.853081,0.022185013,-2.1925733,-0.12532309,1.1477932,0.50861746,0.03999965,0.04,-9.541771,-0.8041461706161499,-2.1316824,0.0,-0.0,0.0
1610.8166666655304,-0.29300356,-0.853081,0.022185013,-2.1925733,-0.12532309,1.1477932,0.50861746,0.03999965,0.04,-9.541771,-0.8041461706161499,-2.1316824,0.0,-0.0,0.0
1610.833333332197,-0.29300356,-0.853081,0.022185013,-2.1925733,-0.12532309,1.1477932,0.50861746,0.03999965,0.04,-9.541771,-0.8041461706161499,-2.1316824,0.0,-0.0,0.0
1610.8499999988637,-0.29300356,-0.853081,0.022185013,-2.1925733,-0.12532309,1.1477932,0.50861746,0.03999965,0.04,-9.541771,-0.8041461706161499,-2.1316824,0.0,-0.0,0.0
1610.8666666655304,-0.29300356,-0.853081,0.022185013,-2.1925733,-0.12532309,1.1477932,0.50861746,0.03999965,0.04,-9.541771,-0.8041461706161499,-2.1316824,0.0,-0.0,0.0
1610.883333332197,-0.29300356,-0.853081,0.022185013,-2.1925733,-0.12532309,1.1477932,0.50861746,0.03999965,0.04,-9.541771,-0.8041461706161499,-2.1316824,0.0,-0.0,0.0
1610.8999999988637,-0.29300356,-0.853081,0.022185013,-2.1925733,-0.12532309,1.1477932,0.50861746,0.03999965,0.04,-9.541771,-0.8041461706161499,-2.1316824,0.0,-0.0,0.0
1610.9166666655303,-0.29300356,-0.853081,0.022185013,-2.1925733,-0.12532309,1.1477932,0.50861746,0.03999965,0.04,-9.541771,-0.8041461706161499,-2.1316824,0.0,-0.0,0.0
1610.933333332197,-0.29300356,-0.853081,0.022185013,-2.1925733,-0.12532309,1.1477932,0.50861746,0.03999965,0.04,-9.541771,-0.8041461706161499,-2.1316824,0.0,-0.0,0.0
1610.9499999988636,-0.29300356,-0.853081,0.022185013,-2.1925733,-0.12532309,1.1477932,0.50861746,0.03999965,0.04,-9.541771,-0.8041461706161499,-2.1316824,0.0,-0.0,0.0
1610.9666666655303,-0.29300356,-0.853081,0.022185013,-2.1925733,-0.12532309,1.1477932,0.50861746,0.03999965,0.04,-9.541771,-0.8041461706161499,-2.1316824,0.0,-0.0,0.0
1610.983333332197,-0.29300356,-0.853081,0.022185013,-2.1925733,-0.12532309,1.1477932,0.50861746,0.03999965,0.04,-9.541771,-0.8041461706161499,-2.1316824,0.0,-0.0,0.0
1610.9999999988636,-0.29300356,-0.853081,0.022185013,-2.1925733,-0.12532309,1.1477932,0.50861746,0.03999965,0.04,-9.541771,-0.8041461706161499,-2.1316824,0.0,-0.0,0.0
1611.0166666655302,-0.29300356,-0.853081,0.022185013,-2.1925733,-0.12532309,1.1477932,0.50861746,0.03999965,0.04,-9.541771,-0.8041461706161499,-2.1316824,0.0,-0.0,0.0
1611.033333332197,-0.29300356,-0.853081,0.022185013,-2.1925733,-0.12532309,1.1477932,0.50861746,0.03999965,0.04,-9.541771,-0.8041461706161499,-2.1316824,0.0,-0.0,0.0
1611.0499999988635,-0.29300356,-0.853081,0.022185013,-2.1925733,-0.12532309,1.1477932,0.50861746,0.03999965,0.04,-9.541771,-0.8041461706161499,-2.1316824,0.0,-0.0,0.0
1611.0666666655302,-0.29300356,-0.853081,0.022185013,-2.1925733,-0.12532309,1.1477932,0.50861746,0.03999965,0.04,-9.541771,-0.8041461706161499,-2.1316824,0.0,-0.0,0.0
1611.0833333321968,-0.29300356,-0.853081,0.022185013,-2.1925733,-0.12532309,1.1477932,0.50861746,0.03999965,0.04,-9.541771,-0.8041461706161499,-2.1316824,0.0,-0.0,0.0
1611.0999999988635,-0.29300356,-0.853081,0.022185013,-2.1925733,-0.12532309,1.1477932,0.50861746,0.03999965,0.04,-9.541771,-0.8041461706161499,-2.1316824,0.0,-0.0,0.0
1611.1166666655301,-0.29300356,-0.853081,0.022185013,-2.1925733,-0.12532309,1.1477932,0.50861746,0.03999965,0.04,-9.541771,-0.8041461706161499,-2.1316824,0.0,-0.0,0.0
1611.1333333321968,-0.29300356,-0.853081,0.022185013,-2.1925733,-0.12532309,1.1477932,0.50861746,0.03999965,0.04,-9.541771,-0.8041461706161499,-2.1316824,0.0,-0.0,0.0
1611.1499999988634,-0.29300356,-0.853081,0.022185013,-2.1925733,-0.12532309,1.1477932,0.50861746,0.03999965,0.04,-9.541771,-0.8041461706161499,-2.1316824,0.0,-0.0,0.0
1611.16666666553,-0.29300356,-0.853081,0.022185013,-2.1925733,-0.12532309,1.1477932,0.50861746,0.03999965,0.04,-9.541771,-0.8041461706161499,-2.1316824,0.0,-0.0,0.0
1611.1833333321968,-0.29300356,-0.853081,0.022185013,-2.1925733,-0.12532309,1.1477932,0.50861746,0.03999965,0.04,-9.541771,-0.8041461706161499,-2.1316824,0.0,-0.0,0.0
1611.1999999988634,-0.29300356,-0.853081,0.022185013,-2.1925733,-0.12532309,1.1477932,0.50861746,0.03999965,0.04,-9.541771,-0.8041461706161499,-2.1316824,0.0,-0.0,0.0
1611.21666666553,-0.29300356,-0.853081,0.022185013,-2.1925733,-0.12532309,1.1477932,0.50861746,0.03999965,0.04,-9.541771,-0.8041461706161499,-2.1316824,0.0,-0.0,0.0
1611.2333333321967,-0.29300356,-0.853081,0.022185013,-2.1925733,-0.12532309,1.1477932,0.50861746,0.03999965,0.04,-9.541771,-0.8041461706161499,-2.1316824,0.0,-0.0,0.0
1611.2499999988634,-0.29300356,-0.853081,0.022185013,-2.1925733,-0.12532309,1.1477932,0.50861746,0.03999965,0.04,-9.541771,-0.8041461706161499,-2.1316824,0.0,-0.0,0.0
1611.26666666553,-0.29300356,-0.853081,0.022185013,-2.1925733,-0.12532309,1.1477932,0.50861746,0.03999965,0.04,-9.541771,-0.8041461706161499,-2.1316824,0.0,-0.0,0.0
1611.2833333321967,-0.29300356,-0.853081,0.022185013,-2.1925733,-0.12532309,1.1477932,0.50861746,0.03999965,0.04,-9.541771,-0.8041461706161499,-2.1316824,0.0,-0.0,0.0
1611.2999999988633,-0.29300356,-0.853081,0.022185013,-2.1925733,-0.12532309,1.1477932,0.50861746,0.03999965,0.04,-9.541771,-0.8041461706161499,-2.1316824,0.0,-0.0,0.0
