rsonawane2002/My_IMU/logs_2/traj_433/clean_433.csv
time,j1,j2,j3,j4,j5,j6,j7,gripper1,gripper2,imu_ax,imu_ay,imu_az,imu_gx,imu_gy,imu_gz,quat_x,quat_y,quat_z,quat_w
2012.133333331832,0.00016700293,-0.785875,4.0107683e-05,-2.3551247,9.29385e-05,1.570997,0.786,0.04,0.04,0.0,-0.0,0.0,2.875329272945135e-08,-0.0011641195053377316,4.421952117202833e-08,0.9999995971961153,0.00020320632366974898,0.0008736418299892524,3.263050917662294e-05
2012.1499999984987,0.00016699595,-0.78576016,4.010613e-05,-2.3552213,9.2966584e-05,1.5709941,0.786,0.04,0.04,-0.2919984596826408,-8.851935806862598e-06,0.020128414780140602,1.3073790795220086e-06,-0.0022381618375210315,-3.751896433904763e-10,0.9999996850571921,0.00020321511300724958,0.0007665025194185224,3.260402341079292e-05
2012.1666666651654,0.00016692022,-0.7856542,4.0045394e-05,-2.35531,9.295029e-05,1.5709913,0.786,0.04,0.039999995,0.02319697777983798,0.00017884806688650795,-0.001602672864620125,9.990185041161612e-06,-0.0032225030644745327,2.1604353448167574e-07,0.9999997558713309,0.00020327883431213366,0.000667737653067522,3.2579454436138975e-05
2012.183333331832,0.00016665968,-0.7855566,3.9828763e-05,-2.355391,9.278024e-05,1.5709884,0.786,0.04,0.04,0.022263119429388745,0.0005030066883799169,-0.0014232971283556495,3.273863846066791e-05,-0.004121644208742776,-2.703353596326074e-06,0.9999998123081321,0.0002034897585954871,0.0005769896180349976,3.253612712378076e-05
2012.1999999984987,0.00016604502,-0.78546655,3.9317034e-05,-2.3554654,9.234773e-05,1.5709856,0.786,0.04,0.04,0.019652577042128527,0.0009357836629280162,-0.0013286238243592763,7.595953960401223e-05,-0.004935216297042916,-5.773609063065428e-06,0.9999998569791057,0.00020398182148434384,0.0004933345523324365,3.246851281894486e-05
2012.2166666651653,0.00016485948,-0.78538316,3.833254e-05,-2.3555338,9.151348e-05,1.5709856,0.786,0.04,0.039999995,0.018421621273811972,0.0014888703020868852,0.0009672239127622717,0.00014558226609425525,-0.005669052137866173,-8.757413146324455e-06,0.9999998913555698,0.0002049263194922562,0.00041742811824580287,3.2370023966709216e-05
2012.233333331832,0.0001628441,-0.78530586,3.6663994e-05,-2.3555996,9.0065594e-05,1.5709862,0.7860016,0.04,0.04,0.011369353263845916,0.00218341248947228,-0.0018656765642388606,0.0002471009462526242,-0.006311036351309209,-1.6267416972155465e-05,0.9999999180708535,0.00020733217617900364,0.0003461708703343616,3.220843711615509e-05
2012.2499999984987,0.00015970101,-0.78523386,3.4068817e-05,-2.3556588,8.7804925e-05,1.570987,0.78600353,0.04,0.04,0.017287362381601667,0.00294720340399576,0.00012678156304790633,0.0003773714716954245,-0.006888260071146196,-2.5360437321828518e-05,0.9999999377881933,0.00021077832327588754,0.00028102315804503516,3.197018184526676e-05
2012.2666666651653,0.00015509888,-0.7851666,3.0277537e-05,-2.355717,8.447753e-05,1.5709879,0.78600544,0.03999999,0.03999999,0.006931283810107658,0.0038218116626504155,-0.002212327725814589,0.0005474340121887676,-0.007382339469405882,-3.675052863701757e-05,0.9999999523705423,0.00021537684816687542,0.00021879615865269108,3.1622260888088425e-05
2012.283333331832,0.00014867548,-0.7851033,2.499584e-05,-2.3557742,7.984095e-05,1.5709889,0.786008,0.039999984,0.03999998,0.0059711374826632024,0.00475050096598075,-0.0018251063956142843,0.0007627021544672311,-0.007820213149249175,-5.075721429097959e-05,0.9999999622878734,0.00022174071218628317,0.00015901303714713663,3.1147429993886666e-05
2012.2999999984986,0.00014004223,-0.78504324,1.7908214e-05,-2.3558266,7.3617746e-05,1.5709935,0.7860118,0.03999998,0.039999977,0.012834318146448531,0.005758664169840908,0.0030457239682313286,0.0010239989368618595,-0.008202322278688438,-6.845617965508096e-05,0.9999999674552227,0.00023047368847414025,0.00010507126149436487,3.0519870720158285e-05
2012.3166666651653,0.00012878668,-0.78498596,8.679892e-06,-2.3558779,6.5515975e-05,1.5709983,0.7860175,0.03999997,0.03999996,0.005161202642267604,0.0068283503143017335,-0.0009816573807830409,0.0013320595841069896,-0.008494182833596781,-8.8619142197426e-05,0.9999999688142479,0.00024219835970114214,5.3185935349365194e-05,2.971050319173092e-05
2012.333333331832,0.00011447571,-0.7849307,-3.040468e-06,-2.3559291,5.5227043e-05,1.5710068,0.7860232,0.03999997,0.03999996,0.003411865942370973,0.007951756099114967,0.0015890952765662547,0.0016871004486212267,-0.00872744259657054,-0.0001131319220558177,0.9999999667192128,0.0002563613946425352,4.161746989148784e-06,2.8689518950669695e-05
2012.3499999984986,9.6658e-05,-0.7848767,-1.7618859e-05,-2.3559804,4.243126e-05,1.5710154,0.7860308,0.039999973,0.039999966,0.0014217961632034815,0.009121329984760715,-0.0006367630392967172,0.0021006097448996635,-0.008890489199300964,-0.0001412891665757962,0.999999961043902,0.00027424154107096976,-4.4176913621944054e-05,2.7425751470318236e-05
2012.3666666651652,7.486684e-05,-0.78482336,-3.543385e-05,-2.3560343,2.6797972e-05,1.5710276,0.78604037,0.039999977,0.039999966,-0.002561012718493849,0.01033038716801826,0.0011883374682275516,0.0025665768105111245,-0.00900153378238215,-0.00017236510985559972,0.9999999515959754,0.0002962058635678054,-9.165126086127328e-05,2.5887827445475037e-05
2012.3833333318319,4.8622092e-05,-0.7847702,-5.6874655e-05,-2.3560915,7.985491e-06,1.5710434,0.7860518,0.039999973,0.03999996,-0.004379592617165251,0.011575090646740978,0.0009571246719186632,0.0030875651796752027,-0.009056037339106503,-0.00020819141009014992,0.9999999380081133,0.0003226317414288046,-0.00013897659913736311,2.404233521746641e-05
2012.3999999984985,1.7432227e-05,-0.78471667,-8.233962e-05,-2.3561497,-1.4353305e-05,1.5710598,0.78606516,0.039999973,0.039999958,-0.001790087898712045,0.012847230835994119,0.0002846391126798409,0.003665390602453066,-0.009056303292308226,-0.00024715332003579383,0.9999999197268339,0.00035390541618622595,-0.00018660003875400614,2.185652892227214e-05
2012.4166666651652,-1.920333e-05,-0.78466207,-0.000112234666,-2.3562107,-4.057456e-05,1.5710799,0.78608114,0.039999977,0.03999996,-0.004916583052283485,0.014144775908844385,0.0019611761187032783,0.004302812642343141,-0.009004688293924524,-0.00029104865851539946,0.9999998959878708,0.0003907779274859904,-0.00023440248514479075,1.9295959734152516e-05
2012.4333333318318,-6.179316e-05,-0.78460586,-0.00014697197,-2.3562765,-7.103795e-05,1.5711037,0.7860999,0.03999998,0.03999996,-0.008675865062368615,0.015460797429318074,0.001579366161452711,0.004997780829765541,-0.00889659353454918,-0.00033832202254975856,0.9999998656199692,0.0004337381073936829,-0.0002834867703932897,1.6326310082090985e-05
2012.4499999984985,-0.00011085163,-0.7845477,-0.0001869685,-2.356347,-0.00010610767,1.5711315,0.7861213,0.03999998,0.03999996,-0.009034598478341316,0.016792194321159738,0.0018625968095875578,0.005751563147186131,-0.008738446644533472,-0.0003905693224730267,0.999999827454838,0.00048310045838486395,-0.0003339722931750746,1.2913122566924371e-05
2012.4666666651651,-0.00016689766,-0.784487,-0.00023264484,-2.356421,-0.00014615303,1.5711633,0.78614575,0.039999984,0.03999997,-0.007160896383862081,0.018137260201812923,0.0028890232010692074,0.006566249944289111,-0.008530297791368956,-0.00044887143632219907,0.9999997801910432,0.0005394810630447594,-0.000385352662319424,9.020729684251708e-06
2012.4833333318318,-0.0002304537,-0.78442323,-0.0002844244,-2.3565023,-0.00019154133,1.5712004,0.78617346,0.039999984,0.03999999,-0.014330715004873262,0.019485886140337357,0.002279311601460776,0.007441121903415892,-0.008262654526436342,-0.0005146398831737506,0.9999997214210656,0.0006034087869340138,-0.00043935672147684773,4.615013876650948e-06
2012.4999999984984,-0.00030204415,-0.7843559,-0.00034273235,-2.356591,-0.00024264678,1.5712422,0.78620476,0.039999984,0.039999984,-0.015010566575313078,0.020844366337191566,0.0021780309691799005,0.008376874291383611,-0.007950340525474959,-0.0005789279762623703,0.9999996486505501,0.0006754438932221263,-0.0004964616876165478,-3.4055890038149555e-07
2012.516666665165,-0.000382194,-0.78428453,-0.00040799423,-2.3566873,-0.00029983913,1.5712891,0.7862398,0.039999988,0.039999984,-0.015803771686906387,0.022200273083459367,0.0024661740905429497,0.009372850974652439,-0.0075948465597802765,-0.0006474585982842438,0.9999995590928666,0.0007560872356197928,-0.0005568766380590727,-5.8800038367325645e-06
2012.5333333318317,-0.00047142847,-0.7842087,-0.0004806359,-2.3567913,-0.00036349162,1.5713412,0.7862788,0.03999999,0.03999997,-0.016258309925154535,0.02355930980187421,0.0028923352734855357,0.010429379709711813,-0.007196765984329805,-0.0007169547330767136,0.9999994495575025,0.0008458396898435168,-0.0006207213351049679,-1.203890818435121e-05
2012.5499999984984,-0.0005702717,-0.78412783,-0.00056108204,-2.3569028,-0.00043397487,1.5713987,0.78632176,0.039999995,0.039999984,-0.016845216412164632,0.024913557807599306,0.0033824520350611564,0.011546092424694126,-0.0067513512784163916,-0.0007974702402337528,0.9999993163834257,0.0009451413188726865,-0.0006881752501296986,-1.8851898359570798e-05
2012.566666665165,-0.0006792456,-0.7840414,-0.0006497562,-2.3570225,-0.00051165966,1.5714624,0.7863692,0.03999999,0.039999966,-0.017998079714187654,0.026263787138383118,0.0038529678149989977,0.012724165161177109,-0.006261083895018288,-0.0008761706878824263,0.9999991551628618,0.0010546389790486016,-0.0007594179657050329,-2.6354125009317173e-05
2012.5833333318317,-0.0007988699,-0.78394914,-0.0007470795,-2.357151,-0.00059691165,1.5715319,0.7864212,0.039999984,0.03999994,-0.019622302179511664,0.027602906359014256,0.003488183420707891,0.013961737636688142,-0.005723466743987972,-0.000958715074640102,0.9999989606850593,0.0011747684033957284,-0.0008350762283695328,-3.4578786308573015e-05
2012.5999999984983,-0.0009296605,-0.78385085,-0.00085346994,-2.3572898,-0.0006900985,1.5716082,0.7864781,0.03999999,0.039999947,-0.02195399085125338,0.02893511123227173,0.003616448110976833,0.015259265242210657,-0.005142464378361449,-0.0010486856044370904,0.9999987269978603,0.001306140683570579,-0.0009154788948143598,-4.356106996761313e-05
2012.616666665165,-0.0010721292,-0.78374547,-0.0009693433,-2.3574402,-0.0007915848,1.5716915,0.7865401,0.039999995,0.039999958,-0.025500724107740957,0.030255720691313888,0.003707680899500687,0.01661495131403996,-0.004517687155745382,-0.0011472401303044555,0.9999984467042896,0.0014492142653524422,-0.0010017596395163295,-5.333522153006228e-05
2012.6333333318316,-0.0012267842,-0.7836333,-0.0010951107,-2.3576007,-0.0009017267,1.571782,0.78660727,0.04,0.03999998,-0.02230523709694232,0.03156490649113794,0.0043354923033644965,0.0180288799133657,-0.0038599068110103446,-0.001249014531885054,0.9999981136430718,0.0016044448636111763,-0.0010928767338809601,-6.393294942972131e-05
2012.6499999984983,-0.0013941271,-0.7835136,-0.0012311799,-2.3577747,-0.0010208765,1.5718797,0.78668,0.04,0.039999995,-0.02914020544444451,0.0328488285541894,0.0031508407201341626,0.01950106811930106,-0.003153965549831184,-0.0013546687328788738,0.9999977173116172,0.001772400465963189,-0.0011909178602324826,-7.5384303676627e-05
2012.666666665165,-0.0015746542,-0.783386,-0.0013779537,-2.35796,-0.001149394,1.5719852,0.7867584,0.04,0.04,-0.025409941622811516,0.03413869540027155,0.004759531713749432,0.02102991394606693,-0.0024200150169676827,-0.0014613180153728207,0.9999972498800636,0.001953556904088822,-0.001294662844006924,-8.772600754441557e-05
2012.6833333318316,-0.0017688569,-0.7832495,-0.0015358299,-2.3581583,-0.0012876285,1.5720986,0.7868428,0.04,0.039999995,-0.029675802240358706,0.03539869737097797,0.004448693994985042,0.022614695293427457,-0.0016439131994739438,-0.0015734465790379452,0.9999966993619356,0.002148413258753713,-0.0014054845112122308,-0.00010099006454319585
2012.6999999984982,-0.0019772192,-0.7831047,-0.0017052005,-2.3583708,-0.0014359205,1.5722201,0.7869334,0.04,0.039999973,-0.030571067069229407,0.03663607239890267,0.0037801487993815996,0.02425483064126566,-0.0008342759902847992,-0.00168724329942198,0.9999960540992613,0.0023574626434816888,-0.0015234446020195055,-0.00011520562707368426
2012.716666665165,-0.0022002188,-0.78295064,-0.0018864538,-2.358597,-0.0015946008,1.5723503,0.7870303,0.03999999,0.039999932,-0.03111050395299131,0.0378595282561435,0.004814950890197345,0.025949386414952,8.449637700171965e-06,-0.0017988518873306419,0.9999953014395835,0.002581103983940678,-0.00164863489931409,-0.0001303991930401532
2012.7333333318315,-0.002438324,-0.7827871,-0.002079971,-2.3588374,-0.0017640063,1.5724893,0.78713363,0.039999995,0.03999993,-0.031688081042147154,0.03906449309694599,0.004800441351227036,0.027697354739632012,0.0008842580715471195,-0.0019200499776354102,0.9999944272033422,0.0028198176587561612,-0.0017812070307704204,-0.00014660199378113199
2012.7499999984982,-0.0026919981,-0.78261375,-0.0022861268,-2.3590927,-0.0019444678,1.5726371,0.7872438,0.04,0.03999994,-0.03365062601388136,0.04024751829414339,0.004427504087756162,0.029498054143298705,0.0017959372513313473,-0.002048547954064955,0.9999934148485115,0.0030741078554847073,-0.001921789713433301,-0.0001638438378524322
2012.7666666651648,-0.0029616973,-0.7824303,-0.0025052903,-2.3593633,-0.0021363052,1.5727946,0.7873609,0.04,0.03999994,-0.03420378183702777,0.041410743958016985,0.005026506711258705,0.031350215280511205,0.002739357999958357,-0.002177144917523263,0.9999922478289254,0.00334441291846299,-0.002070266885398998,-0.00018215187970919657
2012.7833333318315,-0.0032478676,-0.78223646,-0.002737824,-2.3596497,-0.0023398355,1.5729611,0.78748524,0.04,0.039999936,-0.03548020127397411,0.04254600558709198,0.004371380847900674,0.03325274476237051,0.0037169692277809006,-0.002309285145092063,0.999990906438496,0.0036311929434039683,-0.0022272976243669852,-0.00020155251305145491
2012.7999999984982,-0.003550947,-0.78203183,-0.002984085,-2.3599522,-0.002555372,1.5731379,0.7876168,0.04,0.039999943,-0.0363949665039387,0.043666948431882874,0.005139212038129948,0.03520433232694148,0.004723114512187172,-0.0024491732235904177,0.9999893714382662,0.0039347814702899355,-0.0023927366734751137,-0.00022207317228732732
2012.8166666651648,-0.0038713664,-0.7818162,-0.003244422,-2.3602717,-0.0027832165,1.5733248,0.78775585,0.04,0.03999996,-0.03792938053477357,0.04475444875394613,0.0047063951695847095,0.03720454035109994,0.005763214564280672,-0.0025914594232969643,0.9999876198608828,0.004255653765500556,-0.0025671245057256684,-0.00024373708514486528
2012.8333333318315,-0.004209548,-0.7815891,-0.0035191774,-2.3606093,-0.0030236694,1.573522,0.78790253,0.04,0.039999902,-0.04039759239786722,0.045817015219295695,0.004317331108216749,0.039252692541665225,0.006831466693955027,-0.002726096786445099,0.9999856265114495,0.004594186814077335,-0.0027512105541021396,-0.00026656801746586167
2012.849999998498,-0.004565906,-0.7813502,-0.0038086858,-2.360964,-0.003277022,1.5737295,0.78805715,0.04,0.039999906,-0.03915876246363137,0.04686838028269552,0.004870375488708056,0.0413466075938504,0.007924269963007222,-0.0028672999374212364,0.9999833667622829,0.004950842378935582,-0.002944641886625504,-0.0002905902065211581
2012.8666666651648,-0.004940842,-0.7810994,-0.004113275,-2.3613367,-0.003543566,1.573948,0.7882199,0.04,0.03999992,-0.040341856796533015,0.0478863428335817,0.004865656264296803,0.04348543281597003,0.009046197837058132,-0.0030242798250094006,0.9999808130766357,0.005326040305307714,-0.0031475427635344775,-0.00031582876444113776
2012.8833333318314,-0.0053347526,-0.78083634,-0.0044332687,-2.3617277,-0.0038235749,1.5741777,0.7883908,0.04,0.03999992,-0.04143172395065786,0.04887768845649183,0.004788440446756859,0.04566758767128469,0.01019746275451854,-0.003176487871655193,0.9999779362774487,0.005720046602287906,-0.00336018685104311,-0.0003423002900436537
2012.899999998498,-0.0057480237,-0.7805607,-0.0047689774,-2.3621385,-0.0041173263,1.5744187,0.7885701,0.04,0.03999993,-0.044347880113804194,0.0498316271266841,0.004139869210040281,0.04789249466664656,0.011375687644647348,-0.0033332606382375767,0.9999747018291657,0.006133292978810777,-0.0035835037846809236,-0.0003700263939639331
2012.9166666651647,-0.0061810347,-0.78027225,-0.005120708,-2.362568,-0.004425086,1.5746711,0.788758,0.04,0.039999895,-0.04237351786851029,0.05078849420731696,0.004796928875316908,0.05015923766582528,0.012575883127857864,-0.003480398881078513,0.999971078881736,0.006566150566267423,-0.0038167844884598673,-0.00039902757669133145
2012.9333333318314,-0.00663415,-0.77997077,-0.0054887612,-2.3630176,-0.0047471216,1.5749356,0.78895456,0.04,0.03999991,-0.045454243809861516,0.05169221910718454,0.004206371097237316,0.05246569920946603,0.013805287705208485,-0.003649739535166863,0.9999670292967887,0.0070189442296362935,-0.004060840195655247,-0.0004293229109040527
2012.949999998498,-0.0071077333,-0.7796559,-0.005873426,-2.3634868,-0.0050836746,1.5752116,0.78915995,0.04,0.039999906,-0.044742431206601374,0.052579801312180666,0.004298002918567967,0.05481111061128911,0.015057558211330264,-0.003805538487338913,0.9999625157759799,0.007491997752208754,-0.004315618262709503,-0.00046092479269858926
2012.9666666651647,-0.00760213,-0.7793275,-0.006274989,-2.3639762,-0.005435006,1.5754999,0.7893745,0.04,0.03999992,-0.04590721503618944,0.05344555877157854,0.004076494462990077,0.05719439493314701,0.016334873285186718,-0.003979473123409953,0.999957497324457,0.007985710403083525,-0.004581275066619178,-0.0004938549691101987
2012.9833333318313,-0.008117681,-0.77898526,-0.0066937236,-2.3644862,-0.005801347,1.5758003,0.7895981,0.04,0.03999991,-0.04680903078007059,0.05426647182312991,0.003900625284569692,0.05961380221184117,0.017635615413645365,-0.004144263134545679,0.9999519308341783,0.008500324800416884,-0.004858146239242311,-0.0005281234743968496
2012.999999998498,-0.008654719,-0.778629,-0.007129901,-2.3650177,-0.0061829323,1.5761135,0.789831,0.04,0.039999884,-0.0484110490547085,0.05506846000725499,0.003651784386882184,0.06206875514851243,0.01895915765384191,-0.004307721396408996,0.9999457706445226,0.009036134352685224,-0.005146478422131194,-0.0005637427981489939
2013.0166666651646,-0.009213564,-0.77825844,-0.0075837807,-2.3655708,-0.0065799956,1.5764393,0.7900735,0.04,0.039999887,-0.049221135302590646,0.055842259925324364,0.003283301339807032,0.06455805012963008,0.020304960564288096,-0.004476760584041201,0.9999389666205192,0.009593571785636907,-0.0054466080196284425,-0.0006007290259624708
2013.0333333318313,-0.009794527,-0.7778734,-0.008055613,-2.3661456,-0.00699276,1.5767779,0.7903254,0.04,0.039999902,-0.04938596579404653,0.05659080841541701,0.003212616337955332,0.06707860680841513,0.021670154657738968,-0.004654356249124206,0.9999314712354368,0.010172703771811847,-0.0057585144551812115,-0.0006390948094031121
2013.049999998498,-0.010397916,-0.7774737,-0.008545651,-2.3667424,-0.0074214325,1.5771297,0.790587,0.04,0.039999895,-0.04995726902297104,0.057317978706698455,0.0030110464076082977,0.06963177507931458,0.023055862917505734,-0.004827613028752745,0.9999232307790373,0.010773921571876292,-0.006082296590092588,-0.0006788450230430612
2013.0666666651646,-0.011024021,-0.777059,-0.009054129,-2.3673615,-0.007866226,1.5774949,0.79085845,0.04,0.039999917,-0.05106683612996488,0.05800178172409853,0.002741319337329351,0.07221521154072079,0.02446248780578544,-0.005007573039702406,0.9999141890007186,0.011397479393584578,-0.006418232632796581,-0.0007199919300309604
2013.0833333318312,-0.0116731245,-0.77662927,-0.009581277,-2.3680031,-0.00832734,1.5778732,0.79113984,0.04,0.039999895,-0.051281436777417255,0.058660250297415395,0.0023152105057100414,0.07482756803760829,0.025888947093126183,-0.005182132163593242,0.9999042877762747,0.01204362655569774,-0.006766452218439367,-0.0007625420534649318
2013.0999999984979,-0.0123455,-0.77618414,-0.010127316,-2.3686676,-0.008804968,1.5782651,0.79143137,0.04,0.039999872,-0.05239440636231052,0.059284423744680737,0.0020054892798437862,0.07746762449748902,0.02733387597636964,-0.005355273942484643,0.9998934648846864,0.012712630133683154,-0.0071272344130276005,-0.0008065020783072772
2013.1166666651645,-0.013041415,-0.7757237,-0.010692465,-2.369355,-0.009299305,1.5786709,0.7917331,0.04,0.03999991,-0.052231566942562146,0.05990739424921315,0.0018913133235543,0.08013313012037256,0.028796643611159252,-0.0055424538845978075,0.9998816598154174,0.013404694207212787,-0.007500322398507009,-0.0008518813856743469
2013.1333333318312,-0.013761127,-0.7752477,-0.011276932,-2.370066,-0.009810526,1.5790901,0.7920451,0.04,0.039999913,-0.053904683496264205,0.060458298110386416,0.0008570618468928259,0.08282412750576482,0.030279431030711297,-0.005726243123491646,0.9998688018276364,0.01412003995766053,-0.00788644315111544,-0.0008986755728137937
2013.1499999984978,-0.0145048825,-0.77475566,-0.011880917,-2.3708003,-0.010338805,1.5795236,0.7923675,0.04,0.039999913,-0.05386397122950637,0.06102083581964457,0.0012843300509102207,0.08553897027529624,0.03177787681433474,-0.005905680735523097,0.999854824756733,0.014858850627297101,-0.008285370545563284,-0.0009468915676277492
2013.1666666651645,-0.015272914,-0.7742478,-0.012504607,-2.371559,-0.010884312,1.5799712,0.7927006,0.04,0.0399999,-0.055268974272215665,0.06150589558273148,0.0001929034208369984,0.08827662857025909,0.03329479528599798,-0.006085701805492578,0.9998396533040459,0.01562141291334464,-0.008697474774918647,-0.0009965299672000303
2013.1833333318311,-0.016065454,-0.7737238,-0.013148195,-2.3723416,-0.011447208,1.5804331,0.79304415,0.04,0.039999917,-0.055347730499755166,0.06201033845464263,9.948180179630839e-05,0.091034249253242,0.03482585329384828,-0.006271465763245009,0.9998232153499688,0.016407776961014954,-0.00912279892993375,-0.00104758872260207
2013.1999999984978,-0.016882718,-0.77318364,-0.013811859,-2.3731484,-0.012027651,1.5809095,0.7933984,0.04,0.039999932,-0.055236434574079674,0.06246975916355604,-0.00041345932118019846,0.09381272256979292,0.036372965866036486,-0.006456654672256271,0.9998054348826796,0.017218158095068714,-0.009561237384246123,-0.0011000684302285083
2013.2166666651644,-0.017724918,-0.772627,-0.014495763,-2.3739793,-0.012625785,1.5814005,0.79376364,0.04,0.03999995,-0.055686549428868304,0.06289721986552227,-0.0005724112194238629,0.09660981890455574,0.03793688678423024,-0.006641779238876159,0.9997862295851802,0.018052851640140522,-0.0100128934154773,-0.0011539692191333553
2013.233333331831,-0.018592257,-0.7720538,-0.015200073,-2.3748357,-0.013241756,1.5819058,0.79413956,0.04,0.039999917,-0.05834192471192434,0.0632510879826749,-0.0021009938730776057,0.09942371162637571,0.039517791651909384,-0.006820287364567204,0.9997655119739334,0.018911780635992807,-0.010478705508597959,-0.0012092772796121283
2013.2499999984977,-0.019484911,-0.7714638,-0.015924938,-2.375717,-0.013875695,1.582426,0.7945265,0.04,0.039999947,-0.0572467297815793,0.06362130263272356,-0.0018970988729938298,0.10225439193694173,0.04110724386520242,-0.007006200283943005,0.999743199472929,0.019795217060901964,-0.010958181800861876,-0.0012659939819459885
2013.2666666651644,-0.020403087,-0.77085716,-0.016670518,-2.3766227,-0.014527734,1.582961,0.7949245,0.04,0.039999958,-0.05680411684807485,0.06400997693343027,-0.0023418307439238006,0.10509959669561478,0.042710724412975465,-0.007190989966097648,0.9997192070945293,0.020703268732904682,-0.011451129121299615,-0.0013241117422682733
2013.283333331831,-0.021346942,-0.7702336,-0.017436944,-2.3775542,-0.015197994,1.5835111,0.79533374,0.04,0.03999999,-0.05907775272204763,0.06424984537795608,-0.003278523948924139,0.10795832580819567,0.04433195754658088,-0.007376454244293583,0.9996934362624668,0.0216361161827525,-0.011958158994131768,-0.0013836197956426043
2013.2999999984977,-0.02231664,-0.769593,-0.018224353,-2.378511,-0.015886594,1.5840763,0.795754,0.04,0.04,-0.05843759789909697,0.06454429773258621,-0.003762575806320889,0.11082898253293892,0.045962649038602796,-0.007559772044695767,0.9996657983828514,0.022593716631860154,-0.01247913881139263,-0.0014445092112741439
2013.3166666651643,-0.023312336,-0.7689352,-0.019032875,-2.3794942,-0.01659364,1.5846565,0.79618555,0.04,0.04,-0.06078324374385602,0.06474125461620739,-0.00493146522337895,0.11371160704397575,0.04760628613248079,-0.007740697928005982,0.9996361865306762,0.023576242984752645,-0.013014800056787233,-0.001506759640114893
2013.333333331831,-0.024334187,-0.7682603,-0.019862624,-2.3805022,-0.017319234,1.5852519,0.7966284,0.04,0.04,-0.05782406430137055,0.0650273511464114,-0.004669675132973339,0.11660430397859808,0.04925585743149916,-0.00791896028469593,0.9996045142398363,0.024583795009005212,-0.013564146578500724,-0.0015703699860506453
2013.3499999984977,-0.025382321,-0.7675679,-0.02071371,-2.3815365,-0.018063478,1.5858625,0.7970828,0.04,0.04,-0.06080820320335523,0.0651424210260737,-0.006001859046356195,0.11950551155798647,0.05092258902322432,-0.008098314933306289,0.9995706656997254,0.025616490025720636,-0.014128178825497316,-0.0016353208996252562
2013.3666666651643,-0.02645687,-0.7668581,-0.021586243,-2.3825963,-0.018826451,1.5864885,0.79754853,0.04,0.04,-0.05939734644033745,0.0653268083096778,-0.0062924834467015245,0.12241398057993975,0.052595005478663866,-0.008270699442358018,0.9995345461336955,0.026674313178702398,-0.014706348367576446,-0.0017015932073405921
2013.383333331831,-0.027557956,-0.7661311,-0.02248032,-2.3836832,-0.019608252,1.5871298,0.7980257,0.04,0.04,-0.06215060309200382,0.0653727383701827,-0.007983982408998891,0.12532841308230097,0.05428223967776403,-0.008447051811770176,0.9994960374516481,0.02775730662139609,-0.015299447812904815,-0.001769164831184323
2013.3999999984976,-0.028685685,-0.7653864,-0.023396034,-2.384796,-0.020408927,1.587787,0.7985146,0.04,0.04,-0.060193271401076665,0.06551895006618319,-0.0074288359004359705,0.12824835210089336,0.05597348220854127,-0.008617666379642452,0.9994550376053493,0.028865617112911274,-0.015906780040101633,-0.001838015978260252
2013.4166666651643,-0.029840177,-0.7646239,-0.02433346,-2.385935,-0.02122859,1.5884596,0.7990151,0.04,0.04,-0.0617416020181949,0.06556390495832953,-0.008911004799849742,0.13117166394796784,0.057676359379854124,-0.008789685902991742,0.999411425386232,0.02999922211185354,-0.016529019468646784,-0.0019081392897113423
2013.433333331831,-0.031021507,-0.7638438,-0.025292685,-2.3871007,-0.022067303,1.5891477,0.79952705,0.04,0.04,-0.061508689256717375,0.0655717634835351,-0.009767086953416104,0.13409689995979926,0.059386523097603346,-0.008959436996179106,0.9993650920371959,0.031158026180184362,-0.017166006345014105,-0.001979507061109752
2013.4499999984976,-0.032229774,-0.7630459,-0.026273772,-2.388292,-0.022925133,1.5898515,0.8000507,0.04,0.04,-0.06049949304551827,0.06562059638558215,-0.009963849335004049,0.1370246298971071,0.06110343743573905,-0.009128607037321636,0.9993159237463897,0.03234214941352316,-0.017817372436567575,-0.0020521105403963663
2013.4666666651642,-0.033465046,-0.7622303,-0.027276788,-2.3895109,-0.02380211,1.5905712,0.80058604,0.04,0.04,-0.06334748672920387,0.06546674410715242,-0.011624005873045462,0.1399523882268181,0.0628330359474042,-0.009296443673001246,0.9992637873707728,0.03355158460418676,-0.018483911316334593,-0.002125898026005992
2013.4833333318309,-0.0347274,-0.76139665,-0.028301787,-2.390756,-0.02469829,1.5913067,0.80113304,0.04,0.04,-0.06167001051546883,0.06546816614928647,-0.01175657175771505,0.14287929075401531,0.06456551189930922,-0.00945586131361146,0.9992085712492866,0.0347862585292139,-0.019165166217266487,-0.002200855143490244
2013.4999999984975,-0.03601689,-0.76054543,-0.029348822,-2.3920279,-0.025613738,1.5920575,0.8016919,0.04,0.04,-0.06264798556101514,0.06530980245461615,-0.013696671327911858,0.1458046845378948,0.06630697484360124,-0.009613778394333347,0.9991501389391436,0.036046248494459435,-0.019861603710409015,-0.002276955295220213
2013.5166666651642,-0.037333578,-0.75967616,-0.030417934,-2.3933268,-0.026548449,1.5928245,0.8022625,0.04,0.04,-0.06297013086564718,0.06518234341490597,-0.01366420250288325,0.1487265855862441,0.06805221950276534,-0.009766994963861263,0.9990883705202834,0.037331451983620104,-0.020573005158843957,-0.002354154339375647
2013.5333333318308,-0.038677514,-0.7587885,-0.031509157,-2.3946524,-0.02750247,1.5936073,0.8028448,0.04,0.04,-0.06306828258579866,0.06503198913089536,-0.014602541471409047,0.15164420417660682,0.06980313507967473,-0.009918557708424099,0.999023132909156,0.03864182018653306,-0.02129959945034422,-0.0024324284781818703
2013.5499999984975,-0.04004873,-0.7578832,-0.032622527,-2.3960054,-0.028475847,1.5944061,0.803439,0.04,0.04,-0.06356985945163984,0.06478641799155943,-0.016176122752686872,0.15455636405653142,0.07155858761271305,-0.010065626118506352,0.9989542936834435,0.03997734308199436,-0.02204137692592709,-0.002511747345250618
2013.5666666651641,-0.041447237,-0.75695986,-0.033758063,-2.3973844,-0.0294686,1.5952208,0.804045,0.04,0.04,-0.06159053492915678,0.06462566942556369,-0.016303983449117432,0.15746215003952974,0.07331789343633882,-0.010210585323046799,0.9988817320489338,0.041337929177483836,-0.022797851870686323,-0.0025920918813378737
2013.5833333318308,-0.042873085,-0.7560185,-0.034915794,-2.3987908,-0.030480744,1.5960515,0.8046629,0.04,0.04,-0.06402424745646229,0.06430150606557133,-0.01799499310961572,0.16036032463199684,0.07508580224358183,-0.010348597640488108,0.9988052974310235,0.042723529452895655,-0.02356969979321471,-0.002673407277211118
2013.5999999984974,-0.04432627,-0.7550593,-0.036095716,-2.4002242,-0.031512264,1.5968977,0.80529267,0.04,0.04,-0.06324688669490097,0.06396165141551169,-0.019057803298672127,0.16324972620206454,0.0768543164573919,-0.010484353398751756,0.9987248541692284,0.0441340831802663,-0.02435682164450359,-0.0027556498087868346
2013.616666665164,-0.04580682,-0.75408185,-0.037297815,-2.4016843,-0.03256317,1.5977603,0.80593425,0.04,0.04,-0.06310034254908281,0.06368821669709424,-0.019233067908697166,0.16612910854548174,0.07862606590484786,-0.010613882856639341,0.9986402731154316,0.04556943984471375,-0.025158940382071372,-0.002838799574907862
2013.6333333318307,-0.04731472,-0.7530864,-0.038522135,-2.4031718,-0.033633474,1.5986385,0.8065877,0.04,0.04,-0.06429172203274991,0.06326830243453263,-0.02132822084564001,0.16899748473754433,0.0804024790862106,-0.010740307714092658,0.9985513974860192,0.047029526668749246,-0.025976672113819013,-0.0029227907764296625
2013.6499999984974,-0.04884994,-0.7520728,-0.03976866,-2.4046857,-0.03472315,1.5995327,0.80725294,0.04,0.04,-0.06277469898836596,0.06292438547087498,-0.021504723793497327,0.1718540714401255,0.08217738642400146,-0.010860413368101854,0.9984581012292759,0.04851420755707232,-0.02680944160193441,-0.0030075896879006004
2013.666666665164,-0.05041249,-0.75104135,-0.04103734,-2.4062276,-0.035832193,1.600443,0.8079301,0.04,0.04,-0.06492372031765559,0.06235223556030067,-0.02340196078440826,0.17469771628853184,0.08395772989703049,-0.010976147012717694,0.9983602244359252,0.05002339993795478,-0.027657804696347862,-0.0030931476322948203
2013.6833333318307,-0.052002322,-0.7499919,-0.042328183,-2.4077964,-0.036960598,1.601369,0.80861896,0.04,0.04,-0.06360162369647426,0.06196080163050621,-0.02414962391141806,0.1775274368336829,0.08573470662545227,-0.011086663072819108,0.9982576330928483,0.05155686908651218,-0.02852154419742543,-0.0031794242332442656
2013.6999999984973,-0.05361943,-0.7489244,-0.04364117,-2.4093916,-0.038108338,1.602311,0.8093197,0.04,0.04,-0.0628472319318174,0.06155390795772597,-0.0247532833056896,0.18034259204424433,0.0875117830399402,-0.011192580549923788,0.9981501840423538,0.053114594440558625,-0.029400352479095383,-0.0032663783820975783
2013.716666665164,-0.055263776,-0.747839,-0.044976257,-2.4110134,-0.039275385,1.6032687,0.8100322,0.04,0.04,-0.06275308500935939,0.06099583977101364,-0.026105166176937367,0.183141461694395,0.08929229565993702,-0.011290832281342894,0.9980377302955485,0.054696402892491294,-0.03029427936467116,-0.003353961077193487
2013.7333333318306,-0.056935288,-0.74673575,-0.0463334,-2.412661,-0.040461693,1.6042426,0.81075615,0.04,0.04,-0.0618285683395392,0.06044655401158672,-0.026672351061596267,0.185923422731875,0.09107480462681272,-0.011384671161955726,0.9979201473250153,0.05630195783810896,-0.03120289848511052,-0.003442126166142148
2013.7499999984973,-0.058633924,-0.74561447,-0.047712557,-2.414336,-0.041667238,1.6052318,0.81149155,0.04,0.04,-0.06431766798493666,0.059712486857149694,-0.0289330461241466,0.1886890811129187,0.09286049496153677,-0.011470291544047398,0.9977972534668086,0.057931088186521866,-0.03212730114465303,-0.003530795488204256
2013.766666665164,-0.06035962,-0.74447554,-0.049113695,-2.4160378,-0.042891983,1.6062368,0.8122391,0.04,0.04,-0.06335202216702918,0.05913196543619048,-0.029740122517463163,0.19143720818095608,0.09464211303242553,-0.011551320075393473,0.9976688936614043,0.05958399271860478,-0.03306693963664526,-0.00361993580127812
2013.7833333318306,-0.062112313,-0.7433186,-0.050536744,-2.417766,-0.044135854,1.6072575,0.81299835,0.04,0.04,-0.06304290287306724,0.058479673335531945,-0.030613634005605128,0.19416383316689634,0.09642138122299854,-0.011623118169115904,0.99753492675548,0.06126026821777449,-0.03402189304706373,-0.0037094789822360234
2013.7999999984972,-0.06389194,-0.74214417,-0.051981647,-2.4195206,-0.045398835,1.6082941,0.81376934,0.04,0.04,-0.062037795899816395,0.05786008617730265,-0.03154244552130425,0.19686957042167408,0.09819876609426484,-0.011691504767836161,0.997395215597784,0.06295977512100652,-0.03499164464497904,-0.003799397899873943
2013.816666665164,-0.0656984,-0.74095196,-0.053448338,-2.421302,-0.046680853,1.6093463,0.814552,0.04,0.04,-0.06364194891763653,0.056979093605258324,-0.033381478273986076,0.1995530918476617,0.09997794797882012,-0.01175033531066752,0.997249585246301,0.0646822733004491,-0.03597692655392495,-0.003889601843382537
2013.8333333318305,-0.067531615,-0.73974216,-0.054936733,-2.42311,-0.047981832,1.6104138,0.8153463,0.04,0.04,-0.06268682063816922,0.0562365545527882,-0.034410667220052815,0.20221414538572532,0.10175034409146558,-0.011800718694983794,0.9970978915508228,0.06642754945021777,-0.03697748863977602,-0.003980034275928856
2013.8499999984972,-0.06939153,-0.73851466,-0.056446776,-2.4249434,-0.04930169,1.6114972,0.8161521,0.04,0.04,-0.0611146858869871,0.05564920220527958,-0.034572706027824474,0.20485171775454816,0.10351925307423249,-0.011845033178709927,0.9969400052036567,0.06819538903793144,-0.03799269405266837,-0.004070643329820281
2013.8666666651638,-0.07127797,-0.73726964,-0.05797837,-2.4268034,-0.050640386,1.612596,0.8169695,0.04,0.04,-0.0625995199137197,0.05459387038120045,-0.03665613995920136,0.20746524507122946,0.10528928743875243,-0.011880204742297257,0.9967757504124598,0.06998558564539731,-0.03902312467096538,-0.004161361851961128
2013.8833333318305,-0.07319087,-0.7360072,-0.059531428,-2.428689,-0.05199783,1.6137102,0.8177983,0.04,0.04,-0.06133333845703692,0.05383123057674244,-0.03760927082443466,0.21005313262429678,0.1070535666402998,-0.011908355403223103,0.9966049893734391,0.0717978405396165,-0.04006849995052248,-0.004252124354969904
2013.8999999984972,-0.07513009,-0.73472756,-0.06110586,-2.430601,-0.05337395,1.6148393,0.81863844,0.04,0.04,-0.061978201090928664,0.05282217895915542,-0.03932324420046207,0.21261533231820717,0.10881415746205625,-0.011928184609876671,0.9964275600949166,0.07363188146210628,-0.04112910336971942,-0.0043428529384126535
2013.9166666651638,-0.07709552,-0.7334305,-0.062701575,-2.4325385,-0.05476865,1.615984,0.8194899,0.04,0.04,-0.06124945717611574,0.052011428850731733,-0.039756729088447074,0.21515141519175374,0.11056789238651235,-0.011938673798247632,0.9962433218888971,0.0754874997551772,-0.04220456336404253,-0.004433486634486335
2013.9333333318305,-0.07908704,-0.7321162,-0.06431846,-2.434502,-0.05618186,1.6171438,0.8203527,0.04,0.04,-0.0611194504769097,0.05100991051506798,-0.04126663852692669,0.21765987351703714,0.112317580319724,-0.011942158514383128,0.9960521165897538,0.07736445670959789,-0.04329498402939182,-0.004523962090358311
2013.949999998497,-0.08110453,-0.7307849,-0.06595641,-2.436491,-0.057613455,1.6183186,0.82122654,0.04,0.04,-0.06092208098915641,0.04999012728455765,-0.042594462823042356,0.2201401228109557,0.11406030444931442,-0.011935856496177288,0.995853799421731,0.07926240221397095,-0.044400349418605545,-0.0046141894281688765
2013.9666666651638,-0.08314785,-0.7294367,-0.06761532,-2.4385054,-0.05906335,1.6195085,0.8221117,0.04,0.04,-0.05987104124551834,0.049075432247869255,-0.0434320811169675,0.2225922604227312,0.11579644793183737,-0.01191963255701492,0.9956482223908741,0.08118123046537128,-0.04552028594646635,-0.004704108563010481
2013.9833333318304,-0.08521683,-0.7280714,-0.069295056,-2.4405458,-0.060531445,1.6207134,0.823008,0.04,0.04,-0.06133974774853446,0.0478047017217903,-0.045140072693339306,0.22501323587929895,0.11752674130273233,-0.011894695712379694,0.9954352184701789,0.08312051776538387,-0.04665540094224967,-0.004793633127345804
2013.999999998497,-0.08731131,-0.7266893,-0.07099549,-2.442611,-0.062017627,1.6219331,0.82391536,0.04,0.04,-0.05898642492991879,0.046903106633552905,-0.045633423794111394,0.227404726972687,0.11924633083486656,-0.011859815161911452,0.9952146655230062,0.08508004557236867,-0.04780496315633175,-0.0048827114348753975
2014.0166666651637,-0.08943116,-0.7252905,-0.0727165,-2.444701,-0.063521795,1.6231675,0.8248337,0.04,0.04,-0.05886114721811442,0.04577857224039861,-0.047011632821214455,0.22976450185041675,0.12095945327821517,-0.011815815732724042,0.9949864136217952,0.08705949723878009,-0.048969043479335374,-0.004971260331923291
2014.0333333318304,-0.0915762,-0.7238754,-0.07445793,-2.446816,-0.065043814,1.6244166,0.82576287,0.04,0.04,-0.05872773513553309,0.044524502502044094,-0.04845767337831042,0.23209245264302397,0.12266536004734963,-0.011760651033578054,0.9947503229330286,0.08905852922930464,-0.05014756208738168,-0.0050591909274720955
2014.049999998497,-0.0937463,-0.72244376,-0.07621965,-2.4489558,-0.06658357,1.6256802,0.8267029,0.04,0.04,-0.05862938411620444,0.04339823627259043,-0.04942672732799469,0.2343881827591084,0.1243627804916229,-0.01169700498193614,0.9945062377677167,0.09107688144160285,-0.05134061769756074,-0.005146424235022898
2014.0666666651637,-0.09594121,-0.7209955,-0.078001566,-2.4511192,-0.06814091,1.6269583,0.82765377,0.04,0.04,-0.056690997859298875,0.04237327481718123,-0.04981823594352175,0.23665082073694807,0.12605097977998964,-0.011622251220408483,0.9942540327561831,0.09311430092401803,-0.05254771391927278,-0.005232883847053888
2014.0833333318303,-0.09816079,-0.71953124,-0.079803474,-2.4533074,-0.069715776,1.6282507,0.8286152,0.04,0.04,-0.057837762732160236,0.04089067625456244,-0.05197278861739374,0.23887903854212936,0.12773206637799672,-0.011536379913176145,0.9939935649492828,0.0951703078387235,-0.053769126254897284,-0.005318496693937792
2014.099999998497,-0.10040486,-0.7180507,-0.08162526,-2.45552,-0.07130798,1.6295575,0.8295873,0.04,0.04,-0.057328756254992896,0.0397047073123602,-0.052755189608189035,0.24107341407077532,0.12940188946092154,-0.0114397519198801,0.993724681421759,0.09724470242769745,-0.05500483024492102,-0.005403150256997973
2014.1166666651636,-0.10267321,-0.7165543,-0.08346674,-2.4577563,-0.07291738,1.6308784,0.8305698,0.04,0.04,-0.05607491606571813,0.038408329651989925,-0.05372930168758838,0.24323255372583275,0.13106007625111862,-0.011332418021413743,0.9934472690952783,0.09933706698007944,-0.056254475223375656,-0.005486772117683928
2014.1333333318303,-0.10496565,-0.7150421,-0.08532776,-2.4600158,-0.074543886,1.6322135,0.8315628,0.04,0.04,-0.054627419701347435,0.037252196630871426,-0.05447453671827418,0.24535619936141317,0.13270851314745166,-0.011215500745821477,0.993161202090775,0.1014471571980025,-0.05751768126356617,-0.0055693177421906525
2014.149999998497,-0.10728199,-0.713514,-0.087208174,-2.4622989,-0.076187305,1.6335623,0.832566,0.04,0.04,-0.05562402566130498,0.03576582743274881,-0.055983645726032094,0.24744377608326784,0.13434876910728874,-0.011083848535715146,0.9928663286044428,0.1035745165969636,-0.05879492603084075,-0.0056506378637980435
2014.1666666651636,-0.10962198,-0.71197027,-0.089107774,-2.4646053,-0.07784752,1.6349249,0.83357954,0.04,0.04,-0.05467129393659231,0.03431920376963937,-0.05708601950129566,0.2494951013548417,0.13597545852868442,-0.010942066247906668,0.9925625221210944,0.10571886427986682,-0.060085944455669636,-0.00573068013915265
2014.1833333318302,-0.11198545,-0.7104112,-0.09102643,-2.466935,-0.07952434,1.6363013,0.83460325,0.04,0.04,-0.05393319174862299,0.03303153732931441,-0.05794506881477979,0.2515090340751298,0.13759088806090045,-0.010788155328181046,0.9922496632170915,0.10787987662471255,-0.06139046983513986,-0.005809326847938999
2014.1999999984969,-0.11437218,-0.708837,-0.092963934,-2.4692874,-0.08121763,1.6376908,0.835637,0.04,0.04,-0.05329905666198176,0.03149634930281198,-0.05941429707403412,0.25348505339909566,0.13919346165704516,-0.010622666665388386,0.9919276210166755,0.11005713343471799,-0.06270862185369662,-0.005886492125302042
2014.2166666651635,-0.11678193,-0.7072475,-0.09492012,-2.4716628,-0.08292725,1.639094,0.8366806,0.04,0.04,-0.053158273906128706,0.030118123865635615,-0.059934683419449186,0.2554230062200109,0.14078227452048359,-0.010445901389239398,0.9915962847289505,0.11225025250702317,-0.06404016222866664,-0.0059620923825302
2014.2333333318302,-0.119214475,-0.7056429,-0.09689477,-2.47406,-0.08465303,1.6405101,0.83773416,0.04,0.04,-0.0514996229799225,0.02869540930452441,-0.06090725400231811,0.2573225654897975,0.142357296457633,-0.010256012131075687,0.9912555259115103,0.11445896194326198,-0.06538497076406226,-0.0060360565726753895
2014.2499999984968,-0.12166955,-0.70402396,-0.098887734,-2.4764795,-0.086394764,1.6419395,0.8387975,0.04,0.04,-0.05070207210418065,0.02712199965270723,-0.06191778533033432,0.2591825479027659,0.14391736607174402,-0.01005488418868078,0.9909052642874365,0.11668283521342895,-0.06674250755207516,-0.006108261590885599
2014.2666666651635,-0.12414696,-0.70239,-0.10089877,-2.4789214,-0.08815233,1.6433818,0.8398705,0.04,0.04,-0.05181671673737398,0.025484288034588465,-0.06320599466074217,0.2610030159048413,0.14546767291527452,-0.00983964588683714,0.9905453369020484,0.11892146118088781,-0.06811348141927843,-0.006178613206511923
2014.2833333318301,-0.12664644,-0.7007417,-0.10292771,-2.4813848,-0.089925505,1.6448377,0.84095293,0.04,0.04,-0.0492125986170322,0.02420552840305401,-0.06306877865298599,0.26278555365404743,0.14699468830650542,-0.009600074012255488,0.9901757102003508,0.12117442796975825,-0.0694967293261321,-0.006247043172811084
2014.2999999984968,-0.1291678,-0.6990789,-0.10497435,-2.4838698,-0.09171418,1.6463059,0.84204483,0.04,0.04,-0.049829287638880615,0.022460291122361475,-0.06514827406944868,0.264524544424498,0.14851841351837097,-0.009372391283046039,0.9897962039577654,0.12344143191487246,-0.07089307572697205,-0.006313424710349705
2014.3166666651634,-0.13171072,-0.6974018,-0.10703848,-2.4863758,-0.09351814,1.6477858,0.84314615,0.04,0.04,-0.04839922938546515,0.020843290933214575,-0.06598510374979938,0.2662245115390755,0.15001962701355734,-0.009119398138707963,0.9894067141282433,0.1257221056747155,-0.07230236308513655,-0.006377654347265175
2014.33333333183,-0.13427496,-0.6957109,-0.109119885,-2.4889033,-0.09533718,1.6492777,0.84425664,0.04,0.04,-0.04836169989215211,0.01906430819978988,-0.06704470034226695,0.26788475181411986,0.15149846803620648,-0.00884158821821529,0.9890071583690905,0.12801595480493685,-0.0737244015379931,-0.006439613959078528
2014.3499999984967,-0.13686022,-0.69400615,-0.111218356,-2.4914513,-0.09717116,1.6507831,0.8453764,0.04,0.04,-0.046320899658547354,0.017881432934752084,-0.06605614008521332,0.269501869555104,0.15296056471726976,-0.008564323168822746,0.9885975075019032,0.1303226872239915,-0.07515799609021233,-0.006499306074175531
2014.3666666651634,-0.13946627,-0.6922877,-0.11333367,-2.494019,-0.09901985,1.6523012,0.846505,0.04,0.04,-0.04497286883657914,0.016303411426837888,-0.06689503061505508,0.27107752356445336,0.15441121194065505,-0.008271249056560487,0.9881776801365421,0.13264181836481695,-0.07660307649518665,-0.006556612868663733
2014.38333333183,-0.14209282,-0.6905558,-0.11546564,-2.4966073,-0.100883074,1.6538308,0.8476424,0.04,0.04,-0.045839503874711696,0.014197275128524645,-0.0693029989867533,0.27261095376471844,0.15585062779951026,-0.007965034742305047,0.9877475173970428,0.13497293198477303,-0.07806048637033282,-0.006611351982715408
2014.3999999984967,-0.14473961,-0.6888107,-0.11761401,-2.4992156,-0.10276066,1.6553715,0.8487886,0.04,0.04,-0.044680457440682275,0.012546932368923125,-0.06990975842784408,0.2741022937020199,0.15726904562405866,-0.007647437875576729,0.9873069374524931,0.1373156517827731,-0.07953000369968981,-0.006663448444940818
2014.4166666651633,-0.1474064,-0.6870524,-0.119778536,-2.5018437,-0.104652315,1.6569239,0.84994346,0.04,0.04,-0.0439175580070561,0.010893367756736883,-0.07018330421806329,0.27555158398211543,0.15866482879806101,-0.007314342675031282,0.986855874293614,0.1396695888083501,-0.08101128277496988,-0.0067127786681016165
2014.43333333183,-0.15009284,-0.6852813,-0.12195898,-2.504491,-0.10655796,1.6584876,0.8511068,0.04,0.04,-0.042616079715718236,0.00922614258042076,-0.07074510696118974,0.27695777046475295,0.1600413411907438,-0.006969228601647531,0.9863942681179407,0.1420343000327063,-0.08250404324596115,-0.006759311086196216
2014.4499999984967,-0.15279868,-0.6834972,-0.12415517,-2.507157,-0.1084773,1.6600624,0.8522786,0.04,0.04,-0.041314702835060224,0.007707615201479889,-0.07093995377787099,0.27832131855829256,0.16139781387660848,-0.0066096659052714835,0.9859220504996437,0.1444094427305456,-0.08400799790359871,-0.006802902105731267
2014.4666666651633,-0.1555236,-0.6817009,-0.12636678,-2.5098422,-0.11041019,1.6616485,0.8534585,0.04,0.04,-0.04101059286345521,0.00563428802463628,-0.07205969690788905,0.27964062973973947,0.16273519325601699,-0.006238004895767146,0.9854391763770025,0.14679445421433082,-0.08552300670472857,-0.006843478466009549
2014.48333333183,-0.15826733,-0.6798921,-0.12859371,-2.512545,-0.11235633,1.6632456,0.85464656,0.04,0.04,-0.03916766435745345,0.004318135869574302,-0.07188535466264856,0.28091797778936956,0.16405264399406372,-0.005851408439036282,0.9849455813085141,0.1491890763552532,-0.08704869205056932,-0.006880884346149061
2014.4999999984966,-0.16102955,-0.6780713,-0.13083556,-2.5152671,-0.114315614,1.6648535,0.85584265,0.04,0.04,-0.04032464042560413,0.001925158592192,-0.07352565417007018,0.28215079189584324,0.16535230030049963,-0.005452872381650681,0.9844411776830218,0.1515927553049787,-0.08858547326292363,-0.006915066730988786
2014.5166666651633,-0.16380998,-0.6762384,-0.13309221,-2.5180066,-0.116287775,1.6664718,0.85704654,0.04,0.04,-0.03753148245708715,0.00073315175840305,-0.07302949734044883,0.28334096206946013,0.1666272652171089,-0.005039960430338081,0.9839259418655086,0.15400516399424752,-0.09013270664936784,-0.00694590377384281
2014.53333333183,-0.1666083,-0.67439395,-0.13536328,-2.5207636,-0.11827257,1.6681007,0.8582581,0.04,0.04,-0.03701172574321898,-0.0013815636583258684,-0.07375661379469545,0.28448702297755385,0.16788025472643392,-0.004612561221637862,0.9833998404535593,0.1564258013300199,-0.09169021440050547,-0.006973310359125032
2014.5499999984966,-0.16942418,-0.6725379,-0.1376486,-2.523538,-0.12026983,1.6697397,0.85947734,0.04,0.04,-0.03640477019239974,-0.0031424021286585724,-0.07431752234010602,0.2855893323423084,0.16911332118826172,-0.004171934385073156,0.982862805632141,0.1588542882470262,-0.09325802909362729,-0.006997172287349375
2014.5666666651632,-0.17225736,-0.67067057,-0.13994786,-2.526329,-0.12227929,1.6713887,0.860704,0.04,0.04,-0.03434419666159538,-0.00466621155255087,-0.07410250650996542,0.28664795560261497,0.1703215424797766,-0.0037172885976929915,0.982314829564094,0.16129024205636308,-0.09483559057954033,-0.007017420843496254
2014.5833333318299,-0.17510751,-0.6687922,-0.14226086,-2.5291367,-0.124300756,1.6730477,0.86193794,0.04,0.04,-0.034107946121264554,-0.0066343833064252955,-0.07482721694522798,0.2876616230354126,0.17151135063675543,-0.003251114235464786,0.9817558729384998,0.16373318166079465,-0.09642289685584833,-0.007033927489245071
2014.5999999984965,-0.17797428,-0.66690266,-0.14458731,-2.5319607,-0.12633398,1.6747162,0.863179,0.04,0.04,-0.03357638525773865,-0.008530214258051227,-0.07512288708160231,0.2886316976647325,0.1726766479272598,-0.0027710823214694424,0.9811858902357788,0.16618266812643284,-0.09801997375316672,-0.007046585132570037
2014.6166666651632,-0.18085733,-0.6650025,-0.14692694,-2.5348012,-0.12837875,1.6763943,0.86442727,0.04,0.04,-0.032680135006724065,-0.010481458482797246,-0.07560670970556682,0.28955761057001755,0.17381618963194065,-0.0022773157466704774,0.9806048576370943,0.16863831378390476,-0.09962657859088689,-0.007055291696963246
2014.6333333318298,-0.18375637,-0.6630921,-0.1492795,-2.5376577,-0.13043486,1.6780816,0.86568236,0.04,0.04,-0.031329653575040695,-0.012194575835222654,-0.07583159654132032,0.2904397719828266,0.1749316505771008,-0.0017690222387232168,0.9800127699934708,0.1710996483342627,-0.10124247182826349,-0.007059949555024113
2014.6499999984965,-0.18667103,-0.66117114,-0.15164477,-2.5405293,-0.132502,1.6797782,0.8669442,0.04,0.04,-0.029678571709013113,-0.013719576126119959,-0.07513408961570267,0.2912779707347721,0.17601801836003517,-0.0012471787962846648,0.9794096359817496,0.17356629601554494,-0.10286717452273857,-0.007060470186158795
2014.6666666651631,-0.189601,-0.6592404,-0.1540224,-2.543416,-0.13457994,1.6814833,0.8682127,0.04,0.04,-0.029051851193728773,-0.015964367390092216,-0.07624774098042852,0.292072202456654,0.177083411297305,-0.0007103427268194129,0.9787954151013304,0.17603782712262883,-0.10450082121011657,-0.007056710633785262
2014.6833333318298,-0.19254597,-0.6573,-0.15641215,-2.5463173,-0.13666852,1.6831973,0.8694875,0.04,0.04,-0.027448156521669986,-0.017353079802057136,-0.07547431795620341,0.29282185620261825,0.17811927372911637,-0.0001625012303474449,0.9781701651359925,0.17851375045096085,-0.10614276008505256,-0.007048646627854832
2014.6999999984964,-0.19550559,-0.65534997,-0.15881371,-2.5492322,-0.13876738,1.6849198,0.8707687,0.04,0.04,-0.025535787809483068,-0.019022558275072488,-0.075022942049352,0.2935275602191474,0.1791341282545727,0.00039541877662815916,0.9775338865250854,0.1809937829485943,-0.10779259404423593,-0.0070361849274480776
2014.716666665163,-0.19847952,-0.6533907,-0.16122681,-2.5521612,-0.14087637,1.6866504,0.8720561,0.04,0.04,-0.025619284724065494,-0.021204345426167892,-0.07601469983724574,0.2941881734922657,0.18012619035269917,0.0009678386218028301,0.9768865469214663,0.18347741985999827,-0.10945063559468167,-0.0070192031807044825
2014.7333333318297,-0.2014673,-0.65142214,-0.1636512,-2.5551038,-0.14299522,1.688389,0.87334955,0.04,0.04,-0.024584366126245705,-0.022972955178268695,-0.07559553194964597,0.2948051205564984,0.18108965518256448,0.0015542390234448145,0.9762281723004002,0.18596419707627687,-0.11111663504758638,-0.006997601624667032
2014.7499999984964,-0.20446868,-0.64944464,-0.16608655,-2.5580595,-0.14512374,1.6901357,0.8746488,0.04,0.04,-0.023049300983846166,-0.024536532651064924,-0.07505922506534368,0.29537871994660636,0.18202475871831308,0.0021517878797429613,0.9755588198095498,0.18845370974922013,-0.11279002035499222,-0.006971347206629487
2014.766666665163,-0.20748332,-0.6474585,-0.16853264,-2.5610292,-0.14726156,1.69189,0.8759536,0.04,0.04,-0.023930476684652646,-0.02704718337778189,-0.0764341810434166,0.2959077681327646,0.18293568795200854,0.002762411994638947,0.9748784434795972,0.19094541232273912,-0.11447141157296649,-0.0069401645650085724
2014.7833333318297,-0.21051085,-0.6454642,-0.17098911,-2.5640101,-0.14940855,1.6936518,0.87726414,0.04,0.04,-0.018631597775398134,-0.02758375704348115,-0.07387690658722246,0.29639526323013576,0.18381338799859132,0.0033835376859644717,0.9741871831367339,0.1934391901419372,-0.11615913010680876,-0.006904232193128942
2014.7999999984963,-0.21355094,-0.6434613,-0.17345569,-2.5670035,-0.15156436,1.695421,0.8785801,0.04,0.04,-0.0205520458331776,-0.030067962485635924,-0.07483834713899462,0.296837246219772,0.18467058698848943,0.004018857524774239,0.9734849885372651,0.1959344627126437,-0.11785397106337026,-0.006863302317610678
2014.816666665163,-0.21660325,-0.6414506,-0.17593206,-2.5700107,-0.15372875,1.6971968,0.8799012,0.04,0.04,-0.02160463534353063,-0.032826716745770756,-0.07656109197218264,0.29723617794820667,0.18549645333301895,0.004666353697105913,0.9727718367611153,0.19843062156186922,-0.1195565500526109,-0.006817137998722942
2014.8333333318296,-0.21966732,-0.6394322,-0.17841808,-2.573027,-0.15590155,1.6989797,0.88122743,0.04,0.04,-0.013788210996756867,-0.03216307975101307,-0.0718759747054376,0.2975927997636202,0.18628545974855068,0.005320143755696893,0.9720479775465748,0.20092767414783533,-0.12126425811395924,-0.006766004228943441
2014.8499999984963,-0.22274278,-0.63740635,-0.18091324,-2.5760567,-0.15808238,1.7007692,0.8825586,0.04,0.04,-0.02006584453115856,-0.03667571937009395,-0.07592258649329331,0.2979045009475376,0.18705765358872198,0.005990161112821718,0.9713132585940558,0.20342471268392534,-0.12297936032427613,-0.006709462205815473
2014.866666665163,-0.22582936,-0.6353734,-0.18341738,-2.5790956,-0.160271,1.7025652,0.88389456,0.04,0.04,-0.012436604935084361,-0.035972184092258885,-0.07171107974994761,0.29817585993925505,0.1877889627947378,0.006668152842431385,0.9705679162944194,0.2059217871110674,-0.12469942060787417,-0.006647702832817416
2014.8833333318296,-0.22892669,-0.6333333,-0.1859302,-2.5821452,-0.16246723,1.7043674,0.8852351,0.04,0.04,-0.01468238348540929,-0.038702766224463225,-0.07314724720430821,0.2984030050486332,0.18849963798376224,0.007359163581609013,0.9698119125868924,0.20841825203105677,-0.12642540606504532,-0.006580511086613268
2014.8999999984962,-0.23203437,-0.63128674,-0.18845135,-2.585206,-0.16467077,1.7061756,0.88658,0.04,0.04,-0.014316971707173387,-0.040944987648494635,-0.07337720039359841,0.29858782326975847,0.18917881921327517,0.0080598816925892,0.96904530368209,0.21091363024438328,-0.12815728233092474,-0.006507762624230323
2014.916666665163,-0.23515205,-0.6292335,-0.19098048,-2.5882752,-0.16688135,1.7079896,0.88792926,0.04,0.04,-0.00981306047260766,-0.04122318704041783,-0.07044899211894329,0.2987313359449936,0.1898231151546671,0.008769046179127937,0.9682682489270305,0.21340776060921593,-0.12989374997850656,-0.006429583817254674
2014.9333333318295,-0.23827933,-0.6271741,-0.19351739,-2.591353,-0.16909865,1.7098092,0.88928264,0.04,0.04,-0.009263139777626606,-0.04317388238317399,-0.07040566507658941,0.29883236052957174,0.19044359427280716,0.00949127966492952,0.9674808203083775,0.21590019749892722,-0.1316347145442369,-0.006345784601656151
2014.9499999984962,-0.24141581,-0.62510854,-0.19606172,-2.5944433,-0.1713225,1.711634,0.8906399,0.04,0.04,-0.014938200486391828,-0.04731755389888459,-0.07388828888073018,0.2988899362724202,0.1910376705819115,0.010223341768319905,0.9666828851198261,0.2183900962487497,-0.1333822624629938,-0.006256000089824906
2014.9666666651628,-0.2445612,-0.6230373,-0.19861315,-2.5975416,-0.1735526,1.7134639,0.892001,0.04,0.04,-0.006987425879900755,-0.04641235330600235,-0.06921786668114827,0.29890935016951126,0.19158354597398364,0.010957652701462817,0.9658747297574931,0.22087751224500868,-0.13513393105139454,-0.006160493400914507
2014.9833333318295,-0.247715,-0.62096053,-0.20117135,-2.6006474,-0.17578866,1.7152987,0.8933657,0.04,0.04,-0.005997283017000754,-0.04816125974137497,-0.06843016566373539,0.2988864659305078,0.19210175157955023,0.011702775102745866,0.9650564638268045,0.22336198747360606,-0.1368894824488404,-0.0060591891233642515
2014.9999999984962,-0.25087687,-0.6188786,-0.20373608,-2.603761,-0.17803045,1.7171379,0.89473397,0.04,0.04,-0.005337332119870197,-0.04981731153167468,-0.06814822962022404,0.29882321965435266,0.1925897379459367,0.012456703870605407,0.9642281433063958,0.22584319262678546,-0.1386488866701215,-0.005951993378438119
2015.0166666651628,-0.25404644,-0.6167919,-0.20630701,-2.6068819,-0.18027768,1.7189819,0.89610565,0.04,0.04,-0.004136889215189399,-0.051355145631437615,-0.06716212903683516,0.29871889273505164,0.19304734548218355,0.013221157226821934,0.9633899041446641,0.22832072864075792,-0.14041169945588294,-0.005838845861921804
2015.0333333318295,-0.25722337,-0.6147004,-0.20888382,-2.6100101,-0.18253006,1.7208301,0.8974803,0.04,0.04,-0.0038364443859739694,-0.0530666212037012,-0.0667688245560516,0.29857350908561137,0.19347611618239127,0.013993227198897368,0.9625418301439723,0.23079408500368692,-0.14217806283906473,-0.005719615173625082
2015.049999998496,-0.26040718,-0.6126045,-0.21146618,-2.6131446,-0.1847874,1.7226825,0.8988579,0.04,0.04,-0.0011972422669259686,-0.05405761872434578,-0.06496167758138771,0.2983889134355699,0.19387089282379286,0.014770527914496623,0.9616841015129038,0.23326295407704145,-0.14394716432336457,-0.00559437537471369
2015.0666666651628,-0.26359767,-0.61050427,-0.21405378,-2.616284,-0.18704925,1.7245386,0.9002386,0.04,0.04,0.0012270115605561571,-0.05478775076956932,-0.06328228253416057,0.2981651413715126,0.19423730165450642,0.015557223754505967,0.9608167896466742,0.23572733613766933,-0.14571847663085746,-0.0054630851063362604
2015.0833333318294,-0.2667942,-0.6084,-0.21664636,-2.619429,-0.18931548,1.7263981,0.9016216,0.04,0.04,0.00015126002670395877,-0.05728224263793491,-0.0636773165218818,0.29789944576663596,0.19457733765821644,0.016354958683112097,0.9599400406255771,0.23818632042744928,-0.14749248634342021,-0.005325564499084438
2015.099999998496,-0.26999658,-0.606292,-0.21924351,-2.6225808,-0.19158581,1.7282609,0.90300715,0.04,0.04,0.00021863719854575692,-0.05911305421747448,-0.06352390045682998,0.2975966206720565,0.1948838944772891,0.017158286965663794,0.9590538842918246,0.24063971769299142,-0.14926929666067246,-0.005181734056185302
2015.1166666651627,-0.27320433,-0.6041807,-0.221845,-2.6257389,-0.19385989,1.7301267,0.9043952,0.04,0.039999973,0.0009632484254229468,-0.06076263046717045,-0.06270340520608819,0.297256547740597,0.19514985653609263,0.017970613036668914,0.9581584372766023,0.24308718312384162,-0.15104871654753427,-0.005031471545983167
2015.1333333318294,-0.27641708,-0.602066,-0.22445047,-2.6289,-0.19613747,1.7319955,0.90578526,0.04,0.03999997,0.006099920662783198,-0.06008902594271115,-0.05882475638077089,0.29687656810601293,0.19538275266806757,0.01878110450458556,0.9572540085429014,0.24552846023712294,-0.1528292275383174,-0.004874992530817505
2015.149999998496,-0.27963445,-0.5999486,-0.22705957,-2.6320662,-0.19841824,1.7338669,0.90717727,0.04,0.039999958,0.004448354785924202,-0.06287942867159169,-0.05972128776020602,0.296458569765206,0.19558731088864592,0.019601720468571032,0.9563406456715668,0.2479630759967498,-0.15461138010703213,-0.004712061132837573
2015.1666666651627,-0.28285602,-0.59782845,-0.229672,-2.635236,-0.20070197,1.7357409,0.908571,0.04,0.03999995,0.006800527527706102,-0.06339798731441748,-0.05756533179165357,0.296003311894118,0.19575860883644813,0.020425448215308173,0.9554185376902911,0.2503907335408135,-0.156394571094329,-0.0045427444194066245
2015.1833333318293,-0.28608137,-0.5957059,-0.23228751,-2.6384099,-0.20298834,1.7376169,0.90996647,0.04,0.039999954,0.006802795287086383,-0.06523827734568055,-0.05736727277306786,0.29551000889097534,0.1958991302810363,0.021251668105872673,0.9544877528294482,0.25281111315527943,-0.15817901585908986,-0.004366887407365283
2015.199999998496,-0.28931013,-0.59358114,-0.23490569,-2.6415868,-0.20527716,1.7394948,0.9113636,0.04,0.03999995,0.00866692503924682,-0.06598887831895661,-0.0554743302937033,0.29497972501417297,0.1960048812915437,0.022081419642076633,0.9535484689733147,0.25522394612273963,-0.15996419549696614,-0.0041845911619807896
2015.2166666651626,-0.29254192,-0.5914545,-0.23752628,-2.6447673,-0.20756805,1.7413745,0.91276145,0.04,0.03999994,0.00875416828307607,-0.06767435748279427,-0.05495284126584288,0.2944129085612701,0.19607613539376542,0.02291601948166408,0.9526009070191421,0.25762850505080553,-0.16175011707137182,-0.003995617473241879
2015.2333333318293,-0.2957763,-0.5893263,-0.2401489,-2.6479495,-0.20986071,1.7432554,0.91416067,0.04,0.039999936,0.012085530807515177,-0.06786835548785453,-0.05237131624529212,0.29381288005813777,0.19611221845299645,0.023750978369639963,0.9516451905833766,0.2600249692318359,-0.16353594551000966,-0.0038001502153140734
2015.249999998496,-0.29901296,-0.5871967,-0.24277325,-2.6511343,-0.212155,1.7451378,0.91556066,0.04,0.03999994,0.011231431549596493,-0.06955197103662991,-0.051971406126472,0.2931747797927859,0.19611857798629218,0.024589110954003013,0.9506815003922143,0.26241270296333147,-0.16532184348005563,-0.003598083356816389
2015.2666666651626,-0.30225155,-0.585066,-0.245399,-2.6543212,-0.2144505,1.7470211,0.91696155,0.04,0.039999932,0.012565697424982147,-0.0706793356266111,-0.05086236761924212,0.2925032166073859,0.1960886983701295,0.025429097839577336,0.9497099290365884,0.2647915909764664,-0.16710767932494558,-0.0033893285619714386
2015.2833333318292,-0.30549145,-0.58293444,-0.24802588,-2.657509,-0.21674697,1.7489051,0.9183628,0.04,0.03999993,0.014740274302149636,-0.07112991320435968,-0.04849829032231856,0.2917953483039968,0.19602396505931693,0.0262676380597191,0.9487307717643234,0.2671611371704617,-0.16889279293884757,-0.0031739544062060476
2015.2999999984959,-0.30873248,-0.5808023,-0.25065348,-2.6606972,-0.21904416,1.7507899,0.9197647,0.04,0.039999925,0.016442651824100096,-0.07153643159311107,-0.04655940470106312,0.2910551262581515,0.1959272337985455,0.02710863721607637,0.947744180265689,0.2695213737383099,-0.1706765454322677,-0.002952068772666929
2015.3166666651625,-0.31197414,-0.57866985,-0.2532814,-2.663886,-0.22134183,1.7526747,0.92116725,0.04,0.03999993,0.016245439896112046,-0.07336296694387956,-0.046305658583645215,0.2902788301934609,0.19580114805189436,0.027951353821688868,0.9467502290509309,0.27187190902593417,-0.1724594182193082,-0.0027235899217439496
2015.3333333318292,-0.31521598,-0.5765373,-0.2559096,-2.667075,-0.22363953,1.7545598,0.9225698,0.04,0.03999992,0.017813847086634027,-0.07379464318882922,-0.04417565588032968,0.28946795918865303,0.19563877310161343,0.028794530808560453,0.945749208368334,0.2742123458257312,-0.1742407305298111,-0.0024883914196137014
2015.3499999984958,-0.3184577,-0.5744049,-0.25853753,-2.6702633,-0.22593711,1.7564446,0.92397225,0.04,0.039999917,0.018966770725792337,-0.0745234059347788,-0.04278440709895026,0.288624064716466,0.1954449216526991,0.029637086626630227,0.944741282920315,0.27654240026920274,-0.17602034574058525,-0.0022465717861545353
2015.3666666651625,-0.32169878,-0.57227296,-0.26116493,-2.6734514,-0.22823429,1.758329,0.925374,0.04,0.039999913,0.019283915897716497,-0.07580651999827825,-0.04170027963614764,0.2877474340476339,0.19521749551169437,0.03047850867681931,0.9437266992948801,0.27886148466392086,-0.17779819252162973,-0.0019980353015327385
2015.3833333318291,-0.32493907,-0.57014185,-0.26379156,-2.6766388,-0.23053078,1.7602129,0.9267751,0.04,0.03999991,0.020558950106130958,-0.07621487604735355,-0.04022469158260211,0.2868410412276624,0.19495590857233291,0.03131667829222823,0.9427055860287042,0.281169607780501,-0.1795739192567329,-0.001742771818981286
2015.3999999984958,-0.328178,-0.5680118,-0.2664169,-2.6798253,-0.23282623,1.7620959,0.92817575,0.04,0.039999913,0.02142984085644617,-0.07730194087770537,-0.03856746453481108,0.2859029815319752,0.19466109780423085,0.03215147187905573,0.9416781285945429,0.2834664892858834,-0.18134734267354852,-0.0014808389035863244
2015.4166666651624,-0.33141512,-0.5658829,-0.26904073,-2.68301,-0.23512039,1.763978,0.92957586,0.04,0.03999991,0.022720016414634614,-0.07756852484530619,-0.03662764878538116,0.28493315231440997,0.19433272511846056,0.032982507487702234,0.9406445175874831,0.28575196660183166,-0.18311809162313905,-0.0012122854847338809
2015.433333331829,-0.33465007,-0.5637555,-0.2716629,-2.6861925,-0.23741302,1.7658588,0.93097466,0.04,0.039999906,0.024256914638121074,-0.07775052866362264,-0.0348713945691248,0.2839316901654109,0.19397025847083413,0.033810736797153906,0.9396050405370846,0.2880255935830754,-0.18488576781716565,-0.000937068342048431
2015.4499999984957,-0.3378826,-0.56163,-0.27428278,-2.6893716,-0.23970385,1.7677382,0.93237257,0.04,0.039999906,0.02624415726537599,-0.07771992979108688,-0.032433455410274536,0.282900452967338,0.19357666796218032,0.03463333330165613,0.9385598922590778,0.29028745016413343,-0.18664965935543426,-0.0006554253081841678
2015.4666666651624,-0.3411122,-0.55950654,-0.2769003,-2.6925483,-0.24199256,1.7696158,0.9337693,0.04,0.03999991,0.025267781200577488,-0.07948940910635915,-0.03238625082992996,0.28183773339162893,0.1931545911200496,0.035454299478015344,0.9375091752149936,0.29253707636428694,-0.18841037808196198,-0.00036711163146694925
2015.483333331829,-0.34433848,-0.55738544,-0.2795151,-2.6957211,-0.24427888,1.7714914,0.9351642,0.04,0.03999991,0.027759679685734895,-0.07889976342257965,-0.029517572860560115,0.2807455319497024,0.19269678758730285,0.03627064852524642,0.936453246604927,0.29477417967246944,-0.19016701791065155,-7.225292022971319e-05
2015.4999999984957,-0.34756088,-0.5552668,-0.2821267,-2.69889,-0.24656247,1.7733647,0.93655753,0.04,0.039999906,0.02837296126005917,-0.0797430067562388,-0.0279779039142225,0.2796248087819857,0.19221025662811703,0.03708104035941853,0.9353922596859201,0.29699853887766525,-0.19191960803197552,0.0002290787045443938
2015.5166666651623,-0.3507792,-0.553151,-0.28473482,-2.7020555,-0.2488431,1.7752358,0.93794906,0.04,0.039999902,0.02804396098463613,-0.08069307507915235,-0.027139952544630308,0.2784755564979406,0.19169189534056727,0.03788603289212253,0.9343263994444413,0.2992098854068942,-0.19366810647949695,0.0005369437825418395
2015.533333331829,-0.353993,-0.5510383,-0.2873393,-2.7052162,-0.2511205,1.7771041,0.9393386,0.04,0.039999902,0.03032200068471269,-0.08012629157312379,-0.02471990297608917,0.2772979757420193,0.19114081936692384,0.038682525581337085,0.9332558969660947,0.3014081497993528,-0.1954119580917449,0.0008512621754045618
2015.5499999984957,-0.35720193,-0.5489288,-0.28993967,-2.7083716,-0.25339442,1.7789696,0.9407259,0.04,0.039999902,0.03122485552540244,-0.08026815532047316,-0.022832427387164955,0.27609291169353606,0.19055878512664431,0.03947317735106212,0.932180997527132,0.3035930343331668,-0.19715091664968043,0.001171929132877395
2015.5666666651623,-0.36040562,-0.546823,-0.29253575,-2.7115226,-0.25566456,1.7808318,0.94211113,0.04,0.039999895,0.031004259607669837,-0.08147369732959264,-0.02236387369162207,0.2748602256874158,0.18994634640477054,0.04025671500596867,0.9311017956511024,0.3057644165570782,-0.1988851942405767,0.0014990712759570591
2015.583333331829,-0.36360356,-0.54472107,-0.29512715,-2.7146666,-0.25793058,1.7826905,0.943494,0.04,0.039999895,0.03434151786800843,-0.07988038829738198,-0.01847739971477802,0.2735988265534708,0.18930166560923944,0.04102998444347086,0.9300186551740381,0.3079222376732391,-0.20061365598593137,0.0018323772911676358
2015.5999999984956,-0.36679536,-0.54262316,-0.29771346,-2.717805,-0.26019228,1.7845455,0.9448739,0.04,0.039999887,0.03319453122354599,-0.08145436629362068,-0.018262072894903447,0.27231026845696016,0.18862898981870413,0.041798879589308946,0.9289317959709751,0.31006582806791305,-0.20233680637750434,0.002171976899160754
2015.6166666651623,-0.36998072,-0.54052955,-0.30029437,-2.7209387,-0.2624492,1.7863969,0.9462512,0.04,0.03999987,0.03203697125286897,-0.0829699961294561,-0.01792353650288403,0.2709973040021215,0.18792398648731515,0.042556798781023586,0.92784126729277,0.3121951213827943,-0.20405501308778037,0.0025180403242747985
2015.633333331829,-0.37315932,-0.5384405,-0.30286965,-2.7240646,-0.26470128,1.7882444,0.9476253,0.04,0.03999987,0.03673266603487768,-0.07991529230896299,-0.013298322520072237,0.2696593557648229,0.18718321805999977,0.04329980653830981,0.9267475418447442,0.3143101325886456,-0.2057666073773601,0.0028701089254178943
2015.6499999984956,-0.37633064,-0.53635657,-0.305439,-2.7271826,-0.2669482,1.7900876,0.9489963,0.04,0.03999986,0.037276748337888854,-0.08037670812521824,-0.011957639524251551,0.2682957289152272,0.1864168992050176,0.04403557248700363,0.9256507846933167,0.3164107534747463,-0.20747153767348206,0.003228147702853103
2015.6666666651622,-0.37949425,-0.5342775,-0.30800208,-2.7302926,-0.26918972,1.7919264,0.9503641,0.04,0.03999986,0.037523969293196124,-0.08043666474019107,-0.010324251161486497,0.2669062410357723,0.18562559175152873,0.04476289331708952,0.9245512018814243,0.31849673246087784,-0.2091697958037123,0.003592079452245962
2015.6833333318289,-0.38264996,-0.5322039,-0.31055862,-2.7333946,-0.27142552,1.7937604,0.9517283,0.04,0.03999985,0.03786084808445889,-0.08079955980009323,-0.009314254428938185,0.26549187370671434,0.1848054533908368,0.045479690893104024,0.9234490106829093,0.32056782474600753,-0.21086132176823832,0.003961992998525732
2015.6999999984955,-0.38579714,-0.530136,-0.3131082,-2.7364888,-0.27365535,1.7955893,0.95308864,0.04,0.039999843,0.03813755285675402,-0.08124395550952457,-0.007835328160488153,0.26404571564687485,0.183968569166504,0.04617207557227482,0.9223444519772425,0.3226236590200187,-0.21254615953543732,0.004337812129562311
2015.7166666651622,-0.38893566,-0.5280739,-0.3156506,-2.7395747,-0.27587882,1.7974135,0.95444524,0.04,0.039999843,0.0389531588666836,-0.08060059130561292,-0.005736346556961536,0.262585520521871,0.18308947974971773,0.046862775217150154,0.9212377279563733,0.3246643642978824,-0.21422377450823787,0.004719489408280509
2015.7333333318288,-0.39206496,-0.52601784,-0.31818554,-2.7426515,-0.2780958,1.7992319,0.9557979,0.04,0.039999846,0.040097408124828426,-0.08027437074155097,-0.0041366001649056905,0.26110042444403486,0.18218582299100178,0.047540989231409675,0.9201290445180663,0.3266897039631571,-0.21589418399604052,0.0051068655179939745
2015.7499999984955,-0.3951847,-0.52396816,-0.3207126,-2.7457178,-0.28030595,1.801045,0.95714664,0.04,0.03999984,0.04223926808322176,-0.07870959890924345,-0.0008359549336756089,0.2595928539941278,0.1812512370064688,0.04820406797834895,0.9190187433688576,0.32869977403087175,-0.21755634114426955,0.005499665144191718
2015.7666666651621,-0.39829466,-0.5219251,-0.32323158,-2.748773,-0.28250912,1.8028519,0.9584908,0.04,0.03999984,0.043063682946997695,-0.07816131090194745,0.00043866341499221306,0.2580617942755188,0.1802950256482582,0.04885904590795298,0.9179070620759509,0.33069429387492233,-0.21921022933514514,0.005897859314711601
2015.7833333318288,-0.40139425,-0.51988894,-0.32574213,-2.751819,-0.28470492,1.8046532,0.95983046,0.04,0.039999835,0.04158414935645505,-0.07963824397858588,0.0010517409164578773,0.25650793547287604,0.17931603523273185,0.0495006816842882,0.9167941852491955,0.3326729292073094,-0.2208561402609303,0.006301537505754602
2015.7999999984954,-0.40448317,-0.5178599,-0.328244,-2.754856,-0.2868932,1.8064482,0.96116567,0.04,0.039999835,0.04061452725444559,-0.08060368922053751,0.00116711898715538,0.2549330803087194,0.17831074756732274,0.050128233962634744,0.9156801921842123,0.33463546630927904,-0.22249461927964814,0.006710791388500919
2015.816666665162,-0.40756115,-0.51583844,-0.33073685,-2.7578797,-0.2890736,1.8082367,0.96249586,0.04,0.03999983,0.04719448038690288,-0.07517583846368137,0.0074127586886740815,0.25333883634167215,0.177271370342809,0.050735299714829735,0.9145656601245226,0.33658230918530924,-0.22412326507991737,0.007124922062612603
2015.8333333318287,-0.4106277,-0.51382434,-0.33322033,-2.760894,-0.29124585,1.8100183,0.96382123,0.04,0.039999835,0.04173449842495014,-0.0798636198784286,0.0044073328512750365,0.2517221500166403,0.17621729871055336,0.05133631217518306,0.913450442635595,0.3385127402919457,-0.2257443124556627,0.007544461729871083
2015.8499999984954,-0.41368243,-0.5118181,-0.3356942,-2.7638953,-0.2934097,1.8117933,0.96514153,0.04,0.039999835,0.046759441517674194,-0.0752749324696822,0.009960231848193946,0.2500857262815932,0.1751307950065087,0.0519133313920232,0.9123350836772177,0.3404271406858005,-0.2273555711109936,0.007968767845037791
2015.866666665162,-0.41672525,-0.5098199,-0.33815813,-2.7668855,-0.2955649,1.8135613,0.9664565,0.04,0.03999983,0.04431547927069568,-0.07735822472568765,0.008814499604314907,0.2484288128148273,0.17402633980232327,0.052480672058833194,0.9112196138957221,0.3423250841753664,-0.22895812451936384,0.008398167218790843
2015.8833333318287,-0.41975552,-0.50782996,-0.3406119,-2.7698627,-0.2977113,1.8153219,0.9677659,0.04,0.039999835,0.04699387446822634,-0.07485685735255654,0.012216315051649662,0.24675117676836084,0.17289587893698063,0.053026279395356535,0.910104395498687,0.34420659776003465,-0.23055107778198558,0.008832207311654397
2015.8999999984953,-0.4227728,-0.50584865,-0.34305522,-2.7728288,-0.29984847,1.8170751,0.9690698,0.04,0.03999983,0.044738523454979084,-0.07704091258142753,0.011782141034211158,0.24505462269057943,0.17174493771078322,0.053557828161783005,0.9089895478637219,0.34607126141172084,-0.2321351512890095,0.009271215423858146
2015.916666665162,-0.42577702,-0.50387603,-0.34548777,-2.7757804,-0.30197644,1.8188206,0.9703679,0.04,0.03999983,0.04897255570408543,-0.07241968398703502,0.016085129674314746,0.2433408122730854,0.17056643047481568,0.054066644320501206,0.9078754305926807,0.34791951421859335,-0.23370888509927407,0.009714482884180866
2015.9333333318286,-0.4287676,-0.5019125,-0.3479092,-2.7787185,-0.3040947,1.8205576,0.97166014,0.04,0.03999984,0.04809200499044097,-0.07362529381490512,0.016426506465250235,0.2416081837084593,0.16936864167614685,0.05456440677490873,0.9067621894386712,0.3497509876375736,-0.2352728377805685,0.010162197282452996
2015.9499999984953,-0.43174425,-0.49995792,-0.3503193,-2.7816436,-0.30620304,1.8222867,0.97294635,0.04,0.03999984,0.04707213194422577,-0.07366343797113872,0.017356994156247918,0.23985676807806372,0.16815016261296017,0.055042452118305524,0.9056500280353758,0.3515655083771956,-0.23682705899213585,0.010614337857001645
2015.966666665162,-0.43470675,-0.49801296,-0.35271773,-2.7845547,-0.3083012,1.8240077,0.9742266,0.04,0.03999984,0.048868134165869215,-0.07175615358021581,0.019788991094282782,0.23808802671832585,0.1669076215279319,0.05549952265961253,0.9045392114328732,0.3533632770074578,-0.2383708263938044,0.011070617294504035
2015.9833333318286,-0.43765453,-0.4960778,-0.35510433,-2.787451,-0.31038904,1.8257204,0.9755001,0.04,0.03999983,0.049734168701454085,-0.07051881653049596,0.021762977030792552,0.23630166226960758,0.16564430030493832,0.055940123970061345,0.9034301274495264,0.355143912948322,-0.23990382283605274,0.011530902000048013
2015.9999999984952,-0.44058746,-0.49415264,-0.35747868,-2.7903326,-0.31246623,1.8274238,0.97676736,0.04,0.039999835,0.049825650162960144,-0.0702742132378753,0.022376791671308016,0.234499045938963,0.1643653282007554,0.05636205266848107,0.9023227563771815,0.35690762191730563,-0.24142640731556492,0.0119951069990239
2016.016666665162,-0.44350517,-0.4922375,-0.35984063,-2.7931988,-0.3145325,1.8291185,0.97802776,0.04,0.03999983,0.05020400568007677,-0.06887656439261702,0.024505230745996975,0.23267869978859354,0.16306427924314576,0.056764678211704445,0.9012174761121875,0.35865420916296686,-0.24293803651608276,0.012463122135979712
2016.0333333318285,-0.4464073,-0.4903327,-0.3621898,-2.796049,-0.31658778,1.8308039,0.9792817,0.04,0.039999835,0.05114171822029334,-0.06754234105720291,0.026120050236022596,0.23084253403958732,0.16174661355798436,0.057148787170307386,0.9001144287739944,0.36038382252857964,-0.2444385652700084,0.012934580831815373
2016.0499999984952,-0.4492934,-0.4884384,-0.36452597,-2.7988842,-0.31863165,1.8324802,0.9805286,0.04,0.039999835,0.05028998700913334,-0.06774380028770066,0.026977030079511355,0.22898927817047796,0.16040973863080885,0.057514578342469924,0.8990139089930835,0.36209606060740507,-0.2459280709765696,0.013409632184275924
2016.0666666651618,-0.45216325,-0.48655495,-0.366849,-2.8017035,-0.32066393,1.8341467,0.98176837,0.04,0.039999835,0.05094658871094282,-0.06664578629167472,0.0281273861769904,0.2271212522689651,0.1590550587415979,0.0578605876270763,0.8979160512255397,0.36379100549685445,-0.24740652441778901,0.013888158503971446
2016.0833333318285,-0.45501655,-0.4846824,-0.36915842,-2.8045065,-0.32268444,1.8358041,0.9830011,0.04,0.039999835,0.051334105653677575,-0.06510244462241133,0.030238088792178264,0.22523715544722417,0.15768225113808837,0.058182663991862005,0.8968211498962406,0.36546868317153747,-0.24887341210351796,0.014369810979948718
2016.0999999984952,-0.45785284,-0.48282114,-0.37145397,-2.8072917,-0.32469296,1.8374515,0.9842266,0.04,0.039999835,0.05332435585722051,-0.06267471336768304,0.03262826899643745,0.22333840046172687,0.156293333317295,0.058486459632205445,0.8957294918901791,0.36712914219755677,-0.2503282268225664,0.01485426414594569
2016.1166666651618,-0.46067184,-0.4809712,-0.3737355,-2.8100598,-0.3266892,1.8390883,0.98544455,0.04,0.03999984,0.052369819902642334,-0.06295017875388442,0.032702168550513555,0.22142480003430498,0.15489155121646925,0.0587735748530471,0.8946411726804051,0.36877219064839517,-0.25177147885703155,0.015341642140153603
2016.1333333318285,-0.46347335,-0.4791329,-0.37600267,-2.8128111,-0.328673,1.8407153,0.986655,0.04,0.03999985,0.051839719209001434,-0.06236263266700126,0.03380262726376815,0.21949607109621339,0.15347369254678322,0.05903772237792443,0.8935564344524412,0.3703977853742564,-0.253202947848242,0.01583181099706829
2016.149999998495,-0.46625692,-0.4773064,-0.37825537,-2.8155448,-0.33064404,1.842332,0.98785734,0.04,0.03999985,0.05277343333551787,-0.06057473124359003,0.035659968602297365,0.21755439466507143,0.15203835655198064,0.059282123713067986,0.8924755939645337,0.3720057794902841,-0.2546223094586126,0.01632463566029365
2016.1666666651618,-0.4690224,-0.4754921,-0.38049322,-2.81826,-0.3326022,1.8439382,0.9890517,0.04,0.03999985,0.05390446877662214,-0.0584538993956496,0.037504355221429364,0.2156009872952619,0.15058954910503508,0.059504717574072524,0.8913988665788534,0.3735963848508377,-0.25602909524188583,0.016819758557769765
2016.1833333318284,-0.4717694,-0.47368994,-0.3827161,-2.8209574,-0.33454713,1.8455333,0.99023813,0.04,0.03999985,0.05262493987558958,-0.05920084790389524,0.03718390641863634,0.21363367885478257,0.14913059394587264,0.05970924911195921,0.8903262472720835,0.375169464900288,-0.25742407706355774,0.017317348896864152
2016.199999998495,-0.47449747,-0.47190014,-0.38492367,-2.8236363,-0.33647877,1.8471172,0.9914166,0.04,0.03999985,0.05353427566245905,-0.05702996151404349,0.03931179122259598,0.2116529268025978,0.14765489539331955,0.05988932058179991,0.8892580537730548,0.3767250281396367,-0.2588067262450786,0.017816998154952447
2016.2166666651617,-0.4772066,-0.47012308,-0.38711563,-2.826296,-0.3383969,1.8486899,0.9925865,0.04,0.039999854,0.054112655153559786,-0.05536507431104232,0.04066558935809095,0.20965822171967696,0.1461668910182884,0.060046844722510595,0.8881945771247044,0.37826301207065266,-0.2601767040267524,0.018318557456314256
2016.2333333318284,-0.4798962,-0.46835884,-0.38929188,-2.828937,-0.3403012,1.8502516,0.9937482,0.04,0.039999854,0.05356607584774409,-0.054850080716073446,0.04165449457630421,0.20765193680713556,0.14466709868303768,0.06018295216851502,0.8871359479185259,0.37978347908376997,-0.26153403785910617,0.018821954384112858
2016.249999998495,-0.4825662,-0.4666075,-0.3914521,-2.8315585,-0.3421915,1.8518022,0.99490124,0.04,0.03999986,0.054101698684627664,-0.0527722046361756,0.04320629454153124,0.20563335266615246,0.1431563857318995,0.060296232164849306,0.8860824526649776,0.3812864192340529,-0.2628783434738285,0.019326927312625152
2016.2666666651617,-0.4852163,-0.4648695,-0.39359608,-2.8341599,-0.34406766,1.8533416,0.9960458,0.04,0.03999986,0.054639886653318204,-0.05125123322335945,0.044487945456828104,0.2036038242392064,0.14163640954691323,0.06039137280817161,0.8850342657238345,0.38277196520822165,-0.26420941405065823,0.01983322143065033
2016.2833333318283,-0.48784605,-0.46314475,-0.39572355,-2.8367417,-0.34592947,1.8548694,0.99718153,0.04,0.039999865,0.05380579650666739,-0.05108901559193191,0.04483307706322215,0.20156132275166794,0.14010866698208013,0.06046716743941438,0.8839915799502809,0.38423979532115843,-0.26552761858292345,0.0203408465468385
2016.299999998495,-0.49045533,-0.4614336,-0.39783433,-2.8393035,-0.34777665,1.8563844,0.9983083,0.04,0.039999865,0.05434703832153387,-0.04990291437119154,0.045363446062740564,0.19950978415001352,0.1385699781017001,0.060518838447161216,0.8829544404666773,0.38569003243887395,-0.26683317445322985,0.020849746969432786
2016.3166666651616,-0.49304384,-0.4597362,-0.39992818,-2.8418446,-0.34960902,1.8578858,0.99942607,0.04,0.039999872,0.05499021167640894,-0.04829231964260661,0.04637997339744793,0.19744726714971092,0.13701879902070768,0.0605476068947797,0.8819229770013103,0.38712273682347004,-0.2681261116642609,0.021359717115569405
2016.3333333318283,-0.4956111,-0.45805272,-0.4020049,-2.844365,-0.35142645,1.8593756,1.0005348,0.03999999,0.039999884,0.05454805995537271,-0.04641367708728694,0.048602126878372065,0.19537274524320666,0.13545461927695213,0.060549097695484,0.8808976598745727,0.3885378710537071,-0.269405497674783,0.02187037738945416
2016.349999998495,-0.4981571,-0.45638332,-0.4040643,-2.846864,-0.35322878,1.8608536,1.0016342,0.03999998,0.039999887,0.054799320225962234,-0.04461618443096782,0.04955812531233783,0.19328982843785225,0.13388345149693193,0.0605326956727153,0.8798786498399183,0.38993558461082495,-0.2706711414426524,0.02238156831475711
2016.3666666651616,-0.5006815,-0.45472813,-0.4061061,-2.8493414,-0.35501584,1.8623192,1.0027242,0.039999966,0.039999887,0.055097621563593435,-0.04313223885454853,0.05055250791644594,0.1911966587600047,0.13230778595266948,0.06049734309860169,0.8788661692073779,0.3913157658992296,-0.27192303039793475,0.022893088927703496
2016.3833333318282,-0.5031841,-0.4530874,-0.4081302,-2.8517978,-0.3567874,1.8637719,1.0038046,0.039999947,0.039999887,0.054253653751756836,-0.043315180903058526,0.05020505838385092,0.18909482118083307,0.13072709354917805,0.060440345891447506,0.8778602382995169,0.392678340548454,-0.2731617242175488,0.02340502722330886
2016.3999999984949,-0.50566447,-0.45146114,-0.41013628,-2.8542325,-0.35854334,1.8652117,1.0048758,0.03999993,0.039999887,0.054631803474891605,-0.041241368250755084,0.051697900361336036,0.1869839517468568,0.129137793500034,0.0603600334153139,0.8768610195529732,0.3940235551087457,-0.27438689388993154,0.02391699959068698
2016.4166666651615,-0.50812274,-0.44984978,-0.41212425,-2.8566456,-0.36028346,1.8666385,1.005937,0.039999913,0.039999887,0.054559523406760846,-0.03995348454197689,0.05217182529533293,0.1848637877534097,0.12754051467305072,0.06025888246885261,0.8758687840021618,0.3953512432610119,-0.27559842229785203,0.024429025553247403
2016.4333333318282,-0.51055825,-0.44825333,-0.41409388,-2.8590364,-0.36200744,1.8680521,1.0069886,0.03999989,0.039999884,0.05467969252721527,-0.03858914179140083,0.0534340855499027,0.18273559202906664,0.12593811862821683,0.06013408113620544,0.8748836386683131,0.3966615771472415,-0.2767962543724391,0.02494084142413459
2016.4499999984948,-0.512971,-0.446672,-0.4160449,-2.8614047,-0.36371532,1.8694525,1.0080303,0.039999876,0.039999884,0.05494025692627247,-0.03657767081781671,0.054347558227252346,0.18059946649475533,0.12432996093479838,0.059987880271122035,0.8739058609261052,0.3979544846567578,-0.2779801456709845,0.02545217069947989
2016.4666666651615,-0.51536053,-0.44510573,-0.41797733,-2.86375,-0.36540672,1.8708392,1.0090622,0.03999986,0.03999989,0.0547499596301515,-0.035452115811818175,0.054951622290771995,0.17845453292018557,0.12271902777413242,0.05982056437751164,0.8729354762553578,0.39923018897002155,-0.27915020099313986,0.025962969693043986
2016.4833333318281,-0.5177268,-0.44355485,-0.41989067,-2.8660722,-0.36708167,1.8722125,1.0100838,0.039999846,0.039999887,0.054849101066112294,-0.033787408849039746,0.05594931025856287,0.1763022813858853,0.12110209671450942,0.05963371258057322,0.8719728312719509,0.4004884616748259,-0.2803061876171522,0.026472906384585566
2016.4999999984948,-0.5200696,-0.44201928,-0.421785,-2.8683712,-0.36873996,1.8735721,1.0110953,0.03999983,0.039999895,0.05438246429538829,-0.03273032478006144,0.05607045073191541,0.17414310864619406,0.11948394702716794,0.05942458172163573,0.8710179238413576,0.40172952902979264,-0.28144828190582244,0.026981965548358813
2016.5166666651614,-0.5223887,-0.4404993,-0.42366013,-2.8706465,-0.37038153,1.874918,1.0120963,0.039999813,0.039999902,0.054857507227279445,-0.0305117448647807,0.05732872088338725,0.1719752258004713,0.11786269429553775,0.059193521938643565,0.8700710562281261,0.4029533578252866,-0.2825761077246586,0.027489850392133818
2016.533333331828,-0.52468395,-0.43899533,-0.4255156,-2.872898,-0.3720061,1.8762498,1.0130872,0.0399998,0.03999991,0.05459783656740491,-0.02985781218597383,0.05767703030619131,0.16980281358790494,0.1162385804382943,0.05894380291599581,0.8691322858690024,0.4041600885455797,-0.28368978530403594,0.027996396216335383
2016.5499999984947,-0.52695495,-0.4375072,-0.42735153,-2.875126,-0.3736135,1.8775675,1.0140676,0.039999794,0.039999913,0.05424941152598617,-0.02844312903235169,0.05821551021105709,0.16762442918439827,0.1146129460559009,0.05867741832072912,0.8682017727081692,0.40534970481697874,-0.28478932994614575,0.02850151259154621
2016.5666666651614,-0.5292015,-0.43603507,-0.42916778,-2.8773303,-0.37520355,1.8788711,1.0150375,0.03999978,0.039999917,0.05347662583994328,-0.028059756471854325,0.05820207324531701,0.16543862992614444,0.11298551559583617,0.058388317444851734,0.8672796420273846,0.406522095641373,-0.28587498213693774,0.02900522139897118
2016.583333331828,-0.53142345,-0.43457913,-0.4309641,-2.87951,-0.37677628,1.8801603,1.0159967,0.039999764,0.039999913,0.05460914718484755,-0.0247694490567274,0.059805989600947296,0.16324901425858762,0.1113540480716499,0.058077020799339005,0.8663661616825867,0.40767746295269386,-0.2869461547424091,0.02950702239098994
2016.5999999984947,-0.533621,-0.43313962,-0.4327403,-2.8816655,-0.3783315,1.8814353,1.0169452,0.039999746,0.039999913,0.05365803300583227,-0.024477822639612512,0.05938030916949333,0.16105335356402103,0.10972560558381417,0.05774757779274722,0.8654613267743727,0.4088159624617429,-0.2880030983533472,0.03000693308709443
2016.6166666651613,-0.5357932,-0.43171638,-0.4344962,-2.8837965,-0.379869,1.8826958,1.0178831,0.03999973,0.039999913,0.05359177924415537,-0.023109185933745113,0.06059795227009168,0.1588518773059604,0.10809603228009451,0.05739915995700311,0.8645654235495727,0.40993733698947266,-0.28904579739198355,0.030504674306737235
2016.633333331828,-0.5379404,-0.4303097,-0.43623188,-2.8859024,-0.38138878,1.8839418,1.0188098,0.039999716,0.039999913,0.05378514912026677,-0.020944734504657614,0.06077870073923353,0.15664884125982803,0.10646619628573659,0.057030611607082615,0.8636785400658434,0.4110418902587245,-0.2900740136009278,0.0310001696078698
2016.6499999984946,-0.5400623,-0.4289196,-0.437947,-2.8879843,-0.38289064,1.8851731,1.0197258,0.039999712,0.039999925,0.0525232570668166,-0.021364584590954916,0.06037580237950868,0.15443944582256205,0.10483886266661387,0.05664423117307263,0.8628006893556772,0.41212954165290877,-0.2910882681083953,0.0314933566643274
2016.6666666651613,-0.5421588,-0.4275462,-0.4396415,-2.8900404,-0.3843744,1.8863895,1.0206307,0.039999697,0.039999925,0.05373460004943764,-0.017902107012002233,0.06195677551571466,0.1522272575724036,0.10321025782313292,0.056236122501291105,0.8619321153682038,0.4132005325912144,-0.2920879658792795,0.03198387956041394
2016.683333331828,-0.54422945,-0.42618975,-0.44131526,-2.8920712,-0.38584003,1.8875911,1.0215247,0.039999682,0.039999925,0.05301331375784368,-0.017374307164974567,0.06208408983859881,0.15001093231698384,0.10158422024922886,0.05581094385946425,0.8610729622469069,0.4142548160625693,-0.29307319243490376,0.032471601936428146
2016.6999999984946,-0.5462744,-0.42485023,-0.44296813,-2.8940775,-0.38728735,1.8887777,1.0224077,0.03999967,0.03999993,0.051946943989855665,-0.017363608477438675,0.06134432326579953,0.14779156979447655,0.0999612290304354,0.05536864025842589,0.860223190383629,0.41529242979391384,-0.2940444235096974,0.03295660002074613
2016.7166666651613,-0.5482935,-0.42352772,-0.44460002,-2.8960578,-0.38871637,1.8899491,1.0232792,0.03999966,0.03999993,0.052910101541769894,-0.014200433770872323,0.062642471029134,0.14556886533490532,0.09833773444302284,0.054906656306338175,0.8593830840684441,0.41631343402276955,-0.29500119773426353,0.033438492856718564
2016.733333331828,-0.55028653,-0.42222238,-0.4462107,-2.8980126,-0.39012682,1.8911053,1.0241392,0.03999965,0.039999936,0.05212737419603153,-0.013756221348726339,0.06258858490342245,0.14334392056026055,0.0967192756326806,0.05442612179700139,0.8585527476222382,0.41731782067798,-0.29594363290773035,0.03391728521360743
2016.7499999984946,-0.5522535,-0.42093426,-0.44780034,-2.8999417,-0.39151868,1.8922461,1.024988,0.039999638,0.039999936,0.0519456306769972,-0.01233633828290337,0.06264766717165027,0.1411183228176153,0.09510265770237535,0.053927859133471145,0.8577321263135625,0.41830596512726337,-0.2968717815239946,0.034392795224191364
2016.7666666651612,-0.55419433,-0.4196634,-0.44936863,-2.9018445,-0.3928919,1.8933717,1.0258255,0.039999623,0.039999936,0.051965526337116597,-0.010403003223058427,0.06321783181899576,0.13888777193586568,0.0934894966336647,0.05341189253716663,0.8569214372737778,0.4192778648070235,-0.29778544314524175,0.03486477124976117
2016.7833333318279,-0.5561085,-0.41840988,-0.4509155,-2.9037216,-0.3942465,1.8944821,1.0266514,0.03999961,0.039999936,0.051141480807403994,-0.010065322417840417,0.06332606764589688,0.13665569823280344,0.09188013598363684,0.05288013111899498,0.8561208939276554,0.42023324893507286,-0.29868479081759686,0.035333089367246
2016.7999999984945,-0.5579961,-0.41717386,-0.45244068,-2.9055727,-0.39558214,1.8955771,1.027466,0.039999608,0.039999947,0.05109306782558054,-0.008762340690426917,0.06337930189390661,0.13442458407066657,0.09027637714800515,0.052331384936109906,0.8553304270313069,0.42117250756837704,-0.2995698753176946,0.03579761535561639
2016.8166666651612,-0.55985725,-0.41595545,-0.4539443,-2.9073975,-0.3968989,1.8966566,1.0282693,0.039999597,0.039999947,0.05089875442381153,-0.007114661488150098,0.06350966438710692,0.13219218091203622,0.08867564268716165,0.051766708708868445,0.8545501592132864,0.4220957757898091,-0.3004405468633629,0.036258230091792826
2016.8333333318278,-0.5616915,-0.41475448,-0.4554263,-2.909196,-0.39819673,1.8977205,1.029061,0.039999582,0.039999943,0.0506158558401526,-0.005992369515694929,0.06359641090232793,0.12995770087714367,0.08708041552990718,0.05118703473705527,0.8537801923241065,0.42300296579316293,-0.30129702879022924,0.036714773148960315
2016.8499999984945,-0.56349903,-0.41357118,-0.4568865,-2.910968,-0.3994755,1.8987685,1.029841,0.03999957,0.039999947,0.05014930583702171,-0.005195212974418162,0.06346023636707998,0.1277228147443625,0.08549002762167085,0.05059127805306825,0.8530206124996127,0.4238941374485819,-0.30213936401421665,0.03716718445878
2016.8666666651611,-0.5652795,-0.4124056,-0.45832482,-2.9127133,-0.40073523,1.8998014,1.0306093,0.039999563,0.03999995,0.05029572063960375,-0.0028490595507801864,0.06448535696608748,0.12548848249151376,0.08390463403218654,0.04998044128012674,0.852271654143037,0.4247694428581917,-0.30296708113829346,0.03761509942530794
2016.8833333318278,-0.56703293,-0.4112579,-0.45974135,-2.9144325,-0.4019758,1.900818,1.0313659,0.039999556,0.039999954,0.04925770464914159,-0.0036539678089253513,0.06296488673736556,0.12325615592723835,0.08232682217035542,0.049356322906506475,0.8515331512671098,0.4256288515806862,-0.3037810127501624,0.038058760984789254
2016.8999999984944,-0.5687593,-0.41012797,-0.46113577,-2.9161248,-0.40319714,1.9018189,1.0321107,0.03999954,0.039999954,0.04958260223677513,-0.0009980036766998879,0.06410919371344082,0.12102343282828226,0.08075412593463206,0.04871542807644237,0.8508053429519757,0.4264725351491957,-0.3045806418433178,0.038497763338944536
2016.916666665161,-0.57045835,-0.40901583,-0.46250823,-2.9177907,-0.40439928,1.902804,1.0328438,0.039999533,0.039999958,0.04872295014926031,-0.0007206496319689393,0.06366664930522181,0.11879346466303219,0.07918730461527501,0.04806139819278746,0.8500882638318825,0.4273004798490998,-0.30536623617453057,0.03893206160256152
2016.9333333318277,-0.57213026,-0.40792167,-0.46385857,-2.9194295,-0.40558195,1.9037737,1.0335649,0.039999526,0.03999996,0.04878969459163329,0.0011656547473259948,0.0641331534726175,0.11656596259726207,0.07762647300742362,0.04739278086706515,0.8493820609379507,0.4281128928267901,-0.3061374412736082,0.03936156250359923
2016.9499999984944,-0.5737749,-0.40684536,-0.46518683,-2.9210413,-0.40674537,1.904727,1.0342745,0.03999951,0.03999996,0.04864861421984834,0.002157690308224325,0.06360585197665025,0.11433999890269611,0.07607637175847887,0.04671215822140917,0.8486866094169944,0.4289099599427832,-0.30689470015653336,0.03978603114156812
2016.966666665161,-0.575392,-0.40578708,-0.46649295,-2.9226267,-0.40788943,1.9056647,1.034972,0.039999507,0.03999997,0.047415708400011525,0.00198785224481135,0.06338226759828869,0.11211645038842159,0.07453127386651481,0.046019685241131356,0.8480021558345371,0.4296913980804986,-0.307638032952554,0.04020555678867413
2016.9833333318277,-0.5769817,-0.40474683,-0.4677769,-2.9241853,-0.40901408,1.9065864,1.0356576,0.039999496,0.03999997,0.0476793906818207,0.0039096943905359005,0.06353785342665952,0.10989783735965156,0.07299483039055206,0.0453139409154755,0.8473286673971204,0.4304575604233638,-0.30836738153599424,0.040619897661380175
2016.9999999984943,-0.57854414,-0.40372455,-0.46903867,-2.9257166,-0.41011918,1.9074925,1.0363315,0.039999492,0.03999997,0.04736658455162246,0.005374639871857934,0.06369690165859421,0.10768418193173895,0.07146408279906323,0.04459607041847197,0.8466661944301904,0.431208710746932,-0.30908255966134435,0.04102894463983923
2017.016666665161,-0.58007914,-0.40272027,-0.47027814,-2.9272206,-0.4112049,1.9083824,1.0369936,0.03999948,0.03999997,0.047314998838821065,0.006461614079900091,0.06341101655980008,0.105471301628242,0.06994514801010354,0.04386854859112614,0.8460147739411117,0.43194483030551245,-0.3097838203201094,0.041432481383452006
2017.0333333318276,-0.58158654,-0.40173405,-0.47149536,-2.928698,-0.4122711,1.9092565,1.0376443,0.039999474,0.039999973,0.04608936241157213,0.005983239675211305,0.06286134371286112,0.1032628693718764,0.0684346226206529,0.043131032862572444,0.8453743823603036,0.4326659905345599,-0.3104714134035816,0.041830559915755856
2017.0499999984943,-0.58306634,-0.4007659,-0.4726905,-2.9301488,-0.41331786,1.9101145,1.038283,0.039999463,0.039999973,0.045896607111151067,0.007244060880151615,0.06266466173825425,0.10105850375532398,0.06693152216888018,0.04238270320787392,0.8447451306713044,0.4333721745709975,-0.3111453480336076,0.04222315610859597
2017.066666665161,-0.58451873,-0.3998158,-0.47386327,-2.9315722,-0.4143452,1.9109565,1.0389094,0.039999455,0.039999973,0.046170349123508814,0.009271987075920585,0.06293525818220624,0.09886050652468491,0.06543619097166614,0.041622948530494,0.8441271701619439,0.4340634337701693,-0.3118054575085096,0.042610007345076764
2017.0833333318276,-0.5859436,-0.3988837,-0.4750138,-2.9329689,-0.41535306,1.9117827,1.0395241,0.039999448,0.039999977,0.04508676028674996,0.009110410213331033,0.062415076985289364,0.09666860637135857,0.06395234087961563,0.04085477460652437,0.8435204305266697,0.4347399501218886,-0.31245195343309157,0.042991113592983805
2017.0999999984942,-0.58734095,-0.39796957,-0.47614202,-2.9343379,-0.41634136,1.912593,1.040127,0.039999437,0.039999973,0.0455234112326508,0.011336634649228294,0.06278289022635386,0.09448393943298873,0.06247704627802095,0.040076952020550546,0.84292491898744,0.4354020722888642,-0.3130846346113945,0.043366207660224816
2017.116666665161,-0.588711,-0.3970735,-0.4772481,-2.9356802,-0.4173103,1.9133871,1.040718,0.039999425,0.039999973,0.04446137175808662,0.010705897839646816,0.06146219669676545,0.09230411360408251,0.061013916633312286,0.03929373399601509,0.8423406239155896,0.4360496236827487,-0.31370400960315387,0.04373549298376269
2017.1333333318275,-0.59005356,-0.39619544,-0.47833195,-2.9369955,-0.41825974,1.9141657,1.0412971,0.039999418,0.039999973,0.04411328374147594,0.012185732387548498,0.06215137854130859,0.09013216566947464,0.05955865799124951,0.03850050698780022,0.8417677027020546,0.4366827928121702,-0.314309686090042,0.044098689089904636
2017.1499999984942,-0.5913688,-0.3953354,-0.47939366,-2.9382837,-0.41918987,1.9149286,1.0418645,0.03999941,0.039999973,0.0440520673685052,0.01327987358878957,0.0615733068255131,0.08796776889833194,0.05811581546542166,0.037701658387320536,0.8412060624868737,0.43730181986040684,-0.3149018429608144,0.04445568672272387
2017.1666666651608,-0.5926567,-0.39449322,-0.48043332,-2.939545,-0.42010057,1.9156748,1.0424199,0.039999403,0.039999973,0.043534651614662856,0.013188031356170526,0.060685177657954226,0.0858109917975306,0.056684163496856475,0.0368974017509829,0.8406556463951718,0.4379065763814593,-0.31548102579259796,0.044806661453795193
2017.1833333318275,-0.59391713,-0.39366892,-0.48145086,-2.9407794,-0.42099196,1.9164053,1.0429637,0.039999392,0.039999973,0.042875159784017125,0.014038025978257984,0.06082259930571543,0.08366204860852072,0.05526242648125769,0.036083974229001475,0.8401165288846956,0.4384972758207931,-0.3160470106136531,0.045151346321534336
2017.1999999984941,-0.5951504,-0.39286244,-0.48244637,-2.9419875,-0.42186406,1.9171203,1.0434957,0.039999384,0.039999973,0.04226207619342226,0.014566021548823027,0.06031870381588145,0.08152308027808983,0.05385072928007781,0.03526595067655994,0.8395887631771336,0.43907393582472043,-0.31659985035870103,0.04548980521972236
2017.2166666651608,-0.59635663,-0.3920739,-0.48341992,-2.9431689,-0.42271695,1.9178191,1.0440158,0.03999939,0.039999984,0.042330352425790085,0.01540438020082302,0.05978708264719468,0.07939432712009464,0.05245076515147872,0.03444130305817777,0.8390722455868942,0.439636751113051,-0.31713978057642206,0.04582197434055722
2017.2333333318275,-0.59753567,-0.3913031,-0.4843715,-2.9443238,-0.4235506,1.9185024,1.0445242,0.039999377,0.03999998,0.0415668416906545,0.015982002076653234,0.059784450618399765,0.07727522926401464,0.051061385494507484,0.033610583719885415,0.8385670620088093,0.44018578288121957,-0.31766672176295474,0.04614772960329859
2017.249999998494,-0.5986879,-0.39054996,-0.48530126,-2.9454517,-0.4243652,1.9191703,1.0450209,0.039999377,0.03999999,0.0415841198773359,0.01756306474444136,0.059547969621664976,0.07516677049964518,0.04968462097977186,0.03277660923316338,0.838073175655739,0.44072134584706546,-0.3181805644639042,0.04646693403364909
2017.2666666651608,-0.59981304,-0.38981447,-0.4862093,-2.946554,-0.4251607,1.9198225,1.0455061,0.039999366,0.039999988,0.04033209111067304,0.016174907352106693,0.05842702781903575,0.07306957185900986,0.04832105534575205,0.03194025313823336,0.837590517853819,0.4412432667643557,-0.3186819032051769,0.04677978736609594
2017.2833333318274,-0.6009117,-0.38909656,-0.48709565,-2.9476292,-0.42593724,1.920459,1.0459799,0.039999362,0.039999995,0.04094054892410659,0.01888424731338878,0.05869800059857544,0.07098348810323052,0.04696883984136612,0.031097837894649413,0.8371190388281368,0.441752100046077,-0.31917034079019685,0.047085990445215074
2017.299999998494,-0.60198337,-0.3883962,-0.4879605,-2.9486787,-0.4266948,1.9210799,1.0464419,0.039999355,0.039999995,0.039705426499070384,0.017426686168708905,0.05767846427693346,0.06890847054642786,0.04562887519620248,0.030254513342919183,0.8366587853947126,0.44224744428366314,-0.31964646600118285,0.04738577444093746
