rsonawane2002/My_IMU/logs_2/traj_393/imu_400hz_393.csv
time,j1,j2,j3,j4,j5,j6,j7,gripper1,gripper2,imu_ax,imu_ay,imu_az,imu_gx,imu_gy,imu_gz
0.0,0.00016700293,-0.785875,4.0107683e-05,-2.3551247,9.29385e-05,1.570997,0.786,0.04,0.04,-9.478923,-0.030901163816452,0.08466746,3.4901095e-07,-0.0011641272576525,7.6185523e-07
0.0025,0.00016700260749999998,-0.785857774,4.0109894150000005e-05,-2.35513919,9.29428806e-05,1.570996565,0.786,0.04,0.04,-9.532232100000048,-0.026168250569021664,0.07333637824998969,2.3329098249989471e-07,-0.0013252006319817865,6.935709429999379e-07
0.005,0.000167002285,-0.785840548,4.011210530000001e-05,-2.3551536800000004,9.294726120000001e-05,1.57099613,0.786,0.04,0.04,-9.585541200000097,-0.02143533732159133,0.06200529649997939,1.1757101499978948e-07,-0.001486274006311073,6.252866559998758e-07
0.0075,0.00016700196249999999,-0.7858233219999999,4.011431645000001e-05,-2.3551681700000002,9.295164180000001e-05,1.570995695,0.786,0.04,0.04,-9.638850300000145,-0.016702424074160997,0.05067421474996908,1.8510474996842368e-09,-0.0016473473806403595,5.570023689998137e-07
0.01,0.00016700164,-0.785806096,4.011652760000001e-05,-2.35518266,9.295602240000002e-05,1.5709952600000001,0.786,0.04,0.04,-9.692159400000195,-0.011969510826730659,0.03934313299995878,-1.1386892000042103e-07,-0.001808420754969646,4.887180819997516e-07
0.0125,0.0001670013175,-0.78578887,4.011873875000001e-05,-2.3551971500000004,9.296040300000002e-05,1.570994825,0.786,0.04,0.04,-9.745468500000243,-0.007236597579300324,0.028012051249948468,-2.295888875005263e-07,-0.0019694941292989323,4.2043379499968947e-07
0.015,0.000167000995,-0.785771644,4.012094990000001e-05,-2.3552116400000003,9.296478360000002e-05,1.57099439,0.786,0.04,0.04,-9.79877760000029,-0.0025036843318699924,0.016680969499938164,-3.453088550006315e-07,-0.002130567503628219,3.521495079996274e-07
0.0175,0.00016699898999999996,-0.7857548619999999,4.012582830000007e-05,-2.3552257350000003,9.296684379999998e-05,1.57099396,0.786,0.04,0.04,-9.834220549999998,0.0006519712187582272,0.00905157709999856,-4.853969900012023e-07,-0.002287286799401942,9.23371424959068e-08
0.02,0.00016699361999999995,-0.7857389679999999,4.013604120000007e-05,-2.3552390400000003,9.296426319999998e-05,1.5709935400000001,0.786,0.04,0.04,-9.833931199999999,0.0006531113758682883,0.008825563399998355,-6.742214600013738e-07,-0.002435297938064777,-5.505313800046775e-07
0.0225,0.00016698824999999994,-0.7857230739999999,4.0146254100000086e-05,-2.3552523450000002,9.296168259999998e-05,1.57099312,0.786,0.04,0.04,-9.833641849999998,0.0006542515329783493,0.00859954969999815,-8.630459300015455e-07,-0.0025833090767276115,-1.1933999025052617e-06
0.025,0.00016698287999999996,-0.7857071799999998,4.015646700000009e-05,-2.35526565,9.295910199999997e-05,1.5709927,0.786,0.04,0.04,-9.833352499999998,0.0006553916900884103,0.008373535999997943,-1.0518704000017174e-06,-0.002731320215390446,-1.8362684250058469e-06
0.0275,0.00016697750999999995,-0.7856912859999998,4.0166679900000105e-05,-2.355278955,9.295652139999998e-05,1.57099228,0.786,0.04,0.04,-9.833063149999997,0.0006565318471984713,0.00814752229999774,-1.240694870001889e-06,-0.0028793313540532808,-2.4791369475064313e-06
0.03,0.00016697213999999994,-0.7856753919999998,4.017689280000011e-05,-2.35529226,9.295394079999997e-05,1.57099186,0.786,0.04,0.04,-9.832773799999996,0.0006576720043085324,0.007921508599997533,-1.4295193400020607e-06,-0.0030273424927161154,-3.1220054700070156e-06
0.0325,0.00016696676999999996,-0.7856594979999998,4.0187105700000124e-05,-2.355305565,9.295136019999998e-05,1.57099144,0.786,0.04,0.04,-9.832484449999997,0.0006588121614185934,0.007695494899997327,-1.6183438100022325e-06,-0.00317535363137895,-3.764873992507601e-06
0.035,0.00016695264599999977,-0.7856444499999998,4.0211516700000404e-05,-2.3553181,9.293699599999974e-05,1.57099101,0.786,0.04,0.04,-9.832226799999997,0.0006632222328335469,0.007481515129997352,-2.0635504900073016e-06,-0.0033152263378741493,-5.185690550023046e-06
0.0375,0.00016693414499999976,-0.7856298249999998,4.024302675000043e-05,-2.35533025,9.291673999999973e-05,1.570990575,0.786,0.04,0.04,-9.831984999999996,0.0006692672614008574,0.007273552324997163,-2.6369482750078224e-06,-0.003451029828285753,-6.9954811250246895e-06
0.04,0.00016691564399999974,-0.7856151999999997,4.027453680000046e-05,-2.3553424,9.28964839999997e-05,1.57099014,0.786,0.04,0.04,-9.831743199999996,0.0006753122899681679,0.007065589519996973,-3.2103460600083443e-06,-0.0035868333186973565,-8.805271700026336e-06
0.0425,0.00016689714299999972,-0.7856005749999998,4.0306046850000486e-05,-2.35535455,9.28762279999997e-05,1.5709897050000001,0.786,0.04,0.04,-9.831501399999997,0.0006813573185354784,0.006857626714996784,-3.7837438450088663e-06,-0.00372263680910896,-1.0615062275027985e-05
0.045,0.0001668786419999997,-0.7855859499999998,4.033755690000052e-05,-2.3553667000000003,9.285597199999967e-05,1.57098927,0.786,0.04,0.04,-9.831259599999996,0.0006874023471027889,0.0066496639099965955,-4.3571416300093874e-06,-0.003858440299520563,-1.2424852850029627e-05
0.0475,0.0001668601409999997,-0.7855713249999997,4.036906695000054e-05,-2.35537885,9.283571599999965e-05,1.570988835,0.786,0.04,0.04,-9.831017799999996,0.0006934473756700994,0.006441701104996406,-4.9305394150099094e-06,-0.003994243789932167,-1.4234643425031275e-05
0.05,0.00016684163999999922,-0.7855566999999998,4.0400577000001306e-05,-2.355391,9.281545999999904e-05,1.5709884,0.786,0.04,0.04,-9.830775999999995,0.0006994924042374583,0.006233738299996875,-5.503937200019683e-06,-0.004130047280343554,-1.6044434000063268e-05
0.0525,0.00016679859749999917,-0.7855432149999998,4.0472451750001374e-05,-2.3554021300000003,9.276220474999898e-05,1.57098798,0.786,0.04,0.04,-9.830503149999995,0.0007081964169629762,0.00606200845999672,-6.585924220020665e-06,-0.004253962682562367,-1.9522298150066424e-05
0.055,0.00016675555499999915,-0.7855297299999997,4.0544326500001436e-05,-2.35541326,9.270894949999894e-05,1.57098756,0.786,0.04,0.04,-9.830230299999995,0.0007169004296884941,0.005890278619996563,-7.66791124002165e-06,-0.0043778780847811795,-2.300016230006959e-05
0.0575,0.0001667125124999991,-0.7855162449999997,4.0616201250001505e-05,-2.35542439,9.265569424999889e-05,1.57098714,0.786,0.04,0.04,-9.829957449999995,0.000725604442414012,0.005718548779996407,-8.749898260022635e-06,-0.004501793486999992,-2.6478026450072756e-05
0.06,0.00016666946999999906,-0.7855027599999997,4.068807600000157e-05,-2.3554355200000003,9.260243899999883e-05,1.57098672,0.786,0.04,0.04,-9.829684599999995,0.0007343084551395299,0.005546818939996251,-9.831885280023616e-06,-0.004625708889218805,-2.9955890600075912e-05
0.0625,0.000166626427499999,-0.7854892749999997,4.0759950750001636e-05,-2.35544665,9.254918374999879e-05,1.5709863,0.786,0.04,0.04,-9.829411749999995,0.0007430124678650478,0.005375089099996095,-1.0913872300024602e-05,-0.004749624291437617,-3.3433754750079075e-05
0.065,0.000166583384999999,-0.7854757899999997,4.0831825500001705e-05,-2.35545778,9.249592849999874e-05,1.57098588,0.786,0.04,0.04,-9.829138899999995,0.0007517164805905658,0.005203359259995939,-1.1995859320025588e-05,-0.0048735396936564306,-3.691161890008225e-05
0.0675,0.00016652736349999763,-0.7854626449999996,4.092524750000398e-05,-2.35546854,9.242515404999692e-05,1.570985455,0.786,0.04,0.04,-9.828885699999995,0.0007607415289387664,0.0050322857649950595,-1.3300712550050952e-05,-0.004993622004989002,-4.10958055001629e-05
0.07,0.00016644538399999642,-0.7854501799999994,4.1061764000005965e-05,-2.3554785600000003,9.231934119999538e-05,1.57098502,0.786,0.04,0.04,-9.828671799999992,0.0007704086485322621,0.004862524959992589,-1.5051298200076428e-05,-0.005106038134549928,-4.669263700024435e-05
0.0725,0.00016636340449999523,-0.7854377149999993,4.119828050000795e-05,-2.3554885800000007,9.221352834999383e-05,1.570984585,0.786,0.04,0.04,-9.828457899999988,0.0007800757681257576,0.004692764154990119,-1.6801883850101896e-05,-0.005218454264110853,-5.228946850032577e-05
0.075,0.00016628142499999402,-0.7854252499999991,4.1334797000009935e-05,-2.3554986000000007,9.21077154999923e-05,1.57098415,0.786,0.04,0.04,-9.828243999999986,0.0007897428877192533,0.0045230033499876485,-1.855246950012737e-05,-0.005330870393671779,-5.7886300000407215e-05
0.0775,0.00016619944549999284,-0.7854127849999989,4.147131350001192e-05,-2.355508620000001,9.200190264999075e-05,1.570983715,0.786,0.04,0.04,-9.828030099999982,0.0007994100073127491,0.004353242544985178,-2.030305515015285e-05,-0.005443286523232706,-6.348313150048867e-05
0.08,0.00016611746599999166,-0.7854003199999987,4.1607830000013905e-05,-2.355518640000001,9.189608979998921e-05,1.57098328,0.786,0.04,0.04,-9.82781619999998,0.0008090771269062448,0.004183481739982707,-2.205364080017832e-05,-0.005555702652793632,-6.907996300057011e-05
0.0825,0.00016603548649999044,-0.7853878549999985,4.1744346500015894e-05,-2.3555286600000014,9.179027694998768e-05,1.570982845,0.786,0.04,0.04,-9.827602299999976,0.0008187442464997405,0.0040137209349802375,-2.38042264502038e-05,-0.005668118782354558,-7.467679450065155e-05
0.085,0.00016591610899998441,-0.7853760299999987,4.1943204400025946e-05,-2.355538120000001,9.163496839997968e-05,1.5709824000000001,0.786,0.04,0.0399999995,-9.827373199999974,0.0008305563416811532,0.003860975759983733,-2.6078200500285974e-05,-0.005773188453179106,-8.187972150090291e-05
0.08750000000000001,0.00016577803249998618,-0.7853645249999989,4.2173233000023014e-05,-2.355547300000001,9.145491199998199e-05,1.57098195,0.786,0.04,0.03999999875,-9.827136499999977,0.000843440924655939,0.0037167383999855697,-2.8613868750253686e-05,-0.0058745848946374695,-8.988569625080098e-05
0.09,0.00016563995599998794,-0.785353019999999,4.240326160002008e-05,-2.355556480000001,9.127485559998427e-05,1.5709815,0.786,0.04,0.039999998,-9.82689979999998,0.000856325507630725,0.0035725010399874067,-3.1149537000221386e-05,-0.0059759813360958335,-9.7891671000699e-05
0.0925,0.0001655018794999897,-0.7853415149999992,4.263329020001716e-05,-2.355565660000001,9.109479919998658e-05,1.57098105,0.786,0.04,0.03999999725,-9.826663099999983,0.0008692100906055109,0.0034282636799892433,-3.3685205250189105e-05,-0.006077377777554197,-0.00010589764575059707
0.095,0.00016536380299999145,-0.7853300099999992,4.2863318800014226e-05,-2.3555748400000005,9.091474279998887e-05,1.5709806,0.786,0.04,0.0399999965,-9.826426399999985,0.0008820946735802968,0.0032840263199910794,-3.622087350015682e-05,-0.006178774219012561,-0.00011390362050049514
0.0975,0.0001652257264999932,-0.7853185049999994,4.30933474000113e-05,-2.3555840200000002,9.073468639999116e-05,1.57098015,0.786,0.04,0.03999999575,-9.826189699999988,0.0008949792565550828,0.003139788959992916,-3.875654175012453e-05,-0.006280170660470925,-0.00012190959525039321
0.1,0.0001650876499999922,-0.7853069999999996,4.332337600001298e-05,-2.3555932000000004,9.055462999998973e-05,1.5709797,0.786,0.04,0.039999995,-9.825952999999995,0.0009078638395297982,0.0029955515999949135,-4.12922100001293e-05,-0.006381567101928924,-0.0001299155700004007
0.10250000000000001,0.00016487394799999202,-0.7852963199999996,4.36800466000133e-05,-2.3556018250000004,9.027229024998947e-05,1.57097925,0.786,0.04,0.039999995,-9.825784549999995,0.0009188097144946332,0.0028557427799947863,-4.4846217000132534e-05,-0.0064729305449907175,-0.00014092915050041072
0.105,0.00016466024599999182,-0.7852856399999996,4.403671720001362e-05,-2.3556104500000004,8.998995049998922e-05,1.5709788,0.786,0.04,0.039999995,-9.825616099999994,0.0009297555894594681,0.00271593395999466,-4.840022400013575e-05,-0.00656429398805251,-0.0001519427310004207
0.1075,0.00016444654399999162,-0.7852749599999996,4.439338780001395e-05,-2.3556190750000003,8.970761074998895e-05,1.57097835,0.786,0.04,0.039999995,-9.825447649999994,0.000940701464424303,0.0025761251399945323,-5.195423100013899e-05,-0.006655657431114303,-0.00016295631150043072
0.11,0.00016423284199999143,-0.7852642799999996,4.475005840001427e-05,-2.3556277000000003,8.94252709999887e-05,1.5709779,0.786,0.04,0.039999995,-9.825279199999994,0.000951647339389138,0.002436316319994405,-5.550823800014222e-05,-0.006747020874176096,-0.00017396989200044074
0.1125,0.00016401913999999126,-0.7852535999999996,4.51067290000146e-05,-2.3556363250000003,8.914293124998844e-05,1.57097745,0.786,0.04,0.039999995,-9.825110749999993,0.000962593214353973,0.002296507499994278,-5.906224500014546e-05,-0.006838384317237889,-0.00018498347250045077
0.115,0.00016380543799999106,-0.7852429199999996,4.5463399600014924e-05,-2.3556449500000003,8.886059149998819e-05,1.5709769999999998,0.786,0.04,0.039999995,-9.824942299999993,0.000973539089318808,0.0021566986799941507,-6.261625200014869e-05,-0.006929747760299683,-0.0001959970530004608
0.11750000000000001,0.0001635592949999867,-0.7852324849999996,4.587455685002224e-05,-2.355653225,8.853427074998229e-05,1.57097654,0.785999905,0.04,0.039999995,-9.824779999999993,0.0009844165993858891,0.002023530889994875,-6.651877400019663e-05,-0.007018327759582364,-0.00020808002300060798
0.12,0.0001632482699999864,-0.7852225399999996,4.639468740002271e-05,-2.3556608000000003,8.811998799998192e-05,1.57097606,0.78599962,0.04,0.039999995,-9.824629999999994,0.0009951573796574888,0.0019036451599947664,-7.111832600020078e-05,-0.007101340871307884,-0.00022230177200062084
0.1225,0.00016293724499998613,-0.7852125949999996,4.691481795002318e-05,-2.3556683750000005,8.770570524998154e-05,1.5709755799999998,0.785999335,0.04,0.039999995,-9.824479999999994,0.0010058981599290887,0.0017837594299946573,-7.571787800020498e-05,-0.007184353983033404,-0.0002365235210006338
0.125,0.00016262621999998586,-0.7852026499999996,4.7434948500023654e-05,-2.35567595,8.729142249998116e-05,1.5709750999999998,0.78599905,0.04,0.039999995,-9.824329999999993,0.0010166389402006884,0.0016638736999945482,-8.031743000020916e-05,-0.007267367094758925,-0.00025074527000064676
0.1275,0.00016231519499998557,-0.7851927049999995,4.7955079050024126e-05,-2.3556835250000003,8.687713974998078e-05,1.5709746199999999,0.785998765,0.04,0.039999995,-9.824179999999993,0.001027379720472288,0.001543987969994439,-8.491698200021335e-05,-0.007350380206484445,-0.0002649670190006597
0.13,0.0001620041699999853,-0.7851827599999995,4.8475209600024605e-05,-2.3556911000000005,8.646285699998041e-05,1.57097414,0.78599848,0.04,0.039999995,-9.824029999999992,0.001038120500743888,0.00142410223999433,-8.951653400021754e-05,-0.007433393318209966,-0.00027918876800067264
0.1325,0.000161693144999985,-0.7851728149999995,4.899534015002508e-05,-2.355698675,8.604857424998003e-05,1.57097366,0.785998195,0.04,0.039999995,-9.823879999999992,0.0010488612810154877,0.0013042165099942209,-9.411608600022172e-05,-0.007516406429935486,-0.00029341051700068556
0.135,0.0001613014719999788,-0.7851633229999995,4.965119670003555e-05,-2.3557056600000004,8.55249199999716e-05,1.5709728299999999,0.78599791,0.04,0.039999995,-9.82371219999999,0.0010606904979801176,0.001182775581993997,-9.868733600022382e-05,-0.007592427404600922,-0.0003099654660008704
0.1375,0.0001608694749999784,-0.7851540574999996,5.0374916250036206e-05,-2.35571235,8.494657999997107e-05,1.570971825,0.785997625,0.04,0.039999995,-9.823535499999991,0.001073063933291144,0.001060557054993886,-0.00010324443500022797,-0.0076649523107370785,-0.00032768701500088656
0.14,0.00016043747799997801,-0.7851447919999995,5.1098635800036864e-05,-2.3557190400000003,8.436823999997054e-05,1.57097082,0.78599734,0.04,0.039999995,-9.82335879999999,0.0010854373686021701,0.0009383385279937745,-0.00010780153400023211,-0.007737477216873234,-0.0003454085640009027
0.14250000000000002,0.0001600054809999776,-0.7851355264999995,5.182235535003753e-05,-2.35572573,8.378989999997002e-05,1.570969815,0.7859970550000001,0.04,0.039999995,-9.82318209999999,0.0010978108039131965,0.0008161200009936633,-0.00011235863300023628,-0.00781000212300939,-0.0003631301130009188
0.145,0.00015957348399997723,-0.7851262609999995,5.254607490003818e-05,-2.3557324200000003,8.321155999996949e-05,1.57096881,0.78599677,0.04,0.039999995,-9.82300539999999,0.0011101842392242226,0.0006939014739935533,-0.00011691573200024037,-0.007882527029145546,-0.00038085166200093473
0.1475,0.00015914148699997682,-0.7851169954999995,5.326979445003884e-05,-2.35573911,8.263321999996897e-05,1.570967805,0.785996485,0.04,0.039999995,-9.82282869999999,0.0011225576745352488,0.0005716829469934421,-0.00012147283100024452,-0.007955051935281702,-0.00039857321100095086
0.15,0.00015870948999996846,-0.7851077299999996,5.399351400005295e-05,-2.3557458000000002,8.20548799999576e-05,1.5709668,0.7859962,0.04,0.039999995,-9.82265199999999,0.0011349311098460566,0.0004494644199952991,-0.0001260299300003237,-0.008027576841417463,-0.0004162947600011717
0.1525,0.00015813117549996793,-0.7850990314999995,5.496390750005384e-05,-2.3557521,8.127781339995689e-05,1.5709658100000001,0.785995915,0.04,0.039999995,-9.822490749999991,0.0011432990431789892,0.0003633165819952207,-0.0001319621090003291,-0.008092877315360878,-0.0004377670410011912
0.155,0.0001575528609999674,-0.7850903329999995,5.593430100005472e-05,-2.3557584,8.050074679995619e-05,1.57096482,0.7859956300000001,0.04,0.039999995,-9.82232949999999,0.0011516669765119219,0.0002771687439951423,-0.0001378942880003345,-0.008158177789304293,-0.00045923932200121076
0.1575,0.00015697454649996688,-0.7850816344999996,5.6904694500055605e-05,-2.3557647000000004,7.972368019995548e-05,1.57096383,0.785995345,0.04,0.039999995,-9.82216824999999,0.0011600349098448545,0.00019102090599506388,-0.0001438264670003399,-0.008223478263247708,-0.0004807116030012303
0.16,0.00015639623199996636,-0.7850729359999995,5.7875088000056485e-05,-2.3557710000000003,7.894661359995477e-05,1.57096284,0.78599506,0.04,0.039999995,-9.82200699999999,0.001168402843177787,0.00010487306799498541,-0.0001497586460003453,-0.00828877873719112,-0.0005021838840012498
0.1625,0.00015581791749996583,-0.7850642374999995,5.8845481500057365e-05,-2.3557773,7.816954699995407e-05,1.57096185,0.785994775,0.04,0.039999995,-9.82184574999999,0.0011767707765107196,1.8725229994906998e-05,-0.0001556908250003507,-0.008354079211134536,-0.0005236561650012694
0.165,0.0001552396029999653,-0.7850555389999995,5.981587500005825e-05,-2.3557836,7.739248039995336e-05,1.57096086,0.78599449,0.04,0.039999995,-9.82168449999999,0.0011851387098436523,-6.742260800517147e-05,-0.0001616230040003561,-0.00841937968507795,-0.0005451284460012889
0.1675,0.0001546035619999542,-0.7850469949999995,6.088370480007695e-05,-2.3557895600000003,7.653740489993838e-05,1.570959845,0.7859942050000001,0.04,0.039999994750000004,-9.821551199999995,0.0011935129412454911,-0.0001605628400065282,-0.00016806038950045385,-0.008482222445312635,-0.0005678876750015438
0.17,0.00015385206799995352,-0.7850387599999995,6.21464072000781e-05,-2.35579484,7.552631159993747e-05,1.57095878,0.78599392,0.04,0.039999994000000004,-9.821473799999994,0.0012018997687851388,-0.00026768786000662577,-0.00017550818800046063,-0.008540149778131204,-0.0005932208000015668
0.17250000000000001,0.00015310057399995286,-0.7850305249999995,6.340910960007925e-05,-2.35580012,7.451521829993655e-05,1.570957715,0.785993635,0.04,0.039999993250000004,-9.821396399999996,0.0012102865963247863,-0.0003748128800067233,-0.00018295598650046741,-0.008598077110949771,-0.0006185539250015898
0.17500000000000002,0.00015234907999995217,-0.7850222899999995,6.467181200008039e-05,-2.3558054000000004,7.350412499993562e-05,1.57095665,0.78599335,0.04,0.0399999925,-9.821318999999995,0.001218673423864434,-0.00048193790000682085,-0.0001904037850004742,-0.008656004443768338,-0.000643887050001613
0.1775,0.00015159758599995148,-0.7850140549999994,6.593451440008153e-05,-2.3558106800000003,7.249303169993471e-05,1.570955585,0.785993065,0.04,0.03999999175,-9.821241599999995,0.0012270602514040814,-0.0005890629200069172,-0.0001978515835004809,-0.008713931776586905,-0.0006692201750016357
0.18,0.0001508460919999508,-0.7850058199999994,6.719721680008267e-05,-2.35581596,7.14819383999338e-05,1.57095452,0.7859927800000001,0.04,0.039999991,-9.821164199999995,0.0012354470789437291,-0.0006961879400070147,-0.00020529938200048768,-0.008771859109405472,-0.0006945533000016588
0.1825,0.0001500945979999501,-0.7849975849999994,6.845991920008382e-05,-2.3558212400000005,7.047084509993287e-05,1.570953455,0.785992495,0.04,0.03999999025,-9.821086799999994,0.0012438339064833768,-0.0008033129600071123,-0.00021274718050049446,-0.008829786442224041,-0.0007198864250016818
0.185,0.00014920890299993588,-0.7849896259999994,6.994946400010787e-05,-2.3558261000000003,6.927627559991343e-05,1.57095205,0.785992017,0.04,0.0399999905,-9.820950099999989,0.0012472544214688032,-0.0009009588500062528,-0.00022124323700060708,-0.008881377987566849,-0.0007481592750020017
0.1875,0.00014825610749993502,-0.7849818049999995,7.155243000010934e-05,-2.3558307500000004,6.798996799991226e-05,1.570950475,0.7859914425,0.04,0.03999999125,-9.82078374999999,0.001248191780177864,-0.0009938651750063374,-0.00023026342250061528,-0.008929801639172728,-0.0007779019875020287
0.19,0.00014730331199993413,-0.7849739839999994,7.31553960001108e-05,-2.3558354,6.670366039991108e-05,1.5709488999999999,0.785990868,0.04,0.039999992,-9.820617399999989,0.0012491291388869248,-0.001086771500006422,-0.0002392836080006235,-0.008978225290778607,-0.0008076447000020558
0.1925,0.00014635051649993327,-0.7849661629999994,7.475836200011225e-05,-2.3558400500000003,6.541735279990992e-05,1.570947325,0.7859902934999999,0.04,0.039999992750000005,-9.820451049999988,0.0012500664975959857,-0.0011796778250065065,-0.0002483037935006317,-0.009026648942384486,-0.0008373874125020829
0.195,0.0001453977209999324,-0.7849583419999995,7.636132800011372e-05,-2.3558447000000005,6.413104519990874e-05,1.57094575,0.7859897189999999,0.04,0.039999993500000004,-9.82028469999999,0.0012510038563050465,-0.0012725841500065911,-0.00025732397900063994,-0.009075072593990366,-0.00086713012500211
0.1975,0.00014444492549993155,-0.7849505209999994,7.796429400011517e-05,-2.35584935,6.284473759990757e-05,1.570944175,0.7859891445,0.04,0.039999994250000004,-9.820118349999989,0.0012519412150141073,-0.0013654904750066757,-0.00026634416450064814,-0.009123496245596245,-0.000896872837502137
0.2,0.00014349212999991388,-0.7849426999999994,7.956726000014502e-05,-2.3558540000000003,6.155842999988356e-05,1.5709425999999997,0.78598857,0.04,0.039999995,-9.819951999999995,0.0012528785737231916,-0.0014583968000058435,-0.0002753643500006878,-0.009171919897201695,-0.0009266155500024715
0.2025,0.00014230870349991282,-0.7849352239999995,8.156040300014684e-05,-2.35585805,5.9958227299882107e-05,1.5709409799999998,0.785987997,0.03999999925,0.039999994250000004,-9.819868449999994,0.0012541374831926677,-0.0015387044300059166,-0.0002848165625006964,-0.009214457357305375,-0.0009605828175025025
0.20500000000000002,0.00014112527699991172,-0.7849277479999994,8.355354600014865e-05,-2.3558621000000004,5.835802459988065e-05,1.57093936,0.785987424,0.0399999985,0.039999993500000004,-9.819784899999995,0.0012553963926621439,-0.0016190120600059897,-0.000294268775000705,-0.009256994817409053,-0.0009945500850025335
0.20750000000000002,0.00013994185049991066,-0.7849202719999995,8.554668900015047e-05,-2.35586615,5.6757821899879195e-05,1.57093774,0.785986851,0.03999999775,0.039999992750000005,-9.819701349999994,0.00125665530213162,-0.0016993196900060628,-0.00030372098750071363,-0.009299532277512733,-0.0010285173525025643
0.21,0.0001387584239999096,-0.7849127959999994,8.753983200015226e-05,-2.3558702000000005,5.515761919987775e-05,1.5709361199999998,0.785986278,0.039999997,0.039999992,-9.819617799999994,0.0012579142116010962,-0.001779627320006135,-0.0003131732000007221,-0.00934206973761641,-0.0010624846200025949
0.2125,0.00013757499749990853,-0.7849053199999995,8.953297500015408e-05,-2.3558742500000003,5.35574164998763e-05,1.5709345,0.785985705,0.03999999625,0.03999999125,-9.819534249999993,0.0012591731210705723,-0.0018599349500062082,-0.0003226254125007307,-0.009384607197720088,-0.0010964518875026259
0.215,0.00013639157099990743,-0.7848978439999994,9.152611800015589e-05,-2.3558783000000005,5.195721379987484e-05,1.57093288,0.785985132,0.0399999955,0.0399999905,-9.819450699999994,0.0012604320305400485,-0.0019402425800062813,-0.0003320776250007393,-0.009427144657823768,-0.0011304191550026569
0.2175,0.00013512115749988573,-0.7848904489999995,9.366652525019266e-05,-2.3558820500000004,5.023856024984527e-05,1.5709310799999998,0.785984464,0.039999995,0.03999999,-9.819360599999992,0.0012588385725388026,-0.002021159350006499,-0.0003421573180008969,-0.009467118093746656,-0.0011658837650030433
0.22,0.0001336767699998844,-0.7848832159999994,9.610146100019488e-05,-2.3558852000000003,4.828300499984349e-05,1.5709289199999998,0.785983606,0.039999995,0.03999999,-9.819257399999993,0.001251540379598136,-0.0021032944000065738,-0.0003534919720009072,-0.00950196348130979,-0.001204343060003078
0.2225,0.0001322323824998831,-0.7848759829999994,9.85363967501971e-05,-2.3558883500000003,4.6327449749841704e-05,1.5709267599999999,0.7859827479999999,0.039999995,0.03999999,-9.819154199999991,0.0012442421866574692,-0.0021854294500066487,-0.0003648266260009175,-0.00953680886887292,-0.0012428023550031132
0.225,0.00013078799499988177,-0.7848687499999994,0.00010097133250019931,-2.3558915000000002,4.437189449983993e-05,1.5709246,0.78598189,0.039999995,0.03999999,-9.819050999999991,0.0012369439937168025,-0.002267564500006723,-0.00037616128000092784,-0.009571654256436052,-0.0012812616500031482
0.2275,0.00012934360749988045,-0.7848615169999994,0.00010340626825020153,-2.35589465,4.241633924983815e-05,1.5709224399999997,0.7859810319999999,0.039999995,0.03999999,-9.818947799999991,0.001229645800776136,-0.002349699550006798,-0.00038749593400093813,-0.009606499643999185,-0.0013197209450031833
0.23,0.00012789921999987913,-0.7848542839999993,0.00010584120400020375,-2.3558978,4.046078399983637e-05,1.5709202799999997,0.785980174,0.039999995,0.03999999,-9.818844599999991,0.0012223476078354694,-0.002431834600006873,-0.00039883058800094847,-0.009641345031562316,-0.001358180240003218
0.2325,0.0001264548324998778,-0.7848470509999994,0.00010827613975020596,-2.35590095,3.8505228749834583e-05,1.5709181199999998,0.7859793159999999,0.039999995,0.03999999,-9.818741399999992,0.0012150494148948027,-0.0025139696500069476,-0.00041016524200095876,-0.009676190419125447,-0.0013966395350032532
0.23500000000000001,0.00012481572699986733,-0.7848399359999995,0.00011104099950022385,-2.35590388,3.628422559982017e-05,1.5709157899999997,0.7859784569999999,0.039999995,0.03999999,-9.818641999999992,0.0012058622436589659,-0.002590917350005681,-0.00042188368400091,-0.009706700500102935,-0.0014381793100032914
0.23750000000000002,0.00012307926249988942,-0.7848328799999995,0.00011397082125018654,-2.3559067000000002,3.393049849985014e-05,1.5709133749999997,0.7859775975,0.039999995,0.03999999,-9.818544499999994,0.0011957305832759049,-0.002665271375004734,-0.00043379402000075836,-0.00973504292778843,-0.001481259325002743
0.24,0.00012134279799991156,-0.7848258239999997,0.00011690064300014921,-2.35590952,3.157677139988013e-05,1.5709109599999997,0.785976738,0.039999995,0.03999999,-9.818446999999995,0.001185598922892844,-0.002739625400003787,-0.00044570435600060654,-0.009763385355473924,-0.001524339340002194
0.2425,0.00011960633349993368,-0.7848187679999997,0.00011983046475011191,-2.35591234,2.92230442999101e-05,1.570908545,0.7859758785,0.039999995,0.03999999,-9.818349499999997,0.001175467262509783,-0.00281397942500284,-0.00045761469200045494,-0.009791727783159418,-0.0015674193550016455
0.245,0.00011786986899995578,-0.7848117119999998,0.0001227602865000746,-2.35591516,2.6869317199940064e-05,1.57090613,0.785975019,0.039999995,0.03999999,-9.818251999999998,0.001165335602126722,-0.0028883334500018933,-0.0004695250280003033,-0.009820070210844911,-0.001610499370001097
0.2475,0.0001161334044999779,-0.7848046559999999,0.00012569010825003732,-2.35591798,2.4515590099970032e-05,1.570903715,0.7859741594999999,0.039999995,0.03999999,-9.818154499999999,0.001155203941743661,-0.002962687475000947,-0.00048143536400015164,-0.009848412638530406,-0.0016535793850005484
0.25,0.00011439694,-0.7847976,0.00012861993,-2.3559208,2.2161863e-05,1.5709013,0.7859733,0.039999995,0.03999999,-9.818057,0.0011450722813606,-0.0030370415,-0.0004933457,-0.0098767550662159,-0.0016966594
0.2525,0.00011233649949997002,-0.7847906699999999,0.00013209895200005063,-2.355922585,1.9366780549959324e-05,1.57089845,0.7859721599999999,0.039999995,0.03999999,-9.818014699999999,0.0011246001115065571,-0.0031117843700010877,-0.0005073588140002039,-0.009899982716888448,-0.0017444644150006957
0.255,0.00011027605899994004,-0.7847837399999997,0.00013557797400010126,-2.35592437,1.6571698099918646e-05,1.5708956,0.78597102,0.039999995,0.03999999,-9.817972399999999,0.001104127941652514,-0.0031865272400021754,-0.0005213719280004078,-0.009923210367560996,-0.0017922694300013915
0.2575,0.00010821561849991004,-0.7847768099999997,0.0001390569960001519,-2.355926155,1.377661564987797e-05,1.5708927499999998,0.7859698799999999,0.039999995,0.03999999,-9.817930099999998,0.0010836557717984713,-0.003261270110003263,-0.0005353850420006117,-0.009946438018233545,-0.0018400744450020872
0.26,0.00010615517799988006,-0.7847698799999996,0.00014253601800020253,-2.35592794,1.0981533199837293e-05,1.5708898999999998,0.7859687399999999,0.039999995,0.03999999,-9.817887799999998,0.0010631836019444282,-0.003336012980004351,-0.0005493981560008157,-0.009969665668906093,-0.001887879460002783
0.2625,0.00010409473749985007,-0.7847629499999995,0.00014601504000025315,-2.355929725,8.186450749796618e-06,1.5708870499999998,0.7859675999999999,0.039999995,0.03999999,-9.817845499999997,0.0010427114320903854,-0.0034107558500054386,-0.0005634112700010196,-0.00999289331957864,-0.0019356844750034786
0.265,0.00010203429699982009,-0.7847560199999993,0.00014949406200030378,-2.35593151,5.3913682997559405e-06,1.5708841999999998,0.7859664599999999,0.039999995,0.03999999,-9.817803199999995,0.0010222392622363423,-0.0034854987200065263,-0.0005774243840012236,-0.010016120970251188,-0.001983489490004174
0.2675,9.985504749976478e-05,-0.7847491099999994,0.00015317460850039743,-2.35593308,2.4342851996806773e-06,1.5708811849999997,0.7859652799999999,0.039999994750000004,0.0399999899,-9.817735749999988,0.0009999650646907064,-0.0035600337150072134,-0.000591715770001445,-0.0100367758423105,-0.0020329003050051217
0.27,9.743817999976258e-05,-0.7847422399999994,0.00015725820400040114,-2.35593422,-8.467992003223097e-07,1.5708778399999996,0.7859640199999999,0.039999994000000004,0.0399999896,-9.817617999999987,0.0009740868117634579,-0.003634152960007281,-0.0006065637000014586,-0.010052285157145584,-0.0020855227200051694
0.2725,9.502131249976039e-05,-0.7847353699999993,0.00016134179950040486,-2.35593536,-4.127883600325298e-06,1.5708744949999998,0.7859627599999999,0.039999993250000004,0.0399999893,-9.817500249999988,0.0009482085588362093,-0.003708272205007348,-0.0006214116300014721,-0.010067794471980668,-0.0021381451350052172
0.275,9.260444499975819e-05,-0.7847284999999993,0.00016542539500040857,-2.3559365,-7.408968000328285e-06,1.5708711499999997,0.7859614999999999,0.0399999925,0.039999989,-9.817382499999988,0.0009223303059089608,-0.003782391450007416,-0.0006362595600014856,-0.010083303786815753,-0.002190767550005265
0.2775,9.018757749975599e-05,-0.7847216299999993,0.00016950899050041228,-2.35593764,-1.069005240033127e-05,1.5708678049999996,0.7859602399999999,0.03999999175,0.0399999887,-9.817264749999989,0.0008964520529817122,-0.003856510695007483,-0.0006511074900014992,-0.010098813101650837,-0.0022433899650053132
0.28,8.77707099997538e-05,-0.7847147599999993,0.00017359258600041603,-2.35593878,-1.397113680033426e-05,1.5708644599999997,0.7859589799999999,0.039999991,0.0399999884,-9.817146999999988,0.0008705738000544636,-0.003930629940007551,-0.0006659554200015126,-0.01011432241648592,-0.002296012380005361
0.28250000000000003,8.535384249975158e-05,-0.7847078899999993,0.00017767618150041974,-2.35593992,-1.7252221200337246e-05,1.5708611149999996,0.7859577199999999,0.03999999025,0.0399999881,-9.817029249999988,0.0008446955471272151,-0.004004749185007618,-0.0006808033500015261,-0.010129831731321004,-0.0023486347950054088
0.28500000000000003,8.267738099970902e-05,-0.7847009959999993,0.00018220028500049197,-2.35594069,-2.0887257400395288e-05,1.5708573899999996,0.7859563439999998,0.03999999,0.039999988,-9.816956199999995,0.0008146966807510156,-0.0040766539400073415,-0.0006967855790017162,-0.010141717549414465,-0.0024045153800059636
0.28750000000000003,7.987112249970646e-05,-0.7846940899999992,0.00018694464250049628,-2.355941275,-2.469926950039876e-05,1.5708534749999996,0.7859549099999998,0.03999999,0.039999988,-9.816905499999995,0.0007826375076512964,-0.004147451450007405,-0.0007133349575017312,-0.010151791619137955,-0.002462025050006016
0.29,7.706486399970395e-05,-0.7846871839999993,0.0001916890000005005,-2.35594186,-2.851128160040214e-05,1.5708495599999996,0.7859534759999999,0.03999999,0.039999988,-9.816854799999994,0.000750578334551578,-0.0042182489600074684,-0.0007298843360017458,-0.010161865688861443,-0.002519534720006067
0.2925,7.425860549970141e-05,-0.7846802779999993,0.00019643335750050482,-2.355942445,-3.232329370040561e-05,1.5708456449999995,0.7859520419999998,0.03999999,0.039999988,-9.816804099999995,0.0007185191614518588,-0.004289046470007533,-0.0007464337145017609,-0.010171939758584932,-0.002577044390006119
0.295,7.145234699969885e-05,-0.7846733719999993,0.00020117771500050913,-2.35594303,-3.613530580040908e-05,1.5708417299999995,0.7859506079999998,0.03999999,0.039999988,-9.816753399999994,0.0006864599883521395,-0.004359843980007598,-0.000762983093001776,-0.010182013828308422,-0.002634554060006172
0.2975,6.864608849969629e-05,-0.7846664659999992,0.00020592207250051344,-2.355943615,-3.994731790041255e-05,1.5708378149999995,0.7859491739999999,0.03999999,0.039999988,-9.816702699999993,0.0006544008152524203,-0.004430641490007662,-0.000779532471501791,-0.01019208789803191,-0.002692063730006224
0.3,6.58398299996476e-05,-0.7846595599999993,0.0002106664300005961,-2.3559442,-4.3759330000478934e-05,1.5708338999999996,0.7859477399999998,0.03999999,0.039999988,-9.816651999999994,0.0006223416421511049,-0.004501439000007713,-0.000796081850001983,-0.010202161967754905,-0.002749573400006816
0.3025,6.261083729964466e-05,-0.7846525759999993,0.00021612839950060106,-2.35594384,-4.814778250048293e-05,1.5708294149999995,0.7859460239999998,0.03999999,0.039999988,-9.816605649999994,0.0005756552622136024,-0.004572111350007777,-0.0008142517475019995,-0.01020770282484646,-0.002812027640006873
0.305,5.938184459964172e-05,-0.7846455919999993,0.00022159036900060603,-2.35594348,-5.2536235000486925e-05,1.5708249299999995,0.7859443079999998,0.03999999,0.039999988,-9.816559299999994,0.0005289688822760998,-0.004642783700007842,-0.0008324216450020161,-0.010213243681938015,-0.0028744818800069297
0.3075,5.6152851899638784e-05,-0.7846386079999993,0.00022705233850061103,-2.35594312,-5.6924687500490916e-05,1.5708204449999996,0.7859425919999998,0.03999999,0.039999988,-9.816512949999995,0.00048228250233859737,-0.004713456050007906,-0.0008505915425020326,-0.010218784539029569,-0.0029369361200069864
0.31,5.2923859199635845e-05,-0.7846316239999992,0.000232514308000616,-2.35594276,-6.131314000049491e-05,1.5708159599999996,0.7859408759999998,0.03999999,0.039999988,-9.816466599999995,0.0004355961224010949,-0.004784128400007971,-0.0008687614400020491,-0.010224325396121125,-0.0029993903600070435
0.3125,4.9694866499632905e-05,-0.7846246399999992,0.00023797627750062097,-2.3559424,-6.57015925004989e-05,1.5708114749999995,0.7859391599999999,0.03999999,0.039999988,-9.816420249999995,0.00038890974246359234,-0.004854800750008034,-0.0008869313375020657,-0.010229866253212679,-0.0030618446000071
0.315,4.6465873799629966e-05,-0.7846176559999992,0.00024343824700062596,-2.35594204,-7.00900450005029e-05,1.5708069899999995,0.7859374439999999,0.03999999,0.039999988,-9.816373899999995,0.0003422233625260899,-0.004925473100008099,-0.0009051012350020822,-0.010235407110304235,-0.003124298840007157
0.3175,4.308476714957432e-05,-0.7846106299999992,0.00024915854100072043,-2.355941455,-7.468641170057894e-05,1.5708022899999996,0.7859356319999998,0.03999999,0.0399999881,-9.816318999999991,0.00029350241529138284,-0.004996983615008454,-0.0009236340850022246,-0.010238887881860026,-0.0031884542150078035
0.32,3.939943259957096e-05,-0.7846035199999992,0.0002553954840007261,-2.35594042,-7.96986068005835e-05,1.5707971599999995,0.7859336279999998,0.03999999,0.0399999884,-9.816246999999992,0.00024071233346437625,-0.005070170460008521,-0.0009428928400022421,-0.010238248482346425,-0.003256011860007865
0.3225,3.571409804956761e-05,-0.7845964099999991,0.0002616324270007318,-2.3559393849999997,-8.471080190058807e-05,1.5707920299999996,0.7859316239999997,0.03999999,0.0399999887,-9.816174999999992,0.00018792225163736964,-0.005143357305008586,-0.0009621515950022597,-0.010237609082832826,-0.0033235695050079263
0.325,3.202876349956425e-05,-0.7845892999999992,0.00026786937000073747,-2.3559383499999997,-8.972299700059263e-05,1.5707868999999994,0.7859296199999998,0.03999999,0.039999989,-9.816102999999991,0.00013513216981036303,-0.005216544150008653,-0.0009814103500022772,-0.010236969683319224,-0.0033911271500079877
0.3275,2.8343428949560895e-05,-0.7845821899999992,0.00027410631300074314,-2.355937315,-9.47351921005972e-05,1.5707817699999995,0.7859276159999997,0.03999999,0.0399999893,-9.816030999999992,8.234208798335645e-05,-0.00528973099500872,-0.0010006691050022947,-0.010236330283805623,-0.0034586847950080495
0.33,2.465809439955754e-05,-0.7845750799999991,0.0002803432560007488,-2.35593628,-9.974738720060176e-05,1.5707766399999994,0.7859256119999998,0.03999999,0.0399999896,-9.815958999999992,2.9552006156349862e-05,-0.0053629178400087865,-0.001019927860002312,-0.010235690884292024,-0.003526242440008111
0.3325,2.0972759849554186e-05,-0.7845679699999991,0.0002865801990007545,-2.3559352449999995,-0.00010475958230060634,1.5707715099999995,0.7859236079999997,0.03999999,0.0399999899,-9.815886999999991,-2.3238075670656722e-05,-0.005436104685008853,-0.0010391866150023298,-0.010235051484778422,-0.0035938000850081722
0.335,1.6960629299491085e-05,-0.7845607329999991,0.0002933723020008617,-2.3559337499999997,-0.00011021770560069241,1.5707659699999994,0.7859214459999997,0.039999989799999996,0.039999989799999996,-9.815830499999993,-8.643111214874718e-05,-0.005509446370008948,-0.0010592524200024947,-0.010231199208646324,-0.0036646224700088307
0.3375,1.2785100749487285e-05,-0.7845534324999991,0.0003004419850008681,-2.3559320249999995,-0.00011589879300069759,1.5707602249999995,0.7859192049999997,0.0399999895,0.0399999895,-9.815781749999994,-0.0001548256259495409,-0.005582865475009015,-0.0010797217500025135,-0.010225740494205856,-0.0037370772250088966
0.34,8.609572199483484e-06,-0.7845461319999991,0.00030751166800087456,-2.3559303,-0.00012157988040070275,1.5707544799999993,0.7859169639999998,0.0399999892,0.0399999892,-9.815732999999994,-0.00022322013975033464,-0.005656284580009082,-0.001100191080002532,-0.010220281779765385,-0.0038095319800089626
0.3425,4.434043649479683e-06,-0.784538831499999,0.00031458135100088095,-2.3559285749999996,-0.00012726096780070793,1.5707487349999993,0.7859147229999998,0.0399999889,0.0399999889,-9.815684249999993,-0.00029161465355112835,-0.005729703685009149,-0.0011206604100025507,-0.010214823065324915,-0.003881986735009029
0.34500000000000003,2.5851509947588e-07,-0.7845315309999991,0.0003216510340008874,-2.35592685,-0.0001329420552007131,1.5707429899999992,0.7859124819999997,0.0399999886,0.0399999886,-9.815635499999994,-0.0003600091673519221,-0.005803122790009216,-0.0011411297400025693,-0.010209364350884445,-0.0039544414900090944
0.34750000000000003,-3.9170134505279194e-06,-0.7845242304999991,0.00032872071700089383,-2.3559251249999997,-0.00013862314260071828,1.5707372449999992,0.7859102409999997,0.0399999883,0.0399999883,-9.815586749999994,-0.0004284036811527158,-0.005876541895009283,-0.001161599070002588,-0.010203905636443975,-0.004026896245009161
0.35000000000000003,-8.09254200059847e-06,-0.784516929999999,0.0003357904000010137,-2.3559233999999996,-0.00014430423000081453,1.570731499999999,0.7859079999999997,0.039999988,0.039999988,-9.815537999999997,-0.0004967981949543787,-0.005949961000009822,-0.001182068400002803,-0.01019844692200291,-0.004099351000009868
0.3525,-1.2792221100602645e-05,-0.784509374499999,0.00034375073200102076,-2.3559208199999997,-0.00015070068000082022,1.570725064999999,0.7859055024999997,0.039999988,0.039999988,-9.815510549999997,-0.0005720182322061555,-0.006027093655009891,-0.0012040786200028224,-0.01018830887041854,-0.004176841825009937
0.355,-1.7491900200606924e-05,-0.784501818999999,0.000351711064001028,-2.35591824,-0.00015709713000082605,1.5707186299999991,0.7859030049999997,0.039999988,0.039999988,-9.815483099999996,-0.000647238269457934,-0.006104226310009961,-0.0012260888400028424,-0.010178170818834171,-0.004254332650010007
0.3575,-2.2191579300611202e-05,-0.7844942634999991,0.00035967139600103523,-2.3559156599999995,-0.00016349358000083186,1.5707121949999991,0.7859005074999997,0.039999988,0.039999988,-9.815455649999997,-0.0007224583067097126,-0.006181358965010032,-0.0012480990600028624,-0.010168032767249802,-0.0043318234750100775
0.36,-2.6891258400615477e-05,-0.784486707999999,0.00036763172800104247,-2.3559130799999997,-0.00016989003000083769,1.5707057599999992,0.7858980099999997,0.039999988,0.039999988,-9.815428199999996,-0.000797678343961491,-0.006258491620010101,-0.0012701092800028826,-0.010157894715665432,-0.004409314300010148
0.3625,-3.159093750061976e-05,-0.784479152499999,0.00037559206000104976,-2.3559105,-0.00017628648000084351,1.5706993249999992,0.7858955124999997,0.039999988,0.039999988,-9.815400749999997,-0.0008728983812132695,-0.0063356242750101715,-0.0012921195000029026,-0.010147756664081064,-0.004486805125010219
0.365,-3.629061660062404e-05,-0.784471596999999,0.000383552392001057,-2.35590792,-0.00018268293000084932,1.5706928899999992,0.7858930149999996,0.039999988,0.039999988,-9.815373299999997,-0.000948118418465048,-0.006412756930010242,-0.0013141297200029226,-0.010137618612496693,-0.0045642959500102895
0.3675,-4.117635520070294e-05,-0.7844639434999989,0.00039182896200119104,-2.3559050699999995,-0.00018933335650095704,1.570686179999999,0.7858904204999996,0.0399999878,0.0399999878,-9.815335399999993,-0.001029887329799633,-0.00649178009501107,-0.001336652340003148,-0.010125727998090707,-0.004643468000011034
0.37,-4.643421280070773e-05,-0.7844560939999989,0.0004007380080011992,-2.3559016799999997,-0.00019649173600096354,1.570678919999999,0.7858876319999996,0.0399999872,0.0399999872,-9.815276599999992,-0.0011247539892919696,-0.006574584280011146,-0.0013601997600031696,-0.010110332258043588,-0.004726002500011109
0.3725,-5.1692070400712514e-05,-0.784448244499999,0.0004096470540012073,-2.3558982899999994,-0.00020365011550097005,1.570671659999999,0.7858848434999995,0.0399999866,0.0399999866,-9.815217799999992,-0.0012196206487843058,-0.006657388465011221,-0.001383747180003191,-0.010094936517996467,-0.0048085370000111845
0.375,-5.69499280007173e-05,-0.784440394999999,0.0004185561000012154,-2.3558948999999996,-0.0002108084950009766,1.570664399999999,0.7858820549999996,0.039999986,0.039999986,-9.815158999999992,-0.001314487308276642,-0.006740192650011296,-0.0014072946000032124,-0.010079540777949349,-0.00489107150001126
0.3775,-6.220778560072208e-05,-0.784432545499999,0.0004274651460012235,-2.3558915099999993,-0.0002179668745009831,1.570657139999999,0.7858792664999996,0.0399999854,0.0399999854,-9.815100199999993,-0.0014093539677689786,-0.006822996835011372,-0.001430842020003234,-0.01006414503790223,-0.004973606000011335
0.38,-6.746564320072687e-05,-0.7844246959999989,0.00043637419200123165,-2.3558881199999995,-0.00022512525400098963,1.5706498799999988,0.7858764779999996,0.0399999848,0.0399999848,-9.815041399999993,-0.001504220627261315,-0.006905801020011447,-0.0014543894400032553,-0.010048749297855111,-0.0050561405000114105
0.3825,-7.272350080073166e-05,-0.7844168464999989,0.00044528323800123974,-2.355884729999999,-0.00023228363350099614,1.570642619999999,0.7858736894999996,0.039999984200000005,0.039999984200000005,-9.814982599999992,-0.0015990872867536511,-0.006988605205011523,-0.0014779368600032767,-0.010033353557807993,-0.005138675000011485
0.385,-7.83761504008726e-05,-0.7844087409999988,0.00045486346800147905,-2.355880879999999,-0.00023998103400118837,1.5706348399999988,0.7858706969999995,0.039999984,0.039999984,-9.814941699999995,-0.001698752422832184,-0.007069162040011848,-0.0015024252200037229,-0.010015094559636702,-0.0052245690200130625
0.3875,-8.422619600095774e-05,-0.7844005074999987,0.00046477929000162337,-2.355876799999999,-0.0002479479450013043,1.5706267999999985,0.7858676024999994,0.039999984,0.039999984,-9.814909749999995,-0.0018008167972023094,-0.007148595200013004,-0.001527384050004086,-0.009995403932404225,-0.0053121428000143375
0.39,-9.007624160104287e-05,-0.7843922739999986,0.0004746951120017677,-2.3558727199999994,-0.00025591485600142024,1.5706187599999986,0.7858645079999994,0.039999984,0.039999984,-9.814877799999994,-0.0019028811715724348,-0.00722802836001416,-0.0015523428800044493,-0.00997571330517175,-0.005399716580015612
0.3925,-9.592628720112801e-05,-0.7843840404999984,0.000484610934001912,-2.3558686399999993,-0.00026388176700153617,1.5706107199999984,0.7858614134999994,0.039999984,0.039999984,-9.814845849999994,-0.00200494554594256,-0.007307461520015316,-0.0015773017100048127,-0.009956022677939273,-0.005487290360016886
0.395,-0.00010177633280121314,-0.7843758069999983,0.0004945267560020563,-2.355864559999999,-0.0002718486780016521,1.5706026799999984,0.7858583189999994,0.039999984,0.039999984,-9.814813899999994,-0.0021070099203126854,-0.007386894680016472,-0.0016022605400051759,-0.009936332050706796,-0.005574864140018161
0.3975,-0.00010762637840129827,-0.7843675734999981,0.0005044425780022006,-2.355860479999999,-0.00027981558900176803,1.5705946399999982,0.7858552244999993,0.039999984,0.039999984,-9.814781949999993,-0.002209074294682811,-0.0074663278400176275,-0.001627219370005539,-0.00991664142347432,-0.005662437920019435
0.4,-0.00011347642400153146,-0.784359339999998,0.0005143584000025967,-2.3558563999999986,-0.00028778250000208617,1.570586599999998,0.7858521299999992,0.039999984,0.039999984,-9.814749999999997,-0.002311138669058183,-0.00754576100002218,-0.001652178200006245,-0.009896950796240986,-0.005750011700021898
0.4025,-0.000119952595401449,-0.784350729999998,0.0005253388800024568,-2.3558513599999986,-0.00029660439450197385,1.570577719999998,0.7858487159999992,0.0399999834,0.0399999834,-9.814735899999997,-0.002435390919009016,-0.0076395551000209855,-0.0016785862850059088,-0.009873637929553498,-0.005842613795020719
0.405,-0.00012642876680136656,-0.7843421199999981,0.0005363193600023171,-2.355846319999999,-0.00030542628900186153,1.5705688399999982,0.7858453019999992,0.0399999828,0.0399999828,-9.814721799999997,-0.002559643168959849,-0.007733349200019792,-0.0017049943700055724,-0.009850325062866011,-0.0059352158900195405
0.40750000000000003,-0.0001329049382012841,-0.7843335099999983,0.0005472998400021772,-2.355841279999999,-0.0003142481835017492,1.5705599599999982,0.7858418879999993,0.0399999822,0.0399999822,-9.814707699999998,-0.002683895418910682,-0.007827143300018597,-0.0017314024550052363,-0.009827012196178523,-0.0060278179850183616
0.41000000000000003,-0.00013938110960120165,-0.7843248999999983,0.0005582803200020374,-2.355836239999999,-0.0003230700780016369,1.5705510799999984,0.7858384739999993,0.0399999816,0.0399999816,-9.814693599999996,-0.002808147668861515,-0.007920937400017404,-0.0017578105400049,-0.009803699329491034,-0.006120420080017183
0.41250000000000003,-0.00014585728100111918,-0.7843162899999985,0.0005692608000018977,-2.355831199999999,-0.0003318919725015246,1.5705421999999984,0.7858350599999994,0.039999981,0.039999981,-9.814679499999997,-0.002932399918812348,-0.00801473150001621,-0.001784218625004564,-0.009780386462803546,-0.006213022175016004
0.41500000000000004,-0.00015233345240103674,-0.7843076799999986,0.0005802412800017578,-2.355826159999999,-0.00034071386700141226,1.5705333199999987,0.7858316459999994,0.039999980399999996,0.039999980399999996,-9.814665399999997,-0.0030566521687631814,-0.008108525600015015,-0.0018106267100042276,-0.009757073596116059,-0.006305624270014825
0.4175,-0.0001590296025010838,-0.7842989059999986,0.0005915959200018382,-2.355820834999999,-0.0003498362070014768,1.5705241349999985,0.7858281114999994,0.03999997985,0.03999997985,-9.814639799999991,-0.0031836585374750113,-0.008201632500013932,-0.0018375305750042367,-0.009732023440296993,-0.006399895815014826
0.42,-0.0001661657100010903,-0.7842898039999986,0.0006036988800018492,-2.355814939999999,-0.00035955943800148563,1.5705143399999986,0.7858243359999993,0.039999979399999996,0.039999979399999996,-9.814591199999992,-0.003316173143705087,-0.008293365000014015,-0.001865426000004262,-0.009703498706217142,-0.006497506260014914
0.4225,-0.00017330181750109682,-0.7842807019999986,0.0006158018400018602,-2.355809044999999,-0.00036928266900149447,1.5705045449999986,0.7858205604999994,0.03999997895,0.03999997895,-9.814542599999992,-0.0034486877499351623,-0.008385097500014099,-0.0018933214250042875,-0.00967497397213729,-0.006595116705015003
0.425,-0.0001804379250011033,-0.7842715999999986,0.0006279048000018713,-2.355803149999999,-0.0003790059000015033,1.5704947499999986,0.7858167849999994,0.0399999785,0.0399999785,-9.814493999999993,-0.0035812023561652383,-0.008476830000014183,-0.001921216850004313,-0.00964644923805744,-0.006692727150015091
0.4275,-0.0001875740325011098,-0.7842624979999986,0.0006400077600018822,-2.355797254999999,-0.00038872913100151214,1.5704849549999986,0.7858130094999993,0.039999978049999996,0.039999978049999996,-9.814445399999993,-0.0037137169623953138,-0.008568562500014266,-0.0019491122750043383,-0.009617924503977589,-0.006790337595015181
0.43,-0.0001947101400011163,-0.7842533959999987,0.0006521107200018932,-2.355791359999999,-0.000398452362001521,1.5704751599999984,0.7858092339999994,0.0399999776,0.0399999776,-9.814396799999992,-0.0038462315686253893,-0.00866029500001435,-0.0019770077000043637,-0.009589399769897738,-0.006887948040015269
0.4325,-0.0002018462475011228,-0.7842442939999986,0.0006642136800019043,-2.355785464999999,-0.0004081755930015298,1.5704653649999984,0.7858054584999994,0.03999997715,0.03999997715,-9.814348199999992,-0.003978746174855465,-0.008752027500014433,-0.002004903125004389,-0.009560875035817887,-0.006985558485015358
0.435,-0.00020944475200123907,-0.7842348699999986,0.000677103177002102,-2.355778969999999,-0.0004185304080016886,1.5704549399999983,0.7858014399999993,0.0399999766,0.0399999766,-9.814316699999997,-0.004127945564712131,-0.00885135890001632,-0.0020337030500046293,-0.009529930818820852,-0.007086488790016235
0.4375,-0.0002172744550012462,-0.7842252849999986,0.0006903859425021141,-2.355772174999999,-0.00042920101500169833,1.5704441999999983,0.7857972999999994,0.039999976,0.039999976,-9.814293749999996,-0.004285487346376174,-0.008954489750016415,-0.002062955225004656,-0.009497776860366082,-0.0071890790250163285
0.44,-0.0002251041580012533,-0.7842156999999985,0.0007036687080021262,-2.355765379999999,-0.00043987162200170805,1.5704334599999983,0.7857931599999993,0.0399999754,0.0399999754,-9.814270799999996,-0.0044430291280402184,-0.00905762060001651,-0.0020922074000046826,-0.009465622901911313,-0.007291669260016422
0.4425,-0.00023293386100126044,-0.7842061149999985,0.0007169514735021383,-2.355758584999999,-0.00045054222900171777,1.5704227199999983,0.7857890199999993,0.0399999748,0.0399999748,-9.814247849999996,-0.004600570909704262,-0.009160751450016602,-0.0021214595750047092,-0.009433468943456544,-0.007394259495016516
0.445,-0.00024076356400126758,-0.7841965299999984,0.0007302342390021504,-2.355751789999999,-0.0004612128360017275,1.5704119799999983,0.7857848799999994,0.0399999742,0.0399999742,-9.814224899999996,-0.004758112691368305,-0.009263882300016697,-0.002150711750004736,-0.009401314985001774,-0.007496849730016609
0.4475,-0.0002485932670012747,-0.7841869449999985,0.0007435170045021625,-2.355744994999999,-0.0004718834430017372,1.5704012399999983,0.7857807399999993,0.0399999736,0.0399999736,-9.814201949999996,-0.004915654473032349,-0.00936701315001679,-0.0021799639250047625,-0.009369161026547005,-0.007599439965016702
0.45,-0.00025642297000140084,-0.7841773599999984,0.0007567997700023771,-2.3557381999999985,-0.0004825540500019095,1.570390499999998,0.7857765999999993,0.039999973,0.039999973,-9.814178999999996,-0.005073196254697949,-0.009470144000017095,-0.0022092161000050103,-0.009337007068091577,-0.007702030200017605
0.4525,-0.00026497969150140864,-0.7841672304999984,0.0007713194520023903,-2.3557304299999986,-0.0004942178220019201,1.570378739999998,0.7857721044999993,0.03999997255,0.03999997255,-9.814160099999997,-0.005240249400985891,-0.00957456815001719,-0.002239819580005038,-0.00930083678103379,-0.007809566070017703
0.455,-0.00027353641300141644,-0.7841571009999984,0.0007858391340024036,-2.3557226599999987,-0.0005058815940019308,1.570366979999998,0.7857676089999993,0.0399999721,0.0399999721,-9.814141199999996,-0.005407302547273833,-0.009678992300017286,-0.0022704230600050657,-0.009264666493976002,-0.0079171019400178
0.4575,-0.00028209313450142424,-0.7841469714999983,0.0008003588160024167,-2.3557148899999985,-0.0005175453660019414,1.570355219999998,0.7857631134999993,0.03999997165,0.03999997165,-9.814122299999996,-0.005574355693561775,-0.00978341645001738,-0.002301026540005094,-0.009228496206918214,-0.0080246378100179
0.46,-0.00029064985600143204,-0.7841368419999983,0.00081487849800243,-2.3557071199999986,-0.000529209138001952,1.5703434599999981,0.7857586179999992,0.039999971200000005,0.039999971200000005,-9.814103399999997,-0.0057414088398497175,-0.009887840600017477,-0.0023316300200051216,-0.009192325919860427,-0.008132173680017996
0.4625,-0.00029920657750143984,-0.7841267124999983,0.0008293981800024431,-2.3556993499999987,-0.0005408729100019626,1.570331699999998,0.7857541224999992,0.03999997075,0.03999997075,-9.814084499999996,-0.00590846198613766,-0.009992264750017571,-0.0023622335000051493,-0.009156155632802638,-0.008239709550018095
0.465,-0.0003077632990014476,-0.7841165829999983,0.0008439178620024564,-2.355691579999999,-0.0005525366820019733,1.570319939999998,0.7857496269999993,0.0399999703,0.0399999703,-9.814065599999996,-0.006075515132425602,-0.010096688900017666,-0.0023928369800051775,-0.00911998534574485,-0.008347245420018192
0.4675,-0.0003165734150015847,-0.7841062584999982,0.0008588687175026896,-2.3556835299999985,-0.0005645466600021605,1.5703078449999979,0.7857449834999991,0.03999997,0.03999997,-9.814041799999993,-0.006251336680758028,-0.010204279900019377,-0.002423957930005469,-0.009082495002069129,-0.008456415600019125
0.47000000000000003,-0.00032589032000159316,-0.7840955439999981,0.000874681920002704,-2.3556749199999985,-0.0005772490500021721,1.5702950799999977,0.7857400439999992,0.03999997,0.03999997,-9.814008199999995,-0.006444695033166024,-0.010318204600019481,-0.0024561138200054986,-0.009042364545159557,-0.008568854400019227
0.47250000000000003,-0.0003352072250016017,-0.7840848294999981,0.0008904951225027184,-2.355666309999999,-0.0005899514400021837,1.5702823149999978,0.7857351044999992,0.03999997,0.03999997,-9.813974599999995,-0.00663805338557402,-0.010432129300019584,-0.002488269710005528,-0.009002234088249985,-0.008681293200019329
0.47500000000000003,-0.00034452413000161014,-0.7840741149999981,0.0009063083250027328,-2.3556576999999987,-0.0006026538300021952,1.570269549999998,0.7857301649999991,0.03999997,0.03999997,-9.813940999999994,-0.006831411737982016,-0.010546054000019688,-0.002520425600005557,-0.008962103631340415,-0.008793732000019431
0.47750000000000004,-0.0003538410350016186,-0.7840634004999981,0.0009221215275027471,-2.3556490899999987,-0.0006153562200022067,1.5702567849999978,0.7857252254999991,0.03999997,0.03999997,-9.813907399999994,-0.007024770090390012,-0.010659978700019793,-0.0025525814900055864,-0.008921973174430843,-0.008906170800019535
0.48,-0.0003631579400016269,-0.7840526859999981,0.0009379347300027612,-2.3556404799999986,-0.000628058610002218,1.5702440199999979,0.7857202859999991,0.03999997,0.03999997,-9.813873799999994,-0.007218128442798004,-0.010773903400019894,-0.002584737380005615,-0.008881842717521272,-0.009018609600019633
0.4825,-0.00037247484500163537,-0.7840419714999981,0.0009537479325027756,-2.3556318699999985,-0.0006407610000022297,1.5702312549999977,0.7857153464999991,0.03999997,0.03999997,-9.813840199999994,-0.007411486795206,-0.010887828100019996,-0.002616893270005644,-0.0088417122606117,-0.009131048400019737
0.485,-0.00038232045600178376,-0.784030814999998,0.0009704609000030281,-2.3556225999999985,-0.0006541857670024323,1.5702177599999976,0.785710149999999,0.039999969600000004,0.039999969600000004,-9.813823499999998,-0.007612414192444409,-0.011005215900021017,-0.0026497769800058663,-0.008799171075217101,-0.009246725600020695
0.4875,-0.000392430420001793,-0.784019437499998,0.0009876237500030438,-2.355612999999998,-0.0006679717225024449,1.5702038999999977,0.785704824999999,0.039999969,0.039999969,-9.81381525,-0.00781712611209503,-0.011124335250021124,-0.0026830246000058965,-0.008755424525580941,-0.009364022000020802
0.49,-0.0004025403840018022,-0.784008059999998,0.0010047866000030593,-2.3556033999999983,-0.0006817576780024575,1.5701900399999975,0.785699499999999,0.0399999684,0.0399999684,-9.813806999999999,-0.008021838031745651,-0.011243454600021234,-0.0027162722200059267,-0.00871167797594478,-0.00948131840002091
0.4925,-0.00041265034800181137,-0.783996682499998,0.001021949450003075,-2.355593799999998,-0.0006955436335024701,1.5701761799999976,0.785694174999999,0.0399999678,0.0399999678,-9.813798749999998,-0.008226549951396272,-0.011362573950021342,-0.002749519840005957,-0.008667931426308622,-0.009598614800021017
0.495,-0.0004227603120018206,-0.783985304999998,0.0010391123000030905,-2.3555841999999982,-0.0007093295890024826,1.5701623199999974,0.785688849999999,0.0399999672,0.0399999672,-9.8137905,-0.008431261871046893,-0.011481693300021452,-0.0027827674600059875,-0.008624184876672462,-0.009715911200021124
0.4975,-0.0004328702760018298,-0.783973927499998,0.0010562751500031063,-2.355574599999998,-0.0007231155445024952,1.5701484599999975,0.785683524999999,0.0399999666,0.0399999666,-9.81378225,-0.008635973790697514,-0.01160081265002156,-0.0028160150800060177,-0.008580438327036304,-0.00983320760002123
0.5,-0.0004429802400019892,-0.7839625499999978,0.0010734380000033774,-2.355564999999998,-0.0007369015000027129,1.5701345999999974,0.785678199999999,0.039999966,0.039999966,-9.813773999999999,-0.008840685710353385,-0.011719932000024361,-0.0028492627000063354,-0.008536691777399557,-0.00995050400002221
0.5025000000000001,-0.0004539157815018502,-0.783950488499998,0.0010920060500031414,-2.355554424999998,-0.0007518156175025234,1.5701196149999974,0.785672415999999,0.0399999666,0.0399999666,-9.813760649999997,-0.009074251633176936,-0.01185385515002266,-0.0028840897900058926,-0.00848972364328004,-0.010072603400020658
0.505,-0.00046485132300171073,-0.7839384269999982,0.0011105741000029046,-2.3555438499999983,-0.0007667297350023332,1.5701046299999977,0.7856666319999991,0.0399999672,0.0399999672,-9.813747299999998,-0.009307817556000478,-0.01198777830002095,-0.0029189168800054484,-0.008442755509160522,-0.010194702800019101
0.5075000000000001,-0.00047578686450157174,-0.7839263654999983,0.0011291421500026686,-2.355533274999998,-0.0007816438525021436,1.570089644999998,0.7856608479999991,0.0399999678,0.0399999678,-9.813733949999998,-0.00954138347882403,-0.01212170145001925,-0.0029537439700050056,-0.008395787375041005,-0.01031680220001755
0.51,-0.00048672240600143227,-0.7839143039999984,0.0011477102000024319,-2.3555226999999985,-0.0007965579700019534,1.570074659999998,0.7856550639999992,0.0399999684,0.0399999684,-9.813720599999998,-0.00977494940164757,-0.01225562460001754,-0.0029885710600045614,-0.00834881924092149,-0.010438901600015992
0.5125,-0.0004976579475012928,-0.7839022424999986,0.001166278250002195,-2.3555121249999984,-0.0008114720875017631,1.5700596749999982,0.7856492799999993,0.039999969,0.039999969,-9.813707249999998,-0.01000851532447111,-0.012389547750015833,-0.003023398150004117,-0.008301851106801972,-0.010561001000014433
0.515,-0.0005085934890011538,-0.7838901809999987,0.0011848463000019589,-2.3555015499999987,-0.0008263862050015736,1.5700446899999982,0.7856434959999994,0.039999969600000004,0.039999969600000004,-9.813693899999999,-0.010242081247294662,-0.012523470900014131,-0.0030582252400036744,-0.008254882972682455,-0.010683100400012881
0.5175,-0.0005198149375012012,-0.7838778814999987,0.0012039010500020397,-2.3554906149999986,-0.0008416911095016383,1.5700293099999982,0.7856375629999993,0.03999997,0.03999997015,-9.813678549999997,-0.010481734853263423,-0.012659215500014196,-0.003093451665003669,-0.008206741511816528,-0.010806824350012931
0.52,-0.000531608200001373,-0.7838651059999985,0.0012239292000023317,-2.3554789599999983,-0.0008577775880018729,1.5700131399999981,0.7856313319999992,0.03999997,0.039999970600000004,-9.813659199999998,-0.010733563825517317,-0.012798603000016229,-0.003129476760004194,-0.008156253397458802,-0.010933797400014782
0.5225,-0.0005434014625015444,-0.7838523304999984,0.0012439573500026228,-2.3554673049999986,-0.0008738640665021066,1.5699969699999978,0.7856251009999992,0.03999997,0.03999997105,-9.813639849999998,-0.010985392797771202,-0.012937990500018254,-0.0031655018550047175,-0.008105765283101078,-0.011060770450016627
0.525,-0.0005551947250017163,-0.7838395549999981,0.0012639855000029145,-2.3554556499999983,-0.000889950545002341,1.5699807999999975,0.7856188699999991,0.03999997,0.0399999715,-9.813620499999997,-0.011237221770025098,-0.013077378000020285,-0.0032015269500052426,-0.008055277168743352,-0.011187743500018478
0.5275,-0.0005669879875018877,-0.783826779499998,0.0012840136500032056,-2.355443994999998,-0.0009060370235025748,1.5699646299999974,0.785612638999999,0.03999997,0.039999971950000004,-9.813601149999997,-0.011489050742278982,-0.01321676550002231,-0.003237552045005766,-0.00800478905438563,-0.011314716550020323
0.53,-0.0005787812500020595,-0.7838140039999978,0.0013040418000034976,-2.355432339999998,-0.0009221235020028093,1.569948459999997,0.7856064079999989,0.03999997,0.0399999724,-9.813581799999996,-0.011740879714532877,-0.013356153000024342,-0.003273577140006291,-0.007954300940027904,-0.011441689600022174
0.5325,-0.0005905745125022309,-0.7838012284999977,0.0013240699500037887,-2.3554206849999977,-0.0009382099805030431,1.569932289999997,0.7856001769999987,0.03999997,0.03999997285,-9.813562449999996,-0.01199270868678676,-0.013495540500026368,-0.0033096022350068144,-0.00790381282567018,-0.011568662650024018
0.535,-0.0006029608200024686,-0.7837879569999974,0.0013451077400041932,-2.3554083299999977,-0.0009551068660033678,1.5699153099999967,0.7855936239999987,0.039999969600000004,0.0399999723,-9.813545099999997,-0.012253648415259466,-0.01363862390002821,-0.0033465058100072683,-0.007850946439419549,-0.011698587200025576
0.5375,-0.0006156436500024799,-0.7837744374999974,0.0013666503500042123,-2.3553956249999977,-0.0009724089550033831,1.5698979249999967,0.7855869099999987,0.039999969,0.03999997125,-9.813528749999996,-0.012519143521837587,-0.01378355525002834,-0.0033838486250073016,-0.007796890917223506,-0.011829987500025693
0.54,-0.0006283264800024918,-0.7837609179999974,0.0013881929600042325,-2.3553829199999976,-0.0009897110440033993,1.5698805399999967,0.7855801959999986,0.0399999684,0.0399999702,-9.813512399999997,-0.01278463862841572,-0.013928486600028473,-0.0034211914400073366,-0.00774283539502746,-0.011961387800025815
0.5425,-0.000641009310002503,-0.7837473984999973,0.0014097355700042515,-2.3553702149999975,-0.0010070131330034147,1.5698631549999966,0.7855734819999987,0.0399999678,0.03999996915,-9.813496049999998,-0.013050133734993842,-0.014073417950028602,-0.0034585342550073695,-0.007688779872831417,-0.012092788100025932
0.545,-0.0006536921400025149,-0.7837338789999974,0.0014312781800042715,-2.3553575099999975,-0.0010243152220034309,1.5698457699999966,0.7855667679999987,0.0399999672,0.0399999681,-9.813479699999997,-0.013315628841571975,-0.014218349300028738,-0.0034958770700074045,-0.007634724350635372,-0.012224188400026054
0.5475,-0.0006663749700025261,-0.7837203594999973,0.0014528207900042908,-2.3553448049999974,-0.0010416173110034462,1.5698283849999966,0.7855600539999986,0.0399999666,0.03999996705,-9.813463349999997,-0.013581123948150095,-0.014363280650028867,-0.0035332198850074378,-0.007580668828439329,-0.012355588700026171
0.55,-0.0006790578000027222,-0.7837068399999971,0.0014743634000046245,-2.3553320999999974,-0.0010589194000037144,1.5698109999999963,0.7855533399999985,0.039999966,0.039999966,-9.813446999999998,-0.013846619054735384,-0.014508212000032172,-0.0035705627000077174,-0.007526613306242645,-0.01248698900002727
0.5525,-0.0006926615310027343,-0.7836925179999972,0.001497473840004645,-2.355318329999997,-0.0010774802800037307,1.5697923699999963,0.7855461489999985,0.039999966,0.0399999666,-9.813436499999998,-0.014147873874814256,-0.014668982900032313,-0.0036091296500077516,-0.007469368888984994,-0.012623262950027392
0.555,-0.000706265262002747,-0.7836781959999971,0.0015205842800046665,-2.3553045599999973,-0.001096041160003748,1.5697737399999963,0.7855389579999985,0.039999966,0.0399999672,-9.813425999999998,-0.014449128694893142,-0.014829753800032463,-0.0036476966000077876,-0.007412124471727341,-0.012759536900027518
0.5575,-0.000719868993002759,-0.783663873999997,0.0015436947200046871,-2.3552907899999975,-0.0011146020400037645,1.5697551099999962,0.7855317669999985,0.039999966,0.0399999678,-9.813415499999998,-0.014750383514972014,-0.014990524700032606,-0.003686263550007822,-0.00735488005446969,-0.01289581085002764
0.56,-0.0007334727240027717,-0.7836495519999971,0.0015668051600047088,-2.3552770199999973,-0.0011331629200037818,1.5697364799999962,0.7855245759999986,0.039999966,0.0399999684,-9.813404999999998,-0.0150516383350509,-0.015151295600032757,-0.0037248305000078578,-0.007297635637212037,-0.013032084800027766
0.5625,-0.0007470764550027838,-0.783635229999997,0.0015899156000047294,-2.3552632499999975,-0.0011517238000037983,1.5697178499999962,0.7855173849999986,0.039999966,0.039999969,-9.813394499999998,-0.015352893155129773,-0.0153120665000329,-0.003763397450007892,-0.007240391219954386,-0.013168358750027887
0.5650000000000001,-0.0007606801860027965,-0.7836209079999971,0.0016130260400047509,-2.3552494799999972,-0.0011702846800038156,1.5696992199999962,0.7855101939999986,0.039999966,0.039999969600000004,-9.813383999999997,-0.015654147975208657,-0.015472837400033048,-0.003801964400007928,-0.0071831468026967325,-0.013304632700028013
0.5675,-0.000774601175503005,-0.7836062969999968,0.001636676730005106,-2.355235344999997,-0.0011892792300041007,1.5696801449999958,0.7855028349999984,0.0399999657,0.0399999698,-9.813372849999997,-0.01595907332382088,-0.015635105200034118,-0.003840978215008239,-0.007124813180404327,-0.013442379850029048
0.5700000000000001,-0.0007891566820030187,-0.7835911079999969,0.001661407920005129,-2.355220479999997,-0.0012091411200041192,1.5696601799999959,0.7854951399999984,0.039999964799999996,0.0399999692,-9.813360399999997,-0.016271339729493,-0.01580036680003427,-0.003880885760008276,-0.00706430114804443,-0.01358307340002918
0.5725,-0.0008037121885030316,-0.7835759189999968,0.001686139110005151,-2.355205614999997,-0.0012290030100041368,1.5696402149999957,0.7854874449999985,0.0399999639,0.0399999686,-9.813347949999997,-0.01658360613516511,-0.01596562840003442,-0.003920793305008312,-0.0070037891156845365,-0.013723766950029304
0.5750000000000001,-0.0008182676950030451,-0.7835607299999968,0.001710870300005174,-2.3551907499999967,-0.0012488649000041553,1.5696202499999958,0.7854797499999984,0.039999963,0.039999968,-9.813335499999997,-0.01689587254083723,-0.016130890000034575,-0.003960700850008349,-0.00694327708332464,-0.013864460500029435
0.5775,-0.0008328232015030581,-0.7835455409999968,0.001735601490005196,-2.355175884999997,-0.001268726790004173,1.5696002849999957,0.7854720549999984,0.0399999621,0.0399999674,-9.813323049999997,-0.017208138946509337,-0.01629615160003472,-0.004000608395008385,-0.006882765050964746,-0.01400515405002956
0.58,-0.0008473787080030711,-0.7835303519999968,0.001760332680005218,-2.3551610199999966,-0.0012885886800041906,1.5695803199999958,0.7854643599999984,0.0399999612,0.0399999668,-9.813310599999998,-0.017520405352181447,-0.01646141320003487,-0.00404051594000842,-0.006822253018604852,-0.014145847600029685
0.5825,-0.0008619342145030846,-0.7835151629999968,0.0017850638700052412,-2.355146154999997,-0.001308450570004209,1.5695603549999957,0.7854566649999984,0.0399999603,0.0399999662,-9.813298149999998,-0.017832671757853566,-0.016626674800035022,-0.004080423485008457,-0.006761740986244956,-0.014286541150029815
0.585,-0.0008771445550033066,-0.7834993899999966,0.001810910210005619,-2.3551305199999963,-0.0013292076300045125,1.5695395299999955,0.7854486099999983,0.03999996,0.039999966,-9.8132896,-0.018169496767297105,-0.016804526900039186,-0.0041211320500087485,-0.0066993888467415455,-0.014430217700030893
0.5875,-0.0008926823125033211,-0.7834833249999965,0.0018373141250056437,-2.3551144999999964,-0.0013504122750045322,1.5695182749999954,0.7854403749999983,0.03999996,0.039999966,-9.813282999999998,-0.018518601078614645,-0.01698867425003936,-0.004162241125008787,-0.0066361166536672515,-0.014575385750031028
0.59,-0.0009082200700033349,-0.7834672599999966,0.001863718040005667,-2.3550984799999966,-0.001371616920004551,1.5694970199999954,0.7854321399999983,0.03999996,0.039999966,-9.8132764,-0.01886770538993217,-0.017172821600039523,-0.004203350200008823,-0.00657284446059296,-0.014720553800031157
0.5925,-0.0009237578275033494,-0.7834511949999965,0.0018901219550056917,-2.3550824599999967,-0.001392821565004571,1.5694757649999953,0.7854239049999983,0.03999996,0.039999966,-9.813269799999999,-0.01921680970124971,-0.017356968950039693,-0.004244459275008861,-0.006509572267518666,-0.014865721850031292
0.595,-0.0009392955850033632,-0.7834351299999965,0.0019165258700057151,-2.3550664399999963,-0.0014140262100045898,1.5694545099999955,0.7854156699999982,0.03999996,0.039999966,-9.813263199999998,-0.019565914012567232,-0.01754111630003986,-0.004285568350008898,-0.006446300074444375,-0.01501088990003142
0.5975,-0.0009548333425033776,-0.7834190649999965,0.0019429297850057398,-2.3550504199999964,-0.0014352308550046094,1.5694332549999954,0.7854074349999982,0.03999996,0.039999966,-9.813256599999999,-0.019915018323884773,-0.01772526365004003,-0.004326677425008936,-0.0063830278813700805,-0.015156057950031556
0.6,-0.0009703711000036123,-0.7834029999999963,0.0019693337000061396,-2.3550343999999965,-0.0014564355000049303,1.5694119999999951,0.7853991999999981,0.03999996,0.039999966,-9.813249999999998,-0.020264122635204926,-0.017909411000041165,-0.004367786500009217,-0.006319755688295066,-0.015301226000032645
0.6025,-0.0009869211400036278,-0.7833860274999962,0.0019974614900061657,-2.3550172399999965,-0.0014790240750049515,1.5693893499999951,0.785390439999998,0.03999996,0.039999966,-9.813238149999998,-0.020625261403699382,-0.01809800780004134,-0.004410015085009256,-0.006253167684175314,-0.015450792650032784
0.605,-0.0010034711800036426,-0.7833690549999962,0.0020255892800061905,-2.3550000799999964,-0.0015016126500049715,1.5693666999999951,0.7853816799999981,0.03999996,0.039999966,-9.813226299999998,-0.020986400172193824,-0.018286604600041508,-0.004452243670009294,-0.006186579680055565,-0.015600359300032918
0.6075,-0.001020021220003658,-0.7833520824999962,0.002053717070006217,-2.3549829199999963,-0.0015242012250049925,1.569344049999995,0.785372919999998,0.03999996,0.039999966,-9.813214449999998,-0.02134753894068828,-0.018475201400041684,-0.004494472255009333,-0.0061199916759358125,-0.015749925950033057
0.61,-0.0010365712600036727,-0.7833351099999962,0.002081844860006242,-2.3549657599999962,-0.0015467898000050126,1.569321399999995,0.785364159999998,0.03999996,0.039999966,-9.813202599999999,-0.02170867770918272,-0.018663798200041853,-0.004536700840009371,-0.0060534036718160635,-0.01589949260003319
0.6125,-0.001053121300003688,-0.7833181374999961,0.0021099726500062683,-2.354948599999996,-0.0015693783750050337,1.569298749999995,0.785355399999998,0.03999996,0.039999966,-9.813190749999999,-0.022069816477677178,-0.018852395000042026,-0.00457892942500941,-0.005986815667696311,-0.01604905925003333
0.615,-0.0010696713400037028,-0.7833011649999961,0.002138100440006293,-2.354931439999996,-0.0015919669500050538,1.5692760999999948,0.785346639999998,0.03999996,0.039999966,-9.813178899999999,-0.022430955246171617,-0.019040991800042196,-0.004621158010009448,-0.005920227663576562,-0.016198625900033462
0.6175,-0.0010865686050039523,-0.783283892499996,0.002166819660006718,-2.354913869999996,-0.0016150302700053947,1.5692529699999946,0.7853376999999979,0.03999996,0.039999966,-9.81316975,-0.02280562436217147,-0.01923494080004598,-0.004663793210009762,-0.005852767988092507,-0.016349678150034602
0.62,-0.0011041603200039678,-0.7832660199999959,0.0021967217400067447,-2.3548954799999957,-0.001639043080005416,1.5692288799999945,0.7853283999999979,0.03999996,0.039999966,-9.813165999999999,-0.02320735417315477,-0.01943959420004616,-0.0047072416400098,-0.0057835649698816105,-0.01650370160003474
0.6225,-0.0011217520350039843,-0.7832481474999959,0.002226623820006772,-2.3548770899999956,-0.0016630558900054384,1.5692047899999946,0.7853190999999978,0.03999996,0.039999966,-9.81316225,-0.02360908398413809,-0.019644247600046353,-0.004750690070009841,-0.005714361951670711,-0.016657725050034884
0.625,-0.001139343750004,-0.7832302749999959,0.002256525900006799,-2.354858699999996,-0.0016870687000054597,1.5691806999999944,0.7853097999999978,0.03999996,0.039999966,-9.8131585,-0.02401081379512139,-0.019848901000046534,-0.004794138500009879,-0.005645158933459815,-0.01681174850003502
0.6275000000000001,-0.0011569354650040164,-0.7832124024999959,0.0022864279800068267,-2.3548403099999957,-0.0017110815100054822,1.5691566099999945,0.7853004999999978,0.03999996,0.039999966,-9.813154749999999,-0.024412543606104713,-0.020053554400046723,-0.004837586930009919,-0.005575955915248915,-0.016965771950035163
0.63,-0.001174527180004032,-0.783194529999996,0.0023163300600068533,-2.3548219199999956,-0.0017350943200055036,1.5691325199999944,0.7852911999999979,0.03999996,0.039999966,-9.813151,-0.024814273417088015,-0.020258207800046907,-0.004881035360009958,-0.005506752897038019,-0.0171197954000353
0.6325000000000001,-0.0011921188950040483,-0.7831766574999959,0.0023462321400068813,-2.3548035299999954,-0.0017591071300055259,1.5691084299999944,0.7852818999999979,0.03999996,0.039999966,-9.813147249999998,-0.025216003228071333,-0.020462861200047096,-0.004924483790009999,-0.0054375498788271194,-0.017273818850035445
0.635,-0.0012104243500043112,-0.7831580639999957,0.002377349910007329,-2.354784359999995,-0.0017840957400058854,1.569083359999994,0.7852722199999977,0.03999996,0.039999966399999996,-9.813134899999996,-0.025625776685869864,-0.020670246900048227,-0.004968780540010331,-0.005366170685721499,-0.017430656600036558
0.6375000000000001,-0.0012290866750043288,-0.7831391099999956,0.0024090755250073584,-2.3547647999999954,-0.0018095722500059092,1.569057799999994,0.7852623499999978,0.03999996,0.039999967,-9.813118249999995,-0.026039571967071854,-0.02087899875004842,-0.005013501450010373,-0.005293703405169641,-0.017588901500036704
0.64,-0.0012477490000043453,-0.7831201559999956,0.002440801140007387,-2.3547452399999953,-0.0018350487600059318,1.569032239999994,0.7852524799999978,0.03999996,0.0399999676,-9.813101599999996,-0.026453367248273827,-0.021087750600048607,-0.005058222360010412,-0.005221236124617787,-0.017747146400036846
0.6425,-0.0012664113250043618,-0.7831012019999956,0.002472526755007415,-2.3547256799999956,-0.0018605252700059545,1.569006679999994,0.7852426099999977,0.03999996,0.0399999682,-9.813084949999995,-0.0268671625294758,-0.021296502450048792,-0.005102943270010452,-0.005148768844065932,-0.017905391300036985
0.645,-0.0012850736500043792,-0.7830822479999956,0.0025042523700074446,-2.3547061199999955,-0.0018860017800059782,1.568981119999994,0.7852327399999978,0.03999996,0.0399999688,-9.813068299999996,-0.02728095781067779,-0.021505254300048987,-0.005147664180010494,-0.005076301563514075,-0.018063636200037134
0.6475,-0.0013037359750043957,-0.7830632939999955,0.0025359779850074727,-2.3546865599999953,-0.0019114782900060009,1.5689555599999938,0.7852228699999977,0.03999996,0.0399999694,-9.813051649999995,-0.027694753091879763,-0.021714006150049172,-0.005192385090010534,-0.005003834282962221,-0.018221881100037272
0.65,-0.001322398300004673,-0.7830443399999953,0.002567703600007945,-2.354666999999995,-0.00193695480000638,1.5689299999999935,0.7852129999999976,0.03999996,0.03999997,-9.813035000000001,-0.028108548373091367,-0.02192275800005628,-0.005237106000010821,-0.004931367002409895,-0.018380126000038403
0.6525,-0.0013421597500049602,-0.783024428999995,0.0026013015900084335,-2.3546462549999947,-0.001963934130006772,1.5689029699999932,0.7852025449999974,0.03999996,0.039999970450000005,-9.813041750000002,-0.02856299225252349,-0.022160735850059735,-0.005282864655011486,-0.0048569200560262885,-0.018542524850040765
0.655,-0.0013619212000052484,-0.7830045179999947,0.002634899580008923,-2.3546255099999946,-0.001990913460007165,1.5688759399999928,0.7851920899999972,0.03999996,0.0399999709,-9.8130485,-0.029017436131955635,-0.022398713700063203,-0.0053286233100121524,-0.004782473109642678,-0.01870492370004313
0.6575,-0.0013816826500055355,-0.7829846069999944,0.0026684975700094113,-2.354604764999994,-0.002017892790007557,1.5688489099999925,0.785181634999997,0.03999996,0.03999997135,-9.813055250000001,-0.029471880011387758,-0.02263669155006666,-0.005374381965012817,-0.004708026163259072,-0.01886732255004549
0.66,-0.0014014441000058235,-0.7829646959999942,0.0027020955600099007,-2.3545840199999937,-0.0020448721200079503,1.568821879999992,0.785171179999997,0.03999996,0.0399999718,-9.813062000000002,-0.0299263238908199,-0.02287466940007013,-0.0054201406200134845,-0.004633579216875462,-0.019029721400047855
0.6625,-0.0014212055500061106,-0.7829447849999939,0.002735693550010389,-2.3545632749999936,-0.0020718514500083426,1.5687948499999915,0.7851607249999968,0.03999996,0.03999997225,-9.813068750000001,-0.030380767770252025,-0.023112647250073587,-0.005465899275014149,-0.004559132270491855,-0.019192120250050217
0.665,-0.0014409670000063986,-0.7829248739999936,0.002769291540010879,-2.354542529999993,-0.002098830780008736,1.5687678199999913,0.7851502699999966,0.03999996,0.039999972700000004,-9.813075500000002,-0.03083521164968417,-0.023350625100077054,-0.0055116579300148166,-0.004484685324108245,-0.019354519100052585
0.6675,-0.0014611041150068772,-0.7829045949999931,0.0028035294900116935,-2.3545213649999925,-0.0021263238000093897,1.5687402749999906,0.7851396199999964,0.03999996,0.039999973200000004,-9.8130794,-0.031294620596026855,-0.02358762330007738,-0.005557802265015446,-0.004409310198363474,-0.019518277000054807
0.67,-0.0014819925600066117,-0.7828835799999934,0.002839047360011242,-2.354499359999993,-0.002154844200009027,1.5687116999999908,0.7851285799999965,0.03999996,0.0399999738,-9.813077599999998,-0.0317639596761758,-0.023822662200074392,-0.00560471796001485,-0.004332078713899155,-0.019684753000052693
0.6725,-0.0015028810050063453,-0.7828625649999936,0.002874565230010789,-2.354477354999993,-0.0021833646000086636,1.5686831249999913,0.7851175399999967,0.03999996,0.0399999744,-9.813075799999998,-0.03223329875632472,-0.024057701100071396,-0.005651633655014252,-0.00425484722943484,-0.01985122900005057
0.675,-0.0015237694500060798,-0.7828415499999939,0.0029100831000103376,-2.3544553499999936,-0.002211885000008301,1.5686545499999918,0.7851064999999968,0.03999996,0.039999975,-9.813073999999999,-0.032702637836473654,-0.024292740000068407,-0.005698549350013655,-0.004177615744970521,-0.020017705000048455
0.6775,-0.0015446578950058134,-0.7828205349999942,0.0029456009700098845,-2.354433344999994,-0.0022404054000079374,1.568625974999992,0.7850954599999969,0.03999996,0.0399999756,-9.813072199999999,-0.033171976916622575,-0.02452777890006541,-0.005745465045013057,-0.004100384260506206,-0.02018418100004633
0.68,-0.001565546340005548,-0.7827995199999944,0.002981118840009433,-2.354411339999994,-0.0022689258000075747,1.5685973999999925,0.785084419999997,0.03999996,0.0399999762,-9.813070399999999,-0.03364131599677152,-0.024762817800062422,-0.005792380740012461,-0.004023152776041887,-0.020350657000044216
0.6825,-0.0015864347850052815,-0.7827785049999947,0.00301663671000898,-2.3543893349999947,-0.002297446200007211,1.5685688249999927,0.7850733799999972,0.03999996,0.039999976799999996,-9.8130686,-0.03411065507692043,-0.024997856700059426,-0.005839296435011862,-0.003945921291577573,-0.02051713300004209
0.685,-0.001608092750005293,-0.7827568299999946,0.0030534656000090012,-2.3543664799999946,-0.0023270183300072274,1.5685391799999928,0.7850619339999972,0.03999996,0.0399999793,-9.813068399999999,-0.034609476849560075,-0.0252513915000631,-0.005886955100011534,-0.003867278294618666,-0.020686582200041048
0.6875,-0.0016301354750050119,-0.7827348249999949,0.003090950000008523,-2.354343199999995,-0.0023571163250068437,1.568508999999993,0.7850502849999973,0.03999996,0.03999998275,-9.813069,-0.03512303996842855,-0.025514174250059748,-0.005934985250010921,-0.0037879295414132578,-0.020857518000038867
0.6900000000000001,-0.0016521782000047318,-0.7827128199999952,0.0031284344000080465,-2.354319919999995,-0.002387214320006461,1.5684788199999935,0.7850386359999975,0.03999996,0.039999986200000004,-9.8130696,-0.03563660308729705,-0.02577695700005641,-0.005983015400010311,-0.003708580788207846,-0.021028453800036692
0.6925,-0.0016742209250044508,-0.7826908149999955,0.003165918800007568,-2.3542966399999954,-0.0024173123150060772,1.568448639999994,0.7850269869999976,0.03999996,0.03999998965,-9.8130702,-0.03615016620616552,-0.026039739750053057,-0.006031045550009698,-0.0036292320350024385,-0.021199389600034514
0.6950000000000001,-0.0016962636500041704,-0.7826688099999959,0.003203403200007092,-2.3542733599999957,-0.0024474103100056944,1.5684184599999942,0.7850153379999978,0.03999996,0.0399999931,-9.8130708,-0.03666372932503402,-0.02630252250004972,-0.006079075700009088,-0.003549883281797027,-0.02137032540003234
0.6975,-0.0017183063750038894,-0.7826468049999962,0.003240887600006614,-2.354250079999996,-0.0024775083050053107,1.5683882799999946,0.785003688999998,0.03999996,0.03999999655,-9.8130714,-0.03717729244390249,-0.026565305250046366,-0.006127105850008475,-0.003470534528591619,-0.02154126120003016
0.7000000000000001,-0.0017403491000038025,-0.7826247999999962,0.003278372000006467,-2.354226799999996,-0.0025076063000051925,1.5683580999999949,0.784992039999998,0.03999996,0.04,-9.813071999999998,-0.037690855562772727,-0.02682808800004262,-0.006175136000008035,-0.003391185775385765,-0.021712197000028525
0.7025,-0.00176357292500414,-0.7826016489999958,0.003317868695007041,-2.354202304999996,-0.002539317695005653,1.5683262699999942,0.7849797549999978,0.03999996,0.04,-9.8130657,-0.03821505531678005,-0.0270883785000464,-0.006224206340008748,-0.0033091331948379727,-0.021886405350031054
0.705,-0.0017867967500044776,-0.7825784979999956,0.003357365390007615,-2.3541778099999955,-0.002571029090006114,1.5682944399999939,0.7849674699999977,0.03999996,0.04,-9.813059399999998,-0.038739255070787376,-0.027348669000050185,-0.006273276680009461,-0.0032270806142901806,-0.022060613700033586
0.7075,-0.001810020575004816,-0.7825553469999952,0.00339686208500819,-2.354153314999995,-0.0026027404850065762,1.5682626099999935,0.7849551849999975,0.03999996,0.04,-9.813053099999998,-0.03926345482479472,-0.027608959500053976,-0.006322347020010176,-0.0031450280337423846,-0.022234822050036126
0.71,-0.0018332444000051535,-0.7825321959999949,0.003436358780008764,-2.354128819999995,-0.0026344518800070368,1.5682307799999928,0.7849428999999973,0.03999996,0.04,-9.813046799999999,-0.03978765457880204,-0.02786925000005776,-0.006371417360010889,-0.003062975453194592,-0.02240903040003866
0.7125,-0.001856468225005492,-0.7825090449999945,0.00347585547500934,-2.3541043249999944,-0.002666163275007499,1.5681989499999924,0.7849306149999972,0.03999996,0.04,-9.813040499999998,-0.040311854332809385,-0.028129540500061553,-0.006420487700011604,-0.0029809228726467964,-0.022583238750041198
0.715,-0.0018796920500058294,-0.7824858939999941,0.003515352170009914,-2.354079829999994,-0.00269787467000796,1.568167119999992,0.784918329999997,0.03999996,0.04,-9.813034199999999,-0.04083605408681671,-0.028389831000065334,-0.006469558040012317,-0.0028988702920990043,-0.02275744710004373
0.7175,-0.0019033183050063776,-0.7824623599999936,0.003555534535010847,-2.3540549049999933,-0.002730136255008709,1.5681347449999912,0.7849058279999966,0.03999996,0.04,-9.813031800000001,-0.04137590080514552,-0.028659820500075543,-0.006518960220013068,-0.0028162417118218,-0.022932920700046468
0.72,-0.001927749420006399,-0.7824380599999936,0.003597088240010884,-2.354029119999993,-0.0027634982200087383,1.5681012799999912,0.7848928919999967,0.03999996,0.04,-9.8130372,-0.04194704145208054,-0.028949208000075798,-0.006569026080013114,-0.0027324611320871358,-0.023110924800046624
0.7225,-0.001952180535006422,-0.7824137599999936,0.0036386419450109226,-2.354003334999993,-0.0027968601850087696,1.5680678149999911,0.7848799559999966,0.03999996,0.04,-9.813042600000001,-0.042518182099015575,-0.029238595500076067,-0.00661909194001316,-0.0026486805523524676,-0.02328892890004679
0.725,-0.0019766116500064437,-0.7823894599999935,0.00368019565001096,-2.353977549999993,-0.002830222150008799,1.5680343499999911,0.7848670199999966,0.03999996,0.04,-9.813048,-0.043089322745950585,-0.029527983000076325,-0.006669157800013204,-0.002564899972617803,-0.023466933000046947
0.7275,-0.0020010427650064663,-0.7823651599999936,0.0037217493550109984,-2.353951764999993,-0.0028635841150088303,1.5680008849999911,0.7848540839999966,0.03999996,0.04,-9.813053400000001,-0.04366046339288562,-0.029817370500076594,-0.006719223660013251,-0.0024811193928831353,-0.023644937100047114
0.73,-0.002025473880006488,-0.7823408599999935,0.003763303060011035,-2.353925979999993,-0.00289694608000886,1.5679674199999911,0.7848411479999966,0.03999996,0.04,-9.8130588,-0.044231604039820634,-0.030106758000076853,-0.006769289520013296,-0.0023973388131484706,-0.02382294120004727
0.7325,-0.0020499049950065107,-0.7823165599999935,0.003804856765011074,-2.353900194999993,-0.002930308045008891,1.567933954999991,0.7848282119999965,0.03999996,0.04,-9.813064200000001,-0.04480274468675567,-0.03039614550007712,-0.006819355380013343,-0.0023135582334138025,-0.024000945300047438
0.735,-0.002075158130006862,-0.7822914899999932,0.0038478109000116725,-2.3538734099999927,-0.002964793300009371,1.5678993899999907,0.7848148399999963,0.03999996,0.04,-9.8130699,-0.04538538120702733,-0.030692128500080025,-0.006870025100013629,-0.0022282792022221072,-0.02418142450004859
0.7375,-0.002100822275006886,-0.7822660349999931,0.0038914652500117134,-2.3538461249999925,-0.0029998402000094037,1.5678642749999907,0.7848012499999963,0.03999996,0.04,-9.813075750000001,-0.04597376566396042,-0.0309914092500803,-0.006920996750013677,-0.002142250945302792,-0.024363141250048757
0.74,-0.002126486420006909,-0.7822405799999932,0.003935119600011752,-2.3538188399999926,-0.003034887100009435,1.5678291599999905,0.7847876599999963,0.03999996,0.04,-9.8130816,-0.04656215012089349,-0.03129069000008057,-0.006971968400013722,-0.0020562226883834803,-0.02454485800004892
0.7425,-0.002152150565006933,-0.7822151249999931,0.003978773950011793,-2.3537915549999924,-0.0030699340000094675,1.5677940449999905,0.7847740699999963,0.03999996,0.04,-9.813087450000001,-0.04715053457782659,-0.03158997075008085,-0.007022940050013769,-0.0019701944314641654,-0.024726574750049087
0.745,-0.0021778147100069557,-0.7821896699999932,0.004022428300011831,-2.3537642699999926,-0.003104980900009499,1.5677589299999906,0.7847604799999963,0.03999996,0.04,-9.813093300000002,-0.047738919034759665,-0.03188925150008111,-0.007073911700013815,-0.0018841661745448539,-0.024908291500049248
0.7475,-0.0022034788550069793,-0.7821642149999931,0.004066082650011872,-2.3537369849999927,-0.0031400278000095314,1.5677238149999904,0.7847468899999963,0.03999996,0.04,-9.813099150000001,-0.048327303491692765,-0.03218853225008139,-0.007124883350013863,-0.0017981379176255387,-0.02509000825004942
0.75,-0.0022291430000073455,-0.7821387599999928,0.004109737000012496,-2.353709699999992,-0.0031750747000100317,1.56768869999999,0.7847332999999961,0.03999996,0.04,-9.813104999999993,-0.048915687948637994,-0.032487813000087115,-0.0071758550000141745,-0.0017121096607054338,-0.025271725000050566
0.7525000000000001,-0.0022560650300073705,-0.7821121109999928,0.004155535150012538,-2.353680974999992,-0.0032118409750100663,1.5676518299999898,0.7847190499999961,0.03999996,0.04,-9.813080249999993,-0.049548635073179394,-0.032807108550087415,-0.007227804500014223,-0.0016231729008478859,-0.025457051950050737
0.755,-0.0022829870600073947,-0.7820854619999927,0.004201333300012579,-2.353652249999992,-0.0032486072500100987,1.5676149599999898,0.7847047999999961,0.03999996,0.04,-9.813055499999994,-0.05018158219772076,-0.0331264041000877,-0.007279754000014269,-0.0015342361409903418,-0.025642378900050902
0.7575000000000001,-0.0023099090900074197,-0.7820588129999927,0.004247131450012622,-2.353623524999992,-0.003285373525010133,1.5675780899999898,0.7846905499999961,0.03999996,0.04,-9.813030749999992,-0.05081452932226215,-0.033445699650088,-0.0073317035000143175,-0.0014452993811327939,-0.025827705850051074
0.76,-0.002336831120007444,-0.7820321639999926,0.004292929600012663,-2.353594799999992,-0.0033221398000101653,1.5675412199999899,0.7846762999999961,0.03999996,0.04,-9.813005999999993,-0.051447476446803524,-0.03376499520008828,-0.007383653000014363,-0.0013563626212752498,-0.02601303280005124
0.7625000000000001,-0.002363753150007469,-0.7820055149999926,0.004338727750012705,-2.353566074999992,-0.0033589060750102,1.5675043499999899,0.784662049999996,0.03999996,0.04,-9.812981249999993,-0.052080423571344917,-0.03408429075008858,-0.007435602500014412,-0.001267425861417702,-0.026198359750051414
0.765,-0.0023906751800074925,-0.7819788659999926,0.004384525900012746,-2.353537349999992,-0.0033956723500102324,1.5674674799999897,0.784647799999996,0.03999996,0.04,-9.812956499999993,-0.05271337069588628,-0.03440358630008886,-0.007487552000014458,-0.0011784891015601579,-0.026383686700051576
0.7675000000000001,-0.002418024670007876,-0.7819518069999922,0.0044310524650134,-2.3535081749999915,-0.0034330228400107562,1.5674300249999893,0.7846333249999958,0.03999996,0.04,-9.812936949999997,-0.05335476361233491,-0.03472649900009219,-0.007539823600014776,-0.0010888129006815805,-0.026570186350052732
0.77,-0.0024462290800079008,-0.7819239279999921,0.004479035860013442,-2.3534780999999914,-0.0034715417600107903,1.5673913999999893,0.7846183999999958,0.03999996,0.04,-9.812927799999997,-0.05401304811257678,-0.035056646000092485,-0.007592739400014824,-0.0009976578177628046,-0.0267590314000529
0.7725,-0.002474433490007926,-0.7818960489999921,0.0045270192550134845,-2.3534480249999916,-0.0035100606800108247,1.5673527749999892,0.7846034749999958,0.03999996,0.04,-9.812918649999997,-0.05467133261281865,-0.03538679300009278,-0.0076456552000148705,-0.0009065027348440287,-0.026947876450053067
0.775,-0.002502637900007952,-0.7818681699999921,0.004575002650013529,-2.3534179499999914,-0.0035485796000108605,1.5673141499999892,0.7845885499999958,0.03999996,0.04,-9.812909499999998,-0.05532961711306055,-0.03571694000009309,-0.00769857100001492,-0.0008153476519252487,-0.027136721500053244
0.7775,-0.0025308423100079773,-0.7818402909999921,0.004622986045013572,-2.3533878749999912,-0.003587098520010895,1.5672755249999892,0.7845736249999957,0.03999996,0.04,-9.812900349999998,-0.05598790161330242,-0.036047087000093375,-0.007751486800014967,-0.0007241925690064727,-0.02732556655005341
0.78,-0.0025590467200080035,-0.7818124119999921,0.004670969440013616,-2.3533577999999915,-0.0036256174400109307,1.567236899999989,0.7845586999999957,0.03999996,0.04,-9.812891199999997,-0.05664618611354433,-0.03637723400009368,-0.007804402600015016,-0.0006330374860876927,-0.02751441160005359
0.7825,-0.0025872511300080287,-0.7817845329999921,0.004718952835013659,-2.3533277249999913,-0.003664136360010965,1.567198274999989,0.7845437749999957,0.03999996,0.04,-9.812882049999997,-0.0573044706137862,-0.03670738100009398,-0.007857318400015063,-0.0005418824031689167,-0.027703256650053756
0.785,-0.002616326390008428,-0.7817558319999917,0.00476842027001434,-2.353296789999991,-0.0037038466700115113,1.5671584499999884,0.7845283759999955,0.0399999598,0.0399999995,-9.812880300000002,-0.0579798858614729,-0.037045446600097676,-0.007910867150015384,-0.0004493579886645401,-0.02789438590005491
0.7875,-0.002645837075008454,-0.7817267199999917,0.004818629725014384,-2.353265424999991,-0.003744152675011547,1.5671180249999885,0.7845127399999955,0.0399999595,0.03999999875,-9.812882250000001,-0.058663866482871,-0.03738747150009798,-0.007964732375015432,-0.0003561489083682473,-0.028086657250055082
0.79,-0.0026753477600084817,-0.7816976079999917,0.004868839180014431,-2.353234059999991,-0.0037844586800115845,1.5670775999999884,0.7844971039999955,0.039999959200000004,0.039999998,-9.812884200000001,-0.05934784710426913,-0.0377294964000983,-0.008018597600015482,-0.0002629398280719504,-0.02827892860005526
0.7925,-0.002704858445008508,-0.7816684959999916,0.0049190486350144755,-2.353202694999991,-0.0038247646850116204,1.5670371749999883,0.7844814679999955,0.0399999589,0.03999999725,-9.81288615,-0.060031827725667224,-0.0380715213000986,-0.00807246282501553,-0.00016973074777565757,-0.028471199950055433
0.795,-0.0027343691300085356,-0.7816393839999916,0.004969258090014523,-2.353171329999991,-0.0038650706900116576,1.5669967499999882,0.7844658319999954,0.0399999586,0.0399999965,-9.8128881,-0.06071580834706535,-0.03841354620009892,-0.00812632805001558,-7.652166747936065e-05,-0.02866347130005561
0.7975,-0.002763879815008562,-0.7816102719999916,0.005019467545014567,-2.353139964999991,-0.0039053766950116935,1.5669563249999883,0.7844501959999954,0.0399999583,0.03999999575,-9.81289005,-0.06139978896846345,-0.03875557110009923,-0.008180193275015627,1.6687412816932153e-05,-0.028855742650055784
0.8,-0.0027933905000089763,-0.7815811599999911,0.005069677000015273,-2.3531085999999903,-0.00394568270001226,1.5669158999999877,0.7844345599999952,0.039999958,0.039999995,-9.812892000000003,-0.06208376958987553,-0.03909759600010698,-0.00823405850001589,0.00010989649311358322,-0.029048014000056965
0.8025,-0.002824230845009004,-0.7815507714999911,0.00512215250501532,-2.3530755549999904,-0.003987806195012297,1.5668736749999876,0.7844182309999952,0.039999958,0.039999995,-9.812907150000004,-0.06281566564015055,-0.03946516485010731,-0.00828865587501594,0.0002043223310741021,-0.029243727100057137
0.805,-0.002855071190009032,-0.781520382999991,0.0051746280100153684,-2.3530425099999905,-0.004029929690012337,1.5668314499999876,0.7844019019999953,0.039999958,0.039999995,-9.812922300000004,-0.06354756169042562,-0.039832733700107655,-0.00834325325001599,0.00029874816903462516,-0.02943944020005732
0.8075,-0.0028859115350090597,-0.781489994499991,0.005227103515015415,-2.35300946499999,-0.004072053185012374,1.5667892249999875,0.7843855729999952,0.039999958,0.039999995,-9.812937450000005,-0.06427945774070065,-0.04020030255010798,-0.008397850625016039,0.00039317400699514403,-0.029635153300057494
0.81,-0.0029167518800090886,-0.7814596059999911,0.0052795790200154645,-2.3529764199999903,-0.004114176680012413,1.5667469999999877,0.7843692439999952,0.039999958,0.039999995,-9.812952600000004,-0.06501135379097571,-0.04056787140010832,-0.00845244800001609,0.0004875998449556671,-0.029830866400057676
0.8125,-0.002947592225009116,-0.7814292174999911,0.00533205452501551,-2.3529433749999904,-0.004156300175012451,1.5667047749999876,0.7843529149999952,0.039999958,0.039999995,-9.812967750000006,-0.06574324984125074,-0.040935440250108646,-0.00850704537501614,0.000582025682916186,-0.03002657950005785
0.8150000000000001,-0.002978432570009145,-0.781398828999991,0.00538453003001556,-2.35291032999999,-0.00419842367001249,1.5666625499999876,0.7843365859999951,0.039999958,0.039999995,-9.812982900000005,-0.0664751458915258,-0.04130300910010899,-0.00856164275001619,0.000676451520876709,-0.030222292600058032
0.8175,-0.003009723610009428,-0.7813680014999907,0.005437773665016042,-2.35287680999999,-0.004241163750012877,1.5666197099999872,0.784320019999995,0.039999957600000004,0.039999995,-9.812983049999993,-0.06721346527360027,-0.04167401895011067,-0.008616552400016264,0.0007718881388712316,-0.030419120600058296
0.8200000000000001,-0.0030419160400090186,-0.7813362959999911,0.0054925535600153464,-2.3528423399999903,-0.004285137000012319,1.5665756399999877,0.7843029799999952,0.0399999564,0.039999995,-9.812953199999992,-0.06796463131925645,-0.04205191080010587,-0.008672086600015559,0.0008693463169310628,-0.030618178400055766
0.8225,-0.0030741084700086083,-0.7813045904999915,0.005547333455014648,-2.3528078699999906,-0.004329110250011758,1.5665315699999882,0.7842859399999954,0.0399999552,0.039999995,-9.812923349999993,-0.06871579736491262,-0.042429802650101045,-0.00872762080001485,0.0009668044949908898,-0.030817236200053225
0.8250000000000001,-0.003106300900008199,-0.7812728849999919,0.0056021133500139516,-2.3527733999999914,-0.004373083500011199,1.5664874999999887,0.7842688999999956,0.039999954,0.039999995,-9.812893499999992,-0.06946696341056881,-0.04280769450009624,-0.008783155000014144,0.0010642626730507211,-0.031016294000050695
0.8275,-0.0031384933300077885,-0.7812411794999923,0.005656893245013253,-2.3527389299999917,-0.004417056750010639,1.5664434299999894,0.7842518599999959,0.0399999528,0.039999995,-9.812863649999993,-0.07021812945622498,-0.043185586350091426,-0.008838689200013435,0.0011617208511105481,-0.031215351800048155
0.8300000000000001,-0.0031706857600073794,-0.7812094739999927,0.005711673140012557,-2.352704459999992,-0.00446103000001008,1.56639935999999,0.7842348199999961,0.0399999516,0.039999995,-9.812833799999993,-0.07096929550188116,-0.043563478200086624,-0.00889422340001273,0.0012591790291703795,-0.03141440960004563
0.8325,-0.0032028781900069686,-0.7811777684999931,0.005766453035011858,-2.3526699899999923,-0.004505003250009519,1.5663552899999904,0.7842177799999963,0.0399999504,0.039999995,-9.812803949999994,-0.07172046154753733,-0.0439413700500818,-0.00894975760001202,0.0013566372072302065,-0.03161346740004309
0.835,-0.003235986830007754,-0.7811452199999923,0.0058227945700131956,-2.3526346099999915,-0.004550230360010592,1.5663099399999894,0.7842002599999959,0.0399999497,0.0399999955,-9.812789599999999,-0.07250392586011284,-0.04433554060009293,-0.00900582080001301,0.001455360674322231,-0.031814606200046704
0.8375,-0.003269553575008701,-0.7811122499999914,0.005879916925014808,-2.352598774999991,-0.004596084400011886,1.566263949999988,0.7841824999999953,0.03999994925,0.03999999625,-9.812782999999998,-0.07330353930613262,-0.04473785050010429,-0.0090621485000146,0.0015547167859297547,-0.03201678550005241
0.84,-0.003303120320009647,-0.7810792799999905,0.005937039280016416,-2.3525629399999897,-0.004641938440013178,1.5662179599999868,0.7841647399999949,0.0399999488,0.039999997,-9.812776399999999,-0.07410315275215239,-0.04514016040011562,-0.009118476200016186,0.0016540728975372738,-0.032218964800058106
