rsonawane2002/My_IMU/logs_2/traj_323/clean_323.csv
time,j1,j2,j3,j4,j5,j6,j7,gripper1,gripper2,imu_ax,imu_ay,imu_az,imu_gx,imu_gy,imu_gz,quat_x,quat_y,quat_z,quat_w
796.6333333329375,0.00016700293,-0.785875,4.0107683e-05,-2.3551247,9.29385e-05,1.570997,0.786,0.04,0.04,0.0,-0.0,0.0,2.875329272945135e-08,-0.0011641195053377316,4.421952117202833e-08,0.9999995971961153,0.00020320632366974898,0.0008736418299892524,3.263050917662294e-05
796.6499999996041,0.00016701523,-0.78576016,4.011064e-05,-2.3552213,9.297057e-05,1.5709941,0.786,0.04,0.04,-0.29199845986309647,-3.846991906969054e-05,0.02012840712646291,2.154055329804419e-07,-0.002238454522031002,4.849818942286186e-08,0.9999996850594628,0.00020320387567516714,0.0007665025188481039,3.2604430145180374e-05
796.6666666662708,0.00016709232,-0.7856543,4.008569e-05,-2.35531,9.29761e-05,1.5709913,0.786,0.04,0.04,0.023328726355287266,-1.902194011679792e-05,-0.0016704428928093762,8.627148157084438e-07,-0.0032235386628247553,-1.6252574888961705e-07,0.9999997558519585,0.0002031785202256373,0.0006677972545597619,3.257819628699814e-05
796.6833333329374,0.00016734122,-0.78555703,3.9988077e-05,-2.355391,9.2916416e-05,1.5709884,0.786,0.04,0.04,0.022460749404773495,-5.554163342616188e-05,-0.0015249153951568672,3.166109159157079e-06,-0.004123707734774462,-7.843251132384535e-07,0.9999998122680971,0.00020309260650236573,0.0005771982150432582,3.25481868721443e-05
796.6999999996041,0.00016791538,-0.7854677,3.9753682e-05,-2.3554654,9.273586e-05,1.5709856,0.786,0.04,0.04,0.02011371976393672,-0.00010781420518910889,-0.001565576292605897,7.431087111043036e-06,-0.004940186047645241,-1.9947720054602658e-06,0.9999998569199968,0.0002028921212931374,0.0004939007408196629,3.250893920011294e-05
796.7166666662707,0.00016901008,-0.7853858,3.930114e-05,-2.3555338,9.236406e-05,1.5709827,0.7860019,0.04,0.04,0.01836989552892465,-0.00017496239258290246,-0.001603828347529479,1.5523835868656653e-05,-0.00567625645177838,-3.95459956812175e-06,0.9999998917016832,0.00020346190858259972,0.00041730875727959843,3.245419072660469e-05
796.7333333329374,0.0001708581,-0.7853111,3.853326e-05,-2.3555996,9.17171e-05,1.5709798,0.7860038,0.04,0.04,0.012432548652574482,-0.0002544333497280784,-0.002952344984485933,1.9336683245306177e-05,-0.006333096818864583,-6.826043863232828e-06,0.9999999189840711,0.00020376637089819454,0.0003456341588910593,3.2375075273220356e-05
796.749999999604,0.0001737257,-0.78524286,3.7339105e-05,-2.355659,9.070061e-05,1.5709769,0.78600574,0.04,0.04,0.018021130212297898,-0.0003478835541967384,-0.0008886548507058833,2.9021055707938485e-05,-0.006925035363667843,-1.0709792752293385e-05,0.9999999394358313,0.0002037114994440238,0.0002803372612704769,3.226420288881479e-05
796.7666666662707,0.00017790914,-0.7851814,3.5595058e-05,-2.3557172,8.921722e-05,1.5709739,0.78600955,0.04,0.039999995,0.009539329554875131,-0.00045598807223856,-0.0033432435881719513,4.6099447585923694e-05,-0.007436697757326942,-1.4994637304246186e-05,0.999999954658439,0.00020414668619124252,0.00021903384864332886,3.211578130245668e-05
796.7833333329373,0.00018373149,-0.785126,3.316663e-05,-2.3557744,8.71387e-05,1.5709705,0.7860153,0.04,0.039999995,0.00816428095808952,-0.0005586371789588669,-0.0032732842400573503,6.34542792806305e-05,-0.007886400647983712,-2.133544624568439e-05,0.9999999655202139,0.00020495794273040272,0.00016103847268564235,3.191273978443053e-05
796.799999999604,0.00019153926,-0.7850765,2.9909163e-05,-2.355827,8.434943e-05,1.5709639,0.7860229,0.04,0.03999999,0.01323112636952839,-0.0006846282933515614,-0.0038544040761090415,8.231786297942229e-05,-0.008277062451927419,-2.8252383989506465e-05,0.9999999725926132,0.0002060229908303614,0.00010661935509830421,3.164827233139126e-05
796.8166666662706,0.00020170012,-0.78503287,2.5669919e-05,-2.3558784,8.0687925e-05,1.5709572,0.78603244,0.04,0.04,0.00889031371440474,-0.0007902783952121975,-0.0026842697444795505,0.00010431280029570353,-0.00860326609002934,-3.89162881935036e-05,0.9999999764830333,0.00020721210687655683,5.583610960810393e-05,3.1295436664625476e-05
796.8333333329373,0.00021459923,-0.7849949,2.0287831e-05,-2.3559296,7.604439e-05,1.5709502,0.7860439,0.04,0.039999995,0.006148304778497149,-0.000943652444000009,-0.0034878700379881167,0.00013143580354277578,-0.008862496077321785,-4.869606595559351e-05,0.999999977781157,0.00020838964696787702,7.705256581404054e-06,3.085562418668185e-05
796.8499999996039,0.00023063847,-0.7849626,1.3595713e-05,-2.355981,7.0255395e-05,1.5709397,0.78605807,0.04,0.04,0.004761399958708168,-0.0010680105883526555,-0.005902424822101793,0.00016550648540427162,-0.009059816515663094,-6.160545025140133e-05,0.9999999767484498,0.00020983090992104047,-3.944213934726243e-05,3.03052280805618e-05
796.8666666662706,0.0002502328,-0.7849359,5.420264e-06,-2.356036,6.3189866e-05,1.5709289,0.78607523,0.04,0.039999995,0.0004488445329409174,-0.0012242974598441591,-0.00485890764083674,0.00020404417049395436,-0.009209369675844263,-7.455749764558061e-05,0.9999999735310847,0.0002115089193946578,-8.557627965512768e-05,2.9639623430718516e-05
796.8833333329372,0.00027380968,-0.7849148,-4.416314e-06,-2.3560932,5.467055e-05,1.5709149,0.7860962,0.04,0.04,0.0010881090820369366,-0.0013540719405041488,-0.006740194293497481,0.00024793987791643733,-0.009307646486972042,-9.140795448916186e-05,0.9999999680709998,0.00021368987711269186,-0.00013177005011294978,2.8832095962591343e-05
796.8999999996039,0.00030180564,-0.7848993,-1.6096299e-05,-2.3561516,4.4559176e-05,1.5709002,0.78612125,0.04,0.04,0.003981990929990964,-0.001518658161426444,-0.004160702643818404,0.00029569108030275885,-0.009361875471151658,-0.00010780162482003505,0.9999999607121579,0.00021633904992370166,-0.00017605649986518113,2.787843150539341e-05
796.9166666662705,0.00033466605,-0.78488946,-2.9805396e-05,-2.3562136,3.2690976e-05,1.570882,0.7861506,0.04,0.04,-0.0009463836030842998,-0.0016675862512746296,-0.007484849713224051,0.00034722838001497087,-0.00934992308566354,-0.00012663667506298084,0.9999999511297596,0.00021941845536406395,-0.00022108803113554042,2.676008527992295e-05
796.9333333329372,0.00037284257,-0.7848852,-4.5731933e-05,-2.3562794,1.889456e-05,1.5708615,0.7861845,0.04,0.04,-0.0010019294108376542,-0.0018164546593994822,-0.006580431289271438,0.00040419361843784776,-0.009296892238935239,-0.00014804357543736425,0.9999999393565173,0.0002229176731813176,-0.0002663579987334127,2.545759552815582e-05
796.9499999996038,0.00041679252,-0.7848869,-6.406664e-05,-2.3563519,3.0202186e-06,1.5708385,0.78622365,0.04,0.04,-0.005608560488634673,-0.001984187503279285,-0.008211710835515085,0.0004663616012515032,-0.009192888251382236,-0.00016962881532214596,0.9999999248795798,0.00022700301933744623,-0.00031326711531110034,2.3962020036947655e-05
796.9666666662705,0.0004669773,-0.78489447,-8.500178e-05,-2.356426,-1.5106326e-05,1.5708119,0.7862684,0.04,0.04,0.002558498540228271,-0.0021366649905758374,-0.006761632938157014,0.0005332950890631957,-0.009050821795313482,-0.00019386781135754118,0.9999999081667165,0.00023169032590440763,-0.00035984841957860354,2.2254584124567506e-05
796.9833333329371,0.0005238607,-0.7849082,-0.00010873099,-2.3565073,-3.5652713e-05,1.570782,0.7863192,0.04,0.04,-0.006418671160579592,-0.0022942511873024407,-0.009182512271954657,0.0006048658151293126,-0.008848058101469772,-0.0002199664978687042,0.9999998882241727,0.00023702436608421642,-0.0004086052982129508,2.0317531115026208e-05
796.9999999996038,0.00058790913,-0.78492785,-0.00013544857,-2.356596,-5.879525e-05,1.5707482,0.78637636,0.04,0.04,-0.0071716254648857,-0.0024477850112996236,-0.009544617765144814,0.0006809844322310417,-0.008606201178638914,-0.00024871266624733475,0.999999864513544,0.0002430189431998097,-0.00045998477188448757,1.812999469254299e-05
797.0166666662705,0.00065958884,-0.7849541,-0.00016534928,-2.3566923,-8.468438e-05,1.5707102,0.7864403,0.04,0.04,-0.0070683943919958026,-0.0026192560098553174,-0.010344631850123243,0.0007624361527877777,-0.008327110200542819,-0.00027776994406645346,0.9999998365756079,0.0002497178786298858,-0.0005140464384231304,1.5684315333698197e-05
797.0333333329371,0.0007393665,-0.7849868,-0.0001986276,-2.3567963,-0.00011350654,1.5706682,0.7865115,0.039999995,0.04,-0.007020924420642061,-0.0027650413679060457,-0.010044730787339695,0.0008486713542559285,-0.008009535225995231,-0.0003103107028982874,0.9999998040335315,0.0002571645806410697,-0.0005706412628443718,1.2954774826815405e-05
797.0499999996038,0.0008277079,-0.78502595,-0.0002354779,-2.356908,-0.00014542602,1.5706218,0.78659034,0.03999999,0.04,-0.007642240334959638,-0.0029257905916968917,-0.010474226220957839,0.0009399740966138715,-0.0076485344446359585,-0.00034480522535703956,0.9999997661747702,0.000265432604017735,-0.0006301566560822172,9.92605890790836e-06
797.0666666662704,0.00092507695,-0.785072,-0.00027609352,-2.3570285,-0.00018060487,1.5705707,0.7866772,0.039999988,0.039999995,-0.00844323171798056,-0.0030869856492577374,-0.011332439535971517,0.0010355867264224454,-0.007247687070332949,-0.0003803838262427272,0.9999997222526923,0.00027450644137295657,-0.0006928906180135887,6.583569763137838e-06
797.0833333329371,0.0010319347,-0.78512514,-0.0003206674,-2.3571572,-0.0002192102,1.5705142,0.7867726,0.039999984,0.03999999,-0.008094692503091139,-0.0032411375243236425,-0.011737197316663561,0.0011366890333074971,-0.006806445837120442,-0.0004179228974368692,0.9999996715077228,0.00028452093464972694,-0.000758962328962458,2.909861184368487e-06
797.0999999996037,0.0011487406,-0.78518546,-0.00036939062,-2.3572993,-0.00026140767,1.5704528,0.78687686,0.03999998,0.039999988,-0.016250037106724236,-0.0033971419461519274,-0.013738473545199525,0.0012420095701625158,-0.006323575623353428,-0.00045746307311092093,0.999999611454992,0.00029543149765636406,-0.0008305473206712062,-1.114957052323711e-06
797.1166666662704,0.0012759487,-0.7852531,-0.00042245307,-2.3574507,-0.0003073618,1.570386,0.7869904,0.039999977,0.039999988,-0.00938463789119659,-0.003548408152308734,-0.012336900873877177,0.0013519270001810793,-0.005818787459861318,-0.0004998408418585283,0.9999995425283854,0.0003073158394560727,-0.0009057978097313024,-5.506593733327558e-06
797.133333332937,0.0014140107,-0.7853283,-0.0004800432,-2.3576133,-0.00035723424,1.5703135,0.7871136,0.039999977,0.039999988,-0.012510938912657643,-0.0037004206468195066,-0.013687270902873472,0.0014668860044768587,-0.005270724121827235,-0.0005433899476418548,0.9999994627979099,0.0003201919134687108,-0.0009857866319891331,-1.0283311932918185e-05
797.1499999996037,0.0015633726,-0.78541166,-0.00054234685,-2.3577876,-0.0004111866,1.5702349,0.78724694,0.039999973,0.039999984,-0.012765834257288944,-0.0038487931215216617,-0.01429467682803054,0.0015862340704963368,-0.004689704724563601,-0.0005889772289713888,0.9999993710240382,0.00033413912216914053,-0.001070543533919537,-1.5463408407676114e-05
797.1666666662703,0.0017244754,-0.785503,-0.0006095486,-2.357976,-0.00046937814,1.5701504,0.78739065,0.03999997,0.03999998,-0.01694554356734823,-0.003995135864033096,-0.01530448214699387,0.001709840223762818,-0.004073761606627367,-0.0006366491600983738,0.9999992645034943,0.00034911914283390996,-0.0011613201490473805,-2.106670866473261e-05
797.183333332937,0.0018977557,-0.7856025,-0.0006818301,-2.3581755,-0.0005319659,1.5700595,0.78754526,0.039999966,0.039999977,-0.011936709351356711,-0.0041396222187152325,-0.014416371311920528,0.001838482889581358,-0.0034313935855721737,-0.0006863892762921202,0.9999991432256597,0.00036524481767775886,-0.001256745500254964,-2.7109354782622826e-05
797.1999999996036,0.0020836433,-0.78571045,-0.00075937127,-2.3583894,-0.00059910555,1.5699619,0.78771126,0.03999996,0.039999973,-0.017151837977502638,-0.0042803884387223505,-0.016273286563484035,0.0019712349988617065,-0.0027492216877652723,-0.0007382737230566343,0.999999003457241,0.00038260020041082897,-0.0013585182323812399,-3.361285275167692e-05
797.2166666662703,0.0022825627,-0.7858271,-0.00084234873,-2.3586175,-0.00067095034,1.5698574,0.78788877,0.039999958,0.039999973,-0.016859842044270046,-0.004419309264828107,-0.016532356254583824,0.002107520547298113,-0.0020408909540694355,-0.0007931655621583153,0.9999988433548639,0.00040109271874554087,-0.0014665488489384701,-4.059604900132125e-05
797.2333333329369,0.0024949303,-0.7859527,-0.000930937,-2.35886,-0.00074764976,1.5697461,0.78807825,0.03999995,0.039999966,-0.016521392388968437,-0.0045550843094107,-0.016490807310898248,0.0022483777086209373,-0.0013045419320500216,-0.0008493752445111321,0.999998661155961,0.00042081141411379154,-0.0015805988281119877,-4.807685334446453e-05
797.2499999996036,0.0027211586,-0.7860873,-0.0010253078,-2.3591175,-0.0008293529,1.5696278,0.7882802,0.039999943,0.039999958,-0.017819357020143478,-0.004688490150956998,-0.01720581588664505,0.0023934791179865585,-0.0005355091204560366,-0.0009078195019258523,0.9999984537135307,0.00044184600242819325,-0.0017012342915192222,-5.607622575544132e-05
797.2666666662702,0.0029616507,-0.7862312,-0.0011256301,-2.3593905,-0.0009162056,1.5695018,0.7884948,0.03999994,0.039999954,-0.01838369009281582,-0.004816096776377428,-0.0179809978746448,0.002542245476660812,0.0002612854105557786,-0.0009685249557478699,0.9999982180148459,0.00046417033584361965,-0.001828753133241126,-6.461431532903125e-05
797.2833333329369,0.0032168056,-0.7863846,-0.0012320688,-2.3596795,-0.0010083511,1.569368,0.7887226,0.039999932,0.039999947,-0.01916392767176145,-0.004945750621231679,-0.01832227947522469,0.002694670646545036,0.0010856411896906582,-0.0010315330004437425,0.9999979507675045,0.00048784808596186765,-0.0019634234230986123,-7.37122685498418e-05
797.2999999996035,0.0034870117,-0.7865476,-0.0013447881,-2.3599854,-0.0011059301,1.5692264,0.78896385,0.039999925,0.03999994,-0.020556095552937137,-0.005065476321477742,-0.018980429904180696,0.002850736843745044,0.0019363224693758454,-0.0010968947548080305,0.9999976480559598,0.0005129474108732994,-0.002105662226618017,-8.339118488877641e-05
797.3166666662702,0.0037726506,-0.7867207,-0.001463947,-2.3603086,-0.0012090806,1.5690768,0.7892187,0.039999917,0.039999932,-0.02094198042679185,-0.005185077942135015,-0.0195233991519439,0.0030098536623519682,0.002811777713250035,-0.0011646515125696465,0.9999973063824912,0.0005393587652038553,-0.002255558779343641,-9.367218070039198e-05
797.3333333329368,0.0040741,-0.78690386,-0.0015897017,-2.3606486,-0.0013179388,1.5689191,0.7894878,0.03999991,0.03999993,-0.019764894419127543,-0.00530329166520422,-0.019291935660969983,0.0031731178726331095,0.003710524604130996,-0.001235706354045383,0.999996922807395,0.0005672424941798678,-0.0024128148471879783,-0.00010457632062232425
797.3499999996035,0.004391724,-0.78709745,-0.0017222062,-2.3610065,-0.0014326351,1.5687528,0.78977126,0.039999906,0.039999925,-0.02154217702960981,-0.005412474389225618,-0.02039297077105484,0.003339451370776337,0.00463680915606188,-0.0013084042185308384,0.9999964920313379,0.0005965845074071865,-0.002578085863256226,-0.00011612590401320279
797.3666666662701,0.004725884,-0.7873014,-0.0018616103,-2.3613827,-0.0015533003,1.5685776,0.7900695,0.039999906,0.039999925,-0.02248984405466281,-0.0055239067738138345,-0.02075894892983321,0.0035090733616811084,0.005588290726195548,-0.0013836794219284788,0.9999960088328539,0.0006274298455400185,-0.0027517590036305163,-0.0001283453849340118
797.3833333329368,0.0050769313,-0.7875162,-0.0020080607,-2.3617778,-0.0016800616,1.5683938,0.79038286,0.039999906,0.039999925,-0.02280086576464946,-0.0056272849183755655,-0.0211250170800259,0.0036814858283314243,0.0065602293270172534,-0.0014615601731359793,0.9999954687425794,0.000659798135454026,-0.002933804196449896,-0.00014125744753253056
797.3999999996034,0.00544521,-0.7877421,-0.0021617007,-2.3621914,-0.0018130426,1.5682008,0.7907115,0.03999991,0.039999932,-0.022151105667922444,-0.005727770827810121,-0.0215775654659911,0.0038566495762492603,0.007554413513370769,-0.0015429716534682333,0.9999948672028558,0.0006936810162993467,-0.0031241615488177697,-0.00015488449716280728
797.4166666662701,0.005831054,-0.78797907,-0.002322671,-2.3626251,-0.0019523638,1.567999,0.79105586,0.03999991,0.039999932,-0.024529249812532683,-0.005826533627645335,-0.021933662211881533,0.004034883363551605,0.00857393498280893,-0.0016262898281042253,0.9999941973595584,0.0007291319371437262,-0.0033233969690220793,-0.00016925252509362933
797.4333333329367,0.006234791,-0.7882271,-0.0024911072,-2.363078,-0.002098144,1.5677874,0.79141635,0.03999991,0.039999932,-0.023677533191901468,-0.005917585364118103,-0.02229370180601986,0.00421584972567763,0.009613246992370063,-0.0017124356627075512,0.9999934530884732,0.0007662671780482068,-0.003531659087697762,-0.00018438788372683116
797.4499999996034,0.006656739,-0.7884868,-0.0026671437,-2.3635519,-0.002250498,1.5675668,0.79179305,0.039999913,0.039999936,-0.0251577447913931,-0.006006404953523298,-0.02278299861788735,0.004398230051922268,0.010673596631698973,-0.001801456146230139,0.999992628484869,0.0008049963023926542,-0.0037489773404671516,-0.00020031419471730794
797.46666666627,0.0070972107,-0.7887581,-0.0028509102,-2.364046,-0.0024095373,1.5673361,0.79218614,0.039999913,0.039999936,-0.02511392695123682,-0.0060918909656037645,-0.023361009676903244,0.004583374328581635,0.011751978037927043,-0.0018934519523687516,0.9999917159014926,0.0008452900556347262,-0.003975738734288258,-0.0002170590399976194
797.4833333329367,0.0075565074,-0.78904104,-0.0030425333,-2.3645616,-0.0025753719,1.5670954,0.7925961,0.039999913,0.03999994,-0.026323282787510394,-0.006171572307782846,-0.0236955531254468,0.00477100877731583,0.012850746286638839,-0.001989382570955477,0.9999907070631262,0.0008872718509285768,-0.004212300398584052,-0.00023465166415503197
797.4999999996033,0.008034923,-0.7893361,-0.0032421343,-2.365098,-0.0027481073,1.566845,0.79302305,0.03999992,0.039999947,-0.02528289388108451,-0.006250646896567135,-0.023591808016143467,0.00496033819293934,0.013964708367462534,-0.0020875344073668853,0.9999895971946404,0.0009308882183852059,-0.004458125415375733,-0.00025311540126673744
797.51666666627,0.008532741,-0.78964335,-0.0034498344,-2.3656554,-0.0029278465,1.5665843,0.79346734,0.03999993,0.039999954,-0.02537221519862687,-0.006315406366297609,-0.024200304222166125,0.005151916060428828,0.015099641433553392,-0.0021888977091553564,0.9999883777231586,0.0009762097815690032,-0.004713511245964441,-0.0002724789935728178
797.5333333329366,0.009050244,-0.78996295,-0.003665748,-2.3662348,-0.0031146898,1.5663134,0.7939292,0.039999932,0.039999958,-0.02681751379982611,-0.006393086334834097,-0.024622346032865394,0.005345118070976623,0.016254814252710435,-0.002293597589222405,0.9999870392453747,0.0010232433615398866,-0.004978814901975826,-0.00029277374249298037
797.5499999996033,0.009587698,-0.7902951,-0.003889988,-2.3668365,-0.0033087344,1.566032,0.7944088,0.039999936,0.039999966,-0.027398056808292104,-0.0064514382269331965,-0.025071321281644465,0.0055397643299285836,0.017426977193018417,-0.0024025347551147117,0.9999855726705092,0.0010719447955130485,-0.005254214561024008,-0.00031402951439085056
797.56666666627,0.010145365,-0.7906398,-0.0041226633,-2.3674607,-0.0035100742,1.56574,0.7949066,0.03999994,0.03999997,-0.027570528146503293,-0.006514158999502582,-0.025315835237327278,0.005736335785140486,0.018615528587373534,-0.0025141170800155356,0.9999839680058457,0.0011224774067164279,-0.005539918075731658,-0.00033627885658644703
797.5833333329366,0.010723498,-0.7909973,-0.0043638796,-2.368108,-0.0037188008,1.5654372,0.79542255,0.039999943,0.039999973,-0.028451804388485158,-0.006567420848682106,-0.025819539353344467,0.005932902776095185,0.019819577330258086,-0.002629282642000132,0.999982215039016,0.0011746806479697577,-0.0058361333412969086,-0.00035955341888623335
797.5999999996033,0.011322336,-0.7913678,-0.004613739,-2.3687785,-0.003935002,1.5651237,0.79595697,0.03999995,0.03999998,-0.028252778306470105,-0.006615277266444706,-0.025928846663947347,0.00613147560501269,0.02103680324053704,-0.0027480842093733134,0.9999803045365872,0.0012286363802534307,-0.006142770112187801,-0.00038388397792794133
797.6166666662699,0.011942121,-0.7917514,-0.004872339,-2.3694725,-0.004158762,1.5647993,0.79651016,0.039999954,0.03999999,-0.029027454093388805,-0.006669210844145474,-0.026281996146204634,0.006330796361228835,0.0222698619352839,-0.002872401990085092,0.9999782247451902,0.0012843939687626556,-0.0064600956762202524,-0.0004093060531170761
797.6333333329366,0.012583075,-0.7921481,-0.005139775,-2.3701904,-0.0043901624,1.5644637,0.79708225,0.039999958,0.03999999,-0.029406228721051697,-0.006703920966639673,-0.026737532908716055,0.006530440423426875,0.023515093529348004,-0.0029980311739139006,0.9999759635190014,0.0013419215178930935,-0.00678834749237943,-0.000435854571289642
797.6499999996032,0.0132454205,-0.7925582,-0.0054161404,-2.3709316,-0.0046292846,1.5641168,0.79767334,0.039999958,0.03999999,-0.028436974038537066,-0.006740579916921299,-0.02671647886720585,0.006730856418210283,0.02477381601012872,-0.0031284766072048227,0.9999735116509654,0.0014011868241941509,-0.007127256337071126,-0.0004635612429273974
797.6666666662699,0.013929368,-0.79298174,-0.00570152,-2.3716965,-0.0048762034,1.5637587,0.7982838,0.039999958,0.03999999,-0.028669754158516803,-0.006779011558032989,-0.026814348535375565,0.006931793137670162,0.0260473234520638,-0.003263010322168934,0.9999708577605679,0.0014622783332216408,-0.007476821049552902,-0.000492461839332254
797.6833333329365,0.014635118,-0.7934188,-0.0059959996,-2.3724864,-0.00513098,1.5633893,0.7989137,0.039999958,0.039999995,-0.031054783503936534,-0.006815890061299783,-0.02761274552129933,0.007132659927742872,0.027335818854111817,-0.0034026748157907384,0.9999679844723722,0.0015251373095869127,-0.007837785512340557,-0.0005225942125665088
797.6999999996032,0.015362864,-0.79386973,-0.006299662,-2.373301,-0.0053937044,1.5630083,0.7995633,0.039999958,0.04,-0.030394848816839293,-0.006820809389510973,-0.02785777362590558,0.007333438214539301,0.028632278089048682,-0.0035465825676486134,0.9999648801486134,0.001589799176036823,-0.008209999317453143,-0.0005540028489064418
797.7166666662698,0.016112799,-0.79433435,-0.006612584,-2.3741398,-0.0056644417,1.5626155,0.8002326,0.039999958,0.04,-0.029383301289098718,-0.006846363621971531,-0.027652865362348678,0.007534116910929169,0.029941127165600108,-0.0036948822451607893,0.9999615333713822,0.0016562103754607013,-0.008593282306899932,-0.0005867230526098413
797.7333333329365,0.01688509,-0.79481286,-0.00693484,-2.375004,-0.0059432504,1.5622113,0.8009218,0.03999995,0.03999999,-0.031491000617167586,-0.006863574012602909,-0.02816250873705073,0.0077347391520701594,0.031261665710405215,-0.0038459855629878366,0.9999579268854957,0.001724380669442232,-0.008988080002891606,-0.0006207962872048076
797.7499999996031,0.017679919,-0.7953055,-0.0072665014,-2.3758934,-0.0062301904,1.5617952,0.80163103,0.039999947,0.039999988,-0.030529728468287054,-0.006880263911678182,-0.028353300771022383,0.007935387691175327,0.03259202551924194,-0.004003532180609089,0.9999540482609284,0.0017942883438239353,-0.009394212043913351,-0.0006562590905603308
797.7666666662698,0.018497443,-0.7958123,-0.0076076356,-2.3768072,-0.0065253205,1.561367,0.8023606,0.039999943,0.039999984,-0.02976290560687822,-0.006879981977825356,-0.02844558673589237,0.008135627984149907,0.03393262432487376,-0.0041639476758289894,0.9999498838972523,0.0018660090179639629,-0.009811587291986956,-0.0006931515190383394
797.7833333329364,0.019337814,-0.79633313,-0.007958304,-2.377747,-0.0068286974,1.5609269,0.80311114,0.03999994,0.03999998,-0.0322919234686081,-0.006890760647411138,-0.028855498732438534,0.008334546115038234,0.03528572077356813,-0.0043302471424040215,0.9999454116391832,0.0019397929369762653,-0.010240889017228458,-0.0007315307533050104
797.7999999996031,0.020201173,-0.79686826,-0.008318571,-2.3787124,-0.007140374,1.560475,0.8038815,0.03999994,0.03999998,-0.031121830814639928,-0.00687662590140312,-0.028720098854728704,0.008529960045849258,0.03664494108701363,-0.004501412189096049,0.999940621536513,0.0020150078265854625,-0.01068166879674796,-0.000771424881387835
797.8166666662697,0.021087682,-0.7974179,-0.008688495,-2.379704,-0.0074604005,1.5600109,0.8046727,0.039999943,0.039999984,-0.032235547005510234,-0.006895732798751792,-0.029438321946928525,0.008727426508257953,0.03801419521099736,-0.004677774455008438,0.9999354920864361,0.002092045543256512,-0.01113437117821147,-0.0008128897636410357
797.8333333329364,0.02199744,-0.79798186,-0.009068127,-2.380721,-0.007788824,1.5595344,0.80548465,0.039999947,0.03999999,-0.031222121124696578,-0.006850005754886323,-0.029234282015977442,0.008922749922368897,0.03939021020853474,-0.004861097405898244,0.9999300087096418,0.0021708263975136473,-0.011598815222402562,-0.0008559673617229868
797.849999999603,0.022930585,-0.79856056,-0.009457521,-2.3817651,-0.008125687,1.559046,0.8063174,0.03999994,0.039999984,-0.03309661358634752,-0.006856272068670594,-0.029760036860837502,0.009116600407711423,0.040773816672831406,-0.005047127806036344,0.9999241509103255,0.002251303331316997,-0.01207529656219624,-0.0009007066725247738
797.8666666662697,0.023887224,-0.799154,-0.009856727,-2.382835,-0.008471033,1.5585454,0.80717117,0.039999936,0.03999998,-0.031187313678571194,-0.006821604880330283,-0.029483969313015557,0.009309158137104992,0.042163822968637306,-0.005239348828017826,0.9999179059294218,0.002333539225902292,-0.012563395502890462,-0.0009471482667386531
797.8833333329363,0.024867477,-0.7997619,-0.010265782,-2.383931,-0.0088249,1.5580322,0.80804604,0.039999932,0.039999977,-0.032309759650539505,-0.006819831639187299,-0.029780486102137793,0.009499551225621523,0.04356280534436034,-0.005437306880487828,0.9999112499225609,0.0024174928521392587,-0.013063585982351229,-0.0009953531502090325
797.899999999603,0.025871433,-0.8003848,-0.010684734,-2.3850534,-0.009187318,1.5575063,0.808942,0.03999993,0.039999977,-0.03216091676052635,-0.0067720110774299735,-0.030287409633888984,0.0096877837235382,0.0449663605179992,-0.005641722788256403,0.9999041653900166,0.0025031106104435245,-0.01357577598717072,-0.0010453608527790567
797.9166666662696,0.026899178,-0.80102193,-0.011113618,-2.3862028,-0.009558326,1.5569682,0.8098593,0.03999992,0.03999997,-0.03374291131787999,-0.006754425274801794,-0.029823286107477642,0.009874108505251611,0.04637721417289524,-0.0058512136508235,0.9998966263524142,0.002590423701030075,-0.014100438936473695,-0.0010972401326632645
797.9333333329363,0.027950808,-0.8016743,-0.011552468,-2.387379,-0.009937955,1.5564177,0.81079787,0.039999917,0.039999966,-0.032216117509098474,-0.006713922245415137,-0.030387885531291126,0.010058123904390322,0.04778937050128709,-0.0060665276161212985,0.999888621240836,0.0026794006168049805,-0.014636975830494744,-0.0011510273551403334
797.9499999996029,0.0290264,-0.80234146,-0.012001322,-2.3885815,-0.010326229,1.5558547,0.81175774,0.039999913,0.03999996,-0.032352024571102866,-0.0066752170643814834,-0.03013191961322992,0.01023928125053123,0.04920724903805172,-0.0062878748992178345,0.9998801276698712,0.002769961264047912,-0.015185562168595743,-0.0012067754974256163
797.9666666662696,0.030126017,-0.8030234,-0.012460207,-2.3898113,-0.010723178,1.5552788,0.81273913,0.039999917,0.03999997,-0.03364813994013449,-0.006619659421677922,-0.030765540953225923,0.010418273852373192,0.050631537721129646,-0.006516321844320022,0.9998711163700589,0.0028621722629463236,-0.015746730372276342,-0.001264555816259277
797.9833333329362,0.031249728,-0.8037206,-0.012929143,-2.3910675,-0.011128824,1.5546906,0.8137421,0.039999917,0.03999997,-0.03175100904755368,-0.006587183245832483,-0.030243819095909785,0.010593985552253576,0.05205499415442098,-0.006750062649526267,0.9998615800082401,0.0029560104549911366,-0.016319582925525614,-0.0013244012807957326
797.9999999996029,0.032397572,-0.80443263,-0.013408158,-2.3923512,-0.011543182,1.5540897,0.8147665,0.039999917,0.03999997,-0.03392676838585018,-0.006520074726895295,-0.03086530690712408,0.010766658704012652,0.053486418406967044,-0.006990288564761339,0.9998514823189729,0.0030513729745351944,-0.01690503940731875,-0.0013863874493756346
798.0166666662695,0.033569597,-0.8051597,-0.01389727,-2.393662,-0.01196627,1.553476,0.8158126,0.039999917,0.039999973,-0.03332259997754772,-0.006459770143569903,-0.030867228541375802,0.010936026306283701,0.05491860527365081,-0.0072378729682123985,0.9998408038219928,0.0031483032855926054,-0.017502886912261786,-0.001450568422955679
798.0333333329362,0.034765862,-0.8059016,-0.014396496,-2.3949995,-0.012398103,1.5528497,0.8168804,0.039999917,0.039999973,-0.0326651837137204,-0.006424635537170646,-0.030476844416549298,0.011102217042391421,0.05635110789446523,-0.0074911090525265345,0.9998295251461089,0.0032468091159425262,-0.018112912349048306,-0.001516997991667445
798.0499999996028,0.035986386,-0.8066587,-0.01490585,-2.3963642,-0.012838693,1.5522106,0.8179697,0.039999917,0.039999988,-0.03310675235976834,-0.006338381498693403,-0.03100536891771366,0.011263898901642443,0.05778726191447099,-0.007754555265936616,0.9998176214511127,0.0033467034847245313,-0.018735230404703006,-0.0015857343117349865
798.0666666662695,0.037231207,-0.8074308,-0.015425341,-2.3977556,-0.013288056,1.5515591,0.8190808,0.039999917,0.039999973,-0.03238106133029994,-0.006289063662575332,-0.03043341098849517,0.011423080868075898,0.059223618825867755,-0.00801790098129014,0.9998050746595066,0.0034481500276180616,-0.01936950801585688,-0.0016568360538105585
798.0833333329361,0.038500328,-0.8082181,-0.01595498,-2.3991747,-0.013746189,1.5508947,0.8202135,0.039999917,0.039999973,-0.03391362364855155,-0.006194864109105268,-0.03137350660704641,0.011577558028409214,0.06066619586837885,-0.008292664608178645,0.9997918492231832,0.0035509341878750687,-0.020016365867312164,-0.001730373008063451
798.0999999996028,0.03979377,-0.8090206,-0.016494766,-2.4006214,-0.014213103,1.5502176,0.82136786,0.039999917,0.039999977,-0.03392669784567648,-0.006138812840748853,-0.03127824882618313,0.011728675283844373,0.06210498073500044,-0.008574366935011301,0.9997779202005778,0.003655099531455738,-0.020675768247352254,-0.0018064147375176692
798.1166666662695,0.041111533,-0.80983806,-0.017044708,-2.4020948,-0.014688795,1.5495276,0.822544,0.039999917,0.039999977,-0.032474866506926325,-0.0060369324702541985,-0.03086499927520414,0.011875753517854234,0.06354202503700222,-0.008861309738660759,0.9997632693699416,0.003760653603748885,-0.02134735212210578,-0.0018850094357583072
798.1333333329361,0.04245362,-0.81067073,-0.017604806,-2.4035954,-0.01517327,1.5488248,0.823742,0.039999913,0.039999973,-0.033068840959149526,-0.005960355012379383,-0.031213428208309857,0.012018217579963561,0.06498077536327396,-0.009157424280195548,0.999747867756908,0.003867613894557314,-0.02203126007806746,-0.001966229297689815
798.1499999996028,0.043820016,-0.81151855,-0.018175052,-2.4051235,-0.01566652,1.5481093,0.8249614,0.03999991,0.03999998,-0.03344646438447896,-0.005876710650962527,-0.031144390383452958,0.012155215452361381,0.06641809677468727,-0.00946243963684866,0.9997316892267921,0.003975741827616106,-0.02272751588997095,-0.0020501351506879433
798.1666666662694,0.04521071,-0.81238145,-0.018755438,-2.406678,-0.016168538,1.5473815,0.82620263,0.03999991,0.039999973,-0.0317984813430483,-0.005804766891667236,-0.0303963170178001,0.012289014112005565,0.06785342207635191,-0.009770643814097521,0.999714721119243,0.004085156786357443,-0.023435487215900566,-0.00213677571547927
798.1833333329361,0.046625692,-0.81325936,-0.019345956,-2.4082594,-0.016679326,1.5466404,0.8274655,0.03999991,0.039999973,-0.03294383360048503,-0.00568462592490937,-0.03143920724957283,0.012417479570126053,0.06929290449146622,-0.010087322792309755,0.9996969182901575,0.004195765139339315,-0.02415597089902916,-0.002226249308367123
798.1999999996027,0.048064914,-0.8141523,-0.019946596,-2.4098685,-0.017198863,1.5458872,0.82875,0.039999906,0.03999998,-0.03375142780919216,-0.005616002180160173,-0.030824729744094448,0.012541138592961056,0.07072789892034755,-0.010415817774649963,0.9996782599381503,0.004307571184213435,-0.024888661878004793,-0.00231860894664588
798.2166666662694,0.049528338,-0.8150602,-0.020557335,-2.4115047,-0.017727138,1.545121,0.83005613,0.039999906,0.039999973,-0.03329868748196407,-0.005488302962107158,-0.031399437990686785,0.012659593520808941,0.07216012348872071,-0.010746187995375578,0.9996587099342562,0.004420492148072144,-0.025633879763112544,-0.0024139407693198034
798.233333332936,0.051015943,-0.8159832,-0.021178165,-2.4131682,-0.018264143,1.5443422,0.8313838,0.039999906,0.039999995,-0.03298848738495508,-0.0054034499280299075,-0.03103192591271675,0.012772553628033978,0.07358720366066354,-0.011091670804773392,0.999638248628322,0.004534497146721074,-0.026391259290978616,-0.0025122993380609156
798.2499999996027,0.05252767,-0.81692106,-0.02180907,-2.4148586,-0.018809855,1.5435507,0.8327331,0.039999906,0.039999988,-0.032790954715733456,-0.005283742295885546,-0.03094020887255411,0.012880155257941214,0.07501183180420917,-0.011439331277804082,0.9996168463564175,0.004649571794931108,-0.027160821783170443,-0.002613756422729924
798.2666666662693,0.05406347,-0.8178741,-0.022450019,-2.4165754,-0.019364258,1.5427465,0.8341038,0.039999902,0.039999988,-0.03176186423610172,-0.005168436379860905,-0.03093354684122751,0.01298218931620139,0.07643089356345432,-0.011796314466089187,0.9995944823953612,0.004765635364083617,-0.027942260816383555,-0.0027183717177562176
798.283333332936,0.05562327,-0.81884176,-0.023100989,-2.4183202,-0.019927327,1.54193,0.835496,0.039999906,0.039999984,-0.03451853573677166,-0.005079793989348769,-0.03117441601023785,0.01307865570588626,0.0778491514754582,-0.012159240525121937,0.9995711053437181,0.004882660478328066,-0.02873634073720493,-0.0028262536380004237
798.2999999996026,0.057207007,-0.8198244,-0.023761954,-2.4200907,-0.020499041,1.5411007,0.8369094,0.039999906,0.03999999,-0.030682662740533218,-0.004923694039420112,-0.03044410084789284,0.013169142370571776,0.07925720468432065,-0.01253312937423413,0.9995467169413531,0.005000530855938618,-0.02954195125199914,-0.0029374238961636812
798.3166666662693,0.058814622,-0.8208219,-0.024432877,-2.4218884,-0.021079373,1.5402591,0.8383443,0.039999902,0.039999995,-0.03309864554015274,-0.004852364740393425,-0.030953757859486508,0.01325390199602243,0.08066561057104234,-0.012914537156906415,0.9995212675374334,0.005119325189481943,-0.03035973635386645,-0.0030519925443047093
798.3333333329359,0.060446016,-0.8218343,-0.025113728,-2.4237125,-0.021668293,1.539405,0.83980006,0.039999906,0.04,-0.031796736487588184,-0.004689009869838015,-0.030764229211110994,0.013332081452058983,0.08206668710678516,-0.013303227569452361,0.9994947383366727,0.005238779516898023,-0.03118932946381792,-0.00317000852946927
798.3499999996026,0.062101122,-0.82286125,-0.025804477,-2.4255629,-0.022265766,1.5385385,0.8412771,0.039999902,0.039999995,-0.031836993674372316,-0.004593721844755108,-0.030346919625623414,0.013405567530637208,0.08346222918868237,-0.013700314525538243,0.9994670957118857,0.0053590545313928805,-0.032030778641548394,-0.003291556378647137
798.3666666662692,0.06377983,-0.8239029,-0.026505075,-2.42744,-0.022871763,1.5376595,0.8427752,0.039999902,0.039999995,-0.03235820011597834,-0.004452058977633816,-0.030731432411035264,0.013471901622451099,0.08485376535613334,-0.014105785310665267,0.9994383049261029,0.005480019905055751,-0.03288419158710542,-0.0034167194706314656
798.3833333329359,0.06548206,-0.8249591,-0.02721549,-2.429343,-0.023486251,1.5367681,0.8442946,0.039999906,0.04,-0.03136218727237683,-0.004315459471705349,-0.030395578997355344,0.013532016323070231,0.08623651166245538,-0.014519466523746777,0.9994083401748391,0.005601788985071777,-0.03374934781503353,-0.0035455706451483276
798.3999999996025,0.0672077,-0.8260299,-0.02793568,-2.4312727,-0.024109192,1.5358647,0.8458348,0.039999906,0.04,-0.03230247911816253,-0.004208255157201607,-0.03036274156937857,0.013584057316072234,0.08761272377743358,-0.014941567961193367,0.9993771697033996,0.005724106346122812,-0.03462626558794527,-0.0036781807451194783
798.4166666662692,0.06895665,-0.8271151,-0.0286656,-2.4332283,-0.024740549,1.5349491,0.8473958,0.039999902,0.039999995,-0.03097435454124664,-0.004048323088200884,-0.03008445761589762,0.013629797864464124,0.08898054027788774,-0.015372083533294011,0.9993447682900685,0.005846977572393966,-0.03551472390394205,-0.003814620631756673
798.4333333329358,0.07072878,-0.8282148,-0.029405199,-2.4352095,-0.025380276,1.5340214,0.8489775,0.039999906,0.04,-0.030824780452531897,-0.003909084262412876,-0.02995397465166416,0.013668658892910357,0.090342036886957,-0.0158110181901855,0.9993111090610972,0.005970372356569264,-0.03641456096440814,-0.003954960274542887
798.4499999996025,0.072524,-0.8293288,-0.030154424,-2.4372165,-0.026028331,1.5330814,0.85057986,0.039999902,0.039999995,-0.031102322726894727,-0.0038037484610127514,-0.03005017602273341,0.013700169934948755,0.0916973372072147,-0.016259481313652693,0.9992761510544725,0.006094207827739802,-0.03732600078967401,-0.0040992962518691355
798.4666666662691,0.07434218,-0.830457,-0.030913228,-2.4392498,-0.026684662,1.5321294,0.8522026,0.039999902,0.039999995,-0.03179846424372634,-0.0036467744699415078,-0.030142671380306574,0.013724306061995956,0.0930434892754371,-0.01671562329435232,0.9992398568261104,0.006218370054337607,-0.0382491487667225,-0.004247707925797782
798.4833333329358,0.07618315,-0.8315993,-0.03168155,-2.4413085,-0.027349228,1.5311654,0.8538457,0.039999895,0.03999999,-0.030707006304897533,-0.0034810217167436514,-0.02973917492485878,0.013741879214797054,0.09437770151584084,-0.01718026987705038,0.9992022036889721,0.006342872969421015,-0.039183692349610624,-0.004400268110803043
798.4999999996024,0.07804681,-0.83275574,-0.032459345,-2.4433923,-0.028021997,1.5301896,0.8555091,0.0399999,0.039999995,-0.02979945897201297,-0.00334366946864971,-0.029237424757444508,0.013751942742599249,0.09570280097644876,-0.017653318522542455,0.9991631749528989,0.006467652757822101,-0.04012920032069733,-0.004557034942638412
798.5166666662691,0.07993301,-0.8339263,-0.033246536,-2.4455013,-0.028702907,1.5292023,0.85719264,0.039999902,0.04,-0.03013280477397462,-0.0032050049325930974,-0.02929498124062402,0.01375441676161697,0.09702047336811362,-0.018135020690672445,0.999122735415108,0.00659265338191715,-0.04108571623803755,-0.004718094872464234
798.5333333329357,0.0818416,-0.8351107,-0.034043074,-2.4476352,-0.02939189,1.5282031,0.85889614,0.039999895,0.03999999,-0.029707793440048036,-0.0030507136141808694,-0.02920506669421563,0.013749224631648224,0.09832945697114784,-0.01862532866114485,0.9990808481890667,0.006717793511105246,-0.04205331403556451,-0.004883524422319983
798.5499999996024,0.08377242,-0.8363089,-0.034848895,-2.4497936,-0.030088913,1.5271924,0.8606195,0.039999895,0.03999999,-0.02925273187581734,-0.002873529391187249,-0.02879808579423493,0.013736440293305369,0.09962786876145793,-0.01912417766535722,0.9990374908377444,0.006843031651381134,-0.04303170902298193,-0.005053398559720304
798.566666666269,0.08572533,-0.83752066,-0.035663933,-2.4519775,-0.03079391,1.5261699,0.8623625,0.0399999,0.039999995,-0.030996112884174032,-0.002754110612783814,-0.029343666395131862,0.013715901642135209,0.100917119201545,-0.019631768076025728,0.9989926025238824,0.006968259581788808,-0.04402150765094499,-0.0052278413421807815
798.5833333329357,0.08770015,-0.8387462,-0.03648813,-2.4541855,-0.03150682,1.525136,0.8641251,0.039999902,0.04,-0.028372672424503698,-0.0025573549688438085,-0.028498718995884076,0.013687685081803944,0.1021915763987494,-0.02014762366151488,0.9989461890875084,0.00709345816022496,-0.04502177241175135,-0.0054068630255761285
798.5999999996023,0.08969675,-0.8399852,-0.037321396,-2.4564178,-0.032227587,1.5240908,0.8659071,0.0399999,0.039999995,-0.02899750083771302,-0.002467692938327992,-0.02842517354175733,0.01365147138905641,0.10345680155573693,-0.020672246805409793,0.9988982076827676,0.007218549978575485,-0.046032691582721386,-0.005590575105595064
798.616666666269,0.091714896,-0.8412376,-0.03816366,-2.458674,-0.032956135,1.5230342,0.8677083,0.039999895,0.03999999,-0.028239782115746515,-0.002247580850109343,-0.028162334728043525,0.013607154725537127,0.10471173396337025,-0.021205365219325395,0.998848633783002,0.0073434939063045475,-0.0470540392320874,-0.005779037897737269
798.6333333329356,0.093754455,-0.8425032,-0.039014865,-2.4609551,-0.033692427,1.5219665,0.86952865,0.0399999,0.039999995,-0.030364243486769027,-0.0021098296823993112,-0.028633876424732918,0.01355468293021718,0.10595470762915724,-0.021746968125789953,0.9987974020389079,0.007468179724313036,-0.04808644825276258,-0.005972392013919431
798.6499999996023,0.09581525,-0.84378207,-0.039874926,-2.4632597,-0.03443638,1.5208876,0.87136793,0.039999902,0.04,-0.027444567552548094,-0.0019556976923344738,-0.0277138813879807,0.013494351447105257,0.10718026428857677,-0.02229671869262405,0.9987445229805111,0.0075925820902300245,-0.04912894938682093,-0.006170643870905354
798.666666666269,0.097897075,-0.84507406,-0.04074377,-2.4655871,-0.035187937,1.5197976,0.8732261,0.039999902,0.04,-0.026834216890536666,-0.0017504866529606533,-0.02748451435981014,0.013425907889885097,0.10839602698486117,-0.022855001387416828,0.9986899669045467,0.007716703452693848,-0.05018143242979087,-0.0063738788279127994
798.6833333329356,0.09999976,-0.8463789,-0.041621298,-2.4679375,-0.035947006,1.5186967,0.8751029,0.039999902,0.04,-0.026945536263855985,-0.001661379472407687,-0.02712641860116438,0.013348331221777573,0.10960038666834307,-0.023421569407307982,0.9986337038176091,0.007840398156939102,-0.05124381771777955,-0.006582165446987716
798.6999999996023,0.102123104,-0.84769666,-0.04250745,-2.470311,-0.036713537,1.5175847,0.87699807,0.039999902,0.04,-0.027354445238736425,-0.0014284621104788953,-0.02745767256042697,0.013262592383758015,0.11079420765807554,-0.023996732281330452,0.9985756873071134,0.007963604199267017,-0.05231632084423839,-0.006795608920929591
798.7166666662689,0.1042669,-0.84902704,-0.043402135,-2.4727075,-0.03748746,1.5164621,0.87891144,0.039999902,0.04,-0.027432867737431366,-0.0012985305899049226,-0.027009401393041088,0.01316832573061856,0.11197319873808706,-0.024579996042408014,0.9985158891764963,0.00808621938571584,-0.05339880031785427,-0.0070142884693416745
798.7333333329356,0.10643094,-0.85037,-0.044305276,-2.4751265,-0.038268693,1.5153291,0.88084286,0.0399999,0.039999995,-0.02622890318457749,-0.0011278137852434311,-0.026423608823589184,0.013066079833994895,0.11313673704415537,-0.025171373736326996,0.9984542988250649,0.008208219750157293,-0.054490789157097555,-0.0072382444914599765
798.7499999996022,0.10861502,-0.8517255,-0.045216773,-2.4775681,-0.039057177,1.5141857,0.8827921,0.0399999,0.04,-0.026604672258234707,-0.0009423560019629351,-0.026665571156958556,0.012954898625049907,0.1142874202015306,-0.02577247346754602,0.9983908728834068,0.008329504657732563,-0.05559244095867879,-0.007467583512879966
798.7666666662689,0.1108189,-0.8530934,-0.046136532,-2.4800322,-0.03985281,1.5130317,0.8847591,0.039999895,0.04,-0.02640466523469165,-0.0007756599870088754,-0.026453640221957286,0.01283560166345564,0.11542419291954108,-0.026380900958155123,0.9983255762582635,0.008450080509343717,-0.056703731862846565,-0.0077023840996130735
798.7833333329355,0.11304238,-0.85447335,-0.047064476,-2.482518,-0.040655557,1.5118678,0.88674366,0.039999884,0.04,-0.025319621253427904,-0.0005919770666724944,-0.025600734287478666,0.01270720915421128,0.1165448991612624,-0.026998517357635865,0.9982584019912609,0.008569866621662366,-0.05782416174588197,-0.007942704723643421
798.7999999996022,0.11528525,-0.8558654,-0.048000503,-2.485026,-0.041465316,1.5106936,0.88874555,0.03999988,0.04,-0.026105046182722802,-0.00044681793506390344,-0.026073271618742844,0.012569709539712925,0.1176519722138969,-0.027622439322360227,0.9981892955472714,0.008688779703903072,-0.05895406132540137,-0.008188651619153388
798.8166666662688,0.11754728,-0.85726935,-0.04894451,-2.487555,-0.04228199,1.5095092,0.8907645,0.039999872,0.039999995,-0.02471290174939078,-0.0002883922711888198,-0.025365209856920146,0.012423769658590475,0.11874100782339783,-0.028253848549477795,0.9981182475692454,0.008806717915884684,-0.06009299072083497,-0.008440263922066694
798.8333333329355,0.11982825,-0.8586852,-0.04989644,-2.4901059,-0.04310552,1.5083151,0.8928003,0.03999987,0.039999995,-0.025306051496110094,-7.387698514813024e-05,-0.025393875507973007,0.01226946087265457,0.1198150263812578,-0.0288928518628941,0.9980452223500416,0.008923625516671356,-0.06124095376662719,-0.008697622298538453
798.8499999996021,0.122127905,-0.8601122,-0.050856154,-2.492677,-0.0439358,1.5071111,0.8948528,0.039999865,0.039999995,-0.023704881282893275,4.3161141161096594e-05,-0.024383914339676238,0.012106339640953062,0.120871408887254,-0.029539252340742846,0.9979702021023359,0.009039493005786594,-0.06239765491199496,-0.008960800383051136
798.8666666662688,0.12444605,-0.8615508,-0.051823575,-2.4952688,-0.044772755,1.5058974,0.8969218,0.03999986,0.039999995,-0.023925575337724325,0.0002288416408119387,-0.024673231643590476,0.01193415794157561,0.12191135566877387,-0.03019289353931865,0.9978931616449012,0.00915418902690594,-0.06356295011734568,-0.009229850377051286
798.8833333329354,0.12678239,-0.8630007,-0.05279859,-2.4978807,-0.04561629,1.5046743,0.8990071,0.039999858,0.039999995,-0.023009496978954047,0.00042192627233289537,-0.023949385064914175,0.01175326843702161,0.1229354422150229,-0.030853851133112342,0.9978140867419732,0.009267695726140173,-0.06473651486479207,-0.009504828160998749
798.8999999996021,0.12913667,-0.8644617,-0.0537811,-2.5005133,-0.046466332,1.5034417,0.9011084,0.039999854,0.04,-0.024254441566373686,0.0006156321303116274,-0.02442009556788971,0.011563405209915209,0.12394476669000559,-0.03152285615095729,0.9977329134967013,0.009379919030056801,-0.06591879272569261,-0.009785867869573223
798.9166666662687,0.13150868,-0.86593384,-0.05477099,-2.5031652,-0.047322776,1.5021998,0.9032255,0.03999985,0.04,-0.021902036266618907,0.0007475565567946485,-0.023401424650271174,0.011364958301046502,0.12493352887266167,-0.032197645356455556,0.9976496621169711,0.009490788233716295,-0.0671089568221219,-0.010072960381266037
798.9333333329354,0.1338981,-0.86741674,-0.05576818,-2.505837,-0.048185524,1.5009487,0.90535825,0.039999843,0.039999995,-0.022877608097737756,0.0009854405153511547,-0.023478263263743138,0.011157592663282492,0.12590729731691325,-0.03287951448324106,0.9975642775880337,0.009600316571670951,-0.06830730338957396,-0.010366209800751142
798.949999999602,0.13630475,-0.86891043,-0.05677254,-2.5085278,-0.04905448,1.4996887,0.9075062,0.039999843,0.039999995,-0.021599744790568032,0.0010467687944937243,-0.02280002910250989,0.01094087649753303,0.12686217541776507,-0.03356702703761973,0.9974767661096728,0.00970827191486286,-0.06951327037592624,-0.010665634976853832
798.9666666662687,0.13872838,-0.8704146,-0.057783972,-2.5112374,-0.049929574,1.4984199,0.9096693,0.039999843,0.04,-0.021470678037083246,0.0012604092178708504,-0.022647893735805447,0.01071617422697814,0.12780024097615905,-0.03426215670303506,0.9973870893879359,0.009814650414518919,-0.0707269141464784,-0.010971334231493308
798.9833333329353,0.14116868,-0.871929,-0.058802366,-2.5139656,-0.050810702,1.4971421,0.9118472,0.03999984,0.04,-0.021312387084937434,0.0014651428921222398,-0.02240595264944023,0.010483051741552271,0.12872083761006903,-0.03496355307726839,0.9972952132981439,0.00991940163446751,-0.0719482329847456,-0.01128338487318895
798.999999999602,0.1436254,-0.87345374,-0.059827607,-2.5167122,-0.051697787,1.495856,0.91403997,0.039999835,0.04,-0.020565676342299,0.001615250216336489,-0.02178220925910246,0.010241416064911774,0.1296215674701836,-0.03567099091138737,0.9972011461538912,0.010022606573625296,-0.07317663167229572,-0.011601812096967088
799.0166666662686,0.14609823,-0.87498844,-0.060859576,-2.5194767,-0.0525907,1.4945613,0.91624695,0.03999983,0.04,-0.020232398881070424,0.0018105603879783883,-0.02172804818927343,0.009989787152639262,0.1305059369099396,-0.03638439851700606,0.9971048443634193,0.01012397358545639,-0.07441228801123767,-0.011926688508338923
799.0333333329353,0.14858697,-0.876533,-0.061898153,-2.5222595,-0.053489357,1.4932584,0.9184685,0.039999824,0.039999995,-0.020953760142794486,0.0018878679715506053,-0.021608177020282504,0.009730276613308969,0.13137032803149853,-0.03710449877359226,0.9970062697520108,0.010223684382569875,-0.0756552225763633,-0.01225812586601743
799.0499999996019,0.15109129,-0.8780872,-0.06294323,-2.5250595,-0.054393645,1.491947,0.92070365,0.03999982,0.039999995,-0.019126130005364672,0.002150749826528714,-0.020953577376192634,0.009460899054712243,0.13221388242809098,-0.037828919022024315,0.9969054305858254,0.010321409079397168,-0.0769049354561893,-0.012596105969118128
799.0666666662686,0.15361096,-0.87965095,-0.0639947,-2.5278764,-0.05530345,1.4906279,0.92295253,0.039999824,0.04,-0.018816923800124563,0.002235562437744032,-0.020361130167501074,0.009183954510341708,0.1330376545342558,-0.038558039002155396,0.9968023145693992,0.010417213185486055,-0.0781611564660339,-0.012940670710169324
799.0833333329352,0.15614565,-0.88122404,-0.06505243,-2.5307114,-0.056218684,1.489301,0.92521495,0.03999982,0.04,-0.02074588451408399,0.002424904916289994,-0.020950040838330075,0.008898218150247383,0.13384464334052298,-0.03929369375871732,0.9966968445491861,0.01051104687622306,-0.079424437193562,-0.013291980128916797
799.0999999996019,0.15869509,-0.8828064,-0.0661163,-2.5335624,-0.057139263,1.4879662,0.9274905,0.03999981,0.039999995,-0.017347343119977765,0.0026493611614428203,-0.019732907442460146,0.00860369526644228,0.1346250525809829,-0.04003407378483712,0.9965890696366905,0.010602809320710407,-0.08069377185555841,-0.013649977981939504
799.1166666662685,0.16125903,-0.8843976,-0.06718623,-2.536429,-0.05806508,1.4866239,0.92977875,0.0399998,0.04,-0.016899343557730262,0.002764859624049265,-0.01899990979867816,0.008301088930818351,0.13538778358489217,-0.04078013948625406,0.9964789773871283,0.010692382952104928,-0.08196895035255987,-0.014014697656680746
799.1333333329352,0.16383706,-0.8859977,-0.06826205,-2.5393112,-0.05899603,1.4852742,0.93207973,0.039999798,0.04,-0.017145933226814236,0.0030101789878472784,-0.019070246559593773,0.007990718298334878,0.136133413129162,-0.04152959423607079,0.9963665366164461,0.010779837164543839,-0.08324996377711587,-0.014386220934037401
799.1499999996018,0.16642897,-0.8876064,-0.06934365,-2.542209,-0.059931986,1.4839171,0.9343933,0.039999794,0.04,-0.01697923648420474,0.0031106377584556866,-0.018829791728047773,0.007671739314870765,0.13685964584909205,-0.04228349144770693,0.9962517168204597,0.01086514878197583,-0.08453680556087037,-0.014764612416033385
799.1666666662685,0.16903445,-0.88922346,-0.07043091,-2.5451214,-0.06087285,1.482553,0.93671876,0.03999979,0.04,-0.015882335308314843,0.0032658241358729523,-0.018051330874568894,0.007343479975422201,0.1375647927551889,-0.04304191477084139,0.9961345310649315,0.010948076770886158,-0.08582900108984545,-0.015149858315741461
799.1833333329351,0.17165324,-0.89084893,-0.07152371,-2.548049,-0.061818507,1.4811819,0.93905616,0.039999783,0.039999995,-0.016204347059578517,0.003414531611962285,-0.018199441888522294,0.007008095796524297,0.13825001846835977,-0.04380292477864475,0.9960149416285486,0.011028663284487861,-0.08712662924569686,-0.015542043466648657
799.1999999996018,0.17428496,-0.89248246,-0.0726219,-2.5509913,-0.06276887,1.4798038,0.94140506,0.03999978,0.04,-0.01606146653296836,0.0036264707636721183,-0.017839215558057564,0.006664180982180662,0.13891459879172907,-0.04456896744112174,0.9958929222972548,0.011106802492357348,-0.08842965049370463,-0.015941241174727658
799.2166666662685,0.17692934,-0.8941236,-0.073725365,-2.5539474,-0.06372381,1.4784193,0.94376516,0.039999776,0.04,-0.014780081117393706,0.003729294511844311,-0.016740620795796524,0.006312954446232477,0.13955589305060803,-0.045337357348679816,0.9957684923821963,0.011182438332370198,-0.08973753051901522,-0.016347423900400188
799.2333333329351,0.17958608,-0.8957726,-0.07483397,-2.5569181,-0.06468322,1.4770287,0.9461364,0.03999977,0.04,-0.01562902429195212,0.0038374409165944923,-0.016966635273529818,0.00595400570616994,0.14017682967868056,-0.046109790006353686,0.9956416181951777,0.011255571157041191,-0.09105031604526127,-0.01676067372376977
799.2499999996018,0.18225487,-0.8974289,-0.07594763,-2.5599024,-0.06564699,1.4756314,0.9485183,0.039999764,0.04,-0.014611539071474056,0.00413690926616278,-0.016775397688462146,0.00558695324288809,0.1407759976492062,-0.04688415515396942,0.9955122640948975,0.011326059675752434,-0.09236809213676561,-0.017181035006259875
799.2666666662684,0.18493539,-0.8990926,-0.07706612,-2.5628986,-0.06661502,1.4742281,0.95091075,0.039999764,0.04,-0.011651836797810233,0.004157326871487982,-0.015016730011974122,0.005212824337761074,0.14134952275061008,-0.04766109314546997,0.9953805329780123,0.011393997718044549,-0.09368946246106966,-0.017608407314833117
799.2833333329351,0.18762729,-0.9007633,-0.07818941,-2.5659082,-0.06758715,1.4728189,0.95331335,0.03999976,0.04,-0.014358232581690444,0.004397455356971308,-0.015930095395999544,0.004830661881094378,0.14190883179927188,-0.04844058095487395,0.9952462992370714,0.01145923087928735,-0.09501548364323352,-0.018042941850239726
799.2999999996017,0.19033028,-0.90244085,-0.0793173,-2.5689316,-0.06856329,1.4714034,0.9557257,0.03999975,0.04,-0.015054642528999906,0.004519601644424609,-0.016333791575684486,0.004440955037168931,0.14244143943481155,-0.04922246148592707,0.9951095099263596,0.011521602857847129,-0.09634640273266194,-0.018484766760286014
799.3166666662684,0.19304405,-0.90412503,-0.08044967,-2.5719645,-0.06954336,1.4699827,0.95814776,0.039999746,0.04,-0.008348199806440526,0.004630507889293728,-0.012660354938009988,0.004045118828238464,0.14294497373785925,-0.05000466070332354,0.9949703876358801,0.011581281522509196,-0.09767969082564808,-0.018933558730693845
799.333333332935,0.1957683,-0.90581596,-0.0815864,-2.575011,-0.070527226,1.468556,0.96057916,0.03999974,0.04,-0.014694371173451515,0.004863652730551643,-0.016024746917320254,0.0036411877344259547,0.14343908904629538,-0.05079084209536153,0.9948286724230693,0.01163805745037731,-0.09901770941566912,-0.01938972320095191
799.3499999996017,0.19850264,-0.9075131,-0.08272735,-2.5780666,-0.07151478,1.4671246,0.9630196,0.03999974,0.04,-0.007798026641814282,0.004933518129399128,-0.011922996965130217,0.003231049761611482,0.1439004575934978,-0.05157619699922533,0.9946846070026979,0.011692043419489963,-0.10035781790220095,-0.01985288640157969
799.3666666662683,0.20124683,-0.9092163,-0.08387237,-2.581136,-0.07250586,1.4656881,0.9654688,0.039999735,0.04,-0.015322854862342972,0.0049954667611859516,-0.015148309520263137,0.0028128253417237514,0.1443516391858981,-0.052364551777163953,0.9945379138246678,0.011742976974044058,-0.1017024874385911,-0.02032349639869838
799.383333332935,0.20400049,-0.9109254,-0.085021384,-2.5842144,-0.07350037,1.464246,0.9679264,0.039999727,0.04,-0.008071778994001022,0.005346476497188057,-0.012474157252140294,0.0023892993078276914,0.14476718265748675,-0.05315057973397337,0.9943887747591167,0.011790935511404312,-0.1030497305787786,-0.0208012379552203
799.3999999996016,0.20676328,-0.9126402,-0.08617418,-2.5873017,-0.07449821,1.4627999,0.9703922,0.039999723,0.04,-0.00755456336907212,0.005276874434537171,-0.01103609634918179,0.001958919355246974,0.14516552118736586,-0.05393811247494275,0.9942372568000839,0.011835975105275016,-0.10439871056898682,-0.021286054483727637
799.4166666662683,0.20953484,-0.91436046,-0.087330654,-2.5904014,-0.075499244,1.4613494,0.9728659,0.039999716,0.04,-0.013363878489425218,0.005501022732259941,-0.01355314860380652,0.0015209282979074534,0.14554926451446223,-0.05472854231614638,0.9940831203778089,0.011877846981244113,-0.10575146021314251,-0.021778319351985008
799.4333333329349,0.21231492,-0.916086,-0.088490635,-2.59351,-0.076503344,1.4598944,0.9753472,0.03999971,0.04,-0.007842089818321796,0.0055654230435811525,-0.0111901194858266,0.0010775859992282477,0.14590071191674836,-0.05551532545490882,0.9939265291372554,0.011916660072238187,-0.10710624777855315,-0.022277782131314903
799.4499999996016,0.21510315,-0.9178165,-0.08965402,-2.5966265,-0.077510394,1.4584339,0.9778357,0.039999694,0.04,-0.007151521257586779,0.005935362524192578,-0.01153759747670735,0.0006282698458022484,0.1462310003339254,-0.05630147644296008,0.9937674217659072,0.011952298754579909,-0.10846344769520973,-0.02278452337204348
799.4666666662682,0.21789917,-0.91955197,-0.090820655,-2.5997517,-0.07852029,1.456969,0.9803313,0.039999682,0.04,-0.007636443860459252,0.005940447124395953,-0.010805361463084306,0.00017364405129571825,0.14653701446439765,-0.057083134594195804,0.9936058263666763,0.011984817514585074,-0.10982260680864278,-0.023298519117977826
799.4833333329349,0.22070274,-0.92129207,-0.091990404,-2.6028852,-0.079532884,1.4555002,0.9828334,0.039999675,0.04,-0.007404073795269639,0.005948716995096692,-0.010283318729542579,-0.0002879842392796428,0.14682008476557737,-0.05786698022671481,0.9934417462971413,0.012013986730464249,-0.11118354529220627,-0.023819741669096055
799.4999999996015,0.22351336,-0.9230365,-0.0931631,-2.606027,-0.08054808,1.4540278,0.98534197,0.03999967,0.04,-0.007184744870647464,0.006173470230906586,-0.009840079601242113,-0.0007536810588293363,0.14707924988450988,-0.058648168238070564,0.9932751740155465,0.012039977689368412,-0.11254612962965511,-0.024348230469794684
799.5166666662682,0.22633079,-0.9247851,-0.09433865,-2.6091764,-0.0815657,1.4525532,0.9878564,0.039999664,0.04,-0.0067444411281814,0.006023578107524491,-0.00840064931377782,-0.0012259077810695684,0.1473152845392,-0.059426103477264444,0.9931061874412684,0.012062547735764978,-0.11390957637774889,-0.024883806329264846
799.5333333329348,0.22915468,-0.9265379,-0.095516875,-2.612333,-0.08258568,1.4510758,0.9903767,0.03999965,0.04,-0.0055748249890408275,0.006274359416356262,-0.008403369567200336,-0.0017019630568360922,0.14753244592465128,-0.06020310760285909,0.9929347866846323,0.012081845914378801,-0.1152737225276384,-0.02542650753575664
799.5499999996015,0.23198466,-0.9282946,-0.096697636,-2.6154966,-0.08360787,1.4495951,0.9929024,0.03999964,0.04,-0.005474887125256345,0.006498243965268741,-0.008623113500849655,-0.002183431970371158,0.14772966090324613,-0.06097927507303168,0.9927609227887857,0.01209773414755139,-0.11663885356027055,-0.025976390284250184
799.5666666662681,0.23482046,-0.93005466,-0.0978808,-2.6186666,-0.08463218,1.4481108,0.9954334,0.039999638,0.04,-0.005194694005550282,0.006638220411602641,-0.00832686795815274,-0.0026695354623516576,0.14790297660622487,-0.061750771121066056,0.9925845602224098,0.012110283486590408,-0.11800509781059107,-0.026533539768988555
799.5833333329348,0.2376616,-0.93181807,-0.09906621,-2.6218433,-0.085658446,1.4466228,0.99796927,0.039999627,0.04,-0.005508614771532194,0.006850474180269961,-0.008573249785492898,-0.0031598694730692323,0.14804985366204618,-0.06251836945501824,0.9924056642588422,0.012119437973293744,-0.11937259608399085,-0.02709797177550439
799.5999999996014,0.24050789,-0.9335847,-0.10025375,-2.6250257,-0.08668658,1.4451332,1.0005095,0.039999615,0.04,-0.003830895529399747,0.006628120752212585,-0.006291640379585406,-0.0036557108517944747,0.1481671378848926,-0.06328121441098672,0.992224399490945,0.012125019647210604,-0.12073992100860681,-0.027669413225145045
799.6166666662681,0.24335887,-0.9353542,-0.101443246,-2.6282127,-0.0877164,1.4436412,1.0030539,0.03999961,0.04,-0.0023287530108273558,0.006864586880715728,-0.005944825007164756,-0.0041538340080911895,0.14826397955765747,-0.06403862769656901,0.9920407636540729,0.01212714492788979,-0.12210698157555651,-0.028247843369867767
799.6333333329347,0.24621423,-0.93712646,-0.102634534,-2.6314049,-0.08874782,1.4421456,1.0056022,0.0399996,0.04,-0.0035544582535296243,0.00718384732266153,-0.00733655733274885,-0.0046560624300232,0.1483424087558961,-0.06479426382822992,0.9918546249346616,0.01212575968713321,-0.12347468847471064,-0.02883349187672149
799.6499999996014,0.24907365,-0.9389012,-0.10382751,-2.6346016,-0.08978073,1.4406493,1.0081542,0.039999593,0.04,-0.002348988840839006,0.006857188893517885,-0.004499562255788625,-0.005161923553246989,0.1483894099519552,-0.06554283540609959,0.99166617778757,0.012120822057366712,-0.12484144537225059,-0.02942602627288171
799.666666666268,0.25193676,-0.9406782,-0.10502199,-2.6378024,-0.09081498,1.4391499,1.0107094,0.039999582,0.04,-0.0019883326115577304,0.007345849408170457,-0.00599177551444674,-0.005671070559204794,0.14841911952657688,-0.06628829223158736,0.9914752813350971,0.012112366346537617,-0.1262082292274321,-0.03002565500123419
799.6833333329347,0.25480318,-0.9424574,-0.10621787,-2.641007,-0.09185043,1.4376497,1.0132676,0.03999958,0.04,-0.0013465928386358073,0.007125511022545994,-0.003920807887958233,-0.006183403363448775,0.14841985956532278,-0.0670261120233336,0.9912820942645794,0.012100361216334012,-0.12757376772312246,-0.030632085103544367
799.6999999996013,0.25767255,-0.94423825,-0.107414976,-2.6442144,-0.092886955,1.4361466,1.0158285,0.039999563,0.04,-0.0005163579829714493,0.007577060468480501,-0.00490527433562038,-0.0066987508551914765,0.14840225472816326,-0.067759181724937,0.9910864899268796,0.012084794520624926,-0.12893892067222892,-0.03124551106466446
799.716666666268,0.2605445,-0.9460208,-0.10861317,-2.6474252,-0.09392448,1.4346433,1.0183918,0.039999563,0.04,-0.0008816232412112157,0.007301477253782163,-0.00305941353451189,-0.007217373903033619,0.14835657056726476,-0.0684867191428265,0.9908886116261663,0.012065711021338531,-0.13030254984205422,-0.0318657099681963
799.7333333329346,0.26341882,-0.94780475,-0.10981231,-2.6506393,-0.094962806,1.433139,1.0209571,0.039999556,0.04,-0.0010926482914452862,0.0073904592281209824,-0.003575770032471226,-0.007738744932927977,0.1482904782306128,-0.06920523534980284,0.9906883944764623,0.012042884384262735,-0.13166509349477515,-0.032492724422072065
799.7499999996013,0.26629508,-0.94959,-0.111012235,-2.6538546,-0.096001856,1.4316332,1.0235242,0.03999955,0.04,0.002057442381664387,0.00764921387975126,-0.002388713575840473,-0.008261429983472235,0.1481988190021617,-0.06991855613273593,0.990485936502059,0.01201651054888285,-0.13302576608283978,-0.03312640372786684
799.766666666268,0.26917282,-0.9513762,-0.112212814,-2.6570714,-0.09704149,1.4301262,1.0260923,0.039999545,0.04,0.0014396885086087607,0.0077987767849993506,-0.002351843833281464,-0.00878558772928284,0.1480863492887765,-0.07062276411639681,0.9902812011009878,0.01198640482637947,-0.13438480557319984,-0.03376674216409325
799.7833333329346,0.27205187,-0.9531631,-0.11341389,-2.6602898,-0.09808155,1.428619,1.0286617,0.039999533,0.04,0.0011167245909993184,0.007542701589488554,-0.0015479043944610638,-0.009311211648216244,0.14795085253981097,-0.07132085975859134,0.990074237964007,0.011952714739397062,-0.1357417959656623,-0.03441367109690771
799.7999999996013,0.27493185,-0.9549505,-0.114615306,-2.6635091,-0.09912196,1.4271116,1.031232,0.03999953,0.04,0.0020939148682952435,0.007703848878201636,-0.0010750644550583388,-0.009839350542933584,0.14779144488829596,-0.07201097471147747,0.9898650759216462,0.011915383169216053,-0.13709650465614268,-0.035067128847865156
799.8166666662679,0.27781212,-0.95673835,-0.11581691,-2.6667295,-0.100162536,1.425604,1.0338024,0.039999522,0.04,0.002050430580524676,0.007979899320693928,-0.0010254415712562803,-0.010367787650710086,0.1476108700019044,-0.07269152858358403,0.9896537073115691,0.011874324962075326,-0.13844897801078657,-0.03572702756920507
799.8333333329346,0.28069267,-0.9585263,-0.11701857,-2.6699502,-0.10120322,1.4240963,1.0363731,0.03999951,0.04,0.0026123851532000586,0.007827729170438447,-0.00043482410592154963,-0.01089665568750775,0.14740650787092124,-0.0733650489977542,0.9894401601820398,0.011829657179950971,-0.13979896528241892,-0.03639337763809686
799.8499999996012,0.28357297,-0.9603141,-0.11822015,-2.6731706,-0.10224383,1.4225887,1.0389435,0.039999504,0.04,0.0038618332659723364,0.007994619998658026,0.00032490081904867907,-0.011425904930130099,0.1471777611518793,-0.07402707376736871,0.9892244836454432,0.011781288835336648,-0.1411461421061751,-0.03706600542718262
799.8666666662679,0.2864528,-0.9621016,-0.119421475,-2.6763902,-0.10328419,1.4210813,1.0415136,0.039999492,0.04,0.00419687167418914,0.007890755640468927,0.0007034484083234815,-0.01195526205351391,0.14692768995296554,-0.07468029838972778,0.9890067050000875,0.011729307694544442,-0.14249030873573698,-0.03774483702801052
799.8833333329345,0.28933167,-0.9638885,-0.12062242,-2.6796088,-0.104324274,1.4195743,1.0440829,0.039999485,0.04,0.00442864748233518,0.008144424716038934,0.001060556699361559,-0.01248556264642739,0.14665461366503477,-0.07532464605499704,0.9887868351447819,0.01167375446638015,-0.1438313742554861,-0.03842985663260793
799.8999999996012,0.2922093,-0.9656746,-0.121822834,-2.6828249,-0.10536392,1.4180673,1.0466511,0.039999478,0.04,0.006672524586659456,0.008169411816427719,0.0021566971558639736,-0.013016110699449246,0.14635887637277536,-0.07595769132887199,0.9885649569082049,0.011614653133423644,-0.14516880808557223,-0.03912087632816744
799.9166666662678,0.29508534,-0.96745974,-0.12302257,-2.6860394,-0.10640301,1.4165617,1.0492178,0.039999466,0.04,0.005036154901505441,0.008031818610911012,0.002243478492480744,-0.013546906761057992,0.14604239319400575,-0.07658109341011962,0.988341078139057,0.011551835712903082,-0.14650258764903643,-0.039817837293416876
799.9333333329345,0.29795945,-0.96924347,-0.124221474,-2.6892526,-0.10744138,1.4150574,1.0517827,0.03999946,0.04,0.004692511880666217,0.008066157071123792,0.0023376468136215856,-0.01407556515811495,0.14570630708759671,-0.07719318400558094,0.9881151629336913,0.011485328830955903,-0.1478329461091747,-0.04052076068944617
799.9499999996011,0.30083123,-0.97102594,-0.12541938,-2.6924627,-0.10847895,1.4135543,1.0543456,0.039999444,0.04,0.0073224788412762365,0.008201810000375842,0.003464968778399413,-0.01460313044567979,0.14534385091510515,-0.07779409078673716,0.9878873470928785,0.011415261951975652,-0.14915903533274208,-0.041229400031629684
799.9666666662678,0.3037003,-0.9728065,-0.12661622,-2.6956697,-0.10951553,1.4120516,1.056906,0.03999944,0.04,0.006820874907886854,0.008447207175618643,0.0029330537948402124,-0.015129501579995347,0.14496235432716878,-0.07838257422413164,0.987657522728764,0.011341584500357828,-0.15048156707735125,-0.04194382228942645
799.9833333329344,0.30656636,-0.9745856,-0.1278118,-2.6988738,-0.110551044,1.4105517,1.0594639,0.03999943,0.04,0.006987519546974852,0.008005473684795372,0.004667635952648741,-0.015654625366124608,0.1445538437179189,-0.07895956646325585,0.9874259052517286,0.01126439037306238,-0.1517992258411341,-0.04266368691709581
799.9999999996011,0.30942893,-0.9763623,-0.12900592,-2.7020733,-0.111585334,1.4090526,1.0620186,0.039999418,0.04,0.008713537339066768,0.008460794625871071,0.004470553743296524,-0.016177975812927042,0.1441288947659798,-0.0795247409146901,0.9871924052075862,0.011183681017984842,-0.15311259668857644,-0.04338908981103748
800.0166666662677,0.31228784,-0.9781367,-0.13019848,-2.705269,-0.1126183,1.4075564,1.06457,0.03999941,0.04,0.007908313354576535,0.008052579039175,0.005519249389818182,-0.01670038759290396,0.1436809257265948,-0.08007731405333415,0.9869571472019131,0.011099315562822678,-0.15442098338023913,-0.044119776438441775
800.0333333329344,0.31514263,-0.97990865,-0.1313893,-2.70846,-0.11364979,1.4060614,1.0671177,0.039999396,0.04,0.009067316812583215,0.008479051816480399,0.004979605900423678,-0.017219300120121767,0.14321439500266764,-0.0806176516354413,0.9867200624994443,0.011011485563875337,-0.15572482579548824,-0.04485581431357565
800.049999999601,0.31799304,-0.98167783,-0.13257827,-2.711647,-0.114679724,1.4045697,1.0696615,0.03999939,0.04,0.008018517008179238,0.00807176840683238,0.006167905218967817,-0.01773503398159093,0.14272344571498205,-0.08114272412783893,0.9864812590170885,0.010920090623682415,-0.1570235383184736,-0.04559699159788323
800.0666666662677,0.32083866,-0.9834443,-0.13376524,-2.7148278,-0.11570794,1.4030803,1.072201,0.039999373,0.04,0.011116981508552115,0.008344167411397652,0.006959003905326888,-0.018248690958622,0.1422122218916861,-0.08165649161257305,0.9862408341903263,0.01082526787532529,-0.15831661618499993,-0.04634306410594843
800.0833333329343,0.32367918,-0.98520744,-0.13495006,-2.7180023,-0.116734356,1.401593,1.0747359,0.03999937,0.04,0.010760892001071554,0.008417295181174789,0.006868500256851373,-0.018758104987549873,0.14168480134568673,-0.0821549018501414,0.9859987379340077,0.010726974515799927,-0.1596044099004181,-0.047094088276776046
800.099999999601,0.3265143,-0.9869672,-0.13613261,-2.7211711,-0.117758796,1.4001092,1.0772659,0.039999366,0.04,0.01009184079883152,0.008086789918554382,0.0077357085399354375,-0.01926445402648,0.14113582457919807,-0.08263983895024316,0.9857550627677751,0.010625204553382101,-0.16088646554910307,-0.047849832382317055
800.1166666662676,0.32934353,-0.9887234,-0.13731273,-2.7243347,-0.118781105,1.3986288,1.0797907,0.03999936,0.04,0.009299385694894191,0.008232082693540588,0.007313914281215084,-0.01976616980887691,0.14056682875775126,-0.0831105506140278,0.9855097568853833,0.01052004258893648,-0.16216314338483123,-0.0486103149052779
800.1333333329343,0.33216673,-0.9904756,-0.13849024,-2.7274907,-0.11980119,1.3971512,1.0823101,0.039999347,0.04,0.012475133013811757,0.008228330008502871,0.008622628940058163,-0.02026373589384614,0.13997475876277507,-0.08356480093446866,0.9852629382284079,0.010411502069869466,-0.1634338414380066,-0.04937532431275752
800.1499999996009,0.33498335,-0.99222386,-0.13966507,-2.730639,-0.12081899,1.3956757,1.0848238,0.039999332,0.04,0.012497592156357484,0.00864020559447759,0.008106994057766048,-0.02075733512236763,0.13936373660989282,-0.08400622150788004,0.9850145630798018,0.010299803054305893,-0.16469886767210715,-0.05014486579177894
800.1666666662676,0.3377932,-0.99396795,-0.14083698,-2.7337794,-0.121834315,1.3942039,1.0873312,0.03999933,0.04,0.012795811974397608,0.008089704615413251,0.009698405505786933,-0.02124676719024196,0.13872825140739897,-0.08442777569737975,0.9847648040044058,0.010184619002401946,-0.16595738176698382,-0.050918579781724455
800.1833333329342,0.34059578,-0.99570745,-0.14200592,-2.7369115,-0.12284703,1.3927361,1.0898322,0.03999932,0.04,0.013220121334844848,0.008188745716758428,0.010226135216517829,-0.021730604042673324,0.13807738615022302,-0.08483657748385429,0.9845136901237652,0.010066297409722955,-0.16720930748886348,-0.051696335503017964
800.1999999996009,0.3433909,-0.9974423,-0.14317174,-2.7400358,-0.123857036,1.3912721,1.0923266,0.039999302,0.04,0.012502436867989353,0.00817636470398092,0.009781846770584579,-0.02220989936877936,0.1374080862005332,-0.08522959454683751,0.9842611824397564,0.009944777639166142,-0.1684549454126018,-0.052478162182355674
800.2166666662675,0.34617814,-0.99917233,-0.1443343,-2.7431521,-0.12486423,1.3898124,1.0948138,0.039999302,0.04,0.01242368780411951,0.008165764266428177,0.010186697089353824,-0.022684093610687392,0.13671660193919224,-0.08560532359259057,0.9840073253763175,0.009819924030862444,-0.16969416850872227,-0.05326388900472157
800.2333333329342,0.3489572,-1.0008973,-0.14549336,-2.74626,-0.12586842,1.3883586,1.097294,0.03999929,0.04,0.013384287128204164,0.007638648959500116,0.012039363877036635,-0.023151319732912484,0.13600485290431544,-0.08596469839661985,0.9837523255630939,0.009692012265338463,-0.17092595166745864,-0.05405317653964971
800.2499999996008,0.35172766,-1.0026168,-0.14664885,-2.7493553,-0.12686957,1.3869092,1.0997664,0.039999276,0.04,0.018530181694664805,0.008036311057363354,0.01388238388714269,-0.023612832445607995,0.13527958097076898,-0.08630844497489296,0.9834963672857037,0.009561170542885728,-0.17214946504171286,-0.05484561276461621
800.2666666662675,0.3544894,-1.0043309,-0.14780058,-2.752441,-0.12786749,1.3854642,1.1022309,0.03999927,0.04,0.014849402803984724,0.007945000310874417,0.011724702864190917,-0.024069038255221706,0.1345466539597657,-0.08663635685262736,0.9832392409613618,0.009427224033711216,-0.17336593106550094,-0.05564149913989687
800.2833333329341,0.35724187,-1.0060393,-0.14894852,-2.7555177,-0.12886219,1.3840232,1.1046871,0.039999254,0.04,0.0132470353060965,0.008308492862470207,0.010883733216371372,-0.024519203870227338,0.133795610129622,-0.0869497214107653,0.9829808245722172,0.009290154467779041,-0.17457608884942455,-0.056440949277333376
800.2999999996008,0.35998482,-1.0077418,-0.15009253,-2.7585843,-0.12985337,1.3825877,1.1071348,0.03999924,0.04,0.01527040860920259,0.007763698452623036,0.013078402750477114,-0.024960958205695508,0.1330171639053849,-0.08724137910581292,0.982721385344015,0.009150145858059287,-0.17577869054018092,-0.05724338887850201
800.3166666662675,0.36271778,-1.0094378,-0.15123236,-2.7616382,-0.13084102,1.3811575,1.1095736,0.039999235,0.04,0.01823320284535246,0.007798799004188339,0.014950429767779383,-0.025395604334988386,0.13222267091358506,-0.08751599150801294,0.982461087143655,0.009007332083859083,-0.17697300700562418,-0.058048557334577755
800.3333333329341,0.3654407,-1.011128,-0.15236793,-2.7646832,-0.13182499,1.379732,1.1120032,0.039999213,0.04,0.013227592814679667,0.007962182701659604,0.011324569608561763,-0.02582433235962249,0.13141589494473438,-0.08777605105499595,0.9821996030138483,0.008861388943171462,-0.17816083215899198,-0.058856890079683394
800.3499999996008,0.36815304,-1.0128117,-0.15349917,-2.767714,-0.13280521,1.3783126,1.1144238,0.039999206,0.04,0.020676648451800617,0.007586585403808466,0.016840662087846958,-0.026242411664937362,0.1305816659337911,-0.08801290558284425,0.9819375363021019,0.0087130268448601,-0.17933924818089808,-0.0596673447211249
800.3666666662674,0.37085468,-1.0144885,-0.15462585,-2.7707355,-0.13378151,1.3768984,1.1168345,0.039999194,0.04,0.013266743604489761,0.0077475456492281936,0.012236068392412758,-0.026656732711052705,0.12974484205160577,-0.08823609184448244,0.9816743260142748,0.00856161697763181,-0.1805112006179726,-0.0604807639717418
800.3833333329341,0.3735451,-1.0161583,-0.15574788,-2.7737424,-0.13475378,1.3754905,1.1192352,0.039999183,0.04,0.020714858988934992,0.007415550292921846,0.017247683633014876,-0.02705959363660307,0.12887762841613204,-0.08843617436050033,0.9814105864297668,0.008407607447453268,-0.18167380196428062,-0.061296024833867375
800.3999999996007,0.37622407,-1.0178212,-0.15686513,-2.7767358,-0.13572197,1.3740878,1.1216258,0.039999172,0.04,0.019258475249928075,0.007749271321208506,0.015604481200193199,-0.027455822124332924,0.12800576974063607,-0.08862221055161565,0.9811461282927276,0.008251143583290035,-0.18282810758758736,-0.06211341756577092
800.4166666662674,0.3788912,-1.0194768,-0.15797742,-2.7797184,-0.1366859,1.3726919,1.1240058,0.039999165,0.04,0.015100716685489957,0.007378681131048337,0.014602150845777206,-0.027844562306155146,0.12711937430885514,-0.0887879933829592,0.9808808432785789,0.00809191785935771,-0.18397480068172195,-0.06293301890567335
800.433333332934,0.38154632,-1.0211246,-0.1590847,-2.782686,-0.13764544,1.3713027,1.126375,0.03999915,0.04,0.020844476392545275,0.007107391846461475,0.018053963479702784,-0.02822308268139917,0.12620880140543492,-0.08893425579150846,0.9806151202167716,0.007930233885258165,-0.18511216591618512,-0.06375408553646175
800.4499999996007,0.38418895,-1.022765,-0.16018678,-2.7856388,-0.13860056,1.3699191,1.1287332,0.03999914,0.04,0.020702722216148217,0.007572032304870024,0.016872707492077144,-0.028592730235685718,0.12529174150858446,-0.08906308518997397,0.9803488703401833,0.007766260830873819,-0.18624077116590573,-0.06457672003874317
800.4666666662673,0.3868189,-1.0243974,-0.16128354,-2.7885776,-0.13955103,1.3685423,1.13108,0.03999913,0.04,0.01926808628649468,0.007040428965908452,0.017399359828018657,-0.02895442761715901,0.12436046669392571,-0.08917121074835253,0.9800821225251075,0.0075998988369955075,-0.18736065260760457,-0.06540076833493862
800.483333332934,0.38943577,-1.0260216,-0.16237487,-2.7915018,-0.14049682,1.3671728,1.1334152,0.039999124,0.04,0.0199184714290368,0.006998617759698678,0.018081357887145266,-0.029307480847866385,0.12341544861236048,-0.0892612180383585,0.979814986038959,0.007431211031714597,-0.1884714584915126,-0.06622597353122761
800.4999999996006,0.39203945,-1.0276376,-0.16346067,-2.7944112,-0.14143778,1.3658102,1.1357384,0.039999112,0.04,0.020162484126085012,0.006960640065271917,0.01789317817343372,-0.02965071518345433,0.12245867891254239,-0.08933328583822081,0.9795474535345217,0.007260139815741074,-0.18957339832241407,-0.06705224300783127
800.5166666662673,0.39462948,-1.0292453,-0.16454072,-2.7973056,-0.14237386,1.3644546,1.1380495,0.0399991,0.04,0.020423412855707923,0.006907819582671615,0.018380585958666096,-0.029982861320042714,0.12148740756038462,-0.08938513657554341,0.9792795993816817,0.007086930882190441,-0.1906662591866982,-0.06787944647148131
800.5333333329339,0.3972056,-1.0308441,-0.16561499,-2.8001845,-0.1433049,1.3631066,1.1403481,0.03999909,0.04,0.02077846332393385,0.006723852918544271,0.019046668165756397,-0.030305116056355816,0.12050171547786787,-0.08941643446371106,0.9790114877272272,0.006911561351446531,-0.1917499429957981,-0.06870732551129065
800.5499999996006,0.39976737,-1.0324342,-0.16668333,-2.8030472,-0.14423078,1.361766,1.1426338,0.03999908,0.04,0.02182736454121592,0.006730292034159979,0.019533416301853457,-0.030617053774711522,0.11950466524640696,-0.08942823586445983,0.9787432194379732,0.006734135057317141,-0.1928241716381913,-0.06953560714674464
800.5666666662672,0.4023148,-1.0340153,-0.16774558,-2.805894,-0.1451515,1.3604329,1.1449068,0.03999906,0.04,0.021272545966932732,0.006540196435597667,0.019440114378865836,-0.030919097755669506,0.11849547685574906,-0.08942266409460792,0.9784747756239092,0.006554717540304824,-0.193889155900254,-0.07036436861078353
800.5833333329339,0.40484744,-1.0355872,-0.16880167,-2.8087246,-0.14606683,1.3591074,1.1471668,0.039999053,0.04,0.021174323973793818,0.006513331833629676,0.019513684929017838,-0.03120931827028768,0.11747375902309286,-0.08939427321204746,0.9782061835963333,0.006373524023368261,-0.19494496861465466,-0.07119339700598427
800.5999999996005,0.40736502,-1.0371498,-0.16985145,-2.8115387,-0.14697674,1.3577898,1.1494135,0.03999904,0.04,0.02207743777913329,0.006361569313828586,0.020287394241036427,-0.03149134357440511,0.11643618149213138,-0.08934562638294159,0.977937559449705,0.0061904593805306475,-0.19599126936528186,-0.07202242958133384
800.6166666662672,0.40986717,-1.038703,-0.17089483,-2.814335,-0.14788112,1.3564801,1.1516465,0.039999034,0.04,0.023298532740279043,0.0062802375088627516,0.02116512995494757,-0.03176175320988188,0.11538794214326306,-0.08927679382565401,0.9776690309804695,0.006005761338406381,-0.19702767481626865,-0.07285116367602261
800.6333333329338,0.41235366,-1.0402462,-0.17193167,-2.8171136,-0.14877981,1.3551786,1.1538649,0.039999023,0.04,0.023330573295887724,0.006075280462740362,0.021432274203769808,-0.03202161470443121,0.11433052271989566,-0.08918771978012732,0.9774006195547643,0.005819059690598061,-0.198054321546701,-0.07367939437153405
800.6499999996005,0.41482425,-1.0417795,-0.17296183,-2.8198755,-0.14967276,1.3538855,1.1560694,0.039999016,0.04,0.021588396235472374,0.0060173375873301405,0.020723064025385263,-0.032268060625037065,0.11326243541641359,-0.08907911072741412,0.9771322538403533,0.005630836563236995,-0.19907163558210636,-0.07450728884568612
800.6666666662671,0.41727868,-1.0433029,-0.17398523,-2.8226178,-0.15055986,1.3526009,1.158259,0.039998997,0.04,0.025560694866899603,0.00574970411360981,0.023070105255651452,-0.03250463320185332,0.11217971776525631,-0.08895026160722266,0.9768642790849407,0.005440939866229233,-0.20007836321076533,-0.07533408920357572
800.6833333329338,0.41971654,-1.0448163,-0.17500177,-2.8253424,-0.15144102,1.3513249,1.160434,0.03999898,0.04,0.022827417209891898,0.005874658416527012,0.02158988946241447,-0.03272865810958249,0.11109356674362109,-0.08880331238756342,0.9765965258730137,0.00524958654186845,-0.2010754067041911,-0.07616001780884524
800.6999999996004,0.4221377,-1.0463191,-0.17601134,-2.8280478,-0.15231618,1.3500577,1.1625942,0.039998967,0.04,0.02481949768307068,0.005557422270237311,0.023143729709385052,-0.032940642563508815,0.10999411691957087,-0.08863529557839767,0.9763291770004646,0.005056944052154196,-0.20206215871511624,-0.07698473530405985
800.7166666662671,0.42454183,-1.0478113,-0.1770138,-2.8307347,-0.15318511,1.3487995,1.1647393,0.039998963,0.04,0.023347802777129445,0.005464100425847662,0.02239508972887716,-0.03314133889473955,0.10888826917941531,-0.08844643097799071,0.9760621506374252,0.0048629754642919125,-0.20303918405040594,-0.07780822130612751
800.7333333329337,0.4269288,-1.0492928,-0.17800906,-2.833402,-0.1540479,1.3475502,1.1668689,0.03999895,0.04,0.025331443120313324,0.00535751199958745,0.023615952564504106,-0.03333103820317106,0.10777126409274339,-0.08823834849176734,0.9757956449859386,0.004667775404177051,-0.20400581142718577,-0.07863014691063226
800.7499999996004,0.42929813,-1.0507636,-0.17899701,-2.83605,-0.15490437,1.34631,1.1689829,0.03999893,0.04,0.024244751809177068,0.005287529938741153,0.023166579319888747,-0.03350807243597474,0.10664681138747982,-0.08800974696488793,0.9755296289651922,0.004471371399645431,-0.20496239547269593,-0.079450401452321
800.766666666267,0.43164968,-1.0522232,-0.17997754,-2.8386784,-0.15575436,1.3450791,1.171081,0.03999892,0.04,0.02492832191729466,0.005087375185507115,0.02372867272470991,-0.0336734339306735,0.10551344060961315,-0.08776098922516315,0.9752641597075308,0.004273892821612751,-0.20590888965133225,-0.08026880958796391
800.7833333329337,0.4339833,-1.0536717,-0.1809505,-2.8412862,-0.15659782,1.3438578,1.1731629,0.03999892,0.04,0.0259145039659181,0.0047682851268188164,0.024671563023748178,-0.03382576157619749,0.1043698953642288,-0.08749022872894792,0.9749994143892777,0.004075388371255343,-0.20684475119409712,-0.08108502977517547
800.7999999996003,0.43629855,-1.0551089,-0.18191591,-2.8438737,-0.1574347,1.342646,1.1752288,0.039998904,0.04,0.02540418567309466,0.004887898528514734,0.0243850186136485,-0.03396655766279981,0.10322012803673958,-0.08720272494992454,0.9747353594661722,0.0038761062077062873,-0.20777033002389217,-0.08189899125619043
800.816666666267,0.43859538,-1.0565346,-0.1828736,-2.8464403,-0.1582649,1.341444,1.1772782,0.03999889,0.04,0.026271049433268523,0.004555140550317749,0.02513120704559224,-0.034095695627039416,0.10206369659889089,-0.08689434779072983,0.9744721216932865,0.0036759335417973146,-0.20868530632155666,-0.08271042546534836
800.8333333329336,0.44087344,-1.057949,-0.18382338,-2.8489857,-0.15908833,1.3402519,1.1793107,0.03999887,0.04,0.026557833152041077,0.004435463862408062,0.025402583421862968,-0.03421238879378509,0.10090281841661675,-0.08656697279803599,0.9742097755462769,0.0034749771005718457,-0.20958957560038693,-0.08351914489428888
800.8499999996003,0.44313264,-1.0593518,-0.18476523,-2.8515103,-0.15990493,1.3390698,1.181326,0.039998863,0.04,0.02584166983818914,0.004324263646672544,0.025073988156365523,-0.03431618231060188,0.09973688057019428,-0.08621991330135235,0.9739483153908828,0.0032731290697999263,-0.21048338052971227,-0.08432503835835685
800.866666666267,0.4453725,-1.0607417,-0.18569908,-2.854013,-0.16071452,1.3378977,1.1833242,0.03999885,0.04,0.026617091610381394,0.004251216595452245,0.025928382510231884,-0.0344056746175599,0.09856475787720821,-0.08585374317512481,0.9736877176858851,0.003070773447055703,-0.21136701390513218,-0.0851280459714459
800.8833333329336,0.44759285,-1.0621195,-0.18662481,-2.8564944,-0.16151714,1.3367356,1.1853052,0.039998837,0.04,0.026085648151941143,0.004174197215990605,0.025520470545925544,-0.03448404819836108,0.09738247078998236,-0.08546797183728967,0.9734280703698773,0.00286796531310851,-0.21224030487816245,-0.08592799064428705
800.8999999996003,0.44979364,-1.0634854,-0.18754233,-2.858954,-0.16231264,1.335584,1.1872687,0.039998822,0.04,0.027045994006380525,0.00378480992073299,0.026343893966174203,-0.034550382663788196,0.0961928179554304,-0.08506092858069049,0.9731695425396186,0.0026646771851685236,-0.2131028073195307,-0.08672447452284365
800.9166666662669,0.4519746,-1.0648391,-0.18845156,-2.8613913,-0.16310096,1.3344429,1.1892143,0.039998807,0.04,0.02719891289593157,0.0037321049436628284,0.0264350675676428,-0.03460319284490422,0.09500050233993873,-0.08463522572955987,0.9729121546736191,0.002460919778785135,-0.21395465154249166,-0.08751737110716518
800.9333333329336,0.4541353,-1.0661801,-0.1893524,-2.8638058,-0.163882,1.3333122,1.1911422,0.039998803,0.04,0.027801748117273206,0.0036576720495520854,0.027103080594037543,-0.03464180236333474,0.09380343874609746,-0.0841895485616633,0.9726559665330153,0.0022570804052272626,-0.2147958019369732,-0.08830651066610345
800.9499999996002,0.45627573,-1.0675088,-0.1902448,-2.8661976,-0.16465563,1.332192,1.1930517,0.03999879,0.04,0.02766139997836259,0.0034135243233784918,0.026851998284693757,-0.03467089458618877,0.09260183008877917,-0.08372590958805078,0.9724010405397292,0.002052899898727919,-0.21562626281625097,-0.08909161993787516
800.9666666662669,0.45839563,-1.0688245,-0.1911286,-2.868566,-0.16542195,1.3310825,1.1949431,0.03999878,0.04,0.02820696982446247,0.003342911675911775,0.027654867603921218,-0.0346851920451641,0.09139612972919392,-0.08324500137112123,0.9721474378176553,0.0018487290586942475,-0.2164459301343723,-0.08987269147912584
800.9833333329335,0.4604948,-1.0701274,-0.19200379,-2.8709118,-0.16618077,1.329984,1.1968161,0.039998762,0.04,0.027232702649926388,0.0031524671369603796,0.02715670631140421,-0.034689327812513784,0.09018762086824707,-0.08274520611804807,0.9718951510189396,0.0016445508643628485,-0.21725507769574037,-0.0906495565005411
800.9999999996002,0.46257305,-1.0714172,-0.19287026,-2.8732343,-0.16693203,1.3288965,1.1986703,0.03999875,0.04,0.028071979524124657,0.0029162018205741713,0.0278194844363866,-0.034679905807147596,0.0889741416953174,-0.08222598530851574,0.971644296991265,0.001440313698077044,-0.21805347441481593,-0.09142192251549357
801.0166666662668,0.46463025,-1.0726941,-0.1937279,-2.875533,-0.16767567,1.3278201,1.2005056,0.039998747,0.04,0.028346743456331147,0.0028288447510710357,0.027912750022740518,-0.03465664816875216,0.08775791420153246,-0.08168754017909932,0.9713949234890051,0.0012361692959586917,-0.21884112524657023,-0.09218967624455923
801.0333333329335,0.46666616,-1.0739577,-0.19457668,-2.8778079,-0.1684116,1.3267547,1.202322,0.03999874,0.04,0.02879173318339756,0.002640899246211803,0.028362536218129453,-0.03462081517268763,0.08653863747410159,-0.08113133443921594,0.9711471054524776,0.0010322621270114445,-0.21961796998909996,-0.0929525753491647
801.0499999996001,0.46868068,-1.0752078,-0.19541653,-2.880059,-0.16913977,1.3257004,1.2041192,0.03999873,0.04,0.02798826787011599,0.002572145324181152,0.02791603907906781,-0.034573121991678335,0.08531746996643413,-0.08055878323939174,0.970900792269622,0.0008285439904667706,-0.22038439002826657,-0.09371064889832435
801.0666666662668,0.4706734,-1.0764449,-0.1962473,-2.8822858,-0.16986014,1.3246576,1.205897,0.039998714,0.04,0.029038555092908425,0.00236844637469813,0.028796554910415217,-0.034512626864975124,0.08409203839608068,-0.07996779748987182,0.9706561872839091,0.0006251894769833233,-0.22113983817142818,-0.09446347018343665
801.0833333329334,0.47264436,-1.0776683,-0.19706897,-2.8844879,-0.17057261,1.3236262,1.2076553,0.039998695,0.04,0.02937289814854971,0.0021255455336197104,0.029136473751689707,-0.03443911541636137,0.08286543601892607,-0.07936072226510364,0.9704133234242481,0.0004223017780521418,-0.22188439579290475,-0.09521091473949567
801.0999999996001,0.47459334,-1.0788779,-0.19788148,-2.8866656,-0.17127712,1.3226061,1.209394,0.03999868,0.04,0.028580908141373484,0.0021061371465722067,0.02859062906933607,-0.03435366246109077,0.08163927317780267,-0.07873665665859422,0.9701721344121469,0.00021986094528532365,-0.22261850723865048,-0.09595301718121661
801.1166666662667,0.47652015,-1.080074,-0.19868475,-2.8888185,-0.17197363,1.3215977,1.2111131,0.03999868,0.04,0.029237163469453264,0.0018603975951020368,0.02925340523128872,-0.034255397301601556,0.08040911342064581,-0.07809418077300687,0.9699327818129506,1.812009966242043e-05,-0.22334177574776612,-0.09668944948694005
801.1333333329334,0.47842467,-1.0812559,-0.19947875,-2.890946,-0.17266208,1.3206011,1.2128122,0.039998673,0.04,0.029886057344685746,0.001628161247774207,0.02990010395735876,-0.03414549507889665,0.0791801056178952,-0.07743535701598092,0.9696953413597622,-0.00018297533691493274,-0.22405414087421271,-0.09741998471729832
801.1499999996,0.48030663,-1.0824242,-0.20026335,-2.8930485,-0.17334238,1.3196164,1.2144911,0.039998665,0.04,0.02904588399939012,0.0015565523064975384,0.029345797107538374,-0.034023521488318914,0.07795071092478913,-0.07676093850855822,0.9694598186630418,-0.0003833722195739537,-0.22475579142590965,-0.09814452223163764
801.1666666662667,0.48216605,-1.0835782,-0.20103846,-2.8951268,-0.17401454,1.3186436,1.2161498,0.039998647,0.04,0.02815270912113199,0.001498974290217725,0.028789401895534805,-0.03388904486325556,0.07672106208387978,-0.07607182968263661,0.9692261157650861,-0.0005831353874279207,-0.22544723956000412,-0.0988632320269669
801.1833333329333,0.48400286,-1.0847183,-0.20180418,-2.8971791,-0.17467846,1.3176825,1.2177883,0.039998632,0.04,0.030376260221776086,0.0011698815239047367,0.030203610364265554,-0.03374137710491634,0.0754878035768883,-0.07536508701630473,0.9689944946028346,-0.0007819494222508728,-0.22612776944789184,-0.09957554854992956
801.1999999996,0.48581672,-1.085844,-0.20256026,-2.899206,-0.1753341,1.3167334,1.2194064,0.039998617,0.04,0.029484113455913175,0.0011442272256190211,0.02982268880926675,-0.03358232149472688,0.07425635398716052,-0.0746438499987076,0.9687648869220676,-0.0009798349828339555,-0.22679780442492092,-0.10028155213355669
801.2166666662666,0.48760748,-1.0869554,-0.2033068,-2.901207,-0.17598148,1.3157963,1.221004,0.039998602,0.04,0.029761053176668995,0.0010447012961212199,0.030116017032877362,-0.03341132476857632,0.07302329948298548,-0.07390630449614785,0.9685373823139276,-0.0011765752256540955,-0.227457220402181,-0.10098102603032352
801.2333333329333,0.48937517,-1.0880523,-0.20404364,-2.903182,-0.17662048,1.3148713,1.222581,0.0399986,0.04,0.029906416659319923,0.0007269370284723742,0.030325504440198436,-0.033229314200387744,0.0717921505826648,-0.07315271087790184,0.9683120271864525,-0.0013722348782856187,-0.22810604087857606,-0.10167383681263915
801.2499999995999,0.49111953,-1.0891352,-0.20477079,-2.9051306,-0.1772511,1.3139585,1.2241373,0.0399986,0.04,0.03073013889574039,0.0006333336728808758,0.030767379747342893,-0.03303472879639008,0.07056103936485777,-0.0723842228003651,0.9680889860809699,-0.0015666487836841054,-0.22874389652335145,-0.1023596133424825
801.2666666662666,0.49284053,-1.0902036,-0.20548819,-2.9070537,-0.1778732,1.313058,1.225672,0.039998583,0.04,0.029194836313273242,0.00048521927535905007,0.029910992801984726,-0.032831410515168816,0.06933618039705464,-0.07160479647057444,0.9678681274527475,-0.0017602371228938687,-0.22937148431990875,-0.1030383987029365
801.2833333329332,0.49453807,-1.0912573,-0.20619582,-2.9089499,-0.17848685,1.3121696,1.2271867,0.03999857,0.04,0.03085688547297405,0.0003948967737810172,0.03097573101088491,-0.03261241792924531,0.06810859427477037,-0.07081218976297624,0.967649585595092,-0.001952021852162288,-0.2299884162360542,-0.10371016105265266
801.2999999995999,0.49621204,-1.0922964,-0.20689356,-2.91082,-0.17909196,1.3112937,1.2286792,0.039998557,0.04,0.02956252727155384,0.00010861858838612237,0.030514047383756182,-0.03238693410108885,0.06688580101912159,-0.07000396368520656,0.9674333612338978,-0.002143026303053891,-0.23059498107983625,-0.10437458364341878
801.3166666662665,0.49786234,-1.0933207,-0.20758149,-2.9126632,-0.17968851,1.3104302,1.2301518,0.039998546,0.04,0.03075697730463567,4.541420363518567e-05,0.031068345624363225,-0.032144936017694054,0.06566229374642964,-0.06918448916354958,0.9672195599288256,-0.002331963976376227,-0.23119089750476957,-0.10503167972588631
801.3333333329332,0.49948877,-1.0943303,-0.20825946,-2.914481,-0.18027645,1.3095793,1.2316025,0.039998528,0.04,0.028765382772943937,-1.1139816306904304e-05,0.03001650561547109,-0.03189844507215146,0.0644447181936999,-0.06835129763790478,0.9670080618143599,-0.0025197465860390916,-0.23177683708682575,-0.10568139407296057
801.3499999995998,0.50109136,-1.0953251,-0.20892748,-2.9162712,-0.18085578,1.3087406,1.233032,0.039998516,0.04,0.031208005525806826,-0.00024501488169598185,0.0314083949207844,-0.03163753250361475,0.06322544372031781,-0.06750445871930477,0.9667990897918063,-0.00270593010930309,-0.23235218322754195,-0.10632337875262042
801.3666666662665,0.5026701,-1.0963051,-0.20958556,-2.918035,-0.1814265,1.3079146,1.2344406,0.039998513,0.04,0.029866406538103796,-0.00039020784750876114,0.030792462318463,-0.03136636439233101,0.06201047291184215,-0.066645901694209,0.9665925995101234,-0.0028903163305479002,-0.23291723706087356,-0.10695771745741654
801.3833333329331,0.5042248,-1.0972703,-0.2102336,-2.9197721,-0.18198852,1.3071011,1.2358273,0.039998505,0.04,0.030084559193643834,-0.00045593955066425274,0.030863907253431133,-0.031087427110413582,0.06079913716151717,-0.06577556749959335,0.9663886185933654,-0.0030731873593644325,-0.23347212504014883,-0.10758420052172214
801.3999999995998,0.50575536,-1.0982203,-0.21087159,-2.9214818,-0.18254185,1.3063003,1.2371926,0.039998498,0.04,0.030880376781872165,-0.0007137591089667605,0.03153664686614821,-0.0307963144503614,0.059590089835193594,-0.06489416097154768,0.9661872663210297,-0.0032542507656433445,-0.23401659516849377,-0.10820263137648474
801.4166666662665,0.50726175,-1.0991555,-0.21149953,-2.9231646,-0.18308644,1.3055123,1.2385364,0.039998475,0.04,0.03022720745124996,-0.0008438404657029608,0.03125966470963748,-0.0304966270710825,0.05838556408110292,-0.06400234779080463,0.9659885565832886,-0.0034335018605764797,-0.23455078290362713,-0.10881291216764485
801.4333333329331,0.5087442,-1.1000758,-0.21211737,-2.9248207,-0.1836223,1.3047366,1.2398584,0.03999847,0.04,0.029916695136389393,-0.0008407364152362984,0.030571951116964424,-0.030186632179243084,0.057186437998242266,-0.06309999519418028,0.9657924090382236,-0.0036110900331359145,-0.2350751039057523,-0.10941516438143707
801.4499999995998,0.5102019,-1.100981,-0.21272513,-2.9264495,-0.18414937,1.3039737,1.241159,0.039998464,0.04,0.03031993172291081,-0.0008674018864424093,0.031308700572008075,-0.029865988807076832,0.05598851732097369,-0.062187334825866455,0.965598943857382,-0.0037864286033057245,-0.23558936042916437,-0.11000907159192815
801.4666666662664,0.5116354,-1.1018708,-0.2133227,-2.928051,-0.18466768,1.3032235,1.2424378,0.039998453,0.04,0.030477640755943725,-0.0012696407410667243,0.03144448118935772,-0.02953954185876744,0.05479598132549601,-0.06126557431768015,0.9654081867811475,-0.003959857544389873,-0.2360935696941915,-0.11059465978617203
801.4833333329331,0.51304483,-1.1027457,-0.2139101,-2.9296255,-0.18517719,1.302486,1.243695,0.039998446,0.04,0.030010189810991683,-0.0013294134072333597,0.030932579807874117,-0.02920316709843162,0.053606729017550654,-0.060332834517740755,0.9652201489408336,-0.004131375281194864,-0.23658786535345455,-0.11117183898999129
801.4999999995997,0.51443,-1.1036053,-0.21448739,-2.931173,-0.1856779,1.3017615,1.2449303,0.03999843,0.04,0.029741988732645552,-0.0015512646845572409,0.0312089624317613,-0.028857171534018136,0.05242229197292887,-0.05939143142578797,0.9650348710864021,-0.004300983008627914,-0.23707229265448107,-0.11174044562269812
801.5166666662664,0.5157907,-1.1044497,-0.2150545,-2.9326932,-0.18616983,1.3010496,1.2461439,0.03999842,0.04,0.030413425397912697,-0.0014226924640994842,0.03120623691534874,-0.02850183889278319,0.05124204665810575,-0.05844203916016163,0.9648523792680688,-0.004468338797711179,-0.23754689232689016,-0.11230046355635591
801.533333332933,0.5171269,-1.1052791,-0.21561147,-2.934186,-0.18665291,1.3003508,1.2473358,0.039998416,0.04,0.030283416261256413,-0.0017757589480985048,0.03157610835182734,-0.028138660686889888,0.05006798396358308,-0.057484191987367705,0.9646727759628327,-0.004633477242083673,-0.23801151709977206,-0.11285160137399222
801.5499999995997,0.5184387,-1.1060933,-0.21615829,-2.9356515,-0.18712717,1.2996643,1.248506,0.0399984,0.04,0.030009787566953605,-0.0015651960712514956,0.03074060026191372,-0.02776933054783661,0.048900430930826966,-0.05652088982235637,0.9644959455309204,-0.004796352364446411,-0.2384666685634936,-0.11339406528844763
801.5666666662663,0.51972604,-1.1068926,-0.2166949,-2.9370894,-0.1875926,1.2989905,1.2496542,0.039998394,0.04,0.030613700401493915,-0.0019370669983156952,0.03149521938405342,-0.027391823230499338,0.04773601675979714,-0.05554860182296738,0.964322067833884,-0.004956993535097112,-0.2389119137488814,-0.1139274996325393
801.583333332933,0.52098906,-1.1076767,-0.21722136,-2.9385004,-0.18804917,1.2983297,1.2507806,0.039998382,0.04,0.029510734969706576,-0.0020901713744553296,0.030956664610926055,-0.027007671376014654,0.04658035369896918,-0.05457186761750396,0.9641510734277594,-0.005115419943469383,-0.23934761251878872,-0.11445200071845389
801.5999999995996,0.5222277,-1.1084456,-0.21773766,-2.9398842,-0.18849698,1.2976818,1.2518857,0.039998375,0.04,0.029721787495762264,-0.002086871482970265,0.031075940843017236,-0.02661473611570267,0.04543016272470569,-0.0535878956435945,0.9639829866292045,-0.00527130676300775,-0.23977378366558316,-0.11496759317798885
801.6166666662663,0.5234419,-1.1091996,-0.21824381,-2.9412403,-0.18893598,1.2970465,1.2529688,0.039998364,0.04,0.030444138333507453,-0.0021915379012152347,0.031324320208492296,-0.02621728053001368,0.04428549938330657,-0.05259736071772747,0.9638179067826959,-0.005424827903895599,-0.24019029168398398,-0.11547396930909701
801.6333333329329,0.5246318,-1.1099383,-0.21873976,-2.9425693,-0.18936619,1.2964239,1.2540301,0.039998353,0.04,0.029592545394541148,-0.0022517939281832544,0.03081674977206128,-0.02581353999156926,0.04315027978923273,-0.05160385649699954,0.9636557307482394,-0.005575987858154864,-0.24059756985625477,-0.11597133410781703
801.6499999995996,0.5257974,-1.1106617,-0.21922565,-2.9438717,-0.18978763,1.295814,1.2550696,0.039998353,0.04,0.028693460890094613,-0.0023198054519710243,0.03024971355632955,-0.025402048138180443,0.04201902638600499,-0.05060308897788679,0.9634964323704728,-0.005724835443505833,-0.24099584866650334,-0.11645965822561713
801.6666666662662,0.5269388,-1.1113707,-0.21970141,-2.9451458,-0.19020022,1.2952169,1.2560879,0.039998345,0.04,0.031316058372876654,-0.0027531343064574054,0.03197523673756919,-0.024984440614677916,0.04089189417107111,-0.049598245919900516,0.9633403657893931,-0.005870870236802085,-0.24138410483750358,-0.11693838743209106
801.6833333329329,0.5280561,-1.1120645,-0.22016701,-2.9463937,-0.1906041,1.2946324,1.2570841,0.03999834,0.04,0.028310462458724928,-0.0024844416048067086,0.02990377498613972,-0.024563508212727125,0.03978020903174193,-0.048592468210138615,0.9631871712378186,-0.006014748433689395,-0.24176359714502352,-0.11740808770978037
801.6999999995995,0.52914923,-1.1127428,-0.22062258,-2.9476147,-0.19099924,1.2940606,1.258059,0.03999833,0.04,0.029008112752659798,-0.0026324553466322564,0.03046550482648236,-0.024134778135874536,0.03867190584246239,-0.047583092063833016,0.9630369161606965,-0.006155974204358536,-0.24213423132652145,-0.11786863922691854
