rsonawane2002/My_IMU/logs_2/traj_323/imu_400hz_323.csv
time,j1,j2,j3,j4,j5,j6,j7,gripper1,gripper2,imu_ax,imu_ay,imu_az,imu_gx,imu_gy,imu_gz
0.0,0.00016700293,-0.785875,4.0107683e-05,-2.3551247,9.29385e-05,1.570997,0.786,0.04,0.04,-9.525035,-0.0354427993297576,0.078020014,-4.476361e-07,-0.0011641271412372,9.581912e-07
0.0025,0.000167004775,-0.785857774,4.010812655e-05,-2.35513919,9.294331050000001e-05,1.570996565,0.786,0.04,0.04,-9.571441550000044,-0.030031168466661727,0.06767829399999059,-3.6993937374992935e-07,-0.0013252832693980015,9.580051399999998e-07
0.005,0.00016700662,-0.785840548,4.01085701e-05,-2.3551536800000004,9.294812100000001e-05,1.57099613,0.786,0.04,0.04,-9.617848100000085,-0.024619537603565854,0.05733657399998118,-2.9224264749985865e-07,-0.0014864393975588031,9.578190799999997e-07
0.0075,0.000167008465,-0.7858233219999999,4.010901365e-05,-2.3551681700000002,9.295293150000002e-05,1.570995695,0.786,0.04,0.04,-9.664254650000128,-0.019207906740469984,0.046994853999971775,-2.14545921249788e-07,-0.0016475955257196045,9.576330199999994e-07
0.01,0.00016701031,-0.785806096,4.01094572e-05,-2.35518266,9.295774200000001e-05,1.5709952600000001,0.786,0.04,0.04,-9.71066120000017,-0.013796275877374111,0.036653133999962374,-1.368491949997173e-07,-0.0018087516538804064,9.574469599999994e-07
0.0125,0.000167012155,-0.78578887,4.0109900750000004e-05,-2.3551971500000004,9.296255250000002e-05,1.570994825,0.786,0.04,0.04,-9.757067750000212,-0.008384645014278238,0.02631141399995296,-5.915246874964666e-08,-0.0019699077820412077,9.572608999999991e-07
0.015,0.000167014,-0.785771644,4.01103443e-05,-2.3552116400000003,9.296736300000002e-05,1.57099439,0.786,0.04,0.04,-9.803474300000254,-0.0029730141511823682,0.01596969399994356,1.8544257500423985e-08,-0.002131063910202009,9.570748399999988e-07
0.0175,0.00016701908450000006,-0.785754867,4.0109392499999975e-05,-2.3552257350000003,9.29708465e-05,1.57099396,0.786,0.04,0.04,-9.834309699999999,0.0006358560145599113,0.008997400909998513,9.951541625055726e-08,-0.0022877524839722955,9.663850400001801e-07
0.02,0.00016703064800000007,-0.785738988,4.0105649999999974e-05,-2.3552390400000003,9.297167600000001e-05,1.5709935400000001,0.786,0.04,0.04,-9.834002799999999,0.0006392047856933844,0.008763961639998302,1.870354400006368e-07,-0.002435505948961795,9.946877600002059e-07
0.0225,0.00016704221150000008,-0.7857231089999999,4.0101907499999966e-05,-2.3552523450000002,9.29725055e-05,1.57099312,0.786,0.04,0.04,-9.833695899999999,0.0006425535568268574,0.00853052236999809,2.7455546375071635e-07,-0.0025832594139512943,1.0229904800002316e-06
0.025,0.0001670537750000001,-0.7857072299999999,4.0098164999999965e-05,-2.35526565,9.297333500000001e-05,1.5709927,0.786,0.04,0.04,-9.833388999999997,0.0006459023279603304,0.008297083099997877,3.62075487500796e-07,-0.002731012878940794,1.0512932000002574e-06
0.0275,0.00016706533850000013,-0.7856913509999999,4.0094422499999965e-05,-2.355278955,9.297416450000001e-05,1.57099228,0.786,0.04,0.04,-9.833082099999997,0.0006492510990938035,0.008063643829997665,4.4959551125087557e-07,-0.002878766343930293,1.0795959200002831e-06
0.03,0.00016707690200000013,-0.7856754719999999,4.009067999999996e-05,-2.35529226,9.297499400000001e-05,1.57099186,0.786,0.04,0.04,-9.832775199999997,0.0006525998702272765,0.007830204559997452,5.371155350009552e-07,-0.0030265198089197923,1.107898640000309e-06
0.0325,0.00016708846550000014,-0.7856595929999999,4.0086937499999956e-05,-2.355305565,9.297582350000001e-05,1.57099144,0.786,0.04,0.04,-9.832468299999997,0.0006559486413607496,0.00759676528999724,6.246355587510348e-07,-0.003174273273909292,1.1362013600003347e-06
0.035,0.00016711721000000048,-0.7856445729999998,4.0075928699999815e-05,-2.3553181,9.297013159999989e-05,1.57099101,0.786,0.04,0.04,-9.832170199999997,0.0006607884191908412,0.007374863379997248,8.78349570004289e-07,-0.0033135465346293396,1.1198610169995077e-06
0.0375,0.0001671545450000005,-0.7856299824999998,4.0061286749999804e-05,-2.35533025,9.296117899999987e-05,1.570990575,0.786,0.04,0.04,-9.831876499999996,0.0006663737003692013,0.0071587301499970515,1.2151605750045948e-06,-0.0034485796932148924,1.0811991424994726e-06
0.04,0.00016719188000000054,-0.7856153919999997,4.004664479999979e-05,-2.3553424,9.295222639999988e-05,1.57099014,0.786,0.04,0.04,-9.831582799999996,0.0006719589815475613,0.006942596919996854,1.5519715800049013e-06,-0.003583612851800445,1.0425372679994374e-06
0.0425,0.00016722921500000057,-0.7856008014999998,4.0032002849999776e-05,-2.35535455,9.294327379999987e-05,1.5709897050000001,0.786,0.04,0.04,-9.831289099999996,0.0006775442627259214,0.006726463689996658,1.8887825850052078e-06,-0.003718646010385998,1.0038753934994022e-06
0.045,0.00016726655000000063,-0.7855862109999998,4.001736089999976e-05,-2.3553667000000003,9.293432119999985e-05,1.57098927,0.786,0.04,0.04,-9.830995399999995,0.0006831295439042815,0.006510330459996462,2.2255935900055135e-06,-0.0038536791689715508,9.65213518999367e-07
0.0475,0.00016730388500000066,-0.7855716204999997,4.000271894999975e-05,-2.35537885,9.292536859999984e-05,1.570988835,0.786,0.04,0.04,-9.830701699999995,0.0006887148250826415,0.006294197229996265,2.5624045950058205e-06,-0.003988712327557103,9.265516444993318e-07
0.05,0.00016734122000000158,-0.7855570299999998,3.9988076999999364e-05,-2.355391,9.29164159999995e-05,1.5709884,0.786,0.04,0.04,-9.830407999999995,0.0006943001062610499,0.0060780639999963625,2.8992156000114912e-06,-0.004123745486142427,8.878897699975966e-07
0.0525,0.00016742734400000166,-0.7855436304999998,3.995291774999933e-05,-2.35540216,9.288933259999947e-05,1.57098798,0.786,0.04,0.04,-9.830109649999995,0.0007025393948425824,0.005878106994996181,3.5309252550120645e-06,-0.004246208793485969,7.557736466424768e-07
0.055,0.00016751346800000173,-0.7855302309999997,3.99177584999993e-05,-2.3554133200000003,9.286224919999946e-05,1.57098756,0.786,0.04,0.04,-9.829811299999994,0.0007107786834241148,0.005678149989996,4.16263491001264e-06,-0.00436867210082951,6.236575232873564e-07
0.0575,0.0001675995920000018,-0.7855168314999997,3.988259924999927e-05,-2.3554244800000004,9.283516579999944e-05,1.57098714,0.786,0.04,0.04,-9.829512949999994,0.0007190179720056474,0.005478192984995817,4.794344565013215e-06,-0.004491135408173052,4.915413999322362e-07
0.06,0.0001676857160000019,-0.7855034319999997,3.984743999999924e-05,-2.35543564,9.28080823999994e-05,1.57098672,0.786,0.04,0.04,-9.829214599999993,0.0007272572605871799,0.005278235979995636,5.426054220013788e-06,-0.004613598715516593,3.5942527657711626e-07
0.0625,0.00016777184000000197,-0.7854900324999997,3.98122807499992e-05,-2.3554468,9.278099899999939e-05,1.5709863,0.786,0.04,0.04,-9.828916249999994,0.0007354965491687123,0.005078278974995454,6.0577638750143625e-06,-0.004736062022860135,2.27309153221996e-07
0.065,0.00016785796400000205,-0.7854766329999997,3.977712149999917e-05,-2.3554579600000003,9.275391559999937e-05,1.57098588,0.786,0.04,0.04,-9.828617899999994,0.0007437358377502449,0.004878321969995271,6.689473530014938e-06,-0.004858525330203676,9.519302986687572e-08
0.0675,0.00016797011500000405,-0.7854636049999997,3.9731054899998335e-05,-2.35546882,9.271726999999864e-05,1.570985455,0.786000095,0.04,0.04,-9.828330399999993,0.0007526403671364964,0.004679002454995137,7.5128747100296365e-06,-0.004976972076113246,-7.617850142113664e-08
0.07,0.00016813432000000418,-0.7854513199999997,3.966317359999827e-05,-2.3554790800000003,9.266149999999858e-05,1.57098502,0.78600038,0.04,0.04,-9.828064599999994,0.0007628753781320406,0.004480957919994957,8.719658940030735e-06,-0.005087385699155752,-3.260608485663641e-07
0.0725,0.00016829852500000432,-0.7854390349999997,3.9595292299998214e-05,-2.35548934,9.260572999999853e-05,1.570984585,0.786000665,0.04,0.04,-9.827798799999993,0.0007731103891275849,0.0042829133849947775,9.926443170031826e-06,-0.005197799322198257,-5.759431957115902e-07
0.075,0.00016846273000000448,-0.7854267499999996,3.952741099999815e-05,-2.3554996000000004,9.254995999999848e-05,1.57098415,0.78600095,0.04,0.04,-9.827532999999992,0.0007833454001231293,0.004084868849994597,1.1133227400032927e-05,-0.005308212945240763,-8.258255428568177e-07
0.0775,0.00016862693500000462,-0.7854144649999997,3.945952969999809e-05,-2.35550986,9.249418999999843e-05,1.5709837150000001,0.7860012350000001,0.04,0.04,-9.827267199999993,0.0007935804111186736,0.0038868243149944165,1.2340011630034023e-05,-0.005418626568283268,-1.0757078900020451e-06
0.08,0.00016879114000000478,-0.7854021799999996,3.939164839999802e-05,-2.35552012,9.243841999999837e-05,1.57098328,0.78600152,0.04,0.04,-9.827001399999991,0.0008038154221142179,0.0036887797799942364,1.3546795860035123e-05,-0.005529040191325774,-1.3255902371472727e-06
0.0825,0.00016895534500000492,-0.7853898949999997,3.932376709999796e-05,-2.3555303800000003,9.238264999999834e-05,1.570982845,0.786001805,0.04,0.04,-9.826735599999992,0.0008140504331097622,0.003490735244994056,1.4753580090036222e-05,-0.005639453814368279,-1.5754725842925e-06
0.085,0.00016919488200000857,-0.7853783299999997,3.9224351999996434e-05,-2.3555403800000003,9.2299363999997e-05,1.57098241,0.78600209,0.04,0.04,-9.82646609999999,0.0008258778369057505,0.0033005307199942394,1.5532736350017483e-05,-0.005741943977776227,-1.9177496300120136e-06
0.08750000000000001,0.00016947208500000881,-0.7853671249999997,3.9109169999996334e-05,-2.3555502500000003,9.220231999999691e-05,1.570981975,0.786002375,0.04,0.04,-9.82619474999999,0.0008385014371018519,0.0031142461999940697,1.6098078625018e-05,-0.005840472411367437,-2.3062240250123674e-06
0.09,0.00016974928800000906,-0.7853559199999997,3.8993987999996226e-05,-2.3555601200000003,9.210527599999682e-05,1.57098154,0.7860026600000001,0.04,0.04,-9.82592339999999,0.0008511250372979533,0.0029279616799939012,1.666342090001851e-05,-0.005939000844958646,-2.6946984200127186e-06
0.0925,0.00017002649100000933,-0.7853447149999997,3.8878805999996125e-05,-2.3555699900000002,9.200823199999673e-05,1.570981105,0.786002945,0.04,0.04,-9.82565204999999,0.0008637486374940548,0.0027416771599937315,1.7228763175019025e-05,-0.006037529278549856,-3.083172815013073e-06
0.095,0.00017030369400000957,-0.7853335099999996,3.8763623999996024e-05,-2.35557986,9.191118799999664e-05,1.57098067,0.78600323,0.04,0.04,-9.82538069999999,0.0008763722376901562,0.002555392639993562,1.7794105450019538e-05,-0.006136057712141065,-3.471647210013426e-06
0.0975,0.00017058089700000984,-0.7853223049999997,3.8648441999995916e-05,-2.3555897300000006,9.181414399999655e-05,1.570980235,0.786003515,0.04,0.04,-9.82510934999999,0.0008889958378862577,0.0023691081199933924,1.8359447725020055e-05,-0.0062345861457322755,-3.86012160501378e-06
0.1,0.00017085810000001564,-0.7853110999999997,3.8533259999993484e-05,-2.3555996000000006,9.171709999999445e-05,1.5709798,0.7860038,0.04,0.04,-9.824837999999993,0.0009016194380823977,0.0021828235999935015,1.8924790000052663e-05,-0.006333114579323131,-4.248596000019824e-06
0.10250000000000001,0.00017128824000001605,-0.7853008639999997,3.835413674999332e-05,-2.3556085100000006,9.15646264999943e-05,1.570979365,0.786004091,0.04,0.04,-9.824630099999991,0.0009153016726490752,0.0020042001499933387,2.037223795005398e-05,-0.006421911343935411,-4.79346965002032e-06
0.105,0.00017171838000001644,-0.7852906279999996,3.817501349999316e-05,-2.3556174200000006,9.141215299999417e-05,1.5709789299999999,0.786004382,0.04,0.04,-9.824422199999992,0.0009289839072157526,0.0018255766999931771,2.1819685900055288e-05,-0.006510708108547692,-5.338343300020813e-06
0.1075,0.00017214852000001682,-0.7852803919999997,3.7995890249993e-05,-2.3556263300000007,9.125967949999403e-05,1.5709784949999999,0.786004673,0.04,0.04,-9.824214299999992,0.0009426661417824301,0.0016469532499930146,2.3267133850056607e-05,-0.006599504873159972,-5.8832169500213085e-06
0.11,0.0001725786600000172,-0.7852701559999996,3.7816766999992834e-05,-2.3556352400000007,9.11072059999939e-05,1.57097806,0.7860049640000001,0.04,0.04,-9.824006399999991,0.0009563483763491076,0.001468329799992852,2.4714581800057927e-05,-0.006688301637772253,-6.4280906000218044e-06
0.1125,0.00017300880000001761,-0.7852599199999996,3.763764374999267e-05,-2.3556441500000007,9.095473249999376e-05,1.570977625,0.7860052550000001,0.04,0.04,-9.823798499999992,0.000970030610915785,0.0012897063499926892,2.6162029750059242e-05,-0.006777098402384534,-6.9729642500223e-06
0.115,0.000173438940000018,-0.7852496839999996,3.7458520499992505e-05,-2.3556530600000007,9.080225899999361e-05,1.57097719,0.786005546,0.04,0.04,-9.82359059999999,0.0009837128454824626,0.0011110828999925267,2.7609477700060558e-05,-0.006865895166996815,-7.517837900022796e-06
0.11750000000000001,0.00017393487200002684,-0.7852397869999996,3.725190264998881e-05,-2.3556619100000007,9.062644049999048e-05,1.57097675,0.7860059305,0.04,0.03999999975,-9.823358199999987,0.0009982869261882343,0.0009332977064924715,2.9426773050109307e-05,-0.0069506760686668355,-8.084625400026102e-06
0.12,0.00017456238800002738,-0.7852305679999996,3.6990295599988575e-05,-2.3556706400000005,9.040393199999028e-05,1.5709763,0.786006502,0.04,0.039999999,-9.823076799999987,0.0010146446991718542,0.0007571890259923122,3.1983763200111624e-05,-0.007027425244453871,-8.695240600026655e-06
0.1225,0.00017518990400002796,-0.7852213489999996,3.672868854998834e-05,-2.3556793700000003,9.018142349999008e-05,1.57097585,0.7860070735,0.04,0.03999999825,-9.822795399999988,0.001031002472155474,0.0005810803454921519,3.454075335011395e-05,-0.007104174420240905,-9.305855800027212e-06
0.125,0.00017581742000002853,-0.7852121299999996,3.64670814999881e-05,-2.3556881000000005,8.995891499998987e-05,1.5709754,0.786007645,0.04,0.0399999975,-9.822513999999988,0.001047360245139094,0.00040497166499199155,3.709774350011628e-05,-0.00718092359602794,-9.916471000027767e-06
0.1275,0.0001764449360000291,-0.7852029109999996,3.6205474449987866e-05,-2.3556968300000003,8.973640649998967e-05,1.57097495,0.7860082165,0.04,0.03999999675,-9.822232599999987,0.0010637180181227138,0.0002288629844918312,3.965473365011861e-05,-0.007257672771814975,-1.0527086200028323e-05
0.13,0.00017707245200002968,-0.7851936919999996,3.594386739998763e-05,-2.3557055600000005,8.951389799998947e-05,1.5709745,0.786008788,0.04,0.039999996,-9.821951199999987,0.0010800757911063337,5.275430399167083e-05,4.221172380012094e-05,-0.00733442194760201,-1.113770140002888e-05
0.1325,0.00017769996800003025,-0.7851844729999996,3.5682260349987386e-05,-2.3557142900000003,8.929138949998928e-05,1.57097405,0.7860093595,0.04,0.03999999525,-9.821669799999986,0.0010964335640899535,-0.00012335437650848953,4.476871395012327e-05,-0.007411171123389045,-1.1748316600029435e-05
0.135,0.0001784913750000429,-0.7851758599999996,3.5352215199982105e-05,-2.3557229200000003,8.900936799998468e-05,1.57097356,0.786010125,0.04,0.039999995,-9.821445999999991,0.0011123127653270483,-0.00029067123300800205,4.7354199600127694e-05,-0.007481723744425423,-1.2565622300045218e-05
0.1375,0.00017936472750004369,-0.7851675499999996,3.4987950999981776e-05,-2.3557315000000005,8.86975899999844e-05,1.57097305,0.7860109875,0.04,0.039999995,-9.821250999999991,0.0011279526806909324,-0.0004535921775081504,4.995393300013006e-05,-0.00754917808808715,-1.3486273250046057e-05
0.14,0.00018023808000004448,-0.7851592399999996,3.4623686799981446e-05,-2.3557400800000003,8.838581199998411e-05,1.57097254,0.78601185,0.04,0.039999995,-9.82105599999999,0.0011435925960548167,-0.0006165131220082987,5.2553666400132427e-05,-0.007616632431748875,-1.4406924200046895e-05
0.14250000000000002,0.00018111143250004527,-0.7851509299999996,3.425942259998111e-05,-2.3557486600000006,8.807403399998383e-05,1.57097203,0.7860127125,0.04,0.039999995,-9.82086099999999,0.001159232511418701,-0.000779434066508447,5.515339980013479e-05,-0.007684086775410602,-1.5327575150047733e-05
0.145,0.00018198478500004606,-0.7851426199999996,3.389515839998078e-05,-2.3557572400000004,8.776225599998356e-05,1.57097152,0.786013575,0.04,0.039999995,-9.82066599999999,0.001174872426782585,-0.0009423550110085935,5.775313320013713e-05,-0.007751541119072327,-1.624822610004856e-05
0.1475,0.00018285813750004685,-0.7851343099999996,3.353089419998045e-05,-2.3557658200000007,8.745047799998327e-05,1.57097101,0.7860144375,0.04,0.039999995,-9.820470999999989,0.0011905123421464693,-0.0011052759555087418,6.0352866600139496e-05,-0.007818995462734053,-1.71688770500494e-05
0.15,0.0001837314900000639,-0.7851259999999995,3.316662999997333e-05,-2.3557744000000005,8.713869999997716e-05,1.5709705,0.7860153000000001,0.04,0.039999995,-9.82027599999999,0.0012061522575105034,-0.0012681969000090459,6.295260000015426e-05,-0.007886449806395296,-1.8089528000055017e-05
0.1525,0.00018490265550006495,-0.7851185749999996,3.267800994997289e-05,-2.3557822900000005,8.672030949997679e-05,1.57096951,0.78601644,0.04,0.039999994250000004,-9.820085799999989,0.0012245402671406602,-0.0014339718150091969,6.577950750015683e-05,-0.00794504894875306,-1.9097735300055934e-05
0.155,0.00018607382100006603,-0.7851111499999995,3.218938989997244e-05,-2.3557901800000005,8.63019189999764e-05,1.5709685199999999,0.78601758,0.04,0.039999993500000004,-9.81989559999999,0.001242928276770817,-0.0015997467300093477,6.86064150001594e-05,-0.008003648091110824,-2.010594260005685e-05
0.1575,0.0001872449865000671,-0.7851037249999996,3.1700769849972004e-05,-2.3557980700000005,8.588352849997603e-05,1.57096753,0.7860187200000001,0.04,0.039999992750000005,-9.81970539999999,0.0012613162864009736,-0.0017655216450094984,7.143332250016198e-05,-0.008062247233468588,-2.1114149900057768e-05
0.16,0.00018841615200006816,-0.7850962999999995,3.121214979997156e-05,-2.3558059600000005,8.546513799997565e-05,1.57096654,0.78601986,0.04,0.039999992,-9.819515199999989,0.0012797042960311304,-0.0019312965600096494,7.426023000016455e-05,-0.00812084637582635,-2.2122357200058688e-05
0.1625,0.00018958731750006924,-0.7850888749999996,3.0723529749971114e-05,-2.3558138500000005,8.504674749997527e-05,1.57096555,0.7860210000000001,0.04,0.03999999125,-9.819324999999989,0.0012980923056612871,-0.0020970714750098004,7.708713750016712e-05,-0.008179445518184114,-2.3130564500059605e-05
0.165,0.0001907584830000703,-0.7850814499999995,3.023490969997067e-05,-2.3558217400000006,8.462835699997489e-05,1.57096456,0.78602214,0.04,0.0399999905,-9.819134799999988,0.0013164803152914439,-0.002262846390009951,7.99140450001697e-05,-0.008238044660541878,-2.4138771800060522e-05
0.1675,0.00019204730300009288,-0.7850743184999995,2.969720079996125e-05,-2.3558295700000005,8.416635474996654e-05,1.570963565,0.786023377,0.04,0.0399999905,-9.818921949999984,0.001334443845554313,-0.002423807360009222,8.289775600020093e-05,-0.008293419936674762,-2.5334904800095797e-05
0.17,0.00019357143200009427,-0.7850677739999996,2.906131419996067e-05,-2.3558372800000007,8.361712899996603e-05,1.57096256,0.7860248080000001,0.04,0.039999992,-9.818663799999984,0.0013515584170828386,-0.0025751404400093597,8.619507400020394e-05,-0.008342347480359646,-2.690688920009723e-05
0.17250000000000001,0.00019509556100009566,-0.7850612294999996,2.8425427599960092e-05,-2.3558449900000005,8.306790324996553e-05,1.570961555,0.7860262390000001,0.04,0.0399999935,-9.818405649999985,0.0013686729886113642,-0.002726473520009498,8.949239200020694e-05,-0.00839127502404453,-2.847887360009866e-05
0.17500000000000002,0.00019661969000009705,-0.7850546849999995,2.7789540999959513e-05,-2.3558527000000007,8.251867749996504e-05,1.57096055,0.7860276700000001,0.04,0.039999995,-9.818147499999984,0.0013857875601398896,-0.0028778066000096354,9.278971000020995e-05,-0.008440202567729415,-3.005085800010009e-05
0.1775,0.00019814381900009842,-0.7850481404999996,2.715365439995894e-05,-2.3558604100000005,8.196945174996453e-05,1.570959545,0.7860291010000001,0.04,0.0399999965,-9.817889349999984,0.001402902131668415,-0.0030291396800097717,9.608702800021291e-05,-0.008489130111414299,-3.16228424001015e-05
0.18,0.0001996679480000998,-0.7850415959999996,2.6517767799958365e-05,-2.3558681200000007,8.142022599996404e-05,1.57095854,0.7860305320000002,0.04,0.039999998,-9.817631199999983,0.0014200167031969406,-0.0031804727600099093,9.938434600021591e-05,-0.008538057655099183,-3.319482680010294e-05
0.1825,0.0002011920770001012,-0.7850350514999995,2.5881881199957785e-05,-2.3558758300000004,8.087100024996353e-05,1.570957535,0.7860319630000001,0.04,0.0399999995,-9.817373049999983,0.0014371312747254662,-0.003331805840010047,0.0001026816640002189,-0.008586985198784067,-3.476681120010437e-05
0.185,0.00020299003100013023,-0.7850290729999996,2.5131710199945667e-05,-2.3558835200000003,8.022357149995312e-05,1.5709564999999999,0.7860335860000002,0.04,0.0399999995,-9.817144399999986,0.0014570917352116591,-0.003490054880010883,0.0001064930530002738,-0.008629226963969628,-3.625237240009707e-05
0.1875,0.00020492489750013198,-0.7850233774999996,2.432439699994493e-05,-2.3558912000000003,7.952704124995248e-05,1.57095545,0.7860353050000002,0.04,0.03999999875,-9.816930499999986,0.0014784751401762585,-0.0036517619000110304,0.00011056147750027752,-0.008668125839906528,-3.769472200009839e-05
0.19,0.00020685976400013374,-0.7850176819999997,2.3517083799944196e-05,-2.3558988800000007,7.883051099995185e-05,1.5709544,0.7860370240000002,0.04,0.039999998,-9.816716599999985,0.001499858545140858,-0.0038134689200111775,0.00011462990200028122,-0.008707024715843429,-3.91370716000997e-05
0.1925,0.0002087946305001355,-0.7850119864999996,2.2709770599943464e-05,-2.3559065600000006,7.813398074995123e-05,1.57095335,0.7860387430000002,0.04,0.03999999725,-9.816502699999985,0.0015212419501054576,-0.003975175940011325,0.00011869832650028492,-0.008745923591780329,-4.0579421200101014e-05
0.195,0.00021072949700013727,-0.7850062909999996,2.1902457399942728e-05,-2.3559142400000006,7.743745049995059e-05,1.5709522999999999,0.7860404620000001,0.04,0.0399999965,-9.816288799999985,0.001542625355070057,-0.004136882960011472,0.0001227667510002886,-0.008784822467717229,-4.2021770800102324e-05
0.1975,0.00021266436350013903,-0.7850005954999997,2.1095144199941993e-05,-2.3559219200000006,7.674092024994996e-05,1.5709512499999998,0.7860421810000001,0.04,0.03999999575,-9.816074899999984,0.0015640087600346565,-0.00429858998001162,0.00012683517550029233,-0.008823721343654129,-4.346412040010364e-05
0.2,0.00021459923000017507,-0.7849948999999997,2.028783099992696e-05,-2.3559296000000005,7.604438999993682e-05,1.5709501999999997,0.7860439000000001,0.04,0.039999995,-9.815860999999986,0.0015853921649990525,-0.004460297000011466,0.00013090360000037195,-0.008862620219590353,-4.490647000013924e-05
0.2025,0.00021700511600017725,-0.7849900549999996,1.9284013299926045e-05,-2.3559373100000007,7.517604074993603e-05,1.5709486249999998,0.7860460255000001,0.04,0.03999999575,-9.815658799999985,0.0016039796813869945,-0.004617871550011609,0.0001360156000003766,-0.008892202470453704,-4.6820059000140984e-05
0.20500000000000002,0.00021941100200017943,-0.7849852099999997,1.828019559992513e-05,-2.3559450200000005,7.430769149993524e-05,1.5709470499999998,0.7860481510000001,0.04,0.0399999965,-9.815456599999985,0.0016225671977749363,-0.004775446100011753,0.00014112760000038128,-0.008921784721317057,-4.8733648000142723e-05
0.20750000000000002,0.00022181688800018164,-0.7849803649999997,1.727637789992422e-05,-2.3559527300000007,7.343934224993445e-05,1.5709454749999998,0.7860502765000001,0.04,0.03999999725,-9.815254399999985,0.0016411547141628783,-0.0049330206500118965,0.00014623960000038593,-0.008951366972180408,-5.064723700014446e-05
0.21,0.0002242227740001838,-0.7849755199999996,1.6272560199923314e-05,-2.3559604400000005,7.257099299993367e-05,1.5709438999999998,0.7860524020000001,0.04,0.039999998,-9.815052199999984,0.00165974223055082,-0.005090595200012038,0.00015135160000039053,-0.00898094922304376,-5.256082600014618e-05
0.2125,0.00022662866000018597,-0.7849706749999996,1.52687424999224e-05,-2.3559681500000007,7.170264374993288e-05,1.5709423249999999,0.7860545275000002,0.04,0.03999999875,-9.814849999999984,0.0016783297469387618,-0.005248169750012181,0.00015646360000039518,-0.009010531473907112,-5.447441500014793e-05
0.215,0.00022903454600018818,-0.7849658299999995,1.4264924799921487e-05,-2.3559758600000005,7.083429449993208e-05,1.5709407499999999,0.7860566530000002,0.04,0.0399999995,-9.814647799999983,0.0016969172633267038,-0.0054057443000123245,0.00016157560000039983,-0.009040113724770465,-5.638800400014967e-05
0.2175,0.00023161818650023255,-0.7849612649999996,1.3186940549902966e-05,-2.3559837500000005,6.990211854991615e-05,1.57093916,0.7860589280000002,0.04,0.03999999975,-9.814451999999985,0.0017165013588981471,-0.005559327525011521,0.0001669114045004576,-0.00906731216237126,-5.8303884500151955e-05
0.22,0.00023455733600023521,-0.7849572599999997,1.196062319990185e-05,-2.3559920000000005,6.884228919991518e-05,1.5709375399999999,0.7860615020000002,0.04,0.039999999,-9.814268999999985,0.001738078612835887,-0.005704928100011653,0.00017269481800046287,-0.009089742973448636,-6.02243480001537e-05
0.2225,0.0002374964855002379,-0.7849532549999997,1.0734305849900733e-05,-2.3560002500000006,6.778245984991422e-05,1.57093592,0.7860640760000003,0.04,0.03999999825,-9.814085999999985,0.0017596558667736266,-0.005850528675011786,0.00017847823150046814,-0.009112173784526011,-6.214481150015545e-05
0.225,0.00024043563500024057,-0.7849492499999997,9.507988499899618e-06,-2.3560085000000006,6.672263049991325e-05,1.5709342999999998,0.7860666500000002,0.04,0.0399999975,-9.813902999999986,0.0017812331207113662,-0.0059961292500119185,0.0001842616450004734,-0.009134604595603385,-6.40652750001572e-05
0.2275,0.00024337478450024325,-0.7849452449999996,8.281671149898502e-06,-2.3560167500000007,6.566280114991229e-05,1.5709326799999999,0.7860692240000002,0.04,0.03999999675,-9.813719999999984,0.001802810374649106,-0.006141729825012051,0.00019004505850047867,-0.009157035406680761,-6.598573850015895e-05
0.23,0.0002463139340002459,-0.7849412399999997,7.055353799897385e-06,-2.3560250000000007,6.460297179991132e-05,1.57093106,0.7860717980000003,0.04,0.039999996,-9.813536999999984,0.0018243876285868456,-0.006287330400012184,0.00019582847200048394,-0.009179466217758137,-6.79062020001607e-05
0.2325,0.0002492530835002486,-0.7849372349999997,5.829036449896269e-06,-2.3560332500000007,6.354314244991036e-05,1.5709294399999998,0.7860743720000002,0.04,0.03999999525,-9.813353999999984,0.0018459648825245852,-0.006432930975012316,0.0002016118855004892,-0.009201897028835511,-6.982666550016246e-05
0.23500000000000001,0.00025259048800030235,-0.7849337899999997,4.4366061998738485e-06,-2.356041720000001,6.233793439989075e-05,1.5709274999999998,0.7860773270000003,0.04,0.0399999955,-9.813194899999987,0.0018657315056786526,-0.006589390020013841,0.0002079318960005633,-0.009219207987190541,-7.213670600021416e-05
0.23750000000000002,0.0002561270200003056,-0.7849306249999998,2.9611194998725058e-06,-2.3560503000000006,6.106003699988958e-05,1.5709253999999997,0.7860804725000002,0.04,0.03999999625,-9.813047749999987,0.0018845928134412298,-0.006751278300013989,0.0002145202050005693,-0.009233959019185374,-7.464153500021644e-05
0.24,0.0002596635520003088,-0.7849274599999998,1.4856327998711792e-06,-2.356058880000001,5.978213959988843e-05,1.5709232999999998,0.7860836180000003,0.04,0.039999997,-9.812900599999987,0.0019034541212038067,-0.006913166580014134,0.00022110851400057523,-0.009248710051180208,-7.714636400021869e-05
0.2425,0.00026320008400031197,-0.7849242949999997,1.0146099869835662e-08,-2.3560674600000007,5.850424219988727e-05,1.5709212,0.7860867635000003,0.04,0.03999999775,-9.812753449999986,0.001922315428966384,-0.007075054860014282,0.00022769682300058123,-0.00926346108317504,-7.965119300022098e-05
0.245,0.0002667366160003152,-0.7849211299999997,-1.465340600131507e-06,-2.356076040000001,5.72263447998861e-05,1.5709190999999998,0.7860899090000003,0.04,0.0399999985,-9.812606299999986,0.0019411767367289612,-0.007236943140014429,0.00023428513200058723,-0.009278212115169875,-8.215602200022326e-05
0.2475,0.00027027314800031845,-0.7849179649999998,-2.9408273001328506e-06,-2.3560846200000007,5.594844739988494e-05,1.570917,0.7860930545000003,0.04,0.03999999925,-9.812459149999986,0.0019600380444915384,-0.007398831420014577,0.00024087344100059323,-0.009292963147164709,-8.466085100022553e-05
0.25,0.0002738096800003819,-0.7849147999999998,-4.416314000159343e-06,-2.356093200000001,5.467054999986206e-05,1.5709148999999998,0.7860962000000004,0.04,0.04,-9.812311999999986,0.0019788993522543894,-0.007560719700013978,0.000247461750000652,-0.00930771417915894,-8.716568000022163e-05
0.2525,0.00027800907400038575,-0.7849124749999998,-6.168311750160938e-06,-2.356101960000001,5.3153843899860675e-05,1.5709126949999999,0.7860999575000004,0.04,0.04,-9.812148949999985,0.0020007736049611844,-0.007714402545014118,0.00025463019000065854,-0.009315844066441792,-8.960244800022385e-05
0.255,0.0002822084680003896,-0.7849101499999998,-7.920309500162534e-06,-2.356110720000001,5.16371377998593e-05,1.5709104899999997,0.7861037150000003,0.04,0.04,-9.811985899999986,0.0020226478576679794,-0.007868085390014257,0.000261798630000665,-0.009323973953724644,-9.203921600022606e-05
0.2575,0.0002864078620003934,-0.7849078249999998,-9.672307250164128e-06,-2.3561194800000007,5.012043169985792e-05,1.5709082849999998,0.7861074725000003,0.04,0.04,-9.811822849999984,0.0020445221103747744,-0.008021768235014397,0.00026896707000067155,-0.009332103841007498,-9.447598400022828e-05
0.26,0.0002906072560003972,-0.7849054999999998,-1.1424305000165724e-05,-2.3561282400000008,4.8603725599856535e-05,1.5709060799999999,0.7861112300000004,0.04,0.04,-9.811659799999985,0.002066396363081569,-0.008175451080014537,0.0002761355100006781,-0.00934023372829035,-9.69127520002305e-05
0.2625,0.00029480665000040105,-0.7849031749999997,-1.317630275016732e-05,-2.356137000000001,4.708701949985515e-05,1.570903875,0.7861149875000003,0.04,0.04,-9.811496749999984,0.002088270615788364,-0.008329133925014677,0.0002833039500006846,-0.009348363615573202,-9.934952000023272e-05
0.265,0.00029900604400040487,-0.7849008499999998,-1.4928300500168914e-05,-2.356145760000001,4.557031339985377e-05,1.5709016699999998,0.7861187450000003,0.04,0.04,-9.811333699999985,0.002110144868495159,-0.008482816770014816,0.00029047239000069115,-0.009356493502856054,-0.00010178628800023494
0.2675,0.00030344866050047967,-0.7848988079999998,-1.678175385020013e-05,-2.3561547000000007,4.396576599982674e-05,1.5708992899999998,0.7861227175000004,0.04,0.04,-9.81115484999998,0.0021312101278472724,-0.008641048600016285,0.00029783089950075314,-0.009361322131007703,-0.00010434490200027273
0.27,0.00030837772200048417,-0.7848973319999998,-1.8838118400202e-05,-2.356164000000001,4.218553599982512e-05,1.5708965599999998,0.7861271200000004,0.04,0.04,-9.810944399999979,0.0021506574004907303,-0.008808378400016437,0.0003055695480007602,-0.009359548240899827,-0.00010714720800027528
0.2725,0.0003133067835004887,-0.7848958559999999,-2.0894482950203876e-05,-2.356173300000001,4.04053059998235e-05,1.5708938299999997,0.7861315225000004,0.04,0.04,-9.81073394999998,0.002170104673134188,-0.008975708200016589,0.00031330819650076725,-0.009357774350791949,-0.00010994951400027783
0.275,0.0003182358450004931,-0.7848943799999999,-2.2950847500205745e-05,-2.356182600000001,3.862507599982188e-05,1.5708910999999997,0.7861359250000004,0.04,0.04,-9.810523499999979,0.002189551945777646,-0.009143038000016743,0.0003210468450007743,-0.009356000460684072,-0.00011275182000028038
0.2775,0.00032316490650049763,-0.7848929039999999,-2.500721205020762e-05,-2.3561919000000007,3.684484599982026e-05,1.5708883699999996,0.7861403275000005,0.04,0.04,-9.81031304999998,0.0022089992184211034,-0.009310367800016895,0.0003287854935007813,-0.009354226570576196,-0.00011555412600028293
0.28,0.00032809396800050213,-0.7848914279999999,-2.706357660020949e-05,-2.356201200000001,3.506461599981864e-05,1.5708856399999997,0.7861447300000005,0.04,0.04,-9.81010259999998,0.0022284464910645612,-0.009477697600017047,0.00033652414200078834,-0.00935245268046832,-0.00011835643200028548
0.28250000000000003,0.0003330230295005066,-0.7848899519999999,-2.9119941150211364e-05,-2.356210500000001,3.328438599981702e-05,1.5708829099999997,0.7861491325000005,0.04,0.04,-9.809892149999978,0.002247893763708019,-0.009645027400017199,0.0003442627905007954,-0.009350678790360443,-0.00012115873800028803
0.28500000000000003,0.00033848370200059377,-0.784889034,-3.139804970024772e-05,-2.3562201800000007,3.13113343997854e-05,1.5708799499999995,0.7861539900000005,0.04,0.04,-9.809721299999985,0.0022682382725200062,-0.009805868700016342,0.0003525444000008869,-0.009344782028346365,-0.00012421755600033047
0.28750000000000003,0.000344210180000599,-0.784888395,-3.3787030250249896e-05,-2.356230050000001,2.924187199978352e-05,1.5708768749999995,0.7861590750000006,0.04,0.04,-9.809570249999984,0.00228903139941605,-0.009963465750016486,0.0003610974900008947,-0.009336823830380142,-0.00012740463000033338
0.29,0.0003499366580006041,-0.7848877559999999,-3.6176010800252024e-05,-2.356239920000001,2.7172409599781684e-05,1.5708737999999995,0.7861641600000006,0.04,0.04,-9.809419199999985,0.0023098245263120936,-0.010121062800016626,0.0003696505800009023,-0.00932886563241392,-0.00013059170400033621
0.2925,0.0003556631360006093,-0.7848871169999999,-3.85649913502542e-05,-2.356249790000001,2.51029471997798e-05,1.5708707249999996,0.7861692450000005,0.04,0.04,-9.809268149999983,0.0023306176532081374,-0.01027865985001677,0.0003782036700009101,-0.009320907434447698,-0.00013377877800033913
0.295,0.00036138961400061456,-0.7848864779999999,-4.095397190025637e-05,-2.356259660000001,2.3033484799777916e-05,1.5708676499999996,0.7861743300000005,0.04,0.04,-9.809117099999984,0.0023514107801041813,-0.010436256900016913,0.00038675676000091787,-0.009312949236481476,-0.000136965852000342
0.2975,0.00036711609200061976,-0.7848858389999999,-4.334295245025855e-05,-2.356269530000001,2.0964022399776035e-05,1.5708645749999997,0.7861794150000005,0.04,0.04,-9.808966049999983,0.002372203907000225,-0.010593853950017057,0.00039530985000092565,-0.009304991038515254,-0.00014015292600034492
0.3,0.0003728425700007195,-0.7848852,-4.573193300030014e-05,-2.3562794000000014,1.8894559999740135e-05,1.5708614999999995,0.7861845000000006,0.04,0.04,-9.808814999999981,0.0023929970338962777,-0.010751451000018213,0.00040386294000101887,-0.009297032840548199,-0.00014334000000035057
0.3025,0.0003794350625007255,-0.784885455,-4.8482139050302645e-05,-2.356290275000001,1.6513408789737967e-05,1.5708580499999996,0.7861903725000006,0.04,0.04,-9.808646549999981,0.002413869195154312,-0.010918334325018365,0.00041319896400102737,-0.009281436633316905,-0.0001465523175003535
0.305,0.0003860275550007315,-0.78488571,-5.123234510030515e-05,-2.356301150000001,1.41322575797358e-05,1.5708545999999997,0.7861962450000006,0.04,0.04,-9.80847809999998,0.002434741356412346,-0.011085217650018516,0.0004225349880010359,-0.00926584042608561,-0.00014976463500035643
0.3075,0.0003926200475007375,-0.7848859650000001,-5.3982551150307656e-05,-2.356312025000001,1.1751106369733632e-05,1.5708511499999995,0.7862021175000007,0.04,0.04,-9.80830964999998,0.00245561351767038,-0.01125210097501867,0.0004318710120010444,-0.009250244218854316,-0.00015297695250035935
0.31,0.0003992125400007435,-0.7848862200000001,-5.6732757200310155e-05,-2.356322900000001,9.369955159731464e-06,1.5708476999999996,0.7862079900000006,0.04,0.04,-9.80814119999998,0.002476485678928414,-0.01141898430001882,0.0004412070360010529,-0.009234648011623022,-0.00015618927000036228
0.3125,0.0004058050325007495,-0.7848864750000001,-5.948296325031266e-05,-2.3563337750000013,6.988803949729297e-06,1.5708442499999995,0.7862138625000007,0.04,0.04,-9.80797274999998,0.0024973578401864477,-0.011585867625018972,0.0004505430600010614,-0.009219051804391728,-0.0001594015875003652
0.315,0.0004123975250007555,-0.7848867300000001,-6.223316930031517e-05,-2.3563446500000014,4.6076527397271275e-06,1.5708407999999996,0.7862197350000008,0.04,0.04,-9.80780429999998,0.002518230001444482,-0.011752750950019123,0.0004598790840010699,-0.009203455597160433,-0.00016261390500036814
0.3175,0.0004193017590008695,-0.7848872785000002,-6.511339700036272e-05,-2.3563556050000014,2.113891369685937e-06,1.5708371699999997,0.7862258875000008,0.04,0.04,-9.807653349999987,0.0025389887043298213,-0.01192290697502041,0.0004694537535011611,-0.00918595483526339,-0.00016595867500041696
0.32,0.00042682947600087634,-0.7848884140000002,-6.825366800036558e-05,-2.3563667200000014,-6.050903203165383e-07,1.5708331799999995,0.7862326000000008,0.04,0.04,-9.807537399999987,0.0025595204904698904,-0.01209960840002057,0.0004795057140011702,-0.009164644964036819,-0.00016956835000042023
0.3225,0.0004343571930008832,-0.7848895495000001,-7.139393900036844e-05,-2.3563778350000013,-3.3240720103190138e-06,1.5708291899999995,0.7862393125000008,0.04,0.04,-9.807421449999985,0.002580052276609959,-0.012276309825020731,0.0004895576745011794,-0.00914333509281025,-0.0001731780250004235
0.325,0.00044188491000089004,-0.7848906850000001,-7.45342100003713e-05,-2.3563889500000013,-6.04305370032149e-06,1.5708251999999996,0.7862460250000008,0.04,0.04,-9.807305499999986,0.002600584062750028,-0.012453011250020893,0.0004996096350011886,-0.00912202522158368,-0.00017678770000042682
0.3275,0.0004494126270008969,-0.7848918205000002,-7.767448100037416e-05,-2.356400065000001,-8.762035390323964e-06,1.5708212099999996,0.7862527375000008,0.04,0.04,-9.807189549999986,0.0026211158488900965,-0.012629712675021054,0.0005096615955011977,-0.009100715350357112,-0.0001803973750004301
0.33,0.00045694034400090374,-0.7848929560000002,-8.081475200037702e-05,-2.356411180000001,-1.1481017080326439e-05,1.5708172199999995,0.7862594500000007,0.04,0.04,-9.807073599999987,0.002641647635030165,-0.012806414100021214,0.0005197135560012069,-0.009079405479130543,-0.00018400705000043337
0.3325,0.0004644680610009106,-0.7848940915000001,-8.395502300037987e-05,-2.356422295000001,-1.4199998770328914e-05,1.5708132299999995,0.7862661625000008,0.04,0.04,-9.806957649999987,0.002662179421170234,-0.012983115525021375,0.000529765516501216,-0.009058095607903972,-0.00018761672500043668
0.335,0.00047266564000103995,-0.7848958430000003,-8.737470100043381e-05,-2.3564341300000016,-1.7160964700375632e-05,1.5708089099999996,0.7862734800000009,0.04,0.04,-9.806769299999972,0.0026817833771951727,-0.013160258200021617,0.0005402832670013103,-0.009030714631076894,-0.00019141135800047378
0.3375,0.0004811981500010477,-0.7848979025000002,-9.093408250043706e-05,-2.3564463250000016,-2.0242922750378437e-05,1.5708044249999995,0.786281100000001,0.04,0.04,-9.806544749999972,0.0027009234181628004,-0.013337621500021778,0.0005510339125013201,-0.009000298101451216,-0.0001952984700004773
0.34,0.0004897306600010555,-0.7848999620000002,-9.44934640004403e-05,-2.3564585200000017,-2.3324880800381242e-05,1.5707999399999995,0.7862887200000009,0.04,0.04,-9.806320199999973,0.0027200634591304277,-0.01351498480002194,0.0005617845580013299,-0.008969881571825537,-0.00019918558200048085
0.3425,0.0004982631700010632,-0.7849020215000002,-9.805284550044353e-05,-2.3564707150000017,-2.640683885038405e-05,1.5707954549999994,0.7862963400000009,0.04,0.04,-9.806095649999973,0.002739203500098055,-0.013692348100022102,0.0005725352035013396,-0.00893946504219986,-0.00020307269400048438
0.34500000000000003,0.0005067956800010711,-0.7849040810000002,-0.00010161222700044678,-2.3564829100000018,-2.9488796900386855e-05,1.5707909699999993,0.7863039600000009,0.04,0.04,-9.805871099999973,0.0027583435410656826,-0.013869711400022263,0.0005832858490013494,-0.008909048512574182,-0.00020695980600048792
0.34750000000000003,0.0005153281900010788,-0.7849061405000002,-0.00010517160850045002,-2.356495105000002,-3.257075495038966e-05,1.5707864849999993,0.786311580000001,0.04,0.04,-9.805646549999972,0.00277748358203331,-0.014047074700022425,0.0005940364945013592,-0.008878631982948505,-0.00021084691800049145
0.35000000000000003,0.0005238607000012235,-0.7849082000000003,-0.00010873099000051035,-2.356507300000002,-3.565271300044206e-05,1.5707819999999992,0.7863192000000011,0.04,0.04,-9.805421999999984,0.0027966236230008183,-0.014224438000023053,0.0006047871400014561,-0.008848215453322079,-0.00021473403000054508
0.3525,0.000533467964501232,-0.7849111475000004,-0.0001127386270005139,-2.356520605000002,-3.912409355044514e-05,1.5707769299999992,0.7863277740000011,0.04,0.04,-9.805294949999984,0.0028148310026176395,-0.014405471650023215,0.0006162219640014662,-0.008811924885953773,-0.00021901456500054888
0.355,0.0005430752290012407,-0.7849140950000003,-0.00011674626400051756,-2.356533910000002,-4.25954741004483e-05,1.5707718599999994,0.7863363480000011,0.04,0.04,-9.805167899999983,0.002833038382234461,-0.014586505300023379,0.0006276567880014767,-0.008775634318585464,-0.0002232951000005528
0.3575,0.0005526824935012495,-0.7849170425000004,-0.00012075390100052121,-2.3565472150000017,-4.606685465045146e-05,1.5707667899999993,0.7863449220000011,0.04,0.04,-9.805040849999983,0.0028512457618512827,-0.014767538950023544,0.0006390916120014871,-0.008739343751217156,-0.00022757563500055668
0.36,0.0005622897580012582,-0.7849199900000003,-0.00012476153800052486,-2.3565605200000017,-4.953823520045462e-05,1.5707617199999993,0.7863534960000012,0.04,0.04,-9.804913799999984,0.0028694531414681043,-0.01494857260002371,0.0006505264360014975,-0.008703053183848848,-0.00023185617000056057
0.3625,0.0005718970225012669,-0.7849229375000004,-0.0001287691750005285,-2.3565738250000017,-5.300961575045778e-05,1.5707566499999992,0.7863620700000011,0.04,0.04,-9.804786749999984,0.002887660521084926,-0.015129606250023873,0.0006619612600015079,-0.00866676261648054,-0.00023613670500056448
0.365,0.0005815042870012757,-0.7849258850000004,-0.00013277681200053217,-2.356587130000002,-5.648099630046094e-05,1.5707515799999991,0.7863706440000011,0.04,0.04,-9.804659699999982,0.0029058679007017475,-0.015310639900024039,0.0006733960840015183,-0.008630472049112232,-0.00024041724000056837
0.3675,0.0005914931155014374,-0.7849291625000006,-0.00013694360550059963,-2.356600815000002,-6.008970650051918e-05,1.5707462999999993,0.7863795570000013,0.04,0.04,-9.804533274999983,0.0029244995559591343,-0.01549572840002583,0.000685098190001636,-0.008592328242951955,-0.00024471265850057824
0.37,0.0006022450720014473,-0.7849331000000005,-0.00014142871200060371,-2.356615260000002,-6.397307600052272e-05,1.5707405999999993,0.7863891480000013,0.04,0.04,-9.804408099999984,0.002943979762497142,-0.015688926600026007,0.0006973348600016471,-0.008550477959209967,-0.00024903784400058217
0.3725,0.000612997028501457,-0.7849370375000005,-0.0001459138185006078,-2.3566297050000022,-6.785644550052625e-05,1.5707348999999993,0.7863987390000013,0.04,0.04,-9.804282924999983,0.0029634599690351498,-0.01588212480002618,0.0007095715300016582,-0.00850862767546798,-0.0002533630295005861
0.375,0.0006237489850014668,-0.7849409750000005,-0.00015039892500061188,-2.356644150000002,-7.173981500052979e-05,1.570729199999999,0.7864083300000013,0.04,0.04,-9.804157749999982,0.0029829401755731575,-0.016075323000026356,0.0007218082000016694,-0.00846677739172599,-0.00025768821500059003
0.3775,0.0006345009415014766,-0.7849449125000005,-0.00015488403150061596,-2.356658595000002,-7.562318450053332e-05,1.570723499999999,0.7864179210000013,0.04,0.04,-9.804032574999983,0.003002420382111165,-0.016268521200026535,0.0007340448700016805,-0.008424927107984002,-0.00026201340050059397
0.38,0.0006452528980014865,-0.7849488500000006,-0.00015936913800062004,-2.356673040000002,-7.950655400053686e-05,1.570717799999999,0.7864275120000013,0.04,0.04,-9.803907399999982,0.0030219005886491733,-0.01646171940002671,0.0007462815400016917,-0.008383076824242015,-0.0002663385860005979
0.3825,0.0006560048545014962,-0.7849527875000005,-0.00016385424450062413,-2.3566874850000024,-8.33899235005404e-05,1.570712099999999,0.7864371030000014,0.04,0.04,-9.803782224999983,0.003041380795187181,-0.016654917600026884,0.0007585182100017028,-0.008341226540500025,-0.00027066377150060183
0.385,0.0006675666060016761,-0.7849573700000007,-0.00016867711200069919,-2.3567027000000023,-8.756659600060555e-05,1.570705999999999,0.7864474200000015,0.0399999995,0.04,-9.80365174999998,0.0030584759777433574,-0.016851278500027725,0.0007712342900018146,-0.008295516297214476,-0.0002753355400006786
0.3875,0.000679533255001687,-0.7849622750000007,-0.00017366886000070374,-2.3567183000000025,-9.18899200006095e-05,1.5706996999999991,0.7864581000000015,0.03999999875,0.04,-9.803518624999981,0.003074378648309367,-0.017049220750027905,0.0007841900750018264,-0.008247876074158358,-0.000280180600000683
0.39,0.000691499904001698,-0.7849671800000007,-0.00017866060800070827,-2.3567339000000023,-9.621324400061342e-05,1.570693399999999,0.7864687800000015,0.039999998,0.04,-9.803385499999981,0.0030902813188753765,-0.017247163000028085,0.0007971458600018383,-0.008200235851102241,-0.0002850256600006874
0.3925,0.0007034665530017088,-0.7849720850000007,-0.00018365235600071282,-2.3567495000000025,-0.00010053656800061737,1.5706870999999991,0.7864794600000016,0.03999999725,0.04,-9.803252374999982,0.003106183989441386,-0.017445105250028268,0.00081010164500185,-0.008152595628046122,-0.00028987072000069184
0.395,0.0007154332020017197,-0.7849769900000007,-0.00018864410400071734,-2.3567651000000023,-0.0001048598920006213,1.5706807999999992,0.7864901400000015,0.0399999965,0.04,-9.803119249999982,0.0031220866600073956,-0.017643047500028448,0.0008230574300018618,-0.008104955404990004,-0.0002947157800006963
0.3975,0.0007273998510017307,-0.7849818950000007,-0.0001936358520007219,-2.3567807000000025,-0.00010918321600062524,1.570674499999999,0.7865008200000015,0.03999999575,0.04,-9.80298612499998,0.003137989330573405,-0.017840989750028628,0.0008360132150018737,-0.008057315181933885,-0.00029956084000070065
0.4,0.0007393665000019285,-0.7849868000000009,-0.00019862760000080443,-2.3567963000000023,-0.00011350654000069678,1.570668199999999,0.7865115000000018,0.039999995,0.04,-9.80285299999998,0.0031538920011394502,-0.018038932000030976,0.0008489690000019966,-0.008009674958876821,-0.00030440590000074726
0.4025,0.0007526177100019405,-0.7849926725000008,-0.00020415514500080945,-2.3568130550000026,-0.00011829446200070114,1.570661239999999,0.7865233260000017,0.039999994250000004,0.04,-9.802707949999979,0.003170041309206285,-0.01825178605003117,0.0008626889300020091,-0.007955528004087012,-0.00030954100750075196
0.405,0.0007658689200019526,-0.7849985450000009,-0.00020968269000081448,-2.3568298100000025,-0.0001230823840007055,1.570654279999999,0.7865351520000018,0.039999993500000004,0.04,-9.802562899999979,0.0031861906172731195,-0.018464640100031363,0.0008764088600020216,-0.007901381049297202,-0.00031467611500075665
0.40750000000000003,0.0007791201300019646,-0.7850044175000008,-0.00021521023500081953,-2.3568465650000023,-0.00012787030600070986,1.570647319999999,0.7865469780000018,0.039999992750000005,0.04,-9.802417849999978,0.003202339925339954,-0.01867749415003156,0.0008901287900020341,-0.007847234094507393,-0.00031981122250076134
0.41000000000000003,0.0007923713400019767,-0.7850102900000009,-0.00022073778000082455,-2.356863320000002,-0.00013265822800071422,1.570640359999999,0.7865588040000018,0.039999992,0.04,-9.802272799999978,0.003218489233406789,-0.018890348200031753,0.0009038487200020465,-0.007793087139717583,-0.000324946330000766
0.41250000000000003,0.0008056225500019887,-0.7850161625000008,-0.00022626532500082957,-2.3568800750000025,-0.00013744615000071855,1.570633399999999,0.7865706300000018,0.03999999125,0.04,-9.802127749999977,0.0032346385414736235,-0.019103202250031946,0.000917568650002059,-0.007738940184927773,-0.00033008143750077066
0.41500000000000004,0.0008188737600020008,-0.7850220350000009,-0.00023179287000083462,-2.3568968300000024,-0.0001422340720007229,1.570626439999999,0.7865824560000019,0.0399999905,0.04,-9.801982699999979,0.003250787849540458,-0.01931605630003214,0.0009312885800020715,-0.007684793230137965,-0.00033521654500077535
0.4175,0.0008325763525022182,-0.785028252500001,-0.0002375086810009253,-2.3569140250000027,-0.00014718496250080144,1.570619244999999,0.786594683000002,0.0399999899,0.03999999975,-9.801839499999978,0.003266940417236299,-0.019532080800033772,0.0009452244650021821,-0.0076286510564295175,-0.0003404049895008042
0.42,0.0008471817100022315,-0.7850351600000011,-0.00024360102400093086,-2.3569321000000025,-0.00015246179000080623,1.570611579999999,0.786607712000002,0.0399999896,0.039999999,-9.801699999999979,0.0032830995041901487,-0.019754446200033974,0.0009595922600021952,-0.007568518444886512,-0.00034570010800080903
0.4225,0.0008617870675022448,-0.785042067500001,-0.0002496933670009364,-2.356950175000003,-0.00015773861750081105,1.5706039149999989,0.786620741000002,0.0399999893,0.03999999825,-9.801560499999978,0.0032992585911439986,-0.01997681160003418,0.0009739600550022083,-0.007508385833343507,-0.00035099522650081387
0.425,0.0008763924250022581,-0.785048975000001,-0.00025578571000094196,-2.3569682500000027,-0.00016301544500081584,1.5705962499999988,0.786633770000002,0.039999989,0.0399999975,-9.801420999999978,0.003315417678097848,-0.02019917700003438,0.0009883278500022214,-0.007448253221800503,-0.00035629034500081865
0.4275,0.0008909977825022715,-0.785055882500001,-0.0002618780530009475,-2.356986325000003,-0.00016829227250082064,1.5705885849999988,0.786646799000002,0.0399999887,0.03999999675,-9.801281499999977,0.003331576765051698,-0.020421542400034583,0.0010026956450022344,-0.007388120610257498,-0.0003615854635008235
0.43,0.0009056031400022848,-0.7850627900000011,-0.00026797039600095303,-2.3570044000000028,-0.00017356910000082546,1.5705809199999987,0.786659828000002,0.0399999884,0.039999996,-9.801141999999977,0.0033477358520055474,-0.020643907800034784,0.0010170634400022474,-0.007327987998714493,-0.0003668805820008283
0.4325,0.0009202084975022981,-0.7850696975000011,-0.0002740627390009586,-2.357022475000003,-0.00017884592750083028,1.570573254999999,0.786672857000002,0.0399999881,0.03999999525,-9.801002499999978,0.0033638949389593973,-0.020866273200034986,0.0010314312350022607,-0.007267855387171489,-0.0003721757005008331
0.435,0.0009357627250025366,-0.7850773140000012,-0.0002805509080010581,-2.3570413700000032,-0.00018446540300091641,1.5705650499999986,0.7866867400000023,0.0399999876,0.039999994500000004,-9.800863699999978,0.0033787147374845193,-0.02109309850003625,0.0010463491500024044,-0.007203702162940669,-0.00037766430600088386
0.4375,0.0009517913875025512,-0.7850852850000013,-0.00028723699000106416,-2.357060675000003,-0.00019025620250092166,1.5705565749999986,0.7867010500000022,0.039999987,0.039999993750000004,-9.800725249999978,0.003392864891795752,-0.021322153750036456,0.001061542125002418,-0.007137538632367369,-0.000383249655000889
0.44,0.0009678200500025658,-0.7850932560000012,-0.0002939230720010703,-2.357079980000003,-0.00019604700200092693,1.5705480999999986,0.7867153600000023,0.0399999864,0.039999993000000005,-9.800586799999978,0.0034070150461069848,-0.021551209000036667,0.001076735100002432,-0.007071375101794069,-0.00038883500400089404
0.4425,0.0009838487125025804,-0.7851012270000013,-0.00030060915400107634,-2.3570992850000034,-0.0002018378015009322,1.5705396249999988,0.7867296700000023,0.0399999858,0.03999999225,-9.800448349999979,0.003421165200418218,-0.021780264250036874,0.001091928075002446,-0.0070052115712207685,-0.0003944203530008991
0.445,0.0009998773750025949,-0.7851091980000013,-0.0003072952360010824,-2.3571185900000033,-0.00020762860100093748,1.5705311499999988,0.7867439800000023,0.039999985200000004,0.0399999915,-9.800309899999977,0.0034353153547294507,-0.022009319500037084,0.0011071210500024596,-0.006939048040647469,-0.00040000570200090423
0.4475,0.0010159060375026095,-0.7851171690000013,-0.00031398131800108853,-2.3571378950000033,-0.00021341940050094275,1.5705226749999988,0.7867582900000024,0.0399999846,0.03999999075,-9.800171449999977,0.0034494655090406834,-0.02223837475003729,0.0011223140250024735,-0.006872884510074168,-0.0004055910510009093
0.45,0.0010319347000028684,-0.7851251400000014,-0.00032066740000119646,-2.3571572000000036,-0.00021921020000103625,1.5705141999999985,0.7867726000000026,0.039999984,0.03999999,-9.800032999999976,0.0034636156633517305,-0.022467430000039403,0.0011375070000025917,-0.006806720979499841,-0.0004111764000009627
0.4525,0.0010494555850028844,-0.7851341880000015,-0.0003279758830012031,-2.3571785150000037,-0.000225539820501042,1.5705049899999985,0.7867882390000026,0.0399999834,0.0399999897,-9.799880449999975,0.0034766302793307773,-0.022708116100039623,0.001153336980002606,-0.006734286388370345,-0.00041705689500096804
0.455,0.0010669764700029004,-0.7851432360000015,-0.0003352843660012098,-2.3571998300000034,-0.00023186944100104777,1.5704957799999986,0.7868038780000026,0.0399999828,0.0399999894,-9.799727899999976,0.003489644895309824,-0.022948802200039843,0.0011691669600026205,-0.00666185179724085,-0.00042293739000097343
0.4575,0.0010844973550029162,-0.7851522840000015,-0.00034259284900121646,-2.3572211450000036,-0.00023819906150105352,1.5704865699999986,0.7868195170000026,0.0399999822,0.0399999891,-9.799575349999975,0.003502659511288871,-0.02318948830004006,0.0011849969400026348,-0.006589417206111353,-0.00042881788500097876
0.46,0.0011020182400029322,-0.7851613320000015,-0.0003499013320012231,-2.3572424600000037,-0.0002445286820010593,1.5704773599999984,0.7868351560000026,0.0399999816,0.0399999888,-9.799422799999975,0.003515674127267918,-0.02343017440004028,0.0012008269200026493,-0.006516982614981857,-0.00043469838000098415
0.4625,0.0011195391250029482,-0.7851703800000015,-0.00035720981500122974,-2.357263775000004,-0.00025085830250106507,1.5704681499999984,0.7868507950000027,0.039999981,0.0399999885,-9.799270249999974,0.0035286887432469647,-0.0236708605000405,0.0012166569000026637,-0.0064445480238523615,-0.0004405788750009895
0.465,0.0011370600100029642,-0.7851794280000015,-0.0003645182980012364,-2.357285090000004,-0.0002571879230010708,1.5704589399999984,0.7868664340000027,0.039999980399999996,0.0399999882,-9.799117699999973,0.0035417033592260116,-0.023911546600040717,0.001232486880002678,-0.006372113432722866,-0.00044645937000099487
0.4675,0.0011551010050032456,-0.7851888420000017,-0.00037204374250135377,-2.357306870000004,-0.0002637053765011724,1.5704494599999983,0.7868825370000029,0.03999997985,0.039999988,-9.798995599999989,0.003554078575691137,-0.024156910100043325,0.00124854728000281,-0.0062985838623587755,-0.00045248078300107213
0.47000000000000003,0.001174182220003263,-0.7851989880000018,-0.000380003110001361,-2.357329580000004,-0.0002705984960011787,1.5704394399999984,0.7868995680000029,0.039999979399999996,0.039999988,-9.79893439999999,0.0035651749931293972,-0.02441162840004356,0.0012650685200028251,-0.006222864333527172,-0.00045878403200107784
0.47250000000000003,0.0011932634350032803,-0.7852091340000018,-0.00038796247750136825,-2.357352290000004,-0.00027749161550118495,1.5704294199999982,0.7869165990000029,0.03999997895,0.039999988,-9.798873199999989,0.0035762714105676574,-0.02466634670004379,0.00128158976000284,-0.006147144804695568,-0.0004650872810010836
0.47500000000000003,0.0012123446500032977,-0.7852192800000017,-0.0003959218450013755,-2.3573750000000038,-0.00028438473500119125,1.5704193999999982,0.7869336300000029,0.0399999785,0.039999988,-9.79881199999999,0.0035873678280059175,-0.02492106500004402,0.0012981110000028552,-0.006071425275863965,-0.0004713905300010893
0.47750000000000004,0.001231425865003315,-0.7852294260000018,-0.00040388121250138273,-2.357397710000004,-0.0002912778545011975,1.5704093799999983,0.786950661000003,0.039999978049999996,0.039999988,-9.79875079999999,0.0035984642454441776,-0.025175783300044254,0.0013146322400028703,-0.005995705747032361,-0.0004776937790010951
0.48,0.001250507080003332,-0.7852395720000018,-0.0004118405800013898,-2.357420420000004,-0.00029817097400120364,1.5703993599999984,0.7869676920000029,0.0399999776,0.039999988,-9.798689599999989,0.0036095606628824377,-0.025430501600044477,0.001331153480002885,-0.005919986218200758,-0.0004839970280011007
0.4825,0.0012695882950033493,-0.7852497180000018,-0.00041979994750139705,-2.3574431300000036,-0.0003050640935012099,1.5703893399999982,0.786984723000003,0.03999997715,0.039999988,-9.79862839999999,0.003620657080320698,-0.02568521990004471,0.0013476747200028998,-0.0058442666893691545,-0.0004903002770011065
0.485,0.001289754900003654,-0.7852606200000021,-0.00042821208300152414,-2.357466960000004,-0.00031234904400131985,1.5703787499999982,0.7870027200000033,0.039999977,0.039999988,-9.798506099999972,0.0036318242549915765,-0.02595077890004781,0.0013647015500030488,-0.005764221725970856,-0.0004967174540011423
0.4875,0.0013104642000036728,-0.785271900000002,-0.000436850602501532,-2.357491350000004,-0.00031982991000132667,1.570367874999998,0.7870212000000033,0.039999977,0.039999988,-9.798353249999973,0.0036430268082787366,-0.026221758250048056,0.0013819811750030646,-0.005682014045290921,-0.0005031915950011482
0.49,0.0013311735000036916,-0.7852831800000021,-0.00044548912200153987,-2.357515740000004,-0.00032731077600133354,1.570356999999998,0.7870396800000032,0.039999977,0.039999988,-9.798200399999972,0.0036542293615658967,-0.026492737600048305,0.0013992608000030803,-0.005599806364610986,-0.0005096657360011541
0.4925,0.0013518828000037104,-0.785294460000002,-0.00045412764150154776,-2.3575401300000043,-0.0003347916420013403,1.570346124999998,0.7870581600000033,0.039999977,0.039999988,-9.798047549999973,0.0036654319148530573,-0.02676371695004855,0.001416540425003096,-0.005517598683931051,-0.0005161398770011599
0.495,0.0013725921000037294,-0.785305740000002,-0.0004627661610015556,-2.3575645200000044,-0.00034227250800134717,1.570335249999998,0.7870766400000033,0.039999977,0.039999988,-9.797894699999972,0.0036766344681402174,-0.027034696300048795,0.0014338200500031116,-0.005435391003251116,-0.0005226140180011658
0.4975,0.0013933014000037482,-0.785317020000002,-0.00047140468050156344,-2.3575889100000045,-0.00034975337400135393,1.570324374999998,0.7870951200000034,0.039999977,0.039999988,-9.797741849999973,0.0036878370214273775,-0.027305675650049044,0.0014510996750031274,-0.005353183322571182,-0.0005290881590011718
0.5,0.0014140107000040754,-0.7853283000000022,-0.0004800432000016999,-2.357613300000005,-0.0003572342400014721,1.5703134999999977,0.7871136000000036,0.039999977,0.039999988,-9.797588999999979,0.0036990395747141984,-0.027576655000051162,0.0014683793000032632,-0.0052709756418903506,-0.0005355623000012326
0.5025000000000001,0.0014364149850040963,-0.7853408040000023,-0.0004893887475017086,-2.357639445000005,-0.00036532709400147965,1.5703017099999979,0.7871336010000036,0.0399999764,0.0399999874,-9.797471024999979,0.003708376281430762,-0.027857923150051422,0.00148631922500328,-0.0051838445709858445,-0.0005423390450012389
0.505,0.0014588192700041162,-0.7853533080000022,-0.000498734295001717,-2.3576655900000048,-0.0003734199480014868,1.5702899199999978,0.7871536020000036,0.0399999758,0.0399999868,-9.797353049999979,0.0037177129881473254,-0.028139191300051672,0.001504259150003296,-0.005096713500081342,-0.000549115790001245
0.5075000000000001,0.001481223555004137,-0.7853658120000023,-0.0005080798425017257,-2.357691735000005,-0.0003815128020014944,1.5702781299999977,0.7871736030000036,0.0399999752,0.039999986200000004,-9.797235074999978,0.003727049694863889,-0.028420459450051935,0.0015221990750033127,-0.005009582429176836,-0.0005558925350012513
0.51,0.001503627840004157,-0.7853783160000023,-0.000517425390001734,-2.357717880000005,-0.00038960565600150155,1.5702663399999979,0.7871936040000037,0.0399999746,0.0399999856,-9.797117099999978,0.0037363864015804524,-0.028701727600052185,0.0015401390000033285,-0.004922451358272333,-0.0005626692800012573
0.5125,0.0015260321250041768,-0.7853908200000023,-0.0005267709375017423,-2.357744025000005,-0.00039769851000150873,1.5702545499999978,0.7872136050000037,0.039999974,0.039999985,-9.796999124999978,0.0037457231082970157,-0.028982995750052434,0.0015580789250033444,-0.0048353202873678315,-0.0005694460250012634
0.515,0.0015484364100041975,-0.7854033240000023,-0.000536116485001751,-2.357770170000005,-0.0004057913640015163,1.5702427599999977,0.7872336060000037,0.0399999734,0.0399999844,-9.796881149999978,0.0037550598150135795,-0.029264263900052698,0.001576018850003361,-0.004748189216463325,-0.0005762227700012697
0.5175,0.001571427740004549,-0.7854162270000026,-0.0005457069375018977,-2.3577970200000054,-0.0004140961770016432,1.5702306749999977,0.7872541255000041,0.03999997285,0.0399999838,-9.796762824999977,0.0037637583445770673,-0.029549986400055465,0.0015941734850034985,-0.004659299552423244,-0.0005831015450013334
0.52,0.0015955931600045716,-0.7854299280000026,-0.000555787200001907,-2.3578252800000055,-0.00042282490800165133,1.5702179999999977,0.7872756820000041,0.0399999724,0.0399999832,-9.796643799999977,0.0037711805198354844,-0.029844617600055738,0.0016127575400035157,-0.0045668927021149785,-0.00059018438000134
0.5225,0.001619758580004593,-0.7854436290000025,-0.000565867462501916,-2.357853540000005,-0.0004315536390016591,1.5702053249999977,0.7872972385000041,0.039999971950000004,0.0399999826,-9.796524774999977,0.0037786026950939007,-0.030139248800056,0.0016313415950035322,-0.004474485851806716,-0.0005972672150013463
0.525,0.0016439240000046156,-0.7854573300000026,-0.0005759477250019254,-2.3578818000000052,-0.00044028237000166723,1.5701926499999976,0.7873187950000041,0.0399999715,0.039999981999999996,-9.796405749999977,0.003786024870352318,-0.030433880000056274,0.0016499256500035497,-0.0043820790014984495,-0.0006043500500013529
0.5275,0.0016680894200046372,-0.7854710310000026,-0.0005860279875019343,-2.3579100600000054,-0.00044901110100167493,1.5701799749999976,0.7873403515000041,0.03999997105,0.0399999814,-9.796286724999977,0.0037934470456107345,-0.030728511200056537,0.0016685097050035663,-0.0042896721511901876,-0.0006114328850013592
0.53,0.0016922548400046596,-0.7854847320000026,-0.0005961082500019438,-2.3579383200000055,-0.0004577398320016831,1.5701672999999976,0.7873619080000042,0.039999970600000004,0.0399999808,-9.796167699999977,0.003800869220869151,-0.03102314240005681,0.0016870937600035835,-0.004197265300881921,-0.0006185157200013657
0.5325,0.0017164202600046812,-0.7854984330000027,-0.0006061885125019527,-2.357966580000005,-0.00046646856300169083,1.5701546249999976,0.7873834645000042,0.03999997015,0.0399999802,-9.796048674999977,0.003808291396127568,-0.031317773600057074,0.0017056778150036,-0.004104858450573659,-0.0006255985550013721
0.535,0.0017418034300050592,-0.7855129500000029,-0.0006167767500021104,-2.3579959500000056,-0.0004756369160018273,1.5701413099999972,0.7874061110000045,0.039999969600000004,0.0399999797,-9.795954199999983,0.0038143521174798774,-0.031624166300060784,0.0017247665400037648,-0.004009831463899329,-0.0006328864350014386
0.5375,0.0017677954750050823,-0.7855278750000029,-0.00062761897500212,-2.358025875000006,-0.0004850250800018357,1.5701276749999973,0.7874293025000045,0.039999969,0.03999997925,-9.795871999999983,0.003819732111879727,-0.03193643975006106,0.0017441076000037819,-0.003913494409043113,-0.0006402768375014451
0.54,0.0017937875200051065,-0.7855428000000029,-0.0006384612000021301,-2.358055800000006,-0.0004944132440018444,1.5701140399999973,0.7874524940000045,0.0399999684,0.039999978799999995,-9.795789799999984,0.003825112106279577,-0.03224871320006135,0.0017634486600037998,-0.003817157354186893,-0.000647667240001452
0.5425,0.0018197795650051296,-0.7855577250000029,-0.0006493034250021398,-2.358085725000006,-0.0005038014080018528,1.5701004049999971,0.7874756855000046,0.0399999678,0.03999997835,-9.795707599999984,0.0038304921006794266,-0.03256098665006163,0.001782789720003817,-0.0037208202993306775,-0.0006550576425014585
0.545,0.0018457716100051538,-0.785572650000003,-0.0006601456500021499,-2.358115650000006,-0.0005131895720018615,1.5700867699999972,0.7874988770000046,0.0399999672,0.0399999779,-9.795625399999983,0.0038358720950792766,-0.03287326010006192,0.001802130780003835,-0.0036244832444744576,-0.0006624480450014654
0.5475,0.0018717636550051769,-0.785587575000003,-0.0006709878750021594,-2.358145575000006,-0.0005225777360018699,1.5700731349999972,0.7875220685000046,0.0399999666,0.03999997745,-9.795543199999983,0.0038412520894791267,-0.03318553355006219,0.0018214718400038521,-0.0035281461896182423,-0.0006698384475014719
0.55,0.0018977557000055794,-0.7856025000000032,-0.0006818301000023274,-2.3581755000000064,-0.0005319659000020153,1.570059499999997,0.787545260000005,0.039999966,0.039999977,-9.795460999999971,0.003846632083878271,-0.03349780700006469,0.0018408129000039943,-0.0034318091347608237,-0.0006772288500015418
0.5525,0.0019256388400056043,-0.7856186925000033,-0.0006934612755023378,-2.358207585000007,-0.0005420368475020243,1.570044859999997,0.787570160000005,0.0399999651,0.0399999764,-9.795322249999971,0.003848487313371498,-0.033821083550064975,0.0018607747650040121,-0.003329482162350653,-0.0006849340980015487
0.555,0.00195352198000563,-0.7856348850000032,-0.0007050924510023486,-2.358239670000007,-0.0005521077950020336,1.570030219999997,0.787595060000005,0.0399999642,0.0399999758,-9.795183499999972,0.0038503425428647246,-0.034144360100065274,0.0018807366300040308,-0.003227155189940477,-0.0006926393460015559
0.5575,0.001981405120005655,-0.7856510775000033,-0.0007167236265023589,-2.3582717550000067,-0.0005621787425020426,1.570015579999997,0.7876199600000051,0.0399999633,0.0399999752,-9.795044749999972,0.0038521977723579514,-0.03446763665006557,0.0019006984950040485,-0.0031248282175303068,-0.0007003445940015627
0.56,0.002009288260005681,-0.7856672700000032,-0.0007283548020023699,-2.3583038400000067,-0.000572249690002052,1.570000939999997,0.7876448600000051,0.0399999624,0.0399999746,-9.794905999999973,0.003854053001851178,-0.034790913200065866,0.0019206603600040672,-0.003022501245120131,-0.0007080498420015699
0.5625,0.002037171400005706,-0.7856834625000033,-0.0007399859775023801,-2.3583359250000067,-0.0005823206375020609,1.569986299999997,0.7876697600000051,0.0399999615,0.039999974,-9.794767249999973,0.003855908231344405,-0.03511418975006615,0.001940622225004085,-0.0029201742727099603,-0.0007157550900015767
0.5650000000000001,0.002065054540005732,-0.7856996550000033,-0.000751617153002391,-2.3583680100000066,-0.0005923915850020703,1.569971659999997,0.7876946600000051,0.0399999606,0.0399999734,-9.794628499999972,0.0038577634608376317,-0.03543746630006645,0.0019605840900041036,-0.002817847300299785,-0.000723460338001584
0.5675,0.0020935892700061605,-0.7857162825000036,-0.0007635201430025697,-2.358400805000007,-0.000602697789502225,1.5699566749999967,0.7877201355000055,0.0399999599,0.039999973,-9.79450324999998,0.0038602829561576145,-0.03576985455007239,0.0019807234050042313,-0.0027142147882621755,-0.0007313143665016829
0.5700000000000001,0.002123427180006188,-0.7857337800000036,-0.0007759667620025813,-2.358435020000007,-0.000613474508002235,1.5699409999999967,0.7877467620000056,0.0399999596,0.039999973,-9.79440499999998,0.003864130983129878,-0.03612046620007271,0.00200121762000425,-0.0026079711969721063,-0.0007394659560016905
0.5725,0.002153265090006215,-0.7857512775000036,-0.0007884133810025924,-2.358469235000007,-0.0006242512265022445,1.5699253249999967,0.7877733885000056,0.0399999593,0.039999973,-9.794306749999981,0.0038679790101021415,-0.03647107785007302,0.0020217118350042687,-0.002501727605682042,-0.0007476175455016977
0.5750000000000001,0.0021831030000062424,-0.7857687750000036,-0.000800860000002604,-2.3585034500000073,-0.0006350279450022546,1.5699096499999967,0.7878000150000056,0.039999959,0.039999973,-9.79420849999998,0.003871827037074405,-0.036821689500073355,0.0020422060500042876,-0.0023954840143919727,-0.0007557691350017054
0.5775,0.0022129409100062687,-0.7857862725000037,-0.0008133066190026151,-2.358537665000007,-0.0006458046635022641,1.5698939749999967,0.7878266415000056,0.039999958700000005,0.039999973,-9.79411024999998,0.0038756750640466684,-0.03717230115007367,0.0020627002650043056,-0.0022892404231019082,-0.0007639207245017126
0.58,0.0022427788200062955,-0.7858037700000037,-0.0008257532380026261,-2.358571880000007,-0.0006565813820022737,1.5698782999999967,0.7878532680000057,0.0399999584,0.039999973,-9.79401199999998,0.0038795230910189317,-0.03752291280007398,0.002083194480004324,-0.0021829968318118438,-0.0007720723140017199
0.5825,0.002272616730006323,-0.7858212675000037,-0.0008381998570026377,-2.358606095000007,-0.0006673581005022837,1.5698626249999967,0.7878798945000056,0.0399999581,0.039999973,-9.79391374999998,0.0038833711179911954,-0.0378735244500743,0.002103688695004343,-0.002076753240521775,-0.0007802239035017275
0.585,0.002303799460006779,-0.785839660000004,-0.0008512075570028279,-2.3586417500000074,-0.0006786202820024483,1.5698462699999964,0.787907718000006,0.0399999572,0.0399999723,-9.79381704999998,0.0038853657664732573,-0.03823239650007725,0.0021246423100045077,-0.0019677052390526056,-0.0007885041800017758
0.5875,0.0023356546000068085,-0.785858500000004,-0.0008644957975028403,-2.3586781250000075,-0.000690125195002459,1.5698295749999964,0.7879361400000061,0.039999956,0.03999997125,-9.79372112499998,0.003886433725711103,-0.03859539875007759,0.0021458256250045274,-0.0018572550324952174,-0.0007968488000017836
0.59,0.002367509740006837,-0.785877340000004,-0.000877784038002852,-2.3587145000000076,-0.0007016301080024692,1.5698128799999964,0.7879645620000061,0.0399999548,0.0399999702,-9.79362519999998,0.003887501684948949,-0.038958401000077914,0.002167008940004546,-0.0017468048259378344,-0.000805193420001791
0.5925,0.0023993648800068666,-0.785896180000004,-0.0008910722785028645,-2.3587508750000077,-0.00071313502100248,1.5697961849999964,0.7879929840000062,0.0399999536,0.03999996915,-9.79352927499998,0.003888569644186795,-0.039321403250078255,0.0021881922550045663,-0.0016363546193804463,-0.0008135380400017988
0.595,0.002431220020006895,-0.785915020000004,-0.0009043605190028762,-2.3587872500000078,-0.0007246399340024902,1.5697794899999964,0.7880214060000061,0.0399999524,0.0399999681,-9.79343334999998,0.003889637603424641,-0.039684405500078575,0.0022093755700045847,-0.0015259044128230633,-0.0008218826600018062
0.5975,0.0024630751600069247,-0.7859338600000041,-0.0009176487595028886,-2.358823625000008,-0.0007361448470025009,1.5697627949999964,0.7880498280000061,0.0399999512,0.03999996705,-9.79333742499998,0.003890705562662487,-0.04004740775007891,0.002230558885004605,-0.0014154542062656751,-0.000830227280001814
0.6,0.0024949303000074067,-0.7859527000000044,-0.0009309370000030897,-2.3588600000000084,-0.000747649760002675,1.5697460999999961,0.7880782500000066,0.03999995,0.039999966,-9.793241499999976,0.0038917735218997724,-0.04041041000008335,0.002251742200004763,-0.0013050039997072225,-0.0008385719000018935
0.6025,0.0025288645450074385,-0.7859728900000044,-0.0009450926200031029,-2.3588986250000086,-0.0007599052310026864,1.569728354999996,0.7881085425000066,0.03999994895,0.039999964799999996,-9.793128774999976,0.003890274069271581,-0.04079227790008371,0.0022735652200047834,-0.0011896535317393049,-0.0008472473150019016
0.605,0.0025627987900074685,-0.7859930800000045,-0.0009592482400031155,-2.3589372500000083,-0.0007721607020026973,1.569710609999996,0.7881388350000067,0.0399999479,0.0399999636,-9.793016049999975,0.00388877461664339,-0.04117414580008405,0.0022953882400048027,-0.0010743030637713924,-0.0008559227300019094
0.6075,0.0025967330350075003,-0.7860132700000044,-0.0009734038600031288,-2.3589758750000085,-0.0007844161730027087,1.569692864999996,0.7881691275000067,0.03999994685,0.0399999624,-9.792903324999976,0.0038872751640151985,-0.0415560137000844,0.0023172112600048232,-0.0009589525958034749,-0.0008645981450019174
0.61,0.0026306672800075303,-0.7860334600000045,-0.0009875594800031412,-2.3590145000000087,-0.0007966716440027196,1.5696751199999959,0.7881994200000068,0.0399999458,0.0399999612,-9.792790599999975,0.003885775711387007,-0.04193788160008474,0.0023390342800048425,-0.0008436021278355625,-0.0008732735600019252
0.6125,0.002664601525007562,-0.7860536500000045,-0.0010017151000031544,-2.3590531250000084,-0.0008089271150027311,1.569657374999996,0.7882297125000067,0.03999994475,0.03999996,-9.792677874999976,0.003884276258758816,-0.0423197495000851,0.002360857300004863,-0.000728251659867645,-0.0008819489750019333
0.615,0.0026985357700075926,-0.7860738400000046,-0.0010158707200031672,-2.3590917500000086,-0.0008211825860027419,1.569639629999996,0.7882600050000068,0.039999943700000005,0.0399999588,-9.792565149999975,0.0038827768061306246,-0.042701617400085434,0.0023826803200048823,-0.0006129011918997324,-0.000890624390001941
0.6175,0.002733183205008105,-0.786094495000005,-0.0010303239150033809,-2.3591311500000094,-0.0008336955350029269,1.5696214999999956,0.7882909300000073,0.039999942850000005,0.0399999578,-9.792458149999979,0.0038806525873943624,-0.04308956250008989,0.0024046882650050273,-0.00049616363391613,-0.0008994105920020237
0.62,0.002769257020008137,-0.7861160800000049,-0.0010453722600033942,-2.359172100000009,-0.0008467234400029385,1.5696025999999956,0.7883231200000073,0.0399999424,0.0399999572,-9.79236259999998,0.003877278836443219,-0.043489662000090246,0.0024270660600050472,-0.00037665189590396385,-0.0009084183680020318
0.6225,0.0028053308350081702,-0.7861376650000049,-0.0010604206050034083,-2.359213050000009,-0.0008597513450029506,1.5695836999999957,0.7883553100000072,0.03999994195,0.0399999566,-9.792267049999978,0.003873905085492076,-0.043889761500090614,0.002449443855005068,-0.00025714015789179235,-0.0009174261440020402
0.625,0.0028414046500082023,-0.786159250000005,-0.0010754689500034216,-2.3592540000000093,-0.0008727792500029622,1.5695647999999958,0.7883875000000073,0.0399999415,0.039999955999999996,-9.792171499999979,0.003870531334540933,-0.04428986100009097,0.002471821650005088,-0.00013762841987962623,-0.0009264339200020481
0.6275000000000001,0.002877478465008236,-0.7861808350000049,-0.0010905172950034356,-2.359294950000009,-0.0008858071550029744,1.5695458999999956,0.7884196900000073,0.03999994105,0.0399999554,-9.792075949999978,0.0038671575835897897,-0.044689960500091344,0.002494199445005109,-1.811668186745474e-05,-0.0009354416960020565
0.63,0.002913552280008268,-0.786202420000005,-0.0011055656400034489,-2.3593359000000094,-0.0008988350600029859,1.5695269999999957,0.7884518800000074,0.0399999406,0.0399999548,-9.791980399999979,0.003863783832638647,-0.0450900600000917,0.002516577240005129,0.00010139505614471139,-0.0009444494720020646
0.6325000000000001,0.0029496260950083015,-0.786224005000005,-0.001120613985003463,-2.359376850000009,-0.0009118629650029981,1.5695080999999957,0.7884840700000074,0.039999940149999996,0.0399999542,-9.791884849999978,0.003860410081687504,-0.045490159500092074,0.0025389550350051497,0.00022090679415688282,-0.000953457248002073
0.635,0.0029871661900088414,-0.7862465400000054,-0.0011362739700036882,-2.35941940000001,-0.0009254201500031931,1.5694884199999954,0.7885175800000079,0.0399999392,0.039999953299999995,-9.791785699999977,0.003855512640437633,-0.04590198400009649,0.002561700230005297,0.0003431720572110532,-0.0009626910360021593
0.6375000000000001,0.0030254394250088775,-0.7862695500000053,-0.0011522397750037031,-2.35946275000001,-0.0009392419750032059,1.5694683499999955,0.788551750000008,0.039999938,0.03999995225,-9.791684749999977,0.003849853354039187,-0.04631967100009688,0.0025846291250053183,0.0004668140827848035,-0.0009720378300021679
0.64,0.0030637126600089114,-0.7862925600000054,-0.0011682055800037174,-2.35950610000001,-0.0009530638000032183,1.5694482799999954,0.788585920000008,0.0399999368,0.0399999512,-9.791583799999977,0.0038441940676407424,-0.04673735800009725,0.002607558020005339,0.0005904561083585483,-0.0009813846240021762
0.6425,0.0031019858950089452,-0.7863155700000054,-0.0011841713850037315,-2.35954945000001,-0.0009668856250032305,1.5694282099999954,0.788620090000008,0.0399999356,0.03999995015,-9.791482849999976,0.003838534781242297,-0.04715504500009762,0.0026304869150053593,0.0007140981339322932,-0.0009907314180021846
0.645,0.003140259130008981,-0.7863385800000054,-0.0012001371900037465,-2.35959280000001,-0.0009807074500032434,1.5694081399999953,0.788654260000008,0.0399999344,0.0399999491,-9.791381899999976,0.003832875494843852,-0.04757273200009801,0.0026534158100053806,0.0008377401595060435,-0.0010000782120021933
0.6475,0.0031785323650090147,-0.7863615900000054,-0.0012161029950037607,-2.3596361500000103,-0.0009945292750032557,1.5693880699999954,0.7886884300000081,0.039999933200000004,0.03999994805,-9.791280949999976,0.003827216208445407,-0.047990419000098386,0.002676344705005401,0.0009613821850797883,-0.0010094250060022015
0.65,0.0032168056000095847,-0.7863846000000058,-0.0012320688000039984,-2.3596795000000106,-0.0010083511000034612,1.569367999999995,0.7887226000000086,0.039999932,0.039999947,-9.79117999999998,0.0038215569220465383,-0.04840810600010428,0.0026992736000055525,0.0010850242106544745,-0.0010187718000022928
0.6525,0.0032573365150096205,-0.7864090500000058,-0.0012489766950040135,-2.3597253850000106,-0.0010229879500034743,1.569346759999995,0.7887587875000086,0.03999993095,0.03999994595,-9.79108789999998,0.0038141068071108866,-0.048849061600104667,0.002722753025005573,0.0012126234243925878,-0.0010284673950023014
0.655,0.0032978674300096584,-0.7864335000000058,-0.0012658845900040292,-2.3597712700000106,-0.001037624800003488,1.569325519999995,0.7887949750000086,0.0399999299,0.0399999449,-9.790995799999978,0.0038066566921752345,-0.04929001720010508,0.002746232450005595,0.0013402226381307068,-0.0010381629900023104
0.6575,0.0033383983450096947,-0.7864579500000058,-0.0012827924850040441,-2.3598171550000107,-0.001052261650003501,1.569304279999995,0.7888311625000087,0.03999992885,0.03999994385,-9.790903699999978,0.0037992065772395832,-0.04973097280010547,0.002769711875005616,0.00146782185186882,-0.001047858585002319
0.66,0.003378929260009732,-0.7864824000000059,-0.0012997003800040599,-2.3598630400000107,-0.0010668985000035147,1.5692830399999949,0.7888673500000087,0.0399999278,0.0399999428,-9.790811599999978,0.003791756462303931,-0.050171928400105884,0.002793191300005638,0.001595421065606939,-0.0010575541800023282
0.6625,0.0034194601750097684,-0.7865068500000059,-0.001316608275004075,-2.3599089250000107,-0.0010815353500035277,1.569261799999995,0.7889035375000087,0.03999992675,0.03999994175,-9.790719499999978,0.0037843063473682794,-0.05061288400010627,0.0028166707250056587,0.0017230202793450523,-0.0010672497750023368
0.665,0.003459991090009806,-0.7865313000000059,-0.0013335161700040908,-2.3599548100000107,-0.0010961722000035411,1.5692405599999948,0.7889397250000088,0.0399999257,0.0399999407,-9.790627399999979,0.0037768562324326277,-0.05105383960010668,0.0028401501500056807,0.0018506194930831715,-0.0010769453700023458
0.6675,0.0035012936450104044,-0.7865562550000064,-0.0013507460450043402,-2.3600015600000117,-0.0011110876250037573,1.5692189199999946,0.7889765925000093,0.0399999246,0.0399999396,-9.79053669999998,0.0037685194984053002,-0.05150152165011198,0.0028637835100058136,0.0019794546242655952,-0.0010867585200024401
0.67,0.003544139480010444,-0.7865822200000063,-0.0013686198800043569,-2.3600500400000115,-0.0011265602000037715,1.5691964799999945,0.7890148200000093,0.0399999234,0.0399999384,-9.790448799999979,0.003758409526196556,-0.05196265660011241,0.002887724740005836,0.0021107615903339476,-0.0010968067800024494
0.6725,0.003586985315010482,-0.7866081850000064,-0.001386493715004373,-2.3600985200000117,-0.0011420327750037854,1.5691740399999945,0.7890530475000094,0.0399999222,0.0399999372,-9.790360899999978,0.003748299553987812,-0.05242379155011282,0.0029116659700058572,0.002242068556402294,-0.0011068550400024583
0.675,0.0036298311500105223,-0.7866341500000064,-0.0014043675500043894,-2.360147000000012,-0.0011575053500037997,1.5691515999999945,0.7890912750000094,0.039999921,0.039999936,-9.790272999999978,0.0037381895817790675,-0.05288492650011325,0.0029356072000058797,0.0023733755224706467,-0.0011169033000024678
0.6775,0.0036726769850105602,-0.7866601150000064,-0.0014222413850044054,-2.3601954800000122,-0.0011729779250038135,1.5691291599999944,0.7891295025000095,0.0399999198,0.0399999348,-9.790185099999979,0.003728079609570323,-0.053346061450113655,0.002959548430005901,0.0025046824885389934,-0.0011269515600024766
0.68,0.0037155228200106,-0.7866860800000065,-0.001440115220004422,-2.360243960000012,-0.001188450500003828,1.5691067199999944,0.7891677300000095,0.0399999186,0.0399999336,-9.790097199999979,0.0037179696373615787,-0.05380719640011409,0.0029834896600059234,0.0026359894546073457,-0.001136999820002486
0.6825,0.0037583686550106384,-0.7867120450000065,-0.0014579890550044379,-2.3602924400000123,-0.0012039230750038417,1.5690842799999944,0.7892059575000095,0.0399999174,0.0399999324,-9.790009299999978,0.0037078596651528347,-0.054268331350114496,0.0030074308900059445,0.002767296420675692,-0.001147048080002495
0.685,0.003802795540011269,-0.7867390160000068,-0.001476522470004701,-2.360342600000013,-0.0012199664200040696,1.569061029999994,0.7892456100000101,0.0399999163,0.0399999318,-9.78992569999998,0.003696028515693297,-0.05474287170011994,0.0030317890500061225,0.0029009432066567794,-0.0011574237000026267
0.6875,0.0038480129500113093,-0.7867664900000069,-0.0014953856750047178,-2.360393600000013,-0.001236295150004084,1.569037374999994,0.7892859750000101,0.039999915250000004,0.0399999315,-9.78984424999998,0.0036833367776093256,-0.055224114750120366,0.0030563556750061445,0.003035759902592919,-0.001167963000002636
0.6900000000000001,0.0038932303600113516,-0.7867939640000069,-0.0015142488800047355,-2.360444600000013,-0.0012526238800040993,1.569013719999994,0.7893263400000101,0.0399999142,0.039999931200000005,-9.789762799999979,0.003670645039525354,-0.055705357800120814,0.0030809223000061673,0.003170576598529065,-0.0011785023000026459
0.6925,0.003938447770011392,-0.7868214380000069,-0.0015331120850047523,-2.360495600000013,-0.0012689526100041137,1.568990064999994,0.7893667050000102,0.039999913150000004,0.0399999309,-9.789681349999979,0.0036579533014413825,-0.05618660085012124,0.0031054889250061893,0.0033053932944652046,-0.0011890416000026553
0.6950000000000001,0.003983665180011434,-0.786848912000007,-0.00155197529000477,-2.360546600000013,-0.0012852813400041291,1.568966409999994,0.7894070700000102,0.0399999121,0.039999930600000004,-9.78959989999998,0.003645261563357411,-0.05666784390012169,0.003130055550006212,0.0034402099904013504,-0.001199580900002665
0.6975,0.004028882590011474,-0.786876386000007,-0.0015708384950047867,-2.360597600000013,-0.0013016100700041435,1.568942754999994,0.7894474350000102,0.03999991105,0.0399999303,-9.78951844999998,0.0036325698252734394,-0.057149086950122115,0.003154622175006234,0.00357502668633749,-0.0012101202000026744
0.7000000000000001,0.004074100000012134,-0.7869038600000074,-0.0015897017000050622,-2.360648600000014,-0.0013179388000043818,1.5689190999999936,0.7894878000000108,0.03999991,0.03999993,-9.789436999999975,0.003619878087189175,-0.057630330000128356,0.0031791888000063757,0.003709843382274681,-0.001220659500002745
0.7025,0.004121743600012176,-0.7869328985000075,-0.0016095773750050798,-2.3607022850000137,-0.0013351432450043972,1.5688941549999935,0.7895303190000108,0.0399999094,0.03999992925,-9.789338149999974,0.0036060379235969228,-0.0581343060001288,0.003204221385006398,0.0038487645564955447,-0.0012314373450027546
0.705,0.004169387200012219,-0.7869619370000075,-0.0016294530500050974,-2.360755970000014,-0.0013523476900044124,1.5688692099999937,0.7895728380000109,0.0399999088,0.039999928500000004,-9.789239299999975,0.003592197760004671,-0.05863828200012925,0.00322925397000642,0.003987685730716408,-0.001242215190002764
0.7075,0.004217030800012263,-0.7869909755000075,-0.0016493287250051159,-2.360809655000014,-0.0013695521350044284,1.5688442649999936,0.789615357000011,0.0399999082,0.039999927750000004,-9.789140449999975,0.0035783575964124176,-0.05914225800012972,0.0032542865550064435,0.004126606904937278,-0.001252993035002774
0.71,0.004264674400012305,-0.7870200140000075,-0.0016692044000051335,-2.3608633400000136,-0.0013867565800044436,1.5688193199999936,0.7896578760000109,0.0399999076,0.039999927,-9.789041599999974,0.0035645174328201657,-0.05964623400013017,0.0032793191400064658,0.004265528079158141,-0.0012637708800027837
0.7125,0.004312318000012349,-0.7870490525000076,-0.0016890800750051522,-2.3609170250000138,-0.0014039610250044597,1.5687943749999935,0.789700395000011,0.039999907,0.03999992625,-9.788942749999975,0.0035506772692279124,-0.06015021000013064,0.003304351725006489,0.004404449253379011,-0.0012745487250027938
0.715,0.004359961600012392,-0.7870780910000076,-0.0017089557500051698,-2.360970710000014,-0.001421165470004475,1.5687694299999935,0.7897429140000111,0.0399999064,0.0399999255,-9.788843899999975,0.0035368371056356605,-0.06065418600013109,0.0033293843100065112,0.004543370427599874,-0.0012853265700028033
0.7175,0.004408432000013084,-0.787107647500008,-0.0017291764050054584,-2.3610253100000147,-0.0014386683600047248,1.568744039999993,0.7897861720000117,0.039999906,0.039999925,-9.788747199999976,0.0035220235818953153,-0.06116531500013716,0.003354582710006664,0.004683561902530448,-0.0012962309700029124
0.72,0.004458556000013128,-0.787138240000008,-0.001750087020005477,-2.3610817400000146,-0.0014567681400047409,1.568717759999993,0.7898309080000117,0.039999906,0.039999925,-9.788654799999977,0.00350526333786107,-0.06169075000013763,0.003380112740006687,0.004826293978877445,-0.0013073884800029224
0.7225,0.004508680000013175,-0.787168832500008,-0.0017709976350054966,-2.361138170000015,-0.0014748679200047576,1.5686914799999931,0.7898756440000118,0.039999906,0.039999925,-9.788562399999977,0.0034885030938268244,-0.06221618500013812,0.0034056427700067107,0.004969026055224448,-0.0013185459900029327
0.725,0.00455880400001322,-0.7871994250000081,-0.001791908250005515,-2.361194600000015,-0.0014929677000047738,1.568665199999993,0.7899203800000117,0.039999906,0.039999925,-9.788469999999975,0.0034717428497925795,-0.06274162000013858,0.0034311728000067333,0.005111758131571445,-0.0013297035000029427
0.7275,0.004608928000013266,-0.7872300175000081,-0.0018128188650055345,-2.3612510300000147,-0.0015110674800047905,1.568638919999993,0.7899651160000118,0.039999906,0.039999925,-9.788377599999976,0.003454982605758334,-0.06326705500013907,0.003456702830006757,0.005254490207918448,-0.0013408610100029532
0.73,0.004659052000013311,-0.7872606100000081,-0.0018337294800055532,-2.361307460000015,-0.0015291672600048066,1.5686126399999931,0.7900098520000118,0.039999906,0.039999925,-9.788285199999976,0.003438222361724089,-0.06379249000013953,0.00348223286000678,0.005397222284265445,-0.001352018520002963
0.7325,0.004709176000013357,-0.7872912025000082,-0.0018546400950055727,-2.361363890000015,-0.0015472670400048236,1.568586359999993,0.7900545880000119,0.039999906,0.039999925,-9.788192799999976,0.0034214621176898432,-0.06431792500014002,0.0035077628900068037,0.005539954360612448,-0.0013631760300029734
0.735,0.004760988730014079,-0.7873228800000086,-0.0018762553400058738,-2.3614222100000157,-0.001565976430005084,1.5685592199999927,0.7901008360000126,0.039999906,0.039999925,-9.788110299999978,0.0034029144095204813,-0.06486042900014734,0.003533574540006939,0.005684710573443926,-0.0013745927600030874
0.7375,0.004813645825014128,-0.7873551000000086,-0.0018982229000058942,-2.361481475000016,-0.0015849906250051018,1.5685316499999926,0.7901478400000126,0.039999906,0.039999925,-9.78803274999998,0.0033834729692846332,-0.06541146750014785,0.0035595270000069634,0.005830478854516437,-0.001386139100003098
0.74,0.004866302920014175,-0.7873873200000087,-0.0019201904600059138,-2.361540740000016,-0.0016040048200051187,1.5685040799999925,0.7901948440000126,0.039999906,0.039999925,-9.78795519999998,0.003364031529048786,-0.06596250600014834,0.0035854794600069864,0.005976247135588942,-0.0013976854400031082
0.7425,0.004918960015014225,-0.7874195400000087,-0.0019421580200059344,-2.361600005000016,-0.0016230190150051365,1.5684765099999924,0.7902418480000127,0.039999906,0.039999925,-9.78787764999998,0.003344590088812938,-0.06651354450014886,0.0036114319200070107,0.0061220154166614525,-0.001409231780003119
0.745,0.004971617110014271,-0.7874517600000087,-0.001964125580005954,-2.361659270000016,-0.0016420332100051534,1.5684489399999926,0.7902888520000128,0.039999906,0.039999925,-9.787800099999979,0.003325148648577091,-0.06706458300014935,0.003637384380007034,0.006267783697733957,-0.0014207781200031293
0.7475,0.005024274205014321,-0.7874839800000087,-0.0019860931400059742,-2.361718535000016,-0.001661047405005171,1.5684213699999925,0.7903358560000128,0.039999906,0.039999925,-9.787722549999978,0.003305707208341243,-0.06761562150014987,0.0036633368400070584,0.006413551978806468,-0.0014323244600031402
0.75,0.005076931300015073,-0.7875162000000092,-0.002008060700006288,-2.361777800000017,-0.0016800616000054425,1.568393799999992,0.7903828600000135,0.039999906,0.039999925,-9.787644999999978,0.0032862657681043124,-0.06816666000015627,0.003689289300007196,0.006559320259879894,-0.001443870800003293
0.7525000000000001,0.0051321731050151245,-0.7875500850000092,-0.00203110670000631,-2.361839840000017,-0.0017000087500054612,1.568364849999992,0.7904321560000135,0.0399999066,0.03999992605,-9.787564224999977,0.0032628539251099054,-0.0687393639001568,0.00371566090500722,0.006708464073057983,-0.0014559403400033043
0.755,0.005187414910015173,-0.7875839700000093,-0.0020541527000063303,-2.361901880000017,-0.0017199559000054788,1.5683358999999921,0.7904814520000135,0.039999907200000004,0.0399999271,-9.787483449999977,0.0032394420821154997,-0.0693120678001573,0.0037420325100072436,0.006857607886236065,-0.0014680098800033152
0.7575000000000001,0.005242656715015225,-0.7876178550000094,-0.0020771987000063516,-2.3619639200000173,-0.0017399030500054975,1.568306949999992,0.7905307480000136,0.0399999078,0.03999992815,-9.787402674999978,0.0032160302391210926,-0.06988477170015785,0.003768404115007268,0.0070067516994141545,-0.0014800794200033264
0.76,0.005297898520015274,-0.7876517400000094,-0.002100244700006372,-2.3620259600000173,-0.001759850200005515,1.568277999999992,0.7905800440000137,0.0399999084,0.0399999292,-9.787321899999977,0.003192618396126687,-0.07045747560015836,0.0037947757200072914,0.007155895512592237,-0.001492148960003337
0.7625000000000001,0.005353140325015326,-0.7876856250000094,-0.0021232907000063935,-2.3620880000000173,-0.0017797973500055337,1.568249049999992,0.7906293400000137,0.039999909,0.03999993025,-9.787241124999978,0.00316920655313228,-0.07103017950015889,0.0038211473250073158,0.007305039325770326,-0.0015042185000033483
0.765,0.005408382130015374,-0.7877195100000094,-0.002146336700006414,-2.3621500400000173,-0.0017997445000055515,1.568220099999992,0.7906786360000138,0.0399999096,0.0399999313,-9.787160349999978,0.0031457947101378742,-0.0716028834001594,0.0038475189300073392,0.007454183138948408,-0.001516288040003359
0.7675000000000001,0.005464502200016161,-0.7877539485000099,-0.0021697492150067428,-2.3622130850000183,-0.0018200086600058357,1.5681907099999917,0.7907287180000144,0.03999991,0.039999932,-9.787075174999973,0.0031222294666737637,-0.07218310020016622,0.003874045375007494,0.007604575785850908,-0.0015284499900034478
0.77,0.005522378800016213,-0.78778949400001,-0.002193894760006764,-2.362278140000018,-0.0018409068400058542,1.5681604399999916,0.7907803720000145,0.03999991,0.039999932,-9.786981199999973,0.0030983574222706325,-0.07277834280016675,0.0039008815000075173,0.00775746610019909,-0.0015407967600034587
0.7725,0.005580255400016264,-0.78782503950001,-0.0022180403050067856,-2.362343195000018,-0.0018618050200058728,1.5681301699999914,0.7908320260000146,0.03999991,0.039999932,-9.786887224999973,0.0030744853778675012,-0.07337358540016728,0.003927717625007541,0.00791035641454727,-0.0015531435300034696
0.775,0.005638132000016318,-0.78786058500001,-0.002242185850006808,-2.3624082500000183,-0.0018827032000058922,1.5680998999999916,0.7908836800000146,0.03999991,0.039999932,-9.786793249999974,0.003050613333464369,-0.07396882800016782,0.003954553750007567,0.008063246728895457,-0.0015654903000034812
0.7775,0.00569600860001637,-0.7878961305000101,-0.0022663313950068297,-2.362473305000018,-0.0019036013800059108,1.5680696299999914,0.7909353340000147,0.03999991,0.039999932,-9.786699274999973,0.003026741289061238,-0.07456407060016836,0.003981389875007591,0.008216137043243638,-0.0015778370700034923
0.78,0.005753885200016424,-0.7879316760000101,-0.002290476940006852,-2.3625383600000185,-0.0019244995600059304,1.5680393599999913,0.7909869880000147,0.03999991,0.039999932,-9.786605299999973,0.0030028692446581054,-0.07515931320016891,0.004008226000007616,0.008369027357591825,-0.0015901838400035036
0.7825,0.005811761800016474,-0.7879672215000101,-0.0023146224850068733,-2.3626034150000184,-0.0019453977400059488,1.5680090899999912,0.7910386420000147,0.03999991,0.039999932,-9.786511324999973,0.0029789972002549747,-0.07575455580016943,0.0040350621250076395,0.008521917671940007,-0.0016025306100035147
0.785,0.005871427700017295,-0.7880038730000106,-0.0023395146200072157,-2.362670390000019,-0.001966941820006245,1.5679778399999909,0.7910919090000155,0.03999991,0.039999932,-9.786434199999979,0.0029526155907581473,-0.07636816600017786,0.004062175650007783,0.00867680758242287,-0.001615157420003646
0.7875,0.005931988250017349,-0.7880410775000106,-0.0023647800500072383,-2.362738325000019,-0.0019888088500062645,1.5679460999999908,0.7911459825000156,0.03999991,0.039999932,-9.78636549999998,0.0029249791987160825,-0.07699096000017841,0.004089427875007807,0.008832697290971785,-0.0016279242500036575
0.79,0.005992548800017406,-0.7880782820000107,-0.0023900454800072617,-2.3628062600000193,-0.002010675880006285,1.567914359999991,0.7912000560000155,0.03999991,0.039999932,-9.78629679999998,0.002897342806674017,-0.077613754000179,0.004116680100007833,0.008988586999520706,-0.0016406910800036694
0.7925,0.0060531093500174596,-0.7881154865000107,-0.002415310910007284,-2.3628741950000194,-0.0020325429100063043,1.567882619999991,0.7912541295000156,0.03999991,0.039999932,-9.786228099999981,0.002869706414631952,-0.07823654800017955,0.004143932325007857,0.009144476708069619,-0.0016534579100036808
0.795,0.006113669900017516,-0.7881526910000107,-0.0024405763400073078,-2.3629421300000195,-0.0020544099400063246,1.5678508799999908,0.7913082030000157,0.03999991,0.039999932,-9.786159399999981,0.0028420700225898865,-0.07885934200018013,0.004171184550007883,0.00930036641661854,-0.0016662247400036927
0.7975,0.00617423045001757,-0.7881898955000107,-0.00246584177000733,-2.3630100650000196,-0.002076276970006344,1.5678191399999908,0.7913622765000157,0.03999991,0.039999932,-9.786090699999981,0.002814433630547822,-0.07948213600018068,0.004198436775007907,0.009456256125167452,-0.0016789915700037039
0.8,0.006234791000018422,-0.7882271000000113,-0.002491107200007685,-2.3630780000000207,-0.0020981440000066515,1.5677873999999905,0.7914163500000164,0.03999991,0.039999932,-9.78602199999998,0.0027867972385039017,-0.08010493000018648,0.0042256890000079966,0.009612145833717294,-0.0016917584000038406
0.8025,0.006298083200018478,-0.7882660550000113,-0.002517512675007709,-2.3631490850000207,-0.002120997100006672,1.5677543099999904,0.7914728550000165,0.03999991045,0.0399999326,-9.785945949999979,0.0027527882950280813,-0.08074563400018706,0.004253161950008021,0.009771204181061836,-0.0017049541400038523
0.805,0.006361375400018536,-0.7883050100000114,-0.0025439181500077333,-2.363220170000021,-0.002143850200006693,1.5677212199999904,0.7915293600000165,0.0399999109,0.039999933200000004,-9.785869899999978,0.0027187793515522597,-0.08138633800018766,0.0042806349000080466,0.009930262528406383,-0.0017181498800038647
0.8075,0.006424667600018593,-0.7883439650000115,-0.002570323625007757,-2.363291255000021,-0.0021667033000067138,1.5676881299999903,0.7915858650000166,0.03999991135,0.0399999338,-9.785793849999978,0.0026847704080764393,-0.08202704200018822,0.00430810785000807,0.010089320875750925,-0.0017313456200038764
0.81,0.006487959800018652,-0.7883829200000115,-0.0025967291000077814,-2.363362340000021,-0.002189556400006735,1.5676550399999902,0.7916423700000167,0.039999911799999996,0.0399999344,-9.785717799999977,0.0026507614646006177,-0.08266774600018882,0.004335580800008096,0.010248379223095475,-0.0017445413600038887
0.8125,0.006551252000018709,-0.7884218750000115,-0.0026231345750078053,-2.363433425000021,-0.002212409500006755,1.5676219499999902,0.7916988750000167,0.03999991225,0.039999935,-9.785641749999979,0.0026167525211247974,-0.08330845000018938,0.00436305375000812,0.010407437570440015,-0.0017577371000039004
0.8150000000000001,0.006614544200018767,-0.7884608300000115,-0.0026495400500078296,-2.363504510000021,-0.0022352626000067765,1.5675888599999903,0.7917553800000168,0.0399999127,0.0399999356,-9.785565699999978,0.0025827435776489757,-0.08394915400018998,0.004390526700008146,0.010566495917784564,-0.0017709328400039128
0.8175,0.00667876258501965,-0.7885003650000122,-0.0026763320250081982,-2.363576605000022,-0.002258449965007095,1.5675552649999898,0.7918127045000175,0.039999913,0.039999936,-9.785489849999978,0.002549934864500731,-0.08460317550020244,0.004418139020008294,0.010726450663107975,-0.0017842743000040546
0.8200000000000001,0.006744833340019712,-0.7885410600000122,-0.0027038970000082237,-2.363650720000022,-0.0022823058600071173,1.5675206599999898,0.7918716680000176,0.039999913,0.039999936,-9.785414399999977,0.002519526612004428,-0.08528383200020308,0.00444603008000832,0.010888198204386735,-0.0017979072000040672
0.8225,0.00681090409501977,-0.7885817550000123,-0.0027314619750082483,-2.3637248350000224,-0.0023061617550071386,1.5674860549999896,0.7919306315000176,0.039999913,0.039999936,-9.785338949999977,0.0024891183595081258,-0.08596448850020368,0.004473921140008346,0.01104994574566549,-0.0018115401000040794
0.8250000000000001,0.0068769748500198315,-0.7886224500000123,-0.002759026950008274,-2.3637989500000223,-0.0023300176500071607,1.5674514499999896,0.7919895950000176,0.039999913,0.039999936,-9.785263499999978,0.0024587101070118224,-0.08664514500020432,0.004501812200008372,0.01121169328694425,-0.001825173000004092
0.8275,0.006943045605019891,-0.7886631450000122,-0.0027865919250082984,-2.3638730650000226,-0.0023538735450071816,1.5674168449999895,0.7920485585000178,0.039999913,0.039999936,-9.785188049999977,0.0024283018545155203,-0.08732580150020491,0.004529703260008396,0.011373440828223004,-0.0018388059000041042
0.8300000000000001,0.007009116360019952,-0.7887038400000123,-0.002814156900008324,-2.3639471800000225,-0.002377729440007204,1.5673822399999895,0.7921075220000178,0.039999913,0.039999936,-9.785112599999977,0.0023978936020192174,-0.08800645800020555,0.004557594320008422,0.011535188369501764,-0.0018524388000041169
0.8325,0.007075187115020011,-0.7887445350000123,-0.0028417218750083485,-2.3640212950000223,-0.002401585335007225,1.5673476349999895,0.7921664855000179,0.039999913,0.039999936,-9.785037149999978,0.0023674853495229153,-0.08868711450020615,0.004585485380008447,0.011696935910780519,-0.001866071700004129
0.835,0.007143140370020927,-0.7887863940000129,-0.002870072510008731,-2.364097560000024,-0.002426120760007556,1.567312029999989,0.7922271360000187,0.039999913,0.0399999364,-9.784956499999975,0.00233287820591399,-0.08937963600021216,0.004613632090008589,0.01186072006826636,-0.0018800922400043177
0.8375,0.007212034875020991,-0.7888288350000129,-0.0028988159750087577,-2.3641749000000236,-0.002450995950007579,1.5672759249999888,0.7922886300000187,0.039999913,0.039999937,-9.784873249999974,0.0022961716167516156,-0.09007809000021282,0.004641906625008615,0.012025522533854364,-0.001894306600004331
