rsonawane2002/My_IMU/logs_incomplete/traj_252/clean_252.csv
time,j1,j2,j3,j4,j5,j6,j7,gripper1,gripper2,imu_ax,imu_ay,imu_az,imu_gx,imu_gy,imu_gz,quat_x,quat_y,quat_z,quat_w
12.083333333333513,0.00016700293,-0.785875,4.0107683e-05,-2.3551247,9.29385e-05,1.570997,0.786,0.04,0.04,0.0,-0.0,0.0,2.875329272945135e-08,-0.0011641195053377316,4.421952117202833e-08,0.9999995971961153,0.00020320632366974898,0.0008736418299892524,3.263050917662294e-05
12.10000000000018,0.00016700182,-0.78576016,4.0122566e-05,-2.3552213,9.2979004e-05,1.5709941,0.786,0.04,0.04,-0.29199846044203337,-4.405173390030059e-05,0.020128406595687487,-3.462247310798304e-07,-0.002239023052165459,4.6868162999776346e-08,0.9999996850589588,0.00020320635649873707,0.000766502518809748,3.2604426902938084e-05
12.116666666666848,0.00016697383,-0.7856543,4.0191906e-05,-2.35531,9.3051254e-05,1.5709913,0.786,0.04,0.04,0.023328722357884857,-5.8555864964260004e-05,-0.0016704468242645376,-1.7399858691008233e-06,-0.0032277482994886816,-1.713999092561497e-07,0.9999997558475573,0.00020320018263889696,0.000667797254192612,3.257819638997566e-05
12.133333333333516,0.00016687675,-0.78555703,4.0406198e-05,-2.355391,9.321211e-05,1.5709884,0.786,0.04,0.04,0.022460738810847758,-0.00016134072902811722,-0.0015249261737348974,-5.382906103526559e-06,-0.004138177977908069,-8.089186843711305e-07,0.9999998122509778,0.0002031768939007437,0.0005771982135823893,3.2548134319560365e-05
12.150000000000183,0.0001666514,-0.7854676,4.0895287e-05,-2.3554654,9.3543866e-05,1.5709856,0.786,0.04,0.04,0.020047822562041517,-0.00031071032393879274,-0.0015317663773384282,-1.271063958914113e-05,-0.004974350412227731,-2.0561701306351474e-06,0.9999998568884092,0.00020312019917944818,0.0004938709342582781,3.250917019750053e-05
12.16666666666685,0.00016622317,-0.7853856,4.1824544e-05,-2.3555334,9.415129e-05,1.5709827,0.786,0.04,0.04,0.019114429610511685,-0.0005018375918044115,-0.0013569042407679532,-2.427280453934255e-05,-0.005743725239461196,-4.051906406443573e-06,0.9999998917315109,0.00020300892969991508,0.000417457789874498,3.245511361508463e-05
12.183333333333518,0.00016550354,-0.78531057,4.3390795e-05,-2.3555987,9.5159005e-05,1.5709832,0.786,0.04,0.04,0.01322807999157849,-0.0007294596767494119,-0.0003303456296510632,-4.138629973841761e-05,-0.006448713510012967,-6.968667593670285e-06,0.9999999185260522,0.00020281791057251097,0.00034751174647947215,3.237854657941683e-05
12.200000000000186,0.00016439168,-0.7852421,4.581949e-05,-2.3556578,9.6717005e-05,1.5709838,0.786,0.04,0.039999995,0.017822556342150797,-0.0009963300196373876,-0.0008850377866576054,-6.449319886273202e-05,-0.007093296366021627,-1.0160882811898546e-05,0.999999938643606,0.00020251769586320035,0.00028400300023686626,3.227480314030129e-05
12.216666666666853,0.00016277586,-0.7851796,4.9361763e-05,-2.3557155,9.8973294e-05,1.5709846,0.786,0.04,0.039999995,0.009162937407025673,-0.001279288903997713,-0.0026194584499483753,-9.507896800706024e-05,-0.0076792391385724496,-1.531000696818185e-05,0.9999999539026974,0.00020207551008837426,0.00022433875024619528,3.212812628739402e-05
12.23333333333352,0.0001605343,-0.785123,5.429087e-05,-2.3557692,0.00010209859,1.5709856,0.7859985,0.04,0.039999995,0.013384236655977766,-0.001595108371357486,-0.0014284702606781607,-0.0001332198405202207,-0.008228526899476028,-2.170139030977075e-05,0.9999999649520848,0.00020071050579038925,0.0001696813079434788,3.192766672979415e-05
12.250000000000188,0.00015753663,-0.7850721,6.090057e-05,-2.3558202,0.00010626524,1.5709865,0.7859966,0.04,0.04,0.010783215832654847,-0.0019262683192376566,-0.002085804939166991,-0.00017318774740804024,-0.00873175005061108,-3.101991027682592e-05,0.999999972610409,0.00019892051005750274,0.0001191961875716348,3.1655659872960494e-05
12.266666666666856,0.0001536445,-0.7850267,6.9501606e-05,-2.3558707,0.00011169628,1.5709908,0.7859947,0.04,0.039999995,0.007996715671843013,-0.0023066837209118844,-0.00045535225909887345,-0.00022046338077152814,-0.009194959825047148,-3.852067992405608e-05,0.9999999774370559,0.00019687362282995907,7.339000656014032e-05,3.13140718800997e-05
12.283333333333523,0.0001487135,-0.7849867,8.042105e-05,-2.3559208,0.00011856644,1.5709955,0.7859928,0.04,0.04,0.006788180244110542,-0.0026631299031882965,-0.0025384748563173076,-0.00027775038839535885,-0.009615423411153673,-5.0614193733462256e-05,0.9999999801333141,0.00019452642872944752,3.065343062212782e-05,3.087404897356555e-05
12.30000000000019,0.00014259251,-0.7849517,9.399866e-05,-2.3559709,0.00012711195,1.5710002,0.7859909,0.04,0.04,0.0056386681873688005,-0.003073200166021597,-0.0027928539868771196,-0.0003452504507113626,-0.010007391426513823,-6.204896361299819e-05,0.9999999810946758,0.00019183446258563488,-9.490404260130458e-06,3.0333467534776996e-05
12.316666666666858,0.00013512578,-0.78492165,0.00011058639,-2.356021,0.00013754707,1.5710084,0.78598803,0.04,0.04,0.006563923846858444,-0.0034766426046118023,-0.00023615181650171735,-0.0004239599280491936,-0.01037365505060616,-7.580481411975095e-05,0.9999999808039924,0.00018827448659796802,-4.5432189000871006e-05,2.9675729371896094e-05
12.333333333333526,0.00012615342,-0.78489673,0.00013054619,-2.3560715,0.0001500883,1.571017,0.7859842,0.04,0.04,0.00496900286937052,-0.003887898638410358,-0.0028593735683202226,-0.000509911966995137,-0.010701546924265606,-9.256351526734641e-05,0.9999999795817045,0.0001837985835927371,-7.887069840002531e-05,2.8880514857773976e-05
12.350000000000193,0.00011551131,-0.78487647,0.00015424789,-2.3561223,0.00016498874,1.5710291,0.7859804,0.039999995,0.039999995,0.005828106127503396,-0.00433209587818643,-0.0001712252375885015,-0.0006032300444643566,-0.011005670588501456,-0.00010825930938361192,0.9999999777459395,0.0001788350957701207,-0.00010837549858904293,2.7944237518695876e-05
12.36666666666686,0.00010303285,-0.784861,0.00018206902,-2.3561754,0.0001824616,1.5710415,0.7859756,0.03999999,0.04,0.0013976099417778443,-0.004751129560399799,-0.0035443966437842533,-0.0007092198014807339,-0.011271965974029878,-0.00012868127470421213,0.9999999753917852,0.00017282750659044013,-0.0001364798453388735,2.6839036460954168e-05
12.383333333333528,8.8548564e-05,-0.7848505,0.00021439248,-2.3562331,0.00020275936,1.5710576,0.78596985,0.039999984,0.03999999,-0.0011263134153338683,-0.0052031236053892834,-0.0020535641467311905,-0.0008235670362982562,-0.011526307500097548,-0.00014917831245379355,0.9999999727185102,0.00016578530451440328,-0.000162557994656844,2.5556015352909787e-05
12.400000000000196,7.188713e-05,-0.78484493,0.00025160567,-2.356292,0.00022612404,1.571074,0.78596413,0.039999977,0.039999988,0.003619413174571484,-0.005651307675326434,-0.003109321957306399,-0.0009471605001201862,-0.01176112623066532,-0.0001723060789670986,0.9999999698110812,0.00015810424501771538,-0.0001865504794931731,2.4079099284987517e-05
12.416666666666863,5.287579e-05,-0.78484416,0.0002940996,-2.3563569,0.00025280155,1.571094,0.7859565,0.03999997,0.03999998,-0.003728318627427285,-0.0061027722751396014,-0.0027171612308141135,-0.001084413856148822,-0.0119750953090378,-0.0001963601923064839,0.9999999667675518,0.00014877973470957856,-0.00020935150389286787,2.2392712369187326e-05
12.43333333333353,3.134065e-05,-0.7848484,0.0003422675,-2.3564234,0.00028303807,1.5711178,0.7859487,0.039999966,0.039999977,0.003863344348631337,-0.006558935639577228,-0.0008348835295102219,-0.0012268588003890937,-0.012177679892028892,-0.00022222083729464743,0.9999999640445761,0.00013862399666741344,-0.00022863670107476706,2.0481523055937507e-05
12.450000000000198,7.10725e-06,-0.78485775,0.0003965046,-2.3564968,0.00031708094,1.5711441,0.78593916,0.03999996,0.039999973,-0.005258100697047574,-0.007012449357297885,-0.004058926645189587,-0.0013829913347919946,-0.01234665052943176,-0.0002499034623429019,0.9999999611619874,0.00012681094722371815,-0.0002475057305956488,1.8328135765662945e-05
12.466666666666866,-1.9999175e-05,-0.78487176,0.00045720633,-2.356577,0.00035517747,1.571173,0.7859287,0.039999958,0.039999973,-0.005419458146049827,-0.007468100282245738,-0.003771857608647622,-0.0015456753828181147,-0.012511158822203163,-0.00028026439025167615,0.9999999579941524,0.0001137062035715608,-0.0002661376973612054,1.591598743182587e-05
12.483333333333533,-5.0153467e-05,-0.7848912,0.0005247682,-2.3566594,0.00039757672,1.5712048,0.7859173,0.039999954,0.03999997,0.002877349432317544,-0.007927845244348584,-0.0019250597637965328,-0.0017195600006439519,-0.012673311962933441,-0.0003115993951329438,0.9999999552976423,9.919791818422969e-05,-0.0002817613197532777,1.3230458951522455e-05
12.5000000000002,-8.3529936e-05,-0.7849158,0.00059958524,-2.3567488,0.00044452536,1.5712404,0.785904,0.03999995,0.039999966,-0.004821368316787478,-0.008379606558434928,-0.003205359969449262,-0.0019037681437595615,-0.012805567120969611,-0.0003447782799407425,0.9999999526081391,8.281812750110838e-05,-0.0002963439402297665,1.025409057171569e-05
12.516666666666868,-0.00012030233,-0.78494585,0.00068205054,-2.3568459,0.00049626944,1.5712799,0.7858899,0.039999947,0.039999966,-0.005776054618200632,-0.0088306033616523,-0.00366255506842883,-0.0020952395335539233,-0.012928042331173763,-0.0003806600154227322,0.9999999497712024,6.505259240419337e-05,-0.00031012444456150463,6.970058829726768e-06
12.533333333333536,-0.00016064355,-0.7849812,0.00077255553,-2.3569505,0.00055305514,1.5713236,0.78587466,0.039999936,0.039999954,-0.005760323849113291,-0.009280783177222215,-0.003240719577690676,-0.002298581172339622,-0.01304181959169762,-0.00041752437724272866,0.9999999468126066,4.564222503690936e-05,-0.00032292454936341206,3.3625437485968197e-06
12.550000000000203,-0.00020472534,-0.785022,0.0008714892,-2.3570628,0.0006151254,1.5713718,0.7858575,0.03999992,0.03999994,-0.005528875407101452,-0.009726289462941512,-0.0032537980545921386,-0.0025126191890315975,-0.01314613532508922,-0.0004562311202460285,0.9999999437303124,2.417938524744624e-05,-0.0003345958558621791,-5.851548270768555e-07
12.56666666666687,-0.00025271805,-0.7850686,0.0009792375,-2.3571835,0.00068272126,1.5714244,0.78583884,0.039999913,0.039999936,-0.00648508887290955,-0.01016686610868197,-0.0037113764985274855,-0.0027339892975019424,-0.013239802514799273,-0.0004976505450307251,0.9999999403448985,8.234646965525323e-07,-0.0003453774857337663,-4.890165264384787e-06
12.583333333333538,-0.00030479053,-0.785121,0.0010961824,-2.357312,0.0007560837,1.5714813,0.78581876,0.039999902,0.039999925,-0.005482314841898095,-0.010604993621575716,-0.0035987103545132015,-0.0029647911151221996,-0.01332301960485153,-0.000540052954786748,0.9999999366634026,-2.4444409048174613e-05,-0.00035494241025534306,-9.568024576330472e-06
12.600000000000206,-0.00036110988,-0.78517956,0.0012227027,-2.3574502,0.00083544856,1.571543,0.785797,0.039999895,0.03999992,-0.008455714137078907,-0.011033306726583817,-0.004382067926123057,-0.0032057447216666916,-0.013393103554107437,-0.0005851619212845728,0.9999999322904267,-5.1790760864985766e-05,-0.0003640365873966745,-1.4636334010406525e-05
12.616666666666873,-0.00042184175,-0.78524417,0.001359173,-2.3576005,0.00092105113,1.5716096,0.7857735,0.03999989,0.039999917,-0.011994860051212086,-0.011455369570919065,-0.005084018942436153,-0.0034553591667694163,-0.013459532659388911,-0.0006312544783849969,0.9999999267219163,-8.129126512262366e-05,-0.00037355509805655135,-2.0111716336977618e-05
12.63333333333354,-0.00048714914,-0.78531504,0.0015059627,-2.3577595,0.0010131225,1.5716813,0.78574824,0.03999989,0.039999917,-0.006538154943247498,-0.011879319840100988,-0.0037904459101456567,-0.0037138283687049916,-0.013527648607793066,-0.0006791790677033328,0.9999999203661128,-0.00011302310460286008,-0.000381859946105466,-2.6010140268176448e-05
12.650000000000208,-0.00055719295,-0.78539205,0.001663437,-2.3579283,0.0011118908,1.5717578,0.7857211,0.039999887,0.039999917,-0.008335795933911427,-0.01229061027271986,-0.004243548960225496,-0.003981285973153273,-0.013583989217340942,-0.000729806831591154,0.9999999127893108,-0.00014706105372128077,-0.0003895484361879488,-3.234861869282522e-05
12.666666666666876,-0.00063213246,-0.78547573,0.0018319553,-2.35811,0.0012175817,1.5718402,0.78569204,0.039999887,0.03999992,-0.012716687902702972,-0.012688714591927797,-0.005234669887954624,-0.004257040567490822,-0.01363247718643601,-0.0007822819235521472,0.9999999034225708,-0.0001835066090186226,-0.0003974266252863721,-3.9143979233084005e-05
12.683333333333543,-0.0007121239,-0.785566,0.0020118721,-2.3583014,0.0013304179,1.5719278,0.785661,0.03999989,0.039999925,-0.00778014493270085,-0.013094522562406147,-0.004216734245576781,-0.004540703094234591,-0.013682005454421527,-0.0008357196161866516,0.9999998924601894,-0.0002224047265106329,-0.0004043039597362026,-4.641180344310547e-05
12.70000000000021,-0.0007973212,-0.78566307,0.0022035358,-2.3585055,0.0014506165,1.5720214,0.78562796,0.0399999,0.039999936,-0.012096698247887616,-0.013475836106872398,-0.0051444953724999465,-0.004832663274494714,-0.01372133628840385,-0.0008918702194431654,0.9999998792348027,-0.00026379513639606327,-0.000411105999104096,-5.4169768613512764e-05
12.716666666666878,-0.0008878761,-0.7857671,0.0024072893,-2.3587208,0.0015783933,1.5721205,0.7855929,0.039999906,0.039999943,-0.009724874779659665,-0.01386228109106569,-0.00480213763673909,-0.005132792450040338,-0.013758194003267287,-0.0009489969707213814,0.9999998636397835,-0.0003077491959921173,-0.0004172683517103679,-6.243372100449e-05
12.733333333333546,-0.000983937,-0.7858783,0.002623471,-2.3589492,0.0017139585,1.572226,0.7855558,0.039999913,0.039999954,-0.012423231744929097,-0.014231353689525533,-0.005300731876634046,-0.005440919029959512,-0.01378742486322605,-0.0010088263745615042,0.9999998451209761,-0.0003543351098376527,-0.0004232400720341906,-7.122145302936813e-05
12.750000000000213,-0.00108565,-0.78599685,0.00285241,-2.3591902,0.0018575197,1.5723377,0.78551656,0.039999917,0.039999958,-0.011532872572939112,-0.014595998575887576,-0.005244886270294735,-0.005756886677346864,-0.013813636320720014,-0.0010696408183880086,0.9999998233849409,-0.00040359070149110197,-0.0004287849372061742,-8.054880659356673e-05
12.76666666666688,-0.0011931588,-0.7861228,0.0030944322,-2.3594446,0.0020092798,1.5724559,0.7854751,0.03999992,0.039999966,-0.012622076402468707,-0.014949397071059422,-0.005427489320974921,-0.006080540837447077,-0.013832773702145472,-0.0011331681824798892,0.9999997978788506,-0.0004556415058537351,-0.00043411395171128467,-9.043314064766614e-05
12.783333333333548,-0.0013066037,-0.786256,0.0033498553,-2.3597128,0.0021694384,1.5725805,0.78543127,0.039999925,0.03999997,-0.013580185944972456,-0.015294180148767503,-0.005580257041848391,-0.006411156136982978,-0.013850466048937778,-0.0011976761417938405,0.9999997679864238,-0.0005105521857553539,-0.00043952771709728845,-0.00010089078312878052
12.800000000000216,-0.0014261225,-0.7863968,0.0036189898,-2.359995,0.0023381894,1.5727118,0.78538513,0.039999925,0.039999973,-0.013155512319706908,-0.015628657539410503,-0.005485725672116359,-0.006748555912770607,-0.01386704782337951,-0.001264881062404426,0.9999997333410142,-0.0005683559401534827,-0.0004447011846838312,-0.00011193874292989978
12.816666666666883,-0.0015518493,-0.7865455,0.0039021426,-2.3602915,0.0025157249,1.5728502,0.7853365,0.03999993,0.039999977,-0.013919627463265805,-0.0159568112080637,-0.0058371423194980565,-0.007092836163092914,-0.013878629697516388,-0.0013331868210410634,0.9999996933181167,-0.0006291746715017423,-0.0004496969574329441,-0.0001235943036108537
12.83333333333355,-0.0016839161,-0.78670216,0.00419961,-2.360602,0.0027022318,1.5729953,0.7852854,0.039999932,0.039999984,-0.01283738162451975,-0.016275474629531134,-0.005785044444284182,-0.007442778654531868,-0.013887448169594165,-0.0014040627499505732,0.9999996474258454,-0.0006930095864357657,-0.0004543394237833966,-0.00013587341910821656
12.850000000000218,-0.0018224515,-0.7868667,0.004511686,-2.3609276,0.0028978912,1.5731473,0.7852319,0.039999936,0.03999999,-0.015214623156944995,-0.016577502279539746,-0.006260283181447335,-0.007798938578272853,-0.013890918474201992,-0.0014768962579898397,0.9999995947691159,-0.0007598890075937526,-0.00045922805809905844,-0.00014879479455196724
12.866666666666886,-0.0019675808,-0.7870396,0.0048386534,-2.3612685,0.0031028849,1.5733064,0.7851758,0.03999994,0.039999995,-0.0147676634263183,-0.01687623439980473,-0.006289075830712143,-0.008161430338774775,-0.013894033949407355,-0.0015507540595832824,0.9999995347706679,-0.0008298998410076835,-0.00046406850733354615,-0.00016237340283193166
12.883333333333553,-0.002119427,-0.78722084,0.0051807896,-2.3616252,0.0033173817,1.5734731,0.78511703,0.03999994,0.04,-0.015358118089880968,-0.017156421239188438,-0.006311567057593059,-0.008529240351183751,-0.013895357598720896,-0.0016273561270102547,0.9999994666649545,-0.0009031267766124844,-0.00046886468049868804,-0.0001766288291771423
12.90000000000022,-0.0022781105,-0.78741026,0.0055383663,-2.3619978,0.0035415574,1.5736474,0.78505576,0.03999994,0.04,-0.01601488642579696,-0.017436072801547877,-0.0062041606078588885,-0.008902161832161895,-0.013893073142429564,-0.0017050126509915598,0.9999993896917164,-0.000979504554963973,-0.00047379952449603526,-0.00019157513418023814
12.916666666666888,-0.002443747,-0.78760844,0.0059116455,-2.3623867,0.0037755778,1.5738295,0.7849916,0.039999943,0.04,-0.015714957778878436,-0.017700882622337204,-0.0064753407302164945,-0.009280860394246436,-0.013892063914403582,-0.001784555193031532,0.9999993030201703,-0.001059234095788012,-0.0004785794489601129,-0.00020722937781485608
12.933333333333556,-0.0026164486,-0.78781545,0.0063008843,-2.3627918,0.0040196194,1.5740197,0.7849248,0.03999995,0.04,-0.01564107801397263,-0.017970295824020193,-0.006427082556359487,-0.009663448638263497,-0.013885264951824157,-0.0018646107512218998,0.9999992059334551,-0.0011422479074058186,-0.0004831196960132765,-0.0002236012894172193
12.950000000000223,-0.0027963272,-0.7880311,0.006706335,-2.3632133,0.004273831,1.5742178,0.78485525,0.039999954,0.04,-0.016274683137540435,-0.018209126178361096,-0.0064431587505353605,-0.010051125504449955,-0.013874751819367117,-0.0019475169344944,0.9999990974118408,-0.0012285951608480966,-0.0004876338123366458,-0.00024071289867400034
12.96666666666689,-0.0029834902,-0.7882557,0.0071282387,-2.363652,0.0045383703,1.5744238,0.7847829,0.039999954,0.039999995,-0.017232312782722303,-0.018439483718151253,-0.007031907242494029,-0.01044284249453395,-0.01386100959678395,-0.002031655599597365,0.9999989763561832,-0.0013183210948056847,-0.0004923952188782339,-0.0002585788565923738
12.983333333333558,-0.0031780398,-0.78848946,0.0075668306,-2.364108,0.0048133424,1.5746379,0.7847076,0.039999954,0.04,-0.01733408509929646,-0.018631259041655517,-0.007104419741299495,-0.010838955638069196,-0.01384772593957748,-0.002121699214250372,0.999998841751285,-0.0014115017633854093,-0.0004972901787305098,-0.00027723877532514953
13.000000000000226,-0.0033800781,-0.7887325,0.008022338,-2.3645813,0.005098934,1.5748601,0.78462946,0.039999954,0.04,-0.016833983340491798,-0.018875803786100494,-0.007071412817905021,-0.0112381267597895,-0.013833275496466199,-0.0022097684095998688,0.9999986926973793,-0.0015081210889372008,-0.0005021456403925273,-0.00029668850534177177
13.016666666666893,-0.0035897025,-0.7889846,0.008494982,-2.3650725,0.0053952564,1.5750906,0.7845484,0.03999995,0.04,-0.018341262650656276,-0.01904874827246203,-0.007062939597579643,-0.011641295972135944,-0.013815605924800252,-0.0023022938807219402,0.9999985278779595,-0.0016082195244920966,-0.0005073550632977676,-0.0003169585379105179
13.03333333333356,-0.003807008,-0.78924626,0.008984977,-2.3655813,0.005702442,1.5753297,0.7844643,0.03999995,0.04,-0.01728167518468826,-0.01924346433460327,-0.007207264335740149,-0.012047389036025282,-0.013797632519723218,-0.002396805350883262,0.9999983463042356,-0.0017118686544657018,-0.0005124479682950555,-0.0003380703831970125
13.050000000000228,-0.004032085,-0.7895174,0.009492534,-2.3661077,0.0060206307,1.5755771,0.7843772,0.039999947,0.04,-0.017455199105320673,-0.019433479801447134,-0.007150932575084035,-0.012456201284457062,-0.013775632451251725,-0.0024925625551209876,0.9999981468173426,-0.0018190487687577235,-0.0005174905832777588,-0.00036003743390622563
13.066666666666896,-0.0042650215,-0.7897981,0.010017852,-2.3666534,0.006349942,1.5758332,0.78428704,0.039999943,0.04,-0.020233279774029,-0.019577471801216113,-0.007868014588052752,-0.01286748774483398,-0.013751324987416387,-0.002591185988331378,0.9999979277051763,-0.0019298217730330115,-0.0005232348926373494,-0.00038288186724433164
13.083333333333563,-0.0045059044,-0.79008853,0.010561118,-2.3672173,0.006690487,1.5760982,0.7841938,0.03999994,0.04,-0.01787701372115702,-0.019732391759259317,-0.007200822278252694,-0.01328106125477024,-0.01372871935975641,-0.002692597011057632,0.999997688211331,-0.0020441635614402167,-0.0005287940370312969,-0.00040662537321510187
13.10000000000023,-0.0047548153,-0.79038876,0.011122524,-2.3678,0.007042399,1.576372,0.78409743,0.039999943,0.04,-0.01917891075753353,-0.019890140774403604,-0.007628252209501696,-0.01369672738427665,-0.013702394910092452,-0.002794599123769125,0.9999974266813298,-0.002162137438114908,-0.0005345928148085411,-0.0004312805809942919
13.116666666666898,-0.005011833,-0.7906988,0.011702246,-2.3684013,0.0074057905,1.5766548,0.783998,0.039999943,0.04,-0.01872024832370034,-0.020024690289060024,-0.007475427504011201,-0.014113699546980336,-0.013674823483589251,-0.0028987671431719153,0.9999971419904548,-0.002283685469943622,-0.0005404304169519655,-0.00045686602087908015
13.133333333333566,-0.005277034,-0.79101884,0.012300461,-2.3690221,0.0077807796,1.5769467,0.7838954,0.03999994,0.04,-0.0201874271495317,-0.02014569061362468,-0.007813115029153828,-0.014532833847209613,-0.013643520763103434,-0.003004355138726326,0.999996832380111,-0.002408894069613964,-0.0005466130516671655,-0.00048339763891151516
13.150000000000233,-0.0055504907,-0.791349,0.012917325,-2.3696623,0.008167439,1.5772477,0.7837895,0.039999936,0.04,-0.019677028688636078,-0.020229645478708064,-0.00790474714345013,-0.014952525300866893,-0.013612970837666069,-0.003114438679712169,0.9999964964637419,-0.0025377596103537893,-0.0005530001350432345,-0.0005109082621339034
13.1666666666669,-0.0058322726,-0.7916892,0.013553005,-2.3703213,0.008565884,1.5775579,0.7836805,0.039999936,0.04,-0.018950383173876872,-0.020359993967841716,-0.007577434883754286,-0.015373202035081577,-0.013580022965490653,-0.003225199189968525,0.9999961329571171,-0.002670253375822935,-0.0005593322319696812,-0.0005394118787731319
13.183333333333568,-0.006122445,-0.7920396,0.014207648,-2.3710003,0.008976201,1.577877,0.7835681,0.03999993,0.04,-0.02104553322093139,-0.020418573158686656,-0.008349294114284866,-0.015794758988287638,-0.013542177985319218,-0.003339696422284006,0.9999957396258036,-0.002806482843483229,-0.0005663039020722167,-0.0005689324931708652
13.200000000000236,-0.006421074,-0.7924004,0.014881399,-2.3716993,0.009398491,1.578206,0.78345245,0.039999925,0.04,-0.02044914429208955,-0.020506314856475263,-0.007938819499786476,-0.016215713300808413,-0.013506245036572936,-0.003454909899807762,0.9999953154557628,-0.002946349956990083,-0.0005733284521061065,-0.000599485567918592
13.216666666666903,-0.0067282184,-0.79277146,0.015574394,-2.3724177,0.009832844,1.5785439,0.78333354,0.03999993,0.04,-0.019848744345130065,-0.020583026714922,-0.007993522732929748,-0.016637255052581092,-0.013466463246605274,-0.003572469236117388,0.9999948586507312,-0.0030898777715903953,-0.000580564615375667,-0.0006310880984383956
13.23333333333357,-0.0070439386,-0.79315287,0.016286768,-2.3731568,0.010279354,1.5788914,0.78321123,0.039999932,0.04,-0.021999157288044024,-0.020624874956609585,-0.008410573005046551,-0.017058189475371712,-0.013425650661484958,-0.003690779809196923,0.9999943671487669,-0.0032371082238450686,-0.0005884098646348728,-0.0006637581754466495
13.250000000000238,-0.0073682857,-0.7935448,0.017018631,-2.373916,0.010738068,1.5792484,0.7830857,0.039999925,0.04,-0.020652556326705707,-0.02064819393224754,-0.008194674034944782,-0.017478427097969214,-0.013385162515908197,-0.003814632270970137,0.9999938397824786,-0.003387938634100517,-0.0005964273829304189,-0.0006975265463363551
13.266666666666906,-0.007701315,-0.7939473,0.017770117,-2.3746946,0.011209073,1.5796149,0.7829568,0.03999992,0.039999995,-0.020013589865164327,-0.02071554727081336,-0.008046170883169168,-0.017898321880142704,-0.013342632974606791,-0.003939316107566312,0.9999932745885303,-0.0035424500664973453,-0.0006044789293791596,-0.0007324141305376502
13.283333333333573,-0.008043072,-0.7943604,0.018541336,-2.3754945,0.011692432,1.5799911,0.78282446,0.03999992,0.04,-0.022614000052745276,-0.020699307579905707,-0.008664848421968685,-0.018316682376820187,-0.013295783252522245,-0.004067141723731078,0.9999926694644056,-0.003700616931779845,-0.0006131416300765262,-0.0007684459107050816
13.30000000000024,-0.008393604,-0.7947842,0.019332381,-2.3763149,0.01218822,1.5803767,0.7826886,0.039999917,0.039999995,-0.02158308462711922,-0.02071679900749017,-0.008617673485211697,-0.0187336139892352,-0.013249683085563319,-0.004196612686741246,0.9999920224754177,-0.0038624792124934797,-0.0006222479467040306,-0.0008056347494906535
13.316666666666908,-0.008752959,-0.79521865,0.020143354,-2.3771553,0.012696482,1.5807723,0.78254944,0.039999917,0.04,-0.020696248646268067,-0.02071836187673981,-0.00805769501162068,-0.01914819884130129,-0.013202561148927344,-0.004329303830065315,0.9999913323852978,-0.004027929560409004,-0.0006313325470476387,-0.0008440124099203531
13.333333333333576,-0.009121169,-0.7956639,0.020974346,-2.378017,0.013217285,1.5811777,0.78240687,0.039999913,0.04,-0.02267057691054397,-0.02068866541875651,-0.008692751163885681,-0.01956145956216542,-0.013150290162686972,-0.004464542542530717,0.9999905969026849,-0.004196969705153118,-0.0006409436810903434,-0.0008835964596623687
13.350000000000243,-0.009498277,-0.7961198,0.021825442,-2.378899,0.013750672,1.5815927,0.78226084,0.039999913,0.04,-0.021776483057989182,-0.020673998327268295,-0.008580306810856975,-0.019972129955155814,-0.013097885947775783,-0.004602201499256251,0.9999898140531305,-0.004369608743698716,-0.0006509743323905712,-0.0009244143178653049
13.36666666666691,-0.009884311,-0.7965868,0.022696719,-2.3798022,0.014296713,1.5820177,0.7821114,0.039999913,0.04,-0.022060857971206715,-0.020646707044013127,-0.0086906673695486,-0.02038058016634355,-0.013044278098748242,-0.004741673815937007,0.9999889821924338,-0.004545787909726984,-0.0006612282676610084,-0.0009664797970006365
13.383333333333578,-0.010279309,-0.79706466,0.023588251,-2.3807268,0.014855439,1.5824525,0.7819585,0.03999991,0.04,-0.02325462505818887,-0.020572547136925995,-0.008890514777371017,-0.02078621518474113,-0.012987057429116884,-0.004884490906240893,0.9999880989820893,-0.004725503677385055,-0.0006721354244348848,-0.0010098233278299003
13.400000000000245,-0.010683294,-0.7975533,0.024500098,-2.381672,0.015426884,1.5828973,0.78180206,0.039999906,0.04,-0.02178190855783857,-0.02053808201415465,-0.008432414909331776,-0.02118867315702129,-0.012929731725239431,-0.005029874865872037,0.9999871624198783,-0.004908792970812598,-0.0006832618226461394,-0.0010544668279949894
13.416666666666913,-0.011096294,-0.79805297,0.025432324,-2.382639,0.0160111,1.5833521,0.7816421,0.039999895,0.039999995,-0.024004788601073024,-0.020441349747017667,-0.009159066916897274,-0.021587635227930405,-0.012869416961201422,-0.005177911231709201,0.9999861703210111,-0.005095583650937338,-0.0006951570896998639,-0.0011004320036545575
13.43333333333358,-0.011518337,-0.7985635,0.02638498,-2.3836265,0.016608095,1.5838168,0.7814786,0.039999895,0.04,-0.02189257745108808,-0.02038104036131659,-0.008501851993014675,-0.021982429996567437,-0.012809615374915236,-0.00532847291967236,0.9999851210020553,-0.005285850201902041,-0.0007072685678744777,-0.0011477514195358696
13.450000000000248,-0.011949438,-0.79908514,0.027358107,-2.3846343,0.01721791,1.5842913,0.7813116,0.039999895,0.04,-0.021251223276519404,-0.020315814537408966,-0.008568304645595326,-0.022373708165096567,-0.012747231260717617,-0.0054816867593196,0.9999840126133382,-0.005479560950111199,-0.0007193418552278474,-0.0011964434029025084
13.466666666666915,-0.012389613,-0.7996176,0.02835175,-2.385664,0.017840588,1.584776,0.78114104,0.039999887,0.039999995,-0.024500495777979303,-0.020171687302662084,-0.008999851736257725,-0.022760211764202096,-0.01267710794744903,-0.005636876361756936,0.999982842560965,-0.005676664954534207,-0.0007322849187441353,-0.001246522155351004
13.483333333333583,-0.0128388805,-0.8001613,0.029365946,-2.386715,0.018476143,1.5852709,0.78096694,0.039999887,0.039999995,-0.022856356579592507,-0.02008446469861022,-0.008939843900757083,-0.02314255924638696,-0.012609182342459429,-0.005794778451914055,0.9999816090056091,-0.005877159022349927,-0.0007455161399759016,-0.001298020825872276
13.50000000000025,-0.013297253,-0.800716,0.030400708,-2.3877878,0.019124588,1.5857754,0.78078943,0.03999989,0.04,-0.024646218782242713,-0.01990829553946208,-0.009491726264765354,-0.02351980053934584,-0.012536789111918592,-0.005956247171188395,0.9999803099443124,-0.006080899871619642,-0.0007597947924304843,-0.001350959770550577
13.516666666666918,-0.013764741,-0.80128175,0.031456072,-2.3888822,0.019785944,1.5862901,0.78060824,0.039999887,0.04,-0.02361461341910953,-0.01981761375681665,-0.008907336426844381,-0.023892810868422203,-0.01246853894173543,-0.006120473948644241,0.99997894281145,-0.006288002436087155,-0.0007745399008816995,-0.0014053636542554493
13.533333333333585,-0.014241348,-0.80185854,0.03253206,-2.3899977,0.020460203,1.5868151,0.78042364,0.039999887,0.04,-0.023373775207935488,-0.019679406954083156,-0.008783084414565323,-0.02425981355709593,-0.01239657883513614,-0.006287443244003814,0.9999775064834477,-0.006498279139951798,-0.0007896768667306088,-0.001461268562470723
13.550000000000253,-0.014727083,-0.8024464,0.03362867,-2.3911343,0.021147406,1.58735,0.7802355,0.03999988,0.04,-0.02311668255057242,-0.01954481985662268,-0.008988070704707418,-0.02462180613997865,-0.012321925413306279,-0.006456480881161145,0.9999759985775878,-0.006711739985353896,-0.0008052507465026755,-0.0015186791498520813
13.56666666666692,-0.015221942,-0.8030453,0.034745898,-2.3922923,0.021847516,1.5878948,0.78004384,0.03999988,0.04,-0.02416106923690542,-0.019327934029018945,-0.009169901229344468,-0.024978245230465178,-0.012243664480837604,-0.006629160897463356,0.9999744166128114,-0.006928361975310892,-0.0008215748194981911,-0.0015776358966781956
13.583333333333588,-0.015725931,-0.80365545,0.03588376,-2.3934715,0.022560548,1.5884498,0.77984864,0.039999876,0.04,-0.023357346900021447,-0.01918816209835819,-0.008999305913071076,-0.025328793022593696,-0.012165704614468514,-0.006804622673315691,0.9999727591080133,-0.007148069494570906,-0.0008381879522795072,-0.0016381652433833948
13.600000000000255,-0.016239047,-0.8042763,0.037042234,-2.394672,0.023286495,1.5890148,0.7796499,0.03999988,0.04,-0.02429044552658688,-0.01898634991274531,-0.008939325734846904,-0.02567289447550609,-0.012083331525778913,-0.0069821091649951705,0.999971023651639,-0.007370808718094222,-0.0008556123884202789,-0.0017002833219803134
13.616666666666923,-0.016761275,-0.8049085,0.038221322,-2.395894,0.024025353,1.5895897,0.7794476,0.03999988,0.04,-0.024393284919588254,-0.018797025075150547,-0.009474886778160219,-0.02601071648648485,-0.011999587599270299,-0.007163419883930815,0.9999692081236426,-0.007596557692594598,-0.0008736853675991113,-0.001764026552083197
13.63333333333359,-0.017292611,-0.8055514,0.039420996,-2.397137,0.024777109,1.5901748,0.7792418,0.03999988,0.04,-0.02361886479136377,-0.01862313748877062,-0.00857523303265939,-0.026341730062859482,-0.011915268416523489,-0.007347383435479166,0.9999673108573004,-0.007825240128090261,-0.0008922440988994704,-0.0018294081624720517
13.650000000000258,-0.017833047,-0.80620563,0.040641233,-2.3984017,0.025541758,1.5907701,0.7790325,0.039999876,0.04,-0.025007960608136592,-0.018360671737206735,-0.009418809980554776,-0.02666601057272911,-0.011827080873868863,-0.007533674867209267,0.9999653300513137,-0.008056753757265833,-0.0009115132780552524,-0.001896459281336438
13.666666666666925,-0.018382574,-0.80687076,0.041881993,-2.399688,0.02631928,1.591375,0.7788197,0.03999987,0.04,-0.024986349849154266,-0.018130065023113512,-0.009525915917873995,-0.026983264703355242,-0.011737426266360804,-0.007723633001187155,0.9999632629998378,-0.00829109933635134,-0.0009318371065388508,-0.001965197730197904
13.683333333333593,-0.018941164,-0.8075469,0.04314326,-2.400995,0.027109612,1.59199,0.7786032,0.039999865,0.04,-0.02356358212651788,-0.017948874317474245,-0.008821364071409654,-0.027293042686358134,-0.011649773533213836,-0.007917208965133628,0.9999611078984093,-0.008528271642947678,-0.000952517170348859,-0.002035677874795663
13.70000000000026,-0.019508805,-0.80823404,0.044424985,-2.4023235,0.027912783,1.5926152,0.77838326,0.03999986,0.04,-0.024922270992733253,-0.017687985777933846,-0.009063386194751999,-0.02759475303405775,-0.011556459700593737,-0.008112124984270372,0.999958863486862,-0.008768103531458632,-0.0009738975021952266,-0.002107894252611215
13.716666666666928,-0.020085476,-0.8089321,0.045727115,-2.4036732,0.02872873,1.5932505,0.77815986,0.039999854,0.04,-0.024705692884485764,-0.017418293583394695,-0.009145981772129552,-0.027888881910947193,-0.0114609489286297,-0.008311622369060287,0.9999565278566046,-0.009010535453767971,-0.0009959947731261304,-0.002181889596585882
13.733333333333595,-0.020671159,-0.809641,0.047049593,-2.405044,0.029557424,1.5938953,0.7779329,0.039999846,0.04,-0.02516509083516638,-0.01713857027640861,-0.009428159214741605,-0.028175316713484402,-0.011364103763311019,-0.008513982586226009,0.9999540983667882,-0.009255557939334134,-0.0010191535846009734,-0.002257683030532217
13.750000000000263,-0.021265822,-0.8103609,0.04839239,-2.406436,0.030398834,1.5945503,0.7777025,0.03999984,0.04,-0.02443010586907768,-0.01693021158617608,-0.009011764156907631,-0.028453059031204563,-0.011267404955607376,-0.008718476511783639,0.9999515743954537,-0.009503033080005456,-0.0010428545091736262,-0.0023353117150740578
13.76666666666693,-0.02186944,-0.81109184,0.049755417,-2.4078484,0.03125291,1.5952152,0.7774687,0.03999983,0.04,-0.023771300988228994,-0.016641101870058794,-0.008886458902934713,-0.028723069614646768,-0.01116786576563144,-0.008927396187591655,0.9999489541431091,-0.009752922519413725,-0.0010669355849406365,-0.002414799968952241
13.783333333333598,-0.022481991,-0.81183326,0.051138613,-2.409282,0.03211961,1.5958896,0.7772314,0.039999824,0.04,-0.025876993350504307,-0.016290808123362033,-0.009419990897119312,-0.028984272179673372,-0.011062663232716652,-0.009138486825218013,0.9999462350731929,-0.0100051442144678,-0.0010923373345914787,-0.002496167330490021
13.800000000000265,-0.023103435,-0.8125856,0.052541915,-2.4107366,0.032998927,1.5965738,0.7769907,0.03999982,0.04,-0.024987531617037817,-0.016064475432597813,-0.009182425802722882,-0.029236955588854356,-0.010959256351110731,-0.009351615027759205,0.9999434163349976,-0.010259610108220133,-0.0011185106853625157,-0.002579430667346131
13.816666666666933,-0.023733735,-0.8133489,0.05396524,-2.4122121,0.033890788,1.597268,0.77674645,0.03999981,0.04,-0.025042050782619896,-0.015734087443980416,-0.009229914845221288,-0.029480902242766126,-0.010854199110330243,-0.00956779471890181,0.9999404954015221,-0.010516338151403131,-0.001145442986660695,-0.002664629131504442
13.8333333333336,-0.024372857,-0.81412274,0.0554085,-2.4137077,0.034795105,1.5979716,0.77649873,0.039999805,0.04,-0.024137270307278413,-0.015444458267351024,-0.008924732831561144,-0.029715295467352222,-0.010745851572713475,-0.00978838927419607,0.9999374711504614,-0.010775212019161701,-0.0011731213598669193,-0.0027517960384916087
13.850000000000268,-0.025020769,-0.8149071,0.05687162,-2.4152234,0.03571187,1.5986853,0.7762478,0.039999798,0.04,-0.02409662939903967,-0.015169892709736288,-0.00837720248330065,-0.029940122022503474,-0.01063586574272729,-0.010011115247151592,0.9999343437838691,-0.01103604192533625,-0.001201234817787465,-0.0028409391154566766
13.866666666666935,-0.025677426,-0.8157022,0.05835449,-2.4167602,0.03664102,1.5994086,0.7759934,0.039999794,0.04,-0.02607564938472695,-0.014729825082360204,-0.009482797674897903,-0.030156004157844155,-0.010519634972810752,-0.01023522929894908,0.9999311100539706,-0.011298845714190792,-0.001230485529221124,-0.0029320875026967717
13.883333333333603,-0.026342783,-0.8165078,0.05985704,-2.4183173,0.03758248,1.6001416,0.7757357,0.039999783,0.04,-0.024894068919456558,-0.014476801492180336,-0.008882788914821305,-0.03036230223941165,-0.010404449768911507,-0.010464465144244449,0.9999277692577583,-0.011563517323029283,-0.0012605629445667382,-0.00302527938976736
13.90000000000027,-0.027016798,-0.81732386,0.06137916,-2.4198942,0.038536195,1.6008846,0.7754746,0.03999978,0.04,-0.02419010711001146,-0.014166068705279145,-0.008455405377261194,-0.030559275413734162,-0.010285526599335362,-0.010696157789277412,0.999924320453443,-0.011829986308540716,-0.0012911561489118407,-0.0031205296760193667
13.916666666666938,-0.027699418,-0.81815034,0.06292073,-2.4214923,0.03950209,1.6016363,0.77521014,0.03999978,0.04,-0.027085288801798058,-0.013658391699145067,-0.00997551959995846,-0.030745906973471366,-0.01016254282441529,-0.010930487769640354,0.99992076079411,-0.012098170653443296,-0.001323532823107708,-0.0032178658509159196
13.933333333333605,-0.028390609,-0.8189871,0.06448165,-2.4231105,0.040480144,1.6023973,0.7749423,0.039999772,0.04,-0.025217884907280386,-0.01344071734967478,-0.008959748996528738,-0.030922674370084127,-0.010045019084170721,-0.011165802047225275,0.9999170897196271,-0.012368018418902416,-0.0013569654067979913,-0.003317295872450704
13.950000000000273,-0.029090304,-0.81983423,0.066061795,-2.4247477,0.041470233,1.6031679,0.77467114,0.039999764,0.04,-0.023442196885459232,-0.013109201623554001,-0.008411454544088315,-0.031088839649823174,-0.009926601943486567,-0.011405760310134551,0.9999133074581189,-0.012639409766627209,-0.0013907848954188204,-0.0034188603790465226
13.96666666666694,-0.029798457,-0.8206918,0.06766105,-2.426405,0.042472307,1.603948,0.7743968,0.03999977,0.04,-0.025189169319372873,-0.012675568152722971,-0.008895922534413181,-0.031244617845288147,-0.009801793736867626,-0.011647713668490656,0.9999094129460157,-0.012912215778092347,-0.0014254842579266276,-0.0035225814802149463
13.983333333333608,-0.030515015,-0.8215595,0.06927929,-2.4280822,0.043486305,1.604737,0.7741192,0.03999976,0.04,-0.025881077135414543,-0.012293467556659388,-0.009178102786977504,-0.03139037037766556,-0.009673155574846763,-0.011892509855763303,0.9999054045673524,-0.013186355365382067,-0.0014615565345477272,-0.003628470982855131
14.000000000000275,-0.031239925,-0.8224371,0.07091639,-2.4297786,0.044512097,1.6055353,0.7738383,0.039999764,0.04,-0.024426050091164164,-0.011944863497827252,-0.00847885896972933,-0.03152563845403394,-0.009546767342594062,-0.012139244230482155,0.9999012810388302,-0.013461825729239561,-0.0014984819966290487,-0.0037365728478705
14.016666666666943,-0.03197311,-0.823325,0.072572224,-2.4314947,0.045549653,1.6063428,0.7735542,0.039999764,0.04,-0.025407205772665087,-0.011551064098937192,-0.008906501732930394,-0.031649859488340565,-0.009418437465080837,-0.01238962506042101,0.9998970426127819,-0.013738448300725709,-0.0015364251610415225,-0.003846896180745556
14.03333333333361,-0.032714527,-0.8242227,0.07424662,-2.43323,0.046598867,1.6071593,0.77326685,0.039999757,0.04,-0.024862988902496497,-0.011135728237508802,-0.008620383114332775,-0.0317638509509188,-0.009287054960097234,-0.012641803651907438,0.9998926877083231,-0.0140161970857426,-0.0015754316644166582,-0.003959457254496496
14.050000000000278,-0.033464108,-0.82513046,0.07593949,-2.4349842,0.047659643,1.6079848,0.77297646,0.03999976,0.04,-0.024690500899815504,-0.010786392659781208,-0.008659956582035555,-0.03186626240930794,-0.009156167773705877,-0.012896791082676037,0.999888217186753,-0.014294888828545451,-0.0016153386336840204,-0.004074305532796505
14.066666666666945,-0.03422179,-0.826048,0.077650644,-2.4367573,0.04873191,1.6088194,0.77268285,0.039999753,0.04,-0.02471576831217792,-0.010352160077577166,-0.008403110651911128,-0.03195856486832881,-0.009020967782324703,-0.013155253619287363,0.9998836293876888,-0.014574518337297872,-0.0016561909835982535,-0.004191435215343148
14.083333333333613,-0.03498751,-0.8269754,0.07937996,-2.4385498,0.049815543,1.6096629,0.77238613,0.039999753,0.04,-0.02561994087579844,-0.00989132128030451,-0.008771611864655249,-0.03203900091541292,-0.008883194410702719,-0.013415417607522628,0.9998789240881694,-0.014854938523529518,-0.0016982720039076847,-0.004310897580307156
14.10000000000028,-0.035761196,-0.8279124,0.08112726,-2.440361,0.050910458,1.610515,0.77208644,0.039999757,0.04,-0.025285770688676656,-0.0094782445831193,-0.008691801494742357,-0.032108634261267324,-0.008744948021540487,-0.013679012723154804,0.9998741016410325,-0.01513600640816141,-0.0017416556857552075,-0.004432698165058357
14.116666666666948,-0.03654277,-0.8288589,0.0828924,-2.4421902,0.052016564,1.6113758,0.7717836,0.03999975,0.04,-0.023799062716345354,-0.009179962985422785,-0.008100821140688552,-0.03216784484917443,-0.00860744461993794,-0.013944293892024395,0.9998691606726325,-0.015417760365412151,-0.001785851231559243,-0.004556855988363808
14.133333333333615,-0.037332173,-0.829815,0.084675215,-2.4440382,0.05313374,1.6122453,0.7714777,0.039999746,0.04,-0.025536064998554764,-0.008599672699349803,-0.00858957164096008,-0.03221511312931819,-0.008465583502029278,-0.014212028927911374,0.9998641014093838,-0.015700018824215917,-0.0018313488069954564,-0.004683405093740221
14.150000000000283,-0.03812933,-0.8307802,0.08647552,-2.445904,0.054261893,1.6131232,0.7711689,0.03999975,0.04,-0.024511829240547733,-0.008247072697253888,-0.008209247196822034,-0.03225118133791033,-0.008324577847825643,-0.014482136958442304,0.9998589244689476,-0.015982659449281063,-0.0018780432374579516,-0.004812349771762015
14.16666666666695,-0.038934145,-0.83175486,0.08829315,-2.4477873,0.055400923,1.6140097,0.77085704,0.039999746,0.04,-0.023440382129713555,-0.007889809608178922,-0.007818083514776752,-0.032276322322856495,-0.008183647714720015,-0.014755642985157275,0.9998536294084943,-0.016265677010212417,-0.0019254126423736797,-0.004943712796800507
14.183333333333618,-0.039746583,-0.83273876,0.09012796,-2.449689,0.056550704,1.6149045,0.77054226,0.039999746,0.04,-0.025516344787690493,-0.007286379135726384,-0.008579102386097048,-0.03228943063754596,-0.008035634805562693,-0.015031577782336006,0.9998482161086502,-0.016548885675349664,-0.001974274500463436,-0.005077535568662408
14.200000000000285,-0.040566526,-0.83373183,0.091979764,-2.451608,0.05771113,1.6158074,0.7702246,0.03999974,0.04,-0.02409513111494288,-0.006970552107021799,-0.008159450414324532,-0.032291207528690614,-0.007889690530138056,-0.015310534253359875,0.9998426846360107,-0.016832240605627966,-0.0020242550297452687,-0.00521383233559577
14.216666666666953,-0.041393913,-0.8347337,0.09384836,-2.4535441,0.058882102,1.6167186,0.7699039,0.039999735,0.04,-0.02409458203616044,-0.006509762321955936,-0.00769309798225315,-0.032281542673139714,-0.007742089309022385,-0.015589853060296921,0.9998370349378408,-0.0171156763517637,-0.0020753071306860637,-0.005352596570080222
14.23333333333362,-0.04222865,-0.8357446,0.09573357,-2.455498,0.060063463,1.6176381,0.7695804,0.039999727,0.04,-0.024855553184055523,-0.005954897345740451,-0.008114110428958377,-0.03225990275940354,-0.007593385035845994,-0.015873984260508775,0.9998312682778467,-0.01739900454332987,-0.0021276508339789714,-0.005493879935207733
14.250000000000288,-0.043070678,-0.83676445,0.09763521,-2.4574687,0.061255105,1.6185657,0.76925415,0.03999972,0.04,-0.02383776738781318,-0.005573335496011911,-0.007806989974890044,-0.03222704933065986,-0.007443594052802968,-0.016160144371623456,0.9998253852264634,-0.017682151965954133,-0.0021810309676662818,-0.005637700109537962
14.266666666666955,-0.04391989,-0.837793,0.099553086,-2.4594562,0.062456943,1.619501,0.7689251,0.03999971,0.04,-0.02389223403500562,-0.005153636366536651,-0.00784321046110037,-0.03218284149868868,-0.007291039521019588,-0.01644658378808138,0.9998193856571035,-0.01796504256532928,-0.0022356377385973317,-0.0057840499461559065
14.283333333333623,-0.044776198,-0.8388302,0.10148697,-2.46146,0.06366881,1.620444,0.7685933,0.039999705,0.04,-0.023639817414200515,-0.00464961271429698,-0.0076904481766781885,-0.03212688414446234,-0.007138490944886916,-0.016734983172952356,0.9998132711331448,-0.01824753070831915,-0.0022913921117359896,-0.005932959740294506
14.30000000000029,-0.04563953,-0.8398758,0.10343674,-2.4634805,0.06489062,1.6213949,0.7682588,0.0399997,0.04,-0.02392876957499901,-0.004238484122875974,-0.007610360002985317,-0.03205954897626059,-0.006983230951555321,-0.017026028947038307,0.9998070412267478,-0.01852956722368695,-0.0023483956661598014,-0.0060844465413340855
14.316666666666958,-0.046509784,-0.84093,0.10540212,-2.465518,0.066122256,1.6223533,0.7679215,0.03999969,0.04,-0.025205834894692636,-0.003597928414425522,-0.00809807068862245,-0.031980338102546746,-0.006827469723335554,-0.017318200154911603,0.9998006958276843,-0.01881105345419073,-0.0024070440891157357,-0.006238511775648019
14.333333333333625,-0.04738688,-0.84199226,0.107382946,-2.4675713,0.06736358,1.6233194,0.7675816,0.039999686,0.04,-0.023298276358763026,-0.0033267194513006415,-0.007162572913976817,-0.03188961682486845,-0.006675899479679663,-0.017611883802335054,0.999794237385742,-0.019091867114548605,-0.0024668421348599404,-0.006395169288185971
14.350000000000293,-0.04827072,-0.8430628,0.10937902,-2.46964,0.06861444,1.624293,0.76723915,0.039999686,0.04,-0.02282684713210692,-0.002872197677095123,-0.007204374132863123,-0.03178734041696404,-0.0065214755724526535,-0.01790829298328117,0.9997876676245208,-0.019371877428909393,-0.0025276506050994157,-0.006554465135972536
14.36666666666696,-0.049161218,-0.8441414,0.111390114,-2.4717238,0.06987473,1.6252741,0.7668941,0.039999686,0.04,-0.022344447965294556,-0.002441876730631398,-0.0068401335415746445,-0.03167420583000436,-0.006364257826907492,-0.018204646697274562,0.9997809866900784,-0.01965105998663528,-0.0025893594440697643,-0.006716376410236521
14.383333333333628,-0.05005826,-0.84522796,0.113415994,-2.473823,0.071144305,1.6262617,0.7665465,0.039999682,0.04,-0.023658804632198382,-0.0018376725674423833,-0.007746541185515987,-0.03154875955849914,-0.006204070774395616,-0.01850341721055422,0.9997741942326868,-0.019929281685482067,-0.002652750603801363,-0.006880929596857102
14.400000000000295,-0.050961766,-0.84632224,0.11545647,-2.4759376,0.07242301,1.6272569,0.76619625,0.03999968,0.04,-0.0232208683829338,-0.001394093096013238,-0.006825449482206203,-0.03141213761124774,-0.006045672721486622,-0.01880351082634356,0.9997672915513837,-0.02020649713902642,-0.002717326275348538,-0.007048145521665047
14.416666666666963,-0.051871642,-0.8474242,0.11751125,-2.4780672,0.07371073,1.628259,0.7658438,0.03999967,0.04,-0.023127675830059147,-0.0008528556797032794,-0.007108665890331878,-0.03126318277210592,-0.005886184535230848,-0.01910497569865427,0.999760283945332,-0.020482390597072252,-0.0027832995318915433,-0.0072180028189155485
14.43333333333363,-0.052787762,-0.8485339,0.119580194,-2.480211,0.0750073,1.6292679,0.7654888,0.039999675,0.04,-0.02192670573928357,-0.0005587128603518066,-0.006755117368872909,-0.031104724789022577,-0.0057280440326680435,-0.01940879278441153,0.9997531681541657,-0.02075712317284685,-0.0028502941736581015,-0.007390563335724061
14.450000000000298,-0.05371004,-0.8496512,0.121663034,-2.48237,0.07631263,1.6302838,0.7651315,0.039999668,0.04,-0.02339568427209837,7.940578719556335e-05,-0.007047772130097663,-0.030933933028887427,-0.005566505527888524,-0.019711937472544697,0.9997459479476082,-0.02103043605347605,-0.002918760256576118,-0.007565788809093469
14.466666666666965,-0.05463839,-0.8507758,0.12375955,-2.4845428,0.07762652,1.6313065,0.7647718,0.039999664,0.04,-0.022184112596912442,0.0004917685510308356,-0.006489699788359005,-0.03075235459029929,-0.0054061889517135475,-0.020017336913885728,0.9997386242811964,-0.02130228034271231,-0.0029884368537687078,-0.007743721179909873
14.483333333333633,-0.055572703,-0.8519075,0.12586953,-2.48673,0.07894887,1.6323358,0.76440984,0.039999664,0.04,-0.022851355085773406,0.000994214483240885,-0.006738938896511115,-0.030559587600589244,-0.005244817590848674,-0.020322637182147746,0.9997311978683887,-0.021572562174267916,-0.003059626748648744,-0.007924345653297549
14.5000000000003,-0.056512862,-0.85304636,0.12799272,-2.488931,0.08027952,1.6333712,0.7640455,0.03999966,0.04,-0.021800498411495006,0.0013858864336385723,-0.006614661148418577,-0.030355945826242146,-0.005085817253221034,-0.020630764692291678,0.9997236690347565,-0.021841261002078876,-0.0031321571374801943,-0.008107680382802752
14.516666666666968,-0.05745878,-0.85419214,0.13012888,-2.491145,0.08161831,1.6344131,0.7636791,0.03999966,0.04,-0.021213355222826635,0.0018553385986053161,-0.006064082974766016,-0.030140718756692747,-0.004926724030619056,-0.020938867202855316,0.9997160436479597,-0.02210812121408251,-0.0032057924460996046,-0.008293729200228719
14.533333333333635,-0.058410324,-0.8553447,0.13227776,-2.4933717,0.08296506,1.6354613,0.76331043,0.03999965,0.04,-0.02101836339494234,0.0023073575942889057,-0.0059658049864186324,-0.029915700032560832,-0.004765458219653199,-0.021248749789622032,0.9997083198998679,-0.022373203539457917,-0.003280537352918447,-0.008482509124175489
14.550000000000303,-0.059367403,-0.8565041,0.13443911,-2.4956121,0.084319614,1.6365155,0.76293933,0.03999964,0.04,-0.0223928423675801,0.0029956134059566653,-0.006606388268637353,-0.029678883505043236,-0.004603414944340495,-0.021559116623790522,0.999700496403216,-0.022636466768268453,-0.003356930222820496,-0.008674034983305892
14.56666666666697,-0.060329925,-0.8576702,0.13661274,-2.497865,0.08568186,1.6375756,0.7625663,0.039999638,0.04,-0.020475377456130595,0.003212717896192152,-0.005924342917240644,-0.02943045385075855,-0.004443243286089998,-0.021868979652299184,0.9996925812019753,-0.02289762118589383,-0.003434408707067165,-0.008868307087160012
14.583333333333638,-0.06129776,-0.85884255,0.13879834,-2.5001295,0.08705165,1.6386417,0.76219136,0.03999963,0.04,-0.019781294195264643,0.0036355384786385114,-0.005321220616338884,-0.02917222316861828,-0.004281565604679759,-0.022179354782423097,0.9996845754674287,-0.023156639654648585,-0.0035128543853945845,-0.009065289100648256
14.600000000000305,-0.062270813,-0.86002123,0.14099573,-2.502407,0.088428795,1.6397138,0.76181436,0.039999627,0.04,-0.0222007029795801,0.004389043657365699,-0.006117275489558871,-0.028903732048729064,-0.004118311571266693,-0.022491057278145488,0.9996764784959297,-0.02341341703623079,-0.003592952960872731,-0.009265038245219815
14.616666666666973,-0.063248955,-0.8612061,0.14320454,-2.5046968,0.08981318,1.6407912,0.76143545,0.03999962,0.04,-0.020901018250940595,0.004781392655406336,-0.005976384943928714,-0.02862476414417897,-0.003956557770164591,-0.022801921758559884,0.9996682939470232,-0.023667828509135177,-0.003674583759959245,-0.00946749200694388
14.63333333333364,-0.064232066,-0.862397,0.14542457,-2.506998,0.091204606,1.6418741,0.7610546,0.03999962,0.04,-0.019864415813253267,0.005122975663460205,-0.005411357907170178,-0.02833640623963848,-0.0037985484212547105,-0.02311325386077559,0.9996600223475068,-0.023919879805291044,-0.003757421697577007,-0.009672685897369148
14.650000000000308,-0.06522004,-0.8635937,0.14765567,-2.5093105,0.09260294,1.6429625,0.7606718,0.039999615,0.04,-0.019742952818990744,0.005482127020364769,-0.005175074450369799,-0.028037505697057017,-0.0036393867203087862,-0.023423779199250344,0.999651665034112,-0.024169499802125217,-0.0038414686708842815,-0.00988063724124801
14.666666666666975,-0.06621278,-0.86479634,0.14989744,-2.5116343,0.09400798,1.6440558,0.7602871,0.03999961,0.04,-0.020113261870613464,0.006192063483256849,-0.005708921616842666,-0.027728456417154365,-0.0034812278724674767,-0.02373569041822325,0.9996432241400237,-0.024416554193002617,-0.00392698777519433,-0.010091336843656623
14.683333333333643,-0.06721016,-0.86600465,0.15214972,-2.5139685,0.09541964,1.6451544,0.75990057,0.039999604,0.04,-0.018384412023930707,0.006302573530270195,-0.004831785318448745,-0.027409463638731417,-0.003324192879883024,-0.024046698339185615,0.9996347021382224,-0.024661024911325848,-0.004013475055645405,-0.010304763429023747
14.70000000000031,-0.06821206,-0.8672184,0.15441214,-2.5163138,0.09683763,1.6462579,0.75951236,0.039999608,0.04,-0.020280343062895057,0.007208857694360193,-0.005330968779415635,-0.02708005336252585,-0.00316488856624364,-0.02435742626898431,0.9996261021619482,-0.02490266812110658,-0.004101575969102172,-0.010520934917099423
14.716666666666978,-0.06921834,-0.8684374,0.1566845,-2.5186684,0.09826188,1.6473662,0.75912243,0.039999608,0.04,-0.017253896308888628,0.007120765895579639,-0.004395157757342005,-0.02674203749122591,-0.003009420984535889,-0.024667026467060302,0.9996174250532432,-0.02514158001751119,-0.004190520194866528,-0.010739833548196038
14.733333333333645,-0.07022893,-0.86966157,0.15896651,-2.5210333,0.09969218,1.6484792,0.7587307,0.039999604,0.04,-0.019053978190242127,0.007950425947589324,-0.004827623832093231,-0.026393892229320495,-0.002850199933551442,-0.024977711654076765,0.9996086719064049,-0.025377624065506102,-0.004280866002024149,-0.010961452119846605
14.750000000000313,-0.07124368,-0.8708908,0.1612579,-2.5234084,0.10112841,1.6495968,0.75833756,0.039999597,0.04,-0.019187294275813116,0.008396404253424583,-0.004972662822710916,-0.02603592804306169,-0.0026938951241277653,-0.025285998639784077,0.9995998482683782,-0.025610560822969322,-0.004372755269844698,-0.01118577344299946
14.76666666666698,-0.0722625,-0.8721251,0.16355836,-2.5257924,0.102570355,1.6507188,0.7579428,0.03999959,0.04,-0.016783146557308726,0.008619761835904072,-0.004233546735576965,-0.025670555080054107,-0.0025410980603268324,-0.025594752357449846,0.9995909547817725,-0.025840472943340412,-0.004465532109930238,-0.011412804191080265
14.783333333333648,-0.073285244,-0.873364,0.16586772,-2.5281858,0.10401785,1.6518453,0.7575464,0.039999586,0.04,-0.018450221773180786,0.009193947486080267,-0.0043573276814701245,-0.025295551363385623,-0.002384582287905959,-0.025903585579943197,0.9995819907980714,-0.02606728884995196,-0.004559725552107412,-0.011642552429211257
14.800000000000315,-0.07431178,-0.87460756,0.16818562,-2.5305884,0.10547073,1.6529759,0.75714874,0.03999958,0.04,-0.017641521564182305,0.009605056615394347,-0.004469353525871078,-0.024911795268340482,-0.0022325752682322286,-0.02621130510670916,0.9995729623252364,-0.02629079846221658,-0.00465526744248565,-0.011874990088813998
14.816666666666983,-0.075342,-0.87585557,0.17051181,-2.5329995,0.106928825,1.6541106,0.7567496,0.039999567,0.04,-0.01711665531671791,0.009999557494458355,-0.004066587172801839,-0.024520432242078862,-0.002081624525617387,-0.02651800437226351,0.9995638686721752,-0.026511047087322593,-0.004752063254339264,-0.01211010826852268
14.83333333333365,-0.07637581,-0.8771079,0.17284606,-2.5354192,0.10839193,1.655249,0.756349,0.039999574,0.04,-0.01723697366180499,0.010473247481967984,-0.004204416745356987,-0.024120463557428185,-0.0019326180589834957,-0.026823374978622555,0.999554711996048,-0.02672791280809173,-0.0048502551784167566,-0.012347932139628657
14.850000000000318,-0.07741307,-0.87836444,0.17518803,-2.537847,0.10985993,1.6563914,0.7559471,0.03999957,0.04,-0.016532821162695832,0.010830051930629803,-0.003758688628541229,-0.02371228293920867,-0.0017856725152503791,-0.027125572263111825,0.999545495217666,-0.02694135122253312,-0.004949624655996899,-0.012588399427231875
14.866666666666985,-0.0784536,-0.879625,0.17753746,-2.5402825,0.11133258,1.6575375,0.75554395,0.039999567,0.04,-0.01588666082525947,0.011174135729358214,-0.0036076565265164007,-0.02329625774056101,-0.001639886569049731,-0.02742809690245622,0.9995362202087538,-0.02715129405605921,-0.005050103712809539,-0.012831530476481291
14.883333333333653,-0.07949734,-0.8808894,0.17989403,-2.542725,0.112809755,1.658687,0.7551395,0.039999563,0.04,-0.015353338332690925,0.011562995166083945,-0.003396663024046731,-0.022872677366630484,-0.0014953249679236016,-0.02772831316714551,0.9995268893059897,-0.02735767733730298,-0.005151683199329001,-0.013077278203575581
14.90000000000032,-0.080544114,-0.88215756,0.1822575,-2.545175,0.11429127,1.6598399,0.754734,0.03999956,0.04,-0.015819750412848776,0.012019054852449584,-0.0035909375984743974,-0.022441344667947703,-0.001351045484573432,-0.028025806183779034,0.9995175042776482,-0.027560395051284322,-0.005254560073859058,-0.013325646912204775
14.916666666666988,-0.08159384,-0.8834293,0.1846276,-2.5476317,0.115776956,1.6609961,0.75432724,0.039999552,0.04,-0.01474130042933286,0.012328173839681877,-0.0030885010866787965,-0.0220028040580484,-0.0012087654788242447,-0.028323609226811347,0.999508066738904,-0.02775944687259355,-0.005358457884392132,-0.013576618219850399
14.933333333333655,-0.08264636,-0.88470435,0.18700396,-2.5500948,0.117266595,1.6621554,0.7539195,0.03999955,0.04,-0.014589252615193615,0.012767123640838873,-0.0030239642653917542,-0.021557269057365287,-0.0010681399184289675,-0.028617643830465847,0.999498580122578,-0.027954700639305566,-0.005463480725989251,-0.013830163537501997
14.950000000000323,-0.083701596,-0.8859827,0.18938638,-2.5525641,0.118760034,1.6633174,0.75351065,0.03999955,0.04,-0.01431674773073599,0.013113338845444078,-0.003111494597973774,-0.021104970645347845,-0.0009277898449326083,-0.02891156666786998,0.9994890441208202,-0.02814614553783822,-0.005569709936568471,-0.014086287837273566
14.96666666666699,-0.08475937,-0.887264,0.19177452,-2.5550394,0.120257095,1.6644825,0.75310075,0.03999954,0.04,-0.014065934799112334,0.013504979194120525,-0.002672774850442927,-0.020645776716390517,-0.000790591125109083,-0.029202280594341892,0.999479460895707,-0.028333747464525206,-0.005677040088744791,-0.014344937018825799
14.983333333333658,-0.08581957,-0.8885484,0.1941681,-2.5575202,0.12175758,1.6656501,0.75268996,0.039999537,0.04,-0.013251723597451637,0.013805063091301695,-0.002662097222660975,-0.02018008765017223,-0.0006549500028160682,-0.02949195044622327,0.9994698338130324,-0.02851739787700699,-0.005785370566311413,-0.014606122123418866
15.000000000000325,-0.08688208,-0.8898356,0.19656685,-2.5600064,0.12326135,1.6668203,0.7522783,0.039999537,0.04,-0.01339992647362287,0.014223850523284454,-0.002669135858734961,-0.019708015417334246,-0.0005192679940976413,-0.029777349943734585,0.9994601649799866,-0.02869701229539789,-0.005894834566216171,-0.014869802585529501
15.016666666666993,-0.087946765,-0.8911255,0.19897045,-2.5624976,0.12476815,1.6679927,0.75186586,0.03999953,0.04,-0.012770259332794964,0.014576955083925314,-0.0024833835979620744,-0.019230968193837572,-0.00038827260455369383,-0.030062121033523723,0.9994504550724143,-0.028872570072432907,-0.006005388824369322,-0.015135978925223328
15.03333333333366,-0.089013465,-0.89241785,0.20137864,-2.5649936,0.12627786,1.6691673,0.75145257,0.03999952,0.04,-0.012571573353925558,0.014832974714446001,-0.002343007900296179,-0.01874787419561386,-0.00025672861387497636,-0.03034416443150814,0.9994407043533299,-0.02904406794696063,-0.0061170781603114765,-0.015404608193421649
15.050000000000328,-0.09008208,-0.8937124,0.20379107,-2.567494,0.12779027,1.670344,0.75103855,0.03999952,0.04,-0.01190737347402937,0.015217471224376888,-0.0019504910662604402,-0.018258930199323682,-0.00012934733884285843,-0.030621738213035266,0.9994309171196197,-0.029211401632139335,-0.006229765422441292,-0.015675648085582233
15.066666666666995,-0.091152504,-0.8950091,0.20620748,-2.5699983,0.12930514,1.6715229,0.7506238,0.039999507,0.04,-0.011489065072511906,0.015563172709839868,-0.0017692521877554768,-0.017765451340997693,-4.111165575554354e-06,-0.0308991792849357,0.9994210938774558,-0.029374553161231352,-0.00634334807425216,-0.015949127705818484
15.083333333333663,-0.092224576,-0.89630777,0.20862758,-2.572507,0.13082238,1.6727034,0.75020844,0.039999504,0.04,-0.012126396958578312,0.01596219083263295,-0.002197775728807194,-0.01726644657274406,0.00012044797106640359,-0.031171678756626325,0.9994112354316963,-0.029533437701010308,-0.006458251950854325,-0.016224966323249608
15.10000000000033,-0.09329814,-0.8976084,0.21105114,-2.575019,0.13234173,1.6738856,0.7497925,0.039999504,0.04,-0.01043407900940263,0.016023870974601895,-0.001620354493780951,-0.016762983291865662,0.00024048341609392287,-0.03144049451091202,0.9994013436667527,-0.029688063874618018,-0.006573989395966264,-0.0165032058669715
15.116666666666998,-0.09437309,-0.8989106,0.2134778,-2.5775342,0.13386303,1.6750695,0.749376,0.039999496,0.04,-0.010741993504104208,0.01647637817568659,-0.0014579378470491733,-0.01625524669070756,0.00035867222837739077,-0.03170727892667542,0.9993914193161276,-0.029838394939984907,-0.00669074767913339,-0.01678377431317763
15.133333333333665,-0.09544934,-0.9002144,0.21590722,-2.5800526,0.13538612,1.6762547,0.7489591,0.039999492,0.04,-0.010235311070694308,0.01686795240612715,-0.0014810189850500421,-0.015742682057767396,0.00047412793889287097,-0.03196986936189207,0.9993814687665409,-0.029984249203309703,-0.006808474311182084,-0.01706661546116469
15.150000000000333,-0.096526675,-0.90151954,0.21833913,-2.5825732,0.13691087,1.6774414,0.7485417,0.03999949,0.04,-0.008805610590090218,0.016771978963758816,-0.0009245373612687402,-0.015227406239203975,0.0005871120145582165,-0.03222923820264613,0.9993714889620541,-0.030125812976020204,-0.00692685927451155,-0.017351687609340045
15.166666666667,-0.09760501,-0.9028257,0.22077323,-2.5850961,0.13843693,1.6786289,0.74812394,0.03999949,0.04,-0.009555313117548536,0.01740469761553065,-0.0011924109767580404,-0.014707684478360909,0.0007002843860680202,-0.032485445282500164,0.9993614808134296,-0.03026292314975003,-0.007046355379350632,-0.017639019946967746
15.183333333333668,-0.098684214,-0.9041332,0.22320928,-2.5876217,0.13996422,1.6798173,0.7477059,0.03999948,0.04,-0.009600307798929286,0.017701248342980036,-0.0015088695035414545,-0.014184327361797588,0.0008087540111868935,-0.03273754644464277,0.999351446580166,-0.030395509366602624,-0.007166972325112106,-0.01792857317707166
15.200000000000335,-0.09976413,-0.90544146,0.22564693,-2.590148,0.14149256,1.6810066,0.7472875,0.039999478,0.04,-0.006785529679342872,0.017457816795735104,-0.00016923296644044683,-0.01365894111607114,0.0009121686284205566,-0.03298649668856518,0.9993413883051403,-0.030523697335505095,-0.007288011542529093,-0.018220274670849326
15.216666666667003,-0.100844644,-0.9067505,0.22808589,-2.5926757,0.14302166,1.6821964,0.74686897,0.039999474,0.04,-0.007944073414689612,0.01810671982147294,-0.0007599883344644454,-0.013129664978613896,0.0010171468959037089,-0.03323187457399014,0.999331306183881,-0.03064734377274027,-0.007409923419685365,-0.018514152300558438
15.23333333333367,-0.10192562,-0.9080601,0.23052578,-2.595205,0.14455147,1.6833869,0.7464502,0.039999474,0.04,-0.008402522147266112,0.01849167832712051,-0.0007243461756401004,-0.012597516995569385,0.0011195199612005907,-0.03347177096583685,0.9993212026119926,-0.03076640376004468,-0.007532857678500551,-0.018810062865125612
15.250000000000338,-0.103006944,-0.90937,0.23296636,-2.5977352,0.14608172,1.6845777,0.7460313,0.039999474,0.04,-0.007002056026594872,0.018538196205120094,-0.0004318760767008101,-0.012064027830627527,0.0012160148884809152,-0.03370800599454446,0.9993110773053016,-0.030880887665503575,-0.007656650940098158,-0.019108041456139764
15.266666666667005,-0.10408844,-0.91068006,0.23540741,-2.6002657,0.14761229,1.6857687,0.7456123,0.03999947,0.04,-0.006719069759375529,0.018618770239064997,-0.0002175274588456233,-0.01152819740521635,0.0013101731365080804,-0.033939048890431145,0.9993009307070312,-0.030990804365430814,-0.007781282037380966,-0.019408028820555933
15.283333333333672,-0.105170004,-0.91199034,0.23784852,-2.6027966,0.14914292,1.6869597,0.74519336,0.039999463,0.04,-0.006112378881040215,0.019015269178870864,-0.0002506360431198118,-0.010990707021637458,0.0014006112837729873,-0.034167644800590855,0.9992907655323667,-0.031096081617605215,-0.007906665246770828,-0.019710004425249956
15.30000000000034,-0.10625153,-0.9133006,0.24028942,-2.605327,0.15067343,1.6881506,0.74477446,0.03999945,0.04,-0.005105210087474887,0.01906923653785253,0.00020592498706228923,-0.01045189871077664,0.0014875580634613333,-0.034391511367096034,0.999280583030083,-0.031196730333001122,-0.008032632343690789,-0.02001392548248672
15.316666666667007,-0.10733286,-0.91461056,0.24272993,-2.6078565,0.15220363,1.6893414,0.7443556,0.03999946,0.04,-0.004767169101072,0.01915360681394307,0.00040343474541071345,-0.009912042211258775,0.0015733681702011781,-0.03461096326652904,0.9992703809847762,-0.031292808276296914,-0.008159135783009764,-0.02031980167220281
15.333333333333675,-0.10841384,-0.9159202,0.24516954,-2.6103852,0.15373333,1.6905318,0.7439369,0.039999455,0.04,-0.004356306958364087,0.019511358213647467,0.00043793735378105936,-0.00937064310917137,0.0016575766626568122,-0.034823452624904924,0.9992601633488358,-0.03138424244863211,-0.008286200023630627,-0.02062750976613067
15.350000000000342,-0.10949436,-0.9172292,0.24760814,-2.6129127,0.15526244,1.6917218,0.74351835,0.03999945,0.04,-0.004189155415157408,0.0194879078986826,0.0005774985138096156,-0.008828189284497131,0.0017394747648210862,-0.03503207142665041,0.9992499287029166,-0.031471054639114655,-0.008413898920755477,-0.020937024909695488
15.36666666666701,-0.11057427,-0.9185375,0.2500453,-2.615439,0.15679069,1.6929108,0.7431,0.039999444,0.04,-0.004144464753785826,0.019925999880049394,0.00024466043850868147,-0.008285349421481061,0.0018182790467392712,-0.03523701648107197,0.9992396767413981,-0.03155320537898546,-0.008542438365275526,-0.02124830352835379
15.383333333333677,-0.11165346,-0.9198448,0.25248083,-2.6179643,0.15831785,1.6940991,0.742682,0.039999444,0.04,-0.004693745482886591,0.020226630007816326,0.0003733639275749212,-0.007742443874973248,0.001891520959965351,-0.035435973186600675,0.9992294077678487,-0.03163060855282061,-0.008671972031202393,-0.02156135792529223
15.400000000000345,-0.11273177,-0.92115116,0.25491425,-2.620487,0.1598438,1.6952865,0.7422643,0.03999944,0.04,-0.0016653244295561365,0.019928798461715802,0.001341167811008681,-0.00720008680572087,0.0019593886889636147,-0.035629216085449986,0.999219127233247,-0.03170339313449967,-0.00880167255706532,-0.021876041579443176
15.416666666667012,-0.11380911,-0.9224562,0.2573455,-2.6230075,0.16136834,1.6964728,0.7418469,0.039999437,0.04,-0.002822053043849415,0.02022748730754753,0.0008643550079678874,-0.006657966859361526,0.0020265937730608308,-0.035817689251965934,0.9992088291406149,-0.03177153388034098,-0.008932115832381685,-0.02219240205765364
15.43333333333368,-0.114885315,-0.92376,0.25977415,-2.6255255,0.16289125,1.6976577,0.74143004,0.039999433,0.04,-0.001808100966149695,0.020355099729277293,0.0010784516018214063,-0.006116323487017345,0.0020888334542128323,-0.036000372197218244,0.9991985174168424,-0.03183499413688407,-0.009063063064910174,-0.022510371568904435
15.450000000000347,-0.11596028,-0.9250621,0.26219982,-2.6280398,0.1644124,1.6988413,0.74101365,0.039999425,0.04,-0.0004242083728289714,0.020282481521929907,0.0018155085846682795,-0.005575788497993731,0.0021484018721346643,-0.03617862551164244,0.9991881949660072,-0.031893829804677386,-0.009194220035845817,-0.022829826519168546
15.466666666667015,-0.117033854,-0.9263628,0.26462233,-2.6305516,0.16593157,1.7000232,0.7405978,0.03999942,0.04,-0.0018038368734707433,0.020758346773408487,0.0007877148753276941,-0.005035866782285065,0.0022069997039132205,-0.03634988746597623,0.9991778575521729,-0.031947960404682445,-0.009326153786124834,-0.023150802556025585
15.483333333333682,-0.1181059,-0.9276615,0.26704133,-2.6330595,0.16744852,1.7012036,0.7401825,0.03999941,0.04,-8.212445443689376e-05,0.020588951001224154,0.0019789875026710035,-0.004498357369147199,0.0022584516328233717,-0.03651812809146063,0.9991675077611082,-0.03199747591747129,-0.009458363367246491,-0.02347322584946085
15.50000000000035,-0.11917629,-0.9289582,0.26945657,-2.6355636,0.16896318,1.7023821,0.7397679,0.03999941,0.04,-1.791879864487811e-05,0.020660177264286705,0.0016078105780747975,-0.003962105447359492,0.0023093794393088674,-0.03667667818828574,0.9991571451242099,-0.032042360187393655,-0.00959103114233129,-0.02379702969881832
15.516666666667017,-0.12024491,-0.9302527,0.27186778,-2.6380637,0.17047529,1.7035587,0.739354,0.039999407,0.04,0.00032087788706114395,0.02080417258547851,0.001830539055935887,-0.0034281027669253086,0.0023562328617528494,-0.03683172402311602,0.9991467690836996,-0.03208261881617787,-0.009724131312168266,-0.02412220283729643
15.533333333333685,-0.12131159,-0.9315449,0.27427456,-2.6405592,0.17198466,1.7047329,0.7389408,0.039999396,0.04,0.0011253766154961653,0.020852689315012385,0.0018050208148157054,-0.0028962523751001213,0.0023993105870288717,-0.036982143398938225,0.9991363786669298,-0.03211832310721464,-0.009857662923376538,-0.024448652862742358
15.550000000000352,-0.12237623,-0.9328346,0.27667665,-2.6430497,0.17349117,1.7059052,0.7385285,0.039999396,0.04,0.0019987357822826013,0.020763249932687078,0.0025378201492287644,-0.0023667337338679467,0.002437671194612301,-0.037124931001273176,0.999125981184171,-0.03214938557339381,-0.009991242247720413,-0.024776315472002
15.56666666666702,-0.1234387,-0.9341218,0.27907383,-2.645534,0.17499459,1.707075,0.7381169,0.0399994,0.04,0.003917290149857422,0.020416269279202592,0.0028798015500264285,-0.0018406740748151094,0.0024754724632354425,-0.03726089622318997,0.9991155702836898,-0.03217607783113718,-0.010124589726268176,-0.025105177055272716
15.583333333333687,-0.12449886,-0.935406,0.2814658,-2.648014,0.17649478,1.7082419,0.73770624,0.039999396,0.04,0.0004623845550444372,0.021329817525428396,0.0014595919393123324,-0.0013154279797230224,0.002514741735081677,-0.03739183115750745,0.9991051426731138,-0.03219813989867578,-0.010258963971136658,-0.02543515931621287
15.600000000000355,-0.1255566,-0.9366875,0.2838522,-2.6504881,0.17799152,1.7094067,0.7372966,0.039999384,0.04,0.003835711932875796,0.020846278853775546,0.003061499481726848,-0.000795029428981792,0.002543723430956879,-0.037518269861034056,0.9990947084417521,-0.03221567387144386,-0.010393067503289988,-0.025766219524239468
15.616666666667022,-0.12661175,-0.9379658,0.2862328,-2.652956,0.17948455,1.7105683,0.7368879,0.03999938,0.04,0.003621191167324511,0.02086821832793795,0.0025057570228748105,-0.00027807229937868577,0.0025733587556444754,-0.03763724871661192,0.9990842562953864,-0.03222880531631288,-0.010527531704205109,-0.026098352568594472
15.63333333333369,-0.12766428,-0.9392408,0.2886073,-2.6554177,0.18097381,1.7117268,0.7364802,0.039999373,0.04,0.0037895641986418482,0.02099825347558759,0.0026378415565853075,0.00023605225864175433,0.0025989181126412214,-0.037748502524363514,0.9990737918654804,-0.032237459583137375,-0.010662294099064567,-0.026431422430532592
15.650000000000357,-0.12871394,-0.9405123,0.29097542,-2.6578727,0.18245903,1.7128822,0.73607355,0.039999377,0.04,0.004543106709031797,0.020849181153126395,0.002977710340101858,0.00074537868864211,0.002619832482832374,-0.037852586492522725,0.9990633116414874,-0.032241762169248935,-0.010797209439191,-0.026765432417433718
15.666666666667025,-0.12976067,-0.94178027,0.29333684,-2.6603212,0.18394014,1.7140343,0.7356683,0.039999377,0.04,0.004302433535041672,0.02106687900791937,0.002755981592739154,0.001251364685297499,0.0026371603285207795,-0.03795066691183831,0.9990528233116798,-0.03224150247174575,-0.010932417804071502,-0.027100258158974173
15.683333333333692,-0.13080436,-0.9430447,0.29569128,-2.6627624,0.18541686,1.7151833,0.7352641,0.039999366,0.04,0.006076219100870084,0.020818734495531288,0.0033919296771323104,0.0017509890128301932,0.002649083512741998,-0.03804432463381528,0.9990423216419808,-0.0322369679911998,-0.011067429514509012,-0.027435915637654355
15.70000000000036,-0.13184482,-0.9443052,0.29803842,-2.6651962,0.18688905,1.7163289,0.7348612,0.039999362,0.04,0.005790016045215118,0.0208439236975555,0.003393430046561008,0.002246662671930586,0.0026607730265800072,-0.03812912723419577,0.9990318073867526,-0.03222812439671813,-0.011202503535691657,-0.027772283700858262
15.716666666667027,-0.132882,-0.9455617,0.30037802,-2.6676223,0.18835653,1.7174708,0.7344595,0.039999366,0.04,0.006310471447990018,0.02086129579056961,0.003287031380683203,0.002737190490092127,0.0026688655025496333,-0.03820629300734893,0.999021279520726,-0.03221499693142861,-0.011337646737382625,-0.028109336597260393
15.733333333333695,-0.13391572,-0.94681394,0.3027098,-2.6700397,0.18981917,1.7186087,0.73405915,0.03999936,0.04,0.008076373741983112,0.020335057946019308,0.003966410313593904,0.0032221716280090417,0.002672153680401218,-0.03827847709262443,0.9990107390046041,-0.03219773903107041,-0.011472539737919642,-0.02844696445534864
15.750000000000362,-0.13494591,-0.9480618,0.30503356,-2.6724489,0.19127668,1.7197425,0.73366034,0.03999935,0.04,0.00691514002040261,0.020732503894271836,0.0033218087428732446,0.0037029435078578983,0.0026760013335724447,-0.03834521306949244,0.9990001824216896,-0.032176211708742526,-0.011607657255733303,-0.028785225629452824
15.76666666666703,-0.13597238,-0.94930524,0.30734885,-2.6748493,0.19272904,1.7208723,0.73326284,0.039999347,0.04,0.008276588900235637,0.020447218782237986,0.003923373178738032,0.0041770017053307,0.002672862489881689,-0.03840123790726857,0.9989896135587014,-0.03215061115287832,-0.011742607018439176,-0.029123897142097604
15.783333333333697,-0.13699505,-0.950544,0.30965546,-2.6772406,0.19417596,1.721998,0.73286694,0.039999343,0.04,0.008670129658616688,0.02042245858004943,0.004120686653497074,0.0046457399186599045,0.002668447550575173,-0.03845203266345153,0.9989790335698904,-0.032120870943449585,-0.0118773348408507,-0.029463011636292568
15.800000000000365,-0.13801374,-0.951778,0.31195325,-2.6796231,0.19561732,1.7231195,0.73247236,0.03999935,0.04,0.0082780688809736,0.020377042969976777,0.0038651938234046668,0.005108425157048365,0.002661773064841347,-0.03849370353740249,0.9989684328883014,-0.03208721611781449,-0.012012056366365228,-0.029802536072478715
15.816666666667032,-0.13902844,-0.9530071,0.31424174,-2.6819963,0.1970529,1.7242365,0.73207927,0.039999332,0.04,0.009102138655192604,0.020483287611011702,0.003990982651758124,0.005565094115114223,0.0026505465773771775,-0.03853400517600064,0.9989578183521342,-0.03204953474313422,-0.012146734687284657,-0.030142350809613003
15.8333333333337,-0.1400389,-0.9542311,0.31652075,-2.6843593,0.19848257,1.725349,0.7316881,0.039999332,0.04,0.010619546797729917,0.019790764030830355,0.00463200957250276,0.006015219048815605,0.0026353457389375473,-0.038562040489422536,0.9989471940199266,-0.03200787767782705,-0.012280989400632226,-0.030482398619824276
15.850000000000367,-0.14104508,-0.95544994,0.31879008,-2.6867125,0.19990619,1.7264563,0.7312987,0.039999325,0.04,0.009821422949318759,0.020090576397063797,0.003881509836345387,0.006458204037000511,0.0026184075431219117,-0.03858420689533691,0.9989365539164854,-0.03196224619734992,-0.012415328784899485,-0.030822648793367033
15.866666666667035,-0.14204688,-0.95666337,0.32104945,-2.6890554,0.2013235,1.7275589,0.73091054,0.039999325,0.04,0.010632873286042788,0.01990023445175848,0.004525906376273703,0.006893645329250046,0.00259652758437829,-0.03859794636945582,0.9989258897835861,-0.03191302621912833,-0.012549468868024598,-0.031163060002807472
15.883333333333702,-0.14304413,-0.9578713,0.32329863,-2.6913872,0.20273438,1.7286568,0.73052424,0.039999317,0.04,0.012365898751176552,0.01931225147185356,0.005259719532513252,0.007323841717186386,0.002571401648612137,-0.038606733744148414,0.9989152130747472,-0.0318601162755469,-0.012682877515838907,-0.031503566411746835
15.90000000000037,-0.14403675,-0.9590737,0.32553706,-2.6937082,0.20413865,1.7297494,0.73013985,0.039999314,0.04,0.011623256546844374,0.019804717093435675,0.004544327228317435,0.007747387228809202,0.0025463569148123297,-0.03860521265021069,0.9989045270131734,-0.031803363367831135,-0.012816066924533746,-0.031844001313715044
15.916666666667037,-0.14502463,-0.96027035,0.32776484,-2.6960177,0.20553622,1.7308366,0.72975737,0.03999931,0.04,0.012580849734988853,0.019102178614593956,0.004845911058226626,0.008162005125197989,0.0025184995709043242,-0.038599793165447774,0.9988938234712822,-0.03174301386111797,-0.012948919444238578,-0.0321844059625526
15.933333333333705,-0.14600763,-0.96146107,0.32998154,-2.698316,0.20692676,1.7319183,0.72937685,0.03999931,0.04,0.012325937186519198,0.019398459455755024,0.004721518621675358,0.008569774660314857,0.002487290070289798,-0.038583648005290294,0.9988831034025577,-0.0316790282183364,-0.013081570834328258,-0.03252472002221982
15.950000000000372,-0.14698558,-0.96264565,0.33218694,-2.7006025,0.20831035,1.7329947,0.72899824,0.039999317,0.04,0.013481308095464328,0.018750206171952444,0.0053181656314738035,0.008968594720964009,0.0024513578035726055,-0.03856054537839662,0.9988723694269683,-0.03161160876556477,-0.013213702806541886,-0.03286478122165673
15.96666666666704,-0.14795844,-0.9638241,0.33438072,-2.702877,0.20968671,1.7340653,0.72862154,0.03999931,0.04,0.013584272157141086,0.018896719571764864,0.005076507824308685,0.00936050244056961,0.0024143251961070353,-0.03853096039666605,0.9988616204073887,-0.031540753841671466,-0.013345464507056688,-0.033204558441813255
15.983333333333707,-0.14892608,-0.9649962,0.3365627,-2.7051394,0.21105564,1.7351303,0.72824687,0.0399993,0.04,0.014009882851628852,0.018657133062083275,0.005339692027739318,0.009744290516348854,0.0023740828812021525,-0.03849654432762509,0.9988508555158113,-0.03146653907941208,-0.01347674375870158,-0.033544041667006655
16.000000000000373,-0.14988841,-0.96616197,0.33873263,-2.707389,0.21241702,1.7361892,0.7278742,0.0399993,0.04,0.014771915558364768,0.01834458009742357,0.005326707376385187,0.010120068984152094,0.002330521507350948,-0.03845043253834311,0.9988400744473401,-0.03138905440110975,-0.013607549825564735,-0.03388314521382349
16.01666666666704,-0.15084527,-0.96732104,0.34089017,-2.7096262,0.2137707,1.7372425,0.7275038,0.0399993,0.04,0.014819419404221712,0.01828056590427729,0.005637135251590486,0.010487668144593938,0.002284924490487082,-0.038397035065310794,0.9988292824330465,-0.031308279632782716,-0.01373781255551225,-0.03422175750762174
16.033333333333704,-0.15179658,-0.96847343,0.34303525,-2.7118502,0.2151165,1.7382895,0.7271355,0.03999929,0.04,0.01558193285320364,0.017870574412071072,0.005591939600568807,0.01084605098264537,0.0022367995674563296,-0.038338173706036205,0.9988184727016229,-0.031224400425348648,-0.013867525704832056,-0.03455990652331786
16.05000000000037,-0.15274224,-0.969619,0.34516752,-2.714061,0.21645437,1.73933,0.7267693,0.03999929,0.04,0.015554579716647865,0.017797702034788587,0.0054523722704757915,0.011196351904860694,0.002187069030047291,-0.03826835096416091,0.9988076483473844,-0.031137427775187045,-0.013996860811663738,-0.034897422279180634
16.066666666667036,-0.15368217,-0.97075754,0.3472867,-2.7162588,0.21778403,1.7403644,0.7264054,0.03999928,0.04,0.015706816454064132,0.01782559000816919,0.005655733059684032,0.01153768918980127,0.0021323494067652035,-0.03819521092370215,0.9987968098699471,-0.031047389787116096,-0.01412573078115532,-0.035234300204798175
16.0833333333337,-0.15461618,-0.9718889,0.3493926,-2.7184424,0.21910536,1.7413925,0.72604376,0.039999273,0.04,0.017181309457559024,0.017090255895269024,0.006237709749123965,0.011869470259982973,0.0020737259847290745,-0.03811241743179343,0.9987859589846318,-0.030954468972807406,-0.014253821711636225,-0.03557045898458122
16.100000000000367,-0.15554424,-0.97301304,0.351485,-2.7206125,0.22041823,1.742414,0.7256846,0.03999927,0.04,0.01648102913982541,0.017258817861703912,0.0057332062433523845,0.012192922703263444,0.0020158044618415333,-0.03802319498453961,0.9987750951359011,-0.030858578205574364,-0.014381460856866398,-0.035905864020024866
16.116666666667033,-0.15646617,-0.97412974,0.3535637,-2.7227678,0.22172253,1.7434286,0.72532773,0.03999927,0.04,0.018289502452728534,0.016445366555589702,0.006320790391889375,0.012506191701011518,0.001952686188604849,-0.03792415091109991,0.9987642181093703,-0.03076001505116627,-0.014508339168209547,-0.03624039449303138
16.1333333333337,-0.15738201,-0.97523904,0.3556283,-2.7249088,0.22301805,1.744436,0.7249731,0.039999258,0.04,0.017692257544599244,0.016791022638396047,0.005837273171027668,0.012810936147314256,0.0018870632010933377,-0.037819700274505944,0.9987533267922026,-0.03065875485871166,-0.01463475143529428,-0.03657399379953178
16.150000000000365,-0.15829152,-0.9763407,0.3576788,-2.7270348,0.22430465,1.7454369,0.7246211,0.03999926,0.04,0.018934459258090897,0.016029703237024906,0.006768877119811556,0.01310626241442413,0.0018187552416770378,-0.03770688099685433,0.9987424277254823,-0.03055485032883242,-0.014760146579703435,-0.03690666952378721
16.16666666666703,-0.15919468,-0.9774346,0.3597148,-2.7291462,0.2255823,1.7464309,0.72427154,0.039999254,0.04,0.018086796839233976,0.016223863181746845,0.0062133964535471264,0.01339219456873532,0.0017502061456944884,-0.0375861127277944,0.9987315195200791,-0.03044836530026323,-0.014884992911918705,-0.0372382324186802
16.183333333333696,-0.16009136,-0.97852063,0.36173618,-2.731243,0.22685069,1.7474174,0.72392434,0.039999247,0.04,0.018482955936760526,0.016004789470874803,0.006002598485066457,0.01366827212399538,0.001677793743593739,-0.037459436435576324,0.9987205942484253,-0.030339446291595067,-0.015009396829089215,-0.03756874538254503
16.20000000000036,-0.16098148,-0.9795987,0.36374265,-2.7333243,0.22810978,1.748397,0.72357976,0.039999247,0.04,0.019375237620300467,0.015565665769973203,0.006640926111423084,0.013935040000746551,0.0016014403439715968,-0.03732185407181003,0.9987096632288207,-0.030228081662158218,-0.015133004019723135,-0.03789807174172053
16.216666666667027,-0.16186494,-0.98066884,0.36573407,-2.73539,0.22935945,1.7493691,0.7232378,0.03999924,0.04,0.020233298526628474,0.015089588726735492,0.006695152406277494,0.014191038351505373,0.0015217117647800954,-0.03718173956351584,0.9986987255246703,-0.03011441797259172,-0.015255714395603437,-0.03822617746847192
16.233333333333693,-0.1627416,-0.98173076,0.3677102,-2.7374384,0.23059954,1.7503338,0.7228985,0.039999235,0.04,0.022423032816920596,0.014144236346458339,0.0076610490057804626,0.014437568411512409,0.0014418076130092508,-0.03703005505233059,0.9986877846233003,-0.029998734689126647,-0.015377018783652302,-0.0385529772466812
16.25000000000036,-0.16361144,-0.9827842,0.36967084,-2.7394714,0.23182988,1.7512909,0.7225618,0.03999923,0.04,0.01964225278527909,0.01495586444124064,0.006496349478757324,0.014675921078347223,0.0013649125693809133,-0.036872255442698204,0.9986768344791231,-0.029880864021127523,-0.01549781908458663,-0.038878423884340846
16.266666666667025,-0.16447432,-0.98382926,0.37161574,-2.741488,0.23305048,1.7522403,0.7222278,0.039999224,0.04,0.02132935264789193,0.014149526545736979,0.006989733494200401,0.014903444220230797,0.0012824033387897268,-0.036707824342168974,0.9986658832166668,-0.029760939305994594,-0.015617715089583383,-0.039202387249766005
16.28333333333369,-0.16533017,-0.98486567,0.37354478,-2.7434883,0.23426099,1.7531819,0.7218966,0.039999217,0.04,0.020858560633318923,0.014206390755178155,0.006831014194297325,0.015121693915053533,0.0011996055406429187,-0.03653657694591317,0.9986549232223552,-0.02963904379808084,-0.015736927360918095,-0.03952493546768175
16.300000000000356,-0.16617888,-0.98589355,0.3754576,-2.7454715,0.23546144,1.7541157,0.72156817,0.039999217,0.04,0.02266459586708347,0.013461751580007286,0.007435903125041499,0.015329311486392687,0.0011118521310062301,-0.036357365880366366,0.9986439672648502,-0.02951529442445469,-0.015854960695363202,-0.03984588136692647
16.31666666666702,-0.16702037,-0.9869127,0.3773542,-2.7474382,0.23665169,1.7550414,0.7212425,0.03999921,0.04,0.0213598409863458,0.013585303440749597,0.006730581953173775,0.015527485969905839,0.001025547135140005,-0.03617044465008454,0.9986330056712374,-0.029389748133967317,-0.015972358849097573,-0.040165239218110944
16.333333333333687,-0.16785458,-0.98792315,0.3792343,-2.7493875,0.23783165,1.7559592,0.72091967,0.039999206,0.04,0.023073730410327897,0.012882063353936157,0.0076249328688993145,0.01571546196137316,0.0009341459630924157,-0.035973969691058816,0.9986220494600179,-0.029262517522385734,-0.01608854674297655,-0.040482910767692185
16.350000000000353,-0.16868144,-0.9889246,0.38109776,-2.7513192,0.23900115,1.756869,0.7205996,0.0399992,0.04,0.023399012194436075,0.012587799693797308,0.007726061193014111,0.015893529603303824,0.0008448181653561426,-0.03577434950641806,0.9986110962135262,-0.029133776047444312,-0.016203541704157387,-0.04079885842371536
16.36666666666702,-0.16950078,-0.9899171,0.38294435,-2.7532344,0.24016005,1.7577702,0.7202826,0.039999202,0.04,0.02138007404437481,0.013010898019821804,0.006385200189984452,0.016062549434186717,0.000755003899112365,-0.035565785950327514,0.9986001418485237,-0.029003292486522305,-0.01631821428944777,-0.04111303452012675
16.383333333333685,-0.17031264,-0.9909004,0.38477385,-2.7551312,0.2413083,1.7586633,0.71996826,0.03999919,0.04,0.024583811924761,0.01178576339087578,0.008190905917326852,0.016218892892289317,0.0006572478683114225,-0.03535057374542906,0.9985891957481392,-0.02887157670636449,-0.01643148631030029,-0.041425311721306264
16.40000000000035,-0.17111686,-0.9918744,0.3865862,-2.7570107,0.24244577,1.759548,0.71965706,0.039999187,0.04,0.022927018526686105,0.012012923757842575,0.007197157596694481,0.016367724604049613,0.000561634587219216,-0.03512784914858172,0.998578255973859,-0.02873837172867094,-0.016544029069489437,-0.041735689628169335
16.416666666667016,-0.17191333,-0.9928392,0.3883811,-2.758872,0.2435723,1.7604241,0.7193488,0.039999176,0.04,0.02434430532880505,0.011437253735790964,0.007718478771123749,0.01650492064585395,0.0004632262126335676,-0.03489891917474178,0.9985673254797558,-0.02860396078562141,-0.01665542091536465,-0.04204410619473302
16.43333333333368,-0.17270206,-0.9937944,0.39015839,-2.7607148,0.2446878,1.7612917,0.7190436,0.03999919,0.04,0.024780033306903704,0.011021472509292751,0.008038996734294201,0.01663289118465461,0.0003640940534195697,-0.03466091406258008,0.9985564096259439,-0.02846835651500757,-0.016765705465521183,-0.04235044973222781
16.450000000000347,-0.17348294,-0.9947402,0.39191803,-2.7625399,0.24579225,1.7621508,0.71874136,0.039999187,0.04,0.023566770790450775,0.011161738758258544,0.007283534389213031,0.01675050222831339,0.00026319233585913454,-0.03441664721716823,0.9985455028439504,-0.028331635380249458,-0.016875188309455988,-0.04265472079762537
16.466666666667013,-0.17425591,-0.9956763,0.3936598,-2.7643456,0.24688546,1.7630011,0.71844226,0.03999918,0.04,0.02605507506507898,0.010094326433979228,0.008467408308110436,0.01685795630446184,0.00015975356419318382,-0.0341662171907245,0.9985346149356605,-0.02819397783110285,-0.01698327852071009,-0.042956846253416094
16.48333333333368,-0.17502087,-0.9966027,0.39538357,-2.7661328,0.24796739,1.7638427,0.71814615,0.039999172,0.04,0.025044266514218094,0.010187516318288514,0.007924233266765057,0.016955963371086298,5.699047119983591e-05,-0.03390923306865299,0.9985237429204666,-0.0280554614356906,-0.017090278928405363,-0.04325677142230695
16.500000000000345,-0.17577778,-0.9975194,0.39708918,-2.7679014,0.24903786,1.7646753,0.7178532,0.03999917,0.04,0.02494440520659502,0.010020301026175682,0.007662344628389661,0.01704447574797957,-4.691177959872256e-05,-0.03364833011191625,0.9985128862742275,-0.027916073083426935,-0.01719640935099324,-0.04355447523901112
16.51666666666701,-0.17652656,-0.99842614,0.39877635,-2.769651,0.25009677,1.7654988,0.71756345,0.039999165,0.04,0.025761397443258005,0.00959736192003846,0.00804470189343931,0.017122650609589795,-0.00015438817232567292,-0.03337678115182439,0.998502053359699,-0.027775887444593014,-0.01730147265758876,-0.043849841014635474
16.533333333333676,-0.17726718,-0.9993232,0.40044507,-2.7713814,0.2511442,1.7663134,0.7172769,0.03999916,0.04,0.02602645660947367,0.00916614296549434,0.008203703081455238,0.017190615192285617,-0.000263077540623248,-0.033099778972064495,0.9984912489415444,-0.027635021675726144,-0.01740525592932636,-0.044142818557175646
16.55000000000034,-0.17799951,-1.00021,0.40209514,-2.7730923,0.25217995,1.767119,0.7169936,0.03999915,0.04,0.02643284869205953,0.008712109284292335,0.008403013682278804,0.017248675042668075,-0.0003718521653582399,-0.03281669510119336,0.9984804733484299,-0.027493588730521122,-0.01750786291094345,-0.044433339475037026
16.566666666667007,-0.17872347,-1.0010871,0.40372643,-2.7747836,0.2532039,1.7679154,0.7167135,0.03999915,0.04,0.026762787696177348,0.008450859804093325,0.008196228626400348,0.017297010758722826,-0.00048171985145759044,-0.032527281952090446,0.9984697263867146,-0.02735170290451551,-0.017609227033660947,-0.04472141501271515
16.583333333333673,-0.17943911,-1.0019535,0.40533876,-2.7764556,0.25421602,1.7687025,0.7164366,0.039999153,0.04,0.02584209051248454,0.008450178462759972,0.00818220825433702,0.017336313824568163,-0.0005902569287703288,-0.03223076934263766,0.9984590107770862,-0.027209348844266512,-0.017709766557804926,-0.04500688060709492
16.60000000000034,-0.18014637,-1.00281,0.40693206,-2.7781081,0.25521624,1.7694806,0.716163,0.039999146,0.04,0.02695394956770958,0.007998520999930037,0.008407563301160437,0.017364874660914933,-0.0007039893735177605,-0.0319287804050034,0.9984483335876141,-0.02706663828382532,-0.01780894757925458,-0.04528977405826116
16.616666666667005,-0.18084508,-1.0036561,0.40850627,-2.77974,0.25620437,1.7702491,0.71589255,0.03999914,0.04,0.027988163313152903,0.007132022210709632,0.008758216538407027,0.01738381283700024,-0.0008167641409923473,-0.03162380936974011,0.9984376891322455,-0.026923870591686678,-0.0179067812243415,-0.0455700921527194
16.63333333333367,-0.18153526,-1.0044919,0.41006112,-2.7813518,0.2571804,1.7710081,0.71562546,0.039999135,0.04,0.027739871072984812,0.00711508743892475,0.00861677842458608,0.01739521450477787,-0.0009289453546248438,-0.03131053250454933,0.9984270880096859,-0.026780944639767313,-0.01800335351581606,-0.04584768472763986
16.650000000000336,-0.18221684,-1.0053176,0.41159648,-2.7829437,0.25814426,1.7717577,0.7153617,0.039999127,0.04,0.027293674838024806,0.007132605256870983,0.008337102943412056,0.017397149962346623,-0.0010408919958321897,-0.030992864831578038,0.9984165328304709,-0.026637862932959642,-0.01809870448404165,-0.04612253381098339
16.666666666667002,-0.18288976,-1.0061328,0.41311252,-2.784516,0.25909594,1.7724983,0.7151013,0.039999124,0.04,0.02678226196657363,0.006834062160876453,0.008400517997220192,0.01738892837612586,-0.0011549119176758951,-0.030668653141979356,0.9984060194402552,-0.026494754029922095,-0.018192895805454103,-0.04639468608117267
16.683333333333668,-0.18355398,-1.0069371,0.41460887,-2.7860684,0.26003525,1.7732294,0.7148443,0.039999127,0.04,0.02709964016949229,0.006525264720258495,0.008549574803318194,0.017371523913036657,-0.0012688971356011325,-0.03033803696815931,0.9983955531626486,-0.026351673138798916,-0.01828613948290997,-0.046663967369334564
16.700000000000333,-0.18420951,-1.0077312,0.41608557,-2.7875996,0.2609623,1.7739507,0.71459067,0.03999912,0.04,0.029518855341681416,0.005384784784268071,0.009160980229805382,0.017344409268503513,-0.0013863887656425586,-0.030002379892619453,0.9983851446935432,-0.026208835808831064,-0.01837769471071757,-0.04693037521603697
16.716666666667,-0.18485627,-1.0085144,0.41754243,-2.7891104,0.26187694,1.7746617,0.7143405,0.039999124,0.04,0.027414426228911104,0.00582130124074931,0.008009938075614897,0.01730896314885201,-0.0015006744624243354,-0.02966088975184028,0.998374784838789,-0.02606614870190834,-0.018468588364427198,-0.047193814571160154
16.733333333333665,-0.18549418,-1.0092869,0.41897944,-2.7906008,0.26277885,1.7753631,0.7140937,0.039999124,0.04,0.028185203747721488,0.005498384697943948,0.008801968475280475,0.017263704158413773,-0.0016216814995064222,-0.029314176658326176,0.9983644737410282,-0.025923853822892657,-0.018558239369762627,-0.04745443210347809
16.75000000000033,-0.18612325,-1.0100486,0.42039636,-2.7920704,0.26366833,1.7760547,0.7138503,0.03999912,0.04,0.028582082117289964,0.004963106377875448,0.008835922492278492,0.017210573070337087,-0.0017416298467963706,-0.028961406748570007,0.9983542291291122,-0.025781901579635096,-0.01864662172381651,-0.04771195059147365
16.766666666666996,-0.18674344,-1.0107999,0.42179325,-2.793519,0.26454526,1.7767365,0.71361035,0.039999112,0.04,0.02914080540752373,0.004534949391810095,0.008910413156515418,0.017148263019033272,-0.001863186410757063,-0.02860859729550519,0.9983440489811606,-0.02564045879816627,-0.018733571546087194,-0.04796644695669112
16.783333333333662,-0.18735467,-1.0115403,0.42317006,-2.794947,0.26540953,1.7774086,0.7133738,0.039999112,0.04,0.02857022745004212,0.004426346901659217,0.008909322016936727,0.017078021135401075,-0.001983520007063512,-0.02824681844200421,0.9983339321700989,-0.025499604922417075,-0.01881925352290496,-0.04821789837217758
16.800000000000328,-0.18795696,-1.0122699,0.42452657,-2.7963536,0.2662612,1.7780707,0.7131408,0.03999911,0.04,0.029312170257633774,0.003917924400959061,0.009039436660596145,0.016999897934400668,-0.0021040878013794603,-0.027881120995153726,0.9983238910598206,-0.025359310924844287,-0.01890359585741745,-0.04846615264549055
16.816666666666993,-0.18855025,-1.0129884,0.42586282,-2.7977393,0.2671001,1.778723,0.71291137,0.039999105,0.04,0.028915957500030842,0.0038017117573507786,0.009022997104279895,0.01691302555875814,-0.0022241064245924966,-0.02751274607237439,0.9983139225730623,-0.025219668112949768,-0.01898665506103794,-0.048711264268665296
16.83333333333366,-0.18913452,-1.013696,0.42717874,-2.7991037,0.26792622,1.7793657,0.71268535,0.0399991,0.04,0.029266194880328555,0.0033980110538345265,0.009306417349752572,0.016817817158681924,-0.0023442628259163906,-0.02713790908939217,0.9983040294276702,-0.025080867172513382,-0.019068315477515425,-0.04895318452564811
16.850000000000325,-0.18970974,-1.0143926,0.42847422,-2.8004477,0.2687395,1.7799982,0.71246296,0.03999909,0.04,0.028254899993096494,0.0036314490012567813,0.008395384432247077,0.016715517869942825,-0.002463968418454636,-0.02676172912535564,0.9982942119183068,-0.024942722200877374,-0.019149023554218766,-0.04919188913364207
16.86666666666699,-0.19027588,-1.0150781,0.42974934,-2.80177,0.26954004,1.7806206,0.712244,0.03999909,0.04,0.029818501706402323,0.002457843336406418,0.009314894946377272,0.016603970503353223,-0.002587324997060124,-0.026378351899021303,0.9982844751978374,-0.024805623480312025,-0.019228394642877737,-0.0494272845925108
16.883333333333656,-0.19083291,-1.0157523,0.4310039,-2.8030715,0.27032775,1.781233,0.7120284,0.039999086,0.04,0.028430699684900418,0.002941296717884345,0.008686574016292248,0.016486152191498883,-0.0027102590431622234,-0.02599230765804459,0.998274819889818,-0.024669462585734166,-0.01930680874975979,-0.04965932667266789
16.900000000000322,-0.1913809,-1.0164163,0.4322379,-2.8043513,0.2711025,1.7818354,0.71181643,0.039999086,0.04,0.03081221962395464,0.002187570261835692,0.009522564731945238,0.016360661434339882,-0.0028367522266887213,-0.02560236405722975,0.9982652600442431,-0.024534289505337398,-0.019383286241762252,-0.04988814931161233
16.916666666666988,-0.19191968,-1.0170691,0.43345132,-2.8056095,0.27186438,1.7824278,0.71160793,0.039999083,0.04,0.02992941487245382,0.0016924617126268249,0.009324343819261394,0.01622764229967203,-0.002957740419734879,-0.025207708226965476,0.998255791117558,-0.024400340777790224,-0.019458407826325335,-0.050113563384084306
16.933333333333653,-0.19244947,-1.0177106,0.4346441,-2.8068461,0.2726134,1.7830104,0.71140295,0.039999083,0.04,0.029594820991452053,0.0018282820805293198,0.009475331529795739,0.01608912795682799,-0.0030774339705148604,-0.024810252512496953,0.9982464218351841,-0.024267496982632253,-0.019532163980799395,-0.050335518808064424
16.95000000000032,-0.19297007,-1.0183411,0.43581626,-2.8080618,0.2733494,1.7835827,0.7112015,0.039999086,0.04,0.02901370019656735,0.0017994744717308997,0.00869642772394208,0.015943214962239338,-0.0031971700026868534,-0.024410917914337048,0.998237142954193,-0.02413583335990743,-0.0196048466232777,-0.05055410926473548
16.966666666666985,-0.19348142,-1.0189606,0.43696782,-2.8092558,0.27407256,1.784145,0.7110037,0.039999083,0.04,0.030199862520929877,0.0008772915445598439,0.009422293714256291,0.0157900887510425,-0.0033187060488278144,-0.024007545654106503,0.9982279687181854,-0.02400545954537998,-0.01967598766751304,-0.05076924157487959
16.98333333333365,-0.19398361,-1.0195689,0.43809873,-2.8104284,0.27478272,1.784697,0.71080947,0.039999075,0.04,0.029586741150056106,0.0010026744806934662,0.009092774381636026,0.01563084536470361,-0.003438309964200935,-0.023604138287451545,0.9982188941827672,-0.023876432915537833,-0.01974594242571564,-0.05098090824498343
17.000000000000316,-0.19447666,-1.0201662,0.43920895,-2.8115802,0.27547988,1.7852391,0.7106188,0.039999068,0.04,0.028641478695146105,0.0012309833010926141,0.00872122499957495,0.01546539882536084,-0.003558748899021004,-0.023196063046531212,0.9982099218726429,-0.023748661184488963,-0.019814869560338684,-0.05118909953557844
17.016666666666982,-0.19496053,-1.0207523,0.44029853,-2.81271,0.27616403,1.7857711,0.71043175,0.039999068,0.04,0.030522641901953307,0.00018859504453128118,0.009649580988257966,0.015292620295729097,-0.003681409988369154,-0.022784116347471323,0.9982010603744575,-0.023622381623772528,-0.019882204528844098,-0.05139381379896322
17.033333333333648,-0.19543527,-1.0213274,0.44136754,-2.813819,0.27683523,1.7862931,0.71024823,0.039999064,0.04,0.028981020653895406,0.0005103331901068486,0.008908665287465922,0.015114938963931497,-0.00380098600468224,-0.022371688890466847,0.9981923057321962,-0.02349754651200671,-0.019948408629352578,-0.05159502958730001
17.050000000000313,-0.1959008,-1.0218912,0.44241583,-2.8149056,0.27749345,1.786805,0.7100683,0.039999057,0.04,0.030786832804907682,-0.00046275391473726835,0.00976071284697344,0.014930488609513258,-0.003922406204304715,-0.021956589068353585,0.99818366901094,-0.02337437217610328,-0.02001302106719529,-0.051792669683992994
17.06666666666698,-0.1963572,-1.022444,0.44344348,-2.8159714,0.2781387,1.7873067,0.7098917,0.039999057,0.04,0.02894962548303237,0.00012173727016451252,0.008754056027071577,0.014742169839364652,-0.004041265869586561,-0.021536858287090836,0.9981751426791643,-0.023252800363900233,-0.02007662120602035,-0.051986739594020816
17.083333333333645,-0.19680443,-1.0229857,0.44445056,-2.8170161,0.2787711,1.7877988,0.7097186,0.03999906,0.04,0.029118803612737665,-0.0002846359861308212,0.009277149715436472,0.01454805281974448,-0.004162898545285624,-0.021117543166041683,0.9981667374058745,-0.023132848905832996,-0.02013885006165671,-0.052177220663867534
17.10000000000031,-0.19724256,-1.0235163,0.44543692,-2.818039,0.2793906,1.7882804,0.70954907,0.039999057,0.04,0.030403795951072787,-0.0009487776235661549,0.009348849523926894,0.01434906974728363,-0.004281788514052989,-0.020696428398435114,0.9981584584747573,-0.02301459449565727,-0.0201997221435885,-0.05236402811872477
17.116666666666976,-0.19767156,-1.0240358,0.44640294,-2.8190408,0.27999717,1.7887522,0.70938313,0.03999905,0.04,0.028983674550397964,-0.0007047686691241672,0.00909557601476152,0.014145150896778402,-0.004401561676469715,-0.020274712689633316,0.9981502968268622,-0.022898053985946284,-0.02025936236204928,-0.05254733394556387
