rsonawane2002/My_IMU/logs_incomplete/traj_252/imu_252.csv
time,j1,j2,j3,j4,j5,j6,j7,gripper1,gripper2,imu_ax,imu_ay,imu_az,imu_gx,imu_gy,imu_gz
12.083333333333513,0.00016700293,-0.785875,4.0107683e-05,-2.3551247,9.29385e-05,1.570997,0.786,0.04,0.04,-9.487118,0.022602504119277,0.098795466,4.2777225e-07,-0.0011641272576525807,7.631893e-07
12.10000000000018,0.00016700182,-0.78576016,4.0122566e-05,-2.3552213,9.2979004e-05,1.5709941,0.786,0.04,0.04,-9.834411,0.0006590071716345847,0.009087927,-4.9136787e-07,-0.0022390789818018675,9.563297e-07
12.116666666666848,0.00016697383,-0.7856543,4.0191906e-05,-2.35531,9.3051254e-05,1.5709913,0.786,0.04,0.04,-9.832395,0.0006977462326176465,0.007555996,-1.9494219e-06,-0.0032277090940624475,1.1413367e-06
12.133333333333516,0.00016687675,-0.78555703,4.0406198e-05,-2.355391,9.321211e-05,1.5709884,0.786,0.04,0.04,-9.830485,0.0008008450968191028,0.006172176,-5.6516337e-06,-0.004138215444982052,8.7693104e-07
12.150000000000183,0.0001666514,-0.7854676,4.0895287e-05,-2.3554654,9.3543866e-05,1.5709856,0.786,0.04,0.04,-9.828645,0.0009506699861958623,0.004899434,-1.3034695e-05,-0.004974340088665485,-2.5154872e-08
12.16666666666685,0.00016622317,-0.7853856,4.1824544e-05,-2.3555334,9.415129e-05,1.5709827,0.786,0.04,0.04,-9.826926,0.0011390324216336012,0.0037173498,-2.4648429e-05,-0.005743738263845444,-1.7026515e-06
12.183333333333518,0.00016550354,-0.78531057,4.3390795e-05,-2.3555987,9.5159005e-05,1.5709832,0.786,0.04,0.04,-9.82522,0.0013700008857995272,0.002610419,-4.18116e-05,-0.006448698695749044,-4.327275e-06
12.200000000000186,0.00016439168,-0.7852421,4.581949e-05,-2.3556578,9.6717005e-05,1.5709838,0.786,0.04,0.039999995,-9.823934,0.0016308100894093513,0.001504927,-6.496147e-05,-0.007093353196978569,-7.2556095e-06
12.216666666666853,0.00016277586,-0.7851796,4.9361763e-05,-2.3557155,9.8973294e-05,1.5709846,0.786,0.04,0.039999995,-9.822261,0.0019099907949566841,0.00057032565,-9.558775e-05,-0.007679241243749857,-1.2170244e-05
12.23333333333352,0.0001605343,-0.785123,5.429087e-05,-2.3557692,0.00010209859,1.5709856,0.7859985,0.04,0.039999995,-9.821196,0.002223556861281395,-0.00033372175,-0.00013376647,-0.008228495717048645,-1.8348923e-05
12.250000000000188,0.00015753663,-0.7850721,6.090057e-05,-2.3558202,0.00010626524,1.5709865,0.7859966,0.04,0.04,-9.819776,0.0025475765578448772,-0.001174992,-0.0001737677,-0.008731755428016186,-2.7500575e-05
12.266666666666856,0.0001536445,-0.7850267,6.9501606e-05,-2.3558707,0.00011169628,1.5709908,0.7859947,0.04,0.039999995,-9.818483,0.002917203586548567,-0.0019501133,-0.00022107156,-0.009194954298436642,-3.4865712e-05
12.283333333333523,0.0001487135,-0.7849867,8.042105e-05,-2.3559208,0.00011856644,1.5709955,0.7859928,0.04,0.04,-9.817409,0.003267818596214056,-0.0027344036,-0.0002783835,-0.009615449234843254,-4.6856596e-05
12.30000000000019,0.00014259251,-0.7849517,9.399866e-05,-2.3559709,0.00012711195,1.5710002,0.7859909,0.04,0.04,-9.816392,0.003661008086055517,-0.0034118243,-0.00034590295,-0.010007429867982864,-5.8217625e-05
12.316666666666858,0.00013512578,-0.78492165,0.00011058639,-2.356021,0.00013754707,1.5710084,0.78598803,0.04,0.04,-9.815365,0.0040525151416659355,-0.00406235,-0.00042462975,-0.010373646393418312,-7.1934934e-05
12.333333333333526,0.00012615342,-0.78489673,0.00013054619,-2.3560715,0.0001500883,1.571017,0.7859842,0.04,0.04,-9.814298,0.0044436086900532246,-0.0047436836,-0.0005105892,-0.010701511986553669,-8.870771e-05
12.350000000000193,0.00011551131,-0.78487647,0.00015424789,-2.3561223,0.00016498874,1.5710291,0.7859804,0.039999995,0.039999995,-9.813284,0.004865522962063551,-0.0052864044,-0.00060390815,-0.011005625128746033,-0.00010445585
12.36666666666686,0.00010303285,-0.784861,0.00018206902,-2.3561754,0.0001824616,1.5710415,0.7859756,0.03999999,0.04,-9.812159,0.005264239385724068,-0.0058915745,-0.0007098983,-0.011272036470472813,-0.00012497358
12.383333333333528,8.8548564e-05,-0.7848505,0.00021439248,-2.3562331,0.00020275936,1.5710576,0.78596985,0.039999984,0.03999999,-9.811388,0.005692041013389826,-0.0063649113,-0.0008242427,-0.011526371352374554,-0.00014561934
12.400000000000196,7.188713e-05,-0.78484493,0.00025160567,-2.356292,0.00022612404,1.571074,0.78596413,0.039999977,0.039999988,-9.810733,0.0061049144715070724,-0.0068915533,-0.0009478171,-0.011761246249079704,-0.0001689417
12.416666666666863,5.287579e-05,-0.78484416,0.0002940996,-2.3563569,0.00025280155,1.571094,0.7859565,0.03999997,0.03999998,-9.80967,0.006525848526507616,-0.007314655,-0.001085053,-0.011975100263953209,-0.00019323705
12.43333333333353,3.134065e-05,-0.7848484,0.0003422675,-2.3564234,0.00028303807,1.5711178,0.7859487,0.039999966,0.039999977,-9.809171,0.006943821907043457,-0.0077974666,-0.0012274676,-0.012177730910480022,-0.00021940636
12.450000000000198,7.10725e-06,-0.78485775,0.0003965046,-2.3564968,0.00031708094,1.5711441,0.78593916,0.03999996,0.039999973,-9.8080225,0.007356316316872835,-0.008236349,-0.0013835694,-0.0123467231169343,-0.00024744344
12.466666666666866,-1.9999175e-05,-0.78487176,0.00045720633,-2.356577,0.00035517747,1.571173,0.7859287,0.039999958,0.039999973,-9.807581,0.007758543360978365,-0.008607775,-0.0015462119,-0.012511149048805237,-0.00027822712
12.483333333333533,-5.0153467e-05,-0.7848912,0.0005247682,-2.3566594,0.00039757672,1.5712048,0.7859173,0.039999954,0.03999997,-9.807104,0.008168365806341171,-0.009022716,-0.0017200377,-0.012673317454755306,-0.00031004116
12.5000000000002,-8.3529936e-05,-0.7849158,0.00059958524,-2.3567488,0.00044452536,1.5712404,0.785904,0.03999995,0.039999966,-9.805927,0.008561856113374233,-0.009372385,-0.0019041857,-0.012805638834834099,-0.000343763
12.516666666666868,-0.00012030233,-0.78494585,0.00068205054,-2.3568459,0.00049626944,1.5712799,0.7858899,0.039999947,0.039999966,-9.80537,0.008945560082793236,-0.009728728,-0.0020955936,-0.012928012758493423,-0.00038025586
12.533333333333536,-0.00016064355,-0.7849812,0.00077255553,-2.3569505,0.00055305514,1.5713236,0.78587466,0.039999936,0.039999954,-9.804822,0.009330890141427517,-0.010051889,-0.0022988566,-0.013041943311691284,-0.00041779582
12.550000000000203,-0.00020472534,-0.785022,0.0008714892,-2.3570628,0.0006151254,1.5713718,0.7858575,0.03999992,0.03999994,-9.8042555,0.009698929265141487,-0.010396396,-0.002512811,-0.013146179728209972,-0.0004572465
12.56666666666687,-0.00025271805,-0.7850686,0.0009792375,-2.3571835,0.00068272126,1.5714244,0.78583884,0.039999913,0.039999936,-9.803659,0.010056350380182266,-0.01071978,-0.0027340848,-0.013239829801023006,-0.00049948395
12.583333333333538,-0.00030479053,-0.785121,0.0010961824,-2.357312,0.0007560837,1.5714813,0.78581876,0.039999902,0.039999925,-9.80306,0.010405467823147774,-0.011012634,-0.002964776,-0.013323155231773853,-0.00054277177
12.600000000000206,-0.00036110988,-0.78517956,0.0012227027,-2.3574502,0.00083544856,1.571543,0.785797,0.039999895,0.03999992,-9.80237,0.010732131078839302,-0.011284265,-0.0032056153,-0.01339319534599781,-0.00058884313
12.616666666666873,-0.00042184175,-0.78524417,0.001359173,-2.3576005,0.00092105113,1.5716096,0.7857735,0.03999989,0.039999917,-9.801928,0.0110627431422472,-0.011521898,-0.0034551225,-0.013459648005664349,-0.00063596765
12.63333333333354,-0.00048714914,-0.78531504,0.0015059627,-2.3577595,0.0010131225,1.5716813,0.78574824,0.03999989,0.039999917,-9.801689,0.011370408348739147,-0.011800719,-0.0037134462,-0.013527683913707733,-0.0006850081
12.650000000000208,-0.00055719295,-0.78539205,0.001663437,-2.3579283,0.0011118908,1.5717578,0.7857211,0.039999887,0.039999917,-9.801028,0.011656180955469608,-0.012049595,-0.003980753,-0.013584058731794357,-0.00073683466
12.666666666666876,-0.00063213246,-0.78547573,0.0018319553,-2.35811,0.0012175817,1.5718402,0.78569204,0.039999887,0.03999992,-9.800446,0.01193349901586771,-0.012305965,-0.0042563546,-0.013632712885737419,-0.00079057587
12.683333333333543,-0.0007121239,-0.785566,0.0020118721,-2.3583014,0.0013304179,1.5719278,0.785661,0.03999989,0.039999925,-9.800215,0.012203657068312168,-0.012544192,-0.0045398455,-0.013682185672223568,-0.00084538263
12.70000000000021,-0.0007973212,-0.78566307,0.0022035358,-2.3585055,0.0014506165,1.5720214,0.78562796,0.0399999,0.039999936,-9.799573,0.01243579015135765,-0.012773585,-0.004831623,-0.013721535913646221,-0.00090297434
12.716666666666878,-0.0008878761,-0.7857671,0.0024072893,-2.3587208,0.0015783933,1.5721205,0.7855929,0.039999906,0.039999943,-9.799228,0.012671134434640408,-0.0130080255,-0.005131554,-0.013758383691310883,-0.0009616264
12.733333333333546,-0.000983937,-0.7858783,0.002623471,-2.3589492,0.0017139585,1.572226,0.7855558,0.039999913,0.039999954,-9.798676,0.012873448431491852,-0.013218967,-0.0054394766,-0.01378767378628254,-0.0010230719
12.750000000000213,-0.00108565,-0.78599685,0.00285241,-2.3591902,0.0018575197,1.5723377,0.78551656,0.039999917,0.039999958,-9.798317,0.013066383078694344,-0.0134211,-0.005755219,-0.013813886791467667,-0.0010855808
12.76666666666688,-0.0011931588,-0.7861228,0.0030944322,-2.3594446,0.0020092798,1.5724559,0.7854751,0.03999992,0.039999966,-9.797834,0.01323392242193222,-0.013621567,-0.0060786423,-0.013833075761795044,-0.0011508832
12.783333333333548,-0.0013066037,-0.786256,0.0033498553,-2.3597128,0.0021694384,1.5725805,0.78543127,0.039999925,0.03999997,-9.797489,0.013389674946665764,-0.013812559,-0.0064090085,-0.013850819319486618,-0.0012172594
12.800000000000216,-0.0014261225,-0.7863968,0.0036189898,-2.359995,0.0023381894,1.5727118,0.78538513,0.039999925,0.039999973,-9.79716,0.013515894301235676,-0.014026191,-0.0067461557,-0.0138673922047019,-0.0012864418
12.816666666666883,-0.0015518493,-0.7865455,0.0039021426,-2.3602915,0.0025157249,1.5728502,0.7853365,0.03999993,0.039999977,-9.796739,0.013629383407533169,-0.014222661,-0.007090164,-0.0138790188357234,-0.0013568035
12.83333333333355,-0.0016839161,-0.78670216,0.00419961,-2.360602,0.0027022318,1.5729953,0.7852854,0.039999932,0.039999984,-9.796398,0.013713895343244076,-0.014403854,-0.007439801,-0.01388784684240818,-0.0014298279
12.850000000000218,-0.0018224515,-0.7868667,0.004511686,-2.3609276,0.0028978912,1.5731473,0.7852319,0.039999936,0.03999999,-9.795949,0.013782910071313381,-0.014582919,-0.0077956556,-0.013891366310417652,-0.0015048949
12.866666666666886,-0.0019675808,-0.7870396,0.0048386534,-2.3612685,0.0031028849,1.5733064,0.7851758,0.03999994,0.039999995,-9.795649,0.013831930235028267,-0.014759318,-0.008157824,-0.013894435949623585,-0.0015810855
12.883333333333553,-0.002119427,-0.78722084,0.0051807896,-2.3616252,0.0033173817,1.5734731,0.78511703,0.03999994,0.04,-9.795308,0.013846992515027523,-0.014934609,-0.0085252905,-0.013895723968744278,-0.0016601246
12.90000000000022,-0.0022781105,-0.78741026,0.0055383663,-2.3619978,0.0035415574,1.5736474,0.78505576,0.03999994,0.04,-9.794982,0.013850368559360504,-0.015106276,-0.008897868,-0.013893570750951767,-0.0017403092
12.916666666666888,-0.002443747,-0.78760844,0.0059116455,-2.3623867,0.0037755778,1.5738295,0.7849916,0.039999943,0.04,-9.794748,0.013827335089445114,-0.015307542,-0.00927619,-0.01389252208173275,-0.0018224808
12.933333333333556,-0.0026164486,-0.78781545,0.0063008843,-2.3627918,0.0040196194,1.5740197,0.7849248,0.03999995,0.04,-9.794364,0.013787420466542244,-0.015472138,-0.009658392,-0.013885725289583206,-0.0019052533
12.950000000000223,-0.0027963272,-0.7880311,0.006706335,-2.3632133,0.004273831,1.5742178,0.78485525,0.039999954,0.04,-9.794053,0.013713758438825607,-0.015642982,-0.010045659,-0.013875235803425312,-0.0019909737
12.96666666666689,-0.0029834902,-0.7882557,0.0071282387,-2.363652,0.0045383703,1.5744238,0.7847829,0.039999954,0.039999995,-9.793721,0.01361843105405569,-0.015817305,-0.010436956,-0.013861551880836487,-0.00207801
12.983333333333558,-0.0031780398,-0.78848946,0.0075668306,-2.364108,0.0048133424,1.5746379,0.7847076,0.039999954,0.04,-9.793481,0.01347227580845356,-0.01597317,-0.010832617,-0.01384824886918068,-0.002171051
13.000000000000226,-0.0033800781,-0.7887325,0.008022338,-2.3645813,0.005098934,1.5748601,0.78462946,0.039999954,0.04,-9.793213,0.013350890949368477,-0.016132155,-0.0112313405,-0.01383377518504858,-0.0022622235
13.016666666666893,-0.0035897025,-0.7889846,0.008494982,-2.3650725,0.0053952564,1.5750906,0.7845484,0.03999995,0.04,-9.792909,0.013165872544050217,-0.016285159,-0.011634016,-0.013816148042678833,-0.0023579574
13.03333333333356,-0.003807008,-0.78924626,0.008984977,-2.3655813,0.005702442,1.5753297,0.7844643,0.03999995,0.04,-9.792667,0.012960650026798248,-0.016469449,-0.012039599,-0.013798190280795097,-0.0024557558
13.050000000000228,-0.004032085,-0.7895174,0.009492534,-2.3661077,0.0060206307,1.5755771,0.7843772,0.039999947,0.04,-9.792341,0.012742038816213608,-0.016620183,-0.012447894,-0.013776042498648167,-0.0025548998
13.066666666666896,-0.0042650215,-0.7897981,0.010017852,-2.3666534,0.006349942,1.5758332,0.78428704,0.039999943,0.04,-9.792067,0.012485694140195847,-0.016775722,-0.012858656,-0.013751788064837456,-0.0026569983
13.083333333333563,-0.0045059044,-0.79008853,0.010561118,-2.3672173,0.006690487,1.5760982,0.7841938,0.03999994,0.04,-9.79191,0.0121968574821949,-0.01695057,-0.013271666,-0.013729201629757881,-0.0027620136
13.10000000000023,-0.0047548153,-0.79038876,0.011122524,-2.3678,0.007042399,1.576372,0.78409743,0.039999943,0.04,-9.791633,0.011894687078893185,-0.017110288,-0.013686741,-0.013702853582799435,-0.0028676812
13.116666666666898,-0.005011833,-0.7906988,0.011702246,-2.3684013,0.0074057905,1.5766548,0.783998,0.039999943,0.04,-9.7914,0.011560876853764057,-0.017281909,-0.014103079,-0.013675233349204063,-0.002975618
13.133333333333566,-0.005277034,-0.79101884,0.012300461,-2.3690221,0.0077807796,1.5769467,0.7838954,0.03999994,0.04,-9.79112,0.011197616346180439,-0.017452843,-0.014521598,-0.013643836602568626,-0.0030850577
13.150000000000233,-0.0055504907,-0.791349,0.012917325,-2.3696623,0.008167439,1.5772477,0.7837895,0.039999936,0.04,-9.790966,0.010790031403303146,-0.017618297,-0.014940652,-0.013613133691251278,-0.003199104
13.1666666666669,-0.0058322726,-0.7916892,0.013553005,-2.3703213,0.008565884,1.5775579,0.7836805,0.039999936,0.04,-9.790735,0.010374865494668484,-0.017787796,-0.015360638,-0.013580214232206345,-0.0033138979
13.183333333333568,-0.006122445,-0.7920396,0.014207648,-2.3710003,0.008976201,1.577877,0.7835681,0.03999993,0.04,-9.790438,0.009910739958286285,-0.017961767,-0.01578151,-0.01354226190596819,-0.0034325263
13.200000000000236,-0.006421074,-0.7924004,0.014881399,-2.3716993,0.009398491,1.578206,0.78345245,0.039999925,0.04,-9.790276,0.00943875964730978,-0.01812667,-0.01620176,-0.01350603997707367,-0.0035519588
13.216666666666903,-0.0067282184,-0.79277146,0.015574394,-2.3724177,0.009832844,1.5785439,0.78333354,0.03999993,0.04,-9.790092,0.008920930325984955,-0.018305166,-0.016622504,-0.013466203585267067,-0.0036738045
13.23333333333357,-0.0070439386,-0.79315287,0.016286768,-2.3731568,0.010279354,1.5788914,0.78321123,0.039999932,0.04,-9.789865,0.008380753919482231,-0.018487956,-0.017042687,-0.013425362296402454,-0.0037965248
13.250000000000238,-0.0073682857,-0.7935448,0.017018631,-2.373916,0.010738068,1.5792484,0.7830857,0.039999925,0.04,-9.789728,0.0077852290123701096,-0.018671788,-0.017462116,-0.01338460948318243,-0.0039248685
13.266666666666906,-0.007701315,-0.7939473,0.017770117,-2.3746946,0.011209073,1.5796149,0.7829568,0.03999992,0.039999995,-9.789545,0.0071856314316391945,-0.018859843,-0.017881151,-0.013341892510652542,-0.004054097
13.283333333333573,-0.008043072,-0.7943604,0.018541336,-2.3754945,0.011692432,1.5799911,0.78282446,0.03999992,0.04,-9.789258,0.006540524773299694,-0.019044952,-0.01829868,-0.013294776901602745,-0.004186568
13.30000000000024,-0.008393604,-0.7947842,0.019332381,-2.3763149,0.01218822,1.5803767,0.7826886,0.039999917,0.039999995,-9.789181,0.005866277031600475,-0.019241247,-0.018714748,-0.013248415663838387,-0.004320768
13.316666666666908,-0.008752959,-0.79521865,0.020143354,-2.3771553,0.012696482,1.5807723,0.78254944,0.039999917,0.04,-9.788992,0.005158755928277969,-0.019424194,-0.019128393,-0.013200972229242325,-0.00445826
13.333333333333576,-0.009121169,-0.7956639,0.020974346,-2.378017,0.013217285,1.5811777,0.78240687,0.039999913,0.04,-9.788763,0.004415107890963554,-0.019641496,-0.019540727,-0.013148405589163303,-0.0045983433
13.350000000000243,-0.009498277,-0.7961198,0.021825442,-2.378899,0.013750672,1.5815927,0.78226084,0.039999913,0.04,-9.788646,0.0036419443786144257,-0.019847,-0.019950423,-0.013095579110085964,-0.0047409646
13.36666666666691,-0.009884311,-0.7965868,0.022696719,-2.3798022,0.014296713,1.5820177,0.7821114,0.039999913,0.04,-9.78848,0.0028415899723768234,-0.020063028,-0.02035786,-0.013041581958532333,-0.0048854225
13.383333333333578,-0.010279309,-0.79706466,0.023588251,-2.3807268,0.014855439,1.5824525,0.7819585,0.03999991,0.04,-9.788301,0.0019906237721443176,-0.020268448,-0.020762473,-0.012983877211809158,-0.0050332937
13.400000000000245,-0.010683294,-0.7975533,0.024500098,-2.381672,0.015426884,1.5828973,0.78180206,0.039999906,0.04,-9.788204,0.0011195410043001175,-0.020492302,-0.021163857,-0.012926061637699604,-0.005183808
13.416666666666913,-0.011096294,-0.79805297,0.025432324,-2.382639,0.0160111,1.5833521,0.7816421,0.039999895,0.039999995,-9.788012,0.00020045973360538483,-0.020721763,-0.021561764,-0.012865185737609863,-0.005337019
13.43333333333358,-0.011518337,-0.7985635,0.02638498,-2.3836265,0.016608095,1.5838168,0.7814786,0.039999895,0.04,-9.787954,-0.0007452815771102905,-0.02096618,-0.021955416,-0.012804736383259296,-0.005492881
13.450000000000248,-0.011949438,-0.79908514,0.027358107,-2.3846343,0.01721791,1.5842913,0.7813116,0.039999895,0.04,-9.787782,-0.0017291847616434097,-0.021204047,-0.022345513,-0.012741734273731709,-0.0056514055
13.466666666666915,-0.012389613,-0.7996176,0.02835175,-2.385664,0.017840588,1.584776,0.78114104,0.039999887,0.039999995,-9.78749,-0.0027484893798828125,-0.021448212,-0.022730883,-0.01267090905457735,-0.005811864
13.483333333333583,-0.0128388805,-0.8001613,0.029365946,-2.386715,0.018476143,1.5852709,0.78096694,0.039999887,0.039999995,-9.787473,-0.003808125853538513,-0.021715812,-0.023111977,-0.012602120637893677,-0.005975146
13.50000000000025,-0.013297253,-0.800716,0.030400708,-2.3877878,0.019124588,1.5857754,0.78078943,0.03999989,0.04,-9.787308,-0.004906361922621727,-0.021960031,-0.023488035,-0.012528786435723305,-0.0061420077
13.516666666666918,-0.013764741,-0.80128175,0.031456072,-2.3888822,0.019785944,1.5862901,0.78060824,0.039999887,0.04,-9.78731,-0.006035797297954559,-0.022227366,-0.023859741,-0.01245969906449318,-0.0063117393
13.533333333333585,-0.014241348,-0.80185854,0.03253206,-2.3899977,0.020460203,1.5868151,0.78042364,0.039999887,0.04,-9.787179,-0.007212499156594276,-0.022519333,-0.02422546,-0.0123866256326437,-0.0064842356
13.550000000000253,-0.014727083,-0.8024464,0.03362867,-2.3911343,0.021147406,1.58735,0.7802355,0.03999988,0.04,-9.787059,-0.00841563381254673,-0.022815697,-0.024586074,-0.012311050668358803,-0.0066588344
13.56666666666692,-0.015221942,-0.8030453,0.034745898,-2.3922923,0.021847516,1.5878948,0.78004384,0.03999988,0.04,-9.786891,-0.00966593623161316,-0.02311069,-0.024941135,-0.012231471948325634,-0.0068370323
13.583333333333588,-0.015725931,-0.80365545,0.03588376,-2.3934715,0.022560548,1.5884498,0.77984864,0.039999876,0.04,-9.7868395,-0.010953828692436218,-0.023430437,-0.025290247,-0.012152324430644512,-0.0070181005
13.600000000000255,-0.016239047,-0.8042763,0.037042234,-2.394672,0.023286495,1.5890148,0.7796499,0.03999988,0.04,-9.786701,-0.012274852022528648,-0.02372728,-0.025632927,-0.012068566866219044,-0.007201192
13.616666666666923,-0.016761275,-0.8049085,0.038221322,-2.395894,0.024025353,1.5895897,0.7794476,0.03999988,0.04,-9.786591,-0.013648319989442825,-0.02408379,-0.025969215,-0.011983311735093594,-0.0073880386
13.63333333333359,-0.017292611,-0.8055514,0.039420996,-2.397137,0.024777109,1.5901748,0.7792418,0.03999988,0.04,-9.786541,-0.01505548320710659,-0.024393322,-0.026298735,-0.011897431686520576,-0.007577723
13.650000000000258,-0.017833047,-0.80620563,0.040641233,-2.3984017,0.025541758,1.5907701,0.7790325,0.039999876,0.04,-9.786409,-0.016502220183610916,-0.02478397,-0.02662143,-0.011807519942522049,-0.0077695395
13.666666666666925,-0.018382574,-0.80687076,0.041881993,-2.399688,0.02631928,1.591375,0.7788197,0.03999987,0.04,-9.786374,-0.017993073910474777,-0.025123782,-0.026937084,-0.011716104112565517,-0.007965132
13.683333333333593,-0.018941164,-0.8075469,0.04314326,-2.400995,0.027109612,1.59199,0.7786032,0.039999865,0.04,-9.786355,-0.019526036456227303,-0.025500149,-0.027245209,-0.01162642240524292,-0.008164403
13.70000000000026,-0.019508805,-0.80823404,0.044424985,-2.4023235,0.027912783,1.5926152,0.77838326,0.03999986,0.04,-9.786201,-0.021091924980282784,-0.025892084,-0.027545253,-0.011531081050634384,-0.008364896
13.716666666666928,-0.020085476,-0.8089321,0.045727115,-2.4036732,0.02872873,1.5932505,0.77815986,0.039999854,0.04,-9.786152,-0.02271466888487339,-0.026304506,-0.027837675,-0.011433374136686325,-0.008569973
13.733333333333595,-0.020671159,-0.809641,0.047049593,-2.405044,0.029557424,1.5938953,0.7779329,0.039999846,0.04,-9.786116,-0.024376118555665016,-0.0267135,-0.028122338,-0.01133415475487709,-0.008777892
13.750000000000263,-0.021265822,-0.8103609,0.04839239,-2.406436,0.030398834,1.5945503,0.7777025,0.03999984,0.04,-9.786077,-0.026066672056913376,-0.027143482,-0.028398324,-0.011235013604164124,-0.0089879865
13.76666666666693,-0.02186944,-0.81109184,0.049755417,-2.4078484,0.03125291,1.5952152,0.7774687,0.03999983,0.04,-9.78602,-0.027822960168123245,-0.027580611,-0.028666465,-0.011132725514471531,-0.009202414
13.783333333333598,-0.022481991,-0.81183326,0.051138613,-2.409282,0.03211961,1.5958896,0.7772314,0.039999824,0.04,-9.78588,-0.02960420399904251,-0.028028168,-0.028925836,-0.011024720966815948,-0.009418937
13.800000000000265,-0.023103435,-0.8125856,0.052541915,-2.4107366,0.032998927,1.5965738,0.7769907,0.03999982,0.04,-9.785892,-0.03142937272787094,-0.028512051,-0.029176567,-0.01091825496405363,-0.009637523
13.816666666666933,-0.023733735,-0.8133489,0.05396524,-2.4122121,0.033890788,1.597268,0.77674645,0.03999981,0.04,-9.785867,-0.03330736607313156,-0.028990306,-0.029418621,-0.01081020012497902,-0.009859142
13.8333333333336,-0.024372857,-0.81412274,0.0554085,-2.4137077,0.034795105,1.5979716,0.77649873,0.039999805,0.04,-9.785813,-0.035236895084381104,-0.029484903,-0.029650982,-0.010698337107896805,-0.01008509
13.850000000000268,-0.025020769,-0.8149071,0.05687162,-2.4152234,0.03571187,1.5986853,0.7762478,0.039999798,0.04,-9.785749,-0.037199586629867554,-0.030005725,-0.029873738,-0.010584920644760132,-0.01031308
13.866666666666935,-0.025677426,-0.8157022,0.05835449,-2.4167602,0.03664102,1.5994086,0.7759934,0.039999794,0.04,-9.785636,-0.03919953107833862,-0.030569758,-0.030087583,-0.010465019382536411,-0.010542233
13.883333333333603,-0.026342783,-0.8165078,0.05985704,-2.4183173,0.03758248,1.6001416,0.7757357,0.039999783,0.04,-9.7857,-0.04127153754234314,-0.031093638,-0.030291807,-0.010345816612243652,-0.010776608
13.90000000000027,-0.027016798,-0.81732386,0.06137916,-2.4198942,0.038536195,1.6008846,0.7754746,0.03999978,0.04,-9.785633,-0.04337456077337265,-0.03166422,-0.03048663,-0.010222754441201687,-0.011013264
13.916666666666938,-0.027699418,-0.81815034,0.06292073,-2.4214923,0.03950209,1.6016363,0.77521014,0.03999978,0.04,-9.785586,-0.045530304312705994,-0.03225593,-0.030671109,-0.010095405392348766,-0.01125242
13.933333333333605,-0.028390609,-0.8189871,0.06448165,-2.4231105,0.040480144,1.6023973,0.7749423,0.039999772,0.04,-9.785716,-0.04771013557910919,-0.032841444,-0.030845663,-0.00997331365942955,-0.011492723
13.950000000000273,-0.029090304,-0.81983423,0.066061795,-2.4247477,0.041470233,1.6031679,0.77467114,0.039999764,0.04,-9.785705,-0.04996737092733383,-0.033467054,-0.03100948,-0.009850136935710907,-0.011737514
13.96666666666694,-0.029798457,-0.8206918,0.06766105,-2.426405,0.042472307,1.603948,0.7743968,0.03999977,0.04,-9.785583,-0.05225842818617821,-0.034110546,-0.031162988,-0.009720264002680779,-0.011984083
13.983333333333608,-0.030515015,-0.8215595,0.06927929,-2.4280822,0.043486305,1.604737,0.7741192,0.03999976,0.04,-9.785563,-0.054599300026893616,-0.034768585,-0.031306416,-0.009586201049387455,-0.01223336
14.000000000000275,-0.031239925,-0.8224371,0.07091639,-2.4297786,0.044512097,1.6055353,0.7738383,0.039999764,0.04,-9.785644,-0.05697522684931755,-0.035437908,-0.031439237,-0.009454353712499142,-0.012484572
14.016666666666943,-0.03197311,-0.823325,0.072572224,-2.4314947,0.045549653,1.6063428,0.7735542,0.039999764,0.04,-9.785625,-0.05941813811659813,-0.036147233,-0.03156103,-0.009320211596786976,-0.012739288
14.03333333333361,-0.032714527,-0.8242227,0.07424662,-2.43323,0.046598867,1.6071593,0.77326685,0.039999757,0.04,-9.785631,-0.06190107762813568,-0.03685998,-0.031672545,-0.009182740934193134,-0.012995674
14.050000000000278,-0.033464108,-0.82513046,0.07593949,-2.4349842,0.047659643,1.6079848,0.77297646,0.03999976,0.04,-9.785671,-0.06443047523498535,-0.037596013,-0.03177243,-0.009045511484146118,-0.013254743
14.066666666666945,-0.03422179,-0.826048,0.077650644,-2.4367573,0.04873191,1.6088194,0.77268285,0.039999753,0.04,-9.785641,-0.0670204907655716,-0.03835274,-0.031862166,-0.008903609588742256,-0.0135170715
14.083333333333613,-0.03498751,-0.8269754,0.07937996,-2.4385498,0.049815543,1.6096629,0.77238613,0.039999753,0.04,-9.785656,-0.06964991986751556,-0.03913483,-0.031940073,-0.008759021759033203,-0.013780948
14.10000000000028,-0.035761196,-0.8279124,0.08112726,-2.440361,0.050910458,1.610515,0.77208644,0.039999757,0.04,-9.785727,-0.07234126329421997,-0.03993376,-0.032007065,-0.008613528683781624,-0.014048151
14.116666666666948,-0.03654277,-0.8288589,0.0828924,-2.4421902,0.052016564,1.6113758,0.7717836,0.03999975,0.04,-9.78578,-0.0750688910484314,-0.0407598,-0.03206356,-0.00846852920949459,-0.014316967
14.133333333333615,-0.037332173,-0.829815,0.084675215,-2.4440382,0.05313374,1.6122453,0.7714777,0.039999746,0.04,-9.785752,-0.07785224914550781,-0.041615847,-0.032108065,-0.008318811655044556,-0.014587922
14.150000000000283,-0.03812933,-0.8307802,0.08647552,-2.445904,0.054261893,1.6131232,0.7711689,0.03999975,0.04,-9.785852,-0.08067759871482849,-0.04248079,-0.03214138,-0.008169600740075111,-0.0148612335
14.16666666666695,-0.038934145,-0.83175486,0.08829315,-2.4477873,0.055400923,1.6140097,0.77085704,0.039999746,0.04,-9.785909,-0.0835687443614006,-0.043386575,-0.032163586,-0.00802018865942955,-0.015137752
14.183333333333618,-0.039746583,-0.83273876,0.09012796,-2.449689,0.056550704,1.6149045,0.77054226,0.039999746,0.04,-9.785829,-0.08650504797697067,-0.04430744,-0.032173906,-0.007863238453865051,-0.015416395
14.200000000000285,-0.040566526,-0.83373183,0.091979764,-2.451608,0.05771113,1.6158074,0.7702246,0.03999974,0.04,-9.785955,-0.08949081599712372,-0.045239333,-0.032172743,-0.0077080861665308475,-0.01569792
14.216666666666953,-0.041393913,-0.8347337,0.09384836,-2.4535441,0.058882102,1.6167186,0.7699039,0.039999735,0.04,-9.785986,-0.09252402186393738,-0.046194017,-0.032160047,-0.0075509375892579556,-0.015979646
14.23333333333362,-0.04222865,-0.8357446,0.09573357,-2.455498,0.060063463,1.6176381,0.7695804,0.039999727,0.04,-9.786054,-0.09562481194734573,-0.047205318,-0.032135442,-0.007392184343189001,-0.016265992
14.250000000000288,-0.043070678,-0.83676445,0.09763521,-2.4574687,0.061255105,1.6185657,0.76925415,0.03999972,0.04,-9.786125,-0.09875746071338654,-0.048210956,-0.032099538,-0.007232015952467918,-0.016554164
14.266666666666955,-0.04391989,-0.837793,0.099553086,-2.4594562,0.062456943,1.619501,0.7689251,0.03999971,0.04,-9.786174,-0.10194404423236847,-0.04924739,-0.03205226,-0.007068888284265995,-0.016842294
14.283333333333623,-0.044776198,-0.8388302,0.10148697,-2.46146,0.06366881,1.620444,0.7685933,0.039999705,0.04,-9.786256,-0.10518228262662888,-0.05030331,-0.031993154,-0.0069052111357450485,-0.017132297
14.30000000000029,-0.04563953,-0.8398758,0.10343674,-2.4634805,0.06489062,1.6213949,0.7682588,0.0399997,0.04,-9.78627,-0.10848689079284668,-0.05139402,-0.031922642,-0.006738467141985893,-0.017424604
14.316666666666958,-0.046509784,-0.84093,0.10540212,-2.465518,0.066122256,1.6223533,0.7679215,0.03999969,0.04,-9.786357,-0.11182893067598343,-0.052511387,-0.031840313,-0.006570915225893259,-0.017717872
14.333333333333625,-0.04738688,-0.84199226,0.107382946,-2.4675713,0.06736358,1.6233194,0.7675816,0.039999686,0.04,-9.786579,-0.11521697044372559,-0.05363498,-0.03174622,-0.006407027132809162,-0.018012628
14.350000000000293,-0.04827072,-0.8430628,0.10937902,-2.46964,0.06861444,1.624293,0.76723915,0.039999686,0.04,-9.786632,-0.11867687851190567,-0.05482067,-0.031640608,-0.0062398710288107395,-0.018309794
14.36666666666696,-0.049161218,-0.8441414,0.111390114,-2.4717238,0.06987473,1.6252741,0.7668941,0.039999686,0.04,-9.786668,-0.12217312306165695,-0.056021977,-0.031524047,-0.006069757975637913,-0.018606516
14.383333333333628,-0.05005826,-0.84522796,0.113415994,-2.473823,0.071144305,1.6262617,0.7665465,0.039999682,0.04,-9.786704,-0.1257396638393402,-0.05723981,-0.03139524,-0.005895962473005056,-0.018905366
14.400000000000295,-0.050961766,-0.84632224,0.11545647,-2.4759376,0.07242301,1.6272569,0.76619625,0.03999968,0.04,-9.786816,-0.12934422492980957,-0.058474146,-0.031255186,-0.005723689217120409,-0.019205442
14.416666666666963,-0.051871642,-0.8474242,0.11751125,-2.4780672,0.07371073,1.628259,0.7658438,0.03999967,0.04,-9.786922,-0.13300791382789612,-0.059758216,-0.03110277,-0.005549735389649868,-0.019506583
14.43333333333363,-0.052787762,-0.8485339,0.119580194,-2.480211,0.0750073,1.6292679,0.7654888,0.039999675,0.04,-9.787081,-0.1367134153842926,-0.061060876,-0.03094064,-0.005376891233026981,-0.019809855
14.450000000000298,-0.05371004,-0.8496512,0.121663034,-2.48237,0.07631263,1.6302838,0.7651315,0.039999668,0.04,-9.787108,-0.1404767632484436,-0.062377404,-0.030766437,-0.005200177431106567,-0.02011219
14.466666666666965,-0.05463839,-0.8507758,0.12375955,-2.4845428,0.07762652,1.6313065,0.7647718,0.039999664,0.04,-9.787285,-0.14429350197315216,-0.06372966,-0.030581197,-0.00502416817471385,-0.020416481
14.483333333333633,-0.055572703,-0.8519075,0.12586953,-2.48673,0.07894887,1.6323358,0.76440984,0.039999664,0.04,-9.787382,-0.1481551080942154,-0.065121606,-0.030384831,-0.004846710246056318,-0.020720452
14.5000000000003,-0.056512862,-0.85304636,0.12799272,-2.488931,0.08027952,1.6333712,0.7640455,0.03999966,0.04,-9.787571,-0.15208029747009277,-0.066530384,-0.030177385,-0.004670984577387571,-0.021027086
14.516666666666968,-0.05745878,-0.85419214,0.13012888,-2.491145,0.08161831,1.6344131,0.7636791,0.03999966,0.04,-9.787668,-0.15605725347995758,-0.06796696,-0.029958269,-0.004494908731430769,-0.021333378
14.533333333333635,-0.058410324,-0.8553447,0.13227776,-2.4933717,0.08296506,1.6354613,0.76331043,0.03999965,0.04,-9.787753,-0.1600842922925949,-0.06945087,-0.029729322,-0.004316037520766258,-0.021641133
14.550000000000303,-0.059367403,-0.8565041,0.13443911,-2.4956121,0.084319614,1.6365155,0.76293933,0.03999964,0.04,-9.78785,-0.16416101157665253,-0.07095004,-0.029488742,-0.004135998897254467,-0.021949071
14.56666666666697,-0.060329925,-0.8576702,0.13661274,-2.497865,0.08568186,1.6375756,0.7625663,0.039999638,0.04,-9.788027,-0.16828162968158722,-0.07245968,-0.02923635,-0.003957366570830345,-0.022256346
14.583333333333638,-0.06129776,-0.85884255,0.13879834,-2.5001295,0.08705165,1.6386417,0.76219136,0.03999963,0.04,-9.78813,-0.17246736586093903,-0.07400833,-0.02897407,-0.003776749363169074,-0.022563739
14.600000000000305,-0.062270813,-0.86002123,0.14099573,-2.502407,0.088428795,1.6397138,0.76181436,0.039999627,0.04,-9.788204,-0.17670617997646332,-0.07560131,-0.028701691,-0.0035940203815698624,-0.022872139
14.616666666666973,-0.063248955,-0.8612061,0.14320454,-2.5046968,0.08981318,1.6407912,0.76143545,0.03999962,0.04,-9.788405,-0.18098542094230652,-0.07721216,-0.028418632,-0.003412336576730013,-0.02317944
14.63333333333364,-0.064232066,-0.862397,0.14542457,-2.506998,0.091204606,1.6418741,0.7610546,0.03999962,0.04,-9.788618,-0.18530790507793427,-0.07883746,-0.028126027,-0.0032340327743440866,-0.023487138
14.650000000000308,-0.06522004,-0.8635937,0.14765567,-2.5093105,0.09260294,1.6429625,0.7606718,0.039999615,0.04,-9.788726,-0.1896931529045105,-0.08051175,-0.02782292,-0.003053986234590411,-0.023793643
14.666666666666975,-0.06621278,-0.86479634,0.14989744,-2.5116343,0.09400798,1.6440558,0.7602871,0.03999961,0.04,-9.788886,-0.19414278864860535,-0.08221453,-0.02750969,-0.002874696860089898,-0.024101295
14.683333333333643,-0.06721016,-0.86600465,0.15214972,-2.5139685,0.09541964,1.6451544,0.75990057,0.039999604,0.04,-9.789047,-0.19861972332000732,-0.08392155,-0.027186299,-0.0026957711670547724,-0.024407791
14.70000000000031,-0.06821206,-0.8672184,0.15441214,-2.5163138,0.09683763,1.6462579,0.75951236,0.039999608,0.04,-9.789096,-0.2031717300415039,-0.08567878,-0.026852598,-0.002514123683795333,-0.024713567
14.716666666666978,-0.06921834,-0.8684374,0.1566845,-2.5186684,0.09826188,1.6473662,0.75912243,0.039999608,0.04,-9.789358,-0.20773611962795258,-0.08745196,-0.02651004,-0.002335915109142661,-0.025018051
14.733333333333645,-0.07022893,-0.86966157,0.15896651,-2.5210333,0.09969218,1.6484792,0.7587307,0.039999604,0.04,-9.789378,-0.2124045044183731,-0.08926856,-0.026157591,-0.0021534590050578117,-0.02532321
14.750000000000313,-0.07124368,-0.8708908,0.1612579,-2.5234084,0.10112841,1.6495968,0.75833756,0.039999597,0.04,-9.789586,-0.2170715034008026,-0.091101184,-0.025795186,-0.0019734599627554417,-0.025625763
14.76666666666698,-0.0722625,-0.8721251,0.16355836,-2.5257924,0.102570355,1.6507188,0.7579428,0.03999959,0.04,-9.789816,-0.2218048870563507,-0.09294797,-0.025425063,-0.0017965163569897413,-0.025928544
14.783333333333648,-0.073285244,-0.873364,0.16586772,-2.5281858,0.10401785,1.6518453,0.7575464,0.039999586,0.04,-9.789847,-0.22659778594970703,-0.09484546,-0.025045568,-0.0016153595643118024,-0.026230946
14.800000000000315,-0.07431178,-0.87460756,0.16818562,-2.5305884,0.10547073,1.6529759,0.75714874,0.03999958,0.04,-9.790122,-0.23142436146736145,-0.09676409,-0.02465713,-0.001438048668205738,-0.026532132
14.816666666666983,-0.075342,-0.87585557,0.17051181,-2.5329995,0.106928825,1.6541106,0.7567496,0.039999567,0.04,-9.790276,-0.23630638420581818,-0.0987027,-0.024260985,-0.0012615382438525558,-0.026832014
14.83333333333365,-0.07637581,-0.8771079,0.17284606,-2.5354192,0.10839193,1.655249,0.756349,0.039999574,0.04,-9.790447,-0.24123212695121765,-0.10067382,-0.023856254,-0.0010862811468541622,-0.027130377
14.850000000000318,-0.07741307,-0.87836444,0.17518803,-2.537847,0.10985993,1.6563914,0.7559471,0.03999957,0.04,-9.790634,-0.2461952269077301,-0.10265926,-0.023443216,-0.000912865623831749,-0.02742533
14.866666666666985,-0.0784536,-0.879625,0.17753746,-2.5402825,0.11133258,1.6575375,0.75554395,0.039999567,0.04,-9.79083,-0.25123047828674316,-0.104698256,-0.02302223,-0.0007401682669296861,-0.02772027
14.883333333333653,-0.07949734,-0.8808894,0.17989403,-2.542725,0.112809755,1.658687,0.7551395,0.039999563,0.04,-9.790978,-0.256291925907135,-0.106749624,-0.022593537,-0.0005681391921825707,-0.028012635
14.90000000000032,-0.080544114,-0.88215756,0.1822575,-2.545175,0.11429127,1.6598399,0.754734,0.03999956,0.04,-9.791117,-0.26140475273132324,-0.108831376,-0.022157311,-0.00039602923789061606,-0.02830201
14.916666666666988,-0.08159384,-0.8834293,0.1846276,-2.5476317,0.115776956,1.6609961,0.75432724,0.039999552,0.04,-9.791301,-0.266579806804657,-0.11093361,-0.021713717,-0.00022536895994562656,-0.028591402
14.933333333333655,-0.08264636,-0.88470435,0.18700396,-2.5500948,0.117266595,1.6621554,0.7539195,0.03999955,0.04,-9.791482,-0.27177515625953674,-0.11305724,-0.021262916,-5.605248952633701e-05,-0.02887677
14.950000000000323,-0.083701596,-0.8859827,0.18938638,-2.5525641,0.118760034,1.6633174,0.75351065,0.03999955,0.04,-9.79161,-0.27703532576560974,-0.115222424,-0.020805474,0.00011357644689269364,-0.029161686
14.96666666666699,-0.08475937,-0.887264,0.19177452,-2.5550394,0.120257095,1.6644825,0.75310075,0.03999954,0.04,-9.791801,-0.28232473134994507,-0.11739139,-0.020341,0.0002802444214466959,-0.02944328
14.983333333333658,-0.08581957,-0.8885484,0.1941681,-2.5575202,0.12175758,1.6656501,0.75268996,0.039999537,0.04,-9.791984,-0.2876659333705902,-0.119609065,-0.019869965,0.00044607132440432906,-0.029723443
15.000000000000325,-0.08688208,-0.8898356,0.19656685,-2.5600064,0.12326135,1.6668203,0.7522783,0.039999537,0.04,-9.792097,-0.29304733872413635,-0.12182844,-0.019392665,0.0006121345213614404,-0.029999128
15.016666666666993,-0.087946765,-0.8911255,0.19897045,-2.5624976,0.12476815,1.6679927,0.75186586,0.03999953,0.04,-9.792336,-0.298475444316864,-0.124063425,-0.018910076,0.0007740232977084816,-0.030273968
15.03333333333366,-0.089013465,-0.89241785,0.20137864,-2.5649936,0.12627786,1.6691673,0.75145257,0.03999952,0.04,-9.792441,-0.3039446473121643,-0.12634437,-0.018421477,0.0009367109159938991,-0.030545764
15.050000000000328,-0.09008208,-0.8937124,0.20379107,-2.567494,0.12779027,1.670344,0.75103855,0.03999952,0.04,-9.792658,-0.3094419538974762,-0.12863122,-0.01792699,0.0010955862235277891,-0.030812971
15.066666666666995,-0.091152504,-0.8950091,0.20620748,-2.5699983,0.12930514,1.6715229,0.7506238,0.039999507,0.04,-9.792831,-0.3150048553943634,-0.13095795,-0.017427778,0.0012529944069683552,-0.03107985
15.083333333333663,-0.092224576,-0.89630777,0.20862758,-2.572507,0.13082238,1.6727034,0.75020844,0.039999504,0.04,-9.792972,-0.32058075070381165,-0.1333061,-0.016923273,0.0014098534593358636,-0.031341404
15.10000000000033,-0.09329814,-0.8976084,0.21105114,-2.575019,0.13234173,1.6738856,0.7497925,0.039999504,0.04,-9.793185,-0.3262057304382324,-0.13566993,-0.016413933,0.001562583027407527,-0.031599153
15.116666666666998,-0.09437309,-0.8989106,0.2134778,-2.5775342,0.13386303,1.6750695,0.749376,0.039999496,0.04,-9.793366,-0.33188197016716003,-0.13804226,-0.01590044,0.001713622477836907,-0.031854816
15.133333333333665,-0.09544934,-0.9002144,0.21590722,-2.5800526,0.13538612,1.6762547,0.7489591,0.039999492,0.04,-9.793541,-0.33758553862571716,-0.14045791,-0.015382044,0.0018624274525791407,-0.032105997
15.150000000000333,-0.096526675,-0.90151954,0.21833913,-2.5825732,0.13691087,1.6774414,0.7485417,0.03999949,0.04,-9.793722,-0.3433241844177246,-0.14288394,-0.014860754,0.002008878393098712,-0.032353763
15.166666666667,-0.09760501,-0.9028257,0.22077323,-2.5850961,0.13843693,1.6786289,0.74812394,0.03999949,0.04,-9.79382,-0.3491098880767822,-0.14533967,-0.014335065,0.002156071597710252,-0.032598034
15.183333333333668,-0.098684214,-0.9041332,0.22320928,-2.5876217,0.13996422,1.6798173,0.7477059,0.03999948,0.04,-9.794007,-0.3549226224422455,-0.14781219,-0.013805712,0.0022985576651990414,-0.03283812
15.200000000000335,-0.09976413,-0.90544146,0.22564693,-2.590148,0.14149256,1.6810066,0.7472875,0.039999478,0.04,-9.794253,-0.3607689142227173,-0.15026757,-0.013273941,0.0024366171564906836,-0.033075057
15.216666666667003,-0.100844644,-0.9067505,0.22808589,-2.5926757,0.14302166,1.6821964,0.74686897,0.039999474,0.04,-9.794296,-0.36667266488075256,-0.15279455,-0.0127385715,0.002576185157522559,-0.033307992
15.23333333333367,-0.10192562,-0.9080601,0.23052578,-2.595205,0.14455147,1.6833869,0.7464502,0.039999474,0.04,-9.794441,-0.3725905120372772,-0.15530975,-0.012200287,0.0027135005220770836,-0.033535294
15.250000000000338,-0.103006944,-0.90937,0.23296636,-2.5977352,0.14608172,1.6845777,0.7460313,0.039999474,0.04,-9.794713,-0.37852373719215393,-0.15784334,-0.011660431,0.0028450838290154934,-0.033758897
15.266666666667005,-0.10408844,-0.91068006,0.23540741,-2.6002657,0.14761229,1.6857687,0.7456123,0.03999947,0.04,-9.79483,-0.3845078945159912,-0.16041248,-0.011118077,0.002974654082208872,-0.033977225
15.283333333333672,-0.105170004,-0.91199034,0.23784852,-2.6027966,0.14914292,1.6869597,0.74519336,0.039999463,0.04,-9.795015,-0.3905391991138458,-0.16298622,-0.010574088,0.0031005600467324257,-0.03419296
15.30000000000034,-0.10625153,-0.9133006,0.24028942,-2.605327,0.15067343,1.6881506,0.74477446,0.03999945,0.04,-9.795176,-0.39658376574516296,-0.16556467,-0.010028649,0.0032231383956968784,-0.034403943
15.316666666667007,-0.10733286,-0.91461056,0.24272993,-2.6078565,0.15220363,1.6893414,0.7443556,0.03999946,0.04,-9.795277,-0.4026685953140259,-0.16818404,-0.009482041,0.0033448352478444576,-0.034610223
15.333333333333675,-0.10841384,-0.9159202,0.24516954,-2.6103852,0.15373333,1.6905318,0.7439369,0.039999455,0.04,-9.795381,-0.40877315402030945,-0.17080164,-0.008933999,0.0034648797009140253,-0.03480933
15.350000000000342,-0.10949436,-0.9172292,0.24760814,-2.6129127,0.15526244,1.6917218,0.74351835,0.03999945,0.04,-9.7955065,-0.414905846118927,-0.17343256,-0.008384974,0.0035828840918838978,-0.0350045
15.36666666666701,-0.11057427,-0.9185375,0.2500453,-2.615439,0.15679069,1.6929108,0.7431,0.039999444,0.04,-9.795645,-0.4210882782936096,-0.17607802,-0.007835397,0.003698004176840186,-0.03519583
15.383333333333677,-0.11165346,-0.9198448,0.25248083,-2.6179643,0.15831785,1.6940991,0.742682,0.039999444,0.04,-9.795827,-0.42726561427116394,-0.178722,-0.00728567,0.0038074608892202377,-0.035381246
15.400000000000345,-0.11273177,-0.92115116,0.25491425,-2.620487,0.1598438,1.6952865,0.7422643,0.03999944,0.04,-9.796017,-0.4334770739078522,-0.18139616,-0.0067361756,0.003911519423127174,-0.035561025
15.416666666667012,-0.11380911,-0.9224562,0.2573455,-2.6230075,0.16136834,1.6964728,0.7418469,0.039999437,0.04,-9.796093,-0.43972158432006836,-0.18407956,-0.006187066,0.004015158396214247,-0.035735894
15.43333333333368,-0.114885315,-0.92376,0.25977415,-2.6255255,0.16289125,1.6976577,0.74143004,0.039999433,0.04,-9.796255,-0.4459894597530365,-0.18677756,-0.0056382664,0.004113649949431419,-0.035904896
15.450000000000347,-0.11596028,-0.9250621,0.26219982,-2.6280398,0.1644124,1.6988413,0.74101365,0.039999425,0.04,-9.796352,-0.45228177309036255,-0.18947732,-0.005090399,0.004209601785987616,-0.03606949
15.466666666667015,-0.117033854,-0.9263628,0.26462233,-2.6305516,0.16593157,1.7000232,0.7405978,0.03999942,0.04,-9.796409,-0.4585839509963989,-0.1922099,-0.004543431,0.004304518923163414,-0.036226798
15.483333333333682,-0.1181059,-0.9276615,0.26704133,-2.6330595,0.16744852,1.7012036,0.7401825,0.03999941,0.04,-9.7965975,-0.4649256765842438,-0.1948967,-0.003998393,0.004392348695546389,-0.036381327
15.50000000000035,-0.11917629,-0.9289582,0.26945657,-2.6355636,0.16896318,1.7023821,0.7397679,0.03999941,0.04,-9.796667,-0.4712555408477783,-0.19765666,-0.0034548643,0.004479397088289261,-0.036526043
15.516666666667017,-0.12024491,-0.9302527,0.27186778,-2.6380637,0.17047529,1.7035587,0.739354,0.039999407,0.04,-9.796768,-0.4776432514190674,-0.2003866,-0.0029134,0.004562170710414648,-0.03666721
15.533333333333685,-0.12131159,-0.9315449,0.27427456,-2.6405592,0.17198466,1.7047329,0.7389408,0.039999396,0.04,-9.796886,-0.4840447008609772,-0.20313653,-0.002373936,0.004641463980078697,-0.03680388
15.550000000000352,-0.12237623,-0.9328346,0.27667665,-2.6430497,0.17349117,1.7059052,0.7385285,0.039999396,0.04,-9.796988,-0.49043452739715576,-0.20588215,-0.0018367507,0.004715712741017342,-0.036932927
15.56666666666702,-0.1234387,-0.9341218,0.27907383,-2.645534,0.17499459,1.707075,0.7381169,0.0399994,0.04,-9.797035,-0.4968583583831787,-0.2086526,-0.0013030512,0.0047890241257846355,-0.037055068
15.583333333333687,-0.12449886,-0.935406,0.2814658,-2.648014,0.17649478,1.7082419,0.73770624,0.039999396,0.04,-9.796953,-0.5033301115036011,-0.2114249,-0.0007705373,0.004863981157541275,-0.037171826
15.600000000000355,-0.1255566,-0.9366875,0.2838522,-2.6504881,0.17799152,1.7094067,0.7372966,0.039999384,0.04,-9.797203,-0.5097750425338745,-0.2141694,-0.00024206875,0.00492845056578517,-0.0372845
15.616666666667022,-0.12661175,-0.9379658,0.2862328,-2.652956,0.17948455,1.7105683,0.7368879,0.03999938,0.04,-9.797225,-0.5162376165390015,-0.21694064,0.00028249464,0.00499321985989809,-0.037389647
15.63333333333369,-0.12766428,-0.9392408,0.2886073,-2.6554177,0.18097381,1.7117268,0.7364802,0.039999373,0.04,-9.797248,-0.5227293968200684,-0.21971503,0.00080434827,0.005053611006587744,-0.03748708
15.650000000000357,-0.12871394,-0.9405123,0.29097542,-2.6578727,0.18245903,1.7128822,0.73607355,0.039999377,0.04,-9.797343,-0.5292018055915833,-0.22248192,0.0013216153,0.005109182558953762,-0.03757756
15.666666666667025,-0.12976067,-0.94178027,0.29333684,-2.6603212,0.18394014,1.7140343,0.7356683,0.039999377,0.04,-9.797391,-0.5357242822647095,-0.22526364,0.0018354824,0.005160839296877384,-0.03766205
15.683333333333692,-0.13080436,-0.9430447,0.29569128,-2.6627624,0.18541686,1.7151833,0.7352641,0.039999366,0.04,-9.7975,-0.5422362089157104,-0.2280338,0.0023433317,0.005206742323935032,-0.03774245
15.70000000000036,-0.13184482,-0.9443052,0.29803842,-2.6651962,0.18688905,1.7163289,0.7348612,0.039999362,0.04,-9.797477,-0.5487440228462219,-0.23081943,0.0028470836,0.005252131726592779,-0.03781374
15.716666666667027,-0.132882,-0.9455617,0.30037802,-2.6676223,0.18835653,1.7174708,0.7344595,0.039999366,0.04,-9.797534,-0.5552659034729004,-0.2335957,0.0033456017,0.0052934191189706326,-0.037877608
15.733333333333695,-0.13391572,-0.94681394,0.3027098,-2.6700397,0.18981917,1.7186087,0.73405915,0.03999936,0.04,-9.7976055,-0.5617989897727966,-0.2363617,0.0038388988,0.005329652223736048,-0.03793674
15.750000000000362,-0.13494591,-0.9480618,0.30503356,-2.6724489,0.19127668,1.7197425,0.73366034,0.03999935,0.04,-9.797502,-0.5683661699295044,-0.23915833,0.004327713,0.005365906748920679,-0.037990186
15.76666666666703,-0.13597238,-0.94930524,0.30734885,-2.6748493,0.19272904,1.7208723,0.73326284,0.039999347,0.04,-9.797579,-0.574889600276947,-0.24190828,0.004810122,0.005394906736910343,-0.038033474
15.783333333333697,-0.13699505,-0.950544,0.30965546,-2.6772406,0.19417596,1.721998,0.73286694,0.039999343,0.04,-9.797546,-0.5814411640167236,-0.24468932,0.0052870978,0.005422092974185944,-0.038071305
15.800000000000365,-0.13801374,-0.951778,0.31195325,-2.6796231,0.19561732,1.7231195,0.73247236,0.03999935,0.04,-9.797519,-0.5879794359207153,-0.24745369,0.005757855,0.005446461960673332,-0.038100217
15.816666666667032,-0.13902844,-0.9530071,0.31424174,-2.6819963,0.1970529,1.7242365,0.73207927,0.039999332,0.04,-9.797571,-0.594562828540802,-0.2502113,0.0062229605,0.005466237664222717,-0.038127933
15.8333333333337,-0.1400389,-0.9542311,0.31652075,-2.6843593,0.19848257,1.725349,0.7316881,0.039999332,0.04,-9.797591,-0.6010626554489136,-0.2529525,0.0066815075,0.005480960011482239,-0.038143706
15.850000000000367,-0.14104508,-0.95544994,0.31879008,-2.6867125,0.19990619,1.7264563,0.7312987,0.039999325,0.04,-9.797517,-0.607632040977478,-0.25571144,0.0071327854,0.005493599455803633,-0.038153652
15.866666666667035,-0.14204688,-0.95666337,0.32104945,-2.6890554,0.2013235,1.7275589,0.73091054,0.039999325,0.04,-9.79751,-0.6141749620437622,-0.25843623,0.0075767003,0.005500498693436384,-0.038155507
15.883333333333702,-0.14304413,-0.9578713,0.32329863,-2.6913872,0.20273438,1.7286568,0.73052424,0.039999317,0.04,-9.797486,-0.6207259297370911,-0.26117653,0.008015557,0.005503772292286158,-0.038152542
15.90000000000037,-0.14403675,-0.9590737,0.32553706,-2.6937082,0.20413865,1.7297494,0.73013985,0.039999314,0.04,-9.797392,-0.6272644996643066,-0.26392356,0.008447411,0.005506623070687056,-0.03813927
15.916666666667037,-0.14502463,-0.96027035,0.32776484,-2.6960177,0.20553622,1.7308366,0.72975737,0.03999931,0.04,-9.797332,-0.6337921619415283,-0.26663,0.008870428,0.005505898967385292,-0.038122308
15.933333333333705,-0.14600763,-0.96146107,0.32998154,-2.698316,0.20692676,1.7319183,0.72937685,0.03999931,0.04,-9.797246,-0.640325665473938,-0.2693332,0.009286479,0.005501217674463987,-0.038094852
15.950000000000372,-0.14698558,-0.96264565,0.33218694,-2.7006025,0.20831035,1.7329947,0.72899824,0.039999317,0.04,-9.797237,-0.6468284130096436,-0.27202234,0.009693926,0.005490841809660196,-0.038060796
15.96666666666704,-0.14795844,-0.9638241,0.33438072,-2.702877,0.20968671,1.7340653,0.72862154,0.03999931,0.04,-9.79711,-0.653353214263916,-0.27472427,0.010094223,0.0054791029542684555,-0.038020376
15.983333333333707,-0.14892608,-0.9649962,0.3365627,-2.7051394,0.21105564,1.7351303,0.72824687,0.0399993,0.04,-9.797038,-0.6598647236824036,-0.2773946,0.010486509,0.005463283974677324,-0.03797536
16.000000000000373,-0.14988841,-0.96616197,0.33873263,-2.707389,0.21241702,1.7361892,0.7278742,0.0399993,0.04,-9.796983,-0.6663196086883545,-0.28006417,0.010870694,0.005443421192467213,-0.037918974
16.01666666666704,-0.15084527,-0.96732104,0.34089017,-2.7096262,0.2137707,1.7372425,0.7275038,0.0399993,0.04,-9.796843,-0.6728073954582214,-0.2827022,0.011246681,0.005420707631856203,-0.037855476
16.033333333333704,-0.15179658,-0.96847343,0.34303525,-2.7118502,0.2151165,1.7382895,0.7271355,0.03999929,0.04,-9.79676,-0.6792721152305603,-0.28535226,0.011613514,0.005394691601395607,-0.037786793
16.05000000000037,-0.15274224,-0.969619,0.34516752,-2.714061,0.21645437,1.73933,0.7267693,0.03999929,0.04,-9.796635,-0.6857103705406189,-0.28797635,0.011972043,0.005365950055420399,-0.037707303
16.066666666667036,-0.15368217,-0.97075754,0.3472867,-2.7162588,0.21778403,1.7403644,0.7264054,0.03999928,0.04,-9.79653,-0.6921651363372803,-0.29058045,0.012321835,0.005331872962415218,-0.03762496
16.0833333333337,-0.15461618,-0.9718889,0.3493926,-2.7184424,0.21910536,1.7413925,0.72604376,0.039999273,0.04,-9.796486,-0.6985389590263367,-0.29317504,0.012662203,0.005292834248393774,-0.037533276
16.100000000000367,-0.15554424,-0.97301304,0.351485,-2.7206125,0.22041823,1.742414,0.7256846,0.03999927,0.04,-9.796267,-0.7049573063850403,-0.29577905,0.01299394,0.005253652576357126,-0.037435226
16.116666666667033,-0.15646617,-0.97412974,0.3535637,-2.7227678,0.22172253,1.7434286,0.72532773,0.03999927,0.04,-9.796198,-0.711316704750061,-0.29834282,0.0133157475,0.005208403803408146,-0.03732796
16.1333333333337,-0.15738201,-0.97523904,0.3556283,-2.7249088,0.22301805,1.744436,0.7249731,0.039999258,0.04,-9.796017,-0.7176932692527771,-0.30089802,0.013628901,0.0051597426645457745,-0.03721549
16.150000000000365,-0.15829152,-0.9763407,0.3576788,-2.7270348,0.22430465,1.7454369,0.7246211,0.03999926,0.04,-9.79585,-0.7240117788314819,-0.30343023,0.013932676,0.005107500124722719,-0.037094966
16.16666666666703,-0.15919468,-0.9774346,0.3597148,-2.7291462,0.2255823,1.7464309,0.72427154,0.039999254,0.04,-9.79567,-0.7303325533866882,-0.30595836,0.014226706,0.0050540948286652565,-0.0369668
16.183333333333696,-0.16009136,-0.97852063,0.36173618,-2.731243,0.22685069,1.7474174,0.72392434,0.039999247,0.04,-9.795538,-0.7366189360618591,-0.30845878,0.014511175,0.0049959528259932995,-0.03683302
16.20000000000036,-0.16098148,-0.9795987,0.36374265,-2.7333243,0.22810978,1.748397,0.72357976,0.039999247,0.04,-9.795395,-0.7428618669509888,-0.31093696,0.014786282,0.004932736977934837,-0.036688764
16.216666666667027,-0.16186494,-0.98066884,0.36573407,-2.73539,0.22935945,1.7493691,0.7232378,0.03999924,0.04,-9.795251,-0.749110758304596,-0.31341124,0.015050935,0.004865399561822414,-0.036542412
16.233333333333693,-0.1627416,-0.98173076,0.3677102,-2.7374384,0.23059954,1.7503338,0.7228985,0.039999235,0.04,-9.795025,-0.7553044557571411,-0.3158581,0.0153056355,0.004796607419848442,-0.036384758
16.25000000000036,-0.16361144,-0.9827842,0.36967084,-2.7394714,0.23182988,1.7512909,0.7225618,0.03999923,0.04,-9.794665,-0.7615264654159546,-0.31832072,0.015551737,0.0047300742007792,-0.036220957
16.266666666667025,-0.16447432,-0.98382926,0.37161574,-2.741488,0.23305048,1.7522403,0.7222278,0.039999224,0.04,-9.794557,-0.767662763595581,-0.32071394,0.015787294,0.004656807519495487,-0.03605102
16.28333333333369,-0.16533017,-0.98486567,0.37354478,-2.7434883,0.23426099,1.7531819,0.7218966,0.039999217,0.04,-9.79428,-0.7738023400306702,-0.32311448,0.01601339,0.004582383669912815,-0.035874635
16.300000000000356,-0.16617888,-0.98589355,0.3754576,-2.7454715,0.23546144,1.7541157,0.72156817,0.039999217,0.04,-9.794141,-0.7798822522163391,-0.3254782,0.016229115,0.004501823801547289,-0.03569077
16.31666666666702,-0.16702037,-0.9869127,0.3773542,-2.7474382,0.23665169,1.7550414,0.7212425,0.03999921,0.04,-9.793818,-0.7859469652175903,-0.3278389,0.016434846,0.004421717952936888,-0.035499398
16.333333333333687,-0.16785458,-0.98792315,0.3792343,-2.7493875,0.23783165,1.7559592,0.72091967,0.039999206,0.04,-9.793668,-0.7919535040855408,-0.33014077,0.016630627,0.00433529494330287,-0.03529898
16.350000000000353,-0.16868144,-0.9889246,0.38109776,-2.7513192,0.23900115,1.756869,0.7205996,0.0399992,0.04,-9.793341,-0.7979776859283447,-0.3324628,0.016816195,0.004250187426805496,-0.03509551
16.36666666666702,-0.16950078,-0.9899171,0.38294435,-2.7532344,0.24016005,1.7577702,0.7202826,0.039999202,0.04,-9.793064,-0.8039288520812988,-0.3347544,0.01699238,0.004163461271673441,-0.0348835
16.383333333333685,-0.17031264,-0.9909004,0.38477385,-2.7551312,0.2413083,1.7586633,0.71996826,0.03999919,0.04,-9.792968,-0.809826672077179,-0.33697543,0.017156571,0.00406755181029439,-0.0346655
16.40000000000035,-0.17111686,-0.9918744,0.3865862,-2.7570107,0.24244577,1.759548,0.71965706,0.039999187,0.04,-9.792593,-0.8157249093055725,-0.33924553,0.017312678,0.003972920123487711,-0.034440152
16.416666666667016,-0.17191333,-0.9928392,0.3883811,-2.758872,0.2435723,1.7604241,0.7193488,0.039999176,0.04,-9.792379,-0.8215621113777161,-0.34145504,0.017457236,0.0038742669858038425,-0.034209065
16.43333333333368,-0.17270206,-0.9937944,0.39015839,-2.7607148,0.2446878,1.7612917,0.7190436,0.03999919,0.04,-9.792081,-0.8273571133613586,-0.34364602,0.01759226,0.003773735836148262,-0.033969235
16.450000000000347,-0.17348294,-0.9947402,0.39191803,-2.7625399,0.24579225,1.7621508,0.71874136,0.039999187,0.04,-9.79179,-0.8331286907196045,-0.34583706,0.017716944,0.00367029313929379,-0.033723585
16.466666666667013,-0.17425591,-0.9956763,0.3936598,-2.7643456,0.24688546,1.7630011,0.71844226,0.03999918,0.04,-9.791556,-0.8388500809669495,-0.34796697,0.017831419,0.003563404083251953,-0.033472165
16.48333333333368,-0.17502087,-0.9966027,0.39538357,-2.7661328,0.24796739,1.7638427,0.71814615,0.039999172,0.04,-9.791191,-0.8445466160774231,-0.35011458,0.01793618,0.003455962287262082,-0.033214457
16.500000000000345,-0.17577778,-0.9975194,0.39708918,-2.7679014,0.24903786,1.7646753,0.7178532,0.03999917,0.04,-9.7909,-0.8501951694488525,-0.35221255,0.018031416,0.0033466555178165436,-0.032953244
16.51666666666701,-0.17652656,-0.99842614,0.39877635,-2.769651,0.25009677,1.7654988,0.71756345,0.039999165,0.04,-9.790643,-0.8557679653167725,-0.35428405,0.018116344,0.003232146380469203,-0.032681767
16.533333333333676,-0.17726718,-0.9993232,0.40044507,-2.7713814,0.2511442,1.7663134,0.7172769,0.03999916,0.04,-9.790322,-0.8613107204437256,-0.3563286,0.018190887,0.0031156467739492655,-0.03240537
16.55000000000034,-0.17799951,-1.00021,0.40209514,-2.7730923,0.25217995,1.767119,0.7169936,0.03999915,0.04,-9.790004,-0.8668183088302612,-0.35835797,0.018255362,0.0029977106023579836,-0.032123238
16.566666666667007,-0.17872347,-1.0010871,0.40372643,-2.7747836,0.2532039,1.7679154,0.7167135,0.03999915,0.04,-9.789674,-0.8722730875015259,-0.36036906,0.01830993,0.0028776719700545073,-0.03183511
16.583333333333673,-0.17943911,-1.0019535,0.40533876,-2.7764556,0.25421602,1.7687025,0.7164366,0.039999153,0.04,-9.78929,-0.8776861429214478,-0.36234492,0.018355161,0.0027579045854508877,-0.031540163
16.60000000000034,-0.18014637,-1.00281,0.40693206,-2.7781081,0.25521624,1.7694806,0.716163,0.039999146,0.04,-9.789049,-0.8830223679542542,-0.3643083,0.018389884,0.002631802810356021,-0.03124028
16.616666666667005,-0.18084508,-1.0036561,0.40850627,-2.77974,0.25620437,1.7702491,0.71589255,0.03999914,0.04,-9.7886915,-0.8883377909660339,-0.36623397,0.018414862,0.0025057054590433836,-0.030937795
16.63333333333367,-0.18153526,-1.0044919,0.41006112,-2.7813518,0.2571804,1.7710081,0.71562546,0.039999135,0.04,-9.78828,-0.8936106562614441,-0.36814135,0.018431844,0.0023789587430655956,-0.03062722
16.650000000000336,-0.18221684,-1.0053176,0.41159648,-2.7829437,0.25814426,1.7717577,0.7153617,0.039999127,0.04,-9.787891,-0.8988197445869446,-0.3700274,0.01843917,0.0022516227327287197,-0.03031261
16.666666666667002,-0.18288976,-1.0061328,0.41311252,-2.784516,0.25909594,1.7724983,0.7151013,0.039999124,0.04,-9.787584,-0.9039545059204102,-0.3718511,0.018436333,0.002121004741638899,-0.02999188
16.683333333333668,-0.18355398,-1.0069371,0.41460887,-2.7860684,0.26003525,1.7732294,0.7148443,0.039999127,0.04,-9.7872715,-0.9090530872344971,-0.37367198,0.018424097,0.0019893611315637827,-0.029665126
16.700000000000333,-0.18420951,-1.0077312,0.41608557,-2.7875996,0.2609623,1.7739507,0.71459067,0.03999912,0.04,-9.786978,-0.9140763878822327,-0.3754804,0.018402223,0.0018529853550717235,-0.029333938
16.716666666667,-0.18485627,-1.0085144,0.41754243,-2.7891104,0.26187694,1.7746617,0.7143405,0.039999124,0.04,-9.786497,-0.9190890192985535,-0.37726423,0.01837153,0.0017188580241054296,-0.028996995
16.733333333333665,-0.18549418,-1.0092869,0.41897944,-2.7906008,0.26277885,1.7753631,0.7140937,0.039999124,0.04,-9.786209,-0.9240118861198425,-0.3789808,0.018331453,0.001576930400915444,-0.028655503
16.75000000000033,-0.18612325,-1.0100486,0.42039636,-2.7920704,0.26366833,1.7760547,0.7138503,0.03999912,0.04,-9.785805,-0.9288937449455261,-0.38072893,0.018283224,0.0014350544661283493,-0.028308284
16.766666666666996,-0.18674344,-1.0107999,0.42179325,-2.793519,0.26454526,1.7767365,0.71361035,0.039999112,0.04,-9.785445,-0.933724582195282,-0.3824243,0.018225897,0.0012906314805150032,-0.027961439
16.783333333333662,-0.18735467,-1.0115403,0.42317006,-2.794947,0.26540953,1.7774086,0.7133738,0.039999112,0.04,-9.785032,-0.9384792447090149,-0.38409293,0.018160198,0.0011463752016425133,-0.027605826
16.800000000000328,-0.18795696,-1.0122699,0.42452657,-2.7963536,0.2662612,1.7780707,0.7131408,0.03999911,0.04,-9.784645,-0.9431955814361572,-0.3857454,0.018086508,0.0010009519755840302,-0.02724673
16.816666666666993,-0.18855025,-1.0129884,0.42586282,-2.7977393,0.2671001,1.778723,0.71291137,0.039999105,0.04,-9.7842045,-0.9478527307510376,-0.38737863,0.018003864,0.0008551785140298307,-0.026885215
16.83333333333366,-0.18913452,-1.013696,0.42717874,-2.7991037,0.26792622,1.7793657,0.71268535,0.0399991,0.04,-9.783818,-0.9524312615394592,-0.38896847,0.017912686,0.0007080672075971961,-0.026517622
16.850000000000325,-0.18970974,-1.0143926,0.42847422,-2.8004477,0.2687395,1.7799982,0.71246296,0.03999909,0.04,-9.783418,-0.95697420835495,-0.39055437,0.017814154,0.0005608678911812603,-0.026148949
16.86666666666699,-0.19027588,-1.0150781,0.42974934,-2.80177,0.26954004,1.7806206,0.712244,0.03999909,0.04,-9.783079,-0.9614086747169495,-0.39207703,0.01770663,0.0004086845146957785,-0.02577364
16.883333333333656,-0.19083291,-1.0157523,0.4310039,-2.8030715,0.27032775,1.781233,0.7120284,0.039999086,0.04,-9.7826395,-0.9658401012420654,-0.3936154,0.01759253,0.000256236526183784,-0.025395967
16.900000000000322,-0.1913809,-1.0164163,0.4322379,-2.8043513,0.2711025,1.7818354,0.71181643,0.039999086,0.04,-9.782297,-0.9701640605926514,-0.39510515,0.017471032,9.925706399371848e-05,-0.025014808
16.916666666666988,-0.19191968,-1.0170691,0.43345132,-2.8056095,0.27186438,1.7824278,0.71160793,0.039999083,0.04,-9.781794,-0.9744464755058289,-0.39656404,0.017341278,-5.3097319323569536e-05,-0.024629043
16.933333333333653,-0.19244947,-1.0177106,0.4346441,-2.8068461,0.2726134,1.7830104,0.71140295,0.039999083,0.04,-9.78131,-0.9786942005157471,-0.39801922,0.017205639,-0.00020498187222983688,-0.024240673
16.95000000000032,-0.19297007,-1.0183411,0.43581626,-2.8080618,0.2733494,1.7835827,0.7112015,0.039999086,0.04,-9.780906,-0.9828361868858337,-0.3994455,0.017062508,-0.00035756800207309425,-0.023850752
16.966666666666985,-0.19348142,-1.0189606,0.43696782,-2.8092558,0.27407256,1.784145,0.7110037,0.039999083,0.04,-9.7805195,-0.9869142770767212,-0.4008247,0.016912255,-0.0005128878401592374,-0.023457171
16.98333333333365,-0.19398361,-1.0195689,0.43809873,-2.8104284,0.27478272,1.784697,0.71080947,0.039999075,0.04,-9.7800455,-0.9909765124320984,-0.40218118,0.016755586,-0.0006668190471827984,-0.023063816
17.000000000000316,-0.19447666,-1.0201662,0.43920895,-2.8115802,0.27547988,1.7852391,0.7106188,0.039999068,0.04,-9.77962,-0.99493008852005,-0.40352622,0.016592622,-0.0008225681958720088,-0.022666054
17.016666666666982,-0.19496053,-1.0207523,0.44029853,-2.81271,0.27616403,1.7857711,0.71043175,0.039999068,0.04,-9.779265,-0.9987984895706177,-0.40482408,0.016422372,-0.0009813412325456738,-0.02226487
17.033333333333648,-0.19543527,-1.0213274,0.44136754,-2.813819,0.27683523,1.7862931,0.71024823,0.039999064,0.04,-9.778741,-1.0026625394821167,-0.40612864,0.016246801,-0.0011375672183930874,-0.021863306
17.050000000000313,-0.1959008,-1.0218912,0.44241583,-2.8149056,0.27749345,1.786805,0.7100683,0.039999057,0.04,-9.7783785,-1.0064146518707275,-0.40738377,0.01606458,-0.0012964183697476983,-0.021459537
17.06666666666698,-0.1963572,-1.022444,0.44344348,-2.8159714,0.2781387,1.7873067,0.7098917,0.039999057,0.04,-9.777848,-1.0101231336593628,-0.40863907,0.015877904,-0.0014534384245052934,-0.021051152
17.083333333333645,-0.19680443,-1.0229857,0.44445056,-2.8170161,0.2787711,1.7877988,0.7097186,0.03999906,0.04,-9.777471,-1.0137479305267334,-0.4098436,0.0156858,-0.0016136568738147616,-0.020643516
17.10000000000031,-0.19724256,-1.0235163,0.44543692,-2.818039,0.2793906,1.7882804,0.70954907,0.039999057,0.04,-9.777019,-1.0173133611679077,-0.41104203,0.015488386,-0.0017716706497594714,-0.020234304
17.116666666666976,-0.19767156,-1.0240358,0.44640294,-2.8190408,0.27999717,1.7887522,0.70938313,0.03999905,0.04,-9.776545,-1.0208158493041992,-0.41220665,0.015286053,-0.0019313294906169176,-0.019824756
17.133333333333642,-0.19809145,-1.0245441,0.4473484,-2.8200212,0.28059092,1.7892139,0.7092206,0.039999045,0.04,-9.776096,-1.024261713027954,-0.4133573,0.015078974,-0.002090631052851677,-0.019413041
17.150000000000308,-0.19850224,-1.0250417,0.44827336,-2.8209805,0.28117177,1.7896655,0.7090617,0.03999905,0.04,-9.775677,-1.0276103019714355,-0.41447824,0.0148675535,-0.0022519398480653763,-0.019000178
17.166666666666973,-0.19890401,-1.0255282,0.4491779,-2.8219187,0.28173983,1.790107,0.70890635,0.039999045,0.04,-9.775194,-1.0309197902679443,-0.4155627,0.014651659,-0.0024124893825501204,-0.01858629
17.18333333333364,-0.19929676,-1.0260037,0.45006207,-2.8228352,0.28229505,1.7905387,0.7087545,0.039999045,0.04,-9.774747,-1.0341463088989258,-0.41663316,0.014430796,-0.0025739052798599005,-0.018173188
17.200000000000305,-0.19968049,-1.0264684,0.45092595,-2.8237312,0.28283772,1.7909606,0.70860624,0.039999045,0.04,-9.774208,-1.0373233556747437,-0.4177041,0.014207146,-0.002732987515628338,-0.017758368
17.21666666666697,-0.20005529,-1.0269225,0.45176968,-2.8246064,0.28336754,1.7913725,0.70846117,0.03999904,0.04,-9.773789,-1.0404058694839478,-0.41871515,0.0139780985,-0.00289208278991282,-0.017344464
17.233333333333636,-0.20042111,-1.0273657,0.45259333,-2.8254607,0.28388467,1.7917747,0.70831966,0.039999038,0.04,-9.773341,-1.0434266328811646,-0.41970748,0.013747003,-0.003051342908293009,-0.016930316
17.250000000000302,-0.20077804,-1.0277983,0.45339683,-2.826294,0.2843892,1.792167,0.70818156,0.039999038,0.04,-9.772866,-1.0463923215866089,-0.42069277,0.013512563,-0.0032108970917761326,-0.016515013
17.266666666666968,-0.2011261,-1.0282197,0.45418045,-2.8271065,0.28488147,1.7925495,0.708047,0.03999904,0.04,-9.772354,-1.0492945909500122,-0.42164332,0.013275327,-0.0033686556853353977,-0.01610126
17.283333333333633,-0.20146543,-1.0286309,0.45494422,-2.8278983,0.2853612,1.7929225,0.70791584,0.03999904,0.04,-9.77188,-1.052135705947876,-0.42260212,0.013035281,-0.003526365850120783,-0.015688518
17.3000000000003,-0.20179592,-1.0290312,0.45568824,-2.8286695,0.28582847,1.7932855,0.70778817,0.039999038,0.04,-9.771376,-1.0548909902572632,-0.4235085,0.012792293,-0.0036818296648561954,-0.015277051
17.316666666666965,-0.20211765,-1.0294209,0.45641258,-2.8294208,0.28628346,1.7936391,0.7076638,0.03999903,0.04,-9.770911,-1.057582139968872,-0.42439047,0.01254691,-0.003838837146759033,-0.014866507
17.33333333333363,-0.20243074,-1.0298003,0.45711747,-2.8301518,0.28672618,1.7939831,0.70754254,0.039999027,0.04,-9.77047,-1.0601983070373535,-0.42525914,0.012299879,-0.0039959498681128025,-0.01445752
17.350000000000296,-0.20273525,-1.0301692,0.4578029,-2.8308628,0.28715667,1.7943178,0.7074247,0.03999902,0.04,-9.769966,-1.0627552270889282,-0.42610276,0.0120517565,-0.004151858389377594,-0.014049476
17.366666666666962,-0.20303121,-1.0305277,0.45846912,-2.8315532,0.28757507,1.7946432,0.7073103,0.039999012,0.04,-9.769507,-1.0652283430099487,-0.42693165,0.0118013695,-0.00430711917579174,-0.013644148
17.383333333333628,-0.20331869,-1.030876,0.45911616,-2.8322241,0.28798148,1.7949592,0.7071994,0.03999901,0.04,-9.768931,-1.0676820278167725,-0.42775825,0.011550226,-0.004459100775420666,-0.013239412
17.400000000000293,-0.20359772,-1.031214,0.45974424,-2.8328755,0.2883759,1.7952658,0.7070913,0.03999901,0.04,-9.768483,-1.0700159072875977,-0.42852786,0.011296398,-0.004611543845385313,-0.012836014
17.41666666666696,-0.20386845,-1.031542,0.46035352,-2.833507,0.2887586,1.7955635,0.70698655,0.039999016,0.04,-9.767976,-1.0723098516464233,-0.42930585,0.011044225,-0.004763016942888498,-0.012434616
17.433333333333625,-0.20413084,-1.03186,0.46094415,-2.83412,0.28912956,1.7958518,0.7068852,0.039999012,0.04,-9.767464,-1.0745395421981812,-0.43005365,0.010790399,-0.004912081174552441,-0.012036045
17.45000000000029,-0.20438506,-1.0321681,0.4615163,-2.8347132,0.28948897,1.7961313,0.706787,0.039999012,0.04,-9.767048,-1.0766735076904297,-0.4307474,0.010534622,-0.005063242744654417,-0.011639629
17.466666666666956,-0.20463113,-1.0324663,0.46207014,-2.8352876,0.28983682,1.7964017,0.7066916,0.039999004,0.04,-9.76646,-1.0788010358810425,-0.43147328,0.010279698,-0.00520970206707716,-0.011248292
17.483333333333622,-0.2048691,-1.0327548,0.46260583,-2.835843,0.2901733,1.7966634,0.7065996,0.039999,0.04,-9.766005,-1.080817699432373,-0.43215415,0.010026184,-0.005357807036489248,-0.01085896
17.500000000000288,-0.20509912,-1.0330335,0.46312353,-2.83638,0.2904985,1.7969162,0.7065108,0.039999,0.04,-9.765449,-1.0827884674072266,-0.43282786,0.009772056,-0.005502233747392893,-0.010471862
17.516666666666953,-0.20532127,-1.0333028,0.46362352,-2.8368983,0.29081252,1.7971603,0.7064247,0.039998997,0.04,-9.764945,-1.0846902132034302,-0.43347594,0.009518528,-0.005646258592605591,-0.01008848
17.53333333333362,-0.20553565,-1.0335625,0.464106,-2.8373985,0.2911157,1.7973958,0.706342,0.039999,0.04,-9.764433,-1.086529016494751,-0.43409762,0.009266648,-0.005789316259324551,-0.0097085135
17.550000000000285,-0.20574233,-1.033813,0.46457112,-2.8378806,0.29140794,1.7976229,0.706262,0.039999,0.04,-9.763899,-1.0883113145828247,-0.4347281,0.009014613,-0.005929769016802311,-0.009333254
17.56666666666695,-0.20594142,-1.0340543,0.46501917,-2.838346,0.2916894,1.7978417,0.70618504,0.039998997,0.04,-9.763377,-1.0900322198867798,-0.43532035,0.008765065,-0.006068896502256393,-0.008964039
17.583333333333616,-0.206133,-1.0342865,0.4654503,-2.8387928,0.29196018,1.7980522,0.70611095,0.039999,0.04,-9.762954,-1.091649055480957,-0.43587872,0.00851544,-0.006210196763277054,-0.008596546
17.600000000000282,-0.20631719,-1.0345099,0.4658649,-2.8392224,0.2922206,1.7982545,0.70603967,0.039999004,0.04,-9.762317,-1.0932648181915283,-0.4364585,0.008269023,-0.006345898378640413,-0.008233706
17.616666666666948,-0.2064941,-1.0347241,0.46626303,-2.8396356,0.29247072,1.7984489,0.70597136,0.039999,0.04,-9.761759,-1.0948201417922974,-0.43700492,0.008025168,-0.006478882394731045,-0.007875167
17.633333333333614,-0.2066638,-1.0349299,0.46664497,-2.8400316,0.2927108,1.7986356,0.7059056,0.039998997,0.04,-9.761316,-1.0962611436843872,-0.4375286,0.0077818804,-0.006613476667553186,-0.007522322
17.65000000000028,-0.20682648,-1.0351274,0.46701106,-2.8404112,0.29294083,1.7988144,0.7058427,0.039998993,0.04,-9.760701,-1.0976972579956055,-0.43806118,0.007542836,-0.0067429319024086,-0.0071751834
17.666666666666945,-0.20698228,-1.0353165,0.4673616,-2.8407745,0.29316103,1.7989856,0.70578253,0.039998993,0.04,-9.76015,-1.0990506410598755,-0.43853745,0.007305538,-0.006869231816381216,-0.006832292
17.68333333333361,-0.20713122,-1.0354966,0.46769673,-2.8411222,0.29337162,1.7991493,0.7057248,0.039998993,0.04,-9.759579,-1.1003646850585938,-0.43903068,0.00707121,-0.006993626244366169,-0.0064949896
17.700000000000276,-0.20727347,-1.0356688,0.46801686,-2.841454,0.2935728,1.7993056,0.70567006,0.039998993,0.04,-9.7591,-1.1015938520431519,-0.43950367,0.0068408013,-0.00711985444650054,-0.006164479
17.716666666666942,-0.20740916,-1.0358334,0.46832216,-2.8417704,0.29376465,1.7994547,0.70561767,0.039998993,0.04,-9.758533,-1.102789044380188,-0.43995947,0.006612184,-0.007242918945848942,-0.0058399253
17.733333333333608,-0.20753837,-1.0359902,0.468613,-2.842072,0.2939474,1.7995968,0.7055675,0.039998993,0.04,-9.757926,-1.1039286851882935,-0.44039157,0.00638792,-0.007361939642578363,-0.0055212704
17.750000000000274,-0.20766136,-1.0361392,0.46888968,-2.8423586,0.2941212,1.7997317,0.7055198,0.039998993,0.04,-9.757329,-1.1050186157226562,-0.4408168,0.0061691813,-0.007476936560124159,-0.0052086962
17.76666666666694,-0.20777817,-1.0362811,0.4691525,-2.842631,0.2942863,1.7998599,0.705475,0.039998993,0.04,-9.756785,-1.106044054031372,-0.4412302,0.0059538935,-0.007591881323605776,-0.0049029207
17.783333333333605,-0.20788899,-1.0364156,0.46940187,-2.84289,0.294443,1.7999818,0.7054323,0.039998986,0.04,-9.756173,-1.1070325374603271,-0.44162038,0.005740596,-0.007702978327870369,-0.0046040188
17.80000000000027,-0.2079939,-1.0365429,0.469638,-2.8431349,0.29459143,1.8000973,0.70539165,0.039998986,0.04,-9.755686,-1.1079415082931519,-0.44200358,0.0055317846,-0.00781377125531435,-0.0043122154
17.816666666666936,-0.20809317,-1.0366632,0.46986133,-2.8433661,0.2947318,1.8002063,0.70535296,0.039998986,0.04,-9.7550125,-1.1088457107543945,-0.44239485,0.005329757,-0.007918535731732845,-0.0040279
17.833333333333602,-0.20818685,-1.0367771,0.47007215,-2.8435848,0.29486442,1.8003092,0.70531636,0.03999898,0.04,-9.754413,-1.1096913814544678,-0.44276556,0.0051340745,-0.008022378198802471,-0.003751519
17.850000000000268,-0.20827515,-1.0368845,0.47027087,-2.8437903,0.29498935,1.8004065,0.70528185,0.03999898,0.04,-9.753813,-1.1104635000228882,-0.44309136,0.004942721,-0.00812222994863987,-0.0034826773
17.866666666666934,-0.20835823,-1.0369854,0.47045776,-2.8439846,0.2951067,1.8004974,0.7052496,0.03999898,0.04,-9.753102,-1.1112415790557861,-0.44345778,0.004757872,-0.008214428089559078,-0.0032212338
17.8833333333336,-0.20843622,-1.03708,0.47063336,-2.8441658,0.29521707,1.8005835,0.70521945,0.03999898,0.04,-9.75268,-1.1118844747543335,-0.44374874,0.0045761103,-0.008313287049531937,-0.0029681255
17.900000000000265,-0.20850936,-1.037169,0.47079784,-2.8443375,0.29532048,1.8006634,0.70519114,0.039998982,0.04,-9.751866,-1.1126123666763306,-0.44412607,0.0044014086,-0.0084005706012249,-0.0027234282
17.91666666666693,-0.20857774,-1.0372518,0.4709517,-2.8444958,0.29541713,1.8007387,0.70516455,0.039998982,0.04,-9.751448,-1.1131515502929688,-0.44436845,0.004229969,-0.008493898436427116,-0.0024876057
17.933333333333596,-0.20864156,-1.0373296,0.47109538,-2.8446445,0.29550743,1.8008093,0.70513976,0.03999898,0.04,-9.750548,-1.113814353942871,-0.44476056,0.0040685344,-0.008573988452553749,-0.002261278
17.950000000000262,-0.20870107,-1.0374019,0.47122929,-2.844785,0.2955916,1.8008741,0.7051167,0.03999898,0.04,-9.749997,-1.1143100261688232,-0.44501156,0.003911727,-0.008651728741824627,-0.0020439255
17.966666666666928,-0.20875642,-1.0374693,0.47135374,-2.8449125,0.29566988,1.8009348,0.7050953,0.03999898,0.04,-9.749614,-1.1147466897964478,-0.44523084,0.0037584435,-0.008739979937672615,-0.001835334
17.983333333333594,-0.20880778,-1.0375321,0.4714693,-2.845031,0.29574254,1.8009913,0.7050757,0.03999898,0.04,-9.748516,-1.1153311729431152,-0.4456194,0.0036160727,-0.008807506412267685,-0.0016362299
18.00000000000026,-0.20885536,-1.0375899,0.47157636,-2.8451414,0.29580984,1.8010437,0.70505744,0.039998975,0.04,-9.747845,-1.1157548427581787,-0.4458611,0.0034788037,-0.008870341815054417,-0.0014450729
18.016666666666925,-0.20889935,-1.0376432,0.47167537,-2.845244,0.295872,1.8010923,0.7050404,0.03999898,0.04,-9.747292,-1.1161378622055054,-0.44611117,0.0033482262,-0.008934601210057735,-0.0012660597
18.03333333333359,-0.20893998,-1.0376923,0.4717667,-2.8453386,0.29592946,1.801137,0.7050248,0.03999898,0.04,-9.74666,-1.1164814233779907,-0.4463661,0.0032256665,-0.008997451514005661,-0.0010962328
18.050000000000257,-0.20897745,-1.0377375,0.47185096,-2.8454256,0.29598236,1.8011783,0.70501035,0.03999898,0.04,-9.745957,-1.1168291568756104,-0.44662994,0.003109592,-0.009056931361556053,-0.0009374966
18.066666666666922,-0.20901188,-1.0377793,0.47192854,-2.8455052,0.29603112,1.8012165,0.70499706,0.03999898,0.04,-9.745233,-1.1171411275863647,-0.44688997,0.0030017123,-0.00911119394004345,-0.0007886667
18.083333333333588,-0.20904362,-1.0378182,0.47199988,-2.8455775,0.29607594,1.8012515,0.704985,0.039998975,0.04,-9.744452,-1.1174507141113281,-0.4471253,0.002902318,-0.009159381501376629,-0.00065064343
18.100000000000254,-0.2090728,-1.037854,0.47206554,-2.8456478,0.29611722,1.8012829,0.70497376,0.039998975,0.04,-9.743569,-1.1177500486373901,-0.44737208,0.0028107178,-0.009196924977004528,-0.00052289304
18.11666666666692,-0.20909965,-1.0378869,0.47212595,-2.8457112,0.29615524,1.8013127,0.70496345,0.039998975,0.04,-9.743428,-1.1178497076034546,-0.44746786,0.0027222442,-0.009252804331481457,-0.00040589794
18.133333333333585,-0.2091244,-1.0379169,0.4721816,-2.8457677,0.2961902,1.8013401,0.70495397,0.039998975,0.04,-9.742591,-1.1181331872940063,-0.44775257,0.002642216,-0.009293901734054089,-0.00029819
18.15000000000025,-0.20914719,-1.0379449,0.47223273,-2.8458226,0.29622245,1.8013645,0.7049451,0.03999897,0.04,-9.7418,-1.1184104681015015,-0.44799688,0.0025709588,-0.009324777871370316,-0.00019877811
18.166666666666917,-0.20916815,-1.0379704,0.47227994,-2.8458707,0.2962521,1.8013881,0.7049373,0.03999897,0.04,-9.741642,-1.118491291999817,-0.4480661,0.002501917,-0.009367593564093113,-0.000108919165
18.183333333333582,-0.2091874,-1.037994,0.4723233,-2.8459158,0.29627925,1.8014086,0.7049298,0.03999897,0.04,-9.740841,-1.1187649965286255,-0.44833204,0.0024401937,-0.009393114596605301,-2.4358435e-05
18.200000000000248,-0.20920514,-1.0380157,0.47236297,-2.8459563,0.29630435,1.8014284,0.704923,0.03999897,0.04,-9.740517,-1.1188985109329224,-0.4484205,0.0023836999,-0.009424756281077862,5.3393847e-05
18.216666666666914,-0.20922147,-1.0380358,0.47239965,-2.845996,0.2963274,1.8014463,0.70491683,0.03999897,0.04,-9.739963,-1.1190683841705322,-0.44860697,0.0023322313,-0.00944547075778246,0.00012388572
18.23333333333358,-0.2092365,-1.038054,0.47243348,-2.846029,0.2963487,1.8014623,0.7049111,0.03999897,0.04,-9.739892,-1.1191253662109375,-0.44865555,0.0022813636,-0.009476014412939548,0.00018942352
18.250000000000245,-0.20925032,-1.0380709,0.47246456,-2.846062,0.29636824,1.8014783,0.7049058,0.03999897,0.04,-9.7391405,-1.1193853616714478,-0.4488599,0.0022393698,-0.009492650628089905,0.0002495269
18.26666666666691,-0.20926303,-1.0380864,0.47249305,-2.8460915,0.29638618,1.801492,0.70490086,0.03999897,0.04,-9.739102,-1.11940336227417,-0.4489153,0.002197756,-0.009512098506093025,0.0003053897
18.283333333333577,-0.20927474,-1.0381007,0.4725194,-2.846117,0.29640278,1.8015041,0.70489633,0.03999897,0.04,-9.738742,-1.1195323467254639,-0.44901282,0.0021604884,-0.009531700983643532,0.00035608053
18.300000000000242,-0.20928551,-1.038114,0.4725435,-2.8461423,0.29641795,1.8015163,0.7048924,0.03999897,0.04,-9.73827,-1.1197060346603394,-0.4491299,0.002128405,-0.009544260799884796,0.00040280807
18.316666666666908,-0.20929544,-1.038126,0.47256574,-2.8461668,0.29643196,1.8015281,0.7048887,0.03999897,0.04,-9.7382345,-1.1197096109390259,-0.44917756,0.0020951915,-0.009558865800499916,0.0004460979
18.333333333333574,-0.20930454,-1.0381372,0.47258618,-2.8461878,0.29644486,1.8015375,0.7048852,0.03999897,0.04,-9.738167,-1.119753122329712,-0.44923678,0.0020633882,-0.009575923904776573,0.00048591854
18.35000000000024,-0.20931293,-1.0381476,0.47260502,-2.846206,0.29645675,1.8015459,0.70488185,0.03999897,0.04,-9.737761,-1.1198959350585938,-0.44931468,0.0020367738,-0.009590483270585537,0.00052218256
18.366666666666905,-0.20932063,-1.038157,0.4726223,-2.8462236,0.29646772,1.8015542,0.7048788,0.03999897,0.04,-9.737429,-1.1200116872787476,-0.44940364,0.0020142156,-0.009599803946912289,0.000555516
18.38333333333357,-0.20932777,-1.0381658,0.47263825,-2.8462412,0.29647782,1.8015625,0.704876,0.03999897,0.04,-9.737372,-1.120032787322998,-0.4494495,0.0019920561,-0.009610108099877834,0.00058595964
18.400000000000237,-0.20933433,-1.0381737,0.47265285,-2.8462572,0.2964871,1.8015705,0.7048735,0.03999897,0.04,-9.737369,-1.12003755569458,-0.44947383,0.0019696236,-0.00962213147431612,0.00061448524
18.416666666666902,-0.20934032,-1.0381811,0.47266635,-2.846271,0.29649556,1.8015776,0.7048713,0.03999897,0.04,-9.737185,-1.1201040744781494,-0.4495503,0.0019490728,-0.009631848894059658,0.0006403086
18.433333333333568,-0.20934585,-1.038188,0.4726788,-2.8462834,0.29650334,1.8015827,0.7048693,0.03999897,0.04,-9.736928,-1.1201919317245483,-0.44960362,0.0019311381,-0.009637696668505669,0.00066480454
18.450000000000234,-0.20935093,-1.0381944,0.47269022,-2.8462942,0.29651055,1.8015872,0.7048674,0.03999897,0.04,-9.736788,-1.1202574968338013,-0.44961625,0.0019149889,-0.009647322818636894,0.0006871272
18.4666666666669,-0.20935561,-1.0382001,0.47270074,-2.8463042,0.29651713,1.8015918,0.70486563,0.03999897,0.04,-9.736587,-1.120321273803711,-0.4496718,0.0019007779,-0.00965346023440361,0.0007073724
18.483333333333565,-0.20935993,-1.0382056,0.47271043,-2.8463142,0.2965232,1.8015963,0.7048639,0.03999897,0.04,-9.73651,-1.1203508377075195,-0.44971678,0.0018881223,-0.009659155271947384,0.0007261729
18.50000000000023,-0.20936391,-1.0382106,0.47271925,-2.8463242,0.29652882,1.8016008,0.70486236,0.03999897,0.04,-9.520073,-1.1018153429031372,-0.47566986,0.0,-0.0,0.0
18.516666666666897,-0.20936391,-1.0382106,0.47271925,-2.8463242,0.29652882,1.8016008,0.70486236,0.03999897,0.04,-9.735422,-1.1203428506851196,-0.4499983,0.0,-0.0,0.0
18.533333333333562,-0.20936391,-1.0382106,0.47271925,-2.8463242,0.29652882,1.8016008,0.70486236,0.03999897,0.04,-9.735422,-1.1203428506851196,-0.4499983,0.0,-0.0,0.0
18.550000000000228,-0.20936391,-1.0382106,0.47271925,-2.8463242,0.29652882,1.8016008,0.70486236,0.03999897,0.04,-9.735422,-1.1203428506851196,-0.4499983,0.0,-0.0,0.0
18.566666666666894,-0.20936391,-1.0382106,0.47271925,-2.8463242,0.29652882,1.8016008,0.70486236,0.03999897,0.04,-9.735422,-1.1203428506851196,-0.4499983,0.0,-0.0,0.0
18.58333333333356,-0.20936391,-1.0382106,0.47271925,-2.8463242,0.29652882,1.8016008,0.70486236,0.03999897,0.04,-9.735422,-1.1203428506851196,-0.4499983,0.0,-0.0,0.0
18.600000000000225,-0.20936391,-1.0382106,0.47271925,-2.8463242,0.29652882,1.8016008,0.70486236,0.03999897,0.04,-9.735422,-1.1203428506851196,-0.4499983,0.0,-0.0,0.0
18.61666666666689,-0.20936391,-1.0382106,0.47271925,-2.8463242,0.29652882,1.8016008,0.70486236,0.03999897,0.04,-9.735422,-1.1203428506851196,-0.4499983,0.0,-0.0,0.0
18.633333333333557,-0.20936391,-1.0382106,0.47271925,-2.8463242,0.29652882,1.8016008,0.70486236,0.03999897,0.04,-9.735422,-1.1203428506851196,-0.4499983,0.0,-0.0,0.0
18.650000000000222,-0.20936391,-1.0382106,0.47271925,-2.8463242,0.29652882,1.8016008,0.70486236,0.03999897,0.04,-9.735422,-1.1203428506851196,-0.4499983,0.0,-0.0,0.0
18.666666666666888,-0.20936391,-1.0382106,0.47271925,-2.8463242,0.29652882,1.8016008,0.70486236,0.03999897,0.04,-9.735422,-1.1203428506851196,-0.4499983,0.0,-0.0,0.0
18.683333333333554,-0.20936391,-1.0382106,0.47271925,-2.8463242,0.29652882,1.8016008,0.70486236,0.03999897,0.04,-9.735422,-1.1203428506851196,-0.4499983,0.0,-0.0,0.0
18.70000000000022,-0.20936391,-1.0382106,0.47271925,-2.8463242,0.29652882,1.8016008,0.70486236,0.03999897,0.04,-9.735422,-1.1203428506851196,-0.4499983,0.0,-0.0,0.0
18.716666666666885,-0.20936391,-1.0382106,0.47271925,-2.8463242,0.29652882,1.8016008,0.70486236,0.03999897,0.04,-9.735422,-1.1203428506851196,-0.4499983,0.0,-0.0,0.0
18.73333333333355,-0.20936391,-1.0382106,0.47271925,-2.8463242,0.29652882,1.8016008,0.70486236,0.03999897,0.04,-9.735422,-1.1203428506851196,-0.4499983,0.0,-0.0,0.0
18.750000000000217,-0.20936391,-1.0382106,0.47271925,-2.8463242,0.29652882,1.8016008,0.70486236,0.03999897,0.04,-9.735422,-1.1203428506851196,-0.4499983,0.0,-0.0,0.0
18.766666666666882,-0.20936391,-1.0382106,0.47271925,-2.8463242,0.29652882,1.8016008,0.70486236,0.03999897,0.04,-9.735422,-1.1203428506851196,-0.4499983,0.0,-0.0,0.0
18.783333333333548,-0.20936391,-1.0382106,0.47271925,-2.8463242,0.29652882,1.8016008,0.70486236,0.03999897,0.04,-9.735422,-1.1203428506851196,-0.4499983,0.0,-0.0,0.0
18.800000000000214,-0.20936391,-1.0382106,0.47271925,-2.8463242,0.29652882,1.8016008,0.70486236,0.03999897,0.04,-9.735422,-1.1203428506851196,-0.4499983,0.0,-0.0,0.0
18.81666666666688,-0.20936391,-1.0382106,0.47271925,-2.8463242,0.29652882,1.8016008,0.70486236,0.03999897,0.04,-9.735422,-1.1203428506851196,-0.4499983,0.0,-0.0,0.0
18.833333333333545,-0.20936391,-1.0382106,0.47271925,-2.8463242,0.29652882,1.8016008,0.70486236,0.03999897,0.04,-9.735422,-1.1203428506851196,-0.4499983,0.0,-0.0,0.0
18.85000000000021,-0.20936391,-1.0382106,0.47271925,-2.8463242,0.29652882,1.8016008,0.70486236,0.03999897,0.04,-9.735422,-1.1203428506851196,-0.4499983,0.0,-0.0,0.0
18.866666666666877,-0.20936391,-1.0382106,0.47271925,-2.8463242,0.29652882,1.8016008,0.70486236,0.03999897,0.04,-9.735422,-1.1203428506851196,-0.4499983,0.0,-0.0,0.0
18.883333333333542,-0.20936391,-1.0382106,0.47271925,-2.8463242,0.29652882,1.8016008,0.70486236,0.03999897,0.04,-9.735422,-1.1203428506851196,-0.4499983,0.0,-0.0,0.0
18.900000000000208,-0.20936391,-1.0382106,0.47271925,-2.8463242,0.29652882,1.8016008,0.70486236,0.03999897,0.04,-9.735422,-1.1203428506851196,-0.4499983,0.0,-0.0,0.0
18.916666666666874,-0.20936391,-1.0382106,0.47271925,-2.8463242,0.29652882,1.8016008,0.70486236,0.03999897,0.04,-9.735422,-1.1203428506851196,-0.4499983,0.0,-0.0,0.0
18.93333333333354,-0.20936391,-1.0382106,0.47271925,-2.8463242,0.29652882,1.8016008,0.70486236,0.03999897,0.04,-9.735422,-1.1203428506851196,-0.4499983,0.0,-0.0,0.0
18.950000000000205,-0.20936391,-1.0382106,0.47271925,-2.8463242,0.29652882,1.8016008,0.70486236,0.03999897,0.04,-9.735422,-1.1203428506851196,-0.4499983,0.0,-0.0,0.0
18.96666666666687,-0.20936391,-1.0382106,0.47271925,-2.8463242,0.29652882,1.8016008,0.70486236,0.03999897,0.04,-9.735422,-1.1203428506851196,-0.4499983,0.0,-0.0,0.0
18.983333333333537,-0.20936391,-1.0382106,0.47271925,-2.8463242,0.29652882,1.8016008,0.70486236,0.03999897,0.04,-9.735422,-1.1203428506851196,-0.4499983,0.0,-0.0,0.0
19.000000000000203,-0.20936391,-1.0382106,0.47271925,-2.8463242,0.29652882,1.8016008,0.70486236,0.03999897,0.04,-9.735422,-1.1203428506851196,-0.4499983,0.0,-0.0,0.0
19.01666666666687,-0.20936391,-1.0382106,0.47271925,-2.8463242,0.29652882,1.8016008,0.70486236,0.03999897,0.04,-9.735422,-1.1203428506851196,-0.4499983,0.0,-0.0,0.0
19.033333333333534,-0.20936391,-1.0382106,0.47271925,-2.8463242,0.29652882,1.8016008,0.70486236,0.03999897,0.04,-9.735422,-1.1203428506851196,-0.4499983,0.0,-0.0,0.0
19.0500000000002,-0.20936391,-1.0382106,0.47271925,-2.8463242,0.29652882,1.8016008,0.70486236,0.03999897,0.04,-9.735422,-1.1203428506851196,-0.4499983,0.0,-0.0,0.0
19.066666666666865,-0.20936391,-1.0382106,0.47271925,-2.8463242,0.29652882,1.8016008,0.70486236,0.03999897,0.04,-9.735422,-1.1203428506851196,-0.4499983,0.0,-0.0,0.0
19.08333333333353,-0.20936391,-1.0382106,0.47271925,-2.8463242,0.29652882,1.8016008,0.70486236,0.03999897,0.04,-9.735422,-1.1203428506851196,-0.4499983,0.0,-0.0,0.0
19.100000000000197,-0.20936391,-1.0382106,0.47271925,-2.8463242,0.29652882,1.8016008,0.70486236,0.03999897,0.04,-9.735422,-1.1203428506851196,-0.4499983,0.0,-0.0,0.0
19.116666666666863,-0.20936391,-1.0382106,0.47271925,-2.8463242,0.29652882,1.8016008,0.70486236,0.03999897,0.04,-9.735422,-1.1203428506851196,-0.4499983,0.0,-0.0,0.0
19.13333333333353,-0.20936391,-1.0382106,0.47271925,-2.8463242,0.29652882,1.8016008,0.70486236,0.03999897,0.04,-9.735422,-1.1203428506851196,-0.4499983,0.0,-0.0,0.0
19.150000000000194,-0.20936391,-1.0382106,0.47271925,-2.8463242,0.29652882,1.8016008,0.70486236,0.03999897,0.04,-9.735422,-1.1203428506851196,-0.4499983,0.0,-0.0,0.0
19.16666666666686,-0.20936391,-1.0382106,0.47271925,-2.8463242,0.29652882,1.8016008,0.70486236,0.03999897,0.04,-9.735422,-1.1203428506851196,-0.4499983,0.0,-0.0,0.0
19.183333333333525,-0.20936391,-1.0382106,0.47271925,-2.8463242,0.29652882,1.8016008,0.70486236,0.03999897,0.04,-9.735422,-1.1203428506851196,-0.4499983,0.0,-0.0,0.0
19.20000000000019,-0.20936391,-1.0382106,0.47271925,-2.8463242,0.29652882,1.8016008,0.70486236,0.03999897,0.04,-9.735422,-1.1203428506851196,-0.4499983,0.0,-0.0,0.0
19.216666666666857,-0.20936391,-1.0382106,0.47271925,-2.8463242,0.29652882,1.8016008,0.70486236,0.03999897,0.04,-9.735422,-1.1203428506851196,-0.4499983,0.0,-0.0,0.0
19.233333333333523,-0.20936391,-1.0382106,0.47271925,-2.8463242,0.29652882,1.8016008,0.70486236,0.03999897,0.04,-9.735422,-1.1203428506851196,-0.4499983,0.0,-0.0,0.0
19.25000000000019,-0.20936391,-1.0382106,0.47271925,-2.8463242,0.29652882,1.8016008,0.70486236,0.03999897,0.04,-9.735422,-1.1203428506851196,-0.4499983,0.0,-0.0,0.0
19.266666666666854,-0.20936391,-1.0382106,0.47271925,-2.8463242,0.29652882,1.8016008,0.70486236,0.03999897,0.04,-9.735422,-1.1203428506851196,-0.4499983,0.0,-0.0,0.0
19.28333333333352,-0.20936391,-1.0382106,0.47271925,-2.8463242,0.29652882,1.8016008,0.70486236,0.03999897,0.04,-9.735422,-1.1203428506851196,-0.4499983,0.0,-0.0,0.0
19.300000000000185,-0.20936391,-1.0382106,0.47271925,-2.8463242,0.29652882,1.8016008,0.70486236,0.03999897,0.04,-9.735422,-1.1203428506851196,-0.4499983,0.0,-0.0,0.0
19.31666666666685,-0.20936391,-1.0382106,0.47271925,-2.8463242,0.29652882,1.8016008,0.70486236,0.03999897,0.04,-9.735422,-1.1203428506851196,-0.4499983,0.0,-0.0,0.0
19.333333333333517,-0.20936391,-1.0382106,0.47271925,-2.8463242,0.29652882,1.8016008,0.70486236,0.03999897,0.04,-9.735422,-1.1203428506851196,-0.4499983,0.0,-0.0,0.0
19.350000000000183,-0.20936391,-1.0382106,0.47271925,-2.8463242,0.29652882,1.8016008,0.70486236,0.03999897,0.04,-9.735422,-1.1203428506851196,-0.4499983,0.0,-0.0,0.0
19.36666666666685,-0.20936391,-1.0382106,0.47271925,-2.8463242,0.29652882,1.8016008,0.70486236,0.03999897,0.04,-9.735422,-1.1203428506851196,-0.4499983,0.0,-0.0,0.0
19.383333333333514,-0.20936391,-1.0382106,0.47271925,-2.8463242,0.29652882,1.8016008,0.70486236,0.03999897,0.04,-9.735422,-1.1203428506851196,-0.4499983,0.0,-0.0,0.0
19.40000000000018,-0.20936391,-1.0382106,0.47271925,-2.8463242,0.29652882,1.8016008,0.70486236,0.03999897,0.04,-9.735422,-1.1203428506851196,-0.4499983,0.0,-0.0,0.0
19.416666666666845,-0.20936391,-1.0382106,0.47271925,-2.8463242,0.29652882,1.8016008,0.70486236,0.03999897,0.04,-9.735422,-1.1203428506851196,-0.4499983,0.0,-0.0,0.0
19.43333333333351,-0.20936391,-1.0382106,0.47271925,-2.8463242,0.29652882,1.8016008,0.70486236,0.03999897,0.04,-9.735422,-1.1203428506851196,-0.4499983,0.0,-0.0,0.0
19.450000000000177,-0.20936391,-1.0382106,0.47271925,-2.8463242,0.29652882,1.8016008,0.70486236,0.03999897,0.04,-9.735422,-1.1203428506851196,-0.4499983,0.0,-0.0,0.0
19.466666666666843,-0.20936391,-1.0382106,0.47271925,-2.8463242,0.29652882,1.8016008,0.70486236,0.03999897,0.04,-9.735422,-1.1203428506851196,-0.4499983,0.0,-0.0,0.0
19.48333333333351,-0.20936391,-1.0382106,0.47271925,-2.8463242,0.29652882,1.8016008,0.70486236,0.03999897,0.04,-9.735422,-1.1203428506851196,-0.4499983,0.0,-0.0,0.0
19.500000000000174,-0.20936391,-1.0382106,0.47271925,-2.8463242,0.29652882,1.8016008,0.70486236,0.03999897,0.04,-9.735422,-1.1203428506851196,-0.4499983,0.0,-0.0,0.0
19.51666666666684,-0.20936391,-1.0382106,0.47271925,-2.8463242,0.29652882,1.8016008,0.70486236,0.03999897,0.04,-9.735422,-1.1203428506851196,-0.4499983,0.0,-0.0,0.0
19.533333333333506,-0.20936391,-1.0382106,0.47271925,-2.8463242,0.29652882,1.8016008,0.70486236,0.03999897,0.04,-9.735422,-1.1203428506851196,-0.4499983,0.0,-0.0,0.0
19.55000000000017,-0.20936391,-1.0382106,0.47271925,-2.8463242,0.29652882,1.8016008,0.70486236,0.03999897,0.04,-9.735422,-1.1203428506851196,-0.4499983,0.0,-0.0,0.0
19.566666666666837,-0.20936391,-1.0382106,0.47271925,-2.8463242,0.29652882,1.8016008,0.70486236,0.03999897,0.04,-9.735422,-1.1203428506851196,-0.4499983,0.0,-0.0,0.0
19.583333333333503,-0.20936391,-1.0382106,0.47271925,-2.8463242,0.29652882,1.8016008,0.70486236,0.03999897,0.04,-9.735422,-1.1203428506851196,-0.4499983,0.0,-0.0,0.0
19.60000000000017,-0.20936391,-1.0382106,0.47271925,-2.8463242,0.29652882,1.8016008,0.70486236,0.03999897,0.04,-9.735422,-1.1203428506851196,-0.4499983,0.0,-0.0,0.0
19.616666666666834,-0.20936391,-1.0382106,0.47271925,-2.8463242,0.29652882,1.8016008,0.70486236,0.03999897,0.04,-9.735422,-1.1203428506851196,-0.4499983,0.0,-0.0,0.0
19.6333333333335,-0.20936391,-1.0382106,0.47271925,-2.8463242,0.29652882,1.8016008,0.70486236,0.03999897,0.04,-9.735422,-1.1203428506851196,-0.4499983,0.0,-0.0,0.0
19.650000000000166,-0.20936391,-1.0382106,0.47271925,-2.8463242,0.29652882,1.8016008,0.70486236,0.03999897,0.04,-9.735422,-1.1203428506851196,-0.4499983,0.0,-0.0,0.0
19.66666666666683,-0.20936391,-1.0382106,0.47271925,-2.8463242,0.29652882,1.8016008,0.70486236,0.03999897,0.04,-9.735422,-1.1203428506851196,-0.4499983,0.0,-0.0,0.0
19.683333333333497,-0.20936391,-1.0382106,0.47271925,-2.8463242,0.29652882,1.8016008,0.70486236,0.03999897,0.04,-9.735422,-1.1203428506851196,-0.4499983,0.0,-0.0,0.0
19.700000000000163,-0.20936391,-1.0382106,0.47271925,-2.8463242,0.29652882,1.8016008,0.70486236,0.03999897,0.04,-9.735422,-1.1203428506851196,-0.4499983,0.0,-0.0,0.0
19.71666666666683,-0.20936391,-1.0382106,0.47271925,-2.8463242,0.29652882,1.8016008,0.70486236,0.03999897,0.04,-9.735422,-1.1203428506851196,-0.4499983,0.0,-0.0,0.0
19.733333333333494,-0.20936391,-1.0382106,0.47271925,-2.8463242,0.29652882,1.8016008,0.70486236,0.03999897,0.04,-9.735422,-1.1203428506851196,-0.4499983,0.0,-0.0,0.0
19.75000000000016,-0.20936391,-1.0382106,0.47271925,-2.8463242,0.29652882,1.8016008,0.70486236,0.03999897,0.04,-9.735422,-1.1203428506851196,-0.4499983,0.0,-0.0,0.0
19.766666666666826,-0.20936391,-1.0382106,0.47271925,-2.8463242,0.29652882,1.8016008,0.70486236,0.03999897,0.04,-9.735422,-1.1203428506851196,-0.4499983,0.0,-0.0,0.0
19.78333333333349,-0.20936391,-1.0382106,0.47271925,-2.8463242,0.29652882,1.8016008,0.70486236,0.03999897,0.04,-9.735422,-1.1203428506851196,-0.4499983,0.0,-0.0,0.0
19.800000000000157,-0.20936391,-1.0382106,0.47271925,-2.8463242,0.29652882,1.8016008,0.70486236,0.03999897,0.04,-9.735422,-1.1203428506851196,-0.4499983,0.0,-0.0,0.0
19.816666666666823,-0.20936391,-1.0382106,0.47271925,-2.8463242,0.29652882,1.8016008,0.70486236,0.03999897,0.04,-9.735422,-1.1203428506851196,-0.4499983,0.0,-0.0,0.0
19.83333333333349,-0.20936391,-1.0382106,0.47271925,-2.8463242,0.29652882,1.8016008,0.70486236,0.03999897,0.04,-9.735422,-1.1203428506851196,-0.4499983,0.0,-0.0,0.0
19.850000000000154,-0.20936391,-1.0382106,0.47271925,-2.8463242,0.29652882,1.8016008,0.70486236,0.03999897,0.04,-9.735422,-1.1203428506851196,-0.4499983,0.0,-0.0,0.0
19.86666666666682,-0.20936391,-1.0382106,0.47271925,-2.8463242,0.29652882,1.8016008,0.70486236,0.03999897,0.04,-9.735422,-1.1203428506851196,-0.4499983,0.0,-0.0,0.0
19.883333333333486,-0.20936391,-1.0382106,0.47271925,-2.8463242,0.29652882,1.8016008,0.70486236,0.03999897,0.04,-9.735422,-1.1203428506851196,-0.4499983,0.0,-0.0,0.0
19.90000000000015,-0.20936391,-1.0382106,0.47271925,-2.8463242,0.29652882,1.8016008,0.70486236,0.03999897,0.04,-9.735422,-1.1203428506851196,-0.4499983,0.0,-0.0,0.0
19.916666666666817,-0.20936391,-1.0382106,0.47271925,-2.8463242,0.29652882,1.8016008,0.70486236,0.03999897,0.04,-9.735422,-1.1203428506851196,-0.4499983,0.0,-0.0,0.0
19.933333333333483,-0.20936391,-1.0382106,0.47271925,-2.8463242,0.29652882,1.8016008,0.70486236,0.03999897,0.04,-9.735422,-1.1203428506851196,-0.4499983,0.0,-0.0,0.0
19.95000000000015,-0.20936391,-1.0382106,0.47271925,-2.8463242,0.29652882,1.8016008,0.70486236,0.03999897,0.04,-9.735422,-1.1203428506851196,-0.4499983,0.0,-0.0,0.0
19.966666666666814,-0.20936391,-1.0382106,0.47271925,-2.8463242,0.29652882,1.8016008,0.70486236,0.03999897,0.04,-9.735422,-1.1203428506851196,-0.4499983,0.0,-0.0,0.0
19.98333333333348,-0.20936391,-1.0382106,0.47271925,-2.8463242,0.29652882,1.8016008,0.70486236,0.03999897,0.04,-9.735422,-1.1203428506851196,-0.4499983,0.0,-0.0,0.0
20.000000000000146,-0.20936391,-1.0382106,0.47271925,-2.8463242,0.29652882,1.8016008,0.70486236,0.03999897,0.04,-9.735422,-1.1203428506851196,-0.4499983,0.0,-0.0,0.0
20.01666666666681,-0.20936391,-1.0382106,0.47271925,-2.8463242,0.29652882,1.8016008,0.70486236,0.03999897,0.04,-9.735422,-1.1203428506851196,-0.4499983,0.0,-0.0,0.0
20.033333333333477,-0.20936391,-1.0382106,0.47271925,-2.8463242,0.29652882,1.8016008,0.70486236,0.03999897,0.04,-9.735422,-1.1203428506851196,-0.4499983,0.0,-0.0,0.0
20.050000000000143,-0.20936391,-1.0382106,0.47271925,-2.8463242,0.29652882,1.8016008,0.70486236,0.03999897,0.04,-9.735422,-1.1203428506851196,-0.4499983,0.0,-0.0,0.0
20.06666666666681,-0.20936391,-1.0382106,0.47271925,-2.8463242,0.29652882,1.8016008,0.70486236,0.03999897,0.04,-9.735422,-1.1203428506851196,-0.4499983,0.0,-0.0,0.0
20.083333333333474,-0.20936391,-1.0382106,0.47271925,-2.8463242,0.29652882,1.8016008,0.70486236,0.03999897,0.04,-9.735422,-1.1203428506851196,-0.4499983,0.0,-0.0,0.0
20.10000000000014,-0.20936391,-1.0382106,0.47271925,-2.8463242,0.29652882,1.8016008,0.70486236,0.03999897,0.04,-9.735422,-1.1203428506851196,-0.4499983,0.0,-0.0,0.0
