rsonawane2002/My_IMU/logs_2/traj_1600/imu_400hz_1600.csv
time,j1,j2,j3,j4,j5,j6,j7,gripper1,gripper2,imu_ax,imu_ay,imu_az,imu_gx,imu_gy,imu_gz
0.0,0.00016703313,-0.78463066,4.018289e-05,-2.3561552,9.3351664e-05,1.5709763,0.7860001,1.2118691e-05,1.21186895e-05,-9.809999,0.0006323276320472,-0.0050887167,0.0,-0.0,0.0
0.0025,0.0001669749945,-0.784628341,4.00949885e-05,-2.3561570599999997,0.00010352564139999991,1.5709763300000001,0.785999965,0.00048217043734999544,0.00048241148607499544,-9.852035538346657,-0.011611447558550455,-0.02313301045624586,-0.00026219083014700245,-0.0021272426578971093,0.0002150401776993279
0.005,0.000166916859,-0.784626022,4.0007086999999996e-05,-2.35615892,0.0001136996187999998,1.57097636,0.78599983,0.000952222183699991,0.0009527042826499909,-9.894072076693316,-0.023855222749148107,-0.041177304212491724,-0.0005243816602940049,-0.004254485315794219,0.0004300803553986558
0.0075,0.0001668587235,-0.784623703,3.99191855e-05,-2.3561607799999997,0.0001238735961999997,1.57097639,0.785999695,0.0014222739300499862,0.0014229970792249862,-9.936108615039974,-0.03609899793974576,-0.05922159796873758,-0.0007865724904410073,-0.0063817279736913275,0.0006451205330979837
0.01,0.000166800588,-0.784621384,3.9831284e-05,-2.35616264,0.00013404757359999962,1.57097642,0.78599956,0.0018923256763999819,0.0018932898757999818,-9.978145153386633,-0.048342773130343415,-0.07726589172498344,-0.0010487633205880098,-0.008508970631588437,0.0008601607107973116
0.0125,0.0001667424525,-0.784619065,3.9743382500000005e-05,-2.3561644999999998,0.00014422155099999952,1.57097645,0.785999425,0.0023623774227499775,0.0023635826723749772,-10.02018169173329,-0.060586548320941076,-0.0953101854812293,-0.0013109541507350124,-0.010636213289485547,0.0010752008884966397
0.015,0.000166684317,-0.784616746,3.9655481e-05,-2.35616636,0.00015439552839999942,1.57097648,0.78599929,0.0028324291690999723,0.002833875468949972,-10.06221823007995,-0.07283032351153873,-0.11335447923747514,-0.0015731449808820146,-0.012763455947382655,0.0012902410661959675
0.0175,0.0001666455545,-0.784614485,3.95999642e-05,-2.35616818,0.0001606272445000001,1.5709765,0.7859992,0.003293197129999972,0.003294797349999972,-10.07838352687481,-0.08043501165414413,-0.12402201255503442,-0.0014867130490460847,-0.014125642756000267,0.0014359320602074295
0.02,0.000166645538,-0.78461234,3.96092168e-05,-2.35616992,0.0001589744380000001,1.5709765,0.7859992,0.0037353975199999733,0.0037369773999999735,-10.042806340566061,-0.07876152570076227,-0.11993602499521618,-0.0007030355932440872,-0.013957717866058431,0.0014429246868431196
0.0225,0.0001666455215,-0.784610195,3.96184694e-05,-2.3561716600000002,0.00015732163150000009,1.5709765,0.7859992,0.004177597909999975,0.004179157449999975,-10.007229154257313,-0.0770880397473804,-0.11585003743539793,8.06418625579103e-05,-0.013789792976116594,0.0014499173134788098
0.025,0.000166645505,-0.78460805,3.9627722e-05,-2.3561734,0.0001556688250000001,1.5709765,0.7859992,0.004619798299999977,0.004621337499999977,-9.971651967948565,-0.07541455379399854,-0.11176404987557967,0.0008643193183599086,-0.013621868086174759,0.0014569099401144996
0.0275,0.00016664548850000001,-0.784605905,3.96369746e-05,-2.35617514,0.00015401601850000007,1.5709765,0.7859992,0.005061998689999978,0.005063517549999978,-9.936074781639817,-0.07374106784061668,-0.10767806231576142,0.001647996774161906,-0.013453943196232923,0.0014639025667501897
0.03,0.000166645472,-0.78460376,3.9646227200000004e-05,-2.35617688,0.00015236321200000008,1.5709765,0.7859992,0.005504199079999979,0.00550569759999998,-9.90049759533107,-0.07206758188723482,-0.10359207475594318,0.002431674229963903,-0.013286018306291088,0.0014708951933858796
0.0325,0.0001666454555,-0.784601615,3.96554798e-05,-2.35617862,0.00015071040550000006,1.5709765,0.7859992,0.005946399469999981,0.005947877649999982,-9.864920409022321,-0.07039409593385296,-0.09950608719612491,0.0032153516857659015,-0.013118093416349251,0.0014778878200215697
0.035,0.000166629856,-0.7845995800000001,3.96555356e-05,-2.3561803500000003,0.00014920504200000004,1.5709765199999999,0.7859992,0.006365017939999985,0.006366477499999985,-9.842286849759454,-0.07194978558704417,-0.08405085936379694,0.0033771083100442856,-0.012980270639410374,0.0013893333566530153
0.0375,0.000166606465,-0.7845976,3.9650993000000005e-05,-2.356182075,0.00014777340000000005,1.57097655,0.7859992,0.0067718454499999855,0.006773287249999985,-9.826125104019528,-0.07512006304352219,-0.06291101139521312,0.003227904518560805,-0.01285749891897298,0.00125300534828233
0.04,0.000166583074,-0.78459562,3.9646450400000004e-05,-2.3561838,0.00014634175800000003,1.57097658,0.7859992,0.007178672959999987,0.007180096999999988,-9.809963358279601,-0.07829034050000022,-0.04177116342662923,0.0030787007270773247,-0.012734727198535583,0.0011166773399116444
0.0425,0.000166559683,-0.78459364,3.96419078e-05,-2.356185525,0.00014491011600000002,1.57097661,0.7859992,0.007585500469999989,0.007586906749999989,-9.793801612539676,-0.08146061795647826,-0.02063131545804535,0.002929496935593844,-0.012611955478098189,0.000980349331540959
0.045,0.000166536292,-0.78459166,3.96373652e-05,-2.35618725,0.00014347847400000003,1.5709766399999998,0.7859992,0.00799232797999999,0.00799371649999999,-9.777639866799749,-0.08463089541295628,0.0005085325105384647,0.002780293144110364,-0.012489183757660793,0.0008440213231702736
0.0475,0.00016651290099999999,-0.78458968,3.96328226e-05,-2.356188975,0.000142046832,1.5709766699999999,0.7859992,0.00839915548999999,0.008400526249999991,-9.761478121059824,-0.08780117286943431,0.021648380479122348,0.002631089352626883,-0.012366412037223398,0.0007076933147995879
0.05,0.00016648951,-0.7845877,3.962828e-05,-2.3561907,0.00014061519000000002,1.5709767,0.7859992,0.008805982999999993,0.008807335999999994,-9.745316375319897,-0.09097145032591235,0.04278822844770623,0.0024818855611434022,-0.012243640316786002,0.0005713653064289023
0.0525,0.000166422796,-0.78458581,3.959936e-05,-2.35619241,0.00013939919400000002,1.5709767749999999,0.7859992,0.009180267799999994,0.009181604599999995,-9.774904380736347,-0.08820573923025089,0.024294073745439636,0.002270611196533038,-0.012337615813181433,9.827683529938213e-05
0.055,0.000166356082,-0.78458392,3.957044e-05,-2.35619412,0.00013818319800000002,1.5709768499999999,0.7859992,0.009554552599999995,0.009555873199999997,-9.804492386152797,-0.08544002813458933,0.0057999190431723135,0.0020593368319226724,-0.01243159130957687,-0.000374811635830145
0.0575,0.00016628936799999999,-0.78458203,3.954152e-05,-2.35619583,0.000136967202,1.5709769249999999,0.7859992,0.009928837399999998,0.009930141799999999,-9.834080391569248,-0.08267431703892776,-0.012694235659095006,0.0018480624673123062,-0.012525566805972305,-0.0008479001069596721
0.06,0.00016622265399999998,-0.78458014,3.95126e-05,-2.35619754,0.000135751206,1.5709769999999998,0.7859992,0.010303122199999999,0.010304410399999998,-9.863668396985698,-0.07990860594326621,-0.031188390361362277,0.0016367881027019408,-0.01261954230236774,-0.001320988578089198
0.0625,0.00016615594,-0.78457825,3.9483679999999995e-05,-2.35619925,0.00013453521,1.570977075,0.7859992,0.010677407,0.010678679,-9.893256402402148,-0.07714289484760464,-0.0496825450636296,0.001425513738091575,-0.012713517798763174,-0.0017940770492187253
0.065,0.000166089226,-0.78457636,3.945476e-05,-2.35620096,0.000133319214,1.57097715,0.7859992,0.011051691800000001,0.011052947600000002,-9.9228444078186,-0.07437718375194308,-0.06817669976589691,0.001214239373481209,-0.01280749329515861,-0.002267165520348252
0.0675,0.0001659995225,-0.7845745129999999,3.9413198999999995e-05,-2.3562026,0.0001321759455,1.57097723,0.7859992,0.011415996800000003,0.011417236800000003,-9.936518510292322,-0.07316407561315584,-0.08060060986251148,0.0009676913740779921,-0.012781215297533663,-0.002605769903869031
0.07,0.00016586383999999999,-0.784572752,3.9346356e-05,-2.3562041,0.00013117813199999998,1.57097732,0.7859992,0.011760342200000004,0.011761567200000005,-9.918364806880591,-0.07505617338811713,-0.08088403074782094,0.0006505961050890757,-0.012514430311867957,-0.002675406112172321
0.0725,0.0001657281575,-0.7845709909999999,3.9279513e-05,-2.3562056,0.00013018031849999998,1.57097741,0.7859992,0.012104687600000004,0.012105897600000004,-9.900211103468859,-0.0769482711630784,-0.0811674516331304,0.00033350083610016114,-0.012247645326202252,-0.002745042320475611
0.075,0.000165592475,-0.78456923,3.9212669999999996e-05,-2.3562071,0.00012918250499999997,1.5709775000000001,0.7859992,0.012449033000000005,0.012450228000000006,-9.882057400057128,-0.07884036893803968,-0.08145087251843985,1.6405567111244836e-05,-0.011980860340536545,-0.002814678528778901
0.0775,0.0001654567925,-0.784567469,3.9145827e-05,-2.3562086,0.00012818469149999997,1.57097759,0.7859992,0.012793378400000006,0.012794558400000006,-9.863903696645396,-0.08073246671300097,-0.08173429340374931,-0.0003006897018776717,-0.011714075354870838,-0.0028843147370821915
0.08,0.00016532110999999998,-0.784565708,3.9078984e-05,-2.3562101,0.00012718687799999996,1.5709776800000002,0.7859992,0.01313772380000001,0.013138888800000009,-9.845749993233666,-0.08262456448796225,-0.08201771428905877,-0.000617784970866588,-0.011447290369205132,-0.0029539509453854816
0.0825,0.00016518542749999998,-0.784563947,3.9012141e-05,-2.3562116,0.00012618906449999995,1.57097777,0.7859992,0.01348206920000001,0.01348321920000001,-9.827596289821933,-0.08451666226292354,-0.08230113517436823,-0.0009348802398555043,-0.011180505383539426,-0.003023587153688772
0.085,0.000164983275,-0.784562214,3.89091583e-05,-2.3562129400000003,0.00012534251899999995,1.5709778600000002,0.78599901,0.013808051700000011,0.01380918760000001,-9.82024171409598,-0.07676737940184508,-0.07466967969099576,-0.0011657044844347866,-0.011164118298786363,-0.0029058879805597725
0.08750000000000001,0.00016474788749999998,-0.784560495,3.878810575e-05,-2.3562142,0.00012457160749999995,1.57097795,0.785998725,0.014124852750000012,0.014125975000000011,-9.818286702212914,-0.06419740622274747,-0.0630807860232829,-0.0013533932168092572,-0.011272930164489603,-0.0026945211167146415
0.09,0.0001645125,-0.784558776,3.8667053199999996e-05,-2.35621546,0.00012380069599999996,1.57097804,0.78599844,0.014441653800000011,0.014442762400000012,-9.816331690329848,-0.05162743304364991,-0.05149189235557011,-0.001541081949183727,-0.011381742030192843,-0.002483154252869512
0.0925,0.00016427711249999998,-0.784557057,3.854600065e-05,-2.35621672,0.00012302978449999996,1.57097813,0.785998155,0.014758454850000012,0.014759549800000013,-9.814376678446783,-0.03905745986455229,-0.039902998687857245,-0.0017287706815581978,-0.011490553895896084,-0.0022717873890243812
0.095,0.000164041725,-0.784555338,3.8424948099999995e-05,-2.3562179800000003,0.00012225887299999996,1.57097822,0.78599787,0.015075255900000015,0.015076337200000013,-9.812421666563715,-0.026487486685454663,-0.028314105020144385,-0.0019164594139326687,-0.011599365761599324,-0.0020604205251792502
0.0975,0.0001638063375,-0.784553619,3.830389555e-05,-2.35621924,0.00012148796149999996,1.57097831,0.785997585,0.015392056950000016,0.015393124600000016,-9.81046665468065,-0.013917513506357032,-0.016725211352431518,-0.0021041481463071393,-0.011708177627302564,-0.0018490536613341192
0.1,0.00016357094999999998,-0.7845519,3.818284299999999e-05,-2.3562205,0.00012071704999999998,1.5709784,0.7859973,0.015708858000000017,0.015709912000000017,-9.808511642797583,-0.0013475403272599324,-0.0051363176847195905,-0.0022918368786815665,-0.011816989493005844,-0.0016376867974890123
0.10250000000000001,0.000163200648,-0.7845502125,3.798893454999999e-05,-2.356221625,0.00012018719299999998,1.57097852,0.785997009,0.016000317750000017,0.016001359000000017,-9.813060654955414,0.001671022700705026,-0.010372730884849524,-0.001689484451599554,-0.012630691203885573,-0.0018598530206038032
0.105,0.00016283034599999998,-0.7845485249999999,3.779502609999999e-05,-2.35622275,0.00011965733599999997,1.57097864,0.785996718,0.016291777500000017,0.016292806000000017,-9.817609667113246,0.004689585728669968,-0.015609144084979428,-0.0010871320245175447,-0.013444392914765298,-0.002082019243718593
0.1075,0.00016246004399999997,-0.7845468375,3.7601117649999987e-05,-2.356223875,0.00011912747899999997,1.57097876,0.785996427,0.016583237250000018,0.016584253000000018,-9.822158679271078,0.007708148756634925,-0.020845557285109364,-0.0004847795974355321,-0.014258094625645026,-0.0023041854668333843
0.11,0.00016208974199999996,-0.7845451499999999,3.740720919999999e-05,-2.3562250000000002,0.00011859762199999997,1.57097888,0.7859961360000001,0.01687469700000002,0.01687570000000002,-9.82670769142891,0.010726711784599883,-0.026081970485239296,0.00011757282964648067,-0.015071796336524754,-0.002526351689948175
0.1125,0.00016171943999999998,-0.7845434625,3.721330074999999e-05,-2.356226125,0.00011806776499999996,1.5709790000000001,0.785995845,0.017166156750000022,0.01716714700000002,-9.83125670358674,0.013745274812564842,-0.03131838368536923,0.0007199252567284932,-0.015885498047404484,-0.002748517913062966
0.115,0.00016134913799999997,-0.784541775,3.7019392299999986e-05,-2.3562272500000003,0.00011753790799999996,1.57097912,0.785995554,0.017457616500000023,0.01745859400000002,-9.835805715744572,0.016763837840529802,-0.03655479688549916,0.0013222776838105058,-0.01669919975828421,-0.0029706841361777574
0.11750000000000001,0.00016092076649999994,-0.784540081,3.679427179999998e-05,-2.3562283500000003,0.00011709478499999998,1.57097925,0.7859951695,0.017741304900000022,0.017742270050000022,-9.832892891002404,0.014952261047320803,-0.03728379698041592,0.001620749904252975,-0.017052434150998483,-0.0027046140908140344
0.12,0.00016037625599999995,-0.7845383739999999,3.650672719999998e-05,-2.3562294,0.00011682512999999998,1.5709794,0.785994598,0.01800945060000002,0.01801040420000002,-9.815056392460242,0.003480404611767421,-0.028997970864909635,0.0013114617114165753,-0.016484733907382174,-0.0014620715084936408
0.1225,0.00015983174549999996,-0.7845366669999999,3.6219182599999974e-05,-2.35623045,0.00011655547499999997,1.57097955,0.7859940265,0.01827759630000002,0.018278538350000022,-9.797219893918081,-0.007991451823786026,-0.020712144749403298,0.001002173518580174,-0.015917033663765862,-0.00021952892617324018
0.125,0.00015928723499999996,-0.7845349599999999,3.593163799999998e-05,-2.3562315000000003,0.00011628581999999998,1.5709797,0.785993455,0.018545742000000025,0.018546672500000024,-9.77938339537592,-0.019463308259339472,-0.012426318633896961,0.0006928853257437725,-0.01534933342014955,0.0010230136561471602
0.1275,0.00015874272449999994,-0.784533253,3.564409339999997e-05,-2.35623255,0.00011601616499999997,1.57097985,0.7859928835,0.018813887700000025,0.018814806650000026,-9.761546896833757,-0.030935164694892915,-0.004140492518390625,0.00038359713290737115,-0.014781633176533237,0.0022655562384675614
0.13,0.00015819821399999995,-0.784531546,3.535654879999997e-05,-2.3562336,0.00011574650999999997,1.57098,0.785992312,0.019082033400000028,0.019082940800000024,-9.743710398291595,-0.042407021130446365,0.004145333597115712,7.430894007097e-05,-0.014213932932916925,0.0035080988207879618
0.1325,0.00015765370349999996,-0.784529839,3.506900419999997e-05,-2.3562346499999998,0.00011547685499999998,1.57098015,0.7859917405,0.019350179100000028,0.019351074950000026,-9.725873899749434,-0.053878877565999815,0.012431159712622049,-0.00023497925276543138,-0.01364623268930061,0.0047506414031083626
0.135,0.00015696447999999992,-0.7845280929999999,3.470390809999996e-05,-2.35623565,0.000115396295,1.57098029,0.785991168,0.019604025300000025,0.019604910100000025,-9.730343122666362,-0.061894189085426564,0.017923823696741455,-0.0004799672908788927,-0.013437881552647926,0.004563489721219084
0.1375,0.00015620289999999993,-0.7845263275,3.430003624999996e-05,-2.3562366249999998,0.0001154102825,1.570980425,0.785990595,0.01985072175000003,0.019851595750000027,-9.74596520631283,-0.06818122814679078,0.022019906615168054,-0.0006928052516308986,-0.013409204969476972,0.0036614909072253
0.14,0.00015544131999999992,-0.784524562,3.3896164399999956e-05,-2.3562376,0.00011542427,1.57098056,0.785990022,0.02009741820000003,0.02009828140000003,-9.761587289959296,-0.074468267208155,0.02611598953359465,-0.0009056432123829046,-0.013380528386306016,0.002759492093231516
0.14250000000000002,0.0001546797399999999,-0.7845227965,3.349229254999995e-05,-2.356238575,0.0001154382575,1.570980695,0.785989449,0.02034411465000003,0.02034496705000003,-9.777209373605764,-0.08075530626951921,0.030212072452021246,-0.0011184811731349107,-0.013351851803135062,0.0018574932792377319
0.145,0.00015391815999999992,-0.7845210309999999,3.3088420699999955e-05,-2.3562395499999997,0.000115452245,1.57098083,0.785988876,0.020590811100000026,0.02059165270000003,-9.792831457252232,-0.08704234533088334,0.034308155370447804,-0.0013313191338869142,-0.013323175219964107,0.0009554944652439574
0.1475,0.0001531565799999999,-0.7845192655,3.2684548849999954e-05,-2.356240525,0.0001154662325,1.570980965,0.785988303,0.02083750755000003,0.02083833835000003,-9.808453540898698,-0.09332938439224756,0.0384042382888744,-0.00154415709463892,-0.013294498636793151,5.3495651250174206e-05
0.15,0.00015239499999999986,-0.7845175,3.2280676999999933e-05,-2.3562415,0.00011548022000000004,1.5709811,0.78598773,0.021084204000000027,0.02108502400000003,-9.824075624545165,-0.09961642345360974,0.04250032120729977,-0.001756995055390874,-0.013265822053622154,-0.0008485031627434147
0.1525,0.00015137032149999986,-0.7845156175,3.1736109049999935e-05,-2.356242385,0.00011580538925000004,1.570981775,0.7859868704999999,0.02131116690000003,0.02131197715000003,-9.82332852036492,-0.08923753582455334,0.036561791339148546,-0.0015453263163476832,-0.012884959603995848,-0.0001498367402964515
0.155,0.00015034564299999987,-0.784513735,3.119154109999993e-05,-2.35624327,0.00011613055850000005,1.57098245,0.785986011,0.021538129800000028,0.02153893030000003,-9.822581416184674,-0.07885864819549694,0.030623261470997323,-0.0013336575773044922,-0.01250409715436954,0.0005488296821505118
0.1575,0.00014932096449999985,-0.7845118525,3.0646973149999926e-05,-2.3562441549999997,0.00011645572775000004,1.570983125,0.7859851514999999,0.02176509270000003,0.02176588345000003,-9.821834312004428,-0.06847976056644055,0.024684731602846097,-0.001121988838261301,-0.012123234704743234,0.0012474961045974746
0.16,0.00014829628599999985,-0.78450997,3.0102405199999924e-05,-2.35624504,0.00011678089700000005,1.5709838,0.785984292,0.021992055600000032,0.021992836600000034,-9.821087207824183,-0.05810087293738415,0.01874620173469487,-0.0009103200992181102,-0.011742372255116927,0.001946162527044438
0.1625,0.00014727160749999986,-0.7845080875,2.9557837249999922e-05,-2.356245925,0.00011710606625000005,1.570984475,0.7859834324999999,0.02221901850000003,0.022219789750000035,-9.820340103643938,-0.047721985308327754,0.012807671866543646,-0.0006986513601749192,-0.011361509805490621,0.002644828949491401
0.165,0.00014624692899999983,-0.784506205,2.901326929999992e-05,-2.35624681,0.00011743123550000006,1.57098515,0.785982573,0.022445981400000033,0.022446742900000035,-9.819592999463694,-0.03734309767927135,0.00686914199839242,-0.00048698262113172825,-0.010980647355864313,0.0033434953719383644
0.1675,0.00014511826849999978,-0.7845042775,2.8413184299999894e-05,-2.35624768,0.00011787041825000011,1.57098583,0.7859816199999999,0.02266689270000003,0.022667644700000034,-9.822785787967906,-0.028108117137469465,0.007430496346902703,-0.0003464055905886452,-0.010918386403527148,0.0036057748929026966
0.17,0.00014378164399999978,-0.78450226,2.770206519999989e-05,-2.35624852,0.00011853762800000011,1.57098652,0.78598048,0.02287570080000003,0.022876443800000035,-9.833858361841024,-0.021160950770175026,0.020991619128727136,-0.0003480119770456802,-0.011493328445767831,0.0029952806109023638
0.17250000000000001,0.00014244501949999978,-0.7845002425,2.6990946099999885e-05,-2.35624936,0.00011920483775000011,1.57098721,0.7859793399999999,0.023084508900000033,0.023085242900000035,-9.844930935714144,-0.014213784402880583,0.03455274191055157,-0.00034961836350271523,-0.012068270488008513,0.0023847863289020313
0.17500000000000002,0.00014110839499999978,-0.784498225,2.6279826999999884e-05,-2.3562502000000003,0.00011987204750000012,1.5709879,0.7859782,0.023293317000000036,0.023294042000000036,-9.856003509587264,-0.007266618035586141,0.048113864692376,-0.00035122474995975025,-0.012643212530249196,0.0017742920469016985
0.1775,0.00013977177049999978,-0.7844962075,2.5568707899999886e-05,-2.35625104,0.00012053925725000012,1.57098859,0.78597706,0.02350212510000003,0.023502841100000033,-9.867076083460384,-0.00031945166829177793,0.06167498747420029,-0.0003528311364167852,-0.01321815457248987,0.0011637977649013725
0.18,0.00013843514599999978,-0.78449419,2.4857588799999885e-05,-2.3562518800000003,0.00012120646700000012,1.57098928,0.7859759199999999,0.023710933200000034,0.023711640200000036,-9.878148657333504,0.006627714699002665,0.07523611025602472,-0.00035443752287382023,-0.013793096614730554,0.0005533034829010397
0.1825,0.00013709852149999978,-0.7844921725,2.414646969999988e-05,-2.35625272,0.00012187367675000012,1.57098997,0.78597478,0.023919741300000033,0.023920439300000037,-9.889221231206623,0.013574881066297107,0.08879723303784916,-0.00035604390933085525,-0.014368038656971237,-5.7190799099292745e-05
0.185,0.0001355197359999997,-0.78449002,2.3306204699999844e-05,-2.35625352,0.00012279161800000018,1.57099068,0.7859733999999999,0.024117414100000033,0.024118103300000034,-9.900916523320564,0.01631300658244559,0.07330391127892275,-0.0004982809549266968,-0.0147515836727049,-0.00033141059721238835
0.1875,0.0001338198699999997,-0.7844878,2.240136674999984e-05,-2.3562543000000002,0.0001238349250000002,1.5709914,0.7859719,0.024309519250000033,0.024310199750000035,-9.912923174554914,0.016946611673022714,0.04328336724963203,-0.0007108333300918878,-0.015039430175185126,-0.0004374931533819938
0.19,0.0001321200039999997,-0.78448558,2.1496528799999837e-05,-2.35625508,0.0001248782320000002,1.5709921199999999,0.7859704,0.024501624400000036,0.024502296200000037,-9.924929825789263,0.01758021676359984,0.013262823220341335,-0.0009233857052570786,-0.015327276677665353,-0.0005435757095515993
0.1925,0.00013042013799999968,-0.78448336,2.059169084999983e-05,-2.35625586,0.0001259215390000002,1.57099284,0.7859689,0.024693729550000036,0.024694392650000035,-9.936936477023613,0.01821382185417696,-0.016757720808949383,-0.0011359380804222695,-0.015615123180145579,-0.0006496582657212048
0.195,0.00012872027199999967,-0.78448114,1.9686852899999827e-05,-2.3562566400000002,0.00012696484600000022,1.57099356,0.7859674,0.024885834700000036,0.024886489100000037,-9.948943128257962,0.01884742694475408,-0.04677826483824009,-0.0013484904555874605,-0.015902969682625806,-0.0007557408218908102
0.1975,0.00012702040599999967,-0.78447892,1.8782014949999823e-05,-2.35625742,0.0001280081530000002,1.5709942799999999,0.7859659,0.02507793985000004,0.025078585550000036,-9.960949779492312,0.019481032035331206,-0.07679880886753081,-0.0015610428307526515,-0.01619081618510603,-0.0008618233780604157
0.2,0.00012532053999999958,-0.7844767,1.7877176999999776e-05,-2.3562582,0.0001290514600000003,1.570995,0.7859644,0.025270045000000036,0.025270682000000034,-9.972956430726654,0.02011463712590606,-0.10681935289681294,-0.001773595205917723,-0.016478662687586146,-0.000967905934229959
0.2025,0.00012320399499999958,-0.78447424,1.675033874999977e-05,-2.35625895,0.00013050760600000032,1.57099626,0.785962456,0.025446783550000036,0.025447412750000037,-9.94612131875436,0.009396164919862938,-0.09396155893743294,-0.0013883731241314764,-0.016204607983149197,-0.0007626779766990782
0.20500000000000002,0.00012108744999999957,-0.7844717800000001,1.5623500499999765e-05,-2.3562597,0.00013196375200000033,1.57099752,0.785960512,0.02562352210000004,0.025624143500000036,-9.919286206782063,-0.0013223072861801854,-0.08110376497805293,-0.0010031510423452296,-0.015930553278712244,-0.0005574500191681972
0.20750000000000002,0.00011897090499999956,-0.78446932,1.4496662249999759e-05,-2.35626045,0.0001334198980000003,1.57099878,0.785958568,0.02580026065000004,0.025800874250000036,-9.892451094809768,-0.012040779492223309,-0.06824597101867293,-0.0006179289605589831,-0.015656498574275292,-0.00035222206163731636
0.21,0.00011685435999999957,-0.78446686,1.3369823999999767e-05,-2.3562612,0.0001348760440000003,1.57100004,0.785956624,0.025976999200000038,0.025977605000000036,-9.865615982837474,-0.02275925169826631,-0.05538817705929307,-0.00023270687877274062,-0.015382443869838345,-0.00014699410410643767
0.2125,0.00011473781499999956,-0.7844644,1.2242985749999762e-05,-2.35626195,0.00013633219000000032,1.5710013,0.7859546799999999,0.026153737750000038,0.02615433575000004,-9.838780870865177,-0.033477723904309434,-0.04253038309991307,0.00015251520301350595,-0.015108389165401392,5.8233853424443077e-05
0.215,0.00011262126999999955,-0.78446194,1.1116147499999756e-05,-2.3562627,0.0001377883360000003,1.57100256,0.7859527359999999,0.026330476300000037,0.026331066500000038,-9.811945758892882,-0.044196196110352554,-0.02967258914053307,0.0005377372847997527,-0.014834334460964441,0.00026346181095532415
0.2175,0.00011034740849999943,-0.784459385,9.905550204999697e-06,-2.3562634499999997,0.00013939513900000042,1.57100383,0.785950678,0.026502502650000037,0.026503085300000038,-9.789631036368208,-0.04682383834498066,-0.01607599420707924,0.0008818838221540076,-0.014621794696767521,0.00042383738651324555
0.22,0.00010775891399999942,-0.78445664,8.527434819999691e-06,-2.3562642,0.00014130325600000043,1.57100512,0.785948392,0.026665104600000038,0.026665680200000038,-9.776357092738765,-0.033269820636794636,-0.0010017973254792395,0.0011438792706443587,-0.01453228481305054,0.0004945081981253359
0.2225,0.0001051704194999994,-0.784453895,7.1493194349996855e-06,-2.35626495,0.00014321137300000043,1.57100641,0.7859461059999999,0.02682770655000004,0.026828275100000038,-9.763083149109322,-0.019715802928608618,0.01407239955612076,0.0014058747191347098,-0.01444277492933356,0.0005651790097374262
0.225,0.00010258192499999939,-0.78445115,5.771204049999679e-06,-2.3562657000000002,0.00014511949000000043,1.5710077,0.78594382,0.02699030850000004,0.02699087000000004,-9.749809205479881,-0.006161785220422593,0.029146596437720766,0.001667870167625061,-0.014353265045616579,0.0006358498213495165
0.2275,9.99934304999994e-05,-0.784448405,4.393088664999673e-06,-2.35626645,0.00014702760700000046,1.57100899,0.785941534,0.02715291045000004,0.02715346490000004,-9.736535261850438,0.007392232487763432,0.04422079331932077,0.0019298656161154124,-0.014263755161899597,0.0007065206329616067
0.23,9.740493599999938e-05,-0.7844456599999999,3.0149732799996667e-06,-2.3562672,0.00014893572400000046,1.57101028,0.7859392479999999,0.02731551240000004,0.02731605980000004,-9.723261318220995,0.020946250195949458,0.05929499020092077,0.0021918610646057633,-0.014174245278182618,0.0007771914445736971
0.2325,9.481644149999937e-05,-0.784442915,1.636857894999661e-06,-2.3562679500000003,0.00015084384100000047,1.57101157,0.785936962,0.02747811435000004,0.02747865470000004,-9.709987374591554,0.03450026790413548,0.07436918708252077,0.0024538565130961146,-0.014084735394465637,0.0008478622561857873
0.23500000000000001,9.187539199999922e-05,-0.7844399559999999,7.114468999958364e-08,-2.3562687,0.0001530807670000006,1.5710132300000001,0.78593432,0.02763204450000004,0.027632578100000037,-9.71969649381879,0.03393726658829214,0.0730234141025588,0.0023831088540524504,-0.014267349589364509,0.0010197713392515759
0.23750000000000002,8.87580649999992e-05,-0.7844368899999999,-1.5883674250004235e-06,-2.35626945,0.0001554820975000006,1.571015075,0.7859315,0.02778163875000004,0.02778216575000004,-9.740897144474353,0.026315755760441976,0.06346765619182504,0.0021459896412419645,-0.014586025823571155,0.0012422995580441568
0.24,8.564073799999922e-05,-0.784433824,-3.2478795400004123e-06,-2.3562702,0.00015788342800000059,1.57101692,0.7859286799999999,0.027931233000000038,0.027931753400000037,-9.762097795129916,0.018694244932591905,0.05391189828109136,0.001908870428431481,-0.014904702057777799,0.0014648277768367353
0.2425,8.252341099999921e-05,-0.784430758,-4.907391655000419e-06,-2.35627095,0.00016028475850000061,1.571018765,0.78592586,0.028080827250000037,0.028081341050000038,-9.783298445785478,0.011072734104741747,0.04435614037035758,0.001671751215620995,-0.015223378291984445,0.0016873559956293162
0.245,7.94060839999992e-05,-0.784427692,-6.5669037700004266e-06,-2.3562717,0.00016268608900000061,1.57102061,0.78592304,0.02823042150000004,0.02823092870000004,-9.804499096441042,0.0034512232768915893,0.0348003824596238,0.001434632002810509,-0.01554205452619109,0.001909884214421897
0.2475,7.628875699999918e-05,-0.784424626,-8.226415885000434e-06,-2.35627245,0.00016508741950000061,1.571022455,0.78592022,0.02838001575000004,0.02838051635000004,-9.825699747096605,-0.004170287550958572,0.02524462454889003,0.0011975127900000228,-0.015860730760397738,0.0021324124332144784
0.25,7.317142999999901e-05,-0.78442156,-9.885928000000525e-06,-2.3562732,0.00016748875000000078,1.5710243,0.7859174,0.02852961000000004,0.02853010400000004,-9.846900397752158,-0.011791798378803916,0.015688866638156627,0.0009603935771895671,-0.016179406994604156,0.0023549406520068728
0.2525,6.946708954999904e-05,-0.78441811,-1.1857673200000508e-05,-2.35627392,0.00017042624200000074,1.571026445,0.7859140849999999,0.028667238900000034,0.028667726900000037,-9.836805982962716,-0.0013425548800579685,0.00753578718047589,0.0008373022571133383,-0.01564275637344463,0.0018781524230065071
0.255,6.576274909999908e-05,-0.7844146599999999,-1.382941840000049e-05,-2.35627464,0.00017336373400000073,1.57102859,0.78591077,0.028804867800000033,0.028805349800000036,-9.826711568173272,0.009106688618687981,-0.0006172922772048478,0.0007142109370371094,-0.015106105752285106,0.0014013641940061414
0.2575,6.205840864999911e-05,-0.7844112099999999,-1.5801163600000473e-05,-2.35627536,0.0001763012260000007,1.571030735,0.7859074549999999,0.028942496700000032,0.028942972700000034,-9.816617153383827,0.01955593211743393,-0.008770371734885585,0.0005911196169608804,-0.014569455131125581,0.0009245759650057756
0.26,5.8354068199999146e-05,-0.78440776,-1.7772908800000456e-05,-2.35627608,0.00017923871800000068,1.57103288,0.78590414,0.02908012560000003,0.029080595600000033,-9.806522738594383,0.03000517561617988,-0.016923451192566323,0.0004680282968846515,-0.014032804509966055,0.00044778773600540967
0.2625,5.464972774999918e-05,-0.78440431,-1.9744654000000435e-05,-2.3562768000000003,0.00018217621000000066,1.571035025,0.7859008249999999,0.02921775450000003,0.02921821850000003,-9.796428323804939,0.040454419114925824,-0.025076530650247057,0.00034493697680842257,-0.01349615388880653,-2.9000492994956002e-05
0.265,5.094538729999921e-05,-0.78440086,-2.171639920000042e-05,-2.35627752,0.00018511370200000062,1.57103717,0.78589751,0.02935538340000003,0.02935584140000003,-9.786333909015495,0.05090366261367177,-0.03322961010792779,0.00022184565673219372,-0.012959503267647006,-0.0005057887219953217
0.2675,4.702560389999908e-05,-0.784397267,-2.3802695200000492e-05,-2.35627825,0.00018824478800000076,1.57103941,0.785894003,0.029489342550000026,0.029489794600000025,-9.781343687911017,0.057084150994173355,-0.03758799092040834,0.000167919818176333,-0.01273430354200831,-0.0005965128029191498
0.27,4.2674934599999e-05,-0.784393388,-2.6118092800000533e-05,-2.3562790000000002,0.00019176306200000082,1.5710418400000001,0.7858901119999999,0.02961596220000003,0.02961640840000003,-9.786561854176465,0.05472712913819418,-0.03435697444249557,0.00025232494266107946,-0.013132005607410692,8.489141230937731e-05
0.2725,3.832426529999892e-05,-0.784389509,-2.8433490400000576e-05,-2.35627975,0.00019528133600000088,1.57104427,0.7858862209999999,0.02974258185000003,0.02974302220000003,-9.791780020441912,0.052370107282215,-0.031125957964582805,0.00033673006714582594,-0.013529707672813075,0.0007662956275379044
0.275,3.397359599999884e-05,-0.78438563,-3.074888800000062e-05,-2.3562805,0.00019879961000000094,1.5710467000000001,0.78588233,0.029869201500000032,0.029869636000000033,-9.796998186707361,0.05001308542623582,-0.027894941486670037,0.0004211351916305724,-0.013927409738215456,0.0014476998427664313
0.2775,2.9622926699998763e-05,-0.784381751,-3.306428560000066e-05,-2.35628125,0.000202317884000001,1.57104913,0.785878439,0.029995821150000036,0.029996249800000038,-9.802216352972808,0.047656063570256646,-0.024663925008757272,0.000505540316115319,-0.014325111803617839,0.0021291040579949584
0.28,2.5272257399998686e-05,-0.784377872,-3.53796832000007e-05,-2.3562819999999998,0.00020583615800000106,1.57105156,0.785874548,0.03012244080000004,0.03012286360000004,-9.807434519238257,0.04529904171427747,-0.021432908530844504,0.0005899454406000655,-0.01472281386902022,0.0028105082732234853
0.28250000000000003,2.092158809999861e-05,-0.784373993,-3.769508080000074e-05,-2.35628275,0.00020935443200000112,1.57105399,0.7858706569999999,0.030249060450000042,0.03024947740000004,-9.812652685503704,0.04294201985829829,-0.01820189205293174,0.0006743505650848119,-0.015120515934422603,0.003491912488452013
0.28500000000000003,1.609989079999838e-05,-0.7843697900000001,-4.026084870000086e-05,-2.3562835,0.00021329050200000134,1.5710568,0.785866364,0.03036892750000004,0.030369339200000036,-9.815973499585073,0.03504764450313796,-0.020098819576279618,0.0005089584512509471,-0.015313975666755549,0.003735128246402258
0.28750000000000003,1.1042679499998427e-05,-0.7843654250000001,-4.295180175000084e-05,-2.35628425,0.0002174354700000013,1.5710598,0.78586187,0.030485418250000035,0.030485825000000036,-9.818345637574403,0.02438459239839111,-0.024559719100254063,0.0002186677182579597,-0.015405314232553929,0.0037592497757136826
0.29,5.985468199998585e-06,-0.78436106,-4.5642754800000755e-05,-2.356285,0.00022158043800000115,1.5710628,0.7858573759999999,0.03060190900000003,0.030602310800000032,-9.820717775563734,0.013721540293644495,-0.02902061862422841,-7.16230147350213e-05,-0.015496652798352306,0.003783371305025107
0.2925,9.282568999986312e-07,-0.784356695,-4.833370785000073e-05,-2.35628575,0.0002257254060000011,1.5710658,0.7858528819999999,0.03071839975000003,0.030718796600000032,-9.823089913553064,0.0030584881888976456,-0.033481518148202855,-0.0003619137477280086,-0.015587991364150684,0.0038074928343365317
0.295,-4.128954400001326e-06,-0.78435233,-5.1024660900000706e-05,-2.3562865,0.00022987037400000107,1.5710688000000002,0.785848388,0.03083489050000003,0.03083528240000003,-9.825462051542395,-0.007604563915849211,-0.0379424176721773,-0.0006522044807209962,-0.015679329929949064,0.0038316143636479565
0.2975,-9.18616570000128e-06,-0.784347965,-5.371561395000068e-05,-2.3562872500000003,0.00023401534200000103,1.5710718000000001,0.785843894,0.030951381250000028,0.030951768200000028,-9.827834189531726,-0.01826761602059606,-0.042403317196151744,-0.0009424952137139836,-0.015770668495747445,0.0038557358929593812
0.3,-1.4243377000001423e-05,-0.7843436,-5.640656700000076e-05,-2.356288,0.00023816031000000116,1.5710748,0.7858394,0.031067872000000028,0.031068254000000028,-9.830206327521056,-0.028930668125339887,-0.0468642167201234,-0.001232785946706736,-0.01586200706154563,0.0038798574222705757
0.3025,-2.0068072000001527e-05,-0.784338725,-5.950536645000081e-05,-2.35628875,0.00024297901800000125,1.571078325,0.7858341799999999,0.031175045650000028,0.031175422400000027,-9.83347836885375,-0.027242830896724777,-0.039893154010619186,-0.0005609601098311539,-0.015169525176791335,0.002961117642840929
0.305,-2.5892767000001633e-05,-0.78433385,-6.260416590000086e-05,-2.3562895,0.00024779772600000134,1.5710818500000001,0.7858289599999999,0.03128221930000003,0.03128259080000003,-9.836750410186445,-0.025554993668109666,-0.03292209130111498,0.00011086572704442806,-0.014477043292037037,0.002042377863411283
0.3075,-3.171746200000174e-05,-0.784328975,-6.570296535000092e-05,-2.3562902500000003,0.0002526164340000014,1.571085375,0.78582374,0.03138939295000003,0.031389759200000034,-9.840022451519138,-0.02386715643949456,-0.02595102859161077,0.0007826915639200099,-0.01378456140728274,0.0011236380839816365
0.31,-3.754215700000184e-05,-0.7843241000000001,-6.880176480000098e-05,-2.356291,0.0002574351420000015,1.5710889000000001,0.78581852,0.03149656660000003,0.03149692760000003,-9.843294492851832,-0.02217931921087945,-0.01897996588210656,0.0014545174007955918,-0.013092079522528442,0.0002048983045519902
0.3125,-4.336685200000194e-05,-0.7843192250000001,-7.190056425000104e-05,-2.35629175,0.0002622538500000016,1.571092425,0.7858132999999999,0.03160374025000004,0.03160409600000003,-9.846566534184527,-0.020491481982264338,-0.01200890317260235,0.002126343237671174,-0.012399597637774144,-0.0007138414748776556
0.315,-4.919154700000205e-05,-0.78431435,-7.499936370000108e-05,-2.3562925,0.00026707255800000165,1.5710959500000001,0.7858080799999999,0.03171091390000004,0.031711264400000036,-9.849838575517222,-0.018803644753649228,-0.005037840463098138,0.002798169074546756,-0.011707115753019848,-0.0016325812543073023
0.3175,-5.529255415000242e-05,-0.78430928,-7.824496920000128e-05,-2.35629326,0.000272131728500002,1.571099595,0.78580263,0.03181522955000004,0.03181557540000003,-9.85247048210475,-0.019593510397897976,0.001532625811210216,0.003128584488634137,-0.01138160383422043,-0.001961155362061545
0.32,-6.194618560000245e-05,-0.78430382,-8.17841868000013e-05,-2.35629404,0.000277671824000002,1.57110348,0.78579672,0.031913829200000035,0.031914171600000034,-9.853822119201952,-0.025338781787866357,0.0073018992151281875,0.00277617905714623,-0.01179003184732957,-0.0011093981264669061
0.3225,-6.859981705000248e-05,-0.78429836,-8.532340440000132e-05,-2.35629482,0.0002832119195000021,1.571107365,0.78579081,0.03201242885000004,0.032012767800000036,-9.855173756299154,-0.031084053177834737,0.013071172619046159,0.0024237736256583235,-0.012198459860438712,-0.0002576408908722674
0.325,-7.525344850000251e-05,-0.7842929,-8.886262200000133e-05,-2.3562956,0.0002887520150000021,1.5711112500000002,0.7857849,0.032111028500000034,0.03211136400000004,-9.856525393396355,-0.03682932456780312,0.018840446022964127,0.002071368194170417,-0.012606887873547854,0.0005941163447223717
0.3275,-8.190707995000254e-05,-0.7842874400000001,-9.240183960000135e-05,-2.35629638,0.00029429211050000214,1.571115135,0.7857789900000001,0.03220962815000004,0.03220996020000004,-9.857877030493558,-0.042574595957771494,0.024609719426882098,0.0017189627626825101,-0.013015315886656996,0.0014458735803170105
0.33,-8.856071140000257e-05,-0.78428198,-9.594105720000136e-05,-2.35629716,0.00029983220600000214,1.57111902,0.78577308,0.03230822780000003,0.032308556400000035,-9.85922866759076,-0.04831986734773988,0.03037899283080007,0.0013665573311946037,-0.013423743899766138,0.002297630815911649
0.3325,-9.52143428500026e-05,-0.78427652,-9.948027480000137e-05,-2.3562979399999997,0.0003053723015000022,1.5711229050000002,0.7857671700000001,0.032406827450000036,0.03240715260000004,-9.86058030468796,-0.054065138737708254,0.03614826623471804,0.0010141518997066968,-0.01383217191287528,0.0031493880515062883
0.335,-0.00010246185900000299,-0.7842706349999999,-0.00010333496660000159,-2.35629873,0.0003114259300000025,1.57112712,0.785760715,0.032500170000000037,0.032500490600000036,-9.850516162844537,-0.04842107111787158,0.02903129835110623,0.0012055357657708933,-0.014389279143771139,0.003915016776831575
0.3375,-0.00011000631750000302,-0.7842645375,-0.0001073473955000016,-2.356299525,0.00031773632500000255,1.5711315000000001,0.7857539875,0.032590884000000035,0.032591199500000036,-9.834744131530808,-0.03708233399314241,0.015471209823740908,0.0016688142806106604,-0.015020725983560227,0.004637581247022264
0.34,-0.00011755077600000305,-0.78425844,-0.00011135982440000162,-2.35630032,0.0003240467200000026,1.5711358800000002,0.7857472600000001,0.032681598000000034,0.032681908400000036,-9.81897210021708,-0.025743596868413255,0.0019111212963755855,0.0021320927954504272,-0.015652172823349315,0.005360145717212952
0.3425,-0.00012509523450000308,-0.7842523425,-0.00011537225330000164,-2.356301115,0.00033035711500000256,1.57114026,0.7857405325,0.03277231200000004,0.032772617300000036,-9.803200068903351,-0.014404859743684092,-0.011648967230989744,0.0025953713102901945,-0.016283619663138404,0.00608271018740364
0.34500000000000003,-0.00013263969300000313,-0.784246245,-0.00011938468220000166,-2.35630191,0.0003366675100000026,1.57114464,0.785733805,0.03286302600000004,0.032863326200000036,-9.787428037589624,-0.0030661226189549334,-0.025209055758355067,0.003058649825129962,-0.01691506650292749,0.006805274657594328
0.34750000000000003,-0.00014018415150000315,-0.7842401475,-0.00012339711110000167,-2.356302705,0.0003429779050000026,1.57114902,0.7857270774999999,0.03295374000000004,0.032954035100000036,-9.771656006275895,0.008272614505774226,-0.0387691442857204,0.003521928339969729,-0.017546513342716577,0.007527839127785017
0.35000000000000003,-0.00014772861000000357,-0.78423405,-0.0001274095400000019,-2.3563035,0.000349288300000003,1.5711534,0.78572035,0.033044454000000036,0.033044744000000036,-9.755883974962174,0.01961135163049614,-0.05232923281307519,0.0039852068548091564,-0.018177960182505164,0.008250403597975315
0.3525,-0.00015622598250000344,-0.784227255,-0.00013192811450000183,-2.356304325,0.0003564179440000029,1.571158335,0.7857127825,0.033127911900000036,0.03312819890000004,-9.757054613229347,0.013776801581775942,-0.04091552771954855,0.0036446169697491675,-0.01762073725359982,0.008049523886526643
0.355,-0.00016472335500000346,-0.78422046,-0.00013644668900000183,-2.3563051500000003,0.00036354758800000294,1.57116327,0.785705215,0.033211369800000036,0.03321165380000003,-9.758225251496519,0.007942251533055616,-0.02950182262602167,0.0033040270846891712,-0.01706351432469446,0.007848644175077968
0.3575,-0.00017322072750000352,-0.784213665,-0.00014096526350000188,-2.356305975,0.00037067723200000295,1.571168205,0.7856976475,0.033294827700000036,0.033295108700000034,-9.759395889763692,0.0021077014843352906,-0.018088117532494785,0.0029634371996291745,-0.016506291395789106,0.007647764463629292
0.36,-0.00018171810000000354,-0.78420687,-0.00014548383800000187,-2.3563068,0.00037780687600000296,1.57117314,0.78569008,0.033378285600000036,0.033378563600000036,-9.760566528030864,-0.003726848564385033,-0.006674412438967894,0.002622847314569178,-0.015949068466883747,0.0074468847521806155
0.3625,-0.00019021547250000357,-0.784200075,-0.0001500024125000019,-2.356307625,0.000384936520000003,1.571178075,0.7856825125,0.03346174350000004,0.03346201850000003,-9.761737166298037,-0.00956139861310536,0.0047392926545589895,0.002282257429509181,-0.01539184553797839,0.00724600504073194
0.365,-0.00019871284500000362,-0.78419328,-0.00015452098700000192,-2.35630845,0.00039206616400000303,1.57118301,0.785674945,0.03354520140000004,0.03354547340000003,-9.76290780456521,-0.015395948661825688,0.01615299774808588,0.0019416675444491847,-0.014834622609073034,0.007045125329283264
0.3675,-0.00020754859700000415,-0.7841862475,-0.0001592192575000022,-2.3563093,0.0003994854750000035,1.571188155,0.7856670800000001,0.03362643450000003,0.03362670300000003,-9.761119454682087,-0.02072480875602641,0.021033307891863962,0.0018414404328755956,-0.014394336596676277,0.00703068182824499
0.37,-0.0002170611080000043,-0.78417874,-0.0001642769200000023,-2.3563102,0.00040748412000000364,1.57119372,0.78565862,0.033703218000000035,0.033703482000000035,-9.753413128498389,-0.025042288941189875,0.012846828136169691,0.0022219388682738926,-0.014187924417296268,0.007389110748026802
0.3725,-0.00022657361900000448,-0.7841712325,-0.00016933458250000238,-2.3563111,0.0004154827650000038,1.571199285,0.78565016,0.03378000150000004,0.033780261000000034,-9.74570680231469,-0.029359769126353345,0.004660348380475424,0.002602437303672189,-0.013981512237916258,0.007747539667808613
0.375,-0.00023608613000000467,-0.784163725,-0.00017439224500000248,-2.356312,0.0004234814100000039,1.57120485,0.7856417,0.033856785000000035,0.03385704000000003,-9.738000476130992,-0.03367724931151681,-0.0035261313752188474,0.0029829357390704857,-0.013775100058536249,0.008105968587590426
0.3775,-0.00024559864100000484,-0.7841562175,-0.00017944990750000256,-2.3563129,0.00043148005500000404,1.571210415,0.78563324,0.03393356850000004,0.03393381900000004,-9.730294149947293,-0.03799472949668028,-0.011712611130913118,0.0033634341744687825,-0.01356868787915624,0.008464397507372236
0.38,-0.000255111152000005,-0.78414871,-0.00018450757000000264,-2.3563138,0.0004394787000000042,1.57121598,0.78562478,0.03401035200000004,0.03401059800000004,-9.722587823763595,-0.042312209681843745,-0.019899090886607386,0.0037439326098670793,-0.013362275699776232,0.008822826427154047
0.3825,-0.0002646236630000052,-0.7841412025,-0.00018956523250000275,-2.3563147,0.0004474773450000043,1.571221545,0.7856163199999999,0.03408713550000004,0.034087377000000044,-9.714881497579896,-0.04662968986700721,-0.02808557064230166,0.004124431045265376,-0.013155863520396223,0.00918125534693586
0.385,-0.00027485437600000576,-0.7841331699999999,-0.00019500429200000307,-2.35631563,0.0004560885040000048,1.5712275500000001,0.785607215,0.03415982300000004,0.03416006150000004,-9.726427887054546,-0.03024702694363995,-0.045165314241396005,0.0042370747065473184,-0.013276071442626743,0.009392907003142825
0.3875,-0.0002854441900000057,-0.7841248749999999,-0.00020063405000000302,-2.356316575,0.0004650059200000048,1.571233775,0.7855977875,0.03423046250000004,0.03423069875000004,-9.747600634358347,-0.0035142924660328326,-0.06669168976217943,0.004215790980771413,-0.013559589415662127,0.009531170027562548
0.39,-0.00029603400400000555,-0.78411658,-0.00020626380800000297,-2.3563175199999997,0.0004739233360000047,1.57124,0.78558836,0.03430110200000004,0.034301336000000036,-9.768773381662148,0.023218442011574282,-0.08821806528296285,0.004194507254995509,-0.013843107388697509,0.009669433051982273
0.3925,-0.00030662381800000547,-0.784108285,-0.0002118935660000029,-2.3563184649999998,0.0004828407520000046,1.571246225,0.7855789325,0.03437174150000004,0.034371973250000035,-9.78994612896595,0.04995117648918141,-0.10974444080374628,0.004173223529219604,-0.01412662536173289,0.009807696076401995
0.395,-0.00031721363200000534,-0.78409999,-0.00021752332400000284,-2.35631941,0.0004917581680000046,1.57125245,0.785569505,0.034442381000000036,0.03444261050000004,-9.81111887626975,0.07668391096678853,-0.1312708163245297,0.004151939803443699,-0.014410143334768272,0.00994595910082172
0.3975,-0.00032780344600000526,-0.784091695,-0.00022315308200000279,-2.356320355,0.0005006755840000045,1.5712586750000002,0.7855600775,0.03451302050000004,0.03451324775000004,-9.832291623573552,0.10341664544439563,-0.1527971918453131,0.004130656077667795,-0.014693661307803656,0.010084222125241443
0.4,-0.0003383932600000057,-0.7840834,-0.00022878284000000303,-2.3563213,0.0005095930000000049,1.5712649,0.78555065,0.03458366000000004,0.034583885000000036,-9.853464370877333,0.1301493799219834,-0.17432356736606827,0.004109372351891823,-0.014977179280838854,0.010222485149660714
0.4025,-0.00035012249800000594,-0.784074295,-0.00023501762000000315,-2.356322305,0.000519479335000005,1.571271785,0.785540225,0.034648648550000036,0.034648869350000035,-9.836399180602276,0.11726380781995113,-0.1379944624494547,0.0039515291538917705,-0.014886563830077349,0.00943336131557415
0.405,-0.0003618517360000061,-0.78406519,-0.00024125240000000327,-2.35632331,0.0005293656700000052,1.57127867,0.7855298,0.034713637100000035,0.03471385370000003,-9.819333990327218,0.10437823571791888,-0.10166535753284114,0.0037936859558917175,-0.014795948379315842,0.008644237481487587
0.40750000000000003,-0.00037358097400000634,-0.784056085,-0.00024748718000000336,-2.3563243149999997,0.0005392520050000054,1.571285555,0.785519375,0.03477862565000004,0.03477883805000004,-9.80226880005216,0.09149266361588661,-0.0653362526162276,0.0036358427578916646,-0.014705332928554336,0.007855113647401022
0.41000000000000003,-0.00038531021200000656,-0.78404698,-0.0002537219600000035,-2.35632532,0.0005491383400000056,1.5712924400000001,0.78550895,0.03484361420000004,0.03484382240000004,-9.785203609777103,0.07860709151385434,-0.029007147699614044,0.0034779995598916117,-0.014614717477792829,0.007065989813314458
0.41250000000000003,-0.0003970394500000068,-0.784037875,-0.0002599567400000036,-2.356326325,0.0005590246750000057,1.571299325,0.785498525,0.03490860275000004,0.03490880675000004,-9.768138419502044,0.06572151941182208,0.0073219572169995195,0.0033201563618915587,-0.014524102027031322,0.0062768659792278945
0.41500000000000004,-0.000408768688000007,-0.7840287699999999,-0.0002661915200000037,-2.35632733,0.0005689110100000059,1.57130621,0.7854880999999999,0.03497359130000004,0.03497379110000004,-9.751073229226986,0.05283594730978983,0.04365106213361308,0.003162313163891506,-0.014433486576269815,0.005487742145141331
0.4175,-0.0004208983460000075,-0.78401937,-0.000272638895500004,-2.35632836,0.0005791369850000064,1.571313325,0.7854773174999999,0.03503684745000003,0.035037043800000035,-9.740667947305178,0.03913302730568593,0.05603155053559334,0.0032292549782904655,-0.01424432574317895,0.005040099839582122
0.42,-0.0004338288440000074,-0.78400938,-0.00027951146200000393,-2.35632944,0.0005900422400000062,1.5713209,0.78546582,0.03509663880000004,0.03509683320000004,-9.743582482089833,0.023795411497442215,0.020514805908435456,0.003745766817486256,-0.013858074145429878,0.005275420591075775
0.4225,-0.0004467593420000073,-0.78399939,-0.0002863840285000039,-2.35633052,0.0006009474950000062,1.571328475,0.7854543224999999,0.035156430150000036,0.035156622600000034,-9.746497016874489,0.008457795689198501,-0.015001938718722435,0.004262278656682047,-0.013471822547680807,0.005510741342569428
0.425,-0.00045968984000000716,-0.7839894,-0.0002932565950000038,-2.3563316000000003,0.0006118527500000061,1.57133605,0.785442825,0.03521622150000003,0.03521641200000004,-9.749411551659144,-0.006879820119045213,-0.05051868334588032,0.004778790495877837,-0.013085570949931735,0.005746062094063081
0.4275,-0.0004726203380000071,-0.78397941,-0.00030012916150000374,-2.35633268,0.000622758005000006,1.571343625,0.7854313275,0.03527601285000004,0.03527620140000003,-9.7523260864438,-0.022217435927288927,-0.0860354279730382,0.005295302335073627,-0.012699319352182664,0.0059813828455567335
0.43,-0.00048555083600000697,-0.78396942,-0.0003070017280000037,-2.35633376,0.0006336632600000058,1.5713512,0.7854198299999999,0.035335804200000036,0.035335990800000036,-9.755240621228454,-0.03755505173553265,-0.1215521726001961,0.005811814174269418,-0.012313067754433592,0.006216703597050387
0.4325,-0.0004984813340000069,-0.78395943,-0.0003138742945000036,-2.35633484,0.0006445685150000057,1.571358775,0.7854083325,0.035395595550000034,0.03539578020000003,-9.75815515601311,-0.052892667543776355,-0.15706891722735397,0.006328326013465208,-0.011926816156684521,0.00645202434854404
0.435,-0.0005122536950000075,-0.783948835,-0.00032119381500000395,-2.35633594,0.0006561863850000063,1.57136686,0.78539609,0.03545219740000003,0.03545237940000003,-9.763506845564876,-0.06528291818407965,-0.15506903806887243,0.005844677848435745,-0.012003999693457324,0.006375265502021097
0.4375,-0.0005264469875000076,-0.7839379375000001,-0.000328736812500004,-2.35633705,0.0006681605625000063,1.5713752,0.7853834749999999,0.03550720450000003,0.03550738350000003,-9.770077112500196,-0.07619948624041623,-0.13431084701761553,0.004860949681294837,-0.012312900797490514,0.006142466856490226
0.44,-0.0005406402800000077,-0.78392704,-0.00033627981000000407,-2.35633816,0.0006801347400000065,1.57138354,0.78537086,0.03556221160000003,0.03556238760000003,-9.776647379435515,-0.08711605429675279,-0.1135526559663586,0.00387722151415393,-0.012621801901523707,0.005909668210959355
0.4425,-0.0005548335725000077,-0.7839161425000001,-0.00034382280750000407,-2.3563392700000003,0.0006921089175000065,1.57139188,0.785358245,0.03561721870000003,0.03561739170000003,-9.783217646370835,-0.09803262235308936,-0.09279446491510171,0.002893493347013023,-0.012930703005556897,0.005676869565428485
0.445,-0.0005690268650000077,-0.783905245,-0.0003513658050000041,-2.3563403800000002,0.0007040830950000065,1.57140022,0.78534563,0.03567222580000003,0.03567239580000003,-9.789787913306153,-0.10894919040942594,-0.0720362738638448,0.0019097651798721154,-0.013239604109590089,0.0054440709198976135
0.4475,-0.0005832201575000078,-0.7838943475,-0.0003589088025000042,-2.35634149,0.0007160572725000066,1.57140856,0.785333015,0.03572723290000003,0.035727399900000026,-9.796358180241473,-0.1198657584657625,-0.0512780828125879,0.0009260370127312087,-0.01354850521362328,0.005211272274366742
0.45,-0.0005974134500000086,-0.78388345,-0.00036645180000000456,-2.3563426,0.0007280314500000073,1.5714169,0.7853204,0.03578224000000003,0.035782404000000025,-9.802928447176788,-0.130782326522083,-0.030519891761338503,-5.7691154409084816e-05,-0.013857406317656243,0.00497847362883606
0.4525,-0.0006129306875000087,-0.7838715475,-0.0003746976675000046,-2.3563438150000002,0.0007411245765000074,1.57142599,0.78530663,0.03583284700000003,0.035833008900000025,-9.802491178652454,-0.11273226797972793,-0.023320441562579265,6.350333245667852e-05,-0.013755394222286707,0.0050863245701218505
0.455,-0.0006284479250000087,-0.783859645,-0.00038294353500000465,-2.35634503,0.0007542177030000073,1.57143508,0.78529286,0.03588345400000003,0.035883613800000026,-9.80205391012812,-0.09468220943737288,-0.01612099136382003,0.00018469781932244187,-0.013653382126917173,0.005194175511407641
0.4575,-0.0006439651625000088,-0.7838477425,-0.0003911894025000047,-2.356346245,0.0007673108295000074,1.5714441700000001,0.7852790900000001,0.03593406100000003,0.03593421870000003,-9.801616641603786,-0.07663215089501783,-0.008921541165060793,0.0003058923061882052,-0.013551370031547638,0.005302026452693432
0.46,-0.0006594824000000089,-0.7838358400000001,-0.00039943527000000474,-2.3563474600000003,0.0007804039560000075,1.57145326,0.78526532,0.035984668000000025,0.03598482360000003,-9.801179373079453,-0.058582092352662776,-0.0017220909663015552,0.00042708679305396855,-0.013449357936178102,0.005409877393979222
0.4625,-0.000674999637500009,-0.7838239375,-0.0004076811375000048,-2.356348675,0.0007934970825000075,1.57146235,0.78525155,0.036035275000000026,0.03603542850000003,-9.800742104555118,-0.04053203381030773,0.005477359232457683,0.0005482812799197318,-0.013347345840808567,0.005517728335265012
0.465,-0.000690516875000009,-0.783812035,-0.0004159270050000048,-2.35634989,0.0008065902090000076,1.57147144,0.78523778,0.03608588200000003,0.03608603340000003,-9.800304836030785,-0.022481975267952675,0.012676809431216917,0.0006694757667854952,-0.013245333745439031,0.005625579276550803
0.4675,-0.00070649563000001,-0.7837998,-0.0004244178790000053,-2.35635114,0.0008200728170000083,1.57148079,0.7852236025,0.036135139600000026,0.03613528865000003,-9.805436361869589,-0.008924834959374645,0.01881511263982749,0.000616081490816224,-0.013046974896886736,0.0057484547401667
0.47000000000000003,-0.00072339742000001,-0.7837869,-0.00043339876600000533,-2.35635246,0.0008343343880000084,1.57149066,0.7852086100000001,0.036181698400000024,0.03618184460000003,-9.82170547643464,-0.004353531118327,0.022831121868146315,0.00021350968917780225,-0.01265592254196943,0.005901379248442731
0.47250000000000003,-0.00074029921000001,-0.783774,-0.0004423796530000054,-2.35635378,0.0008485959590000085,1.57150053,0.7851936175,0.03622825720000002,0.036228400550000026,-9.837974590999691,0.00021777272272064524,0.026847131096465138,-0.00018906211246061953,-0.012264870187052123,0.006054303756718761
0.47500000000000003,-0.0007572010000000101,-0.7837611,-0.0004513605400000054,-2.3563551,0.0008628575300000085,1.5715104000000002,0.785178625,0.03627481600000003,0.03627495650000003,-9.854243705564741,0.0047890765637682905,0.03086314032478396,-0.0005916339140990413,-0.011873817832134816,0.006207228264994792
0.47750000000000004,-0.0007741027900000102,-0.7837482,-0.00046034142700000547,-2.35635642,0.0008771191010000086,1.5715202700000002,0.7851636325,0.03632137480000003,0.03632151245000003,-9.870512820129793,0.009360380404815934,0.034879149553102784,-0.000994205715737463,-0.01148276547721751,0.006360152773270822
0.48,-0.0007910045800000099,-0.7837353,-0.0004693223140000053,-2.35635774,0.0008913806720000084,1.5715301400000001,0.78514864,0.03636793360000003,0.03636806840000003,-9.886781934694843,0.013931684245863477,0.03889515878142152,-0.0013967775173758757,-0.011091713122300211,0.00651307728154685
0.4825,-0.00080790637000001,-0.7837223999999999,-0.00047830320100000534,-2.35635906,0.0009056422430000084,1.57154001,0.7851336475,0.036414492400000026,0.03641462435000003,-9.903051049259895,0.018502988086911122,0.04291116800974034,-0.0017993493190142976,-0.010700660767382904,0.00666600178982288
0.485,-0.0008257713200000109,-0.7837088,-0.0004877953670000058,-2.3563605,0.0009207156600000092,1.5715504800000002,0.7851177899999999,0.03645856830000002,0.036458698400000024,-9.8973246490538,0.015255218612933821,0.04545462911923141,-0.001324007313808326,-0.010974844436667661,0.006647639652191469
0.4875,-0.0008441178500000109,-0.7836948499999999,-0.0004975431725000058,-2.356362,0.0009361950000000092,1.57156125,0.7851015,0.03650140275000002,0.036501531500000024,-9.880600491462163,0.008097912481454458,0.047261816169310585,-0.0004097084051813268,-0.011581646118052564,0.006543634191606563
0.49,-0.000862464380000011,-0.7836809,-0.0005072909780000059,-2.3563635,0.0009516743400000093,1.57157202,0.78508521,0.036544237200000024,0.036544364600000025,-9.863876333870525,0.0009406063499750941,0.04906900321938975,0.0005045905034456722,-0.012188447799437466,0.0064396287310216575
0.4925,-0.0008808109100000111,-0.78366695,-0.0005170387835000059,-2.356365,0.0009671536800000093,1.5715827900000001,0.78506892,0.036587071650000025,0.036587197700000025,-9.847152176278888,-0.006216699781504267,0.05087619026946892,0.0014188894120726713,-0.01279524948082237,0.006335623270436752
0.495,-0.0008991574400000112,-0.7836529999999999,-0.000526786589000006,-2.3563665,0.0009826330200000094,1.5715935600000002,0.7850526299999999,0.036629906100000026,0.036630030800000025,-9.83042801868725,-0.013374005912983628,0.052683377319548086,0.00233318832069967,-0.013402051162207272,0.006231617809851846
0.4975,-0.0009175039700000113,-0.78363905,-0.000536534394500006,-2.356368,0.0009981123600000094,1.57160433,0.78503634,0.03667274055000003,0.036672863900000026,-9.813703861095613,-0.020531312044462992,0.05449056436962725,0.003247487229326669,-0.014008852843592174,0.006127612349266941
0.5,-0.0009358505000000123,-0.7836251,-0.0005462822000000065,-2.3563695,0.0010135917000000103,1.5716151,0.78502005,0.03671557500000003,0.036715697000000026,-9.796979703503984,-0.027688618175935823,0.056297751419699275,0.0041617861379527185,-0.014615654524976774,0.006023606888682369
0.5025000000000001,-0.0009557012300000128,-0.78361001,-0.0005568285050000069,-2.35637115,0.0010303379700000107,1.57162668,0.7850024369999999,0.036754984350000026,0.036755104250000024,-9.794085248766693,-0.024345664949184564,0.046613285664347276,0.0035481796273041455,-0.014736380066446083,0.006456340455663876
0.505,-0.0009755519600000125,-0.78359492,-0.0005673748100000067,-2.3563728,0.0010470842400000105,1.57163826,0.784984824,0.036794393700000025,0.03679451150000002,-9.7911907940294,-0.021002711722433454,0.0369288199089957,0.0029345731166556,-0.014857105607915385,0.006889074022645363
0.5075000000000001,-0.0009954026900000131,-0.78357983,-0.0005779211150000069,-2.35637445,0.001063830510000011,1.57164984,0.784967211,0.03683380305000002,0.03683391875000003,-9.78829633929211,-0.017659758495682194,0.027244354153643697,0.002320966606007027,-0.014977831149384694,0.0073218075896268695
0.51,-0.0010152534200000127,-0.78356474,-0.0005884674200000067,-2.3563761000000003,0.0010805767800000107,1.57166142,0.784949598,0.03687321240000002,0.036873326000000026,-9.785401884554817,-0.014316805268931084,0.017559888398292124,0.0017073600953584813,-0.015098556690853996,0.007754541156608358
0.5125,-0.0010351041500000124,-0.78354965,-0.0005990137250000066,-2.35637775,0.0010973230500000103,1.571673,0.784931985,0.03691262175000002,0.036912733250000024,-9.782507429817526,-0.010973852042179974,0.007875422642940548,0.0010937535847099357,-0.0152192822323233,0.008187274723589846
0.515,-0.0010549548800000128,-0.78353456,-0.0006095600300000068,-2.3563794000000002,0.0011140693200000107,1.57168458,0.784914372,0.036952031100000025,0.03695214050000003,-9.779612975080235,-0.007630898815428715,-0.0018090431124114514,0.0004801470740613627,-0.015340007773792607,0.008620008290571352
0.5175,-0.0010753266450000136,-0.7835190799999999,-0.0006203829050000072,-2.356381045,0.0011312539850000113,1.5716964850000001,0.7848962985,0.03699038940000002,0.036990496900000024,-9.776551559265705,-0.01043393964896797,-0.007011356910205407,0.0002701692216452579,-0.015213634356414053,0.009017182184518226
0.52,-0.0010967404800000143,-0.7835028199999999,-0.0006317589200000074,-2.3563826800000003,0.0011493154400000118,1.57170904,0.784877304,0.03702664560000002,0.037026751600000025,-9.773156221296698,-0.025528968603053422,-0.003249366792909647,0.0008674486856917505,-0.014593063021341172,0.009343236732396095
0.5225,-0.0011181543150000138,-0.7834865599999999,-0.0006431349350000073,-2.356384315,0.0011673768950000115,1.571721595,0.7848583095,0.03706290180000002,0.03706300630000003,-9.769760883327693,-0.040623997557138206,0.0005126233243859472,0.0014647281497382164,-0.013972491686268318,0.00966929128027395
0.525,-0.0011395681500000142,-0.7834703,-0.0006545109500000076,-2.3563859500000004,0.001185438350000012,1.5717341500000002,0.784839315,0.03709915800000002,0.03709926100000002,-9.766365545358688,-0.05571902651122365,0.004274613441681709,0.0020620076137847095,-0.013351920351195437,0.009995345828151817
0.5275,-0.001160981985000014,-0.78345404,-0.0006658869650000074,-2.3563875850000002,0.0012034998050000115,1.571746705,0.7848203205000001,0.03713541420000002,0.037135515700000024,-9.762970207389682,-0.07081405546530845,0.0080366035589773,0.0026592870778311753,-0.012731349016122582,0.01032140037602967
0.53,-0.0011823958200000144,-0.78343778,-0.0006772629800000077,-2.35638922,0.001221561260000012,1.57175926,0.784801326,0.03717167040000002,0.037171770400000026,-9.759574869420677,-0.08590908441939388,0.011798593676273063,0.003256566541877668,-0.0121107776810497,0.01064745492390754
0.5325,-0.001203809655000014,-0.78342152,-0.0006886389950000074,-2.3563908550000003,0.0012396227150000118,1.571771815,0.7847823315,0.03720792660000002,0.03720802510000003,-9.756179531451671,-0.10100411337347867,0.015560583793568656,0.003853846005924134,-0.011490206345976847,0.010973509471785395
0.535,-0.0012263042400000156,-0.78340448,-0.0007005886700000083,-2.35639252,0.0012585932000000132,1.57178504,0.78476238,0.03724225050000002,0.03724234700000002,-9.757503020067066,-0.09543886753516614,0.015431371495742903,0.00432501636898997,-0.010862009904481927,0.010583223818433088
0.5375,-0.0012493392000000154,-0.78338705,-0.0007128251750000081,-2.3563942,0.0012780182000000128,1.5717986000000002,0.78474195,0.03727560825000002,0.03727570250000002,-9.761185921974654,-0.0795434843006863,0.01335655799036232,0.004733132181565647,-0.010230000909776028,0.0098347680644668
0.54,-0.001272374160000016,-0.78336962,-0.0007250616800000085,-2.35639588,0.0012974432000000134,1.5718121600000001,0.78472152,0.03730896600000002,0.03730905800000003,-9.764868823882242,-0.06364810106620575,0.011281744484981645,0.005141247994141343,-0.009597991915070101,0.009086312310500482
0.5425,-0.0012954091200000155,-0.78335219,-0.0007372981850000082,-2.35639756,0.001316868200000013,1.57182572,0.78470109,0.037342323750000024,0.037342413500000025,-9.76855172578983,-0.047752717831725904,0.009206930979601062,0.005549363806717021,-0.008965982920364202,0.008337856556534195
0.545,-0.0013184440800000162,-0.78333476,-0.0007495346900000086,-2.35639924,0.0013362932000000136,1.57183928,0.78468066,0.03737568150000002,0.037375769000000024,-9.772234627697419,-0.03185733459724535,0.0071321174742203855,0.005957479619292717,-0.008333973925658277,0.007589400802567875
0.5475,-0.001341479040000016,-0.78331733,-0.0007617711950000084,-2.35640092,0.0013557182000000132,1.57185284,0.78466023,0.037409039250000026,0.03740912450000002,-9.775917529605007,-0.0159619513627655,0.005057303968839803,0.006365595431868395,-0.007701964930952377,0.006840945048601588
0.55,-0.0013645140000000176,-0.7832999,-0.0007740077000000093,-2.3564026,0.0013751432000000147,1.5718664,0.7846398,0.03744239700000002,0.03744248000000002,-9.779600431512588,-6.656812829401514e-05,0.002982490463447482,0.0067737112444433804,-0.0070699559362473454,0.00609248929463622
0.5525,-0.0013892274900000172,-0.78328127,-0.000787135184000009,-2.35640431,0.0013959788600000143,1.57188089,0.7846178655,0.03747308490000002,0.03747316655000002,-9.775591527614218,0.0030574464572874094,-0.015479473014183204,0.006183492146927481,-0.00769758528246578,0.006685033865606571
0.555,-0.0014139409800000178,-0.78326264,-0.0008002626680000094,-2.35640602,0.001416814520000015,1.57189538,0.784595931,0.03750377280000002,0.03750385310000002,-9.771582623715846,0.006181461042868972,-0.03394143649181471,0.005593273049411556,-0.008325214628684241,0.007277578436576946
0.5575,-0.0014386544700000174,-0.78324401,-0.0008133901520000091,-2.35640773,0.0014376501800000146,1.57190987,0.7845739964999999,0.03753446070000002,0.03753453965000002,-9.767573719817475,0.009305475628450398,-0.052403399969445395,0.005003053951895656,-0.008952843974902674,0.007870123007547296
0.56,-0.001463367960000018,-0.78322538,-0.0008265176360000095,-2.35640944,0.001458485840000015,1.57192436,0.7845520619999999,0.03756514860000002,0.037565226200000024,-9.763564815919104,0.01242949021403196,-0.07086536344707692,0.00441283485437973,-0.009580473321121137,0.008462667578517671
0.5625,-0.0014880814500000178,-0.7832067500000001,-0.0008396451200000093,-2.35641115,0.0014793215000000147,1.57193885,0.7845301275,0.03759583650000002,0.03759591275000002,-9.759555912020732,0.015553504799613385,-0.0893273269247076,0.003822615756863831,-0.010208102667339571,0.009055212149488021
0.5650000000000001,-0.0015127949400000184,-0.78318812,-0.0008527726040000096,-2.35641286,0.0015001571600000152,1.57195334,0.784508193,0.03762652440000003,0.03762659930000002,-9.755547008122361,0.01867751938519495,-0.1077892904023391,0.003232396659347905,-0.010835732013558034,0.009647756720458398
0.5675,-0.0015380867700000192,-0.7831690275000001,-0.0008662070835000101,-2.35641459,0.001521478760000016,1.57196816,0.7844857515,0.037656393850000025,0.03765646730000002,-9.759263644337482,0.013810916414968975,-0.11652791366804555,0.0029382977789155296,-0.011232304870189579,0.010304179673283755
0.5700000000000001,-0.0015645352800000198,-0.78314901,-0.0008802555540000104,-2.35641636,0.0015437722400000165,1.57198364,0.784462296,0.037684626400000025,0.03768469820000002,-9.778431360779539,-0.007036921666820555,-0.10581985650996653,0.0032364393326482824,-0.011166764747648852,0.011088359389818746
0.5725,-0.0015909837900000192,-0.7831289925,-0.0008943040245000103,-2.3564181299999998,0.0015660657200000162,1.57199912,0.7844388404999999,0.037712858950000025,0.03771292910000002,-9.797599077221596,-0.02788475974860916,-0.09511179935188799,0.0035345808863810222,-0.011101224625108127,0.011872539106353702
0.5750000000000001,-0.00161743230000002,-0.783108975,-0.0009083524950000106,-2.3564199,0.0015883592000000169,1.5720146000000002,0.784415385,0.037741091500000025,0.037741160000000024,-9.816766793663653,-0.04873259783039868,-0.08440374219380897,0.003832722440113775,-0.0110356845025674,0.012656718822888692
0.5775,-0.0016438808100000194,-0.7830889575000001,-0.0009224009655000103,-2.35642167,0.0016106526800000163,1.57203008,0.7843919294999999,0.03776932405000002,0.03776939090000002,-9.83593451010571,-0.0695804359121873,-0.07369568503573043,0.004130863993846515,-0.010970144380026676,0.013440898539423648
0.58,-0.001670329320000019,-0.78306894,-0.0009364494360000102,-2.35642344,0.001632946160000016,1.57204556,0.784368474,0.03779755660000002,0.03779762180000002,-9.855102226547766,-0.09042827399397589,-0.06298762787765189,0.004429005547579254,-0.010904604257485953,0.014225078255958605
0.5825,-0.0016967778300000197,-0.7830489225,-0.0009504979065000105,-2.35642521,0.0016552396400000167,1.5720610400000001,0.7843450184999999,0.03782578915000002,0.03782585270000002,-9.874269942989823,-0.11127611207576543,-0.05227957071957286,0.0047271471013120075,-0.010839064134945226,0.015009257972493596
0.585,-0.0017244202000000206,-0.783028065,-0.000965180107000011,-2.35642704,0.0016785357900000173,1.57207724,0.7843205099999999,0.03785251620000002,0.03785257810000002,-9.861489181970178,-0.11408689946413542,-0.03696222470523659,0.004843599930681399,-0.011105583806862225,0.015252812983643801
0.5875,-0.0017526595000000214,-0.7830067875000001,-0.0009801791725000113,-2.3564289,0.001702333275000018,1.5720938,0.784295475,0.03787849050000002,0.03787855075000002,-9.832734182219735,-0.10787916150582585,-0.01934023426277837,0.00486920839786942,-0.01153813337600755,0.01522605564210253
0.59,-0.0017808988000000208,-0.78298551,-0.0009951782380000112,-2.35643076,0.0017261307600000175,1.57211036,0.7842704399999999,0.037904464800000016,0.03790452340000002,-9.803979182469293,-0.10167142354751657,-0.0017182438203209305,0.004894816865057439,-0.011970682945152859,0.01519929830056126
0.5925,-0.0018091381000000216,-0.7829642325,-0.0010101773035000115,-2.35643262,0.001749928245000018,1.57212692,0.784245405,0.03793043910000002,0.03793049605000002,-9.77522418271885,-0.09546368558920702,0.015903746622137296,0.004920425332245459,-0.012403232514298186,0.01517254095901999
0.595,-0.001837377400000021,-0.782942955,-0.0010251763690000111,-2.35643448,0.0017737257300000178,1.57214348,0.78422037,0.037956413400000014,0.037956468700000016,-9.746469182968406,-0.08925594763089775,0.03352573706459473,0.004946033799433479,-0.012835782083443492,0.01514578361747872
0.5975,-0.0018656167000000218,-0.7829216775000001,-0.0010401754345000117,-2.35643634,0.0017975232150000183,1.57216004,0.7841953349999999,0.037982387700000016,0.03798244135000002,-9.717714183217963,-0.08304820967258819,0.05114772750705296,0.0049716422666215,-0.01326833165258882,0.015119026275937449
0.6,-0.0018938560000000227,-0.7829004,-0.0010551745000000122,-2.3564382,0.001821320700000019,1.5721766,0.7841703,0.03800836200000002,0.03800841400000002,-9.688959183467563,-0.07684047171427805,0.06876971794948918,0.004997250733810068,-0.013700881221733791,0.015092268934396762
0.6025,-0.0019239407950000236,-0.78287772,-0.0010711531450000125,-2.35644006,0.00184666765500002,1.57219424,0.784143615,0.038032261200000014,0.03803231140000002,-9.717993380981808,-0.06948221667752476,0.058278367009442354,0.005750203253946684,-0.013688567115154746,0.015837400839325767
0.605,-0.001954025590000023,-0.7828550400000001,-0.001087131790000012,-2.35644192,0.0018720146100000194,1.57221188,0.7841169299999999,0.03805616040000002,0.03805620880000002,-9.74702757849605,-0.06212396164077181,0.047787016069396,0.006503155774083265,-0.0136762530085757,0.016582532744254738
0.6075,-0.001984110385000024,-0.78283236,-0.0011031104350000126,-2.35644378,0.00189736156500002,1.57222952,0.784090245,0.038080059600000014,0.03808010620000002,-9.776061776010295,-0.05476570660401853,0.037295665129349176,0.00725610829421988,-0.013663938901996655,0.017327664649183745
0.61,-0.0020141951800000234,-0.7828096800000001,-0.0011190890800000122,-2.35644564,0.0019227085200000196,1.5722471599999999,0.78406356,0.03810395880000002,0.03810400360000001,-9.805095973524537,-0.04740745156726557,0.026804314189302812,0.008009060814356463,-0.01365162479541761,0.018072796554112716
0.6125,-0.0020442799750000243,-0.782787,-0.0011350677250000127,-2.3564475000000003,0.0019480554750000204,1.5722648,0.784036875,0.038127858000000014,0.03812790100000002,-9.834130171038781,-0.040049196530512296,0.01631296324925599,0.008762013334493076,-0.013639310688838564,0.018817928459041722
0.615,-0.0020743647700000234,-0.7827643200000001,-0.0011510463700000124,-2.35644936,0.00197340243000002,1.57228244,0.78401019,0.03815175720000002,0.03815179840000001,-9.863164368553024,-0.03269094149375934,0.005821612309209634,0.009514965854629659,-0.013626996582259519,0.019563060363970694
0.6175,-0.002105082710000026,-0.782741158,-0.0011673610900000137,-2.35645129,0.0019992808500000217,1.572300455,0.78398295,0.03817501835000001,0.03817505800000001,-9.874832736879332,-0.02574540269110645,-0.0006335619643715828,0.00982122276276446,-0.013538634118550285,0.019627653841784623
0.62,-0.0021370669400000253,-0.782717032,-0.0011843479600000134,-2.35645336,0.002026222200000021,1.57231922,0.7839546000000001,0.03819700340000001,0.038197042000000014,-9.851769446829891,-0.019625296356651643,0.0009836170949493186,0.009234088446898875,-0.013298174940581229,0.018331170465373355
0.6225,-0.002169051170000026,-0.782692906,-0.001201334830000014,-2.35645543,0.002053163550000022,1.5723379849999999,0.78392625,0.03821898845000001,0.03821902600000002,-9.82870615678045,-0.013505190022196564,0.0026007961542702917,0.008646954131033264,-0.013057715762612164,0.017034687088962032
0.625,-0.0022010354000000253,-0.78266878,-0.0012183217000000135,-2.3564575000000003,0.0020801049000000217,1.57235675,0.7838979,0.03824097350000002,0.03824101000000002,-9.805642866731011,-0.00738508368774176,0.004217975213591194,0.008059819815167681,-0.012817256584643107,0.015738203712550764
0.6275000000000001,-0.0022330196300000263,-0.7826446539999999,-0.001235308570000014,-2.35645957,0.0021070462500000224,1.572375515,0.78386955,0.03826295855000002,0.038262994000000015,-9.782579576681568,-0.0012649773532866816,0.005835154272912167,0.00747268549930207,-0.012576797406674042,0.014441720336139437
0.63,-0.002265003860000026,-0.7826205279999999,-0.0012522954400000137,-2.35646164,0.002133987600000022,1.57239428,0.7838412,0.03828494360000002,0.03828497800000002,-9.75951628663213,0.004855128981168126,0.0074523333322330685,0.006885551183436485,-0.012336338228704986,0.013145236959728171
0.6325000000000001,-0.0022969880900000268,-0.7825964019999999,-0.0012692823100000142,-2.3564637100000003,0.0021609289500000226,1.572413045,0.78381285,0.038306928650000016,0.03830696200000002,-9.736452996582688,0.010975235315623201,0.009069512391554041,0.006298416867570875,-0.01209587905073592,0.011848753583316846
0.635,-0.0023302739100000275,-0.782571314,-0.0012869600800000148,-2.35646586,0.002188962630000023,1.57243255,0.78378335,0.03832774100000001,0.038327773400000015,-9.736919829051121,0.021390833670121887,0.014300801559164581,0.005701966610334059,-0.012005765879782169,0.01190567543037208
0.6375000000000001,-0.0023642105250000285,-0.782545745,-0.0013049833000000153,-2.35646805,0.002217542475000024,1.572452425,0.783753275,0.03834796700000002,0.038347998500000015,-9.74915172277845,0.033954178034635046,0.021339145780913515,0.005100858382411618,-0.011990825712335788,0.012639299889158068
0.64,-0.002398147140000028,-0.782520176,-0.0013230065200000149,-2.35647024,0.0022461223200000236,1.5724723,0.7837232,0.038368193000000016,0.038368223600000015,-9.761383616505777,0.04651752239914765,0.028377490002662133,0.004499750154489203,-0.011975885544889408,0.013372924347944026
0.6425,-0.002432083755000027,-0.782494607,-0.0013410297400000147,-2.35647243,0.002274702165000023,1.572492175,0.783693125,0.038388419000000014,0.038388448700000015,-9.773615510233103,0.059080866763660256,0.035415834224410754,0.003898641926566789,-0.011960945377443027,0.014106548806729983
0.645,-0.002466020370000028,-0.782469038,-0.0013590529600000152,-2.35647462,0.0023032820100000236,1.57251205,0.78366305,0.03840864500000002,0.038408673800000015,-9.785847403960432,0.07164421112817343,0.04245417844615969,0.003297533698644348,-0.011946005209996648,0.014840173265515974
0.6475,-0.0024999569850000275,-0.782443469,-0.0013770761800000148,-2.35647681,0.002331861855000023,1.572531925,0.783632975,0.03842887100000002,0.038428898900000015,-9.798079297687758,0.08420755549268603,0.04949252266790831,0.0026964254707219338,-0.011931065042550267,0.015573797724301931
0.65,-0.0025338936000000303,-0.7824179,-0.001395099400000016,-2.356479,0.0023604417000000254,1.5725518,0.7836029,0.038449097000000015,0.038449124000000015,-9.81031119141507,0.09677089985719427,0.05653086688964337,0.0020953172428005177,-0.011916124875104205,0.016307422183087693
0.6525,-0.0025698346050000297,-0.7823908549999999,-0.0014141865400000158,-2.3564813100000004,0.002390703495000025,1.572572875,0.78357104,0.03846770540000002,0.038467731200000015,-9.801479869225842,0.10347891494446743,0.04713134116679297,0.002709180747390292,-0.012277306320768592,0.016774112695910948
0.655,-0.002605775610000031,-0.78236381,-0.0014332736800000162,-2.35648362,0.0024209652900000255,1.5725939500000001,0.78353918,0.03848631380000002,0.038486338400000014,-9.792648547036613,0.11018693003174089,0.03773181544394215,0.0033230442519800933,-0.012638487766432997,0.01724080320873422
0.6575,-0.00264171661500003,-0.7823367649999999,-0.001452360820000016,-2.3564859300000003,0.002451227085000025,1.572615025,0.78350732,0.038504922200000014,0.03850494560000002,-9.783817224847386,0.11689494511901406,0.028332289721091745,0.003936907756569867,-0.012999669212097387,0.01770749372155747
0.66,-0.002677657620000031,-0.78230972,-0.0014714479600000164,-2.35648824,0.002481488880000026,1.5726361,0.78347546,0.038523530600000015,0.03852355280000002,-9.774985902658157,0.12360296020628753,0.018932763998240926,0.004550771261159669,-0.013360850657761792,0.018174184234380743
0.6625,-0.0027135986250000303,-0.7822826749999999,-0.0014905351000000162,-2.35649055,0.0025117506750000256,1.572657175,0.7834436,0.03854213900000002,0.03854216000000002,-9.76615458046893,0.13031097529356067,0.009533238275390522,0.0051646347657494426,-0.01372203210342618,0.018640874747203995
0.665,-0.0027495396300000314,-0.78225563,-0.0015096222400000168,-2.35649286,0.0025420124700000265,1.57267825,0.7834117399999999,0.03856074740000002,0.03856076720000002,-9.757323258279703,0.13701899038083415,0.0001337125525397026,0.005778498270339244,-0.014083213549090584,0.019107565260027267
0.6675,-0.0027861657600000323,-0.7822280715,-0.0015290730350000171,-2.35649527,0.0025728490800000273,1.5726997249999999,0.7833792715,0.038578859950000016,0.03857887860000002,-9.754904723690187,0.1369334315146069,-0.008260930422907126,0.006363955597509018,-0.014180616735257426,0.01928526439264339
0.67,-0.0028241621400000327,-0.782199486,-0.0015492511400000174,-2.35649788,0.0026048353200000276,1.572722,0.7833455859999999,0.03859598080000001,0.03859599840000002,-9.76531176430005,0.12326072474143078,-0.014645807903554839,0.006892600569839036,-0.01375046340243119,0.018884980764847476
0.6725,-0.0028621585200000314,-0.7821709004999999,-0.0015694292450000168,-2.3565004899999997,0.0026368215600000265,1.572744275,0.7833119005,0.038613101650000016,0.03861311820000002,-9.77571880490991,0.10958801796825526,-0.02103068538420227,0.007421245542169029,-0.013320310069604973,0.01848469713705158
0.675,-0.002900154900000032,-0.782142315,-0.001589607350000017,-2.3565031,0.002668807800000027,1.57276655,0.7832782149999999,0.03863022250000001,0.03863023800000002,-9.786125845519773,0.09591531119507912,-0.027415562864849988,0.007949890514499047,-0.012890156736778737,0.018084413509255663
0.6775,-0.002938151280000031,-0.7821137294999999,-0.0016097854550000165,-2.35650571,0.002700794040000026,1.572788825,0.7832445295,0.038647343350000016,0.03864735780000001,-9.796532886129635,0.08224260442190359,-0.033800440345497416,0.00847853548682904,-0.012460003403952521,0.017684129881459766
0.68,-0.0029761476600000314,-0.782085144,-0.0016299635600000167,-2.3565083199999997,0.0027327802800000264,1.5728111,0.783210844,0.03866446420000001,0.03866447760000001,-9.806939926739497,0.06856989764872745,-0.04018531782614513,0.009007180459159058,-0.012029850071126285,0.01728384625366385
0.6825,-0.00301414404000003,-0.7820565585,-0.0016501416650000161,-2.35651093,0.0027647665200000258,1.572833375,0.7831771585,0.03868158505000001,0.03868159740000001,-9.817346967349359,0.05489719087555192,-0.046570195306792565,0.00953582543148905,-0.011599696738300068,0.016883562625867952
0.685,-0.0030535439500000328,-0.7820269369999999,-0.0016710647800000176,-2.35651366,0.002797930140000028,1.57285649,0.783142237,0.03869779380000001,0.03869780480000001,-9.815481272197559,0.04870061694404499,-0.046587207541451785,0.009338414414308868,-0.011436123408026326,0.01712893256338604
0.6875,-0.003093645625000033,-0.7819967975,-0.0016923604000000174,-2.35651645,0.002831682450000028,1.5728800250000001,0.7831066975,0.038713546500000015,0.03871355600000001,-9.80747920916495,0.04624210943335933,-0.043420287153128345,0.008777975402374915,-0.01140584007902835,0.017697129283559942
0.6900000000000001,-0.0031337473000000345,-0.781966658,-0.0017136560200000184,-2.35651924,0.002865434760000029,1.57290356,0.7830711579999999,0.03872929920000001,0.038729307200000014,-9.799477146132338,0.04378360192267356,-0.040253366764804774,0.008217536390440938,-0.011375556750030375,0.01826532600373387
0.6925,-0.003173848975000034,-0.7819365185,-0.0017349516400000182,-2.35652203,0.002899187070000029,1.572927095,0.7830356184999999,0.038745051900000015,0.03874505840000001,-9.791475083099728,0.0413250944119879,-0.037086446376481334,0.007657097378506984,-0.0113452734210324,0.018833522723907772
0.6950000000000001,-0.003213950650000036,-0.7819063789999999,-0.0017562472600000192,-2.35652482,0.0029329393800000304,1.57295063,0.783000079,0.03876080460000002,0.038760809600000015,-9.783473020067118,0.03886658690130214,-0.033919525988157756,0.007096658366573007,-0.011314990092034424,0.0194017194440817
0.6975,-0.003254052325000036,-0.7818762395,-0.001777542880000019,-2.35652761,0.0029666916900000302,1.572974165,0.7829645395,0.038776557300000014,0.03877656080000002,-9.775470957034509,0.03640807939061647,-0.030752605599834323,0.006536219354639055,-0.011284706763036449,0.019969916164255603
0.7000000000000001,-0.0032941540000000396,-0.7818461,-0.001798838500000021,-2.3565304,0.003000444000000033,1.5729977,0.782929,0.03879231000000002,0.038792312000000016,-9.767468894001915,0.03394957187993206,-0.027585685211514957,0.0059757803427062045,-0.01125442343403873,0.02053811288442879
0.7025,-0.003336410050000038,-0.7818143599999999,-0.0018212776600000202,-2.356533235,0.003036003300000032,1.57302248,0.7828915599999999,0.03880679925000002,0.03880680095000002,-9.776403506437822,0.032946997794942603,-0.028932638249488784,0.006623904526325075,-0.011500329876302288,0.02031324322830848
0.705,-0.0033786661000000367,-0.78178262,-0.0018437168200000195,-2.35653607,0.003071562600000031,1.57304726,0.78285412,0.038821288500000016,0.038821289900000014,-9.78533811887373,0.03194442370995314,-0.030279591287462614,0.007272028709943945,-0.011746236318565844,0.020088373572188175
0.7075,-0.0034209221500000374,-0.7817508799999999,-0.00186615598000002,-2.3565389050000003,0.0031071219000000315,1.57307204,0.7828166799999999,0.038835777750000015,0.038835778850000016,-9.794272731309636,0.03094184962496363,-0.031626544325436504,0.007920152893562843,-0.011992142760829412,0.019863503916067858
0.71,-0.003463178200000036,-0.78171914,-0.0018885951400000192,-2.35654174,0.00314268120000003,1.57309682,0.78277924,0.038850267000000015,0.03885026780000001,-9.803207343745544,0.029939275539974164,-0.03297349736341033,0.008568277077181713,-0.01223804920309297,0.019638634259947548
0.7125,-0.0035054342500000367,-0.7816874,-0.0019110343000000194,-2.356544575,0.0031782405000000307,1.5731216000000001,0.7827417999999999,0.038864756250000014,0.038864756750000014,-9.812141956181451,0.028936701454984656,-0.03432045040138422,0.009216401260800613,-0.012483955645356539,0.01941376460382723
0.715,-0.0035476903000000353,-0.78165566,-0.0019334734600000188,-2.35654741,0.0032137998000000296,1.57314638,0.78270436,0.03887924550000001,0.038879245700000016,-9.82107656861736,0.02793412736999519,-0.03566740343935804,0.009864525444419481,-0.012729862087620097,0.01918889494770692
0.7175,-0.003590680365000038,-0.781623365,-0.0019563022450000203,-2.35655025,0.0032499748900000317,1.57317159,0.7826662679999999,0.038893349100000016,0.03889334855000001,-9.826496194593998,0.02452679649885904,-0.03538127530070552,0.010421301465887541,-0.012674891077862764,0.018963221590213585
0.72,-0.003635138460000038,-0.78158996,-0.0019799102800000202,-2.3565531,0.003287381560000032,1.5731976600000002,0.782626872,0.03890668140000001,0.03890667920000001,-9.824885847652125,0.016309952055448232,-0.03182898480881273,0.010795381163054599,-0.01201816516406594,0.018735940829974228
0.7225,-0.0036795965550000397,-0.781556555,-0.002003518315000021,-2.35655595,0.0033247882300000333,1.57322373,0.782587476,0.03892001370000001,0.03892000985000001,-9.823275500710253,0.008093107612037059,-0.028276694316919787,0.011169460860221674,-0.01136143925026909,0.018508660069734856
0.725,-0.0037240546500000395,-0.7815231499999999,-0.002027126350000021,-2.3565588,0.003362194900000033,1.5732498000000001,0.78254808,0.038933346000000014,0.03893334050000001,-9.82166515376838,-0.00012373683137374691,-0.024724403825026997,0.011543540557388732,-0.010704713336472268,0.0182813793094955
0.7275,-0.003768512745000041,-0.781489745,-0.0020507343850000217,-2.35656165,0.0033996015700000345,1.57327587,0.782508684,0.03894667830000001,0.038946671150000015,-9.820054806826509,-0.008340581274784924,-0.021172113333134047,0.011917620254555807,-0.010047987422675417,0.018054098549256128
0.73,-0.003812970840000041,-0.78145634,-0.0020743424200000216,-2.3565645,0.0034370082400000347,1.5733019400000001,0.782469288,0.03896001060000001,0.03896000180000001,-9.818444459884637,-0.016557425718195733,-0.01761982284124126,0.012291699951722865,-0.009391261508878593,0.01782681778901677
0.7325,-0.003857428935000043,-0.7814229349999999,-0.002097950455000023,-2.35656735,0.003474414910000036,1.57332801,0.782429892,0.03897334290000001,0.03897333245000001,-9.816834112942765,-0.024774270161606902,-0.014067532349348311,0.01266577964888994,-0.008734535595081742,0.0175995370287774
0.735,-0.003903386520000044,-0.78138842,-0.002122354380000023,-2.35657027,0.003513079090000037,1.57335496,0.782389169,0.03898596400000001,0.03898595260000001,-9.824071531745794,-0.023891000273774724,-0.011509327629485389,0.012274775332656942,-0.008705887717645579,0.01755286202637852
0.7375,-0.003950093850000045,-0.78135335,-0.0021471562500000236,-2.356573225,0.0035523720250000375,1.5733823500000002,0.7823477825,0.03899822950000001,0.03899821750000001,-9.835732833421256,-0.018457673220340514,-0.009448165795635156,0.011501229009725536,-0.008991278858388399,0.01759648990289949
0.74,-0.003996801180000043,-0.78131828,-0.002171958120000023,-2.3565761800000002,0.003591664960000036,1.57340974,0.782306396,0.03901049500000001,0.03901048240000001,-9.847394135096716,-0.013024346166906543,-0.007387003961785016,0.010727682686794165,-0.009276669999131204,0.01764011777942046
0.7425,-0.004043508510000044,-0.78128321,-0.0021967599900000233,-2.356579135,0.003630957895000037,1.57343713,0.7822650095,0.03902276050000001,0.039022747300000014,-9.859055436772177,-0.007591019113472333,-0.005325842127934783,0.00995413636386276,-0.009562061139874022,0.01768374565594143
0.745,-0.004090215840000043,-0.78124814,-0.0022215618600000225,-2.35658209,0.0036702508300000356,1.5734645200000001,0.7822236229999999,0.039035026000000014,0.03903501220000001,-9.870716738447637,-0.0021576920600383624,-0.0032646802940846428,0.009180590040931389,-0.009847452280616828,0.017727373532462398
0.7475,-0.004136923170000043,-0.78121307,-0.002246363730000023,-2.356585045,0.003709543765000036,1.57349191,0.7821822365,0.03904729150000001,0.039047277100000014,-9.882378040123099,0.003275634993395851,-0.0012035184602344103,0.008407043717999984,-0.010132843421359648,0.01777100140898337
0.75,-0.004183630500000044,-0.781178,-0.002271165600000023,-2.356588,0.0037488367000000364,1.5735193,0.78214085,0.03905955700000001,0.03905954200000001,-9.894039341798539,0.008708962046825778,0.0008576433736007612,0.007633497395069917,-0.01041823456210231,0.017814629285505514
0.7525000000000001,-0.0042326323500000455,-0.781141199,-0.002297185755000024,-2.356591,0.0037900545400000383,1.5735480400000001,0.7820974249999999,0.03907084135000001,0.039070825150000016,-9.882267901799247,0.009585451375835633,-0.013935285326496495,0.00832872510054797,-0.010541040892192934,0.01918311170981109
0.755,-0.0042816342000000455,-0.781104398,-0.002323205910000024,-2.356594,0.003831272380000038,1.57357678,0.7820539999999999,0.03908212570000001,0.039082108300000015,-9.870496461799958,0.010461940704845449,-0.028728214026593094,0.009023952806025992,-0.010663847222283553,0.020551594134116603
0.7575000000000001,-0.004330636050000047,-0.781067597,-0.002349226065000025,-2.356597,0.0038724902200000396,1.57360552,0.7820105749999999,0.03909341005000001,0.039093391450000015,-9.858725021800666,0.011338430033855304,-0.043521142726690346,0.009719180511504045,-0.010786653552374178,0.02192007655842218
0.76,-0.004379637900000047,-0.7810307959999999,-0.002375246220000025,-2.3566,0.00391370806000004,1.5736342600000002,0.7819671499999999,0.03910469440000001,0.039104674600000014,-9.846953581801376,0.012214919362865121,-0.05831407142678695,0.010414408216982068,-0.010909459882464797,0.023288558982727692
0.7625000000000001,-0.004428639750000049,-0.7809939949999999,-0.002401266375000026,-2.3566030000000002,0.003954925900000041,1.573663,0.781923725,0.03911597875000001,0.03911595775000001,-9.835182141802084,0.013091408691874976,-0.07310700012688422,0.01110963592246012,-0.011032266212555422,0.024657041407033266
0.765,-0.004477641600000049,-0.780957194,-0.002427286530000026,-2.356606,0.003996143740000041,1.5736917400000001,0.7818802999999999,0.03912726310000001,0.03912724090000001,-9.823410701802795,0.013967898020884792,-0.0878999288269808,0.011804863627938141,-0.011155072542646041,0.02602552383133878
0.7675000000000001,-0.004527423345000053,-0.7809198154999999,-0.002453720610000028,-2.356609055,0.004038015635000045,1.5737209300000001,0.7818361875,0.03913824695000001,0.039138223850000015,-9.814004576204304,0.014321999961120158,-0.09824635569298111,0.012244005519553361,-0.01113674965381612,0.02673245181630751
0.77,-0.004578764880000052,-0.780881282,-0.0024809825400000274,-2.35661222,0.0040811956400000435,1.57375102,0.7817907,0.03914862980000001,0.039148606400000015,-9.809329079407394,0.01363132712381138,-0.09969977889082833,0.012170975783445266,-0.010836168327146416,0.026116270922608657
0.7725,-0.004630106415000051,-0.7808427484999999,-0.002508244470000027,-2.356615385,0.0041243756450000425,1.57378111,0.7817452125,0.03915901265000001,0.039158988950000015,-9.804653582610486,0.012940654286502602,-0.10115320208867555,0.012097946047337172,-0.010535587000476711,0.0255000900289098
0.775,-0.004681447950000053,-0.780804215,-0.0025355064000000278,-2.3566185500000003,0.004167555650000044,1.5738112,0.781699725,0.03916939550000001,0.039169371500000015,-9.799978085813576,0.012249981449193795,-0.10260662528652283,0.012024916311229076,-0.010235005673806993,0.02488390913521092
0.7775,-0.004732789485000052,-0.7807656814999999,-0.0025627683300000273,-2.356621715,0.004210735655000043,1.57384129,0.7816542375,0.03917977835000001,0.03917975405000001,-9.795302589016666,0.011559308611885017,-0.10406004848437005,0.011951886575120982,-0.009934424347137288,0.024267728241512066
0.78,-0.004784131020000053,-0.780727148,-0.002590030260000028,-2.35662488,0.004253915660000045,1.57387138,0.78160875,0.03919016120000001,0.03919013660000001,-9.790627092219756,0.010868635774576208,-0.10551347168221734,0.011878856839012885,-0.00963384302046757,0.023651547347813183
0.7825,-0.004835472555000052,-0.7806886144999999,-0.0026172921900000277,-2.3566280450000003,0.004297095665000044,1.57390147,0.7815632625,0.03920054405000001,0.03920051915000001,-9.785951595422848,0.01017796293726743,-0.10696689488006456,0.01180582710290479,-0.009333261693797865,0.02303536645411433
0.785,-0.004888402790000055,-0.7806488829999999,-0.0026453976200000295,-2.3566313400000003,0.0043416081500000465,1.57393253,0.7815163649999999,0.03921037230000001,0.03921034640000001,-9.789169243840023,0.0033635912886789956,-0.10989329165301359,0.011803563277435324,-0.009522473133217807,0.023045361917689713
0.7875,-0.004942127375000054,-0.7806085524999999,-0.0026739248000000283,-2.3566347000000003,0.004386786875000045,1.573964075,0.7814687625,0.03921992325000001,0.03921989600000001,-9.796333464864224,-0.006512629765534742,-0.11355617521350996,0.011836682407285007,-0.009956580955681433,0.023368445559900773
0.79,-0.004995851960000054,-0.780568222,-0.002702451980000029,-2.35663806,0.004431965600000046,1.57399562,0.78142116,0.03922947420000001,0.03922944560000001,-9.803497685888425,-0.016388850819748918,-0.11721905877400648,0.011869801537134694,-0.01039068877814508,0.023691529202111847
0.7925,-0.005049576545000053,-0.7805278915,-0.002730979160000028,-2.35664142,0.004477144325000044,1.574027165,0.7813735574999999,0.03923902515000001,0.03923899520000001,-9.810661906912625,-0.02626507187396266,-0.12088194233450285,0.011902920666984377,-0.010824796600608706,0.024014612844322908
0.795,-0.0051033011300000534,-0.7804875609999999,-0.0027595063400000282,-2.35664478,0.004522323050000045,1.5740587099999999,0.7813259549999999,0.03924857610000001,0.03924854480000001,-9.817826127936826,-0.03614129292817683,-0.12454482589499938,0.011936039796834063,-0.011258904423072352,0.024337696486533982
0.7975,-0.005157025715000051,-0.7804472305,-0.0027880335200000275,-2.35664814,0.004567501775000043,1.574090255,0.7812783524999999,0.03925812705000001,0.039258094400000006,-9.824990348961027,-0.04601751398239057,-0.12820770945549576,0.011969158926683746,-0.011693012245535978,0.024660780128745043
0.8,-0.005210750300000054,-0.7804069,-0.002816560700000029,-2.3566515,0.004612680500000046,1.5741218,0.78123075,0.03926767800000001,0.039267644000000004,-9.832154569985226,-0.0558937350365816,-0.1318705930159716,0.01200227805653369,-0.012127120067998591,0.024983863770955753
0.8025,-0.005266900655000055,-0.7803647499999999,-0.0028463754050000287,-2.35665516,0.004659893180000046,1.5741547249999999,0.7811810024999999,0.03927646680000001,0.03927643220000001,-9.836908961832748,-0.04206928906715024,-0.11437114228377336,0.012299921518293934,-0.011504301810223385,0.024932961047299376
0.805,-0.005323051010000057,-0.7803226,-0.00287619011000003,-2.35665882,0.004707105860000047,1.57418765,0.7811312549999999,0.03928525560000001,0.03928522040000001,-9.841663353680271,-0.028244843097718263,-0.09687169155157435,0.012597564980054191,-0.010881483552448149,0.024882058323643
0.8075,-0.005379201365000056,-0.78028045,-0.00290600481500003,-2.35666248,0.004754318540000048,1.574220575,0.7810815074999999,0.03929404440000001,0.039294008600000006,-9.846417745527795,-0.014420397128286903,-0.0793722408193761,0.012895208441814434,-0.010258665294672942,0.024831155599986623
0.81,-0.005435351720000059,-0.7802382999999999,-0.002935819520000031,-2.3566661399999997,0.00480153122000005,1.5742535,0.78103176,0.03930283320000001,0.03930279680000001,-9.851172137375318,-0.0005959511588549335,-0.06187279008717711,0.013192851903574691,-0.009635847036897707,0.024780252876330247
0.8125,-0.005491502075000059,-0.78019615,-0.0029656342250000307,-2.3566698,0.004848743900000049,1.574286425,0.7809820124999999,0.03931162200000001,0.03931158500000001,-9.85592652922284,0.013228494810576433,-0.044373339354978864,0.013490495365334936,-0.009013028779122498,0.024729350152673874
0.8150000000000001,-0.005547652430000061,-0.780154,-0.0029954489300000322,-2.35667346,0.004895956580000051,1.57431935,0.7809322649999999,0.03932041080000001,0.03932037320000001,-9.860680921070363,0.027052940780008403,-0.026873888622779854,0.013788138827095193,-0.008390210521347264,0.024678447429017494
0.8175,-0.005604625175000063,-0.78011124,-0.0030257001700000332,-2.35667722,0.004943859015000053,1.574352755,0.7808817899999999,0.03932896485000001,0.039328926500000014,-9.862030408624925,0.03116256813098655,-0.018649835612721967,0.013852721279882678,-0.007986811067582813,0.024750418966445076
0.8200000000000001,-0.005663242700000065,-0.78006726,-0.003056824480000034,-2.35668118,0.004993140960000054,1.57438712,0.7808298599999999,0.03933704940000001,0.03933701000000001,-9.856570087593598,0.01584255824515209,-0.02897657804685505,0.013451181714726899,-0.008022249221837738,0.02506813902603939
0.8225,-0.005721860225000063,-0.78002328,-0.003087948790000034,-2.3566851399999997,0.005042422905000054,1.574421485,0.78077793,0.039345133950000014,0.03934509350000001,-9.85110976656227,0.000522548359318302,-0.039303320480987676,0.013049642149571135,-0.008057687376092663,0.02538585908563369
0.8250000000000001,-0.0057804777500000655,-0.7799793,-0.0031190731000000347,-2.3566891,0.0050917048500000546,1.57445585,0.7807259999999999,0.03935321850000001,0.03935317700000001,-9.845649445530944,-0.014797461526516155,-0.04963006291512076,0.012648102584415354,-0.008093125530347588,0.025703579145228004
0.8275,-0.005839095275000064,-0.77993532,-0.003150197410000034,-2.35669306,0.005140986795000054,1.574490215,0.7806740699999999,0.03936130305000001,0.03936126050000001,-9.840189124499615,-0.03011747141234994,-0.059956805349253385,0.01224656301925959,-0.008128563684602514,0.026021299204822303
0.8300000000000001,-0.005897712800000066,-0.77989134,-0.003181321720000035,-2.35669702,0.005190268740000055,1.57452458,0.78062214,0.039369387600000014,0.03936934400000001,-9.834728803468288,-0.04543748129818441,-0.07028354778338647,0.01184502345410381,-0.008164001838857439,0.026339019264416615
0.8325,-0.005956330325000064,-0.77984736,-0.0032124460300000345,-2.35670098,0.005239550685000054,1.5745589450000002,0.7805702099999999,0.03937747215000001,0.039377427500000006,-9.82926848243696,-0.060757491184018186,-0.0806102902175191,0.011443483888948048,-0.008199439993112364,0.026656739324010914
0.835,-0.006016619380000066,-0.779802137,-0.0032444577100000354,-2.3567049499999997,0.005290234660000055,1.5745943,0.7805168199999999,0.03938512610000001,0.03938508080000001,-9.818755480691708,-0.058855338051441414,-0.07491842545954666,0.011134839849489845,-0.008441448770464995,0.02709647478245513
0.8375,-0.006077744200000067,-0.7797562925,-0.0032769130750000364,-2.356708925,0.005341619650000057,1.57463015,0.7804627,0.03939256475000001,0.03939251900000001,-9.805716138589506,-0.048342103409701354,-0.06121725710556054,0.010872643572880184,-0.008786742859365983,0.02759721794032403
0.84,-0.006138869020000067,-0.779710448,-0.0033093684400000356,-2.3567128999999998,0.005393004640000056,1.5746660000000001,0.7804085799999999,0.03940000340000001,0.03939995720000001,-9.792676796487303,-0.03782886876796175,-0.04751608875157503,0.010610447296270534,-0.009132036948266958,0.028097961098192906
0.8425,-0.006199993840000069,-0.7796646035,-0.0033418238050000365,-2.356716875,0.005444389630000057,1.57470185,0.78035446,0.03940744205000001,0.0394073954,-9.779637454385101,-0.02731563412622169,-0.03381492039758891,0.010348251019660871,-0.009477331037167946,0.028598704256061803
0.845,-0.006261118660000067,-0.779618759,-0.0033742791700000357,-2.35672085,0.005495774620000057,1.5747377,0.7803003399999999,0.03941488070000001,0.039414833600000004,-9.7665981122829,-0.01680239948448209,-0.02011375204360341,0.010086054743051222,-0.00982262512606892,0.029099447413930682
0.8475,-0.006322243480000069,-0.7795729145,-0.0034067345350000367,-2.356724825,0.005547159610000058,1.57477355,0.78024622,0.03942231935000001,0.039422271800000006,-9.753558770180696,-0.006289164842742029,-0.006412583689617293,0.00982385846644156,-0.010167919214969911,0.02960019057179958
