rsonawane2002/My_IMU/logs_2/traj_378/imu_378.csv
time,j1,j2,j3,j4,j5,j6,j7,gripper1,gripper2,imu_ax,imu_ay,imu_az,imu_gx,imu_gy,imu_gz
1404.3833333323848,0.00016700293,-0.785875,4.0107683e-05,-2.3551247,9.29385e-05,1.570997,0.786,0.04,0.04,-9.48568,0.03446206450462341,0.12109451,-2.8419294e-07,-0.0011641276068985462,1.1278689e-07
1404.3999999990515,0.00016700164,-0.78576016,4.0108553e-05,-2.3552213,9.298206e-05,1.5709941,0.786,0.04,0.04,-9.834321,0.0006181680946610868,0.009118671,4.297499e-07,-0.0022382400929927826,1.7024234e-06
1404.4166666657181,0.0001669715,-0.78565425,4.0067112e-05,-2.35531,9.307808e-05,1.5709913,0.786,0.04,0.04,-9.832528,0.000561184948310256,0.0075473282,3.69971e-06,-0.0032260073348879814,7.028315e-06
1404.4333333323848,0.00016686312,-0.7855569,3.9914314e-05,-2.355391,9.331696e-05,1.5709884,0.786,0.04,0.04,-9.8305645,0.00044493534369394183,0.0062448652,1.2297941e-05,-0.0041341944597661495,2.033712e-05
1404.4499999990514,0.0001666046,-0.7854672,3.955134e-05,-2.3554652,9.3824936e-05,1.5709856,0.786,0.04,0.04,-9.828779,0.00027568647055886686,0.005014859,2.8757293e-05,-0.004962618462741375,4.4488203e-05
1404.466666665718,0.00016610327,-0.7853846,3.8851922e-05,-2.355532,9.4771945e-05,1.5709827,0.786,0.04,0.04,-9.8273325,7.013551658019423e-05,0.0038203401,5.507895e-05,-0.005719736684113741,8.442755e-05
1404.4833333323847,0.0001652483,-0.78530854,3.766559e-05,-2.355596,9.63615e-05,1.5709798,0.786,0.04,0.039999995,-9.825597,-0.00016358715947717428,0.0028236825,9.3028706e-05,-0.006404669489711523,0.00014187468
1404.4999999990514,0.00016391258,-0.7852384,3.58204e-05,-2.3556542,9.8795485e-05,1.570977,0.786,0.04,0.04,-9.82472,-0.0004533472820185125,0.0018129898,0.00014443173,-0.007039216347038746,0.0002176359
1404.516666665718,0.00016195397,-0.7851738,3.3124477e-05,-2.3557057,0.00010233425,1.5709741,0.786,0.04,0.04,-9.823249,-0.0007350035011768341,0.0009328164,0.00021037125,-0.007610690779983997,0.00031632622
1404.5333333323847,0.00015921726,-0.78511435,2.9368903e-05,-2.3557558,0.00010726026,1.5709713,0.786,0.04,0.039999995,-9.821889,-0.0010415863944217563,6.529968e-05,0.0002922828,-0.008115704171359539,0.00043988178
1404.5499999990514,0.00015553617,-0.7850593,2.4329636e-05,-2.3557997,0.000113841284,1.5709683,0.786,0.04,0.04,-9.821104,-0.00134509545750916,-0.00066630146,0.00039144777,-0.008580539375543594,0.0005877359
1404.566666665718,0.00015073371,-0.78500843,1.7768776e-05,-2.355842,0.00012238871,1.570965,0.786,0.039999995,0.04,-9.819886,-0.00167040282394737,-0.0014431945,0.0005084458,-0.008985551074147224,0.0007630233
1404.5833333323847,0.0001446242,-0.7849614,9.4367515e-06,-2.35588,0.0001332352,1.5709617,0.7859981,0.03999999,0.039999995,-9.81915,-0.0019389218650758266,-0.0020820652,0.0006442511,-0.009352665394544601,0.0009679711
1404.5999999990513,0.00013701415,-0.784918,-9.2641386e-07,-2.3559153,0.00014671746,1.570955,0.7859962,0.039999988,0.039999988,-9.818134,-0.0022350666113197803,-0.0027550128,0.0008082235,-0.009667417034506798,0.0012037477
1404.616666665718,0.00012770337,-0.7848777,-1.3589542e-05,-2.3559496,0.00016318355,1.5709484,0.7859943,0.039999984,0.03999998,-9.817406,-0.0024643540382385254,-0.003260772,0.0009923195,-0.009955410845577717,0.0014705528
1404.6333333323846,0.000116485986,-0.78484017,-2.8829143e-05,-2.3559792,0.00018299144,1.5709416,0.7859924,0.03999998,0.039999977,-9.816887,-0.0027182679623365402,-0.0038865865,0.0011966138,-0.010207585990428925,0.0017684044
1404.6499999990513,0.000103151215,-0.7848053,-4.6928224e-05,-2.3560069,0.00020650779,1.5709342,0.7859905,0.039999973,0.03999997,-9.815833,-0.002868745708838105,-0.0044524036,0.001422194,-0.01040968019515276,0.002098885
1404.666666665718,8.74842e-05,-0.78477263,-6.817512e-05,-2.3560336,0.00023410641,1.5709237,0.78598857,0.039999966,0.03999996,-9.815218,-0.003036564914509654,-0.00499457,0.0016683836,-0.010575122199952602,0.002462632
1404.6833333323846,6.926678e-05,-0.784742,-9.2862574e-05,-2.3560586,0.0002661668,1.5709131,0.78598666,0.03999996,0.039999954,-9.814786,-0.003064617980271578,-0.005455222,0.0019360768,-0.010722697712481022,0.0028610227
1404.6999999990512,4.82784e-05,-0.78471315,-0.000121286575,-2.3560808,0.0003030716,1.5709012,0.78598285,0.03999996,0.039999954,-9.81422,-0.0030888603068888187,-0.006004587,0.002225293,-0.010834477841854095,0.00329272
1404.7166666657179,2.4296272e-05,-0.7846859,-0.00015374603,-2.3561008,0.0003452082,1.5708867,0.78597903,0.03999996,0.039999954,-9.81351,-0.0030819133389741182,-0.0065286024,0.0025447248,-0.01090879924595356,0.0037588682
1404.7333333323845,-2.903643e-06,-0.78466,-0.00019054174,-2.3561206,0.0003929665,1.5708714,0.7859752,0.03999996,0.03999995,-9.812947,-0.0028972686268389225,-0.006971506,0.0028854648,-0.010957389138638973,0.004260573
1404.7499999990512,-3.3546326e-05,-0.7846353,-0.00023197556,-2.3561397,0.00044673635,1.5708531,0.7859714,0.03999996,0.03999995,-9.8126545,-0.002745712175965309,-0.007508624,0.0032475838,-0.010982031933963299,0.0047962624
1404.7666666657178,-6.785707e-05,-0.7846117,-0.00027834965,-2.3561587,0.00050691003,1.5708336,0.7859666,0.039999958,0.039999947,-9.812247,-0.002381653059273958,-0.007979612,0.003630834,-0.010986696928739548,0.0053668544
1404.7833333323845,-0.00010606124,-0.78458893,-0.00032996663,-2.3561757,0.0005738789,1.5708113,0.78596085,0.039999958,0.039999947,-9.811997,-0.002041763626039028,-0.008529741,0.004039847,-0.010969136841595173,0.005972345
1404.7999999990511,-0.00014838373,-0.7845668,-0.00038712815,-2.3561912,0.0006480336,1.5707862,0.78595513,0.03999996,0.039999947,-9.811461,-0.001462513580918312,-0.009037268,0.00447403,-0.010926899500191212,0.0066135097
1404.8166666657178,-0.00019504849,-0.78454554,-0.00045013498,-2.3562057,0.000729763,1.5707595,0.7859491,0.039999966,0.03999995,-9.811013,-0.0009261397644877434,-0.009588007,0.00492859,-0.010860736481845379,0.0072885323
1404.8333333323844,-0.00024627845,-0.7845245,-0.00051928614,-2.3562198,0.0008194545,1.5707296,0.7859415,0.03999997,0.039999954,-9.810632,-0.00011808518320322037,-0.010135389,0.0054047597,-0.010769512504339218,0.007998091
1404.849999999051,-0.00030229508,-0.7845038,-0.0005948791,-2.3562331,0.0009174937,1.570697,0.78593385,0.03999997,0.03999995,-9.810348,0.000672382302582264,-0.010720487,0.0059086415,-0.01066279411315918,0.008742825
1404.8666666657177,-0.0003633181,-0.7844833,-0.0006772084,-2.3562458,0.001024261,1.5706621,0.78592545,0.039999973,0.039999954,-9.810028,0.001737304963171482,-0.01131483,0.0064320927,-0.010536462999880314,0.009520771
1404.8833333323844,-0.0004295652,-0.78446287,-0.0007665666,-2.3562582,0.0011401355,1.570624,0.7859159,0.039999973,0.039999954,-9.809691,0.0027757054194808006,-0.011965275,0.00697843,-0.010387544520199299,0.010332478
1404.899999999051,-0.0005012519,-0.7844424,-0.0008632431,-2.3562706,0.0012654919,1.5705825,0.7859064,0.03999997,0.039999947,-9.809479,0.0041446378454566,-0.012612458,0.007548728,-0.010224723257124424,0.011178485
1404.9166666657177,-0.0005785914,-0.7844219,-0.0009675238,-2.356283,0.0014006993,1.5705378,0.78589517,0.03999997,0.039999947,-9.809248,0.005467008799314499,-0.0133090485,0.0081375055,-0.010047323070466518,0.01205672
1404.9333333323843,-0.0006617941,-0.78440124,-0.0010796911,-2.3562953,0.0015461245,1.57049,0.7858837,0.039999973,0.03999995,-9.8090515,0.007137458771467209,-0.014012003,0.008752123,-0.009855670854449272,0.012967631
1404.949999999051,-0.00075106765,-0.7843802,-0.0012000245,-2.3563077,0.0017021281,1.5704389,0.7858712,0.039999977,0.03999995,-9.80883,0.008879466913640499,-0.014797359,0.009385384,-0.009647826664149761,0.01391168
1404.9666666657176,-0.0008466167,-0.7843589,-0.0013287988,-2.35632,0.001869066,1.5703841,0.78585786,0.039999977,0.03999995,-9.80864,0.01067432388663292,-0.015617675,0.010040779,-0.009426402859389782,0.014886691
1404.9833333323843,-0.0009486431,-0.78433704,-0.0014662845,-2.356332,0.0020472882,1.5703257,0.7858437,0.039999984,0.039999954,-9.808403,0.012866015546023846,-0.016441356,0.010716829,-0.009189678356051445,0.01589392
1404.999999999051,-0.0010573455,-0.7843147,-0.0016127487,-2.3563445,0.0022371407,1.5702635,0.7858284,0.039999984,0.039999954,-9.808235,0.015005030669271946,-0.017350284,0.01141261,-0.008941393345594406,0.016931193
1405.0166666657176,-0.0011729187,-0.7842917,-0.0017684534,-2.3563569,0.0024389615,1.5701973,0.7858123,0.039999988,0.039999958,-9.808078,0.017558133229613304,-0.018278616,0.012129369,-0.008680763654410839,0.017998844
1405.0333333323842,-0.0012955546,-0.784268,-0.0019336559,-2.3563693,0.0026530847,1.5701272,0.78579515,0.03999999,0.039999958,-9.807877,0.02008018083870411,-0.019271618,0.012864764,-0.008408009074628353,0.019097231
1405.049999999051,-0.0014254416,-0.78424364,-0.0021086098,-2.3563817,0.0028798375,1.5700527,0.78577703,0.03999999,0.039999958,-9.8076935,0.023016879335045815,-0.020299349,0.013620061,-0.008121641352772713,0.020224124
1405.0666666657175,-0.0015627646,-0.78421867,-0.0022935627,-2.356394,0.0031195413,1.569974,0.78575796,0.03999999,0.039999954,-9.807538,0.025923892855644226,-0.021383626,0.014393673,-0.007826583459973335,0.021380702
1405.0833333323842,-0.0017077042,-0.7841927,-0.0024887566,-2.3564067,0.0033725095,1.569891,0.7857377,0.039999995,0.039999954,-9.807361,0.029276136308908463,-0.022496535,0.015185469,-0.007519190199673176,0.022565534
1405.0999999990509,-0.0018604371,-0.7841658,-0.0026944312,-2.35642,0.0036390505,1.5698036,0.7857164,0.04,0.03999996,-9.807198,0.03258318454027176,-0.023710327,0.015995556,-0.0072013274766504765,0.023777217
1405.1166666657175,-0.0020211376,-0.78413796,-0.002910819,-2.3564339,0.003919467,1.5697117,0.785694,0.04,0.039999954,-9.807141,0.03636894375085831,-0.02495357,0.016823202,-0.006876417901366949,0.025016451
1405.1333333323842,-0.002189975,-0.7841092,-0.0031381487,-2.356448,0.0042140507,1.5696148,0.78567046,0.04,0.039999954,-9.807007,0.040107689797878265,-0.026272368,0.017667903,-0.00654271524399519,0.026282113
1405.1499999990508,-0.0023671156,-0.7840794,-0.0033766432,-2.3564625,0.0045230933,1.5695133,0.7856458,0.04,0.039999958,-9.806892,0.04434489458799362,-0.02762003,0.018528959,-0.006201756186783314,0.02757381
1405.1666666657175,-0.00255272,-0.7840486,-0.0036265177,-2.3564775,0.004846876,1.5694073,0.7856199,0.04,0.039999954,-9.806753,0.04853265732526779,-0.029066246,0.019406449,-0.00585201708599925,0.028891379
1405.183333332384,-0.0027469476,-0.78401667,-0.003887987,-2.356493,0.0051856716,1.5692964,0.78559273,0.04,0.03999995,-9.806654,0.05323437601327896,-0.030550458,0.020299919,-0.0054931240156292915,0.030233733
1405.1999999990508,-0.0029499512,-0.7839835,-0.004161257,-2.3565092,0.0055397497,1.5691801,0.78556454,0.04,0.03999995,-9.806546,0.058024682104587555,-0.032110464,0.021209113,-0.005127532407641411,0.031599987
1405.2166666657174,-0.0031618818,-0.78394914,-0.00444653,-2.3565266,0.0059093684,1.569059,0.785535,0.04,0.039999954,-9.80646,0.06292277574539185,-0.033737466,0.02213191,-0.00475830165669322,0.0329903
1405.233333332384,-0.0033828837,-0.7839135,-0.004744001,-2.3565452,0.0062947827,1.5689324,0.785504,0.04,0.03999995,-9.80647,0.06835142523050308,-0.035445813,0.023069983,-0.004385343752801418,0.034403317
1405.2499999990507,-0.0036131009,-0.7838766,-0.005053863,-2.3565638,0.0066962405,1.5688008,0.7854721,0.04,0.039999947,-9.8064,0.07373161613941193,-0.037219197,0.02402294,-0.004009855445474386,0.035839263
1405.2666666657174,-0.0038526708,-0.78383845,-0.005376299,-2.3565826,0.007113981,1.568664,0.7854387,0.04,0.039999943,-9.806281,0.07966668903827667,-0.039061815,0.024987483,-0.00362688978202641,0.03729699
1405.283333332384,-0.004101726,-0.7837989,-0.0057114908,-2.3566015,0.0075482368,1.5685216,0.78540385,0.04,0.039999947,-9.806075,0.08554486185312271,-0.040974125,0.02596591,-0.0032360288314521313,0.03877559
1405.2999999990507,-0.0043603973,-0.783758,-0.006059612,-2.3566206,0.007999233,1.5683738,0.78536785,0.04,0.03999994,-9.805925,0.09200625866651535,-0.042965177,0.02695777,-0.002837935695424676,0.040275384
1405.3166666657173,-0.0046288106,-0.7837157,-0.0064208317,-2.3566396,0.008467188,1.5682204,0.78533053,0.04,0.03999995,-9.805718,0.09840480983257294,-0.04500939,0.027960865,-0.002433559624478221,0.04179464
1405.333333332384,-0.004907088,-0.7836721,-0.006795312,-2.3566594,0.008952314,1.5680615,0.7852916,0.04,0.039999947,-9.805553,0.10539662092924118,-0.0471274,0.028975584,-0.0020220729056745768,0.043334167
1405.3499999990506,-0.0051953453,-0.7836269,-0.007183216,-2.3566794,0.0094548175,1.5678967,0.78525144,0.04,0.03999994,-9.805429,0.11233110725879669,-0.0493202,0.030002506,-0.0016078334301710129,0.044892363
1405.3666666657173,-0.005493699,-0.78358036,-0.0075846924,-2.3567007,0.009974895,1.5677263,0.7852099,0.04,0.03999994,-9.805297,0.11986492574214935,-0.05158992,0.031039756,-0.0011890757596120238,0.04646843
1405.383333332384,-0.005802258,-0.78353226,-0.00799989,-2.3567224,0.010512739,1.56755,0.7851669,0.04,0.039999936,-9.8051815,0.1273471713066101,-0.053929426,0.03208712,-0.0007687824545428157,0.048062745
1405.3999999990506,-0.0061211255,-0.78348273,-0.008428954,-2.3567448,0.011068533,1.5673678,0.78512245,0.04,0.039999932,-9.805073,0.13543881475925446,-0.056356683,0.03314433,-0.0003462101158220321,0.049673576
1405.4166666657172,-0.006450406,-0.7834316,-0.008872015,-2.3567684,0.011642453,1.5671794,0.78507656,0.04,0.039999932,-9.804912,0.14347676932811737,-0.05886848,0.034211267,7.875292067183182e-05,0.05130172
1405.4333333323839,-0.006790197,-0.7833788,-0.009329212,-2.3567936,0.012234668,1.5669855,0.7850292,0.04,0.039999932,-9.804847,0.1521427482366562,-0.061447214,0.035286795,0.0005029040621593595,0.052945707
1405.4499999990505,-0.00714059,-0.7833246,-0.009800665,-2.3568199,0.012845343,1.5667853,0.7849803,0.04,0.039999936,-9.804833,0.160918727517128,-0.06414136,0.036371205,0.0009242519736289978,0.054604482
1405.4666666657172,-0.007501678,-0.78326887,-0.010286499,-2.3568463,0.013474633,1.5665793,0.78493005,0.04,0.039999936,-9.804635,0.16981545090675354,-0.066891275,0.037463594,0.0013473196886479855,0.056278765
1405.4833333323838,-0.007873545,-0.78321147,-0.010786826,-2.356873,0.014122686,1.5663669,0.7848783,0.04,0.039999932,-9.804431,0.17934130132198334,-0.0697292,0.038562942,0.0017734928987920284,0.057966445
1405.4999999990505,-0.008256274,-0.7831525,-0.011301761,-2.3568997,0.014789646,1.5661483,0.78482497,0.04,0.039999932,-9.804142,0.18881873786449432,-0.072661094,0.03966959,0.002202459378167987,0.05966865
1405.5166666657171,-0.008649943,-0.7830917,-0.011831402,-2.356927,0.01547565,1.5659235,0.7847701,0.04,0.039999932,-9.803887,0.19894090294837952,-0.07565315,0.040783614,0.002634092466905713,0.06138393
1405.5333333323838,-0.009054624,-0.78302926,-0.012375856,-2.3569543,0.016180828,1.5656924,0.7847136,0.04,0.03999999,-9.803638,0.20901642739772797,-0.07875852,0.04190368,0.0030660396441817284,0.063113466
1405.5499999990504,-0.00947039,-0.7829651,-0.012935214,-2.3569827,0.0169053,1.5654551,0.78465575,0.04,0.039999984,-9.803358,0.21972596645355225,-0.08192046,0.04302992,0.00350004225037992,0.06485316
1405.566666665717,-0.0098973075,-0.78289956,-0.013509567,-2.357012,0.017649181,1.565211,0.7845964,0.04,0.03999998,-9.80309,0.2303875982761383,-0.08518118,0.044160962,0.003933865576982498,0.066603534
1405.5833333323837,-0.010335435,-0.7828323,-0.014098997,-2.3570428,0.01841258,1.5649611,0.78453535,0.04,0.03999998,-9.80288,0.24172049760818481,-0.088479124,0.04529694,0.004364443011581898,0.06836553
1405.5999999990504,-0.01078484,-0.78276336,-0.014703585,-2.357075,0.019195603,1.5647045,0.78447264,0.04,0.039999984,-9.80267,0.252987265586853,-0.0919259,0.04643751,0.004792321939021349,0.07013785
1405.616666665717,-0.011245571,-0.7826926,-0.01532341,-2.3571086,0.019998346,1.5644413,0.78440845,0.04,0.039999973,-9.802467,0.2649296224117279,-0.09543361,0.047582537,0.005215231794863939,0.07191902
1405.6333333323837,-0.011717679,-0.7826201,-0.015958538,-2.3571422,0.0208209,1.5641717,0.78434265,0.04,0.039999984,-9.802202,0.2768205404281616,-0.09906508,0.04873066,0.005632654298096895,0.07371055
1405.6499999990504,-0.012201218,-0.78254586,-0.016609035,-2.3571765,0.021663342,1.5638957,0.7842753,0.04,0.039999984,-9.801796,0.289365291595459,-0.102768384,0.049882464,0.006050757598131895,0.07550927
1405.666666665717,-0.01269623,-0.7824699,-0.017274957,-2.3572109,0.022525756,1.563613,0.78420633,0.04,0.039999977,-9.801414,0.3018670380115509,-0.1065604,0.051036563,0.00646708020940423,0.07731731
1405.6833333323837,-0.013202754,-0.7823922,-0.017956356,-2.3572457,0.023408204,1.5633239,0.78413576,0.04,0.039999977,-9.80092,0.3150467276573181,-0.11042543,0.05219346,0.006884500849992037,0.07913352
1405.6999999990503,-0.013720829,-0.7823127,-0.018653285,-2.3572807,0.024310764,1.563028,0.78406364,0.04,0.039999988,-9.800452,0.32834139466285706,-0.114385575,0.053352073,0.007300461642444134,0.080955476
1405.716666665717,-0.0142504815,-0.78223133,-0.019365791,-2.3573167,0.02523348,1.5627254,0.78398985,0.04,0.039999977,-9.799935,0.3417743444442749,-0.11843921,0.05451222,0.007714417763054371,0.082784794
1405.7333333323836,-0.014791749,-0.78214836,-0.020093918,-2.357354,0.026176412,1.5624167,0.78391445,0.04,0.039999973,-9.799521,0.35588693618774414,-0.122564405,0.055673484,0.008122655563056469,0.08461963
1405.7499999990503,-0.015344657,-0.7820636,-0.020837687,-2.3573923,0.027139599,1.562101,0.78383744,0.04,0.039999984,-9.799016,0.36994311213493347,-0.12679718,0.056835525,0.008528153412044048,0.086459935
1405.766666665717,-0.015909225,-0.78197706,-0.021597145,-2.3574333,0.028123086,1.5617787,0.78375876,0.04,0.039999984,-9.798531,0.3846971392631531,-0.13110599,0.057997722,0.008927439339458942,0.08830607
1405.7833333323836,-0.016485479,-0.7818888,-0.022372317,-2.3574743,0.029126905,1.5614496,0.7836785,0.04,0.039999984,-9.798207,0.39937958121299744,-0.1355334,0.059159692,0.009312770329415798,0.09015569
1405.7999999990502,-0.017073425,-0.7817987,-0.023163209,-2.3575158,0.030151082,1.561114,0.7835966,0.04,0.03999998,-9.797517,0.4147592782974243,-0.14003578,0.060320888,0.009696456603705883,0.09201006
1405.8166666657169,-0.017673075,-0.7817069,-0.023969853,-2.3575575,0.031195642,1.560772,0.7835131,0.04,0.03999998,-9.796799,0.4300609230995178,-0.14464264,0.061481487,0.010077342391014099,0.09386706
1405.8333333323835,-0.018284446,-0.7816133,-0.024792258,-2.3576,0.032260608,1.5604229,0.783428,0.04,0.039999988,-9.796054,0.44607308506965637,-0.14932625,0.06264033,0.010457279160618782,0.09572797
1405.8499999990502,-0.018907543,-0.7815179,-0.025630422,-2.3576427,0.03334597,1.5600672,0.7833412,0.04,0.039999984,-9.795307,0.4620152711868286,-0.15410613,0.06379746,0.010830283164978027,0.09759115
1405.8666666657168,-0.019542368,-0.78142077,-0.026484357,-2.3576856,0.034451745,1.5597047,0.7832527,0.04,0.039999988,-9.794486,0.47864341735839844,-0.15895236,0.06495315,0.011200052686035633,0.099455774
1405.8833333323835,-0.020188916,-0.7813217,-0.027354067,-2.3577297,0.035577927,1.5593355,0.7831626,0.04,0.039999995,-9.79358,0.4952152967453003,-0.16390745,0.06610636,0.011566339060664177,0.10132161
1405.8999999990501,-0.020847188,-0.78122073,-0.028239535,-2.3577752,0.03672451,1.5589596,0.7830709,0.04,0.03999999,-9.792799,0.5124905705451965,-0.16893573,0.06725691,0.011923804879188538,0.1031897
1405.9166666657168,-0.021517172,-0.781118,-0.029140761,-2.3578234,0.037891503,1.5585775,0.78297764,0.04,0.04,-9.791969,0.5297045111656189,-0.17410165,0.0684033,0.012272080406546593,0.10505934
1405.9333333323834,-0.022198863,-0.78101337,-0.03005773,-2.357872,0.03907885,1.5581886,0.7828827,0.04,0.04,-9.79128,0.547602653503418,-0.17933132,0.069545574,0.01260644756257534,0.10692708
1405.94999999905,-0.02289224,-0.7809072,-0.030990416,-2.357921,0.040286545,1.5577928,0.7827861,0.04,0.04,-9.7902,0.5656223297119141,-0.18467265,0.07068428,0.012934813275933266,0.10879534
1405.9666666657167,-0.023597289,-0.7807993,-0.031938817,-2.35797,0.04151455,1.5573903,0.7826879,0.04,0.04,-9.789093,0.5837686657905579,-0.19006802,0.07181863,0.013257579877972603,0.11066265
1405.9833333323834,-0.02431399,-0.7806898,-0.032902874,-2.3580196,0.042762842,1.5569812,0.7825881,0.04,0.04,-9.787875,0.6025986075401306,-0.19555995,0.072948106,0.013577031902968884,0.11252845
1405.99999999905,-0.025042325,-0.78057855,-0.033882566,-2.3580692,0.044031378,1.5565658,0.78248674,0.04,0.04,-9.786667,0.6213611960411072,-0.20115277,0.0740724,0.013890236616134644,0.114391044
1406.0166666657167,-0.025782263,-0.7804655,-0.03487786,-2.3581195,0.0453201,1.5561435,0.7823836,0.04,0.04,-9.785296,0.6408107876777649,-0.20680918,0.07519145,0.014201752841472626,0.11625275
1406.0333333323833,-0.026533771,-0.78035057,-0.035888735,-2.3581703,0.04662897,1.5557146,0.7822789,0.04,0.04,-9.7840185,0.660205602645874,-0.21257214,0.07630533,0.014504014514386654,0.11811181
1406.04999999905,-0.027296824,-0.78023386,-0.036915123,-2.3582232,0.04795793,1.5552791,0.7821727,0.04,0.04,-9.782637,0.6802780032157898,-0.21841443,0.077412866,0.014798666350543499,0.119967125
1406.0666666657166,-0.028071383,-0.78011537,-0.037956994,-2.358278,0.04930692,1.5548372,0.7820648,0.04,0.04,-9.781409,0.700298011302948,-0.22435708,0.078512825,0.015078420750796795,0.121819384
1406.0833333323833,-0.028857408,-0.77999496,-0.039014287,-2.3583343,0.05067588,1.5543888,0.7819553,0.04,0.04,-9.780028,0.7209853529930115,-0.23039138,0.07960599,0.015345493331551552,0.1236677
1406.09999999905,-0.029654866,-0.77987266,-0.04008695,-2.3583906,0.052064724,1.5539336,0.78184426,0.04,0.04,-9.778599,0.7416157126426697,-0.23655239,0.08069185,0.015599527396261692,0.12551124
1406.1166666657166,-0.030463709,-0.77974844,-0.04117493,-2.358447,0.053473398,1.553472,0.7817316,0.04,0.04,-9.776901,0.7629069685935974,-0.2427668,0.08176981,0.015845846384763718,0.12735015
1406.1333333323832,-0.031283893,-0.77962273,-0.042278152,-2.358504,0.0549018,1.5530038,0.7816174,0.04,0.04,-9.775095,0.7841311097145081,-0.24909914,0.082839884,0.016087105497717857,0.12918374
1406.14999999905,-0.03211536,-0.7794959,-0.04339656,-2.3585613,0.05634984,1.5525295,0.78150165,0.04,0.04,-9.77329,0.8060144782066345,-0.2554514,0.083901934,0.01631917431950569,0.13101102
1406.1666666657165,-0.032958068,-0.7793673,-0.044530082,-2.358619,0.057817437,1.5520486,0.78138435,0.04,0.04,-9.771327,0.8278481960296631,-0.2618853,0.08495571,0.016548532992601395,0.13283256
1406.1833333323832,-0.033811957,-0.7792369,-0.04567863,-2.3586767,0.059304498,1.5515615,0.78126544,0.04,0.04,-9.769311,0.8503344058990479,-0.2684245,0.08600039,0.01677016355097294,0.13464837
1406.1999999990499,-0.034676954,-0.77910465,-0.04684215,-2.3587353,0.060810924,1.5510682,0.7811449,0.04,0.04,-9.767236,0.8729205131530762,-0.27505088,0.0870365,0.01698402129113674,0.13645585
1406.2166666657165,-0.03555302,-0.7789705,-0.04802054,-2.3587964,0.062336605,1.5505683,0.78102285,0.04,0.04,-9.76516,0.8956484198570251,-0.2817839,0.088063374,0.01718825288116932,0.13825671
1406.2333333323832,-0.0364401,-0.7788345,-0.049213745,-2.3588598,0.06388143,1.5500622,0.7808993,0.04,0.04,-9.763214,0.919014036655426,-0.28858244,0.08907939,0.01737162657082081,0.14004837
1406.2499999990498,-0.03733812,-0.7786968,-0.050421644,-2.3589234,0.06544529,1.5495495,0.78077435,0.04,0.04,-9.761151,0.9423407316207886,-0.295505,0.09008455,0.01753806695342064,0.14183274
1406.2666666657165,-0.038246986,-0.7785579,-0.051644173,-2.3589873,0.06702808,1.5490308,0.7806478,0.04,0.04,-9.758744,0.9662690758705139,-0.30248588,0.0910787,0.017693065106868744,0.14360872
1406.283333332383,-0.039166655,-0.7784174,-0.0528812,-2.3590512,0.06862964,1.548506,0.7805198,0.04,0.04,-9.756185,0.9901453256607056,-0.3095263,0.09206282,0.017843879759311676,0.1453752
1406.2999999990498,-0.040097047,-0.7782753,-0.05413267,-2.3591156,0.070249856,1.5479748,0.7803902,0.04,0.04,-9.753466,1.014622688293457,-0.3166454,0.09303626,0.01798943057656288,0.1471314
1406.3166666657164,-0.04103809,-0.77813137,-0.055398457,-2.3591805,0.071888626,1.5474379,0.78025913,0.04,0.04,-9.750841,1.0390801429748535,-0.32385245,0.09399857,0.01812332309782505,0.14887898
1406.333333332383,-0.0419897,-0.77798563,-0.056678463,-2.3592455,0.073545784,1.5468949,0.78012663,0.04,0.04,-9.748033,1.0641193389892578,-0.33116728,0.09494909,0.01824824884533882,0.15061578
1406.3499999990497,-0.042951804,-0.77783805,-0.05797258,-2.3593106,0.075221196,1.546346,0.77999276,0.04,0.04,-9.745187,1.0891190767288208,-0.33854604,0.095887624,0.018362702801823616,0.15234119
1406.3666666657164,-0.04392432,-0.7776894,-0.059280686,-2.359377,0.0769147,1.545791,0.77985734,0.04,0.04,-9.742081,1.1147042512893677,-0.3460005,0.09681414,0.01847049780189991,0.15405633
1406.383333332383,-0.04490716,-0.777539,-0.060602676,-2.359445,0.07862619,1.54523,0.7797205,0.04,0.04,-9.739099,1.1402524709701538,-0.35347623,0.09772829,0.018565624952316284,0.15576014
1406.3999999990497,-0.045900237,-0.77738714,-0.061938442,-2.3595157,0.080355495,1.5446634,0.77958214,0.04,0.04,-9.736051,1.1663936376571655,-0.36107367,0.098629326,0.018643617630004883,0.15745185
1406.4166666657163,-0.046903446,-0.77723354,-0.06328784,-2.3595862,0.08210245,1.544091,0.7794424,0.04,0.04,-9.733006,1.1924992799758911,-0.36876687,0.09951675,0.018704572692513466,0.15913193
1406.433333332383,-0.04791671,-0.7770784,-0.06465074,-2.3596575,0.08386689,1.5435127,0.7793014,0.04,0.04,-9.729513,1.2191482782363892,-0.37654352,0.10039112,0.018755808472633362,0.16080108
1406.4499999990496,-0.048939936,-0.77692205,-0.06602705,-2.359729,0.08564867,1.5429289,0.7791589,0.04,0.04,-9.725997,1.2458832263946533,-0.3843731,0.10125151,0.018795644864439964,0.16245434
1406.4666666657163,-0.049973015,-0.7767641,-0.067416646,-2.3598008,0.087447576,1.5423393,0.779015,0.04,0.04,-9.722345,1.2727464437484741,-0.39225876,0.10209876,0.018827363848686218,0.16409558
1406.483333332383,-0.051015865,-0.77660453,-0.06881933,-2.3598728,0.089263506,1.5417444,0.77886987,0.04,0.04,-9.718489,1.300148844718933,-0.40022534,0.10293219,0.018850143998861313,0.16572316
1406.4999999990496,-0.052068368,-0.7764434,-0.07023503,-2.3599453,0.09109623,1.5411439,0.77872324,0.04,0.04,-9.714646,1.3275022506713867,-0.40827987,0.10375135,0.018862444907426834,0.16733642
1406.5166666657162,-0.053130426,-0.7762811,-0.071663566,-2.360018,0.09294558,1.5405378,0.77857536,0.04,0.04,-9.710575,1.3554067611694336,-0.41638637,0.10455661,0.018864881247282028,0.168936
1406.5333333323829,-0.054201946,-0.7761172,-0.07310485,-2.360091,0.09481141,1.5399263,0.77842623,0.04,0.04,-9.706446,1.383249044418335,-0.42452973,0.10534709,0.018858129158616066,0.17052072
1406.5499999990495,-0.055282813,-0.7759518,-0.07455868,-2.3601646,0.09669348,1.5393094,0.77827567,0.04,0.04,-9.702105,1.4116146564483643,-0.43276703,0.106122494,0.018841886892914772,0.17208923
1406.5666666657162,-0.05637291,-0.7757851,-0.07602493,-2.3602412,0.098591626,1.5386875,0.7781239,0.04,0.04,-9.697812,1.4399522542953491,-0.44106492,0.106883354,0.0188127513974905,0.17364329
1406.5833333323828,-0.057472147,-0.7756171,-0.07750348,-2.360319,0.100505665,1.5380602,0.77797097,0.04,0.04,-9.693547,1.4688183069229126,-0.44943148,0.107627556,0.018763575702905655,0.17518191
1406.5999999990495,-0.05858039,-0.77544755,-0.07899414,-2.3603969,0.10243539,1.5374279,0.77781665,0.04,0.04,-9.689038,1.4976279735565186,-0.45786923,0.10835538,0.018699780106544495,0.17670436
1406.6166666657161,-0.059697527,-0.77527666,-0.080496795,-2.360475,0.10438062,1.5367905,0.777661,0.04,0.04,-9.684159,1.5269054174423218,-0.46638587,0.1090682,0.018627380952239037,0.17821056
1406.6333333323828,-0.060823444,-0.77510446,-0.08201124,-2.3605533,0.10634111,1.536148,0.7775043,0.04,0.04,-9.679273,1.5561496019363403,-0.4749613,0.10976532,0.01854526251554489,0.17969966
1406.6499999990494,-0.06195803,-0.7749309,-0.08353733,-2.3606317,0.10831669,1.5355006,0.7773463,0.04,0.04,-9.674107,1.5858536958694458,-0.48356652,0.11044626,0.018453586846590042,0.18117182
1406.666666665716,-0.063101165,-0.7747561,-0.085074924,-2.3607106,0.110307105,1.5348483,0.77718717,0.04,0.04,-9.66894,1.6155282258987427,-0.492255,0.111111455,0.018353303894400597,0.18262611
1406.6833333323827,-0.06425273,-0.77458,-0.08662384,-2.36079,0.11231221,1.5341913,0.7770269,0.04,0.04,-9.663547,1.645675539970398,-0.5009643,0.11175997,0.01824193075299263,0.18406443
1406.6999999990494,-0.065412566,-0.77440256,-0.08818392,-2.3608696,0.114331745,1.5335295,0.77686536,0.04,0.04,-9.6580715,1.675878643989563,-0.5097527,0.112391524,0.018119899556040764,0.18548356
1406.716666665716,-0.066580586,-0.774224,-0.089754984,-2.3609493,0.11636551,1.5328633,0.7767027,0.04,0.04,-9.652449,1.7061718702316284,-0.5186057,0.1130072,0.017990365624427795,0.18688425
1406.7333333323827,-0.06775665,-0.77404416,-0.09133688,-2.3610291,0.118413255,1.532192,0.77653897,0.04,0.04,-9.646587,1.7368993759155273,-0.52746814,0.1136062,0.01785140484571457,0.18826656
1406.7499999990494,-0.06894064,-0.7738631,-0.09292943,-2.36111,0.12047477,1.5315164,0.7763741,0.04,0.04,-9.640745,1.7675926685333252,-0.53640705,0.11418792,0.017700765281915665,0.18962905
1406.766666665716,-0.07013241,-0.7736809,-0.09453245,-2.3611934,0.12254983,1.5308365,0.77620816,0.04,0.04,-9.634643,1.7987028360366821,-0.5453815,0.114752404,0.017539361491799355,0.19097333
1406.7833333323827,-0.07133182,-0.77349746,-0.09614577,-2.3612785,0.124638215,1.530152,0.7760412,0.04,0.04,-9.628767,1.8298218250274658,-0.5544392,0.11529785,0.017358560115098953,0.19229779
1406.7999999990493,-0.07253875,-0.77331287,-0.09776921,-2.3613636,0.12673971,1.5294634,0.7758732,0.04,0.04,-9.622517,1.8613028526306152,-0.56354713,0.11582502,0.01716020703315735,0.19360206
1406.816666665716,-0.073753074,-0.77312714,-0.09940257,-2.361449,0.12885402,1.5287706,0.77570415,0.04,0.04,-9.616008,1.892739176750183,-0.5727127,0.116334714,0.016954392194747925,0.1948862
1406.8333333323826,-0.074974656,-0.77294034,-0.101045676,-2.3615346,0.13098098,1.5280732,0.775534,0.04,0.04,-9.609227,1.9245418310165405,-0.58189994,0.11682674,0.016739606857299805,0.19615084
1406.8499999990493,-0.076203346,-0.77275246,-0.10269835,-2.3616202,0.13312031,1.527372,0.775363,0.04,0.04,-9.602471,1.956316351890564,-0.5911332,0.11730117,0.016513627022504807,0.19739377
1406.866666665716,-0.077439,-0.7725636,-0.10436038,-2.3617058,0.1352717,1.526667,0.77519095,0.04,0.04,-9.595341,1.988444209098816,-0.6004097,0.11775739,0.01628166437149048,0.19861604
1406.8833333323826,-0.078681506,-0.77237356,-0.10603161,-2.3617916,0.137435,1.5259582,0.775018,0.04,0.04,-9.588221,2.0205490589141846,-0.60972023,0.11819639,0.016041938215494156,0.19981776
1406.8999999990492,-0.07993066,-0.7721826,-0.10771179,-2.3618777,0.13960995,1.5252455,0.77484405,0.04,0.04,-9.580817,2.0529794692993164,-0.6190717,0.11861677,0.01579405553638935,0.20099737
1406.9166666657159,-0.08118638,-0.77199054,-0.10940082,-2.3619645,0.14179629,1.5245292,0.7746693,0.04,0.04,-9.573428,2.085394859313965,-0.62845284,0.119019374,0.01553631853312254,0.20215559
1406.9333333323825,-0.08244848,-0.7717976,-0.11109847,-2.3620512,0.14399374,1.5238092,0.77449363,0.04,0.04,-9.565743,2.1181209087371826,-0.63786787,0.119402975,0.015269326977431774,0.20328979
1406.9499999990492,-0.08371687,-0.7716036,-0.112804495,-2.362138,0.14620203,1.5230855,0.7743171,0.04,0.04,-9.557911,2.1509084701538086,-0.6473089,0.11976844,0.014994312077760696,0.20440377
1406.9666666657158,-0.08499135,-0.7714088,-0.11451873,-2.362225,0.14842102,1.522358,0.77413976,0.04,0.04,-9.550021,2.1837472915649414,-0.65680516,0.12011547,0.014710989780724049,0.20549473
1406.9833333323825,-0.08627177,-0.7712129,-0.116241015,-2.362312,0.1506503,1.5216275,0.7739614,0.04,0.04,-9.541819,2.2168688774108887,-0.66628766,0.120443545,0.014417228288948536,0.20656334
1406.9999999990491,-0.087558,-0.7710163,-0.1179711,-2.3623993,0.1528897,1.520894,0.7737823,0.04,0.04,-9.533555,2.2499654293060303,-0.67585117,0.12075407,0.014118972234427929,0.20760824
1407.0166666657158,-0.08884988,-0.7708188,-0.11970878,-2.36249,0.15513897,1.520157,0.7736024,0.04,0.04,-9.524999,2.283332347869873,-0.68538153,0.12104638,0.013814857229590416,0.20863062
1407.0333333323824,-0.09014729,-0.7706205,-0.12145386,-2.3625817,0.15739778,1.5194168,0.77342176,0.04,0.04,-9.516875,2.3166799545288086,-0.6949994,0.121317066,0.013486465439200401,0.20961893
1407.049999999049,-0.091450036,-0.7704213,-0.123206146,-2.3626735,0.15966593,1.5186739,0.7732405,0.04,0.04,-9.508117,2.350412607192993,-0.7046307,0.121568404,0.01314611453562975,0.21060267
1407.0666666657157,-0.09275799,-0.77022135,-0.1249654,-2.3627653,0.1619431,1.5179272,0.77305835,0.04,0.04,-9.499216,2.3839402198791504,-0.7143164,0.121800095,0.01280071772634983,0.21155511
1407.0833333323824,-0.09407099,-0.77002054,-0.12673146,-2.362857,0.16422905,1.5171782,0.77287567,0.04,0.04,-9.490001,2.417701244354248,-0.7239735,0.122013904,0.012444200925529003,0.21248057
1407.099999999049,-0.09538885,-0.7698192,-0.12850407,-2.3629491,0.1665235,1.5164262,0.77269226,0.04,0.04,-9.480752,2.4514801502227783,-0.73370814,0.12220827,0.012084710411727428,0.21338126
1407.1166666657157,-0.09671145,-0.76961696,-0.13028303,-2.3630412,0.16882612,1.5156716,0.7725081,0.04,0.04,-9.4712305,2.4854025840759277,-0.7433971,0.122383825,0.01171682495623827,0.21425018
1407.1333333323823,-0.09803861,-0.76941395,-0.13206816,-2.3631332,0.17113672,1.5149148,0.7723233,0.04,0.04,-9.461646,2.519460916519165,-0.75313646,0.12254147,0.011343447491526604,0.2151107
1407.149999999049,-0.09937017,-0.7692104,-0.13385922,-2.3632252,0.173455,1.5141551,0.772138,0.04,0.04,-9.451762,2.5535521507263184,-0.76289517,0.12267972,0.010964600369334221,0.21593845
1407.1666666657156,-0.10070598,-0.76900625,-0.135656,-2.3633177,0.17578068,1.5133928,0.7719519,0.04,0.04,-9.44185,2.5875837802886963,-0.7726465,0.12279909,0.010580439120531082,0.21672696
1407.1833333323823,-0.102045886,-0.76880133,-0.1374583,-2.3634102,0.17811346,1.5126284,0.77176535,0.04,0.04,-9.431698,2.6220216751098633,-0.78238696,0.12289996,0.010186197236180305,0.21751396
1407.199999999049,-0.103389725,-0.7685959,-0.13926585,-2.363503,0.18045309,1.511862,0.77157843,0.04,0.04,-9.421344,2.6561577320098877,-0.7921805,0.122981794,0.00978855136781931,0.21824981
1407.2166666657156,-0.10473735,-0.76839,-0.14107847,-2.3635957,0.18279925,1.5110934,0.7713909,0.04,0.04,-9.411018,2.6906137466430664,-0.8019745,0.1230437,0.00938448030501604,0.21897675
1407.2333333323822,-0.10608855,-0.7681834,-0.14289595,-2.363689,0.18515171,1.5103227,0.77120274,0.04,0.04,-9.400219,2.7250289916992188,-0.81172854,0.12308781,0.008977547287940979,0.21967353
1407.249999999049,-0.107443206,-0.76797634,-0.14471804,-2.3637822,0.1875101,1.5095501,0.77101415,0.04,0.04,-9.389617,2.7596323490142822,-0.82154834,0.12311265,0.008560782298445702,0.22036418
1407.2666666657155,-0.108801134,-0.7677688,-0.14654458,-2.3638756,0.18987423,1.5087755,0.77082527,0.04,0.04,-9.378525,2.7939558029174805,-0.83132744,0.123119034,0.008140220306813717,0.22099422
1407.2833333323822,-0.11016218,-0.7675608,-0.14837527,-2.363969,0.19224375,1.5079991,0.7706358,0.04,0.04,-9.367477,2.8286385536193848,-0.841125,0.12310556,0.007714235223829746,0.22161739
1407.2999999990489,-0.11152617,-0.7673522,-0.15020995,-2.3640628,0.19461842,1.5072211,0.7704459,0.04,0.04,-9.356082,2.863307476043701,-0.85091305,0.1230743,0.00728413462638855,0.22222224
1407.3166666657155,-0.11289293,-0.7671433,-0.15204836,-2.3641567,0.19699788,1.5064412,0.77025557,0.04,0.04,-9.344748,2.897763252258301,-0.8607232,0.123024054,0.0068480451591312885,0.2227717
1407.3333333323822,-0.11426231,-0.76693386,-0.1538903,-2.3642507,0.19938189,1.5056599,0.7700649,0.04,0.04,-9.333049,2.9325592517852783,-0.8704949,0.12295566,0.006405985914170742,0.22331294
1407.3499999990488,-0.11563416,-0.76672417,-0.15573551,-2.3643446,0.20177014,1.5048773,0.7698739,0.04,0.04,-9.32136,2.967198610305786,-0.8803043,0.12286816,0.005959333386272192,0.2238197
1407.3666666657155,-0.11700827,-0.7665143,-0.15758379,-2.3644388,0.20416239,1.5040934,0.7696827,0.04,0.04,-9.309269,3.0019118785858154,-0.89006,0.1227625,0.005511156748980284,0.22430167
1407.383333332382,-0.1183845,-0.766304,-0.15943493,-2.364533,0.20655829,1.5033083,0.7694911,0.04,0.04,-9.297286,3.0366268157958984,-0.89982843,0.12263806,0.00505763478577137,0.22475457
1407.3999999990488,-0.119762644,-0.76609343,-0.16128866,-2.3646274,0.20895757,1.5025222,0.7692992,0.04,0.04,-9.284892,3.0713932514190674,-0.90958685,0.122495756,0.004601986613124609,0.22518672
1407.4166666657154,-0.121142596,-0.76588255,-0.1631448,-2.3647232,0.21135998,1.5017349,0.76910704,0.04,0.04,-9.272596,3.106104850769043,-0.9193559,0.12233519,0.00414180988445878,0.2255878
1407.433333332382,-0.122524165,-0.76567143,-0.16500309,-2.3648207,0.21376513,1.5009465,0.7689147,0.04,0.04,-9.260067,3.1409072875976562,-0.9290838,0.122155346,0.0036720442585647106,0.22596991
1407.4499999990487,-0.12390714,-0.7654601,-0.16686329,-2.364918,0.21617278,1.5001577,0.7687222,0.04,0.04,-9.247544,3.1755824089050293,-0.9388361,0.121954665,0.0031908233650028706,0.22630769
1407.4666666657154,-0.12529139,-0.7652486,-0.16872516,-2.3650157,0.21858263,1.499368,0.7685295,0.04,0.04,-9.234681,3.2103521823883057,-0.9485929,0.121736996,0.002710562665015459,0.22662856
1407.483333332382,-0.12667672,-0.76503694,-0.17058855,-2.3651128,0.22099441,1.4985777,0.76833665,0.04,0.04,-9.221583,3.244967222213745,-0.95828784,0.12150106,0.002224981551989913,0.22691044
1407.4999999990487,-0.12806302,-0.76482517,-0.17245321,-2.36521,0.22340775,1.4977868,0.7681437,0.04,0.04,-9.208384,3.2796921730041504,-0.9679934,0.12124768,0.0017406035913154483,0.22717293
1407.5166666657153,-0.12945002,-0.7646133,-0.17431884,-2.3653073,0.22582242,1.4969954,0.7679506,0.04,0.04,-9.194949,3.3143134117126465,-0.97764856,0.1209765,0.0012532287510111928,0.22740753
1407.533333332382,-0.13083765,-0.7644014,-0.17618528,-2.3654046,0.22823809,1.4962037,0.7677574,0.04,0.04,-9.1815195,3.348886013031006,-0.9873168,0.12068804,0.0007646689191460609,0.22760583
1407.5499999990486,-0.13222566,-0.7641894,-0.1780523,-2.3655016,0.23065448,1.4954116,0.7675642,0.04,0.04,-9.167778,3.383531332015991,-0.99692273,0.12038245,0.0002737987961154431,0.22779292
1407.5666666657153,-0.13361396,-0.7639773,-0.17991966,-2.3655987,0.23307127,1.4946196,0.76737094,0.04,0.04,-9.154017,3.4179956912994385,-1.0065327,0.12005998,-0.00021668110275641084,0.22793688
1407.583333332382,-0.13500233,-0.7637651,-0.1817871,-2.3656955,0.23548819,1.4938276,0.76717764,0.04,0.04,-9.139998,3.4524548053741455,-1.0161134,0.11971958,-0.0007084045791998506,0.2280549
1407.5999999990486,-0.13639061,-0.7635529,-0.18365443,-2.3657923,0.23790495,1.4930356,0.7669844,0.04,0.04,-9.125951,3.4868764877319336,-1.025675,0.11936267,-0.0011988255428150296,0.2281372
1407.6166666657152,-0.1377786,-0.76334095,-0.18552141,-2.3658884,0.24032122,1.4922436,0.7667913,0.04,0.04,-9.111682,3.521275281906128,-1.0351772,0.11898875,-0.0016924779629334807,0.22820288
1407.6333333323819,-0.13916616,-0.7631289,-0.18738778,-2.3659847,0.24273679,1.4914519,0.7665982,0.04,0.04,-9.097248,3.555537462234497,-1.0446483,0.11859876,-0.002180083654820919,0.22822902
1407.6499999990485,-0.14055307,-0.762917,-0.18925335,-2.3660808,0.24515122,1.4906608,0.7664052,0.04,0.04,-9.082742,3.5897889137268066,-1.0540996,0.11819184,-0.002671757945790887,0.22823374
1407.6666666657152,-0.14193922,-0.76270515,-0.19111785,-2.3661768,0.24756435,1.4898703,0.7662124,0.04,0.04,-9.0681305,3.62397837638855,-1.0635216,0.11776935,-0.0031599963549524546,0.2282067
1407.6833333323818,-0.14332446,-0.76249343,-0.19298108,-2.3662727,0.24997579,1.4890803,0.76601964,0.04,0.04,-9.053287,3.658036231994629,-1.0729014,0.11733041,-0.0036470007617026567,0.22815353
1407.6999999990485,-0.14470857,-0.7622819,-0.1948428,-2.3663683,0.2523852,1.4882908,0.76582694,0.04,0.04,-9.038375,3.692020893096924,-1.0822419,0.116875455,-0.004133264068514109,0.22806707
1407.7166666657151,-0.14609142,-0.7620707,-0.1967028,-2.366464,0.25479248,1.487502,0.76563436,0.04,0.04,-9.023413,3.7260284423828125,-1.0915414,0.1164054,-0.004618792794644833,0.22795582
1407.7333333323818,-0.14747274,-0.7618597,-0.1985608,-2.366559,0.25719714,1.486714,0.76544195,0.04,0.04,-9.0081835,3.75978684425354,-1.1007861,0.11592011,-0.005102711264044046,0.22781238
1407.7499999990484,-0.14885247,-0.761649,-0.20041664,-2.3666537,0.2595991,1.485927,0.76524985,0.04,0.04,-8.992981,3.7936081886291504,-1.1100143,0.115420036,-0.005585081409662962,0.22764349
1407.766666665715,-0.15023044,-0.7614385,-0.20227008,-2.3667486,0.26199776,1.4851412,0.76505804,0.04,0.04,-8.977426,3.8271372318267822,-1.1191711,0.11490512,-0.006062221713364124,0.22744004
1407.7833333323817,-0.1516064,-0.7612282,-0.20412083,-2.366843,0.2643931,1.4843563,0.76486653,0.04,0.04,-8.962037,3.860774040222168,-1.1283289,0.11437396,-0.006538578309118748,0.22720803
1407.7999999990484,-0.15298024,-0.7610183,-0.20596872,-2.3669372,0.2667847,1.4835727,0.7646754,0.04,0.04,-8.946338,3.8941450119018555,-1.1374149,0.11382821,-0.00701344758272171,0.22695057
1407.816666665715,-0.15435176,-0.76080877,-0.20781355,-2.367031,0.26917225,1.4827906,0.76448447,0.04,0.04,-8.930619,3.927525281906128,-1.1464491,0.113268316,-0.007483526133000851,0.22666292
1407.8333333323817,-0.15572087,-0.7605996,-0.20965502,-2.3671243,0.27155557,1.4820096,0.7642938,0.04,0.04,-8.914714,3.960659980773926,-1.1554409,0.11269456,-0.007949892431497574,0.22634654
1407.8499999990484,-0.15708733,-0.7603908,-0.21149294,-2.3672175,0.27393425,1.48123,0.7641035,0.04,0.04,-8.898798,3.9938321113586426,-1.1643759,0.11210718,-0.008413458243012428,0.22600323
1407.866666665715,-0.15845096,-0.7601825,-0.21332711,-2.36731,0.276308,1.4804523,0.7639137,0.04,0.04,-8.882673,4.026687145233154,-1.173275,0.11150594,-0.00887407548725605,0.22562921
1407.8833333323817,-0.15981165,-0.75997484,-0.2151573,-2.3674026,0.2786766,1.4796762,0.7637244,0.04,0.04,-8.8665695,4.0596089363098145,-1.182105,0.11089081,-0.009329412132501602,0.2252267
1407.8999999990483,-0.1611692,-0.7597675,-0.21698327,-2.367495,0.28103969,1.4789021,0.76353544,0.04,0.04,-8.850224,4.092217922210693,-1.1908787,0.110262185,-0.00977892056107521,0.22479552
1407.916666665715,-0.16252346,-0.7595605,-0.2188048,-2.3675876,0.2833971,1.4781297,0.76334697,0.04,0.04,-8.834011,4.124906539916992,-1.199633,0.10961969,-0.010227101854979992,0.22433794
1407.9333333323816,-0.16387424,-0.75935423,-0.2206217,-2.36768,0.28574848,1.4773594,0.7631589,0.04,0.04,-8.817572,4.157229900360107,-1.2083287,0.10896357,-0.01067317184060812,0.22384837
1407.9499999990483,-0.1652214,-0.7591485,-0.2224337,-2.367772,0.2880935,1.476591,0.7629715,0.04,0.04,-8.801093,4.189519882202148,-1.2169536,0.10829474,-0.011115513741970062,0.2233299
1407.966666665715,-0.16656475,-0.7589433,-0.22424057,-2.3678641,0.29043195,1.4758248,0.7627846,0.04,0.04,-8.784513,4.221750259399414,-1.2255328,0.10761315,-0.011552805081009865,0.22278562
1407.9833333323816,-0.16790417,-0.75873876,-0.22604221,-2.367956,0.2927635,1.4750608,0.76259816,0.04,0.04,-8.767798,4.253620147705078,-1.234051,0.10691953,-0.01198568381369114,0.22221187
1407.9999999990482,-0.16923949,-0.7585348,-0.22783828,-2.3680475,0.29508796,1.474299,0.76241225,0.04,0.04,-8.751141,4.285575866699219,-1.242526,0.10621288,-0.012415132485330105,0.22160944
1408.0166666657149,-0.17057048,-0.7583316,-0.22962862,-2.368139,0.29740492,1.4735398,0.76222694,0.04,0.04,-8.734252,4.317111968994141,-1.2509248,0.10549477,-0.012839657254517078,0.220977
1408.0333333323815,-0.17189705,-0.7581289,-0.23141299,-2.3682306,0.29971424,1.4727836,0.7620423,0.04,0.04,-8.717447,4.348742485046387,-1.2592824,0.10476484,-0.013259459286928177,0.22031802
1408.0499999990482,-0.1732191,-0.75792706,-0.23319115,-2.368322,0.30201536,1.4720294,0.76185834,0.04,0.04,-8.700469,4.379980087280273,-1.2675917,0.10402282,-0.013673502020537853,0.21963055
1408.0666666657148,-0.17453632,-0.75772595,-0.23496294,-2.368413,0.30430835,1.4712781,0.761675,0.04,0.04,-8.683519,4.411247730255127,-1.2758119,0.10326879,-0.01408437266945839,0.21891303
1408.0833333323815,-0.17584865,-0.7575256,-0.23672809,-2.368503,0.30659276,1.4705296,0.76149243,0.04,0.04,-8.666399,4.442145347595215,-1.2839783,0.102504306,-0.0144894327968359,0.21817122
1408.0999999990481,-0.17715591,-0.75732595,-0.23848648,-2.3685932,0.30886832,1.4697834,0.7613104,0.04,0.04,-8.649236,4.47304630279541,-1.2920872,0.1017299,-0.014885559678077698,0.21740356
1408.1166666657148,-0.17845796,-0.7571271,-0.24023786,-2.368683,0.3111349,1.4690409,0.76112926,0.04,0.04,-8.632067,4.503566741943359,-1.3001331,0.10094439,-0.015279773622751236,0.21660341
1408.1333333323814,-0.17975464,-0.7569291,-0.241982,-2.3687727,0.31339207,1.4683015,0.76094866,0.04,0.04,-8.61487,4.534143447875977,-1.3081326,0.100148045,-0.015664665028452873,0.21577932
1408.149999999048,-0.18104576,-0.75673187,-0.24371871,-2.3688622,0.3156396,1.4675647,0.76076907,0.04,0.04,-8.597559,4.564280986785889,-1.316041,0.09934278,-0.01604304648935795,0.21492645
1408.1666666657147,-0.18233123,-0.75653565,-0.24544775,-2.3689516,0.31787726,1.4668317,0.7605901,0.04,0.04,-8.580317,4.594463348388672,-1.3238972,0.09852612,-0.016418492421507835,0.2140446
1408.1833333323814,-0.18361087,-0.7563402,-0.24716894,-2.369041,0.32010478,1.466102,0.76041204,0.04,0.04,-8.562974,4.624206066131592,-1.33169,0.097700484,-0.016786126419901848,0.2131333
1408.199999999048,-0.18488456,-0.7561458,-0.24888213,-2.3691304,0.3223219,1.4653752,0.7602347,0.04,0.04,-8.545611,4.653920650482178,-1.339426,0.09686472,-0.017147479578852654,0.212201
1408.2166666657147,-0.18615209,-0.7559523,-0.2505871,-2.3692198,0.32452825,1.4646521,0.76005834,0.04,0.04,-8.528307,4.68352746963501,-1.3470773,0.096019186,-0.01750667206943035,0.21123603
1408.2333333323813,-0.18741333,-0.7557598,-0.25228366,-2.3693087,0.3267238,1.4639328,0.75988275,0.04,0.04,-8.5109,4.712711334228516,-1.3546859,0.09516375,-0.01785992458462715,0.21024837
1408.249999999048,-0.18866816,-0.7555683,-0.2539715,-2.3693974,0.3289081,1.4632171,0.75970805,0.04,0.04,-8.493445,4.74190616607666,-1.3622179,0.094300404,-0.018204228952527046,0.2092346
1408.2666666657146,-0.18991642,-0.7553777,-0.2556505,-2.369486,0.33108097,1.4625052,0.75953424,0.04,0.04,-8.475955,4.770586013793945,-1.369678,0.09342915,-0.018540846183896065,0.20818967
1408.2833333323813,-0.19115801,-0.7551883,-0.25732052,-2.3695743,0.33324212,1.461797,0.7593614,0.04,0.04,-8.45854,4.799417495727539,-1.377083,0.09254906,-0.018871670588850975,0.20712289
1408.299999999048,-0.19239274,-0.7549998,-0.2589813,-2.3696604,0.3353913,1.4610926,0.7591895,0.04,0.04,-8.44105,4.827756881713867,-1.3843946,0.09166061,-0.019196372479200363,0.20603408
1408.3166666657146,-0.19362046,-0.7548125,-0.26063266,-2.3697436,0.3375283,1.4603924,0.75901854,0.04,0.04,-8.423336,4.855990409851074,-1.3916365,0.09076758,-0.019504986703395844,0.20491646
1408.3333333323812,-0.19484106,-0.75462615,-0.2622744,-2.3698263,0.33965293,1.4596962,0.7588487,0.04,0.04,-8.40554,4.883707046508789,-1.3987658,0.089871444,-0.019794583320617676,0.20376848
1408.349999999048,-0.19605437,-0.7544409,-0.26390642,-2.369909,0.3417649,1.4590042,0.75867987,0.04,0.04,-8.388084,4.911673545837402,-1.4058446,0.08896751,-0.020077217370271683,0.20260313
1408.3666666657145,-0.19726029,-0.7542569,-0.2655284,-2.3699908,0.34386405,1.4583163,0.758512,0.04,0.04,-8.37066,4.939089775085449,-1.4128569,0.08805585,-0.02035384625196457,0.2014115
1408.3833333323812,-0.19845867,-0.7540739,-0.2671403,-2.3700726,0.34595,1.4576328,0.75834525,0.04,0.04,-8.353116,4.966507434844971,-1.4197698,0.08713955,-0.020619120448827744,0.20019454
1408.3999999990478,-0.19964938,-0.7538923,-0.2687418,-2.3701544,0.34802255,1.4569538,0.7581795,0.04,0.04,-8.335734,4.99348258972168,-1.4266456,0.086215205,-0.02087920345366001,0.19895263
1408.4166666657145,-0.20083225,-0.75371164,-0.2703328,-2.3702357,0.35008153,1.4562792,0.7580149,0.04,0.04,-8.31833,5.020495414733887,-1.4334257,0.08528525,-0.021130969747900963,0.19768785
1408.4333333323812,-0.20200719,-0.7535323,-0.27191314,-2.370317,0.35212666,1.455609,0.7578513,0.04,0.04,-8.300937,5.046998023986816,-1.4401634,0.084348634,-0.021375827491283417,0.19640124
1408.4499999990478,-0.20317404,-0.7533543,-0.27348265,-2.3703983,0.35415775,1.4549435,0.75768894,0.04,0.04,-8.283619,5.073387622833252,-1.446807,0.08340609,-0.021614786237478256,0.1950879
1408.4666666657145,-0.20433271,-0.7531774,-0.2750411,-2.3704796,0.35617462,1.4542829,0.75752765,0.04,0.04,-8.266314,5.099713325500488,-1.4533802,0.08245721,-0.0218458641320467,0.19375119
1408.483333332381,-0.20548302,-0.7530019,-0.27658853,-2.3705606,0.35817695,1.4536269,0.7573675,0.04,0.04,-8.249073,5.125500679016113,-1.4599143,0.08150248,-0.022071149200201035,0.19239196
1408.4999999990478,-0.20662484,-0.7528276,-0.27812466,-2.370641,0.3601646,1.4529756,0.7572086,0.04,0.04,-8.231815,5.151343822479248,-1.4663409,0.08054251,-0.022288618609309196,0.19100878
1408.5166666657144,-0.20775814,-0.7526546,-0.27964902,-2.3707209,0.36213738,1.4523293,0.75705093,0.04,0.04,-8.214544,5.176602363586426,-1.4727161,0.07957801,-0.022496741265058517,0.18960299
1408.533333332381,-0.20888276,-0.75248307,-0.2811617,-2.3708005,0.3640949,1.4516879,0.75689447,0.04,0.04,-8.1974,5.201939582824707,-1.4790045,0.07860845,-0.022697394713759422,0.18817651
1408.5499999990477,-0.2099986,-0.75231284,-0.28266257,-2.3708792,0.3660371,1.4510512,0.75673914,0.04,0.04,-8.180267,5.226700782775879,-1.4852146,0.07763539,-0.02288878709077835,0.18672681
1408.5666666657144,-0.2111055,-0.752144,-0.2841514,-2.3709543,0.3679637,1.45042,0.756585,0.04,0.04,-8.163163,5.2515482902526855,-1.4913461,0.07665896,-0.023071706295013428,0.18525678
1408.583333332381,-0.21220335,-0.75197655,-0.2856281,-2.3710282,0.36987457,1.4497938,0.75643224,0.04,0.04,-8.145776,5.275655746459961,-1.4973766,0.07568458,-0.02323099784553051,0.1837655
1408.5999999990477,-0.21329205,-0.7518104,-0.28709248,-2.371102,0.3717695,1.4491731,0.7562807,0.04,0.04,-8.128758,5.299980163574219,-1.5033162,0.0747071,-0.023380056023597717,0.18225423
1408.6166666657143,-0.21437152,-0.75164557,-0.28854442,-2.371176,0.37364835,1.4485575,0.7561304,0.04,0.04,-8.111942,5.323758602142334,-1.509223,0.073726065,-0.023520834743976593,0.18072361
1408.633333332381,-0.2154416,-0.7514825,-0.28998372,-2.3712494,0.37551087,1.4479474,0.75598156,0.04,0.04,-8.095199,5.347630977630615,-1.515045,0.07274038,-0.023656832054257393,0.17917039
1408.6499999990476,-0.21650217,-0.7513207,-0.29141027,-2.3713229,0.3773569,1.4473424,0.75583404,0.04,0.04,-8.078477,5.37087345123291,-1.5207675,0.07175237,-0.02378256991505623,0.17759837
1408.6666666657143,-0.2175532,-0.7511602,-0.29282394,-2.3713958,0.3791863,1.446743,0.7556878,0.04,0.04,-8.0618725,5.3942341804504395,-1.5264399,0.07076058,-0.023903651162981987,0.17600834
1408.683333332381,-0.21859448,-0.75100136,-0.29422456,-2.3714683,0.38099876,1.4461492,0.75554276,0.04,0.04,-8.045336,5.416987419128418,-1.5320671,0.06976614,-0.024016505107283592,0.17440087
1408.6999999990476,-0.21962598,-0.75084424,-0.29561207,-2.3715405,0.38279417,1.4455609,0.75539935,0.04,0.04,-8.028875,5.439608097076416,-1.5375853,0.06877028,-0.024120772257447243,0.17277043
1408.7166666657142,-0.22064762,-0.7506886,-0.29698625,-2.3716123,0.38457236,1.4449781,0.7552571,0.04,0.04,-8.012435,5.462162971496582,-1.5430076,0.06777186,-0.024216579273343086,0.17112368
1408.7333333323809,-0.22165926,-0.7505342,-0.298347,-2.371684,0.3863333,1.4444013,0.75511634,0.04,0.04,-7.9962006,5.48411750793457,-1.5483985,0.06677197,-0.02430499903857708,0.16945773
1408.7499999990475,-0.22266082,-0.7503812,-0.29969415,-2.3717558,0.3880766,1.4438299,0.75497687,0.04,0.04,-7.9800615,5.506172180175781,-1.5537388,0.06576835,-0.024388469755649567,0.16777258
1408.7666666657142,-0.22365223,-0.7502299,-0.30102763,-2.3718235,0.38980213,1.4432645,0.7548388,0.04,0.04,-7.964035,5.527615070343018,-1.5589958,0.064763136,-0.02446587011218071,0.16607057
1408.7833333323808,-0.22463337,-0.75008047,-0.30234736,-2.3718896,0.39150992,1.4427053,0.7547023,0.04,0.04,-7.947602,5.548938751220703,-1.5640955,0.06376321,-0.02451992966234684,0.16435307
1408.7999999990475,-0.22560416,-0.74993247,-0.30365315,-2.3719554,0.39319968,1.4421517,0.7545673,0.04,0.04,-7.9315925,5.5697760581970215,-1.569124,0.06276495,-0.024557538330554962,0.16262054
1408.8166666657141,-0.22656448,-0.74978566,-0.3049449,-2.3720207,0.39487118,1.441604,0.7544336,0.04,0.04,-7.9158287,5.590741157531738,-1.5741125,0.061764523,-0.024590210989117622,0.16087075
1408.8333333323808,-0.22751425,-0.74964064,-0.30622247,-2.372086,0.39652428,1.4410621,0.75430137,0.04,0.04,-7.9002695,5.611118316650391,-1.5790608,0.06076346,-0.02461695857346058,0.15910545
1408.8499999990474,-0.22845341,-0.74949735,-0.30748588,-2.372151,0.39815912,1.4405265,0.7541706,0.04,0.04,-7.884736,5.631575107574463,-1.5838854,0.059761517,-0.02463863044977188,0.1573266
1408.866666665714,-0.22938195,-0.74935585,-0.30873486,-2.3722153,0.3997753,1.4399971,0.75404143,0.04,0.04,-7.8693824,5.651392936706543,-1.5886661,0.058759343,-0.024651674553751945,0.15553018
1408.8833333323807,-0.23029974,-0.74921596,-0.3099694,-2.3722794,0.4013727,1.4394735,0.7539137,0.04,0.04,-7.854025,5.67129373550415,-1.5933448,0.057757314,-0.024655718356370926,0.15372139
1408.8999999990474,-0.23120669,-0.7490778,-0.31118935,-2.3723433,0.4029513,1.4389561,0.75378746,0.04,0.04,-7.8389487,5.6905951499938965,-1.5979857,0.05675485,-0.024654068052768707,0.15189978
1408.916666665714,-0.23210277,-0.74894077,-0.31239468,-2.3724072,0.4045109,1.4384453,0.7536627,0.04,0.04,-7.823912,5.709959030151367,-1.6025277,0.055752754,-0.024646533653140068,0.15006265
1408.9333333323807,-0.23298787,-0.7488056,-0.31358522,-2.3724709,0.40605155,1.4379402,0.75353956,0.04,0.04,-7.8091497,5.728765487670898,-1.6070966,0.054749075,-0.02463393472135067,0.14821583
1408.9499999990473,-0.23386194,-0.7486723,-0.31476086,-2.3725307,0.4075728,1.4374415,0.753418,0.04,0.04,-7.7944417,5.747393608093262,-1.611501,0.053745605,-0.0246175117790699,0.14635268
1408.966666665714,-0.23472491,-0.7485408,-0.31592172,-2.3725889,0.40907478,1.4369493,0.753298,0.04,0.04,-7.7793646,5.765771389007568,-1.6157933,0.05274975,-0.024578100070357323,0.1444804
1408.9833333323807,-0.23557672,-0.74841106,-0.31706747,-2.3726463,0.41055742,1.4364634,0.75317943,0.04,0.04,-7.7648087,5.783631801605225,-1.6200409,0.051757317,-0.024525782093405724,0.14259385
1408.9999999990473,-0.23641737,-0.7482832,-0.31819823,-2.3727036,0.41202053,1.4359843,0.7530624,0.04,0.04,-7.750425,5.801633358001709,-1.6241986,0.05076745,-0.024466238915920258,0.1406989
1409.016666665714,-0.23724668,-0.7481571,-0.31931382,-2.3727603,0.41346404,1.4355112,0.7529469,0.04,0.04,-7.736345,5.8190484046936035,-1.6283209,0.049778238,-0.02439885586500168,0.13879095
1409.0333333323806,-0.23806465,-0.748032,-0.32041413,-2.3728166,0.4148878,1.4350449,0.752833,0.04,0.04,-7.7222667,5.83650016784668,-1.6323369,0.048791688,-0.024326466023921967,0.1368728
1409.0499999990473,-0.23887126,-0.7479087,-0.32149914,-2.3728728,0.41629168,1.4345849,0.7527208,0.04,0.04,-7.708533,5.853399276733398,-1.6363872,0.04780465,-0.02424944005906582,0.1349488
1409.066666665714,-0.23966648,-0.74778736,-0.3225689,-2.372929,0.41767573,1.4341314,0.7526102,0.04,0.04,-7.6948056,5.870326519012451,-1.6402805,0.046818726,-0.02416841685771942,0.13301267
1409.0833333323806,-0.24045025,-0.74766785,-0.3236232,-2.3729851,0.41903985,1.4336845,0.7525013,0.04,0.04,-7.681361,5.88666296005249,-1.6441396,0.045833807,-0.02408180572092533,0.13106805
1409.0999999990472,-0.2412225,-0.74755013,-0.324662,-2.3730407,0.420384,1.4332443,0.7523939,0.04,0.04,-7.667951,5.903067588806152,-1.647908,0.044850558,-0.023990998044610023,0.12911418
1409.1166666657139,-0.24198318,-0.7474343,-0.3256853,-2.373093,0.421708,1.4328104,0.7522879,0.04,0.04,-7.6548142,5.91885232925415,-1.6516497,0.043870263,-0.023892858996987343,0.12715563
1409.1333333323805,-0.24273233,-0.7473204,-0.3266931,-2.3731434,0.42301187,1.4323832,0.7521836,0.04,0.04,-7.6413627,5.934525489807129,-1.6552181,0.042899508,-0.023778367787599564,0.12518898
1409.1499999990472,-0.24346988,-0.74720836,-0.32768515,-2.3731928,0.4242956,1.4319626,0.75208086,0.04,0.04,-7.628404,5.949697017669678,-1.6587538,0.041934054,-0.023652102798223495,0.12321476
1409.1666666657138,-0.2441958,-0.7470978,-0.32866168,-2.373242,0.42555898,1.4315487,0.7519799,0.04,0.04,-7.6155643,5.964965343475342,-1.6622216,0.040973198,-0.023517459630966187,0.12123559
1409.1833333323805,-0.24491005,-0.7469889,-0.32962245,-2.3732908,0.42680204,1.4311414,0.75188047,0.04,0.04,-7.6031713,5.979720115661621,-1.6656684,0.040012807,-0.023380016908049583,0.11925245
1409.1999999990471,-0.24561259,-0.74688166,-0.3305674,-2.3733394,0.4280248,1.4307407,0.7517828,0.04,0.04,-7.590852,5.994329929351807,-1.6690279,0.039055742,-0.023239469155669212,0.11726475
1409.2166666657138,-0.24630344,-0.7467759,-0.33149672,-2.3733878,0.4292272,1.4303467,0.75168675,0.04,0.04,-7.5786324,6.008847236633301,-1.6723337,0.0381015,-0.023095067590475082,0.11527431
1409.2333333323804,-0.24698251,-0.74667203,-0.33241028,-2.3734362,0.4304092,1.4299594,0.75159216,0.04,0.04,-7.5667706,6.022768497467041,-1.6756089,0.037148453,-0.022947976365685463,0.11327648
1409.249999999047,-0.2476499,-0.74657005,-0.33330813,-2.373484,0.4315707,1.4295788,0.75149935,0.039999988,0.04,-7.5549407,6.0367751121521,-1.6787863,0.036199294,-0.022799361497163773,0.11127452
1409.2666666657137,-0.2483055,-0.74647,-0.3341901,-2.3735304,0.43271163,1.4292048,0.75140804,0.039999977,0.04,-7.543312,6.050119876861572,-1.6818976,0.03525432,-0.02264312654733658,0.10926988
1409.2833333323804,-0.24894933,-0.7463718,-0.33505625,-2.3735747,0.4338322,1.4288375,0.7513185,0.039999966,0.04,-7.5317583,6.063541412353516,-1.68493,0.03431508,-0.022481853142380714,0.107264034
1409.299999999047,-0.24958144,-0.74627554,-0.33590654,-2.373617,0.43493232,1.4284773,0.75123054,0.039999954,0.04,-7.5203705,6.0762810707092285,-1.6878936,0.033383578,-0.02230849117040634,0.105256684
1409.3166666657137,-0.2502018,-0.74618113,-0.33674112,-2.3736584,0.436012,1.4281235,0.75114423,0.039999947,0.04,-7.5090094,6.089100360870361,-1.6907485,0.0324607,-0.022122567519545555,0.103249684
1409.3333333323803,-0.25081038,-0.7460885,-0.33755976,-2.3736997,0.4370711,1.4277765,0.75105953,0.039999932,0.04,-7.498213,6.101433277130127,-1.6935916,0.031541843,-0.021933281794190407,0.101241186
1409.349999999047,-0.25140727,-0.74599767,-0.3383627,-2.3737407,0.43810984,1.4274364,0.75097656,0.039999925,0.04,-7.487459,6.113836288452148,-1.6963493,0.030628014,-0.021741395816206932,0.09923453
1409.3666666657136,-0.2519923,-0.7459086,-0.33914986,-2.3737814,0.4391281,1.4271027,0.7508951,0.039999925,0.04,-7.4770637,6.125656604766846,-1.6991035,0.029717712,-0.021545570343732834,0.09722707
1409.3833333323803,-0.25256562,-0.7458214,-0.33992118,-2.3738217,0.44012594,1.4267758,0.7508152,0.039999913,0.04,-7.46672,6.1375579833984375,-1.7017502,0.028812602,-0.021349318325519562,0.09522163
1409.399999999047,-0.25312725,-0.745736,-0.34067675,-2.3738616,0.44110343,1.4264555,0.75073695,0.0399999,0.04,-7.4567204,6.148860931396484,-1.7043574,0.027912654,-0.02115079201757908,0.09321917
1409.4166666657136,-0.25367713,-0.7456524,-0.34141657,-2.3739011,0.4420606,1.4261419,0.75066036,0.039999887,0.04,-7.4466796,6.1601996421813965,-1.7068895,0.027018685,-0.020949017256498337,0.091217086
1409.4333333323802,-0.2542154,-0.74557054,-0.34214076,-2.373939,0.4429973,1.425835,0.7505855,0.03999988,0.04,-7.437101,6.1710076332092285,-1.7094071,0.026129248,-0.020746370777487755,0.08921947
1409.449999999047,-0.25474206,-0.7454904,-0.3428493,-2.373975,0.44391382,1.425535,0.75051236,0.039999876,0.04,-7.4274297,6.181658744812012,-1.7118247,0.025246844,-0.02053573541343212,0.087226436
1409.4666666657135,-0.25525707,-0.74541193,-0.34354222,-2.3740098,0.44481012,1.4252412,0.75044084,0.03999986,0.04,-7.4178653,6.192198753356934,-1.7141687,0.024371922,-0.020316820591688156,0.08523888
1409.4833333323802,-0.25576046,-0.74533516,-0.3442195,-2.3740435,0.44568622,1.424954,0.7503707,0.039999858,0.04,-7.4087634,6.202178001403809,-1.7164787,0.023504248,-0.020094793289899826,0.08325473
1409.4999999990468,-0.25625238,-0.7452602,-0.34488133,-2.3740766,0.44654226,1.4246737,0.7503022,0.039999843,0.04,-7.3996673,6.212239742279053,-1.7187033,0.022645365,-0.019868506118655205,0.08127856
1409.5166666657135,-0.25673267,-0.745187,-0.3455277,-2.3741097,0.44737822,1.4243997,0.75023526,0.039999828,0.04,-7.391017,6.221794605255127,-1.720915,0.021791937,-0.01963948644697666,0.07930838
1409.5333333323802,-0.25720164,-0.74511546,-0.3461586,-2.3741422,0.44819427,1.4241325,0.75017,0.039999824,0.04,-7.382469,6.231431007385254,-1.7230344,0.020944674,-0.019412415102124214,0.07734515
1409.5499999990468,-0.25765923,-0.7450458,-0.3467742,-2.3741744,0.44899046,1.4238716,0.7501064,0.039999817,0.04,-7.3742056,6.240477085113525,-1.7251406,0.02010298,-0.019183149561285973,0.075390756
1409.5666666657135,-0.25810537,-0.74497795,-0.3473745,-2.3742065,0.44976676,1.4236171,0.75004435,0.03999981,0.04,-7.3659544,6.249603748321533,-1.7271533,0.01926799,-0.018952082842588425,0.07344459
1409.58333333238,-0.25854027,-0.7449118,-0.34795967,-2.3742385,0.4505235,1.4233693,0.7499838,0.0399998,0.04,-7.3581944,6.258208751678467,-1.7291449,0.01843936,-0.018724089488387108,0.071508594
1409.5999999990468,-0.25896388,-0.74484736,-0.34852952,-2.3742678,0.45126072,1.4231278,0.74992484,0.03999979,0.04,-7.3503723,6.266867160797119,-1.7310711,0.017617194,-0.018495075404644012,0.06958039
1409.6166666657134,-0.25937614,-0.74478453,-0.3490844,-2.374296,0.45197847,1.4228925,0.74986744,0.039999787,0.04,-7.342706,6.274816513061523,-1.7329433,0.016806584,-0.01825801283121109,0.067663744
1409.63333333238,-0.25977755,-0.7447233,-0.34962443,-2.3743227,0.4526769,1.4226637,0.74981153,0.039999776,0.04,-7.3352275,6.282944202423096,-1.7347308,0.016004873,-0.01802040822803974,0.06575675
1409.6499999990467,-0.2601678,-0.7446639,-0.35014957,-2.3743486,0.453356,1.422441,0.74975705,0.03999977,0.04,-7.328026,6.2905449867248535,-1.7365149,0.01521185,-0.017776047810912132,0.06386245
1409.6666666657134,-0.26054707,-0.7446061,-0.35065994,-2.3743734,0.45401603,1.4222246,0.7497043,0.039999764,0.04,-7.320976,6.298218727111816,-1.7381839,0.014427856,-0.01753273420035839,0.061981365
1409.68333333238,-0.26091546,-0.74455,-0.3511557,-2.3743982,0.45465717,1.4220146,0.74965316,0.039999753,0.04,-7.3142414,6.305363655090332,-1.7398514,0.013652456,-0.017286386340856552,0.0601154
1409.6999999990467,-0.26127312,-0.7444956,-0.35163692,-2.374423,0.4552795,1.4218109,0.74960357,0.039999753,0.04,-7.3077416,6.312469005584717,-1.7414604,0.012883943,-0.017041878774762154,0.05826129
1409.7166666657133,-0.26161993,-0.7444427,-0.35210374,-2.3744476,0.4558833,1.4216131,0.7495552,0.039999746,0.04,-7.301313,6.319508075714111,-1.7430255,0.012122165,-0.01679900661110878,0.056422386
1409.73333333238,-0.26195624,-0.7443914,-0.35255635,-2.3744721,0.45646846,1.4214213,0.74950826,0.039999742,0.04,-7.2953067,6.326030731201172,-1.7445602,0.011369937,-0.016560601070523262,0.054598417
1409.7499999990466,-0.26228195,-0.7443416,-0.35299492,-2.3744965,0.45703536,1.4212356,0.74946296,0.039999735,0.04,-7.289272,6.332642078399658,-1.7460355,0.0106241545,-0.016324985772371292,0.052791372
1409.7666666657133,-0.2625972,-0.74429363,-0.3534193,-2.3745186,0.45758414,1.4210558,0.7494192,0.039999735,0.04,-7.283605,6.338730335235596,-1.7475057,0.009885821,-0.016091708093881607,0.050999817
1409.78333333238,-0.26290214,-0.7442473,-0.35382983,-2.37454,0.45811495,1.4208819,0.7493767,0.039999727,0.04,-7.277707,6.344738006591797,-1.7488395,0.009161058,-0.015852035954594612,0.049227603
1409.7999999990466,-0.26319686,-0.74420244,-0.35422662,-2.3745599,0.45862794,1.4207139,0.7493356,0.03999972,0.04,-7.2724023,6.350370407104492,-1.7501842,0.008446099,-0.015614074654877186,0.047472086
1409.8166666657132,-0.2634815,-0.74415916,-0.3546098,-2.374579,0.45912346,1.4205515,0.74929607,0.039999712,0.04,-7.2669253,6.355998992919922,-1.7514436,0.007743465,-0.015372057445347309,0.045737416
1409.8333333323799,-0.2637562,-0.7441173,-0.35497946,-2.3745964,0.45960152,1.4203949,0.7492579,0.039999712,0.04,-7.2619967,6.361227512359619,-1.7526884,0.0070497203,-0.01513286679983139,0.04402285
1409.8499999990465,-0.26402104,-0.7440769,-0.35533595,-2.3746135,0.46006233,1.4202437,0.749221,0.039999712,0.04,-7.2569203,6.366427421569824,-1.7538501,0.006368222,-0.014890693128108978,0.042329025
1409.8666666657132,-0.26427615,-0.74403805,-0.35567927,-2.3746307,0.4605062,1.4200983,0.7491855,0.039999705,0.04,-7.252366,6.371275901794434,-1.7550228,0.005696082,-0.014652409590780735,0.040656768
1409.8833333323798,-0.2645216,-0.7440007,-0.35600975,-2.3746479,0.4609334,1.4199581,0.74915135,0.039999694,0.04,-7.2478337,6.376163005828857,-1.7561179,0.0050337296,-0.014417420141398907,0.039006844
1409.8999999990465,-0.2647576,-0.74396473,-0.35632747,-2.3746648,0.46134406,1.4198236,0.74911857,0.03999969,0.04,-7.243683,6.380619049072266,-1.7572011,0.004380783,-0.01418863981962204,0.03737785
1409.9166666657131,-0.26498425,-0.74393016,-0.35663256,-2.3746817,0.46173874,1.4196943,0.74908704,0.039999686,0.04,-7.23951,6.3851447105407715,-1.7582419,0.0037369484,-0.013963605277240276,0.03577497
1409.9333333323798,-0.26520163,-0.74389714,-0.35692537,-2.3746982,0.46211722,1.4195706,0.7490567,0.039999682,0.04,-7.23566,6.3891777992248535,-1.7592598,0.0031040176,-0.013743272051215172,0.03419493
1409.9499999990464,-0.26541004,-0.7438655,-0.35720602,-2.3747137,0.46247998,1.4194516,0.7490278,0.039999682,0.04,-7.2318506,6.393151760101318,-1.7602261,0.0024832343,-0.013524062931537628,0.032639906
1409.966666665713,-0.26560947,-0.7438351,-0.35747474,-2.3747277,0.4628272,1.4193377,0.749,0.03999967,0.04,-7.228129,6.397049427032471,-1.7611234,0.0018730824,-0.013309324160218239,0.031110687
1409.9833333323797,-0.26580024,-0.74380606,-0.3577316,-2.3747406,0.4631593,1.4192291,0.74897337,0.039999675,0.04,-7.224651,6.400492191314697,-1.7620223,0.001276996,-0.013093860819935799,0.02960909
1409.9999999990464,-0.26598242,-0.74377835,-0.35797697,-2.3747525,0.4634765,1.4191251,0.7489481,0.03999967,0.04,-7.2211742,6.403974533081055,-1.7628417,0.0006950346,-0.012877244502305984,0.028136088
1410.016666665713,-0.26615614,-0.7437518,-0.35821107,-2.3747635,0.46377897,1.4190257,0.74892384,0.039999675,0.04,-7.2181168,6.407107353210449,-1.7636437,0.00012463202,-0.012665345333516598,0.026691405
1410.0333333323797,-0.2663217,-0.7437266,-0.35843408,-2.3747737,0.46406722,1.4189316,0.7489008,0.039999668,0.04,-7.2150106,6.410252094268799,-1.7643921,-0.00043140876,-0.01245587132871151,0.025275886
1410.0499999990463,-0.2664792,-0.7437028,-0.3586462,-2.3747835,0.46434137,1.418842,0.74887884,0.03999966,0.04,-7.212227,6.413053512573242,-1.7651384,-0.00097461545,-0.012245633639395237,0.02389071
1410.066666665713,-0.2666288,-0.7436799,-0.35884774,-2.374793,0.46460184,1.4187566,0.74885786,0.039999656,0.04,-7.2094975,6.415897846221924,-1.7657889,-0.0015044541,-0.012040823698043823,0.022536747
1410.0833333323797,-0.2667707,-0.74365836,-0.35903886,-2.3748026,0.46484897,1.4186755,0.74883825,0.03999966,0.04,-7.2071,6.418391704559326,-1.76649,-0.0020219719,-0.011842776089906693,0.021213707
1410.0999999990463,-0.26690507,-0.7436381,-0.35921994,-2.3748121,0.46508294,1.4185989,0.7488193,0.039999653,0.04,-7.2047257,6.420938491821289,-1.7671046,-0.0025279087,-0.011651377193629742,0.01992336
1410.116666665713,-0.26703218,-0.7436186,-0.3593912,-2.3748214,0.4653042,1.4185264,0.7488019,0.039999653,0.04,-7.2026224,6.423140048980713,-1.7677183,-0.0030190204,-0.011466223746538162,0.018665468
1410.1333333323796,-0.26715198,-0.7436005,-0.35955292,-2.3748307,0.46551308,1.418458,0.7487849,0.039999653,0.04,-7.200506,6.425384998321533,-1.7683132,-0.003500385,-0.011287401430308819,0.017442765
1410.1499999990463,-0.26726502,-0.7435831,-0.3597053,-2.3748395,0.46570995,1.4183935,0.7487694,0.039999653,0.04,-7.198658,6.42725944519043,-1.7688686,-0.0039640255,-0.01111483946442604,0.016253896
1410.166666665713,-0.26737133,-0.743567,-0.35984865,-2.3748481,0.4658951,1.4183328,0.7487543,0.039999645,0.04,-7.1967845,6.429189205169678,-1.769415,-0.004416799,-0.010947656817734241,0.015101789
1410.1833333323796,-0.26747108,-0.7435517,-0.35998333,-2.3748565,0.46606895,1.4182758,0.7487407,0.039999645,0.04,-7.195191,6.430813789367676,-1.7699089,-0.0048526176,-0.010787087492644787,0.013986501
1410.1999999990462,-0.26756465,-0.7435375,-0.3601095,-2.3748634,0.466232,1.4182225,0.74872744,0.039999645,0.04,-7.1936617,6.43237829208374,-1.770411,-0.005276315,-0.010633043013513088,0.012908189
1410.2166666657129,-0.26765203,-0.7435242,-0.3602276,-2.3748698,0.46638447,1.4181726,0.7487154,0.03999964,0.04,-7.1920342,6.433821201324463,-1.7708212,-0.005680237,-0.010479161515831947,0.01186895
1410.2333333323795,-0.26773357,-0.74351186,-0.36033785,-2.374875,0.46652675,1.4181259,0.74870396,0.03999964,0.04,-7.1907477,6.435029983520508,-1.7712536,-0.0060691102,-0.010330689139664173,0.010869348
1410.2499999990462,-0.26780957,-0.7435001,-0.3604405,-2.3748796,0.4666594,1.418082,0.74869317,0.039999645,0.04,-7.1894317,6.436244487762451,-1.771622,-0.006439776,-0.010186410509049892,0.00991085
1410.2666666657128,-0.26788032,-0.74348944,-0.36053607,-2.3748837,0.4667828,1.4180413,0.7486835,0.039999645,0.04,-7.1883583,6.437201023101807,-1.772011,-0.00679319,-0.010048299096524715,0.008992817
1410.2833333323795,-0.26794595,-0.7434794,-0.36062467,-2.3748875,0.46689728,1.4180044,0.7486742,0.039999645,0.04,-7.187278,6.4382405281066895,-1.7723237,-0.007131929,-0.0099141551181674,0.008117372
1410.2999999990461,-0.26800668,-0.7434703,-0.36070684,-2.374891,0.46700338,1.4179695,0.74866575,0.039999634,0.04,-7.186438,6.4390058517456055,-1.7726897,-0.0074517634,-0.009783929213881493,0.007285152
1410.3166666657128,-0.26806295,-0.7434618,-0.36078274,-2.3748941,0.46710134,1.417937,0.748658,0.039999634,0.04,-7.185623,6.43980598449707,-1.7729397,-0.007754988,-0.009663321077823639,0.0064950683
1410.3333333323794,-0.26811466,-0.74345386,-0.36085278,-2.374897,0.46719176,1.4179078,0.7486506,0.039999638,0.04,-7.184971,6.44041109085083,-1.7732543,-0.008042177,-0.009550250135362148,0.005751128
1410.349999999046,-0.26816234,-0.74344677,-0.36091742,-2.3748996,0.46727517,1.4178799,0.74864376,0.03999964,0.04,-7.1843147,6.440988063812256,-1.7735366,-0.008309742,-0.00944129005074501,0.005052728
1410.3666666657127,-0.26820618,-0.7434401,-0.3609769,-2.374902,0.46735203,1.417855,0.7486379,0.039999634,0.04,-7.183794,6.4413981437683105,-1.7737523,-0.0085581215,-0.009341822005808353,0.00440123
1410.3833333323794,-0.2682467,-0.7434338,-0.3610317,-2.3749044,0.4674227,1.4178315,0.7486323,0.039999634,0.04,-7.18332,6.441830158233643,-1.77403,-0.008791001,-0.009247148409485817,0.0037957842
1410.399999999046,-0.26828378,-0.74342823,-0.3610821,-2.3749065,0.46748775,1.4178104,0.7486269,0.039999638,0.04,-7.182998,6.442142009735107,-1.7742584,-0.009006179,-0.009163392707705498,0.003238459
1410.4166666657127,-0.2683179,-0.7434231,-0.36112854,-2.3749084,0.46754763,1.4177899,0.74862176,0.039999638,0.04,-7.1826005,6.442431449890137,-1.7744567,-0.009201131,-0.009083675220608711,0.0027258429
1410.4333333323793,-0.2683492,-0.7434182,-0.36117122,-2.3749104,0.46760267,1.4177727,0.74861777,0.039999638,0.04,-7.1823153,6.442651748657227,-1.7746269,-0.009379927,-0.00901485700160265,0.002252789
1410.449999999046,-0.26837817,-0.7434138,-0.3612105,-2.3749123,0.46765336,1.4177556,0.7486139,0.039999638,0.04,-7.182021,6.44290828704834,-1.774868,-0.009548213,-0.008945911191403866,0.0018199086
1410.4666666657126,-0.2684047,-0.74340975,-0.3612467,-2.3749142,0.46769994,1.417741,0.74861026,0.039999638,0.04,-7.1817527,6.443161487579346,-1.7749912,-0.009702657,-0.008887432515621185,0.0014192463
1410.4833333323793,-0.26842907,-0.7434061,-0.36128002,-2.374916,0.4677429,1.4177275,0.7486067,0.039999627,0.04,-7.181508,6.443355083465576,-1.7751775,-0.009844535,-0.008829738944768906,0.0010522535
1410.499999999046,-0.26845145,-0.7434028,-0.36131063,-2.3749177,0.46778247,1.4177141,0.7486033,0.039999627,0.04,-7.181272,6.443556785583496,-1.7753075,-0.009973842,-0.008776907809078693,0.00071293546
1410.5166666657126,-0.2684721,-0.7433996,-0.36133876,-2.3749194,0.46781892,1.4177009,0.7486,0.039999627,0.04,-7.1810913,6.443689823150635,-1.775413,-0.010091762,-0.008732620626688004,0.00040101464
1410.5333333323792,-0.26849112,-0.74339664,-0.36136466,-2.374921,0.46785247,1.417691,0.7485974,0.039999627,0.04,-7.180909,6.4438862800598145,-1.7755183,-0.010200265,-0.008696869015693665,0.000113907925
1410.549999999046,-0.26850855,-0.7433939,-0.36138847,-2.3749228,0.46788332,1.4176813,0.74859536,0.03999963,0.04,-7.1807017,6.444021701812744,-1.7757064,-0.010302409,-0.008654195815324783,-0.00015022892
1410.5666666657125,-0.26852465,-0.74339145,-0.36141044,-2.3749244,0.46791145,1.4176718,0.74859333,0.039999627,0.04,-7.180545,6.444176197052002,-1.7757864,-0.010398238,-0.00861823745071888,-0.00039314674
1410.5833333323792,-0.2685394,-0.7433892,-0.36143064,-2.374926,0.4679375,1.4176624,0.7485915,0.03999963,0.04,-7.1804247,6.444296360015869,-1.7758625,-0.010486125,-0.008588222786784172,-0.0006159931
1410.5999999990458,-0.26855293,-0.7433871,-0.36144918,-2.3749278,0.46796158,1.4176537,0.74858963,0.03999963,0.04,-7.1802974,6.444420337677002,-1.7759453,-0.0105671,-0.008564339019358158,-0.00082181185
1410.6166666657125,-0.2685654,-0.74338514,-0.36146632,-2.3749294,0.46798366,1.4176477,0.74858797,0.03999963,0.04,-7.180182,6.444503307342529,-1.7760438,-0.010640835,-0.008543150499463081,-0.0010116753
1410.6333333323792,-0.2685768,-0.7433835,-0.36148202,-2.374931,0.46800393,1.4176419,0.7485863,0.039999627,0.04,-7.1800094,6.444631099700928,-1.7761829,-0.010709506,-0.00851504597812891,-0.0011858351
1410.6499999990458,-0.2685873,-0.74338204,-0.36149654,-2.3749325,0.46802256,1.4176362,0.7485846,0.03999963,0.04,-7.179919,6.444693565368652,-1.7762191,-0.010771451,-0.008490744978189468,-0.0013458353
1410.6666666657125,-0.26859698,-0.7433806,-0.3615099,-2.3749337,0.4680398,1.4176304,0.74858314,0.039999623,0.04,-7.179798,6.444784164428711,-1.7762702,-0.010827819,-0.008469655178487301,-0.0014934025
1410.683333332379,-0.26860592,-0.7433793,-0.3615222,-2.374935,0.46805567,1.4176248,0.74858165,0.03999963,0.04,-7.1796985,6.444836616516113,-1.7763209,-0.010879727,-0.008451671339571476,-0.0016302606
1410.6999999990458,-0.2686141,-0.74337804,-0.3615335,-2.374936,0.4680701,1.4176192,0.7485802,0.03999963,0.04,-7.179626,6.444923400878906,-1.7763681,-0.010927428,-0.008437170647084713,-0.0017548507
1410.7166666657124,-0.26862165,-0.7433769,-0.36154392,-2.374937,0.46808347,1.4176137,0.74857885,0.03999963,0.04,-7.1795583,6.444991111755371,-1.7764213,-0.010971249,-0.008426574058830738,-0.0018694177
1410.733333332379,-0.26862854,-0.7433758,-0.3615535,-2.374938,0.46809575,1.4176087,0.74857754,0.03999963,0.04,-7.1794696,6.445025444030762,-1.7764609,-0.011010936,-0.008417469449341297,-0.0019763925
1410.7499999990457,-0.26863492,-0.7433747,-0.36156222,-2.374939,0.46810707,1.4176066,0.7485762,0.03999963,0.04,-7.1794043,6.445095539093018,-1.7765241,-0.011047495,-0.008409952744841576,-0.0020735855
1410.7666666657124,-0.26864076,-0.74337375,-0.36157033,-2.37494,0.46811745,1.4176044,0.7485754,0.039999634,0.04,-7.1792946,6.445140838623047,-1.7766291,-0.011080825,-0.00839186180382967,-0.0021624772
1410.783333332379,-0.26864615,-0.74337286,-0.36157778,-2.3749409,0.468127,1.4176023,0.74857485,0.039999627,0.04,-7.1792383,6.445199489593506,-1.7766471,-0.011113334,-0.008376284502446651,-0.0022439128
1410.7999999990457,-0.26865107,-0.74337196,-0.3615846,-2.3749418,0.4681358,1.4176003,0.7485745,0.039999627,0.04,-7.0099287,6.206332683563232,-1.6421857,0.0,-0.0,0.0
1410.8166666657123,-0.26865107,-0.74337196,-0.3615846,-2.3749418,0.4681358,1.4176003,0.7485745,0.039999627,0.04,-7.1797237,6.444446086883545,-1.7767351,0.0,-0.0,0.0
1410.833333332379,-0.26865107,-0.74337196,-0.3615846,-2.3749418,0.4681358,1.4176003,0.7485745,0.039999627,0.04,-7.1797237,6.444446086883545,-1.7767351,0.0,-0.0,0.0
1410.8499999990456,-0.26865107,-0.74337196,-0.3615846,-2.3749418,0.4681358,1.4176003,0.7485745,0.039999627,0.04,-7.1797237,6.444446086883545,-1.7767351,0.0,-0.0,0.0
1410.8666666657123,-0.26865107,-0.74337196,-0.3615846,-2.3749418,0.4681358,1.4176003,0.7485745,0.039999627,0.04,-7.1797237,6.444446086883545,-1.7767351,0.0,-0.0,0.0
1410.883333332379,-0.26865107,-0.74337196,-0.3615846,-2.3749418,0.4681358,1.4176003,0.7485745,0.039999627,0.04,-7.1797237,6.444446086883545,-1.7767351,0.0,-0.0,0.0
1410.8999999990456,-0.26865107,-0.74337196,-0.3615846,-2.3749418,0.4681358,1.4176003,0.7485745,0.039999627,0.04,-7.1797237,6.444446086883545,-1.7767351,0.0,-0.0,0.0
1410.9166666657122,-0.26865107,-0.74337196,-0.3615846,-2.3749418,0.4681358,1.4176003,0.7485745,0.039999627,0.04,-7.1797237,6.444446086883545,-1.7767351,0.0,-0.0,0.0
1410.9333333323789,-0.26865107,-0.74337196,-0.3615846,-2.3749418,0.4681358,1.4176003,0.7485745,0.039999627,0.04,-7.1797237,6.444446086883545,-1.7767351,0.0,-0.0,0.0
1410.9499999990455,-0.26865107,-0.74337196,-0.3615846,-2.3749418,0.4681358,1.4176003,0.7485745,0.039999627,0.04,-7.1797237,6.444446086883545,-1.7767351,0.0,-0.0,0.0
1410.9666666657122,-0.26865107,-0.74337196,-0.3615846,-2.3749418,0.4681358,1.4176003,0.7485745,0.039999627,0.04,-7.1797237,6.444446086883545,-1.7767351,0.0,-0.0,0.0
1410.9833333323788,-0.26865107,-0.74337196,-0.3615846,-2.3749418,0.4681358,1.4176003,0.7485745,0.039999627,0.04,-7.1797237,6.444446086883545,-1.7767351,0.0,-0.0,0.0
1410.9999999990455,-0.26865107,-0.74337196,-0.3615846,-2.3749418,0.4681358,1.4176003,0.7485745,0.039999627,0.04,-7.1797237,6.444446086883545,-1.7767351,0.0,-0.0,0.0
1411.0166666657121,-0.26865107,-0.74337196,-0.3615846,-2.3749418,0.4681358,1.4176003,0.7485745,0.039999627,0.04,-7.1797237,6.444446086883545,-1.7767351,0.0,-0.0,0.0
1411.0333333323788,-0.26865107,-0.74337196,-0.3615846,-2.3749418,0.4681358,1.4176003,0.7485745,0.039999627,0.04,-7.1797237,6.444446086883545,-1.7767351,0.0,-0.0,0.0
1411.0499999990454,-0.26865107,-0.74337196,-0.3615846,-2.3749418,0.4681358,1.4176003,0.7485745,0.039999627,0.04,-7.1797237,6.444446086883545,-1.7767351,0.0,-0.0,0.0
1411.066666665712,-0.26865107,-0.74337196,-0.3615846,-2.3749418,0.4681358,1.4176003,0.7485745,0.039999627,0.04,-7.1797237,6.444446086883545,-1.7767351,0.0,-0.0,0.0
1411.0833333323787,-0.26865107,-0.74337196,-0.3615846,-2.3749418,0.4681358,1.4176003,0.7485745,0.039999627,0.04,-7.1797237,6.444446086883545,-1.7767351,0.0,-0.0,0.0
1411.0999999990454,-0.26865107,-0.74337196,-0.3615846,-2.3749418,0.4681358,1.4176003,0.7485745,0.039999627,0.04,-7.1797237,6.444446086883545,-1.7767351,0.0,-0.0,0.0
1411.116666665712,-0.26865107,-0.74337196,-0.3615846,-2.3749418,0.4681358,1.4176003,0.7485745,0.039999627,0.04,-7.1797237,6.444446086883545,-1.7767351,0.0,-0.0,0.0
1411.1333333323787,-0.26865107,-0.74337196,-0.3615846,-2.3749418,0.4681358,1.4176003,0.7485745,0.039999627,0.04,-7.1797237,6.444446086883545,-1.7767351,0.0,-0.0,0.0
1411.1499999990453,-0.26865107,-0.74337196,-0.3615846,-2.3749418,0.4681358,1.4176003,0.7485745,0.039999627,0.04,-7.1797237,6.444446086883545,-1.7767351,0.0,-0.0,0.0
1411.166666665712,-0.26865107,-0.74337196,-0.3615846,-2.3749418,0.4681358,1.4176003,0.7485745,0.039999627,0.04,-7.1797237,6.444446086883545,-1.7767351,0.0,-0.0,0.0
1411.1833333323787,-0.26865107,-0.74337196,-0.3615846,-2.3749418,0.4681358,1.4176003,0.7485745,0.039999627,0.04,-7.1797237,6.444446086883545,-1.7767351,0.0,-0.0,0.0
1411.1999999990453,-0.26865107,-0.74337196,-0.3615846,-2.3749418,0.4681358,1.4176003,0.7485745,0.039999627,0.04,-7.1797237,6.444446086883545,-1.7767351,0.0,-0.0,0.0
1411.216666665712,-0.26865107,-0.74337196,-0.3615846,-2.3749418,0.4681358,1.4176003,0.7485745,0.039999627,0.04,-7.1797237,6.444446086883545,-1.7767351,0.0,-0.0,0.0
1411.2333333323786,-0.26865107,-0.74337196,-0.3615846,-2.3749418,0.4681358,1.4176003,0.7485745,0.039999627,0.04,-7.1797237,6.444446086883545,-1.7767351,0.0,-0.0,0.0
1411.2499999990453,-0.26865107,-0.74337196,-0.3615846,-2.3749418,0.4681358,1.4176003,0.7485745,0.039999627,0.04,-7.1797237,6.444446086883545,-1.7767351,0.0,-0.0,0.0
1411.266666665712,-0.26865107,-0.74337196,-0.3615846,-2.3749418,0.4681358,1.4176003,0.7485745,0.039999627,0.04,-7.1797237,6.444446086883545,-1.7767351,0.0,-0.0,0.0
1411.2833333323786,-0.26865107,-0.74337196,-0.3615846,-2.3749418,0.4681358,1.4176003,0.7485745,0.039999627,0.04,-7.1797237,6.444446086883545,-1.7767351,0.0,-0.0,0.0
1411.2999999990452,-0.26865107,-0.74337196,-0.3615846,-2.3749418,0.4681358,1.4176003,0.7485745,0.039999627,0.04,-7.1797237,6.444446086883545,-1.7767351,0.0,-0.0,0.0
1411.3166666657119,-0.26865107,-0.74337196,-0.3615846,-2.3749418,0.4681358,1.4176003,0.7485745,0.039999627,0.04,-7.1797237,6.444446086883545,-1.7767351,0.0,-0.0,0.0
1411.3333333323785,-0.26865107,-0.74337196,-0.3615846,-2.3749418,0.4681358,1.4176003,0.7485745,0.039999627,0.04,-7.1797237,6.444446086883545,-1.7767351,0.0,-0.0,0.0
1411.3499999990452,-0.26865107,-0.74337196,-0.3615846,-2.3749418,0.4681358,1.4176003,0.7485745,0.039999627,0.04,-7.1797237,6.444446086883545,-1.7767351,0.0,-0.0,0.0
1411.3666666657118,-0.26865107,-0.74337196,-0.3615846,-2.3749418,0.4681358,1.4176003,0.7485745,0.039999627,0.04,-7.1797237,6.444446086883545,-1.7767351,0.0,-0.0,0.0
1411.3833333323785,-0.26865107,-0.74337196,-0.3615846,-2.3749418,0.4681358,1.4176003,0.7485745,0.039999627,0.04,-7.1797237,6.444446086883545,-1.7767351,0.0,-0.0,0.0
1411.3999999990451,-0.26865107,-0.74337196,-0.3615846,-2.3749418,0.4681358,1.4176003,0.7485745,0.039999627,0.04,-7.1797237,6.444446086883545,-1.7767351,0.0,-0.0,0.0
1411.4166666657118,-0.26865107,-0.74337196,-0.3615846,-2.3749418,0.4681358,1.4176003,0.7485745,0.039999627,0.04,-7.1797237,6.444446086883545,-1.7767351,0.0,-0.0,0.0
1411.4333333323784,-0.26865107,-0.74337196,-0.3615846,-2.3749418,0.4681358,1.4176003,0.7485745,0.039999627,0.04,-7.1797237,6.444446086883545,-1.7767351,0.0,-0.0,0.0
1411.449999999045,-0.26865107,-0.74337196,-0.3615846,-2.3749418,0.4681358,1.4176003,0.7485745,0.039999627,0.04,-7.1797237,6.444446086883545,-1.7767351,0.0,-0.0,0.0
1411.4666666657117,-0.26865107,-0.74337196,-0.3615846,-2.3749418,0.4681358,1.4176003,0.7485745,0.039999627,0.04,-7.1797237,6.444446086883545,-1.7767351,0.0,-0.0,0.0
1411.4833333323784,-0.26865107,-0.74337196,-0.3615846,-2.3749418,0.4681358,1.4176003,0.7485745,0.039999627,0.04,-7.1797237,6.444446086883545,-1.7767351,0.0,-0.0,0.0
1411.499999999045,-0.26865107,-0.74337196,-0.3615846,-2.3749418,0.4681358,1.4176003,0.7485745,0.039999627,0.04,-7.1797237,6.444446086883545,-1.7767351,0.0,-0.0,0.0
1411.5166666657117,-0.26865107,-0.74337196,-0.3615846,-2.3749418,0.4681358,1.4176003,0.7485745,0.039999627,0.04,-7.1797237,6.444446086883545,-1.7767351,0.0,-0.0,0.0
1411.5333333323783,-0.26865107,-0.74337196,-0.3615846,-2.3749418,0.4681358,1.4176003,0.7485745,0.039999627,0.04,-7.1797237,6.444446086883545,-1.7767351,0.0,-0.0,0.0
1411.549999999045,-0.26865107,-0.74337196,-0.3615846,-2.3749418,0.4681358,1.4176003,0.7485745,0.039999627,0.04,-7.1797237,6.444446086883545,-1.7767351,0.0,-0.0,0.0
1411.5666666657116,-0.26865107,-0.74337196,-0.3615846,-2.3749418,0.4681358,1.4176003,0.7485745,0.039999627,0.04,-7.1797237,6.444446086883545,-1.7767351,0.0,-0.0,0.0
1411.5833333323783,-0.26865107,-0.74337196,-0.3615846,-2.3749418,0.4681358,1.4176003,0.7485745,0.039999627,0.04,-7.1797237,6.444446086883545,-1.7767351,0.0,-0.0,0.0
1411.599999999045,-0.26865107,-0.74337196,-0.3615846,-2.3749418,0.4681358,1.4176003,0.7485745,0.039999627,0.04,-7.1797237,6.444446086883545,-1.7767351,0.0,-0.0,0.0
1411.6166666657116,-0.26865107,-0.74337196,-0.3615846,-2.3749418,0.4681358,1.4176003,0.7485745,0.039999627,0.04,-7.1797237,6.444446086883545,-1.7767351,0.0,-0.0,0.0
1411.6333333323782,-0.26865107,-0.74337196,-0.3615846,-2.3749418,0.4681358,1.4176003,0.7485745,0.039999627,0.04,-7.1797237,6.444446086883545,-1.7767351,0.0,-0.0,0.0
1411.649999999045,-0.26865107,-0.74337196,-0.3615846,-2.3749418,0.4681358,1.4176003,0.7485745,0.039999627,0.04,-7.1797237,6.444446086883545,-1.7767351,0.0,-0.0,0.0
1411.6666666657115,-0.26865107,-0.74337196,-0.3615846,-2.3749418,0.4681358,1.4176003,0.7485745,0.039999627,0.04,-7.1797237,6.444446086883545,-1.7767351,0.0,-0.0,0.0
1411.6833333323782,-0.26865107,-0.74337196,-0.3615846,-2.3749418,0.4681358,1.4176003,0.7485745,0.039999627,0.04,-7.1797237,6.444446086883545,-1.7767351,0.0,-0.0,0.0
1411.6999999990448,-0.26865107,-0.74337196,-0.3615846,-2.3749418,0.4681358,1.4176003,0.7485745,0.039999627,0.04,-7.1797237,6.444446086883545,-1.7767351,0.0,-0.0,0.0
1411.7166666657115,-0.26865107,-0.74337196,-0.3615846,-2.3749418,0.4681358,1.4176003,0.7485745,0.039999627,0.04,-7.1797237,6.444446086883545,-1.7767351,0.0,-0.0,0.0
1411.7333333323782,-0.26865107,-0.74337196,-0.3615846,-2.3749418,0.4681358,1.4176003,0.7485745,0.039999627,0.04,-7.1797237,6.444446086883545,-1.7767351,0.0,-0.0,0.0
1411.7499999990448,-0.26865107,-0.74337196,-0.3615846,-2.3749418,0.4681358,1.4176003,0.7485745,0.039999627,0.04,-7.1797237,6.444446086883545,-1.7767351,0.0,-0.0,0.0
1411.7666666657115,-0.26865107,-0.74337196,-0.3615846,-2.3749418,0.4681358,1.4176003,0.7485745,0.039999627,0.04,-7.1797237,6.444446086883545,-1.7767351,0.0,-0.0,0.0
1411.783333332378,-0.26865107,-0.74337196,-0.3615846,-2.3749418,0.4681358,1.4176003,0.7485745,0.039999627,0.04,-7.1797237,6.444446086883545,-1.7767351,0.0,-0.0,0.0
1411.7999999990448,-0.26865107,-0.74337196,-0.3615846,-2.3749418,0.4681358,1.4176003,0.7485745,0.039999627,0.04,-7.1797237,6.444446086883545,-1.7767351,0.0,-0.0,0.0
1411.8166666657114,-0.26865107,-0.74337196,-0.3615846,-2.3749418,0.4681358,1.4176003,0.7485745,0.039999627,0.04,-7.1797237,6.444446086883545,-1.7767351,0.0,-0.0,0.0
1411.833333332378,-0.26865107,-0.74337196,-0.3615846,-2.3749418,0.4681358,1.4176003,0.7485745,0.039999627,0.04,-7.1797237,6.444446086883545,-1.7767351,0.0,-0.0,0.0
1411.8499999990447,-0.26865107,-0.74337196,-0.3615846,-2.3749418,0.4681358,1.4176003,0.7485745,0.039999627,0.04,-7.1797237,6.444446086883545,-1.7767351,0.0,-0.0,0.0
1411.8666666657114,-0.26865107,-0.74337196,-0.3615846,-2.3749418,0.4681358,1.4176003,0.7485745,0.039999627,0.04,-7.1797237,6.444446086883545,-1.7767351,0.0,-0.0,0.0
1411.883333332378,-0.26865107,-0.74337196,-0.3615846,-2.3749418,0.4681358,1.4176003,0.7485745,0.039999627,0.04,-7.1797237,6.444446086883545,-1.7767351,0.0,-0.0,0.0
1411.8999999990447,-0.26865107,-0.74337196,-0.3615846,-2.3749418,0.4681358,1.4176003,0.7485745,0.039999627,0.04,-7.1797237,6.444446086883545,-1.7767351,0.0,-0.0,0.0
1411.9166666657113,-0.26865107,-0.74337196,-0.3615846,-2.3749418,0.4681358,1.4176003,0.7485745,0.039999627,0.04,-7.1797237,6.444446086883545,-1.7767351,0.0,-0.0,0.0
1411.933333332378,-0.26865107,-0.74337196,-0.3615846,-2.3749418,0.4681358,1.4176003,0.7485745,0.039999627,0.04,-7.1797237,6.444446086883545,-1.7767351,0.0,-0.0,0.0
1411.9499999990446,-0.26865107,-0.74337196,-0.3615846,-2.3749418,0.4681358,1.4176003,0.7485745,0.039999627,0.04,-7.1797237,6.444446086883545,-1.7767351,0.0,-0.0,0.0
1411.9666666657113,-0.26865107,-0.74337196,-0.3615846,-2.3749418,0.4681358,1.4176003,0.7485745,0.039999627,0.04,-7.1797237,6.444446086883545,-1.7767351,0.0,-0.0,0.0
1411.983333332378,-0.26865107,-0.74337196,-0.3615846,-2.3749418,0.4681358,1.4176003,0.7485745,0.039999627,0.04,-7.1797237,6.444446086883545,-1.7767351,0.0,-0.0,0.0
1411.9999999990446,-0.26865107,-0.74337196,-0.3615846,-2.3749418,0.4681358,1.4176003,0.7485745,0.039999627,0.04,-7.1797237,6.444446086883545,-1.7767351,0.0,-0.0,0.0
1412.0166666657112,-0.26865107,-0.74337196,-0.3615846,-2.3749418,0.4681358,1.4176003,0.7485745,0.039999627,0.04,-7.1797237,6.444446086883545,-1.7767351,0.0,-0.0,0.0
1412.0333333323779,-0.26865107,-0.74337196,-0.3615846,-2.3749418,0.4681358,1.4176003,0.7485745,0.039999627,0.04,-7.1797237,6.444446086883545,-1.7767351,0.0,-0.0,0.0
1412.0499999990445,-0.26865107,-0.74337196,-0.3615846,-2.3749418,0.4681358,1.4176003,0.7485745,0.039999627,0.04,-7.1797237,6.444446086883545,-1.7767351,0.0,-0.0,0.0
1412.0666666657112,-0.26865107,-0.74337196,-0.3615846,-2.3749418,0.4681358,1.4176003,0.7485745,0.039999627,0.04,-7.1797237,6.444446086883545,-1.7767351,0.0,-0.0,0.0
1412.0833333323778,-0.26865107,-0.74337196,-0.3615846,-2.3749418,0.4681358,1.4176003,0.7485745,0.039999627,0.04,-7.1797237,6.444446086883545,-1.7767351,0.0,-0.0,0.0
1412.0999999990445,-0.26865107,-0.74337196,-0.3615846,-2.3749418,0.4681358,1.4176003,0.7485745,0.039999627,0.04,-7.1797237,6.444446086883545,-1.7767351,0.0,-0.0,0.0
1412.1166666657111,-0.26865107,-0.74337196,-0.3615846,-2.3749418,0.4681358,1.4176003,0.7485745,0.039999627,0.04,-7.1797237,6.444446086883545,-1.7767351,0.0,-0.0,0.0
1412.1333333323778,-0.26865107,-0.74337196,-0.3615846,-2.3749418,0.4681358,1.4176003,0.7485745,0.039999627,0.04,-7.1797237,6.444446086883545,-1.7767351,0.0,-0.0,0.0
1412.1499999990444,-0.26865107,-0.74337196,-0.3615846,-2.3749418,0.4681358,1.4176003,0.7485745,0.039999627,0.04,-7.1797237,6.444446086883545,-1.7767351,0.0,-0.0,0.0
1412.166666665711,-0.26865107,-0.74337196,-0.3615846,-2.3749418,0.4681358,1.4176003,0.7485745,0.039999627,0.04,-7.1797237,6.444446086883545,-1.7767351,0.0,-0.0,0.0
1412.1833333323777,-0.26865107,-0.74337196,-0.3615846,-2.3749418,0.4681358,1.4176003,0.7485745,0.039999627,0.04,-7.1797237,6.444446086883545,-1.7767351,0.0,-0.0,0.0
1412.1999999990444,-0.26865107,-0.74337196,-0.3615846,-2.3749418,0.4681358,1.4176003,0.7485745,0.039999627,0.04,-7.1797237,6.444446086883545,-1.7767351,0.0,-0.0,0.0
1412.216666665711,-0.26865107,-0.74337196,-0.3615846,-2.3749418,0.4681358,1.4176003,0.7485745,0.039999627,0.04,-7.1797237,6.444446086883545,-1.7767351,0.0,-0.0,0.0
1412.2333333323777,-0.26865107,-0.74337196,-0.3615846,-2.3749418,0.4681358,1.4176003,0.7485745,0.039999627,0.04,-7.1797237,6.444446086883545,-1.7767351,0.0,-0.0,0.0
1412.2499999990443,-0.26865107,-0.74337196,-0.3615846,-2.3749418,0.4681358,1.4176003,0.7485745,0.039999627,0.04,-7.1797237,6.444446086883545,-1.7767351,0.0,-0.0,0.0
1412.266666665711,-0.26865107,-0.74337196,-0.3615846,-2.3749418,0.4681358,1.4176003,0.7485745,0.039999627,0.04,-7.1797237,6.444446086883545,-1.7767351,0.0,-0.0,0.0
1412.2833333323777,-0.26865107,-0.74337196,-0.3615846,-2.3749418,0.4681358,1.4176003,0.7485745,0.039999627,0.04,-7.1797237,6.444446086883545,-1.7767351,0.0,-0.0,0.0
1412.2999999990443,-0.26865107,-0.74337196,-0.3615846,-2.3749418,0.4681358,1.4176003,0.7485745,0.039999627,0.04,-7.1797237,6.444446086883545,-1.7767351,0.0,-0.0,0.0
1412.316666665711,-0.26865107,-0.74337196,-0.3615846,-2.3749418,0.4681358,1.4176003,0.7485745,0.039999627,0.04,-7.1797237,6.444446086883545,-1.7767351,0.0,-0.0,0.0
1412.3333333323776,-0.26865107,-0.74337196,-0.3615846,-2.3749418,0.4681358,1.4176003,0.7485745,0.039999627,0.04,-7.1797237,6.444446086883545,-1.7767351,0.0,-0.0,0.0
1412.3499999990443,-0.26865107,-0.74337196,-0.3615846,-2.3749418,0.4681358,1.4176003,0.7485745,0.039999627,0.04,-7.1797237,6.444446086883545,-1.7767351,0.0,-0.0,0.0
1412.366666665711,-0.26865107,-0.74337196,-0.3615846,-2.3749418,0.4681358,1.4176003,0.7485745,0.039999627,0.04,-7.1797237,6.444446086883545,-1.7767351,0.0,-0.0,0.0
1412.3833333323776,-0.26865107,-0.74337196,-0.3615846,-2.3749418,0.4681358,1.4176003,0.7485745,0.039999627,0.04,-7.1797237,6.444446086883545,-1.7767351,0.0,-0.0,0.0
1412.3999999990442,-0.26865107,-0.74337196,-0.3615846,-2.3749418,0.4681358,1.4176003,0.7485745,0.039999627,0.04,-7.1797237,6.444446086883545,-1.7767351,0.0,-0.0,0.0
