rsonawane2002/My_IMU/logs_2/traj_355/imu_400hz_355.csv
time,j1,j2,j3,j4,j5,j6,j7,gripper1,gripper2,imu_ax,imu_ay,imu_az,imu_gx,imu_gy,imu_gz
0.0,0.00016700293,-0.785875,4.0107683e-05,-2.3551247,9.29385e-05,1.570997,0.786,0.04,0.04,-9.513508,0.0544675663113594,0.119553894,1.8232284e-07,-0.0011641276068985,5.3043365e-08
0.0025,0.000167001979,-0.785857774,4.0109278100000004e-05,-2.35513919,9.2942469e-05,1.570996565,0.786,0.04,0.04,-9.561629200000043,0.04639201950048291,0.10298952014998493,1.9927674600001543e-07,-0.0013252009288408865,9.222424025003565e-08
0.005,0.000167001028,-0.785840548,4.0110873200000005e-05,-2.3551536800000004,9.294643800000001e-05,1.57099613,0.786,0.04,0.04,-9.609750400000086,0.03831647268960643,0.08642514629996986,2.1623065200003087e-07,-0.001486274250783273,1.3140511550007128e-07
0.0075,0.000167000077,-0.7858233219999999,4.011246830000001e-05,-2.3551681700000002,9.295040700000001e-05,1.570995695,0.786,0.04,0.04,-9.657871600000131,0.030240925878729945,0.0698607724499548,2.3318455800004626e-07,-0.0016473475727256594,1.705859907501069e-07
0.01,0.000166999126,-0.785806096,4.011406340000001e-05,-2.35518266,9.295437600000002e-05,1.5709952600000001,0.786,0.04,0.04,-9.705992800000175,0.022165379067853458,0.05329639859993973,2.501384640000617e-07,-0.001808420894668046,2.0976686600014256e-07
0.0125,0.000166998175,-0.78578887,4.011565850000001e-05,-2.3551971500000004,9.295834500000002e-05,1.570994825,0.786,0.04,0.04,-9.754114000000218,0.014089832256976971,0.03673202474992465,2.670923700000771e-07,-0.0019694942166104323,2.489477412501782e-07
0.015,0.000166997224,-0.785771644,4.0117253600000004e-05,-2.3552116400000003,9.296231400000001e-05,1.57099439,0.786,0.04,0.04,-9.802235200000261,0.006014285446100491,0.0201676508999096,2.8404627600009253e-07,-0.002130567538552819,2.881286165002138e-07
0.0175,0.00016699309899999995,-0.7857548645,4.0120100500000034e-05,-2.3552257350000003,9.296301199999996e-05,1.57099396,0.786,0.04,0.04,-9.834214849999997,0.0006279480410738396,0.009047928349998534,4.94866321003811e-07,-0.0022871479508475945,1.0249018999595514e-07
0.02,0.00016698262599999995,-0.7857389779999999,4.012545100000004e-05,-2.3552390400000003,9.295716799999995e-05,1.5709935400000001,0.786,0.04,0.04,-9.833911399999998,0.0006200294476001024,0.008817508399998324,1.0934186440043553e-06,-0.002434742543847394,-5.327868400046224e-07
0.0225,0.00016697215299999992,-0.7857230914999999,4.013080150000004e-05,-2.3552523450000002,9.295132399999995e-05,1.57099312,0.786,0.04,0.04,-9.833607949999998,0.0006121108541263651,0.008587088449998115,1.6919709670048993e-06,-0.002582337136847193,-1.1680638700051996e-06
0.025,0.00016696167999999991,-0.7857072049999999,4.0136152000000046e-05,-2.35526565,9.294547999999995e-05,1.5709927,0.786,0.04,0.04,-9.833304499999997,0.000604192260652628,0.008356668499997904,2.290523290005444e-06,-0.0027299317298469924,-1.803340900005778e-06
0.0275,0.0001669512069999999,-0.7856913184999998,4.014150250000005e-05,-2.355278955,9.293963599999994e-05,1.57099228,0.786,0.04,0.04,-9.833001049999996,0.0005962736671788907,0.008126248549997694,2.889075613005988e-06,-0.0028775263228467914,-2.4386179300063556e-06
0.03,0.00016694073399999988,-0.7856754319999998,4.014685300000006e-05,-2.35529226,9.293379199999994e-05,1.57099186,0.786,0.04,0.04,-9.832697599999996,0.0005883550737051536,0.007895828599997485,3.4876279360065323e-06,-0.003025120915846591,-3.073894960006933e-06
0.0325,0.00016693026099999988,-0.7856595454999998,4.0152203500000066e-05,-2.355305565,9.292794799999993e-05,1.57099144,0.786,0.04,0.04,-9.832394149999997,0.0005804364802314163,0.007665408649997275,4.086180259007077e-06,-0.00317271550884639,-3.709171990007511e-06
0.035,0.00016690299899999955,-0.7856445099999998,4.016422900000019e-05,-2.3553181,9.290625799999961e-05,1.57099101,0.786,0.04,0.0399999995,-9.832116199999996,0.000568793437559848,0.007447588199997307,5.340391530020146e-06,-0.003311761002989286,-5.0376879000213315e-06
0.0375,0.0001668673424999995,-0.7856298999999998,4.017959200000021e-05,-2.35533025,9.287664499999959e-05,1.570990575,0.786,0.04,0.03999999875,-9.831850999999997,0.0005552881702894657,0.0072360674999971146,6.922432275021582e-06,-0.0034465319477039636,-6.712823250022852e-06
0.04,0.0001668316859999995,-0.7856152899999997,4.0194955000000224e-05,-2.3553424,9.284703199999956e-05,1.57099014,0.786,0.04,0.039999998,-9.831585799999996,0.0005417829030190834,0.007024546799996922,8.504473020023021e-06,-0.003581302892418641,-8.387958600024377e-06
0.0425,0.00016679602949999946,-0.7856006799999997,4.021031800000024e-05,-2.35535455,9.281741899999953e-05,1.5709897050000001,0.786,0.04,0.03999999725,-9.831320599999996,0.0005282776357487011,0.0068130260999967295,1.0086513765024462e-05,-0.0037160738371333187,-1.0063093950025902e-05
0.045,0.0001667603729999994,-0.7855860699999997,4.0225681000000256e-05,-2.3553667000000003,9.278780599999951e-05,1.57098927,0.786,0.04,0.0399999965,-9.831055399999995,0.000514772368478319,0.006601505399996537,1.1668554510025898e-05,-0.003850844781847996,-1.1738229300027422e-05
0.0475,0.0001667247164999994,-0.7855714599999998,4.024104400000027e-05,-2.35537885,9.275819299999948e-05,1.570988835,0.786,0.04,0.03999999575,-9.830790199999996,0.0005012671012079367,0.006389984699996345,1.3250595255027339e-05,-0.003985615726562673,-1.3413364650028948e-05
0.05,0.0001666890599999985,-0.7855568499999998,4.0256407000000626e-05,-2.355391,9.272857999999856e-05,1.5709884,0.786,0.04,0.039999995,-9.830524999999994,0.0004877618339374017,0.006178463999996702,1.483263600005405e-05,-0.004120386671277115,-1.5088500000067054e-05
0.0525,0.00016660580399999842,-0.7855433949999997,4.029079525000066e-05,-2.3554021300000003,9.264950149999848e-05,1.57098798,0.786,0.04,0.03999999575,-9.830218549999994,0.0004658631165507368,0.0059971846499965375,1.7803976550056747e-05,-0.004242162592711381,-1.87746726000704e-05
0.055,0.00016652254799999833,-0.7855299399999998,4.032518350000069e-05,-2.35541326,9.257042299999841e-05,1.57098756,0.786,0.04,0.0399999965,-9.829912099999994,0.00044396439916407184,0.005815905299996373,2.0775317100059454e-05,-0.0043639385141456466,-2.2460845200073756e-05
0.0575,0.00016643929199999826,-0.7855164849999997,4.035957175000072e-05,-2.35542439,9.249134449999834e-05,1.57098714,0.786,0.04,0.03999999725,-9.829605649999992,0.0004220656817774069,0.0056346259499962074,2.374665765006216e-05,-0.0044857144355799124,-2.6147017800077112e-05
0.06,0.0001663560359999982,-0.7855030299999997,4.039396000000075e-05,-2.3554355200000003,9.241226599999827e-05,1.57098672,0.786,0.04,0.039999998,-9.829299199999992,0.00040016696439074205,0.005453346599996043,2.6717998200064857e-05,-0.0046074903570141774,-2.9833190400080458e-05
0.0625,0.0001662727799999981,-0.7854895749999997,4.0428348250000783e-05,-2.35544665,9.233318749999819e-05,1.5709863,0.786,0.04,0.03999999875,-9.828992749999992,0.0003782682470040771,0.005272067249995878,2.968933875006756e-05,-0.004729266278448444,-3.351936300008381e-05
0.065,0.00016618952399999803,-0.7854761199999997,4.046273650000081e-05,-2.35545778,9.225410899999813e-05,1.57098588,0.786,0.04,0.0399999995,-9.828686299999992,0.00035636952961741214,0.005090787899995713,3.266067930007027e-05,-0.00485104219988271,-3.720553560008717e-05
0.0675,0.00016608085699999607,-0.7854630194999997,4.050724790000159e-05,-2.35546857,9.215049999999624e-05,1.570985455,0.786,0.04,0.03999999975,-9.828397249999993,0.00033387129951673803,0.004909726344995564,3.624846485011839e-05,-0.004968632129023612,-4.142586730012988e-05
0.07,0.00016592136799999593,-0.7854506279999997,4.057200560000165e-05,-2.35547868,9.199782999999611e-05,1.57098502,0.786,0.04,0.039999999,-9.828142999999994,0.00031017404398817647,0.0047291003799954,4.106914040012278e-05,-0.005077850073578701,-4.671451720013469e-05
0.0725,0.00016576187899999578,-0.7854382364999997,4.063676330000171e-05,-2.3554887900000003,9.184515999999597e-05,1.570984585,0.786,0.04,0.03999999825,-9.827888749999993,0.000286476788459615,0.004548474414995236,4.588981595012713e-05,-0.005187068018133791,-5.200316710013948e-05
0.075,0.00016560238999999564,-0.7854258449999997,4.070152100000177e-05,-2.3554989,9.169248999999584e-05,1.57098415,0.786,0.04,0.0399999975,-9.827634499999993,0.00026277953293105344,0.004367848449995072,5.071049150013152e-05,-0.00529628596268888,-5.729181700014429e-05
0.0775,0.0001654429009999955,-0.7854134534999997,4.076627870000183e-05,-2.3555090100000005,9.153981999999569e-05,1.5709837150000001,0.786,0.04,0.03999999675,-9.827380249999992,0.00023908227740249187,0.004187222484994908,5.553116705013591e-05,-0.00540550390724397,-6.25804669001491e-05
0.08,0.00016528341199999535,-0.7854010619999997,4.0831036400001885e-05,-2.3555191200000003,9.138714999999555e-05,1.57098328,0.786,0.04,0.039999996,-9.827125999999993,0.0002153850218739303,0.004006596519994743,6.03518426001403e-05,-0.005514721851799059,-6.786911680015392e-05
0.0825,0.0001651239229999952,-0.7853886704999996,4.089579410000194e-05,-2.3555292300000006,9.123447999999541e-05,1.570982845,0.786,0.04,0.03999999525,-9.826871749999992,0.00019168776634536874,0.0038259705549945787,6.517251815014468e-05,-0.005623939796354148,-7.315776670015873e-05
0.085,0.00016489093099999165,-0.7853769159999997,4.0989884300003364e-05,-2.3555391100000005,9.100788859999185e-05,1.5709824000000001,0.786,0.04,0.0399999955,-9.82659329999999,0.00016110536816883904,0.0036622851599952,7.148816500021842e-05,-0.005724684474992725,-8.035194300025194e-05
0.08750000000000001,0.0001646211874999914,-0.7853654799999996,4.109864075000346e-05,-2.355548875,9.07443364999916e-05,1.57098195,0.786,0.04,0.03999999625,-9.826302749999991,0.00012708039866879495,0.0035070700499950586,7.855129750022485e-05,-0.0058211925206736225,-8.849888250025936e-05
0.09,0.00016435144399999115,-0.7853540439999996,4.120739720000356e-05,-2.3555586400000004,9.048078439999137e-05,1.5709815,0.786,0.04,0.039999997,-9.82601219999999,9.305542916875108e-05,0.0033518549399949183,8.561443000023125e-05,-0.00591770056635452,-9.664582200026673e-05
0.0925,0.00016408170049999092,-0.7853426079999996,4.131615365000366e-05,-2.3555684050000005,9.021723229999113e-05,1.57098105,0.786,0.04,0.03999999775,-9.82572164999999,5.9030459668707e-05,0.003196639829994777,9.267756250023768e-05,-0.006014208612035418,-0.00010479276150027414
0.095,0.00016381195699999068,-0.7853311719999996,4.1424910100003764e-05,-2.3555781700000002,8.99536801999909e-05,1.5709806000000002,0.786,0.04,0.0399999985,-9.825431099999989,2.5005490168662938e-05,0.003041424719994636,9.974069500024411e-05,-0.006110716657716316,-0.00011293970100028156
0.0975,0.00016354221349999042,-0.7853197359999996,4.153366655000386e-05,-2.3555879350000004,8.969012809999065e-05,1.57098015,0.786,0.04,0.03999999925,-9.82514054999999,-9.019479331381149e-06,0.0028862096099944944,0.00010680382750025055,-0.006207224703397214,-0.00012108664050028897
0.1,0.00016327246999998476,-0.7853082999999996,4.164242300000612e-05,-2.3555977000000006,8.942657599998505e-05,1.5709797,0.786,0.04,0.04,-9.824849999999994,-4.304444883157056e-05,0.002730994499994162,0.00011386696000035046,-0.006303732749077761,-0.0001292335800003957
0.10250000000000001,0.00016285344049997866,-0.7852977549999994,4.181067455000857e-05,-2.3556065050000004,8.901572059997907e-05,1.57097925,0.7860002850000001,0.04,0.04,-9.82467974999999,-8.106427267387076e-05,0.002570529674991827,0.00012350014450049067,-0.006390614947308461,-0.00014011002900055398
0.105,0.00016243441099997256,-0.7852872099999992,4.197892610001102e-05,-2.3556153100000006,8.860486519997309e-05,1.5709788,0.78600057,0.04,0.04,-9.824509499999989,-0.00011908409651617075,0.0024100648499894924,0.0001331333290006308,-0.006477497145539159,-0.0001509864780007122
0.1075,0.00016201538149996646,-0.7852766649999992,4.214717765001347e-05,-2.355624115000001,8.819400979996712e-05,1.5709783499999999,0.786000855,0.04,0.04,-9.824339249999985,-0.00015710392035847093,0.0022496000249871573,0.000142766513500771,-0.0065643793437698585,-0.0001618629270008705
0.11,0.00016159635199996036,-0.785266119999999,4.231542920001592e-05,-2.355632920000001,8.778315439996114e-05,1.5709779,0.7860011400000001,0.04,0.04,-9.824168999999983,-0.00019512374420077114,0.002089135199984822,0.00015239969800091117,-0.0066512615420005585,-0.00017273937600102877
0.1125,0.00016117732249995426,-0.7852555749999989,4.248368075001836e-05,-2.355641725000001,8.737229899995516e-05,1.57097745,0.786001425,0.04,0.04,-9.823998749999982,-0.00023314356804307135,0.0019286703749824869,0.00016203288250105137,-0.006738143740231258,-0.00018361582500118706
0.115,0.00016075829299994816,-0.7852450299999987,4.265193230002081e-05,-2.355650530000001,8.696144359994918e-05,1.5709769999999998,0.7860017100000001,0.04,0.04,-9.823828499999978,-0.00027116339188537153,0.0017682055499801514,0.00017166606700119155,-0.006825025938461957,-0.00019449227400134537
0.11750000000000001,0.000160275041499921,-0.7852347549999987,4.284577950003165e-05,-2.355659235000001,8.64872667999224e-05,1.5709765399999998,0.7860019950000001,0.04,0.04,-9.823622499999964,-0.00031070815167006115,0.0016151828949821593,0.00018181937050144566,-0.006907734135175339,-0.00020642547450181416
0.12,0.0001596633459999288,-0.7852250199999988,4.309081800002853e-05,-2.355667740000001,8.588644719993005e-05,1.5709760599999998,0.78600228,0.04,0.04,-9.823344999999968,-0.00035330278333769863,0.0014770445799839188,0.00019301291200130306,-0.0069820943288590965,-0.00022047217800163523
0.1225,0.00015905165049993658,-0.7852152849999989,4.333585650002541e-05,-2.355676245000001,8.528562759993771e-05,1.5709755799999998,0.7860025650000001,0.04,0.04,-9.823067499999972,-0.0003958974150053363,0.0013389062649856777,0.00020420645350116055,-0.007056454522542855,-0.00023451888150145638
0.125,0.00015843995499994435,-0.7852055499999991,4.358089500002229e-05,-2.355684750000001,8.468480799994536e-05,1.5709750999999998,0.78600285,0.04,0.04,-9.822789999999975,-0.00043849204667297393,0.0012007679499874365,0.00021539999500101804,-0.007130814716226613,-0.0002485655850012775
0.1275,0.00015782825949995215,-0.7851958149999992,4.382593350001917e-05,-2.3556932550000007,8.4083988399953e-05,1.5709746199999999,0.7860031350000001,0.04,0.04,-9.822512499999979,-0.00048108667834061164,0.0010626296349891952,0.0002265935365008755,-0.007205174909910371,-0.00026261228850109873
0.13,0.00015721656399995994,-0.7851860799999993,4.407097200001605e-05,-2.3557017600000005,8.348316879996065e-05,1.57097414,0.78600342,0.04,0.04,-9.822234999999983,-0.0005236813100082493,0.000924491319990954,0.00023778707800073298,-0.007279535103594129,-0.0002766589920009199
0.1325,0.00015660486849996774,-0.7851763449999994,4.431601050001293e-05,-2.3557102650000004,8.288234919996831e-05,1.57097366,0.786003705,0.04,0.04,-9.821957499999986,-0.000566275941675887,0.0007863530049927128,0.00024898061950059047,-0.007353895297277887,-0.000290705695500741
0.135,0.00015583318799995818,-0.7851671229999996,4.462478420001674e-05,-2.3557181900000006,8.212303579995881e-05,1.57097308,0.7860039940000001,0.0399999995,0.04,-9.821751099999993,-0.0006149756431139019,0.0006455078559930158,0.00026233750000070915,-0.007421797188002037,-0.00030713770200086567
0.1375,0.0001549815149999574,-0.7851581574999995,4.4965425500017044e-05,-2.3557258250000004,8.128447549995806e-05,1.57097245,0.7860042850000001,0.03999999875,0.04,-9.821580249999991,-0.000666727879436439,0.0005033092899928863,0.0002767760500007223,-0.0074864699272470855,-0.0003247623600008817
0.14,0.00015412984199995663,-0.7851491919999996,4.530606680001736e-05,-2.3557334600000006,8.044591519995729e-05,1.57097182,0.7860045760000001,0.039999998,0.04,-9.821409399999991,-0.000718480115758976,0.00036111072399275685,0.00029121460000073544,-0.007551142666492134,-0.00034238701800089774
0.14250000000000002,0.00015327816899995584,-0.7851402264999996,4.5646708100017664e-05,-2.3557410950000004,7.960735489995652e-05,1.57097119,0.786004867,0.03999999725,0.04,-9.821238549999991,-0.0007702323520815132,0.00021891215799262737,0.0003056531500007486,-0.007615815405737183,-0.0003600116760009138
0.145,0.00015242649599995508,-0.7851312609999995,4.598734940001797e-05,-2.3557487300000006,7.876879459995577e-05,1.57097056,0.786005158,0.0399999965,0.04,-9.821067699999992,-0.0008219845884040498,7.671359199249946e-05,0.00032009170000076156,-0.007680488144982231,-0.00037763633400092966
0.1475,0.00015157482299995431,-0.7851222954999996,4.6327990700018284e-05,-2.3557563650000004,7.7930234299955e-05,1.57096993,0.786005449,0.03999999575,0.04,-9.820896849999992,-0.0008737368247265869,-6.548497400762996e-05,0.00033453025000077473,-0.007745160884227281,-0.00039526099200094567
0.15,0.00015072314999993767,-0.7851133299999996,4.6668632000024906e-05,-2.3557640000000006,7.709167399993861e-05,1.5709693,0.78600574,0.039999995,0.04,-9.820725999999985,-0.0009254890610491541,-0.0002076835400066181,0.00034896880000097953,-0.007809833623471646,-0.00041288565000115695
0.1525,0.00014958071399993664,-0.7851050154999996,4.7125050650025325e-05,-2.355771500000001,7.596650989993758e-05,1.57096831,0.786006025,0.039999994250000004,0.03999999925,-9.820445799999986,-0.0009777929488364767,-0.0003289663940067285,0.0003669197860009959,-0.00786199253052756,-0.00043408836750117625
0.155,0.00014843827799993558,-0.7850967009999995,4.758146930002574e-05,-2.3557790000000005,7.484134579993656e-05,1.5709673199999998,0.78600631,0.039999993500000004,0.0399999985,-9.820165599999985,-0.0010300968366237992,-0.0004502492480068389,0.0003848707720010122,-0.00791415143758347,-0.00045529108500119556
0.1575,0.00014729584199993454,-0.7850883864999996,4.803788795002616e-05,-2.3557865000000007,7.371618169993553e-05,1.5709663299999999,0.786006595,0.039999992750000005,0.03999999775,-9.819885399999984,-0.0010824007244111219,-0.0005715321020069494,0.0004028217580010286,-0.007966310344639384,-0.0004764938025012149
0.16,0.0001461534059999335,-0.7850800719999995,4.849430660002657e-05,-2.3557940000000004,7.259101759993451e-05,1.5709653399999999,0.7860068800000001,0.039999992,0.039999997,-9.819605199999984,-0.0011347046121984446,-0.0006928149560070597,0.00042077274400104494,-0.008018469251695295,-0.0004976965200012342
0.1625,0.00014501096999993245,-0.7850717574999995,4.895072525002698e-05,-2.3558015000000005,7.146585349993348e-05,1.57096435,0.786007165,0.03999999125,0.03999999625,-9.819324999999983,-0.001187008499985767,-0.0008140978100071701,0.00043872373000106125,-0.008070628158751208,-0.0005188992375012534
0.165,0.00014386853399993142,-0.7850634429999995,4.94071439000274e-05,-2.3558090000000007,7.034068939993247e-05,1.57096336,0.78600745,0.0399999905,0.0399999955,-9.819044799999984,-0.0012393123877730897,-0.0009353806640072806,0.0004566747160010776,-0.00812278706580712,-0.0005401019550012728
0.1675,0.00014261124099990938,-0.7850553299999995,4.990929485003618e-05,-2.3558163100000007,6.910234214991074e-05,1.5709623449999999,0.786007831,0.0399999899,0.03999999465,-9.818812149999992,-0.001295214332643925,-0.001057593210007561,0.0004758666630013208,-0.008172502135860661,-0.0005625701850015234
0.17,0.00014112423399990803,-0.7850476199999995,5.0502910400036715e-05,-2.3558232400000003,6.76376285999094e-05,1.57096128,0.786008404,0.0399999896,0.039999993600000006,-9.818674599999992,-0.0013583123916798227,-0.001181665140007674,0.0004975405320013405,-0.008217329531910792,-0.0005875694400015462
0.17250000000000001,0.00013963722699990668,-0.7850399099999995,5.109652595003726e-05,-2.3558301700000004,6.617291504990808e-05,1.570960215,0.786008977,0.0399999893,0.03999999255,-9.81853704999999,-0.00142141045071572,-0.0013057370700077869,0.0005192144010013603,-0.008262156927960923,-0.000612568695001569
0.17500000000000002,0.0001381502199999053,-0.7850321999999995,5.1690141500037796e-05,-2.3558371000000005,6.470820149990674e-05,1.57095915,0.7860095500000001,0.039999989,0.0399999915,-9.818399499999991,-0.0014845085097516175,-0.0014298090000078997,0.00054088827000138,-0.008306984324011054,-0.0006375679500015917
0.1775,0.00013666321299990399,-0.7850244899999995,5.2283757050038334e-05,-2.3558440300000005,6.324348794990542e-05,1.570958085,0.7860101230000001,0.0399999887,0.03999999045,-9.818261949999991,-0.0015476065687875142,-0.0015538809300080112,0.0005625621390013995,-0.008351811720061185,-0.0006625672050016143
0.18,0.00013517620599990264,-0.7850167799999995,5.287737260003887e-05,-2.3558509600000006,6.17787743999041e-05,1.5709570199999998,0.7860106960000001,0.0399999884,0.0399999894,-9.818124399999991,-0.0016107046278234119,-0.0016779528600081243,0.0005842360080014193,-0.008396639116111316,-0.000687566460001637
0.1825,0.0001336891989999013,-0.7850090699999995,5.347098815003941e-05,-2.3558578900000002,6.031406084990276e-05,1.5709559549999998,0.7860112690000001,0.0399999881,0.03999998835,-9.81798684999999,-0.0016738026868593093,-0.0018020247900082374,0.000605909877001439,-0.008441466512161445,-0.0007125657150016597
0.185,0.00013193482399987295,-0.7850017299999995,5.41710460000507e-05,-2.3558645400000002,5.858582189987482e-05,1.5709545699999998,0.786011844,0.0399999876,0.0399999876,-9.817782199999984,-0.001739598007411489,-0.0019236496500081033,0.0006294272750016448,-0.00847848905250649,-0.0007403974900019684
0.1875,0.0001300467649998712,-0.7849945749999996,5.4924325000051385e-05,-2.35587105,5.672582024987313e-05,1.570953025,0.78601242,0.039999987,0.039999987,-9.817543999999984,-0.001806741958721405,-0.002044050975008213,0.0006538664375016671,-0.00851160916500016,-0.0007696455250019951
0.19,0.0001281587059998695,-0.7849874199999995,5.567760400005207e-05,-2.3558775600000006,5.486581859987143e-05,1.57095148,0.7860129960000001,0.0399999864,0.0399999864,-9.817305799999984,-0.0018738859100313212,-0.0021644523000083223,0.0006783056000016893,-0.00854472927749383,-0.0007988935600020217
0.1925,0.00012627064699986777,-0.7849802649999995,5.6430883000052755e-05,-2.3558840700000006,5.3005816949869744e-05,1.5709499349999998,0.786013572,0.0399999858,0.0399999858,-9.817067599999982,-0.0019410298613412372,-0.002284853625008432,0.0007027447625017116,-0.008577849389987499,-0.0008281415950020483
0.195,0.00012438258799986606,-0.7849731099999995,5.718416200005344e-05,-2.3558905800000005,5.114581529986805e-05,1.5709483899999999,0.786014148,0.039999985200000004,0.039999985200000004,-9.816829399999982,-0.0020081738126511532,-0.002405254950008542,0.0007271839250017338,-0.008610969502481169,-0.0008573896300020749
0.1975,0.00012249452899986432,-0.7849659549999994,5.7937441000054126e-05,-2.3558970900000005,4.9285813649866354e-05,1.570946845,0.786014724,0.0399999846,0.0399999846,-9.816591199999982,-0.0020753177639610695,-0.0025256562750086515,0.000751623087501756,-0.008644089614974839,-0.0008866376650021016
0.2,0.00012060646999982915,-0.7849587999999995,5.869072000006813e-05,-2.3559036000000004,4.74258119998317e-05,1.5709452999999998,0.7860153000000001,0.039999984,0.039999984,-9.816352999999985,-0.002142461715271688,-0.002646057600008557,0.0007760622500020853,-0.008677209727467857,-0.000915885700002431
0.2025,0.00011825852899982701,-0.7849521099999994,5.962705000006898e-05,-2.3559100350000004,4.511279474982959e-05,1.5709437099999999,0.786016155,0.03999998295,0.039999982350000005,-9.816161749999985,-0.0022192550008241574,-0.002763655215008664,0.0008047213835021115,-0.008701351564379319,-0.0009492944650024614
0.20500000000000002,0.00011591058799982488,-0.7849454199999994,6.056338000006984e-05,-2.3559164700000004,4.279977749982749e-05,1.5709421199999998,0.78601701,0.0399999819,0.0399999807,-9.815970499999985,-0.0022960482863766275,-0.002881252830008771,0.0008333805170021375,-0.008725493401290781,-0.0009827032300024918
0.20750000000000002,0.00011356264699982274,-0.7849387299999995,6.149971000007069e-05,-2.3559229050000003,4.048676024982538e-05,1.57094053,0.786017865,0.03999998085,0.03999997905,-9.815779249999984,-0.0023728415719290975,-0.002998850445008878,0.0008620396505021636,-0.008749635238202243,-0.0010161119950025223
0.21,0.00011121470599982064,-0.7849320399999995,6.243604000007153e-05,-2.3559293400000003,3.81737429998233e-05,1.5709389399999998,0.7860187200000001,0.0399999798,0.039999977400000004,-9.815587999999986,-0.0024496348574815667,-0.003116448060008984,0.0008906987840021894,-0.008773777075113705,-0.0010495207600025522
0.2125,0.0001088667649998185,-0.7849253499999995,6.337237000007239e-05,-2.3559357750000003,3.5860725749821194e-05,1.57093735,0.7860195750000001,0.03999997875,0.03999997575,-9.815396749999985,-0.0025264281430340367,-0.003234045675009091,0.0009193579175022156,-0.008797918912025167,-0.0010829295250025827
0.215,0.00010651882399981636,-0.7849186599999994,6.430870000007324e-05,-2.3559422100000003,3.354770849981909e-05,1.5709357599999998,0.78602043,0.0399999777,0.0399999741,-9.815205499999985,-0.0026032214285865063,-0.0033516432900091977,0.0009480170510022416,-0.00882206074893663,-0.001116338290002613
0.2175,0.00010399731199977302,-0.7849121199999995,6.531411450009049e-05,-2.3559486250000004,3.10637155997764e-05,1.5709339949999999,0.7860213275000001,0.03999997665,0.03999997235,-9.815020949999987,-0.0026811139076079325,-0.0034699122650094644,0.0009777273680025172,-0.008842981653289146,-0.0011512250100029944
0.22,0.0001011286579997704,-0.7849058799999995,6.645769800009153e-05,-2.3559550000000007,2.8237771399773825e-05,1.5709318799999998,0.7860223100000001,0.0399999756,0.0399999704,-9.814849799999985,-0.00276120477356649,-0.003589523960009573,0.0010095400520025461,-0.008857460692526058,-0.001189067640003029
0.2225,9.82600039997678e-05,-0.7848996399999996,6.760128150009257e-05,-2.3559613750000006,2.541182719977125e-05,1.5709297649999998,0.7860232925,0.03999997455,0.03999996845,-9.814678649999985,-0.002841295639525048,-0.003709135655009682,0.0010413527360025752,-0.008871939731762972,-0.0012269102700030632
0.225,9.539134999976518e-05,-0.7848933999999995,6.874486500009361e-05,-2.3559677500000005,2.2585882999768676e-05,1.5709276499999998,0.786024275,0.0399999735,0.0399999665,-9.814507499999985,-0.002921386505483606,-0.0038287473500097906,0.0010731654200026041,-0.008886418770999886,-0.0012647529000030977
0.2275,9.252269599976258e-05,-0.7848871599999995,6.988844850009465e-05,-2.3559741250000004,1.97599387997661e-05,1.5709255349999998,0.7860252575000001,0.039999972450000004,0.03999996455,-9.814336349999985,-0.0030014773714421637,-0.0039483590450099,0.001104978104002633,-0.008900897810236797,-0.0013025955300031322
0.23,8.965404199975997e-05,-0.7848809199999995,7.10320320000957e-05,-2.3559805000000007,1.693399459976353e-05,1.5709234199999997,0.7860262400000001,0.0399999714,0.0399999626,-9.814165199999985,-0.0030815682374007217,-0.004067970740010009,0.001136790788002662,-0.008915376849473711,-0.0013404381600031668
0.2325,8.678538799975735e-05,-0.7848746799999995,7.217561550009674e-05,-2.3559868750000006,1.4108050399760955e-05,1.5709213049999997,0.7860272225000001,0.039999970350000004,0.03999996065,-9.813994049999986,-0.0031616591033592797,-0.004187582435010118,0.001168603472002691,-0.008929855888710625,-0.001378280790003201
0.23500000000000001,8.352788399970487e-05,-0.7848686799999995,7.347394300011763e-05,-2.3559932400000005,1.0899104699709267e-05,1.5709191299999998,0.7860283150000001,0.03999997,0.03999996,-9.813829199999985,-0.0032517015002748438,-0.004305060050009953,0.0012031702500030733,-0.00893898895010404,-0.0014192478200036362
0.23750000000000002,8.007595499970172e-05,-0.7848627999999995,7.484964250011888e-05,-2.3559996000000005,7.498658249706171e-06,1.570916925,0.7860294625000002,0.03999997,0.03999996,-9.813667499999985,-0.0033467196626670104,-0.004421470625010059,0.0012391140750031059,-0.008945449022576733,-0.0014617770500036749
0.24,7.662402599969863e-05,-0.7848569199999995,7.622534200012011e-05,-2.3560059600000005,4.098211799703112e-06,1.5709147199999998,0.7860306100000002,0.03999997,0.03999996,-9.813505799999986,-0.0034417378250591758,-0.0045378812000101635,0.0012750579000031382,-0.008951909095049424,-0.0015043062800037133
0.2425,7.317209699969548e-05,-0.7848510399999995,7.760104150012136e-05,-2.3560123200000005,6.977653497000167e-07,1.5709125149999998,0.7860317575000001,0.03999997,0.03999996,-9.813344099999986,-0.0035367559874513424,-0.004654291775010269,0.001311001725003171,-0.008958369167522115,-0.001546835510003752
0.245,6.972016799969234e-05,-0.7848451599999995,7.897674100012261e-05,-2.3560186800000005,-2.7026811003030803e-06,1.57091031,0.7860329050000001,0.03999997,0.03999996,-9.813182399999985,-0.0036317741498435086,-0.004770702350010376,0.0013469455500032036,-0.008964829239994806,-0.0015893647400037907
0.2475,6.626823899968919e-05,-0.7848392799999995,8.035244050012386e-05,-2.3560250400000005,-6.103127550306177e-06,1.5709081049999998,0.7860340525000001,0.03999997,0.03999996,-9.813020699999985,-0.0037267923122356753,-0.004887112925010481,0.0013828893750032364,-0.008971289312467497,-0.0016318939700038294
0.25,6.281630999962718e-05,-0.7848333999999995,8.172814000014855e-05,-2.3560314000000004,-9.503574000367243e-06,1.5709058999999999,0.7860352000000002,0.03999997,0.03999996,-9.812858999999985,-0.003821810474627913,-0.0050035235000115905,0.001418833200003643,-0.008977749384939318,-0.0016744232000042924
0.2525,5.871711359962345e-05,-0.7848278649999995,8.336143675015003e-05,-2.3560377300000006,-1.354146165037092e-05,1.5709031699999998,0.7860366250000002,0.03999997,0.03999996,-9.812696399999984,-0.003917610005018655,-0.005130967625011707,0.0014588871300036793,-0.008974667778238306,-0.0017216180000043354
0.255,5.461791719961972e-05,-0.7848223299999995,8.499473350015152e-05,-2.3560440600000008,-1.7579349300374597e-05,1.5709004399999997,0.7860380500000002,0.03999997,0.03999996,-9.812533799999985,-0.004013409535409397,-0.005258411750011823,0.001498941060003716,-0.008971586171537293,-0.0017688128000043783
0.2575,5.0518720799615985e-05,-0.7848167949999995,8.662803025015301e-05,-2.3560503900000005,-2.1617236950378274e-05,1.57089771,0.7860394750000002,0.03999997,0.03999996,-9.812371199999985,-0.00410920906580014,-0.005385855875011939,0.0015389949900037523,-0.00896850456483628,-0.0018160076000044213
0.26,4.641952439961225e-05,-0.7848112599999995,8.82613270001545e-05,-2.3560567200000007,-2.565512460038195e-05,1.5708949799999998,0.7860409000000002,0.03999997,0.03999996,-9.812208599999986,-0.004205008596190882,-0.005513300000012055,0.0015790489200037889,-0.008965422958135268,-0.0018632024000044642
0.2625,4.232032799960852e-05,-0.7848057249999995,8.989462375015598e-05,-2.356063050000001,-2.9693012250385627e-05,1.5708922499999998,0.7860423250000002,0.03999997,0.03999996,-9.812045999999985,-0.004300808126581624,-0.005640744125012171,0.0016191028500038252,-0.008962341351434255,-0.0019103972000045072
0.265,3.822113159960479e-05,-0.7848001899999995,9.152792050015747e-05,-2.356069380000001,-3.3730899900389304e-05,1.57088952,0.7860437500000002,0.03999997,0.03999996,-9.811883399999985,-0.004396607656972366,-0.005768188250012287,0.0016591567800038616,-0.008959259744733243,-0.0019575920000045504
0.2675,3.388443164953171e-05,-0.7847947524999995,9.325571825018655e-05,-2.3560757200000007,-3.800265005046126e-05,1.5708866049999999,0.7860452730000002,0.03999997,0.03999996,-9.811721449999984,-0.004496615566323782,-0.005893063200011653,0.0017004611200042632,-0.008953486336394029,-0.0020063698600050555
0.27,2.907272459952733e-05,-0.7847895099999995,9.517251800018829e-05,-2.3560820800000006,-4.2742125200465574e-05,1.5708833199999999,0.7860469920000002,0.03999997,0.03999996,-9.811560799999985,-0.004605040233592871,-0.006012799800011762,0.0017442662800043031,-0.008942329324780764,-0.002058313840005103
0.2725,2.4261017549522952e-05,-0.7847842674999995,9.708931775019004e-05,-2.3560884400000006,-4.748160035046989e-05,1.5708800349999998,0.7860487110000002,0.03999997,0.03999996,-9.811400149999985,-0.004713464900861959,-0.006132536400011871,0.0017880714400043429,-0.008931172313167498,-0.0021102578200051497
0.275,1.9449310499518573e-05,-0.7847790249999995,9.900611750019178e-05,-2.3560948000000006,-5.22210755004742e-05,1.5708767499999998,0.7860504300000002,0.03999997,0.03999996,-9.811239499999983,-0.0048218895681310485,-0.00625227300001198,0.0018318766000043828,-0.008920015301554233,-0.002162201800005197
0.2775,1.4637603449514193e-05,-0.7847737824999995,0.00010092291725019353,-2.3561011600000006,-5.696055065047851e-05,1.5708734649999998,0.7860521490000002,0.03999997,0.03999996,-9.811078849999983,-0.004930314235400137,-0.006372009600012089,0.0018756817600044228,-0.00890885828994097,-0.0022141457800052443
0.28,9.825896399509814e-06,-0.7847685399999995,0.00010283971700019527,-2.3561075200000006,-6.170002580048283e-05,1.5708701799999996,0.7860538680000002,0.03999997,0.03999996,-9.810918199999984,-0.005038738902669226,-0.006491746200012198,0.0019194869200044626,-0.008897701278327704,-0.0022660897600052916
0.28250000000000003,5.014189349505435e-06,-0.7847632974999995,0.000104756516750197,-2.3561138800000005,-6.643950095048715e-05,1.5708668949999995,0.7860555870000002,0.03999997,0.03999996,-9.810757549999982,-0.005147163569938314,-0.006611482800012307,0.0019632920800045023,-0.008886544266714438,-0.002318033740005339
0.28500000000000003,-3.166573005796979e-07,-0.7847582299999996,0.00010687988550023088,-2.3561203000000006,-7.169011840057096e-05,1.5708633899999995,0.7860574890000002,0.03999997,0.03999996,-9.810598899999983,-0.005265122139839096,-0.006737204360013347,0.002009680880004944,-0.008870098274199111,-0.002373191960005886
0.28750000000000003,-5.9070737505847894e-06,-0.7847532499999995,0.00010910653875023291,-2.356126750000001,-7.719630700057597e-05,1.5708597749999995,0.7860594825000002,0.03999997,0.03999996,-9.810441249999982,-0.005387847661053513,-0.0068659184000134646,0.0020573615000049877,-0.008851007791233979,-0.0024299573000059376
0.29,-1.1497490200589756e-05,-0.7847482699999995,0.0001113331920002349,-2.356133200000001,-8.270249560058087e-05,1.5708561599999995,0.7860614760000002,0.03999997,0.03999996,-9.810283599999984,-0.005510573182267927,-0.006994632440013578,0.00210504212000503,-0.008831917308268846,-0.002486722640005988
0.2925,-1.7087906650594842e-05,-0.7847432899999994,0.00011355984525023692,-2.3561396500000007,-8.820868420058588e-05,1.5708525449999995,0.7860634695000002,0.03999997,0.03999996,-9.810125949999984,-0.005633298703482344,-0.0071233464800136955,0.0021527227400050734,-0.008812826825303714,-0.00254348798000604
0.295,-2.2678323100599934e-05,-0.7847383099999995,0.00011578649850023895,-2.3561461000000006,-9.371487280059089e-05,1.5708489299999995,0.7860654630000001,0.03999997,0.03999996,-9.809968299999984,-0.00575602422469676,-0.007252060520013813,0.0022004033600051165,-0.008793736342338581,-0.0026002533200060914
0.2975,-2.8268739550605022e-05,-0.7847333299999995,0.00011801315175024098,-2.3561525500000005,-9.922106140059592e-05,1.5708453149999995,0.7860674565000002,0.03999997,0.03999996,-9.809810649999983,-0.0058787497459111765,-0.00738077456001393,0.00224808398000516,-0.008774645859373448,-0.002657018660006143
0.3,-3.385915600070241e-05,-0.7847283499999994,0.00012023980500027972,-2.356159000000001,-0.00010472725000069178,1.5708416999999995,0.7860694500000002,0.03999997,0.03999996,-9.809652999999983,-0.00600147526712563,-0.007509488600014887,0.002295764600005648,-0.008755555376407303,-0.0027137840000067133
0.3025,-4.0295273500708266e-05,-0.7847235664999994,0.00012280295475028204,-2.3561654500000007,-0.00011106598600069755,1.5708375899999996,0.7860717120000003,0.03999997,0.039999959700000004,-9.809491824999983,-0.006124539556926573,-0.007645894460015011,0.0023475197150056954,-0.008727182215076462,-0.0027752983550067695
0.305,-4.673139100071412e-05,-0.7847187829999994,0.0001253661045002844,-2.3561719000000005,-0.00011740472200070333,1.5708334799999994,0.7860739740000002,0.03999997,0.0399999594,-9.809330649999982,-0.0062476038467275145,-0.007782300320015135,0.0023992748300057424,-0.00869880905374562,-0.0028368127100068252
0.3075,-5.316750850071998e-05,-0.7847139994999994,0.00012792925425028672,-2.356178350000001,-0.00012374345800070908,1.5708293699999996,0.7860762360000002,0.03999997,0.0399999591,-9.809169474999981,-0.006370668136528456,-0.007918706180015259,0.0024510299450057893,-0.00867043589241478,-0.0028983270650068814
0.31,-5.9603626000725844e-05,-0.7847092159999994,0.00013049240400028904,-2.3561848000000007,-0.00013008219400071486,1.5708252599999997,0.7860784980000002,0.03999997,0.0399999588,-9.809008299999983,-0.006493732426329398,-0.008055112040015383,0.0025027850600058367,-0.008642062731083939,-0.002959841420006937
0.3125,-6.603974350073171e-05,-0.7847044324999994,0.0001330555537502914,-2.3561912500000006,-0.00013642093000072064,1.5708211499999996,0.7860807600000003,0.03999997,0.0399999585,-9.808847124999982,-0.00661679671613034,-0.008191517900015507,0.002554540175005884,-0.0086136895697531,-0.0030213557750069934
0.315,-7.247586100073756e-05,-0.7846996489999994,0.00013561870350029372,-2.356197700000001,-0.0001427596660007264,1.5708170399999997,0.7860830220000002,0.03999997,0.039999958200000005,-9.808685949999981,-0.006739861005931282,-0.008327923760015631,0.002606295290005931,-0.008585316408422259,-0.003082870130007049
0.3175,-7.92164022008489e-05,-0.7846949249999995,0.00013830297150033803,-2.3562041650000007,-0.00014939811850083604,1.5708127299999997,0.7860853855000003,0.03999997015,0.0399999581,-9.80852167499998,-0.006870669010112188,-0.00846702505001669,0.0026594855350064754,-0.008554041385646296,-0.003146067415007688
0.32,-8.65657908008556e-05,-0.7846903199999995,0.0001412294760003407,-2.356210660000001,-0.0001566360040008426,1.5708080199999996,0.7860879520000003,0.039999970600000004,0.0399999584,-9.80835119999998,-0.007016964443044991,-0.008611517200016822,0.0027155460400065264,-0.008516962639983102,-0.003212630560007749
0.3225,-9.391517940086229e-05,-0.7846857149999995,0.00014415598050034336,-2.356217155000001,-0.0001638738895008492,1.5708033099999996,0.7860905185000003,0.03999997105,0.039999958700000005,-9.80818072499998,-0.007163259875977795,-0.008756009350016953,0.0027716065450065774,-0.00847988389431991,-0.0032791937050078096
0.325,-0.00010126456800086897,-0.7846811099999995,0.00014708248500034602,-2.356223650000001,-0.0001711117750008558,1.5707985999999994,0.7860930850000003,0.0399999715,0.039999959,-9.80801024999998,-0.007309555308910597,-0.008900501500017085,0.0028276670500066285,-0.008442805148656717,-0.00334575685000787
0.3275,-0.00010861395660087566,-0.7846765049999994,0.0001500089895003487,-2.356230145000001,-0.0001783496605008624,1.5707938899999994,0.7860956515000004,0.039999971950000004,0.0399999593,-9.80783977499998,-0.007455850741843401,-0.009044993650017217,0.0028837275550066795,-0.008405726402993523,-0.0034123199950079307
0.33,-0.00011596334520088235,-0.7846718999999994,0.00015293549400035135,-2.3562366400000005,-0.000185587546000869,1.5707891799999993,0.7860982180000003,0.0399999724,0.0399999596,-9.80766929999998,-0.0076021461747762045,-0.009189485800017346,0.002939788060006731,-0.008368647657330329,-0.0034788831400079916
0.3325,-0.00012331273380088904,-0.7846672949999994,0.00015586199850035402,-2.3562431350000006,-0.00019282543150087557,1.5707844699999993,0.7861007845000003,0.03999997285,0.0399999599,-9.80749882499998,-0.007748441607709007,-0.009333977950017478,0.0029958485650067816,-0.008331568911667135,-0.003545446285008052
0.335,-0.00013131629700101534,-0.7846627939999995,0.00015904878700040428,-2.3562500700000006,-0.0002007072910009999,1.5707793399999994,0.7861035460000004,0.039999973,0.03999996,-9.80733819999998,-0.00789418732749205,-0.009475933800017147,0.00305473726000735,-0.008288924954826044,-0.0036153089000087162
0.3375,-0.00013964694750102292,-0.7846583449999994,0.0001623657175004073,-2.3562572250000007,-0.00020891113750100737,1.5707739999999994,0.7861064050000004,0.039999973,0.03999996,-9.80718249999998,-0.008039658190700363,-0.009616621500017275,0.003115040050007405,-0.008243498392397523,-0.0036868212500087813
0.34,-0.0001479775980010305,-0.7846538959999995,0.0001656826480004103,-2.3562643800000007,-0.00021711498400101483,1.5707686599999993,0.7861092640000004,0.039999973,0.03999996,-9.807026799999981,-0.008185129053908675,-0.009757309200017402,0.0031753428400074597,-0.008198071829969001,-0.0037583336000088464
0.3425,-0.0001563082485010381,-0.7846494469999994,0.00016899957850041334,-2.3562715350000007,-0.00022531883050102232,1.5707633199999993,0.7861121230000003,0.039999973,0.03999996,-9.80687109999998,-0.008330599917116988,-0.009897996900017532,0.0032356456300075146,-0.00815264526754048,-0.0038298459500089115
0.34500000000000003,-0.0001646388990010457,-0.7846449979999994,0.00017231650900041635,-2.356278690000001,-0.00023352267700102979,1.5707579799999993,0.7861149820000004,0.039999973,0.03999996,-9.80671539999998,-0.0084760707803253,-0.01003868460001766,0.0032959484200075695,-0.008107218705111958,-0.0039013583000089766
0.34750000000000003,-0.00017296954950105325,-0.7846405489999994,0.00017563343950041937,-2.356285845000001,-0.00024172652350103725,1.5707526399999994,0.7861178410000004,0.039999973,0.03999996,-9.806559699999982,-0.008621541643533612,-0.010179372300017787,0.0033562512100076243,-0.008061792142683436,-0.003972870650009042
0.35000000000000003,-0.0001813002000011945,-0.7846360999999994,0.00017895037000047556,-2.356293000000001,-0.0002499303700011763,1.5707472999999994,0.7861207000000004,0.039999973,0.03999996,-9.806403999999988,-0.00876701250674512,-0.010320060000020137,0.003416554000008237,-0.00801636558025415,-0.004044383000009739
0.3525,-0.00019068039300120283,-0.7846317424999993,0.00018268487350047889,-2.356300500000001,-0.0002591673970011845,1.5707412549999993,0.7861239295000004,0.039999973,0.03999996,-9.806304699999988,-0.008937561884544296,-0.010478189100020277,0.0034812374500082944,-0.007964931987219365,-0.004120859600009807
0.355,-0.00020006058600121137,-0.7846273849999994,0.00018641937700048227,-2.3563080000000007,-0.0002684044240011929,1.5707352099999994,0.7861271590000004,0.039999973,0.03999996,-9.806205399999987,-0.009108111262343475,-0.010636318200020421,0.0035459209000083536,-0.007913498394184577,-0.004197336200009876
0.3575,-0.00020944077900121992,-0.7846230274999993,0.00019015388050048568,-2.356315500000001,-0.0002776414510012013,1.5707291649999993,0.7861303885000005,0.039999973,0.03999996,-9.806106099999987,-0.009278660640142655,-0.010794447300020566,0.0036106043500084123,-0.00786206480114979,-0.004273812800009946
0.36,-0.00021882097200122847,-0.7846186699999994,0.0001938883840004891,-2.356323000000001,-0.0002868784780012097,1.5707231199999994,0.7861336180000005,0.039999973,0.03999996,-9.806006799999988,-0.009449210017941835,-0.01095257640002071,0.003675287800008471,-0.007810631208115005,-0.004350289400010016
0.3625,-0.000228201165001237,-0.7846143124999994,0.00019762288750049248,-2.3563305000000008,-0.0002961155050012181,1.5707170749999992,0.7861368475000005,0.039999973,0.03999996,-9.805907499999988,-0.009619759395741017,-0.011110705500020853,0.0037399712500085303,-0.0077591976150802175,-0.004426766000010085
0.365,-0.00023758135800124554,-0.7846099549999994,0.0002013573910004959,-2.356338000000001,-0.00030535253200122655,1.5707110299999993,0.7861400770000004,0.039999973,0.03999996,-9.805808199999987,-0.009790308773540196,-0.011268834600020997,0.003804654700008589,-0.00770776402204543,-0.004503242600010155
0.3675,-0.0002473341805014035,-0.7846056224999994,0.00020524014950055875,-2.356345550000001,-0.00031495633250138203,1.5707047399999992,0.7861434335000005,0.039999973200000004,0.03999996,-9.805701799999984,-0.009960525762312369,-0.011429139900022013,0.0038707456000092125,-0.00765400158706269,-0.004581333425010872
0.37,-0.00025783226200141307,-0.7846013399999994,0.00020941941800056254,-2.356353200000001,-0.00032529368000139145,1.570697959999999,0.7861470440000006,0.0399999738,0.03999996,-9.805581199999985,-0.010130077973030923,-0.011593797600022163,0.003939651400009275,-0.007595581468186836,-0.004662652700010946
0.3725,-0.0002683303435014226,-0.7845970574999994,0.00021359868650056637,-2.356360850000001,-0.00033563102750140087,1.5706911799999992,0.7861506545000005,0.0399999744,0.03999996,-9.805460599999984,-0.010299630183749476,-0.011758455300022314,0.0040085572000093375,-0.0075371613493109835,-0.00474397197501102
0.375,-0.0002788284250014322,-0.7845927749999994,0.00021777795500057016,-2.3563685000000008,-0.0003459683750014103,1.570684399999999,0.7861542650000005,0.039999975,0.03999996,-9.805339999999983,-0.010469182394468032,-0.011923113000022464,0.0040774630000094,-0.00747874123043513,-0.004825291250011094
0.3775,-0.00028932650650144177,-0.7845884924999994,0.00022195722350057395,-2.356376150000001,-0.0003563057225014197,1.5706776199999992,0.7861578755000005,0.0399999756,0.03999996,-9.805219399999984,-0.010638734605186585,-0.012087770700022614,0.004146368800009463,-0.007420321111559277,-0.004906610525011168
0.38,-0.0002998245880014513,-0.7845842099999993,0.00022613649200057778,-2.356383800000001,-0.00036664307000142907,1.5706708399999991,0.7861614860000005,0.0399999762,0.03999996,-9.805098799999984,-0.010808286815905139,-0.012252428400022762,0.004215274600009525,-0.0073619009926834235,-0.004987929800011242
0.3825,-0.00031032266950146086,-0.7845799274999994,0.00023031576050058157,-2.3563914500000007,-0.00037698041750143854,1.5706640599999993,0.7861650965000004,0.039999976799999996,0.03999996,-9.804978199999983,-0.010977839026623694,-0.012417086100022913,0.004284180400009588,-0.007303480873807571,-0.005069249075011316
0.385,-0.0003216115920016366,-0.7845756869999994,0.0002348096850006515,-2.356399580000001,-0.00038809621000161147,1.570656819999999,0.7861690000000006,0.039999977,0.03999996,-9.804824799999976,-0.011167217604843854,-0.012593336000025499,0.004355928140010248,-0.007239585556080527,-0.005153968150012104
0.3875,-0.00033329593500164723,-0.7845714674999994,0.0002394609375006557,-2.3564079500000013,-0.00039960122500162196,1.570649349999999,0.7861730500000006,0.039999977,0.03999996,-9.804654999999975,-0.011366509366808594,-0.012775382000025664,0.004429096850010315,-0.007172952638929606,-0.005240387125012183
0.39,-0.0003449802780016578,-0.7845672479999994,0.00024411219000065995,-2.356416320000001,-0.00041110624000163245,1.570641879999999,0.7861771000000005,0.039999977,0.03999996,-9.804485199999975,-0.011565801128773336,-0.01295742800002583,0.004502265560010382,-0.007106319721778686,-0.005326806100012262
0.3925,-0.00035666462100166846,-0.7845630284999994,0.0002487634425006642,-2.356424690000001,-0.0004226112550016429,1.570634409999999,0.7861811500000006,0.039999977,0.03999996,-9.804315399999975,-0.011765092890738078,-0.013139474000025995,0.004575434270010449,-0.007039686804627765,-0.005413225075012341
0.395,-0.0003683489640016791,-0.7845588089999994,0.00025341469500066844,-2.3564330600000014,-0.0004341162700016534,1.5706269399999988,0.7861852000000006,0.039999977,0.03999996,-9.804145599999975,-0.011964384652702819,-0.013321520000026161,0.004648602980010515,-0.0069730538874768445,-0.005499644050012419
0.3975,-0.00038003330700168975,-0.7845545894999995,0.0002580659475006727,-2.356441430000001,-0.00044562128500166387,1.570619469999999,0.7861892500000006,0.039999977,0.03999996,-9.803975799999975,-0.01216367641466756,-0.013503566000026328,0.004721771690010581,-0.006906420970325924,-0.005586063025012498
0.4,-0.00039171765000188297,-0.7845503699999994,0.0002627172000007495,-2.3564498000000014,-0.000457126300001854,1.5706119999999988,0.7861933000000006,0.039999977,0.03999996,-9.803805999999987,-0.012362968176632095,-0.0136856120000273,0.004794940400011239,-0.006839788053174092,-0.005672482000013298
0.4025,-0.0004046564775017182,-0.7845461594999995,0.00026786754600068393,-2.356458530000001,-0.0004698660700016918,1.570603719999999,0.7861977550000006,0.039999977,0.03999996,-9.803718549999989,-0.01256083389746788,-0.013873215200024913,0.0048721658000102554,-0.006766897346814675,-0.005763858400012135
0.405,-0.00041759530500155346,-0.7845419489999995,0.00027301789200061835,-2.356467260000001,-0.0004826058400015296,1.570595439999999,0.7862022100000006,0.039999977,0.03999996,-9.80363109999999,-0.012758699618303667,-0.014060818400022525,0.004949391200009272,-0.006694006640455258,-0.0058552348000109715
0.40750000000000003,-0.0004305341325013887,-0.7845377384999995,0.00027816823800055283,-2.3564759900000007,-0.0004953456100013675,1.570587159999999,0.7862066650000005,0.039999977,0.03999996,-9.80354364999999,-0.012956565339139452,-0.014248421600020135,0.005026616600008289,-0.006621115934095841,-0.005946611200009807
0.41000000000000003,-0.000443472960001224,-0.7845335279999996,0.00028331858400048725,-2.3564847200000005,-0.0005080853800012052,1.5705788799999991,0.7862111200000004,0.039999977,0.03999996,-9.80345619999999,-0.013154431059975238,-0.014436024800017747,0.005103842000007306,-0.006548225227736425,-0.006037987600008644
0.41250000000000003,-0.00045641178750105925,-0.7845293174999997,0.0002884689300004217,-2.3564934500000008,-0.000520825150001043,1.5705705999999993,0.7862155750000004,0.039999977,0.03999996,-9.803368749999992,-0.013352296780811023,-0.014623628000015359,0.0051810674000063225,-0.006475334521377008,-0.006129364000007481
0.41500000000000004,-0.0004693506150008945,-0.7845251069999997,0.0002936192760003561,-2.3565021800000006,-0.0005335649200008808,1.5705623199999994,0.7862200300000003,0.039999977,0.03999996,-9.803281299999993,-0.013550162501646808,-0.014811231200012969,0.005258292800005339,-0.006402443815017591,-0.006220740400006317
0.4175,-0.00048273025350093374,-0.7845208929999997,0.0002989450155003717,-2.3565110500000004,-0.0005467385715009195,1.5705537449999996,0.7862246480000004,0.03999997715,0.03999996,-9.80317594999999,-0.013758699595943202,-0.015005755800013643,0.00533696266000534,-0.00632717488333051,-0.0063137667000063066
0.42,-0.0004969915140011412,-0.7845166719999996,0.0003046215420004543,-2.3565202000000007,-0.0005607799860011237,1.5705445799999993,0.7862295920000004,0.0399999776,0.03999996,-9.803034799999988,-0.013988579437154997,-0.015214123200016675,0.005418521440006527,-0.006247149500989395,-0.0064100928000077086
0.4225,-0.0005112527745013488,-0.7845124509999997,0.0003102980685005369,-2.3565293500000006,-0.0005748214005013281,1.5705354149999993,0.7862345360000005,0.039999978049999996,0.03999996,-9.802893649999985,-0.014218459278366792,-0.015422490600019708,0.0055000802200077135,-0.006167124118648281,-0.0065064189000091106
0.425,-0.0005255140350015564,-0.7845082299999996,0.00031597459500061953,-2.356538500000001,-0.0005888628150015324,1.570526249999999,0.7862394800000005,0.0399999785,0.03999996,-9.802752499999984,-0.014448339119578588,-0.01563085800002274,0.005581639000008901,-0.006087098736307166,-0.0066027450000105126
0.4275,-0.0005397752955017639,-0.7845040089999995,0.00032165112150070213,-2.356547650000001,-0.0006029042295017368,1.5705170849999988,0.7862444240000006,0.03999997895,0.03999996,-9.802611349999982,-0.014678218960790383,-0.01583922540002577,0.005663197780010088,-0.006007073353966052,-0.006699071100011915
0.43,-0.0005540365560019715,-0.7844997879999994,0.00032732764800078474,-2.3565568000000012,-0.0006169456440019411,1.5705079199999987,0.7862493680000007,0.039999979399999996,0.03999996,-9.80247019999998,-0.01490809880200218,-0.016047592800028803,0.0057447565600112745,-0.005927047971624937,-0.006795397200013317
0.4325,-0.000568297816502179,-0.7844955669999994,0.00033300417450086734,-2.356565950000001,-0.0006309870585021454,1.5704987549999985,0.7862543120000007,0.03999997985,0.03999996,-9.802329049999978,-0.015137978643213975,-0.016255960200031835,0.005826315340012461,-0.005847022589283823,-0.006891723300014719
0.435,-0.0005834858030024768,-0.7844913239999993,0.0003390494080009859,-2.3565755900000016,-0.0006459405370024385,1.5704890499999984,0.7862595480000009,0.03999998,0.03999996,-9.80219869999998,-0.01536701675508055,-0.01646923770003414,0.005910536170013539,-0.005762216309071641,-0.006991314330016019
0.4375,-0.0005991371525024911,-0.7844870699999994,0.0003452789950009915,-2.3565854750000015,-0.0006613500475024526,1.5704790749999984,0.7862649300000009,0.03999998,0.03999996,-9.80207374999998,-0.015595634002274813,-0.016684970250034337,0.005996088025013616,-0.005675019579925621,-0.007092537825016111
0.44,-0.0006147885020025053,-0.7844828159999994,0.0003515085820009972,-2.3565953600000014,-0.0006767595580024666,1.5704690999999984,0.7862703120000009,0.03999998,0.03999996,-9.80194879999998,-0.015824251249469075,-0.016900702800034532,0.0060816398800136945,-0.005587822850779602,-0.0071937613200162035
0.4425,-0.0006304398515025195,-0.7844785619999993,0.00035773816900100283,-2.3566052450000017,-0.0006921690685024807,1.5704591249999984,0.7862756940000009,0.03999998,0.03999996,-9.80182384999998,-0.01605286849666334,-0.01711643535003473,0.006167191735013773,-0.005500626121633583,-0.007294984815016295
0.445,-0.0006460912010025338,-0.7844743079999993,0.0003639677560010085,-2.3566151300000016,-0.0007075785790024947,1.5704491499999984,0.7862810760000009,0.03999998,0.03999996,-9.80169889999998,-0.016281485743857602,-0.017332167900034924,0.00625274359001385,-0.005413429392487563,-0.007396208310016387
0.4475,-0.0006617425505025481,-0.7844700539999994,0.0003701973430010142,-2.3566250150000014,-0.0007229880895025087,1.5704391749999984,0.7862864580000009,0.03999998,0.03999996,-9.80157394999998,-0.016510102991051864,-0.017547900450035122,0.006338295445013928,-0.005326232663341544,-0.007497431805016479
0.45,-0.0006773939000028009,-0.7844657999999993,0.00037642693000111476,-2.3566349000000018,-0.0007383976000027576,1.5704291999999982,0.786291840000001,0.03999998,0.03999996,-9.801448999999982,-0.016738720238251875,-0.017763633000039237,0.006423847300014724,-0.005239035934194517,-0.007598655300017393
0.4525,-0.0006945024650028165,-0.7844615099999993,0.000383236310501121,-2.356645415000002,-0.0007552413640027729,1.5704182499999981,0.7862977230000009,0.0399999806,0.0399999615,-9.801339049999982,-0.01700243223462864,-0.018003301500039457,0.006513783310014806,-0.005145685351438332,-0.00770489455501749
0.455,-0.000711611030002832,-0.7844572199999993,0.0003900456910011272,-2.356655930000002,-0.0007720851280027882,1.570407299999998,0.7863036060000009,0.0399999812,0.039999963,-9.801229099999981,-0.017266144231005403,-0.018242970000039674,0.006603719320014888,-0.005052334768682148,-0.0078111338100175865
0.4575,-0.0007287195950028476,-0.7844529299999993,0.00039685507150113335,-2.3566664450000014,-0.0007889288920028036,1.5703963499999982,0.786309489000001,0.0399999818,0.0399999645,-9.801119149999982,-0.01752985622738217,-0.01848263850003989,0.006693655330014969,-0.004958984185925963,-0.007917373065017682
0.46,-0.0007458281600028632,-0.7844486399999993,0.00040366445200113956,-2.3566769600000015,-0.0008057726560028189,1.5703853999999982,0.7863153720000009,0.0399999824,0.039999966000000005,-9.801009199999982,-0.017793568223758934,-0.01872230700004011,0.006783591340015051,-0.004865633603169777,-0.008023612320017779
0.4625,-0.0007629367250028788,-0.7844443499999992,0.0004104738325011458,-2.3566874750000015,-0.0008226164200028342,1.570374449999998,0.7863212550000009,0.039999983,0.039999967500000004,-9.800899249999981,-0.0180572802201357,-0.018961975500040328,0.006873527350015133,-0.004772283020413592,-0.008129851575017878
0.465,-0.0007800452900028944,-0.7844400599999992,0.00041728321300115194,-2.3566979900000016,-0.0008394601840028496,1.570363499999998,0.786327138000001,0.039999983600000004,0.039999969,-9.80078929999998,-0.018320992216512465,-0.019201644000040544,0.006963463360015215,-0.004678932437657407,-0.008236090830017974
0.4675,-0.0007976618300031691,-0.7844357414999992,0.00042429469500126127,-2.356708695000002,-0.00085680387400312,1.5703522399999978,0.786333202000001,0.039999984,0.03999997015,-9.800681499999982,-0.018584435991987596,-0.019443181350041718,0.007054786615016005,-0.004583475901728298,-0.008343980400018913
0.47000000000000003,-0.0008162943200031861,-0.7844313659999992,0.00043171038000126805,-2.356719780000002,-0.0008751474160031367,1.5703403599999979,0.786339628000001,0.039999984,0.039999970600000004,-9.800577999999982,-0.018847343325659877,-0.01968845640004194,0.00714888436001609,-0.004483807459456557,-0.008455170600019013
0.47250000000000003,-0.000834926810003203,-0.7844269904999992,0.0004391260650012748,-2.3567308650000016,-0.0008934909580031534,1.570328479999998,0.7863460540000011,0.039999984,0.03999997105,-9.800474499999982,-0.019110250659332157,-0.019933731450042163,0.007242982105016176,-0.0043841390171848165,-0.008566360800019115
0.47500000000000003,-0.00085355930000322,-0.7844226149999992,0.00044654175000128157,-2.3567419500000018,-0.0009118345000031701,1.570316599999998,0.7863524800000011,0.039999984,0.0399999715,-9.800370999999982,-0.019373157993004434,-0.020179006500042385,0.007337079850016261,-0.004284470574913076,-0.008677551000019216
0.47750000000000004,-0.000872191790003237,-0.7844182394999992,0.0004539574350012883,-2.356753035000002,-0.0009301780420031868,1.570304719999998,0.7863589060000011,0.039999984,0.039999971950000004,-9.800267499999983,-0.019636065326676715,-0.02042428155004261,0.007431177595016348,-0.004184802132641335,-0.008788741200019316
0.48,-0.0008908242800032536,-0.7844138639999992,0.0004613731200012949,-2.356764120000002,-0.000948521584003203,1.5702928399999978,0.7863653320000011,0.039999984,0.0399999724,-9.800163999999983,-0.019898972660348988,-0.020669556600042827,0.007525275340016431,-0.004085133690369597,-0.008899931400019417
0.4825,-0.0009094567700032705,-0.7844094884999993,0.00046878880500130166,-2.356775205000002,-0.0009668651260032197,1.5702809599999978,0.7863717580000011,0.039999984,0.03999997285,-9.800060499999983,-0.020161879994021265,-0.020914831650043052,0.007619373085016517,-0.003985465248097856,-0.009011121600019517
0.485,-0.000929149250003568,-0.7844050369999992,0.00047662624000142,-2.3567869300000024,-0.0009862517860035125,1.5702683899999976,0.7863785500000012,0.039999984,0.0399999723,-9.799938299999978,-0.0204479347914982,-0.021178786600048218,0.007716097000017298,-0.0038813277380353125,-0.009125160050020372
0.4875,-0.0009493717250035864,-0.7844005474999992,0.00048467455000142737,-2.3567989750000025,-0.0010061600050035307,1.5702554749999977,0.7863855250000013,0.039999984,0.03999997125,-9.799806749999977,-0.02074556332086831,-0.021452081500048466,0.007814134000017386,-0.0037749556940791357,-0.009240622625020477
0.49,-0.0009695942000036048,-0.7843960579999992,0.0004927228600014347,-2.356811020000002,-0.0010260682240035488,1.5702425599999976,0.7863925000000013,0.039999984,0.0399999702,-9.799675199999976,-0.021043191850238414,-0.021725376400048717,0.007912171000017476,-0.0036685836501229585,-0.009356085200020582
0.4925,-0.0009898166750036232,-0.7843915684999992,0.000500771170001442,-2.356823065000002,-0.0010459764430035669,1.5702296449999977,0.7863994750000013,0.039999984,0.03999996915,-9.799543649999977,-0.02134082037960852,-0.021998671300048966,0.008010208000017565,-0.0035622116061667817,-0.009471547775020687
0.495,-0.0010100391500036416,-0.7843870789999992,0.0005088194800014493,-2.3568351100000022,-0.001065884662003585,1.5702167299999976,0.7864064500000013,0.039999984,0.0399999681,-9.799412099999977,-0.021638448908978626,-0.022271966200049214,0.008108245000017654,-0.003455839562210605,-0.009587010350020792
0.4975,-0.0010302616250036601,-0.7843825894999992,0.0005168677900014567,-2.3568471550000023,-0.001085792881003603,1.5702038149999977,0.7864134250000012,0.039999984,0.03999996705,-9.799280549999976,-0.021936077438348734,-0.022545261100049462,0.008206282000017743,-0.003349467518254428,-0.009702472925020897
0.5,-0.0010504841000039795,-0.7843780999999991,0.0005249161000015838,-2.3568592000000024,-0.0011057011000039176,1.5701908999999976,0.7864204000000014,0.039999984,0.039999966,-9.799148999999987,-0.0222337059677194,-0.02281855600005193,0.00830431900001858,-0.0032430954742973385,-0.009817935500021933
0.5025000000000001,-0.0010723619150039998,-0.7843735099999991,0.0005336230750015918,-2.3568716200000024,-0.0011272384450039378,1.5701769199999975,0.7864279375000014,0.0399999846,0.03999996705,-9.799084049999989,-0.022534423507804987,-0.023104049500052196,0.008406467350018675,-0.0031317072454635597,-0.009938519975022046
0.505,-0.0010942397300040194,-0.7843689199999991,0.0005423300500015996,-2.3568840400000024,-0.0011487757900039569,1.5701629399999975,0.7864354750000014,0.039999985200000004,0.0399999681,-9.799019099999988,-0.02283514104789056,-0.02338954300005245,0.008508615700018766,-0.0030203190166297857,-0.010059104450022152
0.5075000000000001,-0.0011161175450040397,-0.7843643299999992,0.0005510370250016078,-2.3568964600000024,-0.0011703131350039768,1.5701489599999974,0.7864430125000014,0.0399999858,0.03999996915,-9.798954149999988,-0.023135858587976142,-0.023675036500052718,0.00861076405001886,-0.002908930787796007,-0.010179688925022266
0.51,-0.0011379953600040593,-0.7843597399999991,0.0005597440000016155,-2.3569088800000024,-0.0011918504800039961,1.5701349799999975,0.7864505500000014,0.0399999864,0.0399999702,-9.798889199999989,-0.023436576128061715,-0.02396053000005297,0.008712912400018952,-0.002797542558962233,-0.010300273400022373
0.5125,-0.0011598731750040786,-0.7843551499999991,0.0005684509750016232,-2.3569213000000024,-0.0012133878250040152,1.5701209999999974,0.7864580875000015,0.039999987,0.03999997125,-9.798824249999988,-0.023737293668147287,-0.024246023500053223,0.008815060750019043,-0.002686154330128459,-0.01042085787502248
0.515,-0.001181750990004099,-0.7843505599999991,0.0005771579500016313,-2.3569337200000025,-0.0012349251700040354,1.5701070199999974,0.7864656250000015,0.0399999876,0.0399999723,-9.798759299999988,-0.024038011208232873,-0.024531517000053488,0.008917209100019138,-0.00257476610129468,-0.010541442350022592
0.5175,-0.0012042021400044422,-0.7843459149999991,0.0005860930550017679,-2.356946450000003,-0.001257026775004373,1.5700926699999973,0.7864733625000015,0.039999988,0.03999997335,-9.798663649999972,-0.024348571151557058,-0.024823867200057616,0.00902070475001999,-0.0024607698782122085,-0.010663629950023604
0.52,-0.0012277999600044643,-0.7843411599999991,0.0005954844200017767,-2.3569598000000025,-0.0012802569000043948,1.570077579999997,0.7864815000000016,0.039999988,0.0399999744,-9.798506599999971,-0.024678815901341838,-0.0251299308000579,0.00912689500002009,-0.0023415576666367473,-0.010789023800023723
0.5225,-0.0012513977800044853,-0.7843364049999991,0.000604875785001785,-2.3569731500000026,-0.0013034870250044153,1.570062489999997,0.7864896375000016,0.039999988,0.03999997545,-9.79834954999997,-0.0250090606511266,-0.025435994400058174,0.009233085250020184,-0.0022223454550612913,-0.010914417650023833
0.525,-0.0012749956000045071,-0.784331649999999,0.0006142671500017938,-2.3569865000000028,-0.001326717150004437,1.570047399999997,0.7864977750000015,0.039999988,0.0399999765,-9.79819249999997,-0.025339305400911376,-0.02574205800005846,0.009339275500020283,-0.00210313324348583,-0.011039811500023951
0.5275,-0.0012985934200045281,-0.7843268949999991,0.0006236585150018021,-2.3569998500000024,-0.0013499472750044576,1.570032309999997,0.7865059125000016,0.039999988,0.039999977549999996,-9.79803544999997,-0.025669550150696142,-0.026048121600058732,0.009445465750020378,-0.001983921031910374,-0.011165205350024061
0.53,-0.0013221912400045502,-0.7843221399999991,0.0006330498800018109,-2.3570132000000026,-0.0013731774000044794,1.570017219999997,0.7865140500000015,0.039999988,0.0399999786,-9.79787839999997,-0.02599979490048092,-0.026354185200059017,0.009551656000020477,-0.0018647088203349131,-0.01129059920002418
0.5325,-0.0013457890600045712,-0.784317384999999,0.0006424412450018192,-2.3570265500000027,-0.0013964075250044998,1.570002129999997,0.7865221875000016,0.039999988,0.039999979649999996,-9.79772134999997,-0.02633003965026568,-0.02666024880005929,0.009657846250020571,-0.0017454966087594574,-0.01141599305002429
0.535,-0.0013705761300047096,-0.7843125399999991,0.0006523058060018742,-2.357040620000003,-0.001420807970004636,1.569986299999997,0.7865307400000016,0.039999988,0.039999979,-9.797607999999984,-0.026678561791843896,-0.026982172900061205,0.009766668800020436,-0.001623060659016733,-0.011544036400024004
0.5375,-0.001395957825004386,-0.7843076499999991,0.0006624069650017454,-2.3570550500000027,-0.0014457935750043173,1.569970099999997,0.7865395000000015,0.039999988,0.0399999775,-9.797516499999984,-0.027036222629310828,-0.027312027250057,0.009876807500019033,-0.0014990128401917901,-0.011673404500022355
0.54,-0.0014213395200040632,-0.7843027599999992,0.0006725081240016171,-2.3570694800000025,-0.0014707791800039997,1.5699538999999973,0.7865482600000013,0.039999988,0.039999976,-9.797424999999986,-0.027393883466777777,-0.027641881600052806,0.009986946200017633,-0.0013749650213668418,-0.01180277260002071
0.5425,-0.0014467212150037396,-0.7842978699999993,0.0006826092830014882,-2.3570839100000023,-0.001495764785003681,1.5699376999999974,0.7865570200000013,0.039999988,0.0399999745,-9.797333499999988,-0.02775154430424471,-0.027971735950048596,0.010097084900016227,-0.0012509172025418989,-0.011932140700019061
0.545,-0.001472102910003417,-0.7842929799999994,0.0006927104420013598,-2.357098340000002,-0.0015207503900033636,1.5699214999999977,0.7865657800000012,0.039999988,0.039999973,-9.797241999999988,-0.028109205141711658,-0.028301590300044404,0.010207223600014827,-0.0011268693837169505,-0.012061508800017415
0.5475,-0.001497484605003093,-0.7842880899999993,0.000702811601001231,-2.357112770000002,-0.001545735995003045,1.569905299999998,0.786574540000001,0.039999988,0.0399999715,-9.79715049999999,-0.028466865979178593,-0.028631444650040198,0.010317362300013422,-0.0010028215648920076,-0.012190876900015767
0.55,-0.0015228663000029722,-0.7842831999999994,0.0007129127600011829,-2.3571272000000016,-0.0015707216000029258,1.569889099999998,0.786583300000001,0.039999988,0.03999997,-9.797058999999994,-0.028824526816646167,-0.028961299000037702,0.010427501000012447,-0.0008787737460665035,-0.012320245000014688
0.5525,-0.0015500948100037393,-0.7842781254999993,0.0007237488500014881,-2.357142650000002,-0.0015975247850036809,1.5698717299999976,0.7865927050000012,0.039999988,0.03999997105,-9.796995099999991,-0.02918790131812315,-0.029306694100047433,0.01054152897501566,-0.0007496342012749757,-0.01245480910001848
0.555,-0.0015773233200045075,-0.7842730509999991,0.0007345849400017939,-2.3571581000000026,-0.001624327970004437,1.569854359999997,0.7866021100000016,0.039999988,0.0399999721,-9.79693119999999,-0.029551275819600157,-0.02965208920005718,0.010655556950018878,-0.0006204946564834421,-0.012589373200022277
0.5575,-0.0016045518300052746,-0.784267976499999,0.0007454210300020991,-2.357173550000003,-0.0016511311550051922,1.5698369899999967,0.7866115150000018,0.039999988,0.03999997315,-9.796867299999988,-0.029914650321077145,-0.02999748430006691,0.010769584925022089,-0.0004913551116919144,-0.012723937300026068
0.56,-0.001631780340006043,-0.7842629019999988,0.0007562571200024049,-2.3571890000000035,-0.0016779343400059486,1.569819619999996,0.786620920000002,0.039999988,0.0399999742,-9.796803399999986,-0.030278024822554147,-0.030342879400076656,0.010883612900025307,-0.00036221556690038095,-0.012858501400029865
0.5625,-0.0016590088500068102,-0.7842578274999987,0.0007670932100027103,-2.357204450000004,-0.0017047375250067037,1.5698022499999957,0.7866303250000023,0.039999988,0.03999997525,-9.796739499999985,-0.030641399324031135,-0.030688274500086387,0.01099764087502852,-0.0002330760221088532,-0.012993065500033657
0.5650000000000001,-0.0016862373600075784,-0.7842527529999985,0.000777929300003016,-2.3572199000000045,-0.00173154071000746,1.5697848799999952,0.7866397300000025,0.039999988,0.0399999763,-9.796675599999983,-0.031004773825508137,-0.031033669600096132,0.011111668850031738,-0.00010393647731731968,-0.013127629600037452
0.5675,-0.0017141022150085332,-0.7842476164999984,0.0007890185990033959,-2.3572354900000048,-0.0017589700100083996,1.5697671149999946,0.7866493500000029,0.03999998835,0.0399999779,-9.796603299999974,-0.03138239029806822,-0.03138926925011012,0.011226959025034502,2.682008266050903e-05,-0.013263683350040717
0.5700000000000001,-0.001743239760008163,-0.7842423559999985,0.0008006143160032485,-2.3572513600000047,-0.001787651540008035,1.5697485599999947,0.7866594000000028,0.0399999894,0.0399999806,-9.796514199999976,-0.03178849071275641,-0.03176527800010534,0.011344773600033005,0.0001608106730066215,-0.01340271640003895
0.5725,-0.0017723773050077913,-0.7842370954999985,0.0008122100330031006,-2.357267230000004,-0.0018163330700076692,1.5697300049999952,0.7866694500000027,0.03999999045,0.0399999833,-9.796425099999976,-0.032194591127444584,-0.03214128675010054,0.011462588175031502,0.000294801263352728,-0.013541749450037176
0.5750000000000001,-0.001801514850007421,-0.7842318349999986,0.0008238057500029532,-2.357283100000004,-0.0018450146000073048,1.5697114499999953,0.7866795000000025,0.039999991500000005,0.039999986,-9.796335999999977,-0.03260069154213278,-0.032517295500095765,0.011580402750030005,0.0004287918536988405,-0.01368078250003541
0.5775,-0.0018306523950070493,-0.7842265744999988,0.0008354014670028053,-2.357298970000004,-0.001873696130006939,1.5696928949999955,0.7866895500000024,0.03999999255,0.0399999887,-9.796246899999979,-0.03300679195682095,-0.03289330425009097,0.011698217325028503,0.000562782444044947,-0.013819815550033636
0.58,-0.0018597899400066777,-0.7842213139999988,0.0008469971840026575,-2.357314840000004,-0.001902377660006573,1.5696743399999957,0.7866996000000023,0.039999993600000006,0.039999991400000004,-9.79615779999998,-0.03341289237150913,-0.033269313000086176,0.011816031900027,0.0006967730343910535,-0.013958848600031862
0.5825,-0.0018889274850063073,-0.7842160534999989,0.00085859290100251,-2.3573307100000034,-0.0019310591900062086,1.569655784999996,0.7867096500000021,0.03999999465,0.039999994100000005,-9.796068699999982,-0.03381899278619732,-0.03364532175008139,0.011933846475025503,0.000830763624737166,-0.014097881650030095
0.585,-0.00191937850000662,-0.7842106539999989,0.0008707112560026345,-2.3573473300000036,-0.0019610311300065158,1.5696363899999957,0.7867201500000023,0.0399999955,0.0399999955,-9.79594369999997,-0.034222451970066736,-0.03403230750008352,0.012054270700025904,0.0009699125890921308,-0.01423970890003048
0.5875,-0.001950486250006649,-0.7842051849999988,0.000883090930002646,-2.357364325000004,-0.001991648275006544,1.5696165749999957,0.7867308750000023,0.03999999625,0.03999999625,-9.79580074999997,-0.03462459053852805,-0.034424781750083885,0.012175999750026019,0.001111640740449068,-0.014382933250030613
0.59,-0.0019815940000066767,-0.7841997159999988,0.000895470604002657,-2.3573813200000036,-0.0020222654200065713,1.5695967599999956,0.7867416000000023,0.039999997,0.039999997,-9.795657799999969,-0.03502672910698935,-0.034817256000084236,0.012297728800026126,0.0012533688918059988,-0.01452615760003074
0.5925,-0.0020127017500067056,-0.7841942469999988,0.0009078502780026686,-2.3573983150000037,-0.0020528825650066,1.5695769449999957,0.7867523250000024,0.03999999775,0.03999999775,-9.79551484999997,-0.03542886767545066,-0.0352097302500846,0.01241945785002624,0.001395097043162936,-0.014669381950030874
0.595,-0.0020438095000067332,-0.7841887779999989,0.0009202299520026795,-2.3574153100000035,-0.0020834997100066272,1.5695571299999955,0.7867630500000024,0.0399999985,0.0399999985,-9.795371899999969,-0.03583100624391196,-0.03560220450008495,0.012541186900026348,0.001536825194519867,-0.014812606300031
0.5975,-0.002074917250006762,-0.7841833089999988,0.0009326096260026911,-2.3574323050000037,-0.002114116855006656,1.5695373149999956,0.7867737750000023,0.03999999925,0.03999999925,-9.795228949999968,-0.036233144812373275,-0.035994678750085315,0.012662915950026462,0.0016785533458768041,-0.014955830650031135
0.6,-0.002106025000007233,-0.7841778399999988,0.0009449893000028785,-2.357449300000004,-0.0021447340000071186,1.5695174999999952,0.7867845000000024,0.04,0.04,-9.795085999999978,-0.03663528338084578,-0.03638715300009134,0.01278464500002739,0.0018202814972347592,-0.01509905500003221
0.6025,-0.002139163330007264,-0.7841721489999988,0.0009581768950028907,-2.357467360000004,-0.002177347480007149,1.5694963649999953,0.7867959300000025,0.03999999925,0.03999999925,-9.794992099999979,-0.037088761106232826,-0.03680564055009173,0.012910126600027506,0.001966701977685506,-0.015246625000032347
0.605,-0.0021723016600072934,-0.7841664579999987,0.0009713644900029025,-2.3574854200000037,-0.002209960960007178,1.5694752299999952,0.7868073600000025,0.0399999985,0.0399999985,-9.79489819999998,-0.03754223883161985,-0.0372241281000921,0.013035608200027618,0.002113122458136246,-0.015394195000032479
0.6075,-0.0022054399900073244,-0.7841607669999987,0.0009845520850029147,-2.357503480000004,-0.0022425744400072084,1.5694540949999953,0.7868187900000025,0.03999999775,0.03999999775,-9.79480429999998,-0.03799571655700689,-0.0376426156500925,0.013161089800027736,0.002259542938586992,-0.015541765000032617
0.61,-0.0022385783200073537,-0.7841550759999988,0.0009977396800029265,-2.357521540000004,-0.0022751879200072376,1.5694329599999952,0.7868302200000025,0.039999997,0.039999997,-9.79471039999998,-0.03844919428239391,-0.038061103200092865,0.013286571400027846,0.002405963419037732,-0.015689335000032747
0.6125,-0.0022717166500073847,-0.7841493849999988,0.0010109272750029388,-2.357539600000004,-0.0023078014000072677,1.5694118249999953,0.7868416500000025,0.03999999625,0.03999999625,-9.794616499999979,-0.038902672007780956,-0.03847959075009326,0.013412053000027964,0.0025523838994884786,-0.015836905000032885
0.615,-0.002304854980007414,-0.7841436939999987,0.0010241148700029506,-2.357557660000004,-0.002340414880007297,1.5693906899999952,0.7868530800000025,0.0399999955,0.0399999955,-9.79452259999998,-0.03935614973316798,-0.03889807830009363,0.013537534600028074,0.002698804379939219,-0.015984475000033017
0.6175,-0.002338689815007914,-0.7841379249999987,0.0010375796600031496,-2.3575760650000044,-0.0023737142950077898,1.569369119999995,0.7868647535000027,0.039999994750000004,0.039999995,-9.794439799999987,-0.039809268340570005,-0.03932347825009868,0.013664255350029027,0.002846780908327919,-0.016133503300034137
0.62,-0.0023739176600079456,-0.7841319999999987,0.001051598840003162,-2.3575951600000042,-0.0024083855800078203,1.5693466799999949,0.7868769140000027,0.039999994000000004,0.039999995,-9.794379199999987,-0.04026166871200272,-0.03976270300009907,0.013793454400029142,0.002997869532589378,-0.01628544820003427
0.6225,-0.0024091455050079787,-0.7841260749999986,0.0010656180200031753,-2.357614255000004,-0.0024430568650078525,1.569324239999995,0.7868890745000028,0.039999993250000004,0.039999995,-9.794318599999986,-0.04071406908343545,-0.04020192775009948,0.013922653450029262,0.0031489581568508443,-0.016437393100034413
0.625,-0.00244437335000801,-0.7841201499999987,0.0010796372000031877,-2.3576333500000044,-0.0024777281500078835,1.569301799999995,0.7869012350000028,0.0399999925,0.039999995,-9.794257999999987,-0.04116646945486816,-0.04064115250009987,0.014051852500029377,0.0033000467811123034,-0.016589338000034547
0.6275000000000001,-0.002479601195008043,-0.7841142249999987,0.0010936563800032007,-2.3576524450000043,-0.0025123994350079158,1.5692793599999948,0.7869133955000027,0.03999999175,0.039999995,-9.794197399999986,-0.0416188698263009,-0.041080377250100275,0.014181051550029498,0.0034511354053737694,-0.01674128290003469
0.63,-0.0025148290400080742,-0.7841082999999986,0.001107675560003213,-2.357671540000004,-0.0025470707200079463,1.5692569199999948,0.7869255560000028,0.039999991,0.039999995,-9.794136799999986,-0.04207127019773361,-0.041519602000100665,0.014310250600029613,0.0036022240296352285,-0.016893227800034827
0.6325000000000001,-0.002550056885008107,-0.7841023749999987,0.0011216947400032261,-2.3576906350000044,-0.0025817420050079786,1.5692344799999947,0.7869377165000028,0.03999999025,0.039999995,-9.794076199999985,-0.04252367056916634,-0.041958826750101076,0.014439449650029733,0.0037533126538966946,-0.01704517270003497
0.635,-0.0025867166800086347,-0.7840962769999986,0.001136283750003436,-2.3577105000000045,-0.0026178220400084975,1.5692111299999945,0.786950363000003,0.03999999,0.039999995,-9.793982199999974,-0.04300958178949047,-0.042418197000108446,0.014571014100030668,0.003907896811178665,-0.01719982250003604
0.6375000000000001,-0.0026240924500086694,-0.7840900924999986,0.00115115767500345,-2.357730750000005,-0.002654606450008532,1.5691873249999944,0.786963252500003,0.03999999,0.039999995,-9.793871499999973,-0.043512248434242964,-0.04288764000010888,0.01470376125003079,0.004064228734969086,-0.017355824750036185
0.64,-0.0026614682200087024,-0.7840839079999986,0.0011660316000034632,-2.357751000000005,-0.002691390860008565,1.5691635199999945,0.786976142000003,0.03999999,0.039999995,-9.793760799999973,-0.04401491507899544,-0.0433570830001093,0.01483650840003091,0.0042205606587595,-0.017511827000036322
0.6425,-0.002698843990008736,-0.7840777234999986,0.0011809055250034763,-2.3577712500000048,-0.0027281752700085973,1.5691397149999944,0.786989031500003,0.03999999,0.039999995,-9.793650099999974,-0.04451758172374791,-0.043826526000109715,0.014969255550031027,0.004376892582549914,-0.01766782925003646
0.645,-0.0027362197600087706,-0.7840715389999986,0.0011957794500034903,-2.3577915000000047,-0.002764959680008632,1.5691159099999945,0.787001921000003,0.03999999,0.039999995,-9.793539399999974,-0.0450202483685004,-0.04429596900011015,0.015102002700031151,0.004533224506340335,-0.017823831500036608
0.6475,-0.0027735955300088036,-0.7840653544999986,0.0012106533750035034,-2.357811750000005,-0.0028017440900086643,1.5690921049999944,0.787014810500003,0.03999999,0.039999995,-9.793428699999973,-0.045522915013252875,-0.04476541200011057,0.015234749850031268,0.004689556430130748,-0.017979833750036745
0.65,-0.00281097130000936,-0.7840591699999985,0.001225527300003725,-2.357832000000005,-0.002838528500009212,1.569068299999994,0.7870277000000032,0.03999999,0.039999995,-9.793317999999985,-0.04602558165800539,-0.045234855000116925,0.015367497000032253,0.004845888353922257,-0.01813583600003789
0.6525,-0.002850552010009395,-0.7840527544999984,0.001241278755003739,-2.357853345000005,-0.0028774835750092465,1.569043069999994,0.7870413650000032,0.0399999897,0.039999995,-9.793260699999985,-0.04652835223835719,-0.045729300750117365,0.015503880300032373,0.0050068217330062606,-0.01829605670003803
0.655,-0.002890132720009432,-0.7840463389999984,0.0012570302100037534,-2.3578746900000054,-0.002916438650009283,1.5690178399999941,0.7870550300000032,0.0399999894,0.039999995,-9.793203399999985,-0.04703112281870901,-0.046223746500117825,0.0156402636000325,0.005167755112090271,-0.01845627740003818
0.6575,-0.0029297134300094673,-0.7840399234999984,0.0012727816650037675,-2.3578960350000053,-0.0029553937250093175,1.568992609999994,0.7870686950000033,0.0399999891,0.039999995,-9.793146099999985,-0.047533893399060806,-0.046718192250118265,0.01577664690003262,0.005328688491174273,-0.01861649810003832
0.66,-0.0029692941400095044,-0.7840335079999985,0.0012885331200037822,-2.3579173800000053,-0.002994348800009354,1.568967379999994,0.7870823600000033,0.0399999888,0.039999995,-9.793088799999985,-0.04803666397941263,-0.047212638000118726,0.01591303020003275,0.005489621870258283,-0.01877671880003847
0.6625,-0.0030088748500095392,-0.7840270924999985,0.001304284575003796,-2.3579387250000052,-0.0030333038750093885,1.568942149999994,0.7870960250000033,0.0399999885,0.039999995,-9.793031499999985,-0.04853943455976442,-0.04770708375011916,0.016049413500032868,0.005650555249342286,-0.018936939500038615
0.665,-0.0030484555600095763,-0.7840206769999984,0.0013200360300038108,-2.357960070000005,-0.003072258950009425,1.568916919999994,0.7871096900000033,0.0399999882,0.039999995,-9.792974199999986,-0.04904220514011624,-0.048201529500119626,0.016185796800032994,0.005811488628426296,-0.019097160200038762
0.6675,-0.0030887899200101607,-0.7840141634999983,0.0013360874450040433,-2.3579818000000055,-0.0031119566700100005,1.5688912199999936,0.7871236065000035,0.0399999878,0.03999999525,-9.792901699999975,-0.04956289604319733,-0.048704857000126535,0.016323336050033957,0.005973978550213459,-0.019258756650039906
0.67,-0.0031306315800101996,-0.7840074539999983,0.0013527387800040588,-2.3580043000000055,-0.003153139680010039,1.5688645799999936,0.7871380260000035,0.0399999872,0.039999996,-9.792798799999973,-0.0501194275916979,-0.04922594800012702,0.01646318720003409,0.006139581557403548,-0.01942310460004006
0.6725,-0.003172473240010237,-0.7840007444999983,0.0013693901150040736,-2.3580268000000055,-0.0031943226900100754,1.5688379399999934,0.7871524455000035,0.0399999866,0.03999999675,-9.792695899999973,-0.05067595914019845,-0.04974703900012748,0.016603038350034214,0.00630518456459363,-0.019587452550040206
0.675,-0.0032143149000102757,-0.7839940349999983,0.001386041450004089,-2.3580493000000056,-0.0032355057000101137,1.5688112999999935,0.7871668650000035,0.039999986,0.0399999975,-9.792592999999973,-0.05123249068869903,-0.05026813000012797,0.016742889500034344,0.006470787571783719,-0.01975180050004036
0.6775,-0.003256156560010313,-0.7839873254999984,0.001402692785004104,-2.3580718000000056,-0.0032766887100101503,1.5687846599999935,0.7871812845000036,0.0399999854,0.03999999825,-9.792490099999974,-0.051789022237199576,-0.050789221000128434,0.01688274065003447,0.006636390578973801,-0.019916148450040506
0.68,-0.003297998220010352,-0.7839806159999984,0.0014193441200041194,-2.3580943000000056,-0.0033178717200101886,1.5687580199999935,0.7871957040000036,0.0399999848,0.039999999,-9.792387199999974,-0.05234555378570015,-0.051310312000128915,0.0170225918000346,0.006801993586163891,-0.02008049640004066
0.6825,-0.003339839880010389,-0.7839739064999983,0.0014359954550041342,-2.3581168000000057,-0.0033590547300102252,1.5687313799999933,0.7872101235000035,0.039999984200000005,0.03999999975,-9.792284299999974,-0.052902085334200696,-0.05183140300012938,0.017162442950034724,0.006967596593353972,-0.020244844350040807
0.685,-0.0033832254900114066,-0.7839670029999982,0.0014532611600045393,-2.358140100000006,-0.0034017566800112267,1.5687037699999928,0.7872250810000039,0.039999984,0.04,-9.792205999999982,-0.053456376865649004,-0.05237097400014177,0.017304660500037046,0.007136431383012991,-0.020411637500043402
0.6875,-0.003427383075012048,-0.7839600024999981,0.0014708340500047946,-2.3581638000000065,-0.0034452181000118585,1.5686756749999924,0.7872403075000042,0.039999984,0.04,-9.792139999999982,-0.05400954838857241,-0.05291978500014974,0.01744806125003913,0.007306882063904657,-0.020579653250045845
0.6900000000000001,-0.003471540660012692,-0.783953001999998,0.0014884069400050509,-2.3581875000000068,-0.003488679520012492,1.568647579999992,0.7872555340000044,0.039999984,0.04,-9.79207399999998,-0.05456271991149583,-0.05346859600015774,0.01759146200004122,0.007477332744796331,-0.02074766900004829
0.6925,-0.0035156982450133337,-0.7839460014999979,0.0015059798300053062,-2.358211200000007,-0.0035321409400131233,1.5686194849999915,0.7872707605000046,0.039999984,0.04,-9.79200799999998,-0.05511589143441924,-0.05401740700016572,0.017734862750043302,0.007647783425687998,-0.020915684750050734
0.6950000000000001,-0.003559855830013977,-0.7839390009999978,0.0015235527200055624,-2.3582349000000074,-0.003575602360013757,1.568591389999991,0.7872859870000048,0.039999984,0.04,-9.79194199999998,-0.05566906295734266,-0.054566218000173715,0.017878263500045392,0.007818234106579672,-0.021083700500053183
0.6975,-0.0036040134150146187,-0.7839320004999977,0.0015411256100058177,-2.3582586000000076,-0.003619063780014388,1.5685632949999906,0.787301213500005,0.039999984,0.04,-9.791875999999977,-0.056222234480266066,-0.05511502900018169,0.018021664250047476,0.00798868478747134,-0.021251716250055622
0.7000000000000001,-0.0036481710000160813,-0.7839249999999974,0.0015586985000063999,-2.3582823000000084,-0.003662525200015827,1.5685351999999897,0.7873164400000056,0.039999984,0.04,-9.791809999999966,-0.05677540600321005,-0.055663840000201185,0.01816506500005072,0.008159135468364548,-0.0214197320000594
0.7025,-0.003694698345015488,-0.7839176859999976,0.0015772144700061637,-2.3583071550000083,-0.003708317320015243,1.56850558999999,0.7873324840000053,0.039999984,0.04,-9.791713099999967,-0.0573880549522293,-0.05624591050019376,0.018311804450048846,0.008334027510194533,-0.021591591800057208
0.705,-0.0037412256900148945,-0.7839103719999977,0.0015957304400059274,-2.358332010000008,-0.003754109440014659,1.5684759799999903,0.7873485280000051,0.039999984,0.04,-9.79161619999997,-0.058000703901248556,-0.05682798100018634,0.018458543900046975,0.008508919552024517,-0.021763451600055016
0.7075,-0.003787753035014303,-0.7839030579999977,0.0016142464100056921,-2.3583568650000077,-0.0037999015600140773,1.5684463699999909,0.787364572000005,0.039999984,0.04,-9.79151929999997,-0.05861335285026783,-0.05741005150017894,0.01860528335004511,0.008683811593854509,-0.021935311400052834
0.71,-0.00383428038001371,-0.7838957439999978,0.001632762380005456,-2.3583817200000072,-0.0038456936800134933,1.5684167599999912,0.7873806160000048,0.039999984,0.04,-9.791422399999972,-0.05922600179928708,-0.057992122000171516,0.01875202280004324,0.008858703635684494,-0.02210717120005064
0.7125,-0.0038808077250131186,-0.783888429999998,0.0016512783500052207,-2.358406575000007,-0.003891485800012911,1.5683871499999915,0.7873966600000045,0.039999984,0.04,-9.791325499999973,-0.05983865074830636,-0.058574192500164116,0.018898762250041376,0.009033595677514486,-0.022279031000048456
0.715,-0.003927335070012525,-0.783881115999998,0.0016697943200049844,-2.3584314300000067,-0.003937277920012327,1.5683575399999918,0.7874127040000043,0.039999984,0.04,-9.791228599999974,-0.060451299697325614,-0.059156263000156695,0.0190455017000395,0.00920848771934447,-0.022450890800046266
0.7175,-0.003974669835012555,-0.7838737009999981,0.0016886316550049963,-2.3584567150000066,-0.003983864050012356,1.5683274049999918,0.7874290250000043,0.039999984,0.04,-9.791142399999984,-0.06106305047885324,-0.059746365500155475,0.019193353450038492,0.009384901030035133,-0.022624002450045044
0.72,-0.0040236194400119305,-0.7838660839999981,0.0017081117200047479,-2.3584828600000063,-0.0040320382000117415,1.5682962199999924,0.7874459000000041,0.039999984,0.04,-9.791077599999985,-0.06167300492539965,-0.06035253200014774,0.01934342980003658,0.009564356878443559,-0.022799617800042804
0.7225,-0.004072569045011309,-0.7838584669999983,0.0017275917850045003,-2.358509005000006,-0.004080212350011129,1.5682650349999927,0.7874627750000038,0.039999984,0.04,-9.791012799999985,-0.06228295937194608,-0.06095869850014004,0.019493506150034673,0.009743812726851993,-0.02297523315004057
0.725,-0.004121518650010684,-0.7838508499999983,0.0017470718500042519,-2.3585351500000056,-0.004128386500010515,1.568233849999993,0.7874796500000036,0.039999984,0.04,-9.790947999999986,-0.06289291381849248,-0.061564865000132314,0.019643582500032758,0.00992326857526042,-0.023150848500038332
0.7275,-0.004170468255010063,-0.7838432329999984,0.0017665519150040043,-2.358561295000005,-0.004176560650009903,1.5682026649999936,0.7874965250000034,0.039999984,0.04,-9.790883199999987,-0.06350286826503891,-0.06217103150012461,0.01979365885003085,0.010102724423668854,-0.0233264638500361
0.73,-0.004219417860009438,-0.7838356159999985,0.0017860319800037559,-2.358587440000005,-0.004224734800009289,1.568171479999994,0.7875134000000032,0.039999984,0.04,-9.790818399999988,-0.06411282271158532,-0.06277719800011687,0.019943735200028935,0.010282180272077281,-0.02350207920003386
0.7325,-0.004268367465008816,-0.7838279989999986,0.0018055120450035083,-2.3586135850000045,-0.0042729089500086765,1.5681402949999943,0.7875302750000029,0.039999984,0.04,-9.790753599999988,-0.06472277715813175,-0.06338336450010917,0.02009381155002703,0.010461636120485715,-0.023677694550031627
0.735,-0.004318966360009541,-0.7838201609999985,0.0018256485000037969,-2.358640520000005,-0.00432270535000939,1.5681080699999939,0.7875477260000032,0.039999984,0.04,-9.790669499999982,-0.06537361443055206,-0.06401204700011873,0.020246031200028443,0.010643779579583993,-0.02385575150003326
0.7375,-0.004370389900010291,-0.7838122124999984,0.001846113150004095,-2.3586678500000056,-0.004373312875010128,1.5680753249999935,0.7875654650000035,0.039999984,0.04,-9.79057574999998,-0.0660448931158932,-0.06465198750012806,0.020399322500030674,0.010827266844026143,-0.024035029250035873
0.74,-0.004421813440011037,-0.7838042639999983,0.0018665778000043925,-2.358695180000006,-0.0044239204000108626,1.5680425799999929,0.7875832040000038,0.039999984,0.04,-9.79048199999998,-0.0667161718012343,-0.06529192800013736,0.020552613800032902,0.011010754108468284,-0.02421430700003848
0.7425,-0.004473236980011787,-0.7837963154999982,0.0018870424500046906,-2.3587225100000064,-0.0044745279250116,1.5680098349999925,0.787600943000004,0.039999984,0.04,-9.79038824999998,-0.06738745048657543,-0.06593186850014669,0.020705905100035137,0.011194241372910432,-0.02439358475004109
0.745,-0.004524660520012534,-0.7837883669999981,0.001907507100004988,-2.358749840000007,-0.004525135450012335,1.567977089999992,0.7876186820000043,0.039999984,0.04,-9.790294499999979,-0.06805872917191653,-0.06657180900015598,0.020859196400037364,0.011377728637352574,-0.0245728625000437
0.7475,-0.004576084060013284,-0.783780418499998,0.0019279717500052863,-2.3587771700000073,-0.004575742975013073,1.5679443449999915,0.7876364210000045,0.039999984,0.04,-9.790200749999977,-0.06873000785725766,-0.06721174950016531,0.0210124877000396,0.011561215901794724,-0.024752140250046312
0.75,-0.004627507600014719,-0.7837724699999978,0.0019484364000058579,-2.358804500000008,-0.004626350500014486,1.5679115999999906,0.7876541600000051,0.039999984,0.04,-9.790106999999981,-0.06940128654259799,-0.06785169000018162,0.021165779000042687,0.01174470316623816,-0.024931418000049888
0.7525000000000001,-0.004681455310014769,-0.7837641944999978,0.001969905720005878,-2.358833105000008,-0.0046794421000145355,1.5678772349999905,0.787672757000005,0.039999984,0.04,-9.790036799999982,-0.07006970308739364,-0.06851731410018225,0.02132222945004283,0.011932939617014787,-0.02511425975005006
0.755,-0.004735403020014817,-0.7837559189999977,0.001991375040005897,-2.3588617100000078,-0.0047325337000145825,1.5678428699999905,0.7876913540000051,0.039999984,0.04,-9.789966599999982,-0.07073811963218928,-0.06918293820018283,0.02147867990004297,0.012121176067791404,-0.025297101500050222
0.7575000000000001,-0.0047893507300148675,-0.7837476434999977,0.002012844360005917,-2.358890315000008,-0.004785625300014632,1.5678085049999906,0.7877099510000052,0.039999984,0.04,-9.78989639999998,-0.07140653617698493,-0.06984856230018345,0.02163513035004312,0.01230941251856803,-0.02547994325005039
0.76,-0.004843298440014915,-0.7837393679999977,0.002034313680005936,-2.358918920000008,-0.00483871690001468,1.5677741399999905,0.7877285480000051,0.039999984,0.04,-9.78982619999998,-0.07207495272178056,-0.07051418640018405,0.021791580800043255,0.012497648969344646,-0.025662785000050554
0.7625000000000001,-0.004897246150014966,-0.7837310924999977,0.002055783000005956,-2.358947525000008,-0.004891808500014729,1.5677397749999906,0.7877471450000052,0.039999984,0.04,-9.789755999999981,-0.07274336926657624,-0.07117981050018467,0.021948031250043402,0.012685885420121272,-0.025845626750050723
0.765,-0.004951193860015014,-0.7837228169999977,0.002077252320005975,-2.358976130000008,-0.004944900100014776,1.5677054099999905,0.7877657420000052,0.039999984,0.04,-9.78968579999998,-0.07341178581137187,-0.07184543460018526,0.022104481700043543,0.012874121870897889,-0.026028468500050885
0.7675000000000001,-0.005005999300015783,-0.7837144169999976,0.0020990630400062812,-2.359005180000008,-0.004998835900015533,1.56767049999999,0.7877846380000054,0.03999998365,0.03999999975,-9.789613949999978,-0.07409587167223404,-0.07252262410019557,0.02226198555004457,0.013063658261725253,-0.026212510250052064
0.77,-0.005062520200015833,-0.7837057679999976,0.0021215565600063014,-2.359035120000008,-0.005054460100015583,1.56763449999999,0.7878041320000054,0.039999982600000004,0.039999999,-9.789538799999978,-0.07481129616518986,-0.0732229444001962,0.022421596200044712,0.013255794532650824,-0.02639895200005223
0.7725,-0.005119041100015883,-0.7836971189999975,0.0021440500800063212,-2.3590650600000083,-0.005110084300015632,1.56759849999999,0.7878236260000054,0.03999998155,0.03999999825,-9.789463649999979,-0.0755267206581457,-0.0739232647001968,0.022581206850044853,0.013447930803576395,-0.026585393750052394
0.775,-0.005175562000015936,-0.7836884699999975,0.0021665436000063423,-2.3590950000000084,-0.005165708500015684,1.56756249999999,0.7878431200000056,0.0399999805,0.0399999975,-9.789388499999978,-0.07624214515110156,-0.07462358500019746,0.022740817500045002,0.013640067074501973,-0.02677183550005257
0.7775,-0.005232082900015986,-0.7836798209999976,0.002189037120006362,-2.3591249400000085,-0.005221332700015733,1.5675264999999898,0.7878626140000056,0.03999997945,0.03999999675,-9.789313349999977,-0.0769575696440574,-0.07532390530019809,0.022900428150045143,0.013832203345427544,-0.026958277250052735
0.78,-0.005288603800016039,-0.7836711719999975,0.002211530640006383,-2.3591548800000086,-0.005276956900015785,1.56749049999999,0.7878821080000056,0.0399999784,0.039999996,-9.789238199999978,-0.07767299413701326,-0.07602422560019874,0.023060038800045292,0.014024339616353123,-0.027144719000052907
0.7825,-0.005345124700016089,-0.7836625229999975,0.0022340241600064033,-2.3591848200000087,-0.0053325811000158345,1.5674544999999898,0.7879016020000056,0.03999997735,0.03999999525,-9.789163049999978,-0.07838841862996909,-0.07672454590019936,0.023219649450045433,0.014216475887278692,-0.027331160750053075
0.785,-0.005403393140016891,-0.7836536489999975,0.0022572132000067222,-2.359215660000009,-0.005389924980016623,1.5674173699999894,0.7879216940000058,0.039999977,0.039999995,-9.789073599999972,-0.07913551032564964,-0.07744863240021019,0.02338128430004645,0.014411275740768822,-0.027519767000054176
0.7875,-0.0054625353500169435,-0.7836446624999974,0.002280750000006743,-2.359246950000009,-0.005448128700016675,1.5673796749999893,0.7879420850000058,0.039999977,0.039999995,-9.788976999999973,-0.07989843562267218,-0.07818460200021085,0.023543931250046595,0.014607407385539513,-0.027709455500054343
0.79,-0.005521677560016998,-0.7836356759999974,0.002304286800006765,-2.359278240000009,-0.005506332420016729,1.5673419799999893,0.7879624760000058,0.039999977,0.039999995,-9.788880399999972,-0.08066136091969478,-0.07892057160021153,0.023706578200046746,0.01480353903031021,-0.02789914400005452
0.7925,-0.005580819770017051,-0.7836266894999975,0.0023278236000067857,-2.3593095300000093,-0.00556453614001678,1.5673042849999892,0.7879828670000059,0.039999977,0.039999995,-9.788783799999973,-0.08142428621671732,-0.07965654120021219,0.023869225150046892,0.014999670675080899,-0.02808883250005469
0.795,-0.005639961980017106,-0.7836177029999974,0.002351360400006808,-2.359340820000009,-0.0056227398600168345,1.5672665899999891,0.7880032580000058,0.039999977,0.039999995,-9.788687199999972,-0.08218721151373992,-0.08039251080021287,0.024031872100047043,0.015195802319851598,-0.028278521000054867
0.7975,-0.005699104190017158,-0.7836087164999974,0.0023748972000068288,-2.359372110000009,-0.005680943580016886,1.567228894999989,0.7880236490000059,0.039999977,0.039999995,-9.788590599999972,-0.08295013681076246,-0.08112848040021353,0.024194519050047186,0.015391933964622287,-0.028468209500055033
0.8,-0.00575824640001799,-0.7835997299999974,0.0023984340000071597,-2.3594034000000095,-0.005739147300017704,1.5671911999999883,0.7880440400000062,0.039999977,0.039999995,-9.788493999999984,-0.08371306210778436,-0.08186445000022144,0.024357166000048194,0.015588065609394122,-0.028657898000056168
0.8025,-0.005820056540018045,-0.7835903954999973,0.0024230328000071815,-2.3594361600000098,-0.005799975855017759,1.5671518549999883,0.7880653535000062,0.039999977,0.039999995,-9.788437899999984,-0.0844735722991064,-0.08262524850022211,0.024522754450048343,0.015788105875312066,-0.02885087270005634
0.805,-0.005881866680018103,-0.7835810609999972,0.0024476316000072045,-2.3594689200000096,-0.005860804410017815,1.5671125099999883,0.7880866670000062,0.039999977,0.039999995,-9.788381799999984,-0.08523408249042849,-0.08338604700022283,0.024688342900048496,0.015988146141230015,-0.02904384740005652
0.8075,-0.005943676820018158,-0.7835717264999973,0.0024722304000072263,-2.35950168000001,-0.005921632965017869,1.5670731649999883,0.7881079805000063,0.039999977,0.039999995,-9.788325699999984,-0.08599459268175054,-0.0841468455002235,0.024853931350048642,0.016188186407147958,-0.02923682210005669
0.81,-0.006005486960018215,-0.7835623919999972,0.0024968292000072494,-2.35953444000001,-0.005982461520017926,1.5670338199999883,0.7881292940000063,0.039999977,0.039999995,-9.788269599999984,-0.08675510287307263,-0.08490764400022421,0.0250195198000488,0.01638822667306591,-0.02942979680005687
0.8125,-0.00606729710001827,-0.7835530574999973,0.002521428000007271,-2.35956720000001,-0.00604329007501798,1.5669944749999882,0.7881506075000063,0.039999977,0.039999995,-9.788213499999983,-0.08751561306439468,-0.08566844250022489,0.025185108250048945,0.016588266938983853,-0.029622771500057044
0.8150000000000001,-0.006129107240018327,-0.7835437229999972,0.002546026800007294,-2.35959996000001,-0.006104118630018036,1.5669551299999882,0.7881719210000063,0.039999977,0.039999995,-9.788157399999983,-0.08827612325571677,-0.08642924100022559,0.0253506967000491,0.016788307204901806,-0.02981574620005722
0.8175,-0.006191821815019189,-0.7835342649999971,0.002570985590007637,-2.3596331850000105,-0.006165836670018884,1.5669152149999876,0.7881935435000067,0.03999997715,0.039999995,-9.788090749999974,-0.08905891627097894,-0.08720288800023773,0.02551725205005011,0.01698952112352933,-0.030009743200058305
0.8200000000000001,-0.00625634526001925,-0.7835245599999971,0.002596664360007661,-2.3596673400000103,-0.006229333680018944,1.5668741599999878,0.7882157840000067,0.0399999776,0.039999995,-9.788002999999973,-0.08988627493406182,-0.08800223200023848,0.025685741200050266,0.01719308234757289,-0.030205784800058488
0.8225,-0.006320868705019307,-0.7835148549999971,0.002622343130007684,-2.3597014950000106,-0.006292830690019,1.5668331049999877,0.7882380245000067,0.039999978049999996,0.039999995,-9.787915249999973,-0.09071363359714466,-0.08880157600023919,0.025854230350050415,0.01739664357161644,-0.030401826400058663
0.8250000000000001,-0.006385392150019368,-0.7835051499999971,0.0026480219000077077,-2.3597356500000104,-0.006356327700019059,1.5667920499999877,0.7882602650000067,0.0399999785,0.039999995,-9.787827499999974,-0.09154099226022754,-0.08960092000023993,0.026022719500050574,0.01760020479566,-0.030597868000058846
0.8275,-0.006449915595019425,-0.783495444999997,0.0026737006700077305,-2.3597698050000107,-0.006419824710019116,1.5667509949999876,0.7882825055000067,0.03999997895,0.039999995,-9.787739749999973,-0.09236835092331039,-0.09040026400024063,0.026191208650050722,0.017803766019703553,-0.03079390960005902
0.8300000000000001,-0.006514439040019485,-0.783485739999997,0.0026993794400077546,-2.3598039600000105,-0.006483321720019175,1.5667099399999875,0.7883047460000067,0.039999979399999996,0.039999995,-9.787651999999973,-0.09319570958639325,-0.09119960800024139,0.02635969780005088,0.018007327243747113,-0.030989951200059204
0.8325,-0.006578962485019543,-0.7834760349999971,0.0027250582100077775,-2.3598381150000103,-0.006546818730019231,1.5666688849999877,0.7883269865000068,0.03999997985,0.039999995,-9.787564249999974,-0.09402306824947611,-0.09199895200024209,0.02652818695005103,0.018210888467790665,-0.031185992800059376
0.835,-0.006645324470020438,-0.7834660559999969,0.0027514687600081337,-2.359873190000011,-0.006612125760020112,1.566626649999987,0.788349870000007,0.03999998,0.0399999955,-9.787501299999985,-0.09485019147421199,-0.09281941750025242,0.026698574600052045,0.018416956439677196,-0.031384265000060564
